liuyurong129/humanoid-gym/humanoid/data/actual_q_20250521-001205.csv
timestamp,joint_1,joint_2,joint_3,joint_4,joint_5,joint_6
5.030632019042969e-05,0.00019073777366429567,0.17414358258247375,-0.0871671661734581,-0.00019073777366429567,0.00019073777366429567,0.00019073777366429567
0.02019047737121582,-0.00019073777366429567,0.15506981313228607,-0.07953765243291855,-0.00019073777366429567,-0.00019073777366429567,0.00019073777366429567
0.040235280990600586,-0.00019073777366429567,0.12951095402240753,-0.06733043491840363,-0.00019073777366429567,0.0009536888683214784,0.00019073777366429567
0.060298919677734375,-0.00019073777366429567,0.11348897218704224,-0.06084534898400307,-0.00019073777366429567,0.001716639962978661,0.00019073777366429567
0.08034253120422363,-0.00019073777366429567,0.11234454810619354,-0.061226826161146164,-0.00019073777366429567,0.000572213320992887,0.00019073777366429567
0.10055923461914062,0.00019073777366429567,0.11348897218704224,-0.06084534898400307,-0.00019073777366429567,0.000572213320992887,0.00019073777366429567
0.12072300910949707,0.00019073777366429567,0.11387044936418533,-0.05893797054886818,-0.00019073777366429567,0.000572213320992887,0.00019073777366429567
0.14077162742614746,0.000572213320992887,0.11310750246047974,-0.056267641484737396,-0.00019073777366429567,0.000572213320992887,0.00019073777366429567
0.16092896461486816,0.000572213320992887,0.11234454810619354,-0.0555046908557415,0.00019073777366429567,0.000572213320992887,0.000572213320992887
0.1810147762298584,0.000572213320992887,0.11158160120248795,-0.054741740226745605,0.00019073777366429567,0.000572213320992887,0.000572213320992887
0.20116496086120605,0.000572213320992887,0.11081864684820175,-0.05436026677489281,0.00019073777366429567,0.000572213320992887,0.000572213320992887
0.22118186950683594,0.000572213320992887,0.10891126841306686,-0.05359731614589691,0.00019073777366429567,0.000572213320992887,0.000572213320992887
0.2413935661315918,0.000572213320992887,0.10852979123592377,-0.05207141116261482,0.000572213320992887,0.000572213320992887,0.000572213320992887
0.26145315170288086,0.0009536888683214784,0.10852979123592377,-0.05130846053361893,0.0009536888683214784,0.000572213320992887,0.000572213320992887
0.281512975692749,0.0009536888683214784,0.10776684433221817,-0.049782559275627136,0.0013351644156500697,0.0009536888683214784,0.000572213320992887
0.30164170265197754,0.0009536888683214784,0.10700388997793198,-0.048638131469488144,0.0020981156267225742,0.000572213320992887,0.000572213320992887
0.32169437408447266,0.001716639962978661,0.10585946589708328,-0.04749370738863945,0.002861066721379757,0.000572213320992887,0.000572213320992887
0.3417656421661377,0.001716639962978661,0.10547798871994019,-0.04711223021149635,0.0032425422687083483,0.000572213320992887,0.0009536888683214784
0.36182546615600586,0.001716639962978661,0.10471503436565399,-0.04596780240535736,0.0036240178160369396,0.000572213320992887,0.0009536888683214784
0.3819112777709961,0.0020981156267225742,0.1039520874619484,-0.04482337832450867,0.0036240178160369396,0.000572213320992887,0.0009536888683214784
0.4019958972930908,0.0020981156267225742,0.1031891331076622,-0.043678950518369675,0.004005493130534887,0.0009536888683214784,0.0009536888683214784
0.4221067428588867,0.0024795911740511656,0.1024261862039566,-0.04291599988937378,0.004386968910694122,0.0009536888683214784,0.0009536888683214784
0.4421236515045166,0.0024795911740511656,0.10166323184967041,-0.04177157208323479,0.00476844422519207,0.0009536888683214784,0.0009536888683214784
0.4621927738189697,0.0024795911740511656,0.10051880776882172,-0.04100862145423889,0.005149920005351305,0.0009536888683214784,0.0013351644156500697
0.4822509288787842,0.0024795911740511656,0.10051880776882172,-0.040245670825242996,0.005912871100008488,0.0009536888683214784,0.0013351644156500697
0.5024182796478271,0.0024795911740511656,0.09937438368797302,-0.039101243019104004,0.00667582219466567,0.0009536888683214784,0.0013351644156500697
0.5224828720092773,0.0024795911740511656,0.09861142933368683,-0.03795681521296501,0.007057297509163618,0.0009536888683214784,0.0013351644156500697
0.54256272315979,0.002861066721379757,0.09822995215654373,-0.03681239113211632,0.007438773289322853,0.0009536888683214784,0.001716639962978661
0.5626106262207031,0.002861066721379757,0.09746700525283813,-0.035667963325977325,0.007438773289322853,0.0009536888683214784,0.0020981156267225742
0.5827453136444092,0.002861066721379757,0.09670405089855194,-0.03490501269698143,0.007438773289322853,0.0009536888683214784,0.0020981156267225742
0.6028318405151367,0.002861066721379757,0.09594109654426575,-0.034142062067985535,0.0078202486038208,0.0009536888683214784,0.0024795911740511656
0.6228542327880859,0.002861066721379757,0.09517814964056015,-0.03337911143898964,0.008201723918318748,0.0009536888683214784,0.0032425422687083483
0.6429405212402344,0.002861066721379757,0.09441519528627396,-0.032616160809993744,0.00858320016413927,0.0009536888683214784,0.0036240178160369396
0.6630227565765381,0.0032425422687083483,0.09403372555971146,-0.03147173300385475,0.009346150793135166,0.0009536888683214784,0.0036240178160369396
0.6831352710723877,0.004005493130534887,0.09327077120542526,-0.02994582988321781,0.009727626107633114,0.0009536888683214784,0.0036240178160369396
0.703233003616333,0.004386968910694122,0.09212634712457657,-0.02841992862522602,0.010490577667951584,0.0009536888683214784,0.004005493130534887
0.723318338394165,0.00476844422519207,0.09136339277029037,-0.02727550081908703,0.010872052982449532,0.0009536888683214784,0.004005493130534887
0.7433879375457764,0.00476844422519207,0.09098191559314728,-0.026512550190091133,0.010872052982449532,0.0013351644156500697,0.004005493130534887
0.763542890548706,0.00476844422519207,0.09021896868944168,-0.02536812424659729,0.01125352829694748,0.0013351644156500697,0.004005493130534887
0.783663272857666,0.00476844422519207,0.08983749151229858,-0.024605173617601395,0.01125352829694748,0.0013351644156500697,0.004005493130534887
0.803727388381958,0.00476844422519207,0.08907453715801239,-0.024223696440458298,0.01125352829694748,0.0013351644156500697,0.004386968910694122
0.8237645626068115,0.00476844422519207,0.0883115902543068,-0.023079270496964455,0.011635004542768002,0.0013351644156500697,0.004386968910694122
0.8438575267791748,0.00476844422519207,0.0875486359000206,-0.02193484455347061,0.01201647985726595,0.0013351644156500697,0.004386968910694122
0.863919734954834,0.00476844422519207,0.086785688996315,-0.021171892061829567,0.012397955171763897,0.0013351644156500697,0.004386968910694122
0.8840024471282959,0.00476844422519207,0.08602273464202881,-0.020027466118335724,0.013542382046580315,0.0013351644156500697,0.00476844422519207
0.904233455657959,0.00476844422519207,0.08564125746488571,-0.01926451548933983,0.014686808921396732,0.001716639962978661,0.00476844422519207
0.9242100715637207,0.00476844422519207,0.08449683338403702,-0.018120087683200836,0.014686808921396732,0.001716639962978661,0.005149920005351305
0.9442555904388428,0.00476844422519207,0.08373387902975082,-0.01773861236870289,0.01506828423589468,0.001716639962978661,0.005149920005351305
0.9643077850341797,0.005149920005351305,0.08373387902975082,-0.016975661739706993,0.01506828423589468,0.001716639962978661,0.005149920005351305
0.9843995571136475,0.005149920005351305,0.08297093212604523,-0.01583123579621315,0.015449759550392628,0.001716639962978661,0.005149920005351305
1.0044777393341064,0.005912871100008488,0.08258945494890213,-0.01506828423589468,0.01583123579621315,0.001716639962978661,0.005149920005351305
1.0245587825775146,0.007057297509163618,0.08068207651376724,-0.013160906732082367,0.016975661739706993,0.0013351644156500697,0.005531395319849253
1.0446455478668213,0.007057297509163618,0.07991912961006165,-0.01125352829694748,0.018501564860343933,0.0020981156267225742,0.005531395319849253
1.0647413730621338,0.00667582219466567,0.07953765243291855,-0.010872052982449532,0.018501564860343933,0.0024795911740511656,0.006294346414506435
1.0847909450531006,0.007057297509163618,0.07877469807863235,-0.010109102353453636,0.01888304017484188,0.0024795911740511656,0.007057297509163618
1.1048939228057861,0.007057297509163618,0.07763027399778366,-0.008964675478637218,0.01888304017484188,0.0024795911740511656,0.0078202486038208
1.1249639987945557,0.007057297509163618,0.07724879682064056,-0.008201723918318748,0.01926451548933983,0.0024795911740511656,0.0078202486038208
1.1450488567352295,0.007057297509163618,0.07648584991693497,-0.007438773289322853,0.01926451548933983,0.0024795911740511656,0.008201723918318748
1.165079116821289,0.007057297509163618,0.07572289556264877,-0.00667582219466567,0.019645990803837776,0.0024795911740511656,0.008201723918318748
1.185157299041748,0.007057297509163618,0.07572289556264877,-0.005912871100008488,0.020027466118335724,0.0020981156267225742,0.008201723918318748
1.2052266597747803,0.007057297509163618,0.07495994865894318,-0.00476844422519207,0.02040894143283367,0.0020981156267225742,0.008201723918318748
1.22530198097229,0.007057297509163618,0.07457847148180008,-0.004386968910694122,0.021553369238972664,0.0020981156267225742,0.008201723918318748
1.2453672885894775,0.007057297509163618,0.07343403995037079,-0.0036240178160369396,0.02193484455347061,0.0024795911740511656,0.00858320016413927
1.2654709815979004,0.007438773289322853,0.07267109304666519,-0.0024795911740511656,0.02231631986796856,0.002861066721379757,0.00858320016413927
1.2855474948883057,0.0078202486038208,0.0722896158695221,-0.0020981156267225742,0.02231631986796856,0.0024795911740511656,0.00858320016413927
1.3055858612060547,0.0078202486038208,0.0715266615152359,-0.0009536888683214784,0.02231631986796856,0.002861066721379757,0.00858320016413927
1.3256750106811523,0.0078202486038208,0.07038223743438721,0.000572213320992887,0.022697795182466507,0.002861066721379757,0.008964675478637218
1.3461472988128662,0.008201723918318748,0.07000076025724411,0.0020981156267225742,0.023079270496964455,0.002861066721379757,0.009346150793135166
1.366182804107666,0.008201723918318748,0.06923781335353851,0.002861066721379757,0.023079270496964455,0.002861066721379757,0.009346150793135166
1.3862557411193848,0.008201723918318748,0.06847485899925232,0.0036240178160369396,0.02384222112596035,0.002861066721379757,0.009727626107633114
1.4063732624053955,0.00858320016413927,0.06771191209554672,0.005149920005351305,0.024223696440458298,0.002861066721379757,0.010109102353453636
1.4264390468597412,0.008964675478637218,0.06733043491840363,0.005531395319849253,0.024605173617601395,0.002861066721379757,0.010872052982449532
1.446537971496582,0.008964675478637218,0.06618601083755493,0.00667582219466567,0.02536812424659729,0.002861066721379757,0.01125352829694748
1.4666409492492676,0.008964675478637218,0.06580453366041183,0.007438773289322853,0.025749599561095238,0.0032425422687083483,0.011635004542768002
1.486738920211792,0.008964675478637218,0.06542305648326874,0.008201723918318748,0.026131074875593185,0.0032425422687083483,0.011635004542768002
1.5069289207458496,0.008964675478637218,0.06466010212898254,0.008964675478637218,0.026131074875593185,0.0032425422687083483,0.011635004542768002
1.5269176959991455,0.008964675478637218,0.06389715522527695,0.009727626107633114,0.026512550190091133,0.0032425422687083483,0.011635004542768002
1.5470714569091797,0.008964675478637218,0.06313420087099075,0.010490577667951584,0.026512550190091133,0.0032425422687083483,0.011635004542768002
1.5670909881591797,0.009346150793135166,0.06275273114442825,0.010872052982449532,0.026512550190091133,0.0032425422687083483,0.011635004542768002
1.5872046947479248,0.009346150793135166,0.06198977679014206,0.012397955171763897,0.02689402550458908,0.0032425422687083483,0.01201647985726595
1.6072771549224854,0.009727626107633114,0.06084534898400307,0.013160906732082367,0.02727550081908703,0.0032425422687083483,0.01201647985726595
1.6273541450500488,0.010109102353453636,0.06084534898400307,0.013542382046580315,0.027656977996230125,0.0036240178160369396,0.01201647985726595
1.6476433277130127,0.010109102353453636,0.05970092490315437,0.01430533267557621,0.028038453310728073,0.0032425422687083483,0.01201647985726595
1.6677491664886475,0.010109102353453636,0.05855649709701538,0.015449759550392628,0.02880140393972397,0.0036240178160369396,0.01201647985726595
1.687882423400879,0.010109102353453636,0.05855649709701538,0.01583123579621315,0.029564354568719864,0.0036240178160369396,0.01201647985726595
1.70798659324646,0.010109102353453636,0.057793546468019485,0.016594186425209045,0.029564354568719864,0.0032425422687083483,0.012397955171763897
1.7280666828155518,0.010109102353453636,0.05664911866188049,0.01735713705420494,0.02994582988321781,0.0032425422687083483,0.012397955171763897
1.7481505870819092,0.010109102353453636,0.0558861680328846,0.018501564860343933,0.02994582988321781,0.0036240178160369396,0.012397955171763897
1.7681879997253418,0.010490577667951584,0.0555046908557415,0.01926451548933983,0.03032730519771576,0.0036240178160369396,0.012397955171763897
1.7882716655731201,0.010872052982449532,0.054741740226745605,0.020027466118335724,0.030708782374858856,0.0036240178160369396,0.012397955171763897
1.8083581924438477,0.010872052982449532,0.05397878959774971,0.021171892061829567,0.031090257689356804,0.0036240178160369396,0.012397955171763897
1.8284409046173096,0.010872052982449532,0.05359731614589691,0.021553369238972664,0.03147173300385475,0.0036240178160369396,0.012397955171763897
1.8485596179962158,0.01125352829694748,0.053215838968753815,0.022697795182466507,0.032616160809993744,0.0036240178160369396,0.012779430486261845
1.868649959564209,0.01125352829694748,0.05207141116261482,0.023460745811462402,0.03299763426184654,0.0036240178160369396,0.012779430486261845
1.8887503147125244,0.01125352829694748,0.05130846053361893,0.024223696440458298,0.03337911143898964,0.004005493130534887,0.012779430486261845
1.9087846279144287,0.01201647985726595,0.05092698708176613,0.024605173617601395,0.03337911143898964,0.0036240178160369396,0.013160906732082367
1.9288625717163086,0.01201647985726595,0.05054550990462303,0.02536812424659729,0.03376058489084244,0.004005493130534887,0.013160906732082367
1.9489243030548096,0.01201647985726595,0.04940108209848404,0.025749599561095238,0.03376058489084244,0.004005493130534887,0.013160906732082367
1.9689841270446777,0.01201647985726595,0.04901960864663124,0.026512550190091133,0.03376058489084244,0.004386968910694122,0.013542382046580315
1.9892661571502686,0.01201647985726595,0.048638131469488144,0.02689402550458908,0.034142062067985535,0.004386968910694122,0.013542382046580315
2.0093822479248047,0.01201647985726595,0.048256658017635345,0.027656977996230125,0.034142062067985535,0.004386968910694122,0.013923857361078262
2.0294854640960693,0.01201647985726595,0.04749370738863945,0.029182879254221916,0.03452353551983833,0.004005493130534887,0.01430533267557621
2.0495412349700928,0.012397955171763897,0.046730753034353256,0.029564354568719864,0.03490501269698143,0.004386968910694122,0.014686808921396732
2.0696988105773926,0.012397955171763897,0.046730753034353256,0.02994582988321781,0.03528648987412453,0.004386968910694122,0.014686808921396732
2.089773178100586,0.012397955171763897,0.04596780240535736,0.031090257689356804,0.035667963325977325,0.004386968910694122,0.01506828423589468
2.10986065864563,0.012779430486261845,0.045204851776361465,0.03185320645570755,0.03643091395497322,0.004386968910694122,0.01506828423589468
2.1299197673797607,0.013160906732082367,0.04444190114736557,0.03223468363285065,0.037193864583969116,0.00476844422519207,0.01506828423589468
2.1501376628875732,0.013160906732082367,0.04406042397022247,0.03299763426184654,0.037193864583969116,0.00476844422519207,0.015449759550392628
2.1702215671539307,0.013160906732082367,0.04329747334122658,0.03376058489084244,0.03757534176111221,0.00476844422519207,0.015449759550392628
2.190295696258545,0.013160906732082367,0.04253452271223068,0.03490501269698143,0.03757534176111221,0.005149920005351305,0.015449759550392628
2.2104060649871826,0.013923857361078262,0.04139009863138199,0.035667963325977325,0.03795681521296501,0.00476844422519207,0.015449759550392628
2.2308366298675537,0.01430533267557621,0.04139009863138199,0.03643091395497322,0.03833829239010811,0.005149920005351305,0.015449759550392628
2.250962495803833,0.01430533267557621,0.040245670825242996,0.03757534176111221,0.038719769567251205,0.00476844422519207,0.01583123579621315
2.2710506916046143,0.01430533267557621,0.0398641936480999,0.03757534176111221,0.039101243019104004,0.005912871100008488,0.01583123579621315
2.2912135124206543,0.01430533267557621,0.0394827201962471,0.03833829239010811,0.040245670825242996,0.005912871100008488,0.01583123579621315
2.311659812927246,0.01430533267557621,0.039101243019104004,0.039101243019104004,0.04100862145423889,0.006294346414506435,0.016212711110711098
2.331743001937866,0.01430533267557621,0.03795681521296501,0.040245670825242996,0.04100862145423889,0.006294346414506435,0.016212711110711098
2.351794958114624,0.01430533267557621,0.037193864583969116,0.04139009863138199,0.04139009863138199,0.006294346414506435,0.016212711110711098
2.371866464614868,0.01430533267557621,0.03681239113211632,0.042153049260377884,0.04139009863138199,0.006294346414506435,0.016594186425209045
2.391930103302002,0.01430533267557621,0.03604944050312042,0.04253452271223068,0.04177157208323479,0.006294346414506435,0.016594186425209045
2.4120073318481445,0.014686808921396732,0.035667963325977325,0.043678950518369675,0.04177157208323479,0.006294346414506435,0.016975661739706993
2.4320857524871826,0.014686808921396732,0.03490501269698143,0.04406042397022247,0.042153049260377884,0.006294346414506435,0.016975661739706993
2.452169179916382,0.01506828423589468,0.034142062067985535,0.04558632895350456,0.04291599988937378,0.006294346414506435,0.01735713705420494
2.472315549850464,0.01506828423589468,0.03376058489084244,0.04634927958250046,0.043678950518369675,0.00667582219466567,0.01735713705420494
2.4923593997955322,0.01506828423589468,0.03299763426184654,0.046730753034353256,0.04444190114736557,0.00667582219466567,0.01773861236870289
2.512498140335083,0.01506828423589468,0.03223468363285065,0.04749370738863945,0.04482337832450867,0.00667582219466567,0.018501564860343933
2.532503128051758,0.01506828423589468,0.03185320645570755,0.048256658017635345,0.04482337832450867,0.00667582219466567,0.01888304017484188
2.552570343017578,0.01506828423589468,0.03147173300385475,0.048638131469488144,0.045204851776361465,0.00667582219466567,0.018501564860343933
2.5726230144500732,0.01506828423589468,0.030708782374858856,0.049782559275627136,0.045204851776361465,0.00667582219466567,0.01888304017484188
2.5927093029022217,0.015449759550392628,0.029564354568719864,0.05092698708176613,0.04558632895350456,0.00667582219466567,0.01888304017484188
2.6127769947052,0.01583123579621315,0.029182879254221916,0.051689937710762024,0.04596780240535736,0.00667582219466567,0.01888304017484188
2.6329643726348877,0.016212711110711098,0.02880140393972397,0.05207141116261482,0.046730753034353256,0.00667582219466567,0.01888304017484188
2.653001546859741,0.016212711110711098,0.028038453310728073,0.05245288833975792,0.04749370738863945,0.007057297509163618,0.01888304017484188
2.673166513442993,0.016212711110711098,0.027656977996230125,0.053215838968753815,0.04787518084049225,0.007438773289322853,0.01926451548933983
2.693173885345459,0.016212711110711098,0.02689402550458908,0.05397878959774971,0.048256658017635345,0.007057297509163618,0.01926451548933983
2.7132208347320557,0.016594186425209045,0.026512550190091133,0.054741740226745605,0.048638131469488144,0.007057297509163618,0.01926451548933983
2.733271598815918,0.016594186425209045,0.025749599561095238,0.0555046908557415,0.048638131469488144,0.007057297509163618,0.01926451548933983
2.7533605098724365,0.016975661739706993,0.024986648932099342,0.056267641484737396,0.04901960864663124,0.007057297509163618,0.01926451548933983
2.773423910140991,0.016975661739706993,0.024605173617601395,0.05703059583902359,0.04901960864663124,0.007057297509163618,0.01926451548933983
2.7934982776641846,0.016975661739706993,0.024605173617601395,0.05703059583902359,0.04901960864663124,0.007057297509163618,0.019645990803837776
2.813586711883545,0.016975661739706993,0.02384222112596035,0.057793546468019485,0.04940108209848404,0.007438773289322853,0.019645990803837776
2.8336851596832275,0.016975661739706993,0.022697795182466507,0.05893797054886818,0.049782559275627136,0.007438773289322853,0.019645990803837776
2.853776216506958,0.01735713705420494,0.02231631986796856,0.05970092490315437,0.050164032727479935,0.007438773289322853,0.019645990803837776
2.8739330768585205,0.01735713705420494,0.02231631986796856,0.06008239835500717,0.05130846053361893,0.007057297509163618,0.020027466118335724
2.893967866897583,0.01735713705420494,0.021553369238972664,0.06084534898400307,0.051689937710762024,0.007057297509163618,0.020027466118335724
2.9140052795410156,0.01735713705420494,0.02079041674733162,0.06160829961299896,0.051689937710762024,0.007438773289322853,0.020027466118335724
2.934075355529785,0.01735713705420494,0.02040894143283367,0.06198977679014206,0.05207141116261482,0.007438773289322853,0.020027466118335724
2.954144239425659,0.01735713705420494,0.020027466118335724,0.06237125024199486,0.05207141116261482,0.0078202486038208,0.020027466118335724
2.974296808242798,0.01773861236870289,0.01926451548933983,0.06313420087099075,0.05245288833975792,0.007438773289322853,0.020027466118335724
2.9943859577178955,0.018501564860343933,0.018501564860343933,0.06389715522527695,0.05245288833975792,0.007438773289322853,0.020027466118335724
3.0144553184509277,0.01926451548933983,0.018120087683200836,0.06504157930612564,0.05245288833975792,0.007057297509163618,0.02040894143283367
3.0345308780670166,0.01926451548933983,0.01773861236870289,0.06504157930612564,0.05283436179161072,0.0078202486038208,0.02040894143283367
3.054610013961792,0.01926451548933983,0.01735713705420494,0.06618601083755493,0.05283436179161072,0.008201723918318748,0.02040894143283367
3.0746893882751465,0.01926451548933983,0.016594186425209045,0.06694895774126053,0.053215838968753815,0.008201723918318748,0.02040894143283367
3.0947554111480713,0.01926451548933983,0.015449759550392628,0.06847485899925232,0.05359731614589691,0.008201723918318748,0.02040894143283367
3.1148321628570557,0.01926451548933983,0.015449759550392628,0.06847485899925232,0.05436026677489281,0.0078202486038208,0.02079041674733162
3.1348791122436523,0.01926451548933983,0.015449759550392628,0.06847485899925232,0.054741740226745605,0.0078202486038208,0.02079041674733162
3.1549644470214844,0.01926451548933983,0.01430533267557621,0.06923781335353851,0.0555046908557415,0.0078202486038208,0.021171892061829567
3.175048351287842,0.01926451548933983,0.013542382046580315,0.07000076025724411,0.0558861680328846,0.008201723918318748,0.021171892061829567
3.1952333450317383,0.01926451548933983,0.013160906732082367,0.0707637146115303,0.0558861680328846,0.008201723918318748,0.021171892061829567
3.215191602706909,0.01926451548933983,0.013160906732082367,0.0711451917886734,0.0558861680328846,0.008201723918318748,0.021553369238972664
3.235262870788574,0.01926451548933983,0.012397955171763897,0.071908138692379,0.056267641484737396,0.0078202486038208,0.021553369238972664
3.25539231300354,0.01926451548933983,0.01125352829694748,0.07267109304666519,0.056267641484737396,0.0078202486038208,0.02193484455347061
3.2754268646240234,0.019645990803837776,0.010872052982449532,0.07305257022380829,0.05664911866188049,0.008201723918318748,0.02193484455347061
3.2954893112182617,0.019645990803837776,0.010872052982449532,0.07343403995037079,0.05664911866188049,0.0078202486038208,0.02231631986796856
3.315538167953491,0.019645990803837776,0.010490577667951584,0.07381551712751389,0.05664911866188049,0.008201723918318748,0.02231631986796856
3.3356261253356934,0.02040894143283367,0.009727626107633114,0.07457847148180008,0.05703059583902359,0.008201723918318748,0.02231631986796856
3.3557040691375732,0.021171892061829567,0.008964675478637218,0.07572289556264877,0.05741206929087639,0.008201723918318748,0.022697795182466507
3.3757574558258057,0.021171892061829567,0.00858320016413927,0.07686731964349747,0.058175019919872284,0.008201723918318748,0.022697795182466507
3.395841598510742,0.021171892061829567,0.008201723918318748,0.07724879682064056,0.05893797054886818,0.008201723918318748,0.022697795182466507
3.415924549102783,0.021171892061829567,0.0078202486038208,0.07763027399778366,0.05893797054886818,0.00858320016413927,0.023079270496964455
3.435979127883911,0.021171892061829567,0.007057297509163618,0.07839322835206985,0.059319447726011276,0.008201723918318748,0.023079270496964455
3.4560656547546387,0.021171892061829567,0.006294346414506435,0.07915617525577545,0.059319447726011276,0.008201723918318748,0.023079270496964455
3.476104259490967,0.021171892061829567,0.005912871100008488,0.07991912961006165,0.05970092490315437,0.008201723918318748,0.023079270496964455
3.4961905479431152,0.021171892061829567,0.005531395319849253,0.08106355369091034,0.05970092490315437,0.008201723918318748,0.023460745811462402
3.51625657081604,0.021171892061829567,0.00476844422519207,0.08182650804519653,0.06008239835500717,0.008201723918318748,0.023460745811462402
3.536320924758911,0.021171892061829567,0.004005493130534887,0.08220797777175903,0.06008239835500717,0.00858320016413927,0.023460745811462402
3.5563721656799316,0.021171892061829567,0.0032425422687083483,0.08297093212604523,0.06046387553215027,0.00858320016413927,0.023460745811462402
3.5765585899353027,0.021171892061829567,0.002861066721379757,0.08335240930318832,0.06046387553215027,0.00858320016413927,0.023460745811462402
3.5965917110443115,0.021553369238972664,0.0024795911740511656,0.08411535620689392,0.06084534898400307,0.008201723918318748,0.023460745811462402
3.6166622638702393,0.021553369238972664,0.0020981156267225742,0.08411535620689392,0.06084534898400307,0.008201723918318748,0.02384222112596035
3.636702060699463,0.021553369238972664,0.0013351644156500697,0.08487831056118011,0.06160829961299896,0.00858320016413927,0.02384222112596035
3.6568403244018555,0.021553369238972664,0.000572213320992887,0.08564125746488571,0.06198977679014206,0.00858320016413927,0.02384222112596035
3.6768569946289062,0.021553369238972664,0.000572213320992887,0.08602273464202881,0.06275273114442825,0.00858320016413927,0.024223696440458298
3.6969237327575684,0.021553369238972664,-0.000572213320992887,0.086785688996315,0.06313420087099075,0.00858320016413927,0.024223696440458298
3.717115640640259,0.02193484455347061,-0.0013351644156500697,0.0879301130771637,0.06313420087099075,0.00858320016413927,0.024223696440458298
3.73720383644104,0.02231631986796856,-0.0013351644156500697,0.0883115902543068,0.06351567804813385,0.00858320016413927,0.024605173617601395
3.757289409637451,0.02231631986796856,-0.001716639962978661,0.08869306743144989,0.06389715522527695,0.00858320016413927,0.024986648932099342
3.7773597240448,0.02231631986796856,-0.0024795911740511656,0.08945601433515549,0.06389715522527695,0.00858320016413927,0.025749599561095238
3.7974538803100586,0.022697795182466507,-0.0036240178160369396,0.09021896868944168,0.06389715522527695,0.008964675478637218,0.02689402550458908
3.8175048828125,0.022697795182466507,-0.004005493130534887,0.09060044586658478,0.06427863240242004,0.009346150793135166,0.02689402550458908
3.837584972381592,0.022697795182466507,-0.004386968910694122,0.09098191559314728,0.06427863240242004,0.008964675478637218,0.02689402550458908
3.857637882232666,0.022697795182466507,-0.004386968910694122,0.09136339277029037,0.06466010212898254,0.008964675478637218,0.02689402550458908
3.8777403831481934,0.023079270496964455,-0.005149920005351305,0.09212634712457657,0.06504157930612564,0.00858320016413927,0.02727550081908703
3.8978450298309326,0.023460745811462402,-0.005912871100008488,0.09288929402828217,0.06580453366041183,0.008964675478637218,0.02727550081908703
3.917919874191284,0.023460745811462402,-0.006294346414506435,0.09365224838256836,0.06656748056411743,0.008964675478637218,0.02727550081908703
3.937981367111206,0.023460745811462402,-0.007438773289322853,0.09441519528627396,0.06694895774126053,0.009727626107633114,0.02727550081908703
3.958075523376465,0.023460745811462402,-0.0078202486038208,0.09517814964056015,0.06694895774126053,0.009727626107633114,0.02727550081908703
3.978137731552124,0.023460745811462402,-0.008201723918318748,0.09594109654426575,0.06733043491840363,0.009346150793135166,0.027656977996230125
3.9981894493103027,0.023460745811462402,-0.00858320016413927,0.09632257372140884,0.06733043491840363,0.009346150793135166,0.027656977996230125
4.018937110900879,0.02384222112596035,-0.008964675478637218,0.09708552807569504,0.06771191209554672,0.009346150793135166,0.027656977996230125
4.039024829864502,0.02384222112596035,-0.009727626107633114,0.09784847497940063,0.06809338182210922,0.009727626107633114,0.027656977996230125
4.059071063995361,0.024605173617601395,-0.010872052982449532,0.09861142933368683,0.06847485899925232,0.009346150793135166,0.027656977996230125
4.079133033752441,0.024605173617601395,-0.010872052982449532,0.09937438368797302,0.06885633617639542,0.010109102353453636,0.028038453310728073
4.099186420440674,0.024605173617601395,-0.011635004542768002,0.09937438368797302,0.06885633617639542,0.010109102353453636,0.028038453310728073
4.119263410568237,0.024605173617601395,-0.011635004542768002,0.10013733059167862,0.06961929053068161,0.010109102353453636,0.028038453310728073
4.13938045501709,0.024605173617601395,-0.01201647985726595,0.10090028494596481,0.07038223743438721,0.010109102353453636,0.028038453310728073
4.159466981887817,0.024605173617601395,-0.012779430486261845,0.10166323184967041,0.0707637146115303,0.009727626107633114,0.02841992862522602
4.179540157318115,0.024605173617601395,-0.013542382046580315,0.10204470902681351,0.0707637146115303,0.010109102353453636,0.02841992862522602
4.199632406234741,0.024986648932099342,-0.013923857361078262,0.1024261862039566,0.0711451917886734,0.010109102353453636,0.02880140393972397
4.219689846038818,0.024986648932099342,-0.01430533267557621,0.1028076633810997,0.0711451917886734,0.009727626107633114,0.02880140393972397
4.239758491516113,0.02536812424659729,-0.01506828423589468,0.1031891331076622,0.0711451917886734,0.009727626107633114,0.029182879254221916
4.2598066329956055,0.02536812424659729,-0.01583123579621315,0.1039520874619484,0.0715266615152359,0.010109102353453636,0.029564354568719864
4.279893398284912,0.02536812424659729,-0.016212711110711098,0.10471503436565399,0.0715266615152359,0.010109102353453636,0.02994582988321781
4.299973726272583,0.025749599561095238,-0.016212711110711098,0.10547798871994019,0.071908138692379,0.010109102353453636,0.02994582988321781
4.320089340209961,0.025749599561095238,-0.016594186425209045,0.10585946589708328,0.0722896158695221,0.010109102353453636,0.02994582988321781
4.340162038803101,0.025749599561095238,-0.01735713705420494,0.10624094307422638,0.07267109304666519,0.010109102353453636,0.03032730519771576
4.3603551387786865,0.025749599561095238,-0.018120087683200836,0.10662241280078888,0.07343403995037079,0.010109102353453636,0.03032730519771576
4.380431890487671,0.026131074875593185,-0.018501564860343933,0.10700388997793198,0.07419699430465698,0.010109102353453636,0.03032730519771576
4.40054178237915,0.026512550190091133,-0.01926451548933983,0.10776684433221817,0.07457847148180008,0.009727626107633114,0.03032730519771576
4.420562982559204,0.026512550190091133,-0.01926451548933983,0.10852979123592377,0.07495994865894318,0.010490577667951584,0.03032730519771576
4.440703392028809,0.026512550190091133,-0.020027466118335724,0.10891126841306686,0.07495994865894318,0.010490577667951584,0.03032730519771576
4.460791349411011,0.026512550190091133,-0.02079041674733162,0.11005569249391556,0.07534141838550568,0.010490577667951584,0.03032730519771576
4.480856657028198,0.026512550190091133,-0.021553369238972664,0.11043716967105865,0.07534141838550568,0.010490577667951584,0.03032730519771576
4.500971555709839,0.026512550190091133,-0.021553369238972664,0.11081864684820175,0.07534141838550568,0.010490577667951584,0.030708782374858856
4.520988702774048,0.026512550190091133,-0.02231631986796856,0.11120012402534485,0.07572289556264877,0.010490577667951584,0.030708782374858856
4.541152477264404,0.02689402550458908,-0.022697795182466507,0.11196307092905045,0.07610437273979187,0.010490577667951584,0.030708782374858856
4.561182737350464,0.02689402550458908,-0.023460745811462402,0.11272602528333664,0.07648584991693497,0.010490577667951584,0.030708782374858856
4.581240177154541,0.02689402550458908,-0.023460745811462402,0.11310750246047974,0.07686731964349747,0.010490577667951584,0.030708782374858856
4.6012890338897705,0.02727550081908703,-0.024223696440458298,0.11387044936418533,0.07763027399778366,0.010490577667951584,0.030708782374858856
4.6213860511779785,0.027656977996230125,-0.024605173617601395,0.11463340371847153,0.07801175117492676,0.010490577667951584,0.030708782374858856
4.641445159912109,0.027656977996230125,-0.02536812424659729,0.11539635062217712,0.07839322835206985,0.010490577667951584,0.031090257689356804
4.661603212356567,0.027656977996230125,-0.026131074875593185,0.11615930497646332,0.07839322835206985,0.010490577667951584,0.031090257689356804
4.681773662567139,0.027656977996230125,-0.026512550190091133,0.11654078215360641,0.07877469807863235,0.010490577667951584,0.031090257689356804
4.701754808425903,0.027656977996230125,-0.026512550190091133,0.11692225188016891,0.07877469807863235,0.010490577667951584,0.031090257689356804
4.721871614456177,0.028038453310728073,-0.027656977996230125,0.11730372905731201,0.07877469807863235,0.010490577667951584,0.031090257689356804
4.74194598197937,0.02841992862522602,-0.02841992862522602,0.1184481605887413,0.07915617525577545,0.010490577667951584,0.03147173300385475
4.761993885040283,0.02880140393972397,-0.02841992862522602,0.1188296303153038,0.07915617525577545,0.010872052982449532,0.03147173300385475
4.782162666320801,0.02880140393972397,-0.02880140393972397,0.1188296303153038,0.07915617525577545,0.010872052982449532,0.03147173300385475
4.80225944519043,0.02880140393972397,-0.029564354568719864,0.1192111074924469,0.07953765243291855,0.01125352829694748,0.03147173300385475
4.822346210479736,0.02880140393972397,-0.02994582988321781,0.1199740618467331,0.07953765243291855,0.010872052982449532,0.03147173300385475
4.842425346374512,0.02880140393972397,-0.030708782374858856,0.1203555315732956,0.07991912961006165,0.010872052982449532,0.03185320645570755
4.862483978271484,0.02880140393972397,-0.030708782374858856,0.12073700875043869,0.08030059933662415,0.010872052982449532,0.03185320645570755
4.882603883743286,0.02880140393972397,-0.03185320645570755,0.12111848592758179,0.08106355369091034,0.010872052982449532,0.03185320645570755
4.902731657028198,0.02880140393972397,-0.03185320645570755,0.12149996310472488,0.08182650804519653,0.010872052982449532,0.03223468363285065
4.92280387878418,0.02880140393972397,-0.03223468363285065,0.12226291000843048,0.08182650804519653,0.010872052982449532,0.03223468363285065
4.942833423614502,0.02880140393972397,-0.032616160809993744,0.12302586436271667,0.08220797777175903,0.01125352829694748,0.03223468363285065
4.962921142578125,0.029182879254221916,-0.03376058489084244,0.12378881871700287,0.08220797777175903,0.010872052982449532,0.032616160809993744
4.9829936027526855,0.029564354568719864,-0.034142062067985535,0.12455176562070847,0.08258945494890213,0.010872052982449532,0.03299763426184654
5.00309944152832,0.029564354568719864,-0.034142062067985535,0.12455176562070847,0.08258945494890213,0.010872052982449532,0.03376058489084244
5.0231828689575195,0.029564354568719864,-0.03490501269698143,0.12531471252441406,0.08297093212604523,0.010872052982449532,0.034142062067985535
5.0432963371276855,0.029564354568719864,-0.03604944050312042,0.12569619715213776,0.08335240930318832,0.01125352829694748,0.034142062067985535
5.063381671905518,0.029564354568719864,-0.03643091395497322,0.12684062123298645,0.08373387902975082,0.01125352829694748,0.034142062067985535
5.083454608917236,0.029564354568719864,-0.03681239113211632,0.12684062123298645,0.08411535620689392,0.01125352829694748,0.03452353551983833
5.103489875793457,0.029564354568719864,-0.037193864583969116,0.12760357558727264,0.08487831056118011,0.010872052982449532,0.03452353551983833
5.123587369918823,0.02994582988321781,-0.03795681521296501,0.12836651504039764,0.08564125746488571,0.010872052982449532,0.03452353551983833
5.1436448097229,0.02994582988321781,-0.038719769567251205,0.12912946939468384,0.08564125746488571,0.01125352829694748,0.03452353551983833
5.163710594177246,0.02994582988321781,-0.039101243019104004,0.12951095402240753,0.08564125746488571,0.01125352829694748,0.03452353551983833
5.183754205703735,0.03032730519771576,-0.039101243019104004,0.12951095402240753,0.08564125746488571,0.010872052982449532,0.03490501269698143
5.203843832015991,0.031090257689356804,-0.0398641936480999,0.13065537810325623,0.08602273464202881,0.010872052982449532,0.03490501269698143
5.223999738693237,0.031090257689356804,-0.040245670825242996,0.13141833245754242,0.08602273464202881,0.01125352829694748,0.03490501269698143
5.244022846221924,0.031090257689356804,-0.04100862145423889,0.13218127191066742,0.08602273464202881,0.011635004542768002,0.03490501269698143
5.264264106750488,0.031090257689356804,-0.04100862145423889,0.1325627565383911,0.0864042118191719,0.01125352829694748,0.03490501269698143
5.284348487854004,0.031090257689356804,-0.042153049260377884,0.1333257108926773,0.0864042118191719,0.01125352829694748,0.03528648987412453
5.304471015930176,0.03147173300385475,-0.04291599988937378,0.1337071806192398,0.086785688996315,0.01125352829694748,0.03528648987412453
5.324498414993286,0.03147173300385475,-0.04329747334122658,0.1337071806192398,0.086785688996315,0.01125352829694748,0.03528648987412453
5.344811201095581,0.03147173300385475,-0.043678950518369675,0.1340886503458023,0.0871671661734581,0.01125352829694748,0.03528648987412453
5.364892244338989,0.03147173300385475,-0.04444190114736557,0.1348516047000885,0.0875486359000206,0.01125352829694748,0.03528648987412453
5.384958744049072,0.03185320645570755,-0.045204851776361465,0.1356145590543747,0.0879301130771637,0.011635004542768002,0.035667963325977325
5.405031204223633,0.03185320645570755,-0.045204851776361465,0.1356145590543747,0.08869306743144989,0.011635004542768002,0.035667963325977325
5.425093650817871,0.03185320645570755,-0.04596780240535736,0.1363775134086609,0.08907453715801239,0.01125352829694748,0.03604944050312042
5.4452064037323,0.03185320645570755,-0.04634927958250046,0.13752193748950958,0.08945601433515549,0.01125352829694748,0.03643091395497322
5.465289831161499,0.03185320645570755,-0.04749370738863945,0.13790340721607208,0.08983749151229858,0.01125352829694748,0.037193864583969116
5.485339164733887,0.03185320645570755,-0.04749370738863945,0.13866636157035828,0.08983749151229858,0.011635004542768002,0.03757534176111221
5.505398511886597,0.03185320645570755,-0.04787518084049225,0.13904783129692078,0.09021896868944168,0.011635004542768002,0.03757534176111221
5.525479078292847,0.03223468363285065,-0.048256658017635345,0.13981078565120697,0.09060044586658478,0.011635004542768002,0.03757534176111221
5.54554557800293,0.03223468363285065,-0.048638131469488144,0.14019227027893066,0.09098191559314728,0.011635004542768002,0.03757534176111221
5.565619945526123,0.03299763426184654,-0.04940108209848404,0.14095520973205566,0.09136339277029037,0.01125352829694748,0.03795681521296501
5.585686445236206,0.03299763426184654,-0.050164032727479935,0.14133669435977936,0.09212634712457657,0.011635004542768002,0.03795681521296501
5.605822563171387,0.03337911143898964,-0.05054550990462303,0.14209964871406555,0.09250781685113907,0.011635004542768002,0.03795681521296501
5.625878095626831,0.03376058489084244,-0.05130846053361893,0.14324407279491425,0.09288929402828217,0.011635004542768002,0.03795681521296501
5.6459434032440186,0.03376058489084244,-0.051689937710762024,0.14324407279491425,0.09327077120542526,0.01201647985726595,0.03795681521296501
5.666050910949707,0.03376058489084244,-0.05245288833975792,0.14362554252147675,0.09327077120542526,0.011635004542768002,0.03833829239010811
5.686131954193115,0.03376058489084244,-0.05283436179161072,0.14400701224803925,0.09365224838256836,0.011635004542768002,0.03833829239010811
5.7061827182769775,0.03376058489084244,-0.05359731614589691,0.14515145123004913,0.09365224838256836,0.011635004542768002,0.03795681521296501
5.726290225982666,0.03376058489084244,-0.05397878959774971,0.14553292095661163,0.09403372555971146,0.01201647985726595,0.03795681521296501
5.746304512023926,0.03376058489084244,-0.05436026677489281,0.14591439068317413,0.09403372555971146,0.011635004542768002,0.03833829239010811
5.766386985778809,0.03376058489084244,-0.0551232174038887,0.14705882966518402,0.09441519528627396,0.011635004542768002,0.03833829239010811
5.786529064178467,0.034142062067985535,-0.0555046908557415,0.14782176911830902,0.09441519528627396,0.011635004542768002,0.03833829239010811
5.80665397644043,0.034142062067985535,-0.0555046908557415,0.14820325374603271,0.09517814964056015,0.011635004542768002,0.03833829239010811
5.826770067214966,0.034142062067985535,-0.056267641484737396,0.14820325374603271,0.09594109654426575,0.011635004542768002,0.03833829239010811
5.847196340560913,0.034142062067985535,-0.05703059583902359,0.1493476778268814,0.09708552807569504,0.011635004542768002,0.038719769567251205
5.867311716079712,0.03452353551983833,-0.058175019919872284,0.1501106321811676,0.09708552807569504,0.011635004542768002,0.038719769567251205
5.887366056442261,0.035667963325977325,-0.05893797054886818,0.1504921019077301,0.09746700525283813,0.011635004542768002,0.038719769567251205
5.907413482666016,0.03604944050312042,-0.059319447726011276,0.1504921019077301,0.09784847497940063,0.011635004542768002,0.038719769567251205
5.927538633346558,0.03604944050312042,-0.06008239835500717,0.1512550562620163,0.09784847497940063,0.011635004542768002,0.038719769567251205
5.947667121887207,0.03604944050312042,-0.06084534898400307,0.152399480342865,0.09822995215654373,0.012397955171763897,0.038719769567251205
5.967700719833374,0.03604944050312042,-0.061226826161146164,0.1527809500694275,0.09861142933368683,0.012397955171763897,0.039101243019104004
5.98796272277832,0.03604944050312042,-0.06160829961299896,0.15354390442371368,0.09937438368797302,0.01201647985726595,0.039101243019104004
6.00898814201355,0.03604944050312042,-0.06160829961299896,0.15430685877799988,0.10013733059167862,0.011635004542768002,0.039101243019104004
6.029044151306152,0.03604944050312042,-0.06237125024199486,0.15468832850456238,0.10090028494596481,0.01201647985726595,0.039101243019104004
6.049129009246826,0.03604944050312042,-0.06313420087099075,0.15545128285884857,0.10090028494596481,0.01201647985726595,0.039101243019104004
6.069214820861816,0.03604944050312042,-0.06389715522527695,0.15583276748657227,0.10090028494596481,0.012397955171763897,0.0394827201962471
6.089255332946777,0.03604944050312042,-0.06427863240242004,0.15621423721313477,0.10128175467252731,0.012397955171763897,0.0394827201962471
6.109381437301636,0.03604944050312042,-0.06466010212898254,0.15659570693969727,0.10128175467252731,0.012397955171763897,0.0394827201962471
6.129408121109009,0.03604944050312042,-0.06504157930612564,0.15774014592170715,0.10128175467252731,0.01201647985726595,0.0398641936480999
6.149535417556763,0.03643091395497322,-0.06580453366041183,0.15812161564826965,0.10166323184967041,0.01201647985726595,0.0398641936480999
6.169577121734619,0.03643091395497322,-0.06618601083755493,0.15888457000255585,0.10166323184967041,0.012397955171763897,0.040245670825242996
6.189720153808594,0.03681239113211632,-0.06694895774126053,0.15964750945568085,0.10204470902681351,0.01201647985726595,0.040627144277095795
6.209799528121948,0.037193864583969116,-0.06771191209554672,0.16041046380996704,0.1024261862039566,0.012397955171763897,0.04100862145423889
6.229873180389404,0.037193864583969116,-0.06809338182210922,0.16079194843769073,0.1031891331076622,0.012779430486261845,0.04100862145423889
6.249937057495117,0.037193864583969116,-0.06885633617639542,0.16155488789081573,0.1039520874619484,0.012397955171763897,0.04139009863138199
6.270003795623779,0.037193864583969116,-0.06923781335353851,0.16231784224510193,0.1039520874619484,0.012397955171763897,0.04177157208323479
6.290098428726196,0.037193864583969116,-0.07000076025724411,0.16308079659938812,0.10433356463909149,0.012397955171763897,0.04177157208323479
6.310149669647217,0.03757534176111221,-0.07000076025724411,0.16346226632595062,0.10471503436565399,0.012397955171763897,0.04177157208323479
6.330212831497192,0.03795681521296501,-0.07038223743438721,0.16384375095367432,0.10471503436565399,0.012397955171763897,0.04177157208323479
6.350261688232422,0.03795681521296501,-0.0711451917886734,0.1646067053079605,0.10471503436565399,0.012779430486261845,0.04177157208323479
6.370410680770874,0.03795681521296501,-0.071908138692379,0.164988175034523,0.10509651154279709,0.013160906732082367,0.04177157208323479
6.390455961227417,0.03795681521296501,-0.0722896158695221,0.1653696447610855,0.10509651154279709,0.013542382046580315,0.04177157208323479
6.410524845123291,0.03795681521296501,-0.0722896158695221,0.1657511293888092,0.10547798871994019,0.013160906732082367,0.042153049260377884
6.430588245391846,0.03795681521296501,-0.07305257022380829,0.1665140837430954,0.10547798871994019,0.013160906732082367,0.042153049260377884
6.450740098953247,0.03833829239010811,-0.07419699430465698,0.1672770231962204,0.10585946589708328,0.013160906732082367,0.042153049260377884
6.470777750015259,0.03833829239010811,-0.07419699430465698,0.1680399775505066,0.10662241280078888,0.013160906732082367,0.042153049260377884
6.490830659866333,0.03833829239010811,-0.07495994865894318,0.1684214472770691,0.10700388997793198,0.013160906732082367,0.042153049260377884
6.510886192321777,0.038719769567251205,-0.07534141838550568,0.16880293190479279,0.10738536715507507,0.013542382046580315,0.042153049260377884
6.530971527099609,0.039101243019104004,-0.07610437273979187,0.16918440163135529,0.10776684433221817,0.013160906732082367,0.04253452271223068
6.5510382652282715,0.039101243019104004,-0.07724879682064056,0.17032882571220398,0.10814831405878067,0.013160906732082367,0.04253452271223068
6.571111679077148,0.039101243019104004,-0.07763027399778366,0.17071031033992767,0.10814831405878067,0.013542382046580315,0.04253452271223068
6.5912158489227295,0.039101243019104004,-0.07801175117492676,0.17109178006649017,0.10852979123592377,0.013542382046580315,0.04253452271223068
6.611323833465576,0.039101243019104004,-0.07839322835206985,0.17185473442077637,0.10852979123592377,0.013160906732082367,0.04291599988937378
6.631381273269653,0.0394827201962471,-0.07953765243291855,0.17261768877506256,0.10891126841306686,0.013160906732082367,0.04291599988937378
6.651468515396118,0.0398641936480999,-0.08030059933662415,0.17299915850162506,0.10891126841306686,0.013160906732082367,0.04291599988937378
6.671565055847168,0.040245670825242996,-0.08106355369091034,0.17376211285591125,0.10929274559020996,0.013160906732082367,0.04291599988937378
6.691765546798706,0.040245670825242996,-0.08182650804519653,0.17490653693675995,0.10967422276735306,0.013542382046580315,0.04329747334122658
6.711759090423584,0.040245670825242996,-0.08258945494890213,0.17566949129104614,0.11005569249391556,0.013542382046580315,0.04329747334122658
6.731826305389404,0.040245670825242996,-0.08258945494890213,0.17605096101760864,0.11081864684820175,0.01430533267557621,0.043678950518369675
6.751878023147583,0.040245670825242996,-0.08297093212604523,0.17681391537189484,0.11158160120248795,0.01430533267557621,0.04406042397022247
6.77198052406311,0.040627144277095795,-0.08373387902975082,0.17719538509845734,0.11196307092905045,0.01430533267557621,0.04482337832450867
6.7920637130737305,0.04139009863138199,-0.08449683338403702,0.17795833945274353,0.11196307092905045,0.01430533267557621,0.045204851776361465
6.812209844589233,0.04139009863138199,-0.08449683338403702,0.17833982408046722,0.11234454810619354,0.014686808921396732,0.045204851776361465
6.83221173286438,0.04139009863138199,-0.08564125746488571,0.17910276353359222,0.11234454810619354,0.01430533267557621,0.045204851776361465
6.8522889614105225,0.04139009863138199,-0.0864042118191719,0.17986571788787842,0.11272602528333664,0.01506828423589468,0.045204851776361465
6.872353792190552,0.04139009863138199,-0.086785688996315,0.1806286722421646,0.11272602528333664,0.01506828423589468,0.045204851776361465
6.8924174308776855,0.04139009863138199,-0.086785688996315,0.1810101419687271,0.11310750246047974,0.014686808921396732,0.04558632895350456
6.912473917007446,0.04139009863138199,-0.0875486359000206,0.1813916265964508,0.11348897218704224,0.014686808921396732,0.045204851776361465
6.93270468711853,0.04177157208323479,-0.0879301130771637,0.1813916265964508,0.11387044936418533,0.01506828423589468,0.045204851776361465
6.952807903289795,0.042153049260377884,-0.08869306743144989,0.182154580950737,0.11425192654132843,0.014686808921396732,0.04558632895350456
6.9729204177856445,0.04253452271223068,-0.08869306743144989,0.182917520403862,0.11463340371847153,0.01506828423589468,0.04558632895350456
6.993018388748169,0.04253452271223068,-0.08983749151229858,0.1832990050315857,0.11501488089561462,0.01506828423589468,0.04558632895350456
7.01303505897522,0.04253452271223068,-0.09060044586658478,0.1840619444847107,0.11539635062217712,0.01506828423589468,0.04558632895350456
7.033120632171631,0.04291599988937378,-0.09136339277029037,0.18520638346672058,0.11539635062217712,0.01506828423589468,0.04558632895350456
7.053185939788818,0.04329747334122658,-0.09174486994743347,0.18558785319328308,0.11577782779932022,0.014686808921396732,0.04558632895350456
7.073251962661743,0.04329747334122658,-0.09174486994743347,0.18596932291984558,0.11577782779932022,0.01506828423589468,0.04558632895350456
7.093306303024292,0.04329747334122658,-0.09250781685113907,0.18635080754756927,0.11615930497646332,0.015449759550392628,0.04558632895350456
7.113394498825073,0.04329747334122658,-0.09327077120542526,0.18711376190185547,0.11615930497646332,0.015449759550392628,0.04596780240535736
7.133466958999634,0.04329747334122658,-0.09403372555971146,0.18749523162841797,0.11654078215360641,0.01583123579621315,0.04558632895350456
7.153543710708618,0.04329747334122658,-0.09403372555971146,0.18787670135498047,0.11654078215360641,0.015449759550392628,0.04596780240535736
7.173617839813232,0.04329747334122658,-0.09441519528627396,0.18825818598270416,0.11692225188016891,0.015449759550392628,0.04596780240535736
7.19367790222168,0.043678950518369675,-0.09517814964056015,0.18902114033699036,0.11730372905731201,0.015449759550392628,0.04596780240535736
7.213773250579834,0.043678950518369675,-0.09594109654426575,0.18978407979011536,0.11768520623445511,0.015449759550392628,0.04596780240535736
7.2338244915008545,0.043678950518369675,-0.09632257372140884,0.19016556441783905,0.1184481605887413,0.01583123579621315,0.04596780240535736
7.253893136978149,0.043678950518369675,-0.09670405089855194,0.19054703414440155,0.1192111074924469,0.015449759550392628,0.04596780240535736
7.273941278457642,0.04406042397022247,-0.09822995215654373,0.19169145822525024,0.11959258466959,0.01583123579621315,0.04596780240535736
7.294063329696655,0.04406042397022247,-0.09822995215654373,0.19245441257953644,0.11959258466959,0.01583123579621315,0.04596780240535736
7.314128637313843,0.04444190114736557,-0.09899290651082993,0.19321736693382263,0.1199740618467331,0.015449759550392628,0.04634927958250046
7.334193468093872,0.04444190114736557,-0.09899290651082993,0.19359883666038513,0.1199740618467331,0.015449759550392628,0.04634927958250046
7.35437536239624,0.04444190114736557,-0.09937438368797302,0.19398032128810883,0.1203555315732956,0.01583123579621315,0.04634927958250046
7.374481201171875,0.04444190114736557,-0.10013733059167862,0.19474326074123383,0.12073700875043869,0.01583123579621315,0.04634927958250046
7.394571304321289,0.04444190114736557,-0.10128175467252731,0.19550621509552002,0.12111848592758179,0.01583123579621315,0.04634927958250046
7.414599418640137,0.04482337832450867,-0.10204470902681351,0.1958876997232437,0.12149996310472488,0.01583123579621315,0.04634927958250046
7.434781074523926,0.045204851776361465,-0.1024261862039566,0.1962691694498062,0.12226291000843048,0.01583123579621315,0.046730753034353256
7.454870700836182,0.04558632895350456,-0.1031891331076622,0.1970321238040924,0.12302586436271667,0.015449759550392628,0.046730753034353256
7.474931955337524,0.04558632895350456,-0.1035706102848053,0.1977950781583786,0.12302586436271667,0.01583123579621315,0.046730753034353256
7.49500036239624,0.04558632895350456,-0.1035706102848053,0.1981765478849411,0.12340734153985977,0.016212711110711098,0.046730753034353256
7.515075206756592,0.04596780240535736,-0.10433356463909149,0.1985580176115036,0.12340734153985977,0.016212711110711098,0.046730753034353256
7.53517484664917,0.04596780240535736,-0.10509651154279709,0.1997024416923523,0.12378881871700287,0.016212711110711098,0.046730753034353256
7.555213212966919,0.04634927958250046,-0.10547798871994019,0.200083926320076,0.12417028844356537,0.016212711110711098,0.04711223021149635
7.5752668380737305,0.04634927958250046,-0.10624094307422638,0.20084688067436218,0.12417028844356537,0.016212711110711098,0.04711223021149635
7.595325469970703,0.04634927958250046,-0.10662241280078888,0.20122835040092468,0.12455176562070847,0.016212711110711098,0.04749370738863945
7.615411758422852,0.04634927958250046,-0.10700388997793198,0.20160982012748718,0.12455176562070847,0.016975661739706993,0.04749370738863945
7.635476350784302,0.04634927958250046,-0.10776684433221817,0.20237277448177338,0.12493324279785156,0.016594186425209045,0.04787518084049225
7.6555681228637695,0.04634927958250046,-0.10852979123592377,0.20275425910949707,0.12569619715213776,0.016975661739706993,0.048256658017635345
7.67562198638916,0.04634927958250046,-0.10929274559020996,0.20351719856262207,0.12645913660526276,0.016975661739706993,0.048638131469488144
7.695690870285034,0.046730753034353256,-0.10967422276735306,0.20428015291690826,0.12684062123298645,0.016975661739706993,0.04901960864663124
7.715838193893433,0.046730753034353256,-0.11043716967105865,0.20466163754463196,0.12722209095954895,0.016975661739706993,0.04901960864663124
7.7358481884002686,0.04711223021149635,-0.11043716967105865,0.20504310727119446,0.12722209095954895,0.016975661739706993,0.04901960864663124
7.755927324295044,0.04787518084049225,-0.11158160120248795,0.20618753135204315,0.12760357558727264,0.016975661739706993,0.04901960864663124
7.775994777679443,0.048256658017635345,-0.11158160120248795,0.20656901597976685,0.12760357558727264,0.01735713705420494,0.04901960864663124
7.79606032371521,0.048638131469488144,-0.11272602528333664,0.20771344006061554,0.12760357558727264,0.01773861236870289,0.04901960864663124
7.816135406494141,0.048638131469488144,-0.11348897218704224,0.20847637951374054,0.12798504531383514,0.018120087683200836,0.04940108209848404
7.836181402206421,0.048638131469488144,-0.11387044936418533,0.20885786414146423,0.12836651504039764,0.018120087683200836,0.04940108209848404
7.85626745223999,0.048638131469488144,-0.11425192654132843,0.20962081849575043,0.12912946939468384,0.01773861236870289,0.04940108209848404
7.876340389251709,0.048638131469488144,-0.11539635062217712,0.21038375794887543,0.12951095402240753,0.01773861236870289,0.04940108209848404
7.896461486816406,0.048638131469488144,-0.11577782779932022,0.21114671230316162,0.13027389347553253,0.018120087683200836,0.04940108209848404
7.916503667831421,0.048638131469488144,-0.11692225188016891,0.21152819693088531,0.13065537810325623,0.018120087683200836,0.04940108209848404
7.9367077350616455,0.048638131469488144,-0.11692225188016891,0.21190966665744781,0.13065537810325623,0.018120087683200836,0.04940108209848404
7.95677638053894,0.048638131469488144,-0.11768520623445511,0.212672621011734,0.13065537810325623,0.018120087683200836,0.049782559275627136
7.97684383392334,0.04901960864663124,-0.1184481605887413,0.2134355753660202,0.13103684782981873,0.018120087683200836,0.049782559275627136
7.9968883991241455,0.049782559275627136,-0.1188296303153038,0.2138170450925827,0.13103684782981873,0.018120087683200836,0.049782559275627136
8.017051935195923,0.05054550990462303,-0.1199740618467331,0.2145799994468689,0.13141833245754242,0.01773861236870289,0.049782559275627136
8.037170171737671,0.05054550990462303,-0.1203555315732956,0.2153429538011551,0.13141833245754242,0.018120087683200836,0.049782559275627136
8.057360172271729,0.05054550990462303,-0.12073700875043869,0.2157244235277176,0.13179980218410492,0.018120087683200836,0.049782559275627136
8.077484369277954,0.05054550990462303,-0.12111848592758179,0.2161058932542801,0.13179980218410492,0.018501564860343933,0.050164032727479935
8.097500085830688,0.05054550990462303,-0.12188144028186798,0.21686884760856628,0.13218127191066742,0.018501564860343933,0.050164032727479935
8.117618322372437,0.05054550990462303,-0.12226291000843048,0.21763180196285248,0.1329442262649536,0.018120087683200836,0.050164032727479935
8.13776159286499,0.05054550990462303,-0.12302586436271667,0.21839475631713867,0.1337071806192398,0.018120087683200836,0.050164032727479935
8.157762050628662,0.05054550990462303,-0.12378881871700287,0.21877622604370117,0.1340886503458023,0.018120087683200836,0.05054550990462303
8.17782974243164,0.05054550990462303,-0.12417028844356537,0.21915769577026367,0.134470134973526,0.018120087683200836,0.05054550990462303
8.197911739349365,0.05092698708176613,-0.12493324279785156,0.21992065012454987,0.1348516047000885,0.018501564860343933,0.05054550990462303
8.217991352081299,0.05092698708176613,-0.12607766687870026,0.22068360447883606,0.1348516047000885,0.018501564860343933,0.05092698708176613
8.238187551498413,0.05092698708176613,-0.12684062123298645,0.22144655883312225,0.135233074426651,0.018501564860343933,0.05092698708176613
8.25821304321289,0.05130846053361893,-0.12798504531383514,0.22259098291397095,0.1356145590543747,0.018120087683200836,0.05130846053361893
8.278287410736084,0.051689937710762024,-0.12798504531383514,0.22297245264053345,0.1363775134086609,0.018120087683200836,0.051689937710762024
8.29832911491394,0.051689937710762024,-0.12836651504039764,0.22335393726825714,0.1367589831352234,0.018501564860343933,0.05207141116261482
8.31845211982727,0.051689937710762024,-0.12912946939468384,0.22411687672138214,0.13752193748950958,0.018120087683200836,0.05283436179161072
8.33853268623352,0.05207141116261482,-0.13027389347553253,0.22526131570339203,0.13790340721607208,0.018501564860343933,0.05283436179161072
8.358591794967651,0.05207141116261482,-0.13027389347553253,0.22602425515651703,0.13790340721607208,0.01888304017484188,0.053215838968753815
8.378689527511597,0.05245288833975792,-0.13103684782981873,0.22602425515651703,0.13828489184379578,0.018120087683200836,0.053215838968753815
8.398731231689453,0.05245288833975792,-0.13179980218410492,0.22678720951080322,0.13828489184379578,0.018120087683200836,0.053215838968753815
8.418838024139404,0.05245288833975792,-0.13218127191066742,0.22716869413852692,0.13828489184379578,0.018120087683200836,0.053215838968753815
8.438903331756592,0.05283436179161072,-0.1333257108926773,0.22793163359165192,0.13866636157035828,0.018501564860343933,0.053215838968753815
8.458989381790161,0.05283436179161072,-0.1333257108926773,0.2283131182193756,0.13866636157035828,0.018501564860343933,0.053215838968753815
8.479023694992065,0.05283436179161072,-0.1340886503458023,0.2286945879459381,0.13866636157035828,0.018501564860343933,0.053215838968753815
8.499245643615723,0.05283436179161072,-0.134470134973526,0.2294575423002243,0.13904783129692078,0.018501564860343933,0.05359731614589691
8.519409418106079,0.05283436179161072,-0.135233074426651,0.2302204966545105,0.13942931592464447,0.018120087683200836,0.05359731614589691
8.53942084312439,0.05283436179161072,-0.1356145590543747,0.230601966381073,0.13942931592464447,0.018501564860343933,0.05359731614589691
8.559473991394043,0.053215838968753815,-0.1363775134086609,0.2309834510087967,0.13981078565120697,0.018501564860343933,0.05359731614589691
8.57954454421997,0.05359731614589691,-0.1363775134086609,0.2313649207353592,0.14019227027893066,0.018501564860343933,0.05359731614589691
8.599624156951904,0.05359731614589691,-0.1371404528617859,0.23212787508964539,0.14095520973205566,0.018501564860343933,0.05359731614589691
8.619702100753784,0.05397878959774971,-0.13790340721607208,0.23289081454277039,0.14133669435977936,0.018501564860343933,0.05359731614589691
8.639772415161133,0.05397878959774971,-0.13866636157035828,0.23327229917049408,0.14171816408634186,0.018501564860343933,0.05359731614589691
8.659983396530151,0.05397878959774971,-0.13942931592464447,0.23403525352478027,0.14209964871406555,0.018501564860343933,0.05397878959774971
8.680037021636963,0.05397878959774971,-0.13981078565120697,0.23479819297790527,0.14248111844062805,0.018120087683200836,0.05397878959774971
8.700207948684692,0.05436026677489281,-0.14057374000549316,0.23556114733219147,0.14286258816719055,0.018501564860343933,0.05397878959774971
8.72023344039917,0.054741740226745605,-0.14095520973205566,0.23556114733219147,0.14286258816719055,0.018501564860343933,0.05397878959774971
8.74026608467102,0.054741740226745605,-0.14171816408634186,0.23632410168647766,0.14362554252147675,0.018501564860343933,0.05397878959774971
8.760347843170166,0.0551232174038887,-0.14248111844062805,0.23708705604076385,0.14438849687576294,0.018501564860343933,0.05397878959774971
8.780415773391724,0.0551232174038887,-0.14362554252147675,0.23785001039505005,0.14553292095661163,0.01888304017484188,0.05436026677489281
8.800485372543335,0.0555046908557415,-0.14362554252147675,0.23823148012161255,0.14553292095661163,0.018501564860343933,0.05436026677489281
8.820560216903687,0.0558861680328846,-0.14438849687576294,0.23937590420246124,0.14591439068317413,0.018120087683200836,0.05436026677489281
8.840630531311035,0.0558861680328846,-0.14515145123004913,0.23975738883018494,0.14629587531089783,0.018501564860343933,0.054741740226745605
8.8607017993927,0.0558861680328846,-0.14667734503746033,0.24090181291103363,0.14629587531089783,0.018501564860343933,0.054741740226745605
8.880749225616455,0.056267641484737396,-0.14667734503746033,0.24128328263759613,0.14629587531089783,0.018501564860343933,0.054741740226745605
8.900834560394287,0.056267641484737396,-0.14744029939174652,0.24204623699188232,0.14667734503746033,0.01888304017484188,0.0551232174038887
8.920894384384155,0.05664911866188049,-0.14782176911830902,0.24280919134616852,0.14705882966518402,0.018501564860343933,0.0551232174038887
8.940960168838501,0.05703059583902359,-0.14858472347259521,0.24357213079929352,0.14820325374603271,0.018501564860343933,0.0555046908557415
8.961023807525635,0.05703059583902359,-0.1489662081003189,0.2439536154270172,0.1493476778268814,0.018501564860343933,0.056267641484737396
8.981097221374512,0.05741206929087639,-0.1497291475534439,0.2447165697813034,0.1493476778268814,0.018501564860343933,0.056267641484737396
9.0011887550354,0.057793546468019485,-0.1501106321811676,0.2454795092344284,0.1493476778268814,0.01888304017484188,0.056267641484737396
9.021267890930176,0.058175019919872284,-0.1516365259885788,0.2458609938621521,0.1497291475534439,0.01888304017484188,0.05664911866188049
9.041414976119995,0.058175019919872284,-0.1520180106163025,0.2466239482164383,0.1497291475534439,0.018501564860343933,0.05664911866188049
9.06152081489563,0.058175019919872284,-0.1527809500694275,0.2473868876695633,0.1504921019077301,0.01888304017484188,0.05664911866188049
9.081568479537964,0.058175019919872284,-0.15316243469715118,0.2481498420238495,0.1504921019077301,0.018501564860343933,0.05664911866188049
9.101766109466553,0.058175019919872284,-0.15392538905143738,0.24891279637813568,0.1508735716342926,0.01888304017484188,0.05664911866188049
9.121850490570068,0.058175019919872284,-0.15468832850456238,0.24967575073242188,0.1512550562620163,0.01888304017484188,0.05664911866188049
9.14192819595337,0.058175019919872284,-0.15506981313228607,0.2500572204589844,0.1516365259885788,0.01888304017484188,0.05664911866188049
9.161985397338867,0.058175019919872284,-0.15583276748657227,0.2504386901855469,0.152399480342865,0.01888304017484188,0.05664911866188049
9.182057857513428,0.05855649709701538,-0.15659570693969727,0.25120165944099426,0.15316243469715118,0.01888304017484188,0.05703059583902359
9.202131032943726,0.05855649709701538,-0.15697719156742096,0.25196459889411926,0.15316243469715118,0.01888304017484188,0.05664911866188049
9.222220182418823,0.05893797054886818,-0.15774014592170715,0.25234606862068176,0.15316243469715118,0.01888304017484188,0.05703059583902359
9.242594957351685,0.05893797054886818,-0.15812161564826965,0.25272753834724426,0.15354390442371368,0.01888304017484188,0.05703059583902359
9.262723445892334,0.05893797054886818,-0.15926603972911835,0.25387197732925415,0.15354390442371368,0.01888304017484188,0.05703059583902359
9.28279185295105,0.059319447726011276,-0.16041046380996704,0.25463491678237915,0.15392538905143738,0.01888304017484188,0.05703059583902359
9.302833557128906,0.059319447726011276,-0.16117341816425323,0.25539788603782654,0.15392538905143738,0.01888304017484188,0.05703059583902359
9.32299518585205,0.05970092490315437,-0.16117341816425323,0.25616082549095154,0.15430685877799988,0.01888304017484188,0.05703059583902359
9.343080520629883,0.06008239835500717,-0.16155488789081573,0.2569237947463989,0.15468832850456238,0.018501564860343933,0.05703059583902359
9.363194942474365,0.06008239835500717,-0.16231784224510193,0.2576867341995239,0.15545128285884857,0.018501564860343933,0.05741206929087639
9.383243083953857,0.06008239835500717,-0.16346226632595062,0.2580682039260864,0.15583276748657227,0.01926451548933983,0.05741206929087639
9.403331995010376,0.06046387553215027,-0.16422522068023682,0.2584496736526489,0.15659570693969727,0.01926451548933983,0.05741206929087639
9.423554182052612,0.06084534898400307,-0.1646067053079605,0.2595941126346588,0.15659570693969727,0.01888304017484188,0.05741206929087639
9.443512201309204,0.06084534898400307,-0.1653696447610855,0.2599755823612213,0.15697719156742096,0.01888304017484188,0.05741206929087639
9.463604211807251,0.061226826161146164,-0.1672770231962204,0.2607385218143463,0.15735866129398346,0.01888304017484188,0.05741206929087639
9.483662128448486,0.061226826161146164,-0.1676585078239441,0.2615014910697937,0.15735866129398346,0.01888304017484188,0.057793546468019485
9.503722429275513,0.061226826161146164,-0.1676585078239441,0.2618829607963562,0.15735866129398346,0.01888304017484188,0.057793546468019485
9.523802995681763,0.061226826161146164,-0.1684214472770691,0.2626459002494812,0.15774014592170715,0.01888304017484188,0.057793546468019485
9.543869972229004,0.06160829961299896,-0.16918440163135529,0.2634088695049286,0.15812161564826965,0.01888304017484188,0.057793546468019485
9.563995361328125,0.06160829961299896,-0.16956588625907898,0.2637903392314911,0.15812161564826965,0.01926451548933983,0.057793546468019485
9.584097623825073,0.06237125024199486,-0.17071031033992767,0.2645532786846161,0.15850308537483215,0.018501564860343933,0.058175019919872284
9.60419774055481,0.06275273114442825,-0.17147326469421387,0.264934778213501,0.15926603972911835,0.01888304017484188,0.058175019919872284
9.624268054962158,0.06313420087099075,-0.17185473442077637,0.2653162479400635,0.15964750945568085,0.01926451548933983,0.058175019919872284
9.644352436065674,0.06313420087099075,-0.17261768877506256,0.265697717666626,0.16002899408340454,0.01888304017484188,0.05855649709701538
9.664437770843506,0.06313420087099075,-0.17338064312934875,0.266460657119751,0.16041046380996704,0.01926451548933983,0.05855649709701538
9.68450403213501,0.06313420087099075,-0.17376211285591125,0.26722362637519836,0.16041046380996704,0.01926451548933983,0.05855649709701538
9.704577445983887,0.06313420087099075,-0.17414358258247375,0.26760509610176086,0.16079194843769073,0.01888304017484188,0.05893797054886818
9.724653959274292,0.06313420087099075,-0.17490653693675995,0.26798656582832336,0.16079194843769073,0.01888304017484188,0.05970092490315437
9.744779109954834,0.06313420087099075,-0.17605096101760864,0.26874953508377075,0.16117341816425323,0.01888304017484188,0.06046387553215027
9.764864921569824,0.06351567804813385,-0.17643244564533234,0.26913100481033325,0.16117341816425323,0.01926451548933983,0.06046387553215027
9.784948348999023,0.06351567804813385,-0.17719538509845734,0.26989394426345825,0.16155488789081573,0.01926451548933983,0.06046387553215027
9.80508804321289,0.06389715522527695,-0.17757686972618103,0.27027541399002075,0.16155488789081573,0.01926451548933983,0.06046387553215027
9.825376987457275,0.06466010212898254,-0.17795833945274353,0.27103838324546814,0.16193637251853943,0.01926451548933983,0.06084534898400307
9.845450401306152,0.06504157930612564,-0.17872129380702972,0.27180132269859314,0.16269932687282562,0.01888304017484188,0.06084534898400307
9.865548372268677,0.06542305648326874,-0.17910276353359222,0.2725642919540405,0.16384375095367432,0.01888304017484188,0.06084534898400307
9.885577201843262,0.06542305648326874,-0.17986571788787842,0.2733272314071655,0.16422522068023682,0.020027466118335724,0.06084534898400307
9.905664920806885,0.06542305648326874,-0.1810101419687271,0.2740901708602905,0.16422522068023682,0.020027466118335724,0.06084534898400307
9.925732135772705,0.06542305648326874,-0.1813916265964508,0.2744716703891754,0.1646067053079605,0.020027466118335724,0.06084534898400307
9.94581127166748,0.06542305648326874,-0.182154580950737,0.2748531401157379,0.1646067053079605,0.01926451548933983,0.061226826161146164
9.965914726257324,0.06542305648326874,-0.1832990050315857,0.2752346098423004,0.164988175034523,0.01926451548933983,0.061226826161146164
9.985996723175049,0.06542305648326874,-0.1844434291124344,0.2763790488243103,0.164988175034523,0.01926451548933983,0.061226826161146164
10.006134748458862,0.06542305648326874,-0.18635080754756927,0.2771419882774353,0.164988175034523,0.019645990803837776,0.061226826161146164
10.026521444320679,0.06580453366041183,-0.18635080754756927,0.2779049277305603,0.1653696447610855,0.020027466118335724,0.061226826161146164
10.046592950820923,0.06656748056411743,-0.18673227727413177,0.2786678969860077,0.1661325991153717,0.019645990803837776,0.061226826161146164
10.066662073135376,0.06656748056411743,-0.18673227727413177,0.2790493667125702,0.1668955534696579,0.019645990803837776,0.06160829961299896
10.086721658706665,0.06656748056411743,-0.18787670135498047,0.2794308364391327,0.1672770231962204,0.019645990803837776,0.06160829961299896
10.106829643249512,0.06694895774126053,-0.18825818598270416,0.2801937758922577,0.1676585078239441,0.019645990803837776,0.06198977679014206
10.126922369003296,0.06733043491840363,-0.18863965570926666,0.2805752754211426,0.1680399775505066,0.019645990803837776,0.06198977679014206
10.146987676620483,0.06733043491840363,-0.19054703414440155,0.2813382148742676,0.1680399775505066,0.019645990803837776,0.06237125024199486
10.167083263397217,0.06733043491840363,-0.19054703414440155,0.2817196846008301,0.1684214472770691,0.019645990803837776,0.06313420087099075
10.187522888183594,0.06733043491840363,-0.19092851877212524,0.28248265385627747,0.1684214472770691,0.019645990803837776,0.06389715522527695
10.207616806030273,0.06771191209554672,-0.19283588230609894,0.28362706303596497,0.16880293190479279,0.019645990803837776,0.06389715522527695
10.227689027786255,0.06771191209554672,-0.19283588230609894,0.28439003229141235,0.16880293190479279,0.019645990803837776,0.06389715522527695
10.247729778289795,0.06847485899925232,-0.19398032128810883,0.28439003229141235,0.16918440163135529,0.01926451548933983,0.06427863240242004
10.267808198928833,0.06847485899925232,-0.19436179101467133,0.28515297174453735,0.16994735598564148,0.01926451548933983,0.06427863240242004
10.287891626358032,0.06847485899925232,-0.19474326074123383,0.28629741072654724,0.17071031033992767,0.019645990803837776,0.06427863240242004
10.30799126625061,0.06847485899925232,-0.1962691694498062,0.28706035017967224,0.17147326469421387,0.020027466118335724,0.06427863240242004
10.32809853553772,0.06847485899925232,-0.1970321238040924,0.28782328963279724,0.17185473442077637,0.020027466118335724,0.06427863240242004
10.348175764083862,0.06885633617639542,-0.1974135935306549,0.28858625888824463,0.17223620414733887,0.01926451548933983,0.06427863240242004
10.3682701587677,0.06923781335353851,-0.1981765478849411,0.28896772861480713,0.17223620414733887,0.01926451548933983,0.06427863240242004
10.38837194442749,0.06923781335353851,-0.1989395022392273,0.28973066806793213,0.17261768877506256,0.019645990803837776,0.06427863240242004
10.408466339111328,0.06961929053068161,-0.1993209719657898,0.290875107049942,0.17261768877506256,0.019645990803837776,0.06427863240242004
10.42852258682251,0.06961929053068161,-0.20084688067436218,0.2912565767765045,0.17299915850162506,0.020027466118335724,0.06427863240242004
10.448599815368652,0.06961929053068161,-0.20084688067436218,0.291638046503067,0.17376211285591125,0.020027466118335724,0.06427863240242004
10.468745470046997,0.07000076025724411,-0.20084688067436218,0.2920195460319519,0.17452506721019745,0.019645990803837776,0.06427863240242004
10.488833904266357,0.0707637146115303,-0.20237277448177338,0.2931639552116394,0.17528800666332245,0.01926451548933983,0.06466010212898254
10.508910894393921,0.0707637146115303,-0.20313572883605957,0.2939268946647644,0.17566949129104614,0.019645990803837776,0.06466010212898254
10.528965950012207,0.0707637146115303,-0.20313572883605957,0.2946898639202118,0.17566949129104614,0.020027466118335724,0.06466010212898254
10.54918098449707,0.0707637146115303,-0.20466163754463196,0.2954528033733368,0.17605096101760864,0.019645990803837776,0.06466010212898254
10.569204330444336,0.0707637146115303,-0.20542457699775696,0.2954528033733368,0.17605096101760864,0.020027466118335724,0.06466010212898254
10.589232683181763,0.0715266615152359,-0.20618753135204315,0.2962157726287842,0.17643244564533234,0.019645990803837776,0.06466010212898254
10.609341859817505,0.071908138692379,-0.20733195543289185,0.2973601818084717,0.17643244564533234,0.019645990803837776,0.06466010212898254
10.629396915435791,0.071908138692379,-0.20771344006061554,0.29812315106391907,0.17681391537189484,0.019645990803837776,0.06466010212898254
10.649480819702148,0.07267109304666519,-0.20847637951374054,0.29888609051704407,0.17719538509845734,0.01926451548933983,0.06466010212898254
10.669553518295288,0.07267109304666519,-0.20809490978717804,0.29926756024360657,0.17833982408046722,0.020027466118335724,0.06466010212898254
10.689712285995483,0.07267109304666519,-0.20885786414146423,0.29964902997016907,0.17872129380702972,0.020027466118335724,0.06466010212898254
10.70979356765747,0.07267109304666519,-0.20962081849575043,0.30079346895217896,0.17910276353359222,0.020027466118335724,0.06504157930612564
10.729877233505249,0.07267109304666519,-0.21038375794887543,0.30117493867874146,0.17948424816131592,0.020027466118335724,0.06466010212898254
10.749936819076538,0.07267109304666519,-0.21076524257659912,0.30193790793418884,0.17986571788787842,0.01926451548933983,0.06504157930612564
10.770014524459839,0.07267109304666519,-0.21114671230316162,0.30270084738731384,0.17986571788787842,0.019645990803837776,0.06504157930612564
10.790125846862793,0.07305257022380829,-0.21190966665744781,0.30308231711387634,0.1802472025156021,0.019645990803837776,0.06504157930612564
10.810185194015503,0.07343403995037079,-0.2134355753660202,0.30422675609588623,0.1802472025156021,0.019645990803837776,0.06504157930612564
10.830245971679688,0.07343403995037079,-0.2138170450925827,0.30460822582244873,0.1806286722421646,0.02040894143283367,0.06504157930612564
10.850391864776611,0.07343403995037079,-0.2153429538011551,0.30537116527557373,0.1810101419687271,0.020027466118335724,0.06504157930612564
10.870474100112915,0.07381551712751389,-0.2157244235277176,0.3061341345310211,0.1817730963230133,0.020027466118335724,0.06504157930612564
10.890557765960693,0.07381551712751389,-0.2157244235277176,0.3065156042575836,0.1825360506772995,0.019645990803837776,0.06542305648326874
10.910622119903564,0.07381551712751389,-0.21686884760856628,0.3068970739841461,0.1825360506772995,0.01926451548933983,0.06542305648326874
10.930908679962158,0.07419699430465698,-0.21763180196285248,0.308041512966156,0.182917520403862,0.019645990803837776,0.06580453366041183
10.95105242729187,0.07495994865894318,-0.21801327168941498,0.3091859221458435,0.1832990050315857,0.020027466118335724,0.06580453366041183
10.971117973327637,0.07495994865894318,-0.21877622604370117,0.309567391872406,0.1832990050315857,0.019645990803837776,0.06580453366041183
10.991142749786377,0.07534141838550568,-0.21953918039798737,0.3099488914012909,0.1836804747581482,0.019645990803837776,0.06580453366041183
11.011213541030884,0.07534141838550568,-0.22030213475227356,0.3103303611278534,0.1840619444847107,0.020027466118335724,0.06580453366041183
11.031312227249146,0.07572289556264877,-0.22182802855968475,0.3110933005809784,0.1840619444847107,0.020027466118335724,0.06618601083755493
11.051387310028076,0.07572289556264877,-0.22182802855968475,0.3118562698364258,0.1844434291124344,0.019645990803837776,0.06656748056411743
11.071496486663818,0.07572289556264877,-0.22220951318740845,0.3122377395629883,0.1848248988389969,0.019645990803837776,0.06694895774126053
11.091749429702759,0.07572289556264877,-0.22259098291397095,0.3126192092895508,0.18520638346672058,0.01926451548933983,0.06771191209554672
11.111862659454346,0.07572289556264877,-0.22373540699481964,0.31376364827156067,0.18635080754756927,0.019645990803837776,0.06771191209554672
11.131954431533813,0.07572289556264877,-0.22373540699481964,0.31452658772468567,0.18673227727413177,0.020027466118335724,0.06771191209554672
11.152034759521484,0.07610437273979187,-0.22526131570339203,0.31528952717781067,0.18711376190185547,0.020027466118335724,0.06771191209554672
11.172181606292725,0.07686731964349747,-0.22564278542995453,0.31567102670669556,0.18711376190185547,0.01926451548933983,0.06809338182210922
11.192182779312134,0.07686731964349747,-0.22602425515651703,0.31643396615982056,0.18749523162841797,0.019645990803837776,0.06809338182210922
11.2122483253479,0.07724879682064056,-0.22678720951080322,0.31643396615982056,0.18749523162841797,0.019645990803837776,0.06809338182210922
11.232300281524658,0.07763027399778366,-0.22716869413852692,0.31719690561294556,0.18787670135498047,0.019645990803837776,0.06809338182210922
11.252370357513428,0.07763027399778366,-0.22793163359165192,0.31795987486839294,0.18825818598270416,0.019645990803837776,0.06809338182210922
11.272461175918579,0.07763027399778366,-0.2290760725736618,0.31872281432151794,0.18940261006355286,0.020027466118335724,0.06809338182210922
11.292789697647095,0.07763027399778366,-0.2298390120267868,0.31986725330352783,0.19016556441783905,0.019645990803837776,0.06847485899925232
11.312837362289429,0.07801175117492676,-0.2309834510087967,0.32024872303009033,0.19054703414440155,0.019645990803837776,0.06847485899925232
11.332926034927368,0.07801175117492676,-0.2309834510087967,0.32101166248321533,0.19054703414440155,0.019645990803837776,0.06847485899925232
11.352998495101929,0.07801175117492676,-0.2317463904619217,0.3217746317386627,0.19054703414440155,0.019645990803837776,0.06847485899925232
11.373078107833862,0.07839322835206985,-0.23327229917049408,0.3225375711917877,0.19092851877212524,0.019645990803837776,0.06847485899925232
11.393123149871826,0.07991912961006165,-0.23365376889705658,0.3229190409183502,0.19092851877212524,0.020027466118335724,0.06885633617639542
11.413209199905396,0.07991912961006165,-0.23441672325134277,0.3240634799003601,0.19130998849868774,0.020027466118335724,0.06885633617639542
11.433279275894165,0.07991912961006165,-0.23479819297790527,0.3248264193534851,0.19130998849868774,0.020027466118335724,0.06885633617639542
11.453375339508057,0.07991912961006165,-0.23517967760562897,0.32520791888237,0.19169145822525024,0.02040894143283367,0.06885633617639542
11.4734365940094,0.07991912961006165,-0.23632410168647766,0.3255893886089325,0.19207294285297394,0.020027466118335724,0.06885633617639542
11.49350643157959,0.07991912961006165,-0.23670557141304016,0.3263523280620575,0.19283588230609894,0.019645990803837776,0.06885633617639542
11.513614654541016,0.07991912961006165,-0.23746852576732635,0.3271152675151825,0.19398032128810883,0.019645990803837776,0.06923781335353851
11.533670663833618,0.07991912961006165,-0.23861294984817505,0.3278782367706299,0.19436179101467133,0.019645990803837776,0.06923781335353851
11.55370283126831,0.08030059933662415,-0.23899443447589874,0.3282597064971924,0.19436179101467133,0.019645990803837776,0.06923781335353851
11.574204683303833,0.08068207651376724,-0.23975738883018494,0.3290226459503174,0.19474326074123383,0.019645990803837776,0.06961929053068161
11.594300031661987,0.08106355369091034,-0.24052032828330994,0.32978561520576477,0.19474326074123383,0.020027466118335724,0.07000076025724411
11.614364385604858,0.08106355369091034,-0.24166475236415863,0.33093002438545227,0.19512474536895752,0.020027466118335724,0.0711451917886734
11.634494543075562,0.08106355369091034,-0.24357213079929352,0.33093002438545227,0.19550621509552002,0.020027466118335724,0.0715266615152359
11.654582023620605,0.08106355369091034,-0.2443350851535797,0.33093002438545227,0.1958876997232437,0.020027466118335724,0.0715266615152359
11.6746666431427,0.08106355369091034,-0.2450980395078659,0.33131152391433716,0.1966506391763687,0.019645990803837776,0.0715266615152359
11.69475531578064,0.08106355369091034,-0.2462424635887146,0.33131152391433716,0.1970321238040924,0.019645990803837776,0.0715266615152359
11.714805126190186,0.08106355369091034,-0.2470054179430008,0.33169299364089966,0.1974135935306549,0.019645990803837776,0.0715266615152359
11.735032320022583,0.08106355369091034,-0.248531311750412,0.33207446336746216,0.1977950781583786,0.019645990803837776,0.0715266615152359
11.755115747451782,0.08106355369091034,-0.25120165944099426,0.33207446336746216,0.1977950781583786,0.019645990803837776,0.0715266615152359
11.775201320648193,0.08106355369091034,-0.25196459889411926,0.33207446336746216,0.1977950781583786,0.019645990803837776,0.071908138692379
11.79527235031128,0.08106355369091034,-0.25196459889411926,0.33207446336746216,0.1977950781583786,0.01926451548933983,0.071908138692379
11.815329790115356,0.08106355369091034,-0.25387197732925415,0.33245593309402466,0.1981765478849411,0.01926451548933983,0.071908138692379
11.835408687591553,0.08106355369091034,-0.25425344705581665,0.33283740282058716,0.1981765478849411,0.01926451548933983,0.071908138692379
11.855498552322388,0.08106355369091034,-0.25539788603782654,0.33321890234947205,0.1981765478849411,0.01926451548933983,0.071908138692379
11.875572204589844,0.08106355369091034,-0.2569237947463989,0.33321890234947205,0.1985580176115036,0.01926451548933983,0.071908138692379
11.895589351654053,0.08106355369091034,-0.2569237947463989,0.33321890234947205,0.1985580176115036,0.01926451548933983,0.071908138692379
11.915703058242798,0.08106355369091034,-0.2588311731815338,0.33321890234947205,0.1985580176115036,0.01888304017484188,0.071908138692379
11.93574333190918,0.08106355369091034,-0.2595941126346588,0.33398184180259705,0.1985580176115036,0.01888304017484188,0.071908138692379
11.95582389831543,0.08106355369091034,-0.2611200213432312,0.33436331152915955,0.1989395022392273,0.01888304017484188,0.071908138692379
11.975864171981812,0.08106355369091034,-0.2615014910697937,0.33436331152915955,0.1989395022392273,0.01888304017484188,0.071908138692379
11.996055126190186,0.08106355369091034,-0.2626459002494812,0.33474478125572205,0.1989395022392273,0.01888304017484188,0.071908138692379
12.0161452293396,0.08106355369091034,-0.2641718089580536,0.33512628078460693,0.1993209719657898,0.01888304017484188,0.0722896158695221
12.036208152770996,0.08106355369091034,-0.2653162479400635,0.33512628078460693,0.1993209719657898,0.01888304017484188,0.071908138692379
12.056273937225342,0.08106355369091034,-0.266460657119751,0.33512628078460693,0.1997024416923523,0.01888304017484188,0.071908138692379
12.07645034790039,0.08106355369091034,-0.26798656582832336,0.33512628078460693,0.200083926320076,0.018501564860343933,0.0722896158695221
12.096548795700073,0.08106355369091034,-0.26951247453689575,0.33550775051116943,0.20084688067436218,0.018501564860343933,0.0722896158695221
12.116651773452759,0.08106355369091034,-0.27180132269859314,0.33627068996429443,0.20122835040092468,0.018501564860343933,0.0722896158695221
12.136710166931152,0.08106355369091034,-0.27218279242515564,0.33665215969085693,0.20160982012748718,0.018501564860343933,0.0722896158695221
12.156768798828125,0.08106355369091034,-0.2733272314071655,0.3370336592197418,0.20160982012748718,0.018120087683200836,0.0722896158695221
12.176953792572021,0.08106355369091034,-0.273708701133728,0.3370336592197418,0.20199130475521088,0.018501564860343933,0.0722896158695221
12.196948289871216,0.08106355369091034,-0.2740901708602905,0.3370336592197418,0.20199130475521088,0.018120087683200836,0.0722896158695221
12.217062950134277,0.08106355369091034,-0.2759975492954254,0.3370336592197418,0.20199130475521088,0.018120087683200836,0.0722896158695221
12.237144231796265,0.08106355369091034,-0.2775234580039978,0.3374151289463043,0.20199130475521088,0.018501564860343933,0.0722896158695221
12.257255792617798,0.08106355369091034,-0.2786678969860077,0.3377965986728668,0.20237277448177338,0.018501564860343933,0.07267109304666519
12.277330875396729,0.08106355369091034,-0.2805752754211426,0.3381780683994293,0.20237277448177338,0.018120087683200836,0.07267109304666519
12.297375679016113,0.08106355369091034,-0.28248265385627747,0.3385595381259918,0.20237277448177338,0.018120087683200836,0.07267109304666519
12.31745433807373,0.08106355369091034,-0.28324559330940247,0.3385595381259918,0.20275425910949707,0.01773861236870289,0.07267109304666519
12.337538957595825,0.08106355369091034,-0.28553444147109985,0.3385595381259918,0.20313572883605957,0.01735713705420494,0.07267109304666519
12.357605934143066,0.08106355369091034,-0.28553444147109985,0.3389410376548767,0.20351719856262207,0.01773861236870289,0.07267109304666519
12.3776695728302,0.08106355369091034,-0.28629741072654724,0.3393225073814392,0.20389868319034576,0.01735713705420494,0.07267109304666519
12.397721767425537,0.08106355369091034,-0.28782328963279724,0.3393225073814392,0.20428015291690826,0.01735713705420494,0.07305257022380829
12.417807817459106,0.08106355369091034,-0.28820478916168213,0.3393225073814392,0.20466163754463196,0.01735713705420494,0.07305257022380829
12.437909841537476,0.08106355369091034,-0.28973066806793213,0.3397039771080017,0.20466163754463196,0.01735713705420494,0.07305257022380829
12.457992553710938,0.08106355369091034,-0.2904936373233795,0.3400854468345642,0.20504310727119446,0.01735713705420494,0.07305257022380829
12.478036403656006,0.08106355369091034,-0.2924010157585144,0.3404669165611267,0.20504310727119446,0.016594186425209045,0.07305257022380829
12.498128414154053,0.08106355369091034,-0.2935454249382019,0.3404669165611267,0.20542457699775696,0.016594186425209045,0.07343403995037079
12.518208503723145,0.08106355369091034,-0.2946898639202118,0.3408484160900116,0.20542457699775696,0.01583123579621315,0.07343403995037079
12.538277387619019,0.08144503086805344,-0.2954528033733368,0.3416113555431366,0.20542457699775696,0.01583123579621315,0.07343403995037079
12.558341264724731,0.08144503086805344,-0.2973601818084717,0.3416113555431366,0.20580606162548065,0.015449759550392628,0.07381551712751389
12.578490972518921,0.08144503086805344,-0.29888609051704407,0.3419928252696991,0.20580606162548065,0.01506828423589468,0.07419699430465698
12.598532438278198,0.08144503086805344,-0.30079346895217896,0.3423742949962616,0.20580606162548065,0.014686808921396732,0.07495994865894318
12.618600368499756,0.08182650804519653,-0.30231937766075134,0.3427557647228241,0.20618753135204315,0.01506828423589468,0.07495994865894318
12.638610363006592,0.08182650804519653,-0.30422675609588623,0.3427557647228241,0.20618753135204315,0.01506828423589468,0.07495994865894318
12.658703088760376,0.08182650804519653,-0.30498969554901123,0.3427557647228241,0.20618753135204315,0.014686808921396732,0.07534141838550568
12.67876672744751,0.08182650804519653,-0.3061341345310211,0.343137264251709,0.20656901597976685,0.01430533267557621,0.07534141838550568
12.69887638092041,0.08182650804519653,-0.3068970739841461,0.3435187339782715,0.20695048570632935,0.01430533267557621,0.07534141838550568
12.71890115737915,0.08182650804519653,-0.308041512966156,0.3435187339782715,0.20733195543289185,0.01430533267557621,0.07534141838550568
12.73899221420288,0.08182650804519653,-0.3099488914012909,0.343900203704834,0.20771344006061554,0.013923857361078262,0.07534141838550568
12.759075164794922,0.08182650804519653,-0.3110933005809784,0.344663143157959,0.20847637951374054,0.013923857361078262,0.07572289556264877
12.77913784980774,0.08182650804519653,-0.3130006790161133,0.344663143157959,0.20885786414146423,0.013923857361078262,0.07572289556264877
12.799212217330933,0.08182650804519653,-0.31490805745124817,0.34504464268684387,0.20923933386802673,0.013923857361078262,0.07572289556264877
12.819337606430054,0.08182650804519653,-0.31528952717781067,0.34504464268684387,0.20923933386802673,0.013160906732082367,0.07572289556264877
12.8394296169281,0.08182650804519653,-0.31719690561294556,0.34542611241340637,0.20923933386802673,0.01201647985726595,0.07572289556264877
12.859488248825073,0.08182650804519653,-0.31757840514183044,0.34580758213996887,0.20962081849575043,0.01201647985726595,0.07572289556264877
12.879548072814941,0.08182650804519653,-0.31910428404808044,0.34618905186653137,0.20962081849575043,0.01201647985726595,0.07572289556264877
12.899601697921753,0.08182650804519653,-0.3213931620121002,0.34657052159309387,0.20962081849575043,0.011635004542768002,0.07610437273979187
12.919689655303955,0.08182650804519653,-0.3225375711917877,0.34695202112197876,0.21000228822231293,0.01201647985726595,0.07610437273979187
12.939749717712402,0.08182650804519653,-0.3233005404472351,0.34695202112197876,0.21000228822231293,0.011635004542768002,0.07610437273979187
12.959872007369995,0.08182650804519653,-0.3244449496269226,0.34733349084854126,0.21000228822231293,0.011635004542768002,0.07610437273979187
12.979916095733643,0.08182650804519653,-0.3255893886089325,0.34733349084854126,0.21038375794887543,0.011635004542768002,0.07610437273979187
13.000008821487427,0.08182650804519653,-0.32673379778862,0.34771496057510376,0.21076524257659912,0.011635004542768002,0.07610437273979187
13.020160675048828,0.08220797777175903,-0.32940414547920227,0.34847790002822876,0.21114671230316162,0.01125352829694748,0.07648584991693497
13.040228605270386,0.08220797777175903,-0.32978561520576477,0.34885939955711365,0.21152819693088531,0.01125352829694748,0.07648584991693497
13.060268878936768,0.08220797777175903,-0.33131152391433716,0.34885939955711365,0.21229113638401031,0.01125352829694748,0.07648584991693497
13.080385684967041,0.08258945494890213,-0.33398184180259705,0.34885939955711365,0.212672621011734,0.01125352829694748,0.07686731964349747
13.100445747375488,0.08297093212604523,-0.33512628078460693,0.34924086928367615,0.2130540907382965,0.01125352829694748,0.07724879682064056
13.120521545410156,0.08297093212604523,-0.33588922023773193,0.34962233901023865,0.2130540907382965,0.010872052982449532,0.07763027399778366
13.14061713218689,0.08297093212604523,-0.3377965986728668,0.35000380873680115,0.2130540907382965,0.01125352829694748,0.07801175117492676
13.160670518875122,0.08297093212604523,-0.3389410376548767,0.35038527846336365,0.2134355753660202,0.01125352829694748,0.07839322835206985
13.180756568908691,0.08297093212604523,-0.3400854468345642,0.35076677799224854,0.2134355753660202,0.010872052982449532,0.07915617525577545
13.200887203216553,0.08297093212604523,-0.3412298858165741,0.35076677799224854,0.2138170450925827,0.010872052982449532,0.07915617525577545
13.220911741256714,0.08297093212604523,-0.3435187339782715,0.35114824771881104,0.2138170450925827,0.010872052982449532,0.07915617525577545
13.241084575653076,0.08297093212604523,-0.34504464268684387,0.35191118717193604,0.2141985148191452,0.010872052982449532,0.07953765243291855
13.261167764663696,0.08297093212604523,-0.34618905186653137,0.35191118717193604,0.2145799994468689,0.010872052982449532,0.07953765243291855
13.281259536743164,0.08297093212604523,-0.34847790002822876,0.35191118717193604,0.2145799994468689,0.010490577667951584,0.07953765243291855
13.301311016082764,0.08297093212604523,-0.34885939955711365,0.35191118717193604,0.2157244235277176,0.010490577667951584,0.07953765243291855
13.321393966674805,0.08297093212604523,-0.35038527846336365,0.3526741564273834,0.2161058932542801,0.010490577667951584,0.07953765243291855
13.341483354568481,0.08335240930318832,-0.3526741564273834,0.3534370958805084,0.21648737788200378,0.010109102353453636,0.07953765243291855
13.361634969711304,0.08335240930318832,-0.3538185656070709,0.3538185656070709,0.21648737788200378,0.010490577667951584,0.07953765243291855
13.38164210319519,0.08373387902975082,-0.3545815348625183,0.3538185656070709,0.21686884760856628,0.010109102353453636,0.07991912961006165
13.401739835739136,0.08373387902975082,-0.3557259440422058,0.3538185656070709,0.21686884760856628,0.010109102353453636,0.07991912961006165
13.421798944473267,0.08373387902975082,-0.3564889132976532,0.3542000353336334,0.21686884760856628,0.010109102353453636,0.07991912961006165
13.44187593460083,0.08373387902975082,-0.3583962619304657,0.3549630045890808,0.21725031733512878,0.010109102353453636,0.07991912961006165
13.46192193031311,0.08373387902975082,-0.3606851398944855,0.3553444743156433,0.21725031733512878,0.010109102353453636,0.07991912961006165
13.48205280303955,0.08373387902975082,-0.3622110188007355,0.3557259440422058,0.21725031733512878,0.010490577667951584,0.08030059933662415
13.502164602279663,0.08373387902975082,-0.36335545778274536,0.3561074137687683,0.21763180196285248,0.009346150793135166,0.08030059933662415
13.522238731384277,0.08411535620689392,-0.36526283621788025,0.3561074137687683,0.21763180196285248,0.009346150793135166,0.08030059933662415
13.542290449142456,0.08411535620689392,-0.36678874492645264,0.3564889132976532,0.21801327168941498,0.008964675478637218,0.08030059933662415
13.562429428100586,0.08411535620689392,-0.36755168437957764,0.3572518527507782,0.21839475631713867,0.008964675478637218,0.08068207651376724
13.582517147064209,0.08411535620689392,-0.3694590628147125,0.3576333224773407,0.21877622604370117,0.008964675478637218,0.08068207651376724
13.602572441101074,0.08449683338403702,-0.3709849715232849,0.3580147922039032,0.21915769577026367,0.009346150793135166,0.08068207651376724
13.622635126113892,0.08487831056118011,-0.3713664412498474,0.3580147922039032,0.21992065012454987,0.00858320016413927,0.08068207651376724
13.64268708229065,0.08487831056118011,-0.3732738196849823,0.3580147922039032,0.22030213475227356,0.00858320016413927,0.08106355369091034
13.662764310836792,0.08487831056118011,-0.3747997283935547,0.3583962619304657,0.22030213475227356,0.00858320016413927,0.08106355369091034
13.682828426361084,0.08487831056118011,-0.3759441375732422,0.3591592311859131,0.22030213475227356,0.008201723918318748,0.08144503086805344
13.702969074249268,0.08487831056118011,-0.3778515160083771,0.3595407009124756,0.22068360447883606,0.008201723918318748,0.08182650804519653
13.723057746887207,0.08487831056118011,-0.37975889444351196,0.3595407009124756,0.22068360447883606,0.00858320016413927,0.08220797777175903
13.743230104446411,0.08487831056118011,-0.38166627287864685,0.3599221706390381,0.22106507420539856,0.0078202486038208,0.08258945494890213
13.763297319412231,0.08487831056118011,-0.38319218158721924,0.3603036403656006,0.22144655883312225,0.0078202486038208,0.08258945494890213
13.783294439315796,0.08525978773832321,-0.3847180902957916,0.3606851398944855,0.22144655883312225,0.0078202486038208,0.08258945494890213
13.80335783958435,0.08525978773832321,-0.386243999004364,0.3614480793476105,0.22182802855968475,0.0078202486038208,0.08258945494890213
13.823440313339233,0.08525978773832321,-0.3881513774394989,0.3614480793476105,0.22220951318740845,0.007438773289322853,0.08297093212604523
13.843512296676636,0.08564125746488571,-0.3885328471660614,0.3622110188007355,0.22297245264053345,0.0078202486038208,0.08297093212604523
13.863603115081787,0.08602273464202881,-0.3900587558746338,0.3622110188007355,0.22373540699481964,0.007057297509163618,0.08297093212604523
13.883693218231201,0.08602273464202881,-0.3923476040363312,0.36297398805618286,0.22411687672138214,0.007057297509163618,0.08297093212604523
13.903746128082275,0.08602273464202881,-0.39501792192459106,0.36335545778274536,0.22449836134910583,0.007438773289322853,0.08297093212604523
13.923827171325684,0.0864042118191719,-0.39616236090660095,0.36373692750930786,0.22449836134910583,0.007438773289322853,0.08297093212604523
13.943904399871826,0.0871671661734581,-0.39768826961517334,0.36411839723587036,0.22487983107566833,0.007057297509163618,0.08297093212604523
13.963962078094482,0.0871671661734581,-0.39921414852142334,0.36411839723587036,0.22526131570339203,0.00667582219466567,0.08335240930318832
13.984079837799072,0.0871671661734581,-0.4007400572299957,0.36449989676475525,0.22526131570339203,0.00667582219466567,0.08335240930318832
14.004131317138672,0.0871671661734581,-0.4018844962120056,0.36526283621788025,0.22564278542995453,0.007057297509163618,0.08335240930318832
14.024237394332886,0.0871671661734581,-0.4030289053916931,0.36564430594444275,0.22602425515651703,0.00667582219466567,0.08335240930318832
14.044268608093262,0.0871671661734581,-0.4045548141002655,0.36602577567100525,0.22640573978424072,0.00667582219466567,0.08335240930318832
14.064352035522461,0.0871671661734581,-0.4068436622619629,0.36640727519989014,0.22716869413852692,0.00667582219466567,0.08335240930318832
14.08446455001831,0.0871671661734581,-0.4091325104236603,0.36678874492645264,0.22755016386508942,0.00667582219466567,0.08335240930318832
14.104611873626709,0.0871671661734581,-0.41103988885879517,0.36717021465301514,0.22793163359165192,0.00667582219466567,0.08373387902975082
14.124616861343384,0.0875486359000206,-0.41294726729393005,0.36755168437957764,0.22793163359165192,0.006294346414506435,0.08373387902975082
14.144725799560547,0.0879301130771637,-0.41485464572906494,0.36793315410614014,0.2283131182193756,0.006294346414506435,0.08373387902975082
14.164783716201782,0.0879301130771637,-0.4171435236930847,0.368314653635025,0.2283131182193756,0.006294346414506435,0.08373387902975082
