liuyurong129/humanoid-gym/humanoid/data/actual_q_20250522-031526.csv
timestamp,joint_1,joint_2,joint_3,joint_4,joint_5,joint_6
0.00018739700317382812,0.000572213320992887,0.15583276748657227,-0.08030059933662415,0.00019073777366429567,0.025749599561095238,-0.00019073777366429567
0.0203704833984375,0.00019073777366429567,0.13218127191066742,-0.06885633617639542,0.00019073777366429567,0.024986648932099342,0.00019073777366429567
0.04038858413696289,0.00019073777366429567,0.11310750246047974,-0.06160829961299896,0.00019073777366429567,0.023460745811462402,-0.00019073777366429567
0.06046175956726074,0.00019073777366429567,0.1028076633810997,-0.0551232174038887,0.00019073777366429567,0.01888304017484188,-0.00019073777366429567
0.08057284355163574,0.00019073777366429567,0.09136339277029037,-0.04787518084049225,0.00019073777366429567,0.016594186425209045,-0.00019073777366429567
0.10065555572509766,0.00019073777366429567,0.08030059933662415,-0.040245670825242996,0.00019073777366429567,0.013923857361078262,-0.00019073777366429567
0.12072515487670898,0.00019073777366429567,0.07343403995037079,-0.03604944050312042,0.00019073777366429567,0.010490577667951584,-0.00019073777366429567
0.1408066749572754,0.000572213320992887,0.06733043491840363,-0.03376058489084244,0.00019073777366429567,0.00858320016413927,-0.00019073777366429567
0.16096806526184082,0.00019073777366429567,0.06275273114442825,-0.03337911143898964,-0.00019073777366429567,0.0078202486038208,-0.00019073777366429567
0.18103384971618652,0.000572213320992887,0.056267641484737396,-0.03337911143898964,-0.00019073777366429567,0.008201723918318748,-0.00019073777366429567
0.2011423110961914,0.000572213320992887,0.05130846053361893,-0.032616160809993744,-0.0013351644156500697,0.008201723918318748,-0.000572213320992887
0.22117280960083008,0.000572213320992887,0.048256658017635345,-0.03185320645570755,-0.0020981156267225742,0.00858320016413927,-0.000572213320992887
0.24126553535461426,0.000572213320992887,0.04406042397022247,-0.030708782374858856,-0.004005493130534887,0.00858320016413927,-0.0013351644156500697
0.2613639831542969,0.000572213320992887,0.040245670825242996,-0.029182879254221916,-0.00476844422519207,0.008964675478637218,-0.0020981156267225742
0.2814607620239258,0.000572213320992887,0.037193864583969116,-0.02880140393972397,-0.006294346414506435,0.008964675478637218,-0.0036240178160369396
0.3015720844268799,0.000572213320992887,0.032616160809993744,-0.02841992862522602,-0.007438773289322853,0.008964675478637218,-0.00476844422519207
0.3217167854309082,0.000572213320992887,0.028038453310728073,-0.02727550081908703,-0.008201723918318748,0.008964675478637218,-0.005149920005351305
0.342510461807251,0.000572213320992887,0.023079270496964455,-0.026512550190091133,-0.008964675478637218,0.008964675478637218,-0.005912871100008488
0.36259937286376953,0.000572213320992887,0.01926451548933983,-0.025749599561095238,-0.010872052982449532,0.008964675478637218,-0.00667582219466567
0.38266587257385254,0.000572213320992887,0.016212711110711098,-0.024986648932099342,-0.012397955171763897,0.00858320016413927,-0.0078202486038208
0.40276169776916504,0.000572213320992887,0.013160906732082367,-0.024605173617601395,-0.013923857361078262,0.008964675478637218,-0.008201723918318748
0.42284703254699707,0.00019073777366429567,0.010109102353453636,-0.024223696440458298,-0.01506828423589468,0.008964675478637218,-0.00858320016413927
0.4430382251739502,0.000572213320992887,0.005149920005351305,-0.023079270496964455,-0.016212711110711098,0.009346150793135166,-0.008964675478637218
0.4631974697113037,0.00019073777366429567,0.00019073777366429567,-0.02193484455347061,-0.01773861236870289,0.009346150793135166,-0.009727626107633114
0.48328471183776855,0.000572213320992887,-0.0032425422687083483,-0.02079041674733162,-0.01926451548933983,0.008964675478637218,-0.011635004542768002
0.503411054611206,0.00019073777366429567,-0.007438773289322853,-0.020027466118335724,-0.020027466118335724,0.009346150793135166,-0.01201647985726595
0.5234591960906982,0.00019073777366429567,-0.010872052982449532,-0.01888304017484188,-0.021171892061829567,0.009346150793135166,-0.012779430486261845
0.5435247421264648,0.00019073777366429567,-0.015449759550392628,-0.018501564860343933,-0.022697795182466507,0.009346150793135166,-0.013923857361078262
0.5636835098266602,0.00019073777366429567,-0.01888304017484188,-0.01773861236870289,-0.023460745811462402,0.009346150793135166,-0.01506828423589468
0.5837092399597168,0.00019073777366429567,-0.021553369238972664,-0.016975661739706993,-0.024223696440458298,0.009346150793135166,-0.015449759550392628
0.6038024425506592,0.00019073777366429567,-0.02536812424659729,-0.016212711110711098,-0.026131074875593185,0.009346150793135166,-0.01583123579621315
0.6240134239196777,0.00019073777366429567,-0.02994582988321781,-0.014686808921396732,-0.026512550190091133,0.009346150793135166,-0.016594186425209045
0.6441292762756348,0.00019073777366429567,-0.03490501269698143,-0.013923857361078262,-0.027656977996230125,0.009727626107633114,-0.018120087683200836
0.6642584800720215,0.00019073777366429567,-0.0394827201962471,-0.012397955171763897,-0.029564354568719864,0.009346150793135166,-0.01926451548933983
0.6843271255493164,0.00019073777366429567,-0.04100862145423889,-0.011635004542768002,-0.03032730519771576,0.009346150793135166,-0.02040894143283367
0.7044050693511963,-0.00019073777366429567,-0.045204851776361465,-0.010490577667951584,-0.031090257689356804,0.009346150793135166,-0.021171892061829567
0.7245492935180664,-0.00019073777366429567,-0.050164032727479935,-0.009727626107633114,-0.032616160809993744,0.010109102353453636,-0.023079270496964455
0.7451033592224121,-0.00019073777366429567,-0.0551232174038887,-0.008964675478637218,-0.034142062067985535,0.010109102353453636,-0.02384222112596035
0.7651932239532471,-0.00019073777366429567,-0.05741206929087639,-0.007438773289322853,-0.03528648987412453,0.009727626107633114,-0.02384222112596035
0.7852544784545898,-0.00019073777366429567,-0.06008239835500717,-0.00667582219466567,-0.03681239113211632,0.009346150793135166,-0.024986648932099342
0.8056125640869141,-0.00019073777366429567,-0.06389715522527695,-0.005149920005351305,-0.03795681521296501,0.009346150793135166,-0.026512550190091133
0.8255810737609863,-0.00019073777366429567,-0.06771191209554672,-0.004005493130534887,-0.039101243019104004,0.009727626107633114,-0.02727550081908703
0.845787525177002,-0.00019073777366429567,-0.0711451917886734,-0.0032425422687083483,-0.04100862145423889,0.010109102353453636,-0.027656977996230125
0.8658666610717773,-0.00019073777366429567,-0.07457847148180008,-0.0020981156267225742,-0.04253452271223068,0.010109102353453636,-0.029182879254221916
0.8860177993774414,-0.00019073777366429567,-0.07686731964349747,-0.0013351644156500697,-0.04444190114736557,0.009727626107633114,-0.030708782374858856
0.9061076641082764,-0.00019073777366429567,-0.08068207651376724,-0.00019073777366429567,-0.045204851776361465,0.009727626107633114,-0.03147173300385475
0.9261472225189209,-0.00019073777366429567,-0.08449683338403702,0.0009536888683214784,-0.04634927958250046,0.009727626107633114,-0.03185320645570755
0.9462218284606934,-0.00019073777366429567,-0.08945601433515549,0.0020981156267225742,-0.04749370738863945,0.010109102353453636,-0.03299763426184654
0.9663794040679932,-0.00019073777366429567,-0.09479667246341705,0.004005493130534887,-0.04940108209848404,0.010109102353453636,-0.03376058489084244
0.9864566326141357,-0.00019073777366429567,-0.09708552807569504,0.005149920005351305,-0.05092698708176613,0.010109102353453636,-0.034142062067985535
1.0065395832061768,-0.00019073777366429567,-0.10128175467252731,0.006294346414506435,-0.05283436179161072,0.009727626107633114,-0.03490501269698143
1.026700735092163,-0.00019073777366429567,-0.10624094307422638,0.008201723918318748,-0.05397878959774971,0.009727626107633114,-0.035667963325977325
1.0470435619354248,-0.00019073777366429567,-0.11272602528333664,0.008964675478637218,-0.0555046908557415,0.010490577667951584,-0.03643091395497322
1.0672166347503662,-0.00019073777366429567,-0.11654078215360641,0.01125352829694748,-0.05703059583902359,0.010490577667951584,-0.03833829239010811
1.0872547626495361,-0.00019073777366429567,-0.1199740618467331,0.011635004542768002,-0.059319447726011276,0.010109102353453636,-0.038719769567251205
1.107344150543213,-0.00019073777366429567,-0.12417028844356537,0.012779430486261845,-0.06046387553215027,0.010109102353453636,-0.0398641936480999
1.1274774074554443,-0.00019073777366429567,-0.12989242374897003,0.013923857361078262,-0.06084534898400307,0.010490577667951584,-0.04100862145423889
1.1475963592529297,-0.00019073777366429567,-0.1340886503458023,0.01583123579621315,-0.06275273114442825,0.010490577667951584,-0.04139009863138199
1.1676592826843262,-0.00019073777366429567,-0.1356145590543747,0.01735713705420494,-0.06466010212898254,0.010490577667951584,-0.042153049260377884
1.1877245903015137,-0.00019073777366429567,-0.13942931592464447,0.019645990803837776,-0.06580453366041183,0.010109102353453636,-0.04291599988937378
1.2078769207000732,-0.00019073777366429567,-0.14286258816719055,0.02079041674733162,-0.06771191209554672,0.010490577667951584,-0.04406042397022247
1.2279009819030762,-0.00019073777366429567,-0.14667734503746033,0.022697795182466507,-0.06885633617639542,0.010490577667951584,-0.04596780240535736
1.248046875,-0.00019073777366429567,-0.14820325374603271,0.023460745811462402,-0.0707637146115303,0.010490577667951584,-0.04634927958250046
1.2681033611297607,-0.00019073777366429567,-0.1520180106163025,0.024986648932099342,-0.0715266615152359,0.010490577667951584,-0.04901960864663124
1.2882862091064453,-0.00019073777366429567,-0.15659570693969727,0.026131074875593185,-0.0722896158695221,0.010490577667951584,-0.04940108209848404
1.3085010051727295,-0.00019073777366429567,-0.16231784224510193,0.027656977996230125,-0.07419699430465698,0.010872052982449532,-0.050164032727479935
1.328613042831421,-0.00019073777366429567,-0.16384375095367432,0.029564354568719864,-0.07572289556264877,0.010872052982449532,-0.051689937710762024
1.348764419555664,-0.00019073777366429567,-0.16880293190479279,0.03147173300385475,-0.07724879682064056,0.010490577667951584,-0.05283436179161072
1.36891508102417,-0.00019073777366429567,-0.17452506721019745,0.034142062067985535,-0.07877469807863235,0.010872052982449532,-0.05359731614589691
1.389286994934082,-0.00019073777366429567,-0.1802472025156021,0.03528648987412453,-0.07991912961006165,0.010872052982449532,-0.05436026677489281
1.4095146656036377,-0.00019073777366429567,-0.1848248988389969,0.03795681521296501,-0.08182650804519653,0.010872052982449532,-0.056267641484737396
1.4294753074645996,-0.00019073777366429567,-0.18749523162841797,0.038719769567251205,-0.08297093212604523,0.010872052982449532,-0.05703059583902359
1.4495604038238525,-0.00019073777366429567,-0.19169145822525024,0.040245670825242996,-0.08411535620689392,0.010872052982449532,-0.058175019919872284
1.4696407318115234,-0.00019073777366429567,-0.1958876997232437,0.04139009863138199,-0.08602273464202881,0.010872052982449532,-0.05893797054886818
1.489814281463623,-0.00019073777366429567,-0.20122835040092468,0.04253452271223068,-0.0871671661734581,0.010872052982449532,-0.06008239835500717
1.5099270343780518,-0.00019073777366429567,-0.20542457699775696,0.04444190114736557,-0.0879301130771637,0.01125352829694748,-0.06046387553215027
1.5299975872039795,-0.00019073777366429567,-0.20771344006061554,0.04596780240535736,-0.08945601433515549,0.01125352829694748,-0.06046387553215027
1.55051851272583,-0.00019073777366429567,-0.21152819693088531,0.04749370738863945,-0.09060044586658478,0.010872052982449532,-0.061226826161146164
1.570600986480713,-0.00019073777366429567,-0.21648737788200378,0.04940108209848404,-0.09136339277029037,0.01125352829694748,-0.06160829961299896
1.5908470153808594,-0.00019073777366429567,-0.22068360447883606,0.05130846053361893,-0.09327077120542526,0.01125352829694748,-0.06313420087099075
1.6110868453979492,-0.00019073777366429567,-0.22411687672138214,0.05436026677489281,-0.09479667246341705,0.01125352829694748,-0.06466010212898254
1.6310961246490479,-0.00019073777366429567,-0.22602425515651703,0.056267641484737396,-0.09708552807569504,0.01125352829694748,-0.06542305648326874
1.651188611984253,-0.00019073777366429567,-0.2290760725736618,0.05855649709701538,-0.09784847497940063,0.01125352829694748,-0.06733043491840363
1.671295166015625,-0.00019073777366429567,-0.23212787508964539,0.05970092490315437,-0.09861142933368683,0.01125352829694748,-0.06771191209554672
1.6914567947387695,-0.00019073777366429567,-0.23517967760562897,0.06160829961299896,-0.09937438368797302,0.01125352829694748,-0.06809338182210922
1.7116448879241943,-0.00019073777366429567,-0.23785001039505005,0.06427863240242004,-0.10166323184967041,0.01125352829694748,-0.06847485899925232
1.7316250801086426,-0.00019073777366429567,-0.23975738883018494,0.06618601083755493,-0.1028076633810997,0.01125352829694748,-0.07038223743438721
1.7518179416656494,-0.00019073777366429567,-0.24242770671844482,0.06847485899925232,-0.10471503436565399,0.01125352829694748,-0.0715266615152359
1.7718310356140137,-0.00019073777366429567,-0.2462424635887146,0.07000076025724411,-0.10547798871994019,0.01125352829694748,-0.07267109304666519
1.7923557758331299,-0.00019073777366429567,-0.24967575073242188,0.0711451917886734,-0.10585946589708328,0.01125352829694748,-0.07419699430465698
1.8124866485595703,-0.00019073777366429567,-0.25234606862068176,0.07343403995037079,-0.10738536715507507,0.01125352829694748,-0.07534141838550568
1.8325409889221191,-0.00019073777366429567,-0.25425344705581665,0.07457847148180008,-0.10929274559020996,0.01125352829694748,-0.07572289556264877
1.8526573181152344,-0.00019073777366429567,-0.2588311731815338,0.07686731964349747,-0.11005569249391556,0.011635004542768002,-0.07648584991693497
1.8727543354034424,-0.00019073777366429567,-0.2634088695049286,0.07801175117492676,-0.11196307092905045,0.011635004542768002,-0.07763027399778366
1.8928062915802002,-0.00019073777366429567,-0.26798656582832336,0.07953765243291855,-0.11310750246047974,0.011635004542768002,-0.07915617525577545
1.9131138324737549,-0.00019073777366429567,-0.26989394426345825,0.08144503086805344,-0.11387044936418533,0.011635004542768002,-0.07953765243291855
1.9335873126983643,-0.00019073777366429567,-0.27180132269859314,0.08297093212604523,-0.11463340371847153,0.01201647985726595,-0.07991912961006165
1.9536919593811035,-0.00019073777366429567,-0.2756160795688629,0.08525978773832321,-0.11615930497646332,0.01201647985726595,-0.08068207651376724
1.9743664264678955,-0.00019073777366429567,-0.2794308364391327,0.0871671661734581,-0.11730372905731201,0.01201647985726595,-0.08335240930318832
1.994466781616211,-0.00019073777366429567,-0.28248265385627747,0.09021896868944168,-0.1192111074924469,0.01201647985726595,-0.08411535620689392
2.0145254135131836,0.00019073777366429567,-0.28439003229141235,0.09136339277029037,-0.12073700875043869,0.012397955171763897,-0.08525978773832321
2.0346193313598633,0.00019073777366429567,-0.28820478916168213,0.09288929402828217,-0.12226291000843048,0.012397955171763897,-0.0864042118191719
2.0547635555267334,0.00019073777366429567,-0.290875107049942,0.09479667246341705,-0.12417028844356537,0.012397955171763897,-0.086785688996315
2.0750491619110107,0.00019073777366429567,-0.2939268946647644,0.09632257372140884,-0.12455176562070847,0.013160906732082367,-0.0871671661734581
2.0951626300811768,0.00019073777366429567,-0.2962157726287842,0.09899290651082993,-0.12607766687870026,0.013542382046580315,-0.0879301130771637
2.1152734756469727,0.00019073777366429567,-0.29812315106391907,0.10051880776882172,-0.12760357558727264,0.013923857361078262,-0.08983749151229858
2.1354260444641113,0.000572213320992887,-0.30041199922561646,0.1024261862039566,-0.12874799966812134,0.01506828423589468,-0.09098191559314728
2.155505657196045,0.000572213320992887,-0.30231937766075134,0.10433356463909149,-0.12951095402240753,0.01583123579621315,-0.09174486994743347
2.175934314727783,0.000572213320992887,-0.30498969554901123,0.10547798871994019,-0.13179980218410492,0.016594186425209045,-0.09288929402828217
2.196012258529663,0.000572213320992887,-0.3068970739841461,0.10738536715507507,-0.13218127191066742,0.016975661739706993,-0.09403372555971146
2.216106414794922,0.000572213320992887,-0.308804452419281,0.10891126841306686,-0.1329442262649536,0.01773861236870289,-0.09441519528627396
2.236191749572754,0.000572213320992887,-0.3110933005809784,0.11043716967105865,-0.134470134973526,0.018120087683200836,-0.09479667246341705
2.25626277923584,0.000572213320992887,-0.3130006790161133,0.11310750246047974,-0.1356145590543747,0.01773861236870289,-0.09555962681770325
2.2764670848846436,0.000572213320992887,-0.31567102670669556,0.11425192654132843,-0.1363775134086609,0.018120087683200836,-0.09708552807569504
2.296581268310547,0.000572213320992887,-0.31757840514183044,0.11692225188016891,-0.13752193748950958,0.018120087683200836,-0.09784847497940063
2.316668748855591,0.000572213320992887,-0.31910428404808044,0.1180666834115982,-0.13942931592464447,0.018501564860343933,-0.09937438368797302
2.337021589279175,0.000572213320992887,-0.3213931620121002,0.11959258466959,-0.14095520973205566,0.01888304017484188,-0.10128175467252731
2.3571341037750244,0.000572213320992887,-0.3244449496269226,0.12226291000843048,-0.14286258816719055,0.018501564860343933,-0.10166323184967041
2.377211093902588,0.000572213320992887,-0.3278782367706299,0.12302586436271667,-0.14362554252147675,0.018501564860343933,-0.1024261862039566
2.397272825241089,0.000572213320992887,-0.33016708493232727,0.12531471252441406,-0.14438849687576294,0.01888304017484188,-0.1028076633810997
2.4174113273620605,0.000572213320992887,-0.33169299364089966,0.12760357558727264,-0.14667734503746033,0.01888304017484188,-0.1035706102848053
2.437547445297241,0.000572213320992887,-0.33360037207603455,0.12912946939468384,-0.14782176911830902,0.01888304017484188,-0.10509651154279709
2.457636833190918,0.000572213320992887,-0.33588922023773193,0.13179980218410492,-0.1501106321811676,0.01926451548933983,-0.10547798871994019
2.4777462482452393,0.000572213320992887,-0.3381780683994293,0.1333257108926773,-0.1508735716342926,0.01926451548933983,-0.10624094307422638
2.497885227203369,0.000572213320992887,-0.3400854468345642,0.1356145590543747,-0.1508735716342926,0.019645990803837776,-0.10700388997793198
2.518073081970215,0.000572213320992887,-0.3412298858165741,0.13790340721607208,-0.1516365259885788,0.020027466118335724,-0.10891126841306686
2.5385024547576904,0.000572213320992887,-0.343137264251709,0.13942931592464447,-0.15430685877799988,0.02040894143283367,-0.10967422276735306
2.5585944652557373,0.000572213320992887,-0.34733349084854126,0.14248111844062805,-0.15506981313228607,0.02079041674733162,-0.11120012402534485
2.5789222717285156,0.000572213320992887,-0.35191118717193604,0.14476996660232544,-0.15659570693969727,0.02193484455347061,-0.11272602528333664
2.5989832878112793,0.000572213320992887,-0.3557259440422058,0.14820325374603271,-0.15812161564826965,0.022697795182466507,-0.11310750246047974
2.6190707683563232,0.0009536888683214784,-0.3568703830242157,0.1497291475534439,-0.15850308537483215,0.023460745811462402,-0.11348897218704224
2.639146566390991,0.0009536888683214784,-0.3599221706390381,0.1512550562620163,-0.15964750945568085,0.02384222112596035,-0.11387044936418533
2.659247398376465,0.0009536888683214784,-0.3622110188007355,0.15316243469715118,-0.16117341816425323,0.024223696440458298,-0.11501488089561462
2.6795849800109863,0.0009536888683214784,-0.36526283621788025,0.15506981313228607,-0.16269932687282562,0.024986648932099342,-0.11730372905731201
2.6996819972991943,0.0009536888683214784,-0.36793315410614014,0.15774014592170715,-0.16346226632595062,0.025749599561095238,-0.11768520623445511
2.7197530269622803,0.001716639962978661,-0.3686961233615875,0.15964750945568085,-0.1657511293888092,0.025749599561095238,-0.11959258466959
2.7400174140930176,0.0020981156267225742,-0.3706035017967224,0.16231784224510193,-0.1665140837430954,0.026131074875593185,-0.1203555315732956
2.7602295875549316,0.0020981156267225742,-0.3717479109764099,0.1661325991153717,-0.1680399775505066,0.026131074875593185,-0.12073700875043869
2.780283212661743,0.0020981156267225742,-0.3736552894115448,0.1676585078239441,-0.16956588625907898,0.02689402550458908,-0.12149996310472488
2.8003885746002197,0.0020981156267225742,-0.3751811981201172,0.17109178006649017,-0.17032882571220398,0.026512550190091133,-0.12226291000843048
2.820706605911255,0.0020981156267225742,-0.3767071068286896,0.17261768877506256,-0.17261768877506256,0.02689402550458908,-0.12378881871700287
2.8407962322235107,0.0020981156267225742,-0.37975889444351196,0.17566949129104614,-0.17528800666332245,0.026512550190091133,-0.12531471252441406
2.860863447189331,0.0020981156267225742,-0.3839551508426666,0.17757686972618103,-0.17757686972618103,0.02727550081908703,-0.12798504531383514
2.8812198638916016,0.0024795911740511656,-0.3877699077129364,0.17948424816131592,-0.17872129380702972,0.028038453310728073,-0.12836651504039764
2.901230573654175,0.0024795911740511656,-0.3892957866191864,0.1817730963230133,-0.1802472025156021,0.028038453310728073,-0.12912946939468384
2.921827793121338,0.0024795911740511656,-0.3923476040363312,0.1832990050315857,-0.1813916265964508,0.029182879254221916,-0.13027389347553253
2.9419901371002197,0.0024795911740511656,-0.39692530035972595,0.18635080754756927,-0.1836804747581482,0.029564354568719864,-0.13141833245754242
2.962033987045288,0.0024795911740511656,-0.4015030264854431,0.18825818598270416,-0.1844434291124344,0.03032730519771576,-0.13218127191066742
2.9822561740875244,0.0024795911740511656,-0.4053177833557129,0.19092851877212524,-0.1848248988389969,0.03032730519771576,-0.1325627565383911
3.002338409423828,0.002861066721379757,-0.4079881012439728,0.19359883666038513,-0.18558785319328308,0.03032730519771576,-0.1337071806192398
3.02242374420166,0.0024795911740511656,-0.40951400995254517,0.19512474536895752,-0.18673227727413177,0.03032730519771576,-0.1359960287809372
3.042581796646118,0.0024795911740511656,-0.41103988885879517,0.1985580176115036,-0.18787670135498047,0.03032730519771576,-0.1367589831352234
3.0628011226654053,0.002861066721379757,-0.41180285811424255,0.200083926320076,-0.18902114033699036,0.03032730519771576,-0.13866636157035828
3.0831105709075928,0.002861066721379757,-0.41180285811424255,0.20237277448177338,-0.19092851877212524,0.031090257689356804,-0.13866636157035828
3.103301525115967,0.002861066721379757,-0.41294726729393005,0.20466163754463196,-0.19283588230609894,0.03185320645570755,-0.13942931592464447
3.1235196590423584,0.002861066721379757,-0.41523614525794983,0.20695048570632935,-0.19512474536895752,0.032616160809993744,-0.13981078565120697
3.143606662750244,0.002861066721379757,-0.4182879328727722,0.21076524257659912,-0.1966506391763687,0.03299763426184654,-0.14133669435977936
3.1636691093444824,0.002861066721379757,-0.4209582805633545,0.21229113638401031,-0.1997024416923523,0.03337911143898964,-0.14209964871406555
3.183839797973633,0.002861066721379757,-0.4236285984516144,0.2153429538011551,-0.20237277448177338,0.03337911143898964,-0.14362554252147675
3.2039642333984375,0.002861066721379757,-0.42668038606643677,0.21686884760856628,-0.20351719856262207,0.03376058489084244,-0.14515145123004913
3.2240593433380127,0.002861066721379757,-0.43087664246559143,0.21953918039798737,-0.20428015291690826,0.034142062067985535,-0.14591439068317413
3.244137763977051,0.0032425422687083483,-0.4339284300804138,0.22144655883312225,-0.20695048570632935,0.03452353551983833,-0.14667734503746033
3.264188528060913,0.0036240178160369396,-0.4365987777709961,0.22335393726825714,-0.20847637951374054,0.03490501269698143,-0.14744029939174652
3.2843575477600098,0.004005493130534887,-0.438506156206131,0.22564278542995453,-0.21038375794887543,0.03490501269698143,-0.14820325374603271
3.304419755935669,0.004005493130534887,-0.440032035112381,0.22793163359165192,-0.21076524257659912,0.03490501269698143,-0.1497291475534439
3.3245174884796143,0.004386968910694122,-0.44193941354751587,0.2309834510087967,-0.21190966665744781,0.03528648987412453,-0.1504921019077301
3.3447253704071045,0.00476844422519207,-0.44346532225608826,0.2317463904619217,-0.2130540907382965,0.035667963325977325,-0.1512550562620163
3.3648598194122314,0.00476844422519207,-0.44575417041778564,0.23441672325134277,-0.2145799994468689,0.03643091395497322,-0.15354390442371368
3.384950637817383,0.00476844422519207,-0.44766154885292053,0.23594263195991516,-0.2161058932542801,0.037193864583969116,-0.15468832850456238
3.405107259750366,0.00476844422519207,-0.4491874575614929,0.23785001039505005,-0.21801327168941498,0.03757534176111221,-0.15506981313228607
3.4252572059631348,0.00476844422519207,-0.4503318965435028,0.24090181291103363,-0.21915769577026367,0.03757534176111221,-0.15659570693969727
3.445267677307129,0.00476844422519207,-0.4514763057231903,0.24280919134616852,-0.22106507420539856,0.03757534176111221,-0.15774014592170715
3.465358257293701,0.00476844422519207,-0.4530022144317627,0.2466239482164383,-0.22259098291397095,0.03757534176111221,-0.15888457000255585
3.4854650497436523,0.00476844422519207,-0.4541466534137726,0.24929426610469818,-0.22411687672138214,0.03757534176111221,-0.16079194843769073
3.5060815811157227,0.00476844422519207,-0.4556725323200226,0.25158312916755676,-0.22678720951080322,0.03795681521296501,-0.16231784224510193
3.526195764541626,0.00476844422519207,-0.45872434973716736,0.25425344705581665,-0.2286945879459381,0.03795681521296501,-0.16384375095367432
3.546241044998169,0.00476844422519207,-0.46253910660743713,0.25616082549095154,-0.2294575423002243,0.038719769567251205,-0.1653696447610855
3.566333293914795,0.00476844422519207,-0.4667353332042694,0.2595941126346588,-0.2298390120267868,0.039101243019104004,-0.1653696447610855
3.586425304412842,0.005149920005351305,-0.4697871506214142,0.2626459002494812,-0.2309834510087967,0.0398641936480999,-0.1657511293888092
3.6072990894317627,0.005149920005351305,-0.4732204079627991,0.2653162479400635,-0.23365376889705658,0.040627144277095795,-0.1665140837430954
3.62740421295166,0.005149920005351305,-0.47703516483306885,0.26913100481033325,-0.23479819297790527,0.04100862145423889,-0.1684214472770691
3.6474764347076416,0.005912871100008488,-0.47932401299476624,0.27103838324546814,-0.23708705604076385,0.04177157208323479,-0.16918440163135529
3.668090343475342,0.007057297509163618,-0.481612890958786,0.273708701133728,-0.23746852576732635,0.042153049260377884,-0.17071031033992767
3.6882011890411377,0.007057297509163618,-0.4842832088470459,0.2771419882774353,-0.23899443447589874,0.04329747334122658,-0.17185473442077637
3.708333730697632,0.007057297509163618,-0.4865720570087433,0.2790493667125702,-0.24166475236415863,0.045204851776361465,-0.17338064312934875
3.72837495803833,0.007057297509163618,-0.4884794354438782,0.28286412358283997,-0.2439536154270172,0.04558632895350456,-0.17338064312934875
3.7485084533691406,0.007057297509163618,-0.49114975333213806,0.28553444147109985,-0.2454795092344284,0.04558632895350456,-0.17528800666332245
3.768824815750122,0.007057297509163618,-0.49305713176727295,0.28858625888824463,-0.247768372297287,0.04596780240535736,-0.17605096101760864
3.7889420986175537,0.007057297509163618,-0.4953460097312927,0.2920195460319519,-0.24967575073242188,0.04558632895350456,-0.17833982408046722
3.8090200424194336,0.007057297509163618,-0.4980163276195526,0.2946898639202118,-0.25196459889411926,0.04558632895350456,-0.1806286722421646
3.8290798664093018,0.007057297509163618,-0.4999237060546875,0.29812315106391907,-0.25349050760269165,0.04558632895350456,-0.1813916265964508
3.8491392135620117,0.007057297509163618,-0.5018310546875,0.30003052949905396,-0.25539788603782654,0.04634927958250046,-0.182917520403862
3.8692331314086914,0.007438773289322853,-0.5041199326515198,0.30193790793418884,-0.25616082549095154,0.046730753034353256,-0.1848248988389969
3.8893136978149414,0.0078202486038208,-0.5064088106155396,0.30422675609588623,-0.2576867341995239,0.04749370738863945,-0.18596932291984558
3.909644603729248,0.0078202486038208,-0.5086976289749146,0.3057526648044586,-0.2599755823612213,0.048638131469488144,-0.18825818598270416
3.9297311305999756,0.0078202486038208,-0.5117494463920593,0.3091859221458435,-0.2626459002494812,0.04901960864663124,-0.18940261006355286
3.949801445007324,0.0078202486038208,-0.5144197940826416,0.3114747703075409,-0.2634088695049286,0.049782559275627136,-0.19130998849868774
3.9698832035064697,0.008201723918318748,-0.5163271427154541,0.31414511799812317,-0.264934778213501,0.05054550990462303,-0.19169145822525024
3.989993095397949,0.008201723918318748,-0.5182345509529114,0.31757840514183044,-0.266460657119751,0.05092698708176613,-0.19245441257953644
4.010028839111328,0.008201723918318748,-0.5205233693122864,0.31986725330352783,-0.26760509610176086,0.05130846053361893,-0.19321736693382263
4.030120134353638,0.00858320016413927,-0.5231937170028687,0.3240634799003601,-0.26836803555488586,0.051689937710762024,-0.19512474536895752
4.0501868724823,0.008964675478637218,-0.5247195959091187,0.3263523280620575,-0.27103838324546814,0.05207141116261482,-0.1958876997232437
4.070276498794556,0.008964675478637218,-0.5270084738731384,0.32978561520576477,-0.27218279242515564,0.05245288833975792,-0.1974135935306549
4.090351104736328,0.008964675478637218,-0.5285343527793884,0.33245593309402466,-0.2752346098423004,0.053215838968753815,-0.1993209719657898
4.1104042530059814,0.008964675478637218,-0.5308232307434082,0.33627068996429443,-0.2775234580039978,0.053215838968753815,-0.1997024416923523
4.130497694015503,0.008964675478637218,-0.533875048160553,0.3412298858165741,-0.2790493667125702,0.05283436179161072,-0.20199130475521088
4.150595188140869,0.008964675478637218,-0.535400927066803,0.3435187339782715,-0.2813382148742676,0.053215838968753815,-0.20351719856262207
4.170660972595215,0.009346150793135166,-0.5380712747573853,0.34771496057510376,-0.28248265385627747,0.053215838968753815,-0.20771344006061554
4.190771818161011,0.009346150793135166,-0.5407415628433228,0.35114824771881104,-0.28591591119766235,0.05359731614589691,-0.20847637951374054
4.211075305938721,0.009727626107633114,-0.5445563197135925,0.3549630045890808,-0.28858625888824463,0.05397878959774971,-0.21076524257659912
4.231112003326416,0.010109102353453636,-0.5472266674041748,0.3583962619304657,-0.290112167596817,0.054741740226745605,-0.212672621011734
4.251169204711914,0.010109102353453636,-0.5498970150947571,0.361066609621048,-0.2927824854850769,0.0555046908557415,-0.2149614691734314
4.271271467208862,0.010109102353453636,-0.5529488325119019,0.36526283621788025,-0.2946898639202118,0.0558861680328846,-0.21725031733512878
4.29135274887085,0.010109102353453636,-0.5556191205978394,0.36793315410614014,-0.2977416515350342,0.056267641484737396,-0.21839475631713867
4.311627626419067,0.010490577667951584,-0.5594338774681091,0.3713664412498474,-0.29888609051704407,0.05703059583902359,-0.21839475631713867
4.331759691238403,0.01125352829694748,-0.5624856948852539,0.3751811981201172,-0.30079346895217896,0.05664911866188049,-0.21992065012454987
4.351825475692749,0.011635004542768002,-0.5647745728492737,0.3770885765552521,-0.30384528636932373,0.05741206929087639,-0.22144655883312225
4.371916055679321,0.01201647985726595,-0.5678263306617737,0.38090333342552185,-0.3061341345310211,0.05741206929087639,-0.22373540699481964
4.391981363296509,0.012779430486261845,-0.5716410875320435,0.3850995600223541,-0.3091859221458435,0.059319447726011276,-0.22602425515651703
4.412040948867798,0.013160906732082367,-0.5750743746757507,0.3877699077129364,-0.3114747703075409,0.06046387553215027,-0.22755016386508942
4.432196378707886,0.01430533267557621,-0.578507661819458,0.3923476040363312,-0.3133821487426758,0.061226826161146164,-0.230601966381073
4.452234506607056,0.014686808921396732,-0.5811780095100403,0.39463645219802856,-0.31643396615982056,0.06237125024199486,-0.23403525352478027
4.472442865371704,0.014686808921396732,-0.5846112966537476,0.39883267879486084,-0.31910428404808044,0.06275273114442825,-0.23632410168647766
4.492679119110107,0.01506828423589468,-0.5895704627037048,0.4045548141002655,-0.32063019275665283,0.06313420087099075,-0.23785001039505005
4.512681484222412,0.01506828423589468,-0.5926222801208496,0.4068436622619629,-0.3229190409183502,0.06351567804813385,-0.24013885855674744
4.532777547836304,0.01506828423589468,-0.5968185067176819,0.41142138838768005,-0.32520791888237,0.06389715522527695,-0.24280919134616852
4.55289101600647,0.01506828423589468,-0.5998703241348267,0.41409170627593994,-0.3282597064971924,0.06389715522527695,-0.2447165697813034
4.572966814041138,0.01506828423589468,-0.6040665507316589,0.4182879328727722,-0.33093002438545227,0.06389715522527695,-0.2450980395078659
4.593032598495483,0.01506828423589468,-0.6067368388175964,0.421339750289917,-0.33512628078460693,0.06466010212898254,-0.247768372297287
4.61328911781311,0.015449759550392628,-0.6094071865081787,0.4243915379047394,-0.3381780683994293,0.06504157930612564,-0.2508201599121094
4.633399963378906,0.016212711110711098,-0.6132219433784485,0.42973220348358154,-0.3416113555431366,0.06542305648326874,-0.25234606862068176
4.653517484664917,0.016975661739706993,-0.6174181699752808,0.4327840209007263,-0.3423742949962616,0.06542305648326874,-0.25501641631126404
4.673595666885376,0.01735713705420494,-0.6219958662986755,0.4373617172241211,-0.34542611241340637,0.06733043491840363,-0.2573052644729614
4.693706750869751,0.01773861236870289,-0.6261920928955078,0.44232088327407837,-0.34809643030166626,0.06847485899925232,-0.2611200213432312
4.713765859603882,0.01888304017484188,-0.6300068497657776,0.44537270069122314,-0.35038527846336365,0.06923781335353851,-0.2634088695049286
4.733873605728149,0.019645990803837776,-0.6334401369094849,0.4495689272880554,-0.3530556261539459,0.06961929053068161,-0.2653162479400635
4.754016637802124,0.019645990803837776,-0.6372548937797546,0.4537651538848877,-0.3553444743156433,0.0707637146115303,-0.26951247453689575
4.774226903915405,0.019645990803837776,-0.6399252414703369,0.45719844102859497,-0.3606851398944855,0.0715266615152359,-0.27141985297203064
4.7945826053619385,0.02040894143283367,-0.6422140598297119,0.45986875891685486,-0.36297398805618286,0.0722896158695221,-0.2748531401157379
4.814740896224976,0.021553369238972664,-0.6456473469734192,0.4640650153160095,-0.36793315410614014,0.07267109304666519,-0.2786678969860077
4.834738731384277,0.021553369238972664,-0.648699164390564,0.4663538634777069,-0.3702220320701599,0.07267109304666519,-0.2813382148742676
4.854827642440796,0.021553369238972664,-0.6525139212608337,0.4705500900745392,-0.3721294105052948,0.07419699430465698,-0.28553444147109985
4.874908447265625,0.021553369238972664,-0.655184268951416,0.4728389382362366,-0.3751811981201172,0.07572289556264877,-0.28896772861480713
4.895146369934082,0.021553369238972664,-0.6578545570373535,0.47512778639793396,-0.37899595499038696,0.07610437273979187,-0.2927824854850769
4.915223836898804,0.02193484455347061,-0.6612878441810608,0.47932401299476624,-0.3839551508426666,0.07724879682064056,-0.2969787120819092
4.935298442840576,0.02231631986796856,-0.6639581918716431,0.4827573001384735,-0.387006938457489,0.07763027399778366,-0.30041199922561646
4.955398321151733,0.023079270496964455,-0.6673914790153503,0.4869535267353058,-0.3900587558746338,0.07763027399778366,-0.30384528636932373
4.975510835647583,0.02384222112596035,-0.6708247661590576,0.49229419231414795,-0.3931105434894562,0.07801175117492676,-0.3065156042575836
4.995560646057129,0.024605173617601395,-0.6734950542449951,0.4953460097312927,-0.39463645219802856,0.07839322835206985,-0.3110933005809784
5.01576828956604,0.025749599561095238,-0.6773098111152649,0.5006866455078125,-0.39768826961517334,0.07991912961006165,-0.31414511799812317
5.035834312438965,0.025749599561095238,-0.6803616285324097,0.5037384629249573,-0.4007400572299957,0.08068207651376724,-0.31986725330352783
5.055917978286743,0.026512550190091133,-0.6830319762229919,0.506790280342102,-0.404936283826828,0.07991912961006165,-0.3236820101737976
5.076022148132324,0.02727550081908703,-0.6853207945823669,0.5098420977592468,-0.4091325104236603,0.08220797777175903,-0.3271152675151825
5.096146583557129,0.02727550081908703,-0.6872282028198242,0.5121309161186218,-0.41485464572906494,0.08411535620689392,-0.33131152391433716
5.116291046142578,0.027656977996230125,-0.6891355514526367,0.5159456729888916,-0.4186694025993347,0.08487831056118011,-0.33550775051116943
5.136443376541138,0.027656977996230125,-0.6914244294166565,0.5186160206794739,-0.4232471287250519,0.08602273464202881,-0.3419928252696991
5.156470537185669,0.027656977996230125,-0.6940947771072388,0.5224307775497437,-0.42782482504844666,0.0864042118191719,-0.34847790002822876
5.176582336425781,0.027656977996230125,-0.6960021257400513,0.5251010656356812,-0.4331654906272888,0.0871671661734581,-0.3545815348625183
5.196703195571899,0.027656977996230125,-0.6979095339775085,0.5277714133262634,-0.439269095659256,0.08869306743144989,-0.3606851398944855
5.216832876205444,0.028038453310728073,-0.700579822063446,0.5312047004699707,-0.44346532225608826,0.08945601433515549,-0.3694590628147125
5.236904859542847,0.02841992862522602,-0.7024872303009033,0.5331120491027832,-0.4491874575614929,0.09021896868944168,-0.3774700462818146
5.257017135620117,0.02880140393972397,-0.7043945789337158,0.5357823967933655,-0.4533836841583252,0.09098191559314728,-0.3843366205692291
5.277139663696289,0.02880140393972397,-0.7055390477180481,0.5373083353042603,-0.45796138048171997,0.09098191559314728,-0.3931105434894562
5.297180652618408,0.029564354568719864,-0.7066834568977356,0.5392156839370728,-0.46368351578712463,0.09250781685113907,-0.4015030264854431
5.317355632781982,0.03032730519771576,-0.7089722752571106,0.541886031627655,-0.4694056510925293,0.09479667246341705,-0.41027694940567017
5.337506055831909,0.031090257689356804,-0.7104982137680054,0.54417484998703,-0.47398337721824646,0.09632257372140884,-0.4186694025993347
5.357524156570435,0.03185320645570755,-0.7116426229476929,0.5460822582244873,-0.47741663455963135,0.09784847497940063,-0.42553597688674927
5.37762975692749,0.03185320645570755,-0.7131685614585876,0.5479896068572998,-0.482375830411911,0.09899290651082993,-0.4339284300804138
5.397870302200317,0.03185320645570755,-0.7139315009117126,0.5491340756416321,-0.4869535267353058,0.10090028494596481,-0.4404135048389435
5.418049335479736,0.03185320645570755,-0.7146944403648376,0.5502784848213196,-0.49000534415245056,0.10166323184967041,-0.44651713967323303
5.4381372928619385,0.03223468363285065,-0.7158388495445251,0.5510414242744446,-0.49305713176727295,0.1028076633810997,-0.4545281231403351
5.45818829536438,0.03299763426184654,-0.7166017889976501,0.5521858334541321,-0.4964904189109802,0.1031891331076622,-0.45986875891685486
5.478266000747681,0.03376058489084244,-0.7177462577819824,0.5529488325119019,-0.50030517578125,0.1039520874619484,-0.4648279547691345
5.499281406402588,0.034142062067985535,-0.7185091972351074,0.5537117719650269,-0.5025940537452698,0.10509651154279709,-0.4705500900745392
5.519402265548706,0.034142062067985535,-0.7188906669616699,0.5556191205978394,-0.5037384629249573,0.10624094307422638,-0.47665369510650635
5.539454460144043,0.03604944050312042,-0.7196536064147949,0.5567635893821716,-0.507553219795227,0.10662241280078888,-0.4812313914299011
5.559541940689087,0.03604944050312042,-0.7204165458679199,0.5575265288352966,-0.5102235674858093,0.10700388997793198,-0.4846646785736084
5.579628229141235,0.03604944050312042,-0.7207980751991272,0.5579079985618591,-0.5136567950248718,0.10662241280078888,-0.4884794354438782
5.6002891063690186,0.03604944050312042,-0.7215610146522522,0.5579079985618591,-0.5163271427154541,0.10662241280078888,-0.49229419231414795
5.620378255844116,0.03604944050312042,-0.7223239541053772,0.5582894682884216,-0.5182345509529114,0.10738536715507507,-0.4983977973461151
5.640440464019775,0.03604944050312042,-0.7230868935585022,0.5590524077415466,-0.5216678380966187,0.10852979123592377,-0.5029755234718323
5.660638093948364,0.03604944050312042,-0.7238498330116272,0.5598153471946716,-0.5243381261825562,0.10891126841306686,-0.5064088106155396
5.680755615234375,0.037193864583969116,-0.7242313027381897,0.5609598159790039,-0.5247195959091187,0.10929274559020996,-0.508316159248352
5.700731039047241,0.03795681521296501,-0.724612832069397,0.5617227554321289,-0.5251010656356812,0.10891126841306686,-0.5117494463920593
5.7208216190338135,0.03833829239010811,-0.724612832069397,0.5617227554321289,-0.5273899435997009,0.10929274559020996,-0.5132753252983093
5.74089789390564,0.03833829239010811,-0.7249943017959595,0.5617227554321289,-0.5292973518371582,0.11043716967105865,-0.5167086124420166
5.761023759841919,0.03833829239010811,-0.7265201807022095,0.5617227554321289,-0.5331120491027832,0.11234454810619354,-0.5216678380966187
5.781084299087524,0.03833829239010811,-0.7272831201553345,0.5628671646118164,-0.536163866519928,0.11272602528333664,-0.5247195959091187
5.801154851913452,0.038719769567251205,-0.7280460596084595,0.5632486343383789,-0.536926805973053,0.11310750246047974,-0.5281528830528259
5.821343898773193,0.0394827201962471,-0.728427529335022,0.5643930435180664,-0.5388342142105103,0.11196307092905045,-0.5300602912902832
5.841353893280029,0.040245670825242996,-0.7288090586662292,0.5651560425758362,-0.5403600931167603,0.11158160120248795,-0.5315861701965332
5.861454725265503,0.04139009863138199,-0.7288090586662292,0.5655375123023987,-0.5415045619010925,0.11196307092905045,-0.5319676399230957
5.881613731384277,0.04139009863138199,-0.7288090586662292,0.5655375123023987,-0.54264897108078,0.11272602528333664,-0.533875048160553
5.901618003845215,0.04139009863138199,-0.7295719981193542,0.5651560425758362,-0.5437933802604675,0.11310750246047974,-0.536926805973053
5.921720266342163,0.04139009863138199,-0.7310978770256042,0.5651560425758362,-0.5449378490447998,0.11310750246047974,-0.5388342142105103
5.941782474517822,0.04100862145423889,-0.7318608164787292,0.5651560425758362,-0.5464637279510498,0.11234454810619354,-0.5395971536636353
5.9618980884552,0.04100862145423889,-0.7318608164787292,0.5655375123023987,-0.5476081371307373,0.11272602528333664,-0.541886031627655
5.9819653034210205,0.04100862145423889,-0.7318608164787292,0.5659189820289612,-0.5502784848213196,0.11272602528333664,-0.5445563197135925
6.002046823501587,0.04100862145423889,-0.7318608164787292,0.5670633912086487,-0.5502784848213196,0.11272602528333664,-0.5464637279510498
6.022156476974487,0.04100862145423889,-0.7318608164787292,0.5670633912086487,-0.5498970150947571,0.11272602528333664,-0.5468451976776123
6.042417049407959,0.04100862145423889,-0.7318608164787292,0.5670633912086487,-0.5502784848213196,0.11310750246047974,-0.5476081371307373
6.0626795291900635,0.04100862145423889,-0.7322422862052917,0.5670633912086487,-0.5510414242744446,0.11348897218704224,-0.5491340756416321
6.082845211029053,0.04100862145423889,-0.732623815536499,0.5670633912086487,-0.5521858334541321,0.11348897218704224,-0.5502784848213196
6.102978229522705,0.04100862145423889,-0.7330052852630615,0.5670633912086487,-0.5540932416915894,0.11348897218704224,-0.5506599545478821
6.123056888580322,0.04100862145423889,-0.7330052852630615,0.5674448609352112,-0.5540932416915894,0.11348897218704224,-0.5506599545478821
6.143173694610596,0.04100862145423889,-0.7330052852630615,0.5674448609352112,-0.5540932416915894,0.11348897218704224,-0.5510414242744446
6.1632678508758545,0.04100862145423889,-0.7330052852630615,0.5678263306617737,-0.5540932416915894,0.11387044936418533,-0.5510414242744446
6.18330717086792,0.04100862145423889,-0.733386754989624,0.5678263306617737,-0.5544747114181519,0.11539635062217712,-0.5518043637275696
6.20342755317688,0.04100862145423889,-0.734149694442749,0.5678263306617737,-0.5548561811447144,0.11577782779932022,-0.5540932416915894
6.2235023975372314,0.04139009863138199,-0.734149694442749,0.5678263306617737,-0.5567635893821716,0.11577782779932022,-0.5544747114181519
6.243631839752197,0.04100862145423889,-0.7345311641693115,0.5682078003883362,-0.5586709380149841,0.11577782779932022,-0.5552376508712769
6.263814210891724,0.04100862145423889,-0.734912633895874,0.568970799446106,-0.5582894682884216,0.11577782779932022,-0.5560005903244019
6.283853530883789,0.04100862145423889,-0.734912633895874,0.5701152086257935,-0.5582894682884216,0.11615930497646332,-0.5563820600509644
6.3041181564331055,0.04100862145423889,-0.734912633895874,0.5708781480789185,-0.5586709380149841,0.11577782779932022,-0.5567635893821716
6.324097394943237,0.04100862145423889,-0.7352941036224365,0.5708781480789185,-0.5586709380149841,0.11577782779932022,-0.5571450591087341
6.344210863113403,0.04100862145423889,-0.7360570430755615,0.5708781480789185,-0.5586709380149841,0.11577782779932022,-0.5571450591087341
6.364353656768799,0.04100862145423889,-0.7368200421333313,0.5708781480789185,-0.5590524077415466,0.11577782779932022,-0.5575265288352966
6.384379863739014,0.04100862145423889,-0.7375829815864563,0.5708781480789185,-0.5601968169212341,0.11615930497646332,-0.5575265288352966
6.404475212097168,0.04139009863138199,-0.7379644513130188,0.5708781480789185,-0.5617227554321289,0.11654078215360641,-0.5582894682884216
6.424595832824707,0.04139009863138199,-0.7379644513130188,0.5708781480789185,-0.5617227554321289,0.11615930497646332,-0.5582894682884216
6.445225477218628,0.04177157208323479,-0.7379644513130188,0.5708781480789185,-0.5621042251586914,0.11615930497646332,-0.5582894682884216
6.465307712554932,0.04253452271223068,-0.7379644513130188,0.5708781480789185,-0.5621042251586914,0.11615930497646332,-0.5582894682884216
6.485401630401611,0.04253452271223068,-0.7379644513130188,0.5708781480789185,-0.5621042251586914,0.11615930497646332,-0.5582894682884216
6.505535125732422,0.04253452271223068,-0.7379644513130188,0.5708781480789185,-0.5624856948852539,0.11654078215360641,-0.5582894682884216
6.525636911392212,0.04253452271223068,-0.7379644513130188,0.5708781480789185,-0.5624856948852539,0.11615930497646332,-0.5582894682884216
6.5457541942596436,0.04253452271223068,-0.7379644513130188,0.5708781480789185,-0.5624856948852539,0.11615930497646332,-0.5582894682884216
6.5658040046691895,0.04253452271223068,-0.7383459210395813,0.5708781480789185,-0.5628671646118164,0.11577782779932022,-0.5582894682884216
6.585983753204346,0.04253452271223068,-0.7383459210395813,0.5708781480789185,-0.5632486343383789,0.11615930497646332,-0.5586709380149841
6.606147527694702,0.04253452271223068,-0.7383459210395813,0.5708781480789185,-0.5647745728492737,0.11615930497646332,-0.5586709380149841
6.626209259033203,0.04253452271223068,-0.7383459210395813,0.5708781480789185,-0.5651560425758362,0.11615930497646332,-0.5601968169212341
6.646260023117065,0.04253452271223068,-0.7383459210395813,0.571259617805481,-0.5651560425758362,0.11615930497646332,-0.5613412857055664
6.666361570358276,0.04253452271223068,-0.7383459210395813,0.571259617805481,-0.5651560425758362,0.11615930497646332,-0.5613412857055664
6.686434030532837,0.04253452271223068,-0.7387273907661438,0.5716410875320435,-0.5651560425758362,0.11615930497646332,-0.5613412857055664
6.70657205581665,0.04253452271223068,-0.7387273907661438,0.5716410875320435,-0.5651560425758362,0.11615930497646332,-0.5613412857055664
6.7267115116119385,0.04253452271223068,-0.7387273907661438,0.572022557258606,-0.5651560425758362,0.11615930497646332,-0.5613412857055664
6.7467262744903564,0.04253452271223068,-0.7387273907661438,0.572022557258606,-0.5655375123023987,0.11654078215360641,-0.5613412857055664
6.766904830932617,0.04253452271223068,-0.7387273907661438,0.572022557258606,-0.5655375123023987,0.11654078215360641,-0.5613412857055664
6.787130117416382,0.04253452271223068,-0.7391088604927063,0.572022557258606,-0.5659189820289612,0.11692225188016891,-0.5613412857055664
6.8073670864105225,0.04253452271223068,-0.7391088604927063,0.572022557258606,-0.5655375123023987,0.11730372905731201,-0.5613412857055664
6.827825546264648,0.04253452271223068,-0.7391088604927063,0.572022557258606,-0.5659189820289612,0.11692225188016891,-0.5613412857055664
6.847880125045776,0.042153049260377884,-0.7391088604927063,0.572022557258606,-0.5659189820289612,0.11730372905731201,-0.5613412857055664
6.867965936660767,0.042153049260377884,-0.7391088604927063,0.5724040865898132,-0.5663004517555237,0.11730372905731201,-0.5613412857055664
6.888036251068115,0.042153049260377884,-0.7391088604927063,0.5727855563163757,-0.5663004517555237,0.11768520623445511,-0.5613412857055664
6.9082605838775635,0.042153049260377884,-0.7391088604927063,0.5727855563163757,-0.5666819214820862,0.1180666834115982,-0.5613412857055664
6.928240060806274,0.04177157208323479,-0.7394903302192688,0.5727855563163757,-0.5666819214820862,0.1180666834115982,-0.5613412857055664
6.948385715484619,0.04177157208323479,-0.7398717999458313,0.5727855563163757,-0.5670633912086487,0.1180666834115982,-0.5613412857055664
6.968455791473389,0.04177157208323479,-0.7402533292770386,0.5727855563163757,-0.5670633912086487,0.1180666834115982,-0.5613412857055664
6.988674640655518,0.04177157208323479,-0.7410162687301636,0.5727855563163757,-0.5678263306617737,0.1184481605887413,-0.5617227554321289
7.00876522064209,0.04177157208323479,-0.7410162687301636,0.5731670260429382,-0.5682078003883362,0.11959258466959,-0.5617227554321289
7.0288190841674805,0.04177157208323479,-0.7410162687301636,0.5731670260429382,-0.5685893297195435,0.1192111074924469,-0.5617227554321289
7.0489184856414795,0.04177157208323479,-0.7410162687301636,0.5739299654960632,-0.5685893297195435,0.11959258466959,-0.5617227554321289
7.069058179855347,0.04177157208323479,-0.7410162687301636,0.5739299654960632,-0.5685893297195435,0.11959258466959,-0.5617227554321289
7.089243173599243,0.04177157208323479,-0.7410162687301636,0.5739299654960632,-0.5685893297195435,0.11959258466959,-0.5617227554321289
7.109358072280884,0.04177157208323479,-0.7413977384567261,0.5739299654960632,-0.5685893297195435,0.11959258466959,-0.5617227554321289
7.129493713378906,0.04177157208323479,-0.7413977384567261,0.5739299654960632,-0.5685893297195435,0.11959258466959,-0.5617227554321289
7.149621486663818,0.04177157208323479,-0.7421606779098511,0.5739299654960632,-0.5685893297195435,0.1192111074924469,-0.5617227554321289
7.169642448425293,0.042153049260377884,-0.7421606779098511,0.5739299654960632,-0.5685893297195435,0.1192111074924469,-0.5617227554321289
7.189691781997681,0.042153049260377884,-0.7421606779098511,0.5739299654960632,-0.5685893297195435,0.1192111074924469,-0.5617227554321289
7.209804058074951,0.04253452271223068,-0.7421606779098511,0.5743114352226257,-0.5685893297195435,0.1192111074924469,-0.5617227554321289
7.229936361312866,0.04253452271223068,-0.7421606779098511,0.5746929049491882,-0.5685893297195435,0.11959258466959,-0.5617227554321289
7.250032186508179,0.04253452271223068,-0.7421606779098511,0.5750743746757507,-0.5685893297195435,0.1192111074924469,-0.5617227554321289
7.270102262496948,0.04253452271223068,-0.7421606779098511,0.5750743746757507,-0.5685893297195435,0.1188296303153038,-0.5617227554321289
7.2905051708221436,0.04253452271223068,-0.7421606779098511,0.5750743746757507,-0.5685893297195435,0.1184481605887413,-0.5617227554321289
7.31061577796936,0.04253452271223068,-0.7421606779098511,0.5750743746757507,-0.5685893297195435,0.1188296303153038,-0.5617227554321289
7.330652713775635,0.04253452271223068,-0.7421606779098511,0.5750743746757507,-0.5685893297195435,0.1188296303153038,-0.5617227554321289
7.350754499435425,0.04253452271223068,-0.7421606779098511,0.5750743746757507,-0.5685893297195435,0.1188296303153038,-0.5617227554321289
7.370849132537842,0.04253452271223068,-0.7421606779098511,0.5750743746757507,-0.5685893297195435,0.1188296303153038,-0.5617227554321289
7.391313552856445,0.04253452271223068,-0.7421606779098511,0.5750743746757507,-0.5685893297195435,0.1188296303153038,-0.5617227554321289
7.4114158153533936,0.04253452271223068,-0.7421606779098511,0.5750743746757507,-0.5685893297195435,0.1188296303153038,-0.5617227554321289
7.4315454959869385,0.04253452271223068,-0.7421606779098511,0.5750743746757507,-0.568970799446106,0.1188296303153038,-0.5617227554321289
7.451602220535278,0.04253452271223068,-0.7421606779098511,0.5750743746757507,-0.5685893297195435,0.1188296303153038,-0.5617227554321289
7.471742630004883,0.04253452271223068,-0.7421606779098511,0.5750743746757507,-0.5685893297195435,0.1184481605887413,-0.5617227554321289
7.492108345031738,0.04329747334122658,-0.7421606779098511,0.5750743746757507,-0.5685893297195435,0.1184481605887413,-0.5617227554321289
7.5122902393341064,0.04329747334122658,-0.7421606779098511,0.5750743746757507,-0.568970799446106,0.1188296303153038,-0.5617227554321289
7.532331943511963,0.04329747334122658,-0.7421606779098511,0.5750743746757507,-0.568970799446106,0.1188296303153038,-0.5617227554321289
7.552592754364014,0.04329747334122658,-0.7421606779098511,0.5750743746757507,-0.568970799446106,0.1188296303153038,-0.5617227554321289
7.57270359992981,0.04329747334122658,-0.7421606779098511,0.5750743746757507,-0.568970799446106,0.1184481605887413,-0.5617227554321289
7.592726945877075,0.04329747334122658,-0.7421606779098511,0.5750743746757507,-0.568970799446106,0.1184481605887413,-0.5617227554321289
7.612902641296387,0.04329747334122658,-0.7421606779098511,0.5750743746757507,-0.5693522691726685,0.1180666834115982,-0.5621042251586914
7.633018732070923,0.04329747334122658,-0.7421606779098511,0.5750743746757507,-0.5693522691726685,0.1180666834115982,-0.5621042251586914
7.653157711029053,0.04329747334122658,-0.7421606779098511,0.5750743746757507,-0.5693522691726685,0.1180666834115982,-0.5621042251586914
7.678063631057739,0.04329747334122658,-0.7421606779098511,0.5750743746757507,-0.5693522691726685,0.1180666834115982,-0.5621042251586914
7.698181390762329,0.042153049260377884,-0.7421606779098511,0.5750743746757507,-0.5693522691726685,0.1180666834115982,-0.5621042251586914
7.7182769775390625,0.04253452271223068,-0.7421606779098511,0.5750743746757507,-0.5693522691726685,0.1180666834115982,-0.5621042251586914
7.738365888595581,0.042153049260377884,-0.7421606779098511,0.5750743746757507,-0.5693522691726685,0.11730372905731201,-0.5621042251586914
7.758473873138428,0.042153049260377884,-0.7421606779098511,0.5750743746757507,-0.5693522691726685,0.11692225188016891,-0.5621042251586914
7.778522253036499,0.042153049260377884,-0.7421606779098511,0.5750743746757507,-0.5693522691726685,0.11730372905731201,-0.5621042251586914
7.798627138137817,0.042153049260377884,-0.7421606779098511,0.5750743746757507,-0.5693522691726685,0.11730372905731201,-0.5621042251586914
7.818734645843506,0.04253452271223068,-0.7421606779098511,0.5750743746757507,-0.5693522691726685,0.11768520623445511,-0.5621042251586914
7.838813304901123,0.04253452271223068,-0.7421606779098511,0.5750743746757507,-0.5693522691726685,0.11768520623445511,-0.5621042251586914
7.858899116516113,0.04253452271223068,-0.7421606779098511,0.5750743746757507,-0.5693522691726685,0.11768520623445511,-0.5621042251586914
7.8794190883636475,0.04253452271223068,-0.7421606779098511,0.5750743746757507,-0.5693522691726685,0.11768520623445511,-0.5621042251586914
7.8995139598846436,0.042153049260377884,-0.7421606779098511,0.5750743746757507,-0.5693522691726685,0.11768520623445511,-0.5621042251586914
7.919575214385986,0.04253452271223068,-0.7421606779098511,0.5750743746757507,-0.5693522691726685,0.1180666834115982,-0.5621042251586914
7.939762592315674,0.04253452271223068,-0.7421606779098511,0.5750743746757507,-0.5693522691726685,0.1180666834115982,-0.5621042251586914
7.959764719009399,0.04253452271223068,-0.7421606779098511,0.5750743746757507,-0.5693522691726685,0.1180666834115982,-0.5621042251586914
7.980010747909546,0.04253452271223068,-0.7421606779098511,0.5750743746757507,-0.5693522691726685,0.1180666834115982,-0.5621042251586914
7.999999761581421,0.04253452271223068,-0.7421606779098511,0.5750743746757507,-0.5693522691726685,0.1180666834115982,-0.5621042251586914
8.020063877105713,0.04253452271223068,-0.7421606779098511,0.5750743746757507,-0.5693522691726685,0.1180666834115982,-0.5621042251586914
8.04013991355896,0.04253452271223068,-0.7421606779098511,0.5750743746757507,-0.5693522691726685,0.1180666834115982,-0.5621042251586914
8.06023645401001,0.04253452271223068,-0.7421606779098511,0.5750743746757507,-0.569733738899231,0.1180666834115982,-0.5621042251586914
8.080329179763794,0.04253452271223068,-0.7421606779098511,0.5750743746757507,-0.5693522691726685,0.1184481605887413,-0.5621042251586914
8.100385189056396,0.04253452271223068,-0.7421606779098511,0.5750743746757507,-0.5693522691726685,0.1184481605887413,-0.5621042251586914
8.120480298995972,0.04253452271223068,-0.7421606779098511,0.5750743746757507,-0.5693522691726685,0.1184481605887413,-0.5621042251586914
8.140603065490723,0.04253452271223068,-0.7421606779098511,0.5750743746757507,-0.5693522691726685,0.1184481605887413,-0.5621042251586914
8.161046028137207,0.04253452271223068,-0.7421606779098511,0.5750743746757507,-0.5693522691726685,0.1184481605887413,-0.5621042251586914
8.181126117706299,0.04291599988937378,-0.7421606779098511,0.5750743746757507,-0.5693522691726685,0.1184481605887413,-0.5621042251586914
8.201232433319092,0.04329747334122658,-0.7421606779098511,0.5750743746757507,-0.5693522691726685,0.1184481605887413,-0.5621042251586914
8.22133183479309,0.04329747334122658,-0.7421606779098511,0.5750743746757507,-0.569733738899231,0.1184481605887413,-0.5621042251586914
8.241495370864868,0.04329747334122658,-0.7421606779098511,0.5750743746757507,-0.569733738899231,0.1188296303153038,-0.5621042251586914
8.262209415435791,0.04329747334122658,-0.7421606779098511,0.5750743746757507,-0.5693522691726685,0.1192111074924469,-0.5621042251586914
8.2823166847229,0.04329747334122658,-0.7421606779098511,0.5750743746757507,-0.5693522691726685,0.1188296303153038,-0.5621042251586914
8.30245327949524,0.04329747334122658,-0.7421606779098511,0.5750743746757507,-0.569733738899231,0.1188296303153038,-0.5621042251586914
8.322495937347412,0.04329747334122658,-0.7421606779098511,0.5750743746757507,-0.569733738899231,0.1188296303153038,-0.5621042251586914
8.342569351196289,0.04291599988937378,-0.7421606779098511,0.5750743746757507,-0.569733738899231,0.1184481605887413,-0.5621042251586914
8.362677097320557,0.04291599988937378,-0.7421606779098511,0.5750743746757507,-0.569733738899231,0.1184481605887413,-0.5621042251586914
8.382795810699463,0.04291599988937378,-0.7421606779098511,0.5750743746757507,-0.569733738899231,0.1188296303153038,-0.5621042251586914
8.402887344360352,0.04291599988937378,-0.7421606779098511,0.5750743746757507,-0.569733738899231,0.1184481605887413,-0.5621042251586914
8.423140048980713,0.04291599988937378,-0.7421606779098511,0.5750743746757507,-0.569733738899231,0.1184481605887413,-0.5621042251586914
8.443215370178223,0.04291599988937378,-0.7421606779098511,0.5750743746757507,-0.569733738899231,0.1184481605887413,-0.5621042251586914
8.463260412216187,0.04291599988937378,-0.7421606779098511,0.5750743746757507,-0.5701152086257935,0.1184481605887413,-0.5621042251586914
8.483733892440796,0.04253452271223068,-0.7421606779098511,0.5750743746757507,-0.5701152086257935,0.1184481605887413,-0.5621042251586914
8.503790855407715,0.04253452271223068,-0.7421606779098511,0.5750743746757507,-0.5701152086257935,0.1184481605887413,-0.5621042251586914
8.523862838745117,0.04253452271223068,-0.7421606779098511,0.5750743746757507,-0.5701152086257935,0.1184481605887413,-0.5621042251586914
8.543990850448608,0.04253452271223068,-0.7421606779098511,0.5750743746757507,-0.5701152086257935,0.1184481605887413,-0.5621042251586914
8.564154863357544,0.04253452271223068,-0.7421606779098511,0.5750743746757507,-0.5701152086257935,0.1184481605887413,-0.5621042251586914
8.584169387817383,0.04253452271223068,-0.7421606779098511,0.5750743746757507,-0.5701152086257935,0.1184481605887413,-0.5621042251586914
8.604319334030151,0.04253452271223068,-0.7421606779098511,0.5750743746757507,-0.5701152086257935,0.1184481605887413,-0.5617227554321289
8.624491453170776,0.04253452271223068,-0.7421606779098511,0.5750743746757507,-0.5701152086257935,0.1184481605887413,-0.5617227554321289
8.644506216049194,0.04253452271223068,-0.7421606779098511,0.5750743746757507,-0.5701152086257935,0.1184481605887413,-0.5617227554321289
8.664711236953735,0.04253452271223068,-0.7421606779098511,0.5750743746757507,-0.5701152086257935,0.1184481605887413,-0.5617227554321289
8.68466854095459,0.04253452271223068,-0.7421606779098511,0.5750743746757507,-0.5701152086257935,0.1184481605887413,-0.5617227554321289
8.70481562614441,0.04253452271223068,-0.7421606779098511,0.5750743746757507,-0.5701152086257935,0.1184481605887413,-0.5617227554321289
8.724863529205322,0.04253452271223068,-0.7421606779098511,0.5750743746757507,-0.5701152086257935,0.1184481605887413,-0.5617227554321289
8.744974136352539,0.04253452271223068,-0.7421606779098511,0.5750743746757507,-0.5701152086257935,0.1184481605887413,-0.5617227554321289
8.765114545822144,0.04253452271223068,-0.7421606779098511,0.5750743746757507,-0.5701152086257935,0.1180666834115982,-0.5617227554321289
8.785231590270996,0.04253452271223068,-0.7421606779098511,0.5750743746757507,-0.569733738899231,0.1180666834115982,-0.5617227554321289
8.805359125137329,0.04253452271223068,-0.7421606779098511,0.5750743746757507,-0.5701152086257935,0.1180666834115982,-0.5617227554321289
8.825487852096558,0.04253452271223068,-0.7421606779098511,0.5750743746757507,-0.5701152086257935,0.1180666834115982,-0.5617227554321289
8.845550298690796,0.04253452271223068,-0.7421606779098511,0.5750743746757507,-0.5701152086257935,0.1180666834115982,-0.5617227554321289
8.865608215332031,0.04253452271223068,-0.7421606779098511,0.5754558444023132,-0.5701152086257935,0.1180666834115982,-0.5617227554321289
8.885761499404907,0.04253452271223068,-0.7421606779098511,0.5754558444023132,-0.5701152086257935,0.1180666834115982,-0.5617227554321289
8.90584921836853,0.04253452271223068,-0.7421606779098511,0.5754558444023132,-0.5701152086257935,0.1180666834115982,-0.5613412857055664
8.925941705703735,0.04253452271223068,-0.7421606779098511,0.5754558444023132,-0.5701152086257935,0.1180666834115982,-0.5617227554321289
8.946000814437866,0.04253452271223068,-0.7421606779098511,0.5754558444023132,-0.5701152086257935,0.1184481605887413,-0.5617227554321289
8.966195583343506,0.04253452271223068,-0.7421606779098511,0.5754558444023132,-0.5701152086257935,0.1184481605887413,-0.5613412857055664
8.986196041107178,0.04253452271223068,-0.7421606779098511,0.5754558444023132,-0.5701152086257935,0.1184481605887413,-0.5613412857055664
9.006300210952759,0.04253452271223068,-0.7421606779098511,0.5754558444023132,-0.569733738899231,0.1184481605887413,-0.5613412857055664
9.026367664337158,0.04253452271223068,-0.7421606779098511,0.5754558444023132,-0.5701152086257935,0.1180666834115982,-0.5613412857055664
9.046482801437378,0.04253452271223068,-0.7421606779098511,0.5754558444023132,-0.5701152086257935,0.1180666834115982,-0.5613412857055664
9.066741704940796,0.04253452271223068,-0.7421606779098511,0.5754558444023132,-0.5701152086257935,0.1180666834115982,-0.5613412857055664
9.086876392364502,0.04253452271223068,-0.7421606779098511,0.5754558444023132,-0.5701152086257935,0.1180666834115982,-0.5613412857055664
9.107016324996948,0.04253452271223068,-0.7421606779098511,0.5754558444023132,-0.5701152086257935,0.1184481605887413,-0.5613412857055664
9.127118110656738,0.04253452271223068,-0.7421606779098511,0.5754558444023132,-0.5701152086257935,0.1184481605887413,-0.5613412857055664
9.14727258682251,0.04253452271223068,-0.7421606779098511,0.5754558444023132,-0.5701152086257935,0.1184481605887413,-0.5613412857055664
9.167291402816772,0.04291599988937378,-0.7421606779098511,0.5754558444023132,-0.5701152086257935,0.1184481605887413,-0.5613412857055664
9.187359094619751,0.04329747334122658,-0.7421606779098511,0.5754558444023132,-0.5701152086257935,0.1180666834115982,-0.5613412857055664
9.207484722137451,0.04329747334122658,-0.7421606779098511,0.5754558444023132,-0.5701152086257935,0.1180666834115982,-0.5613412857055664
9.227555274963379,0.04329747334122658,-0.7421606779098511,0.5754558444023132,-0.5701152086257935,0.1184481605887413,-0.5613412857055664
9.247811079025269,0.04329747334122658,-0.7421606779098511,0.5754558444023132,-0.5701152086257935,0.1184481605887413,-0.5613412857055664
9.267975807189941,0.04291599988937378,-0.7421606779098511,0.5754558444023132,-0.5701152086257935,0.1184481605887413,-0.5613412857055664
9.28800916671753,0.04291599988937378,-0.7421606779098511,0.5754558444023132,-0.5701152086257935,0.1184481605887413,-0.5613412857055664
9.308550357818604,0.04253452271223068,-0.7421606779098511,0.5754558444023132,-0.5701152086257935,0.1180666834115982,-0.5613412857055664
9.328629493713379,0.04253452271223068,-0.7421606779098511,0.5754558444023132,-0.5701152086257935,0.1180666834115982,-0.5613412857055664
9.348693370819092,0.04253452271223068,-0.7421606779098511,0.5750743746757507,-0.5701152086257935,0.1180666834115982,-0.5609598159790039
9.368781328201294,0.04253452271223068,-0.7421606779098511,0.5754558444023132,-0.5701152086257935,0.1180666834115982,-0.5609598159790039
9.388855934143066,0.04253452271223068,-0.7421606779098511,0.5754558444023132,-0.5701152086257935,0.1184481605887413,-0.5609598159790039
9.408962726593018,0.04253452271223068,-0.7421606779098511,0.5750743746757507,-0.5701152086257935,0.1180666834115982,-0.5609598159790039
9.42905330657959,0.04253452271223068,-0.7421606779098511,0.5750743746757507,-0.5701152086257935,0.1184481605887413,-0.5609598159790039
9.449158430099487,0.04253452271223068,-0.7421606779098511,0.5750743746757507,-0.5701152086257935,0.1180666834115982,-0.5609598159790039
9.469254732131958,0.04253452271223068,-0.7421606779098511,0.5750743746757507,-0.5701152086257935,0.1180666834115982,-0.5609598159790039
9.489325761795044,0.04253452271223068,-0.7421606779098511,0.5750743746757507,-0.5701152086257935,0.1180666834115982,-0.5609598159790039
9.509432792663574,0.04253452271223068,-0.7421606779098511,0.5750743746757507,-0.5701152086257935,0.1184481605887413,-0.5609598159790039
9.52959680557251,0.04253452271223068,-0.7421606779098511,0.5750743746757507,-0.5701152086257935,0.1184481605887413,-0.5609598159790039
9.549696922302246,0.04253452271223068,-0.7421606779098511,0.5750743746757507,-0.5701152086257935,0.1184481605887413,-0.5609598159790039
9.569911241531372,0.04253452271223068,-0.7421606779098511,0.5750743746757507,-0.5701152086257935,0.1180666834115982,-0.5609598159790039
9.590077638626099,0.04253452271223068,-0.7421606779098511,0.5750743746757507,-0.5701152086257935,0.1180666834115982,-0.5609598159790039
9.610072135925293,0.04253452271223068,-0.7421606779098511,0.5754558444023132,-0.5701152086257935,0.1180666834115982,-0.5609598159790039
9.630136489868164,0.04291599988937378,-0.7421606779098511,0.5750743746757507,-0.5701152086257935,0.1180666834115982,-0.5609598159790039
9.650188207626343,0.04291599988937378,-0.7421606779098511,0.5750743746757507,-0.5701152086257935,0.1184481605887413,-0.5609598159790039
9.670384407043457,0.04253452271223068,-0.7421606779098511,0.5750743746757507,-0.5701152086257935,0.1184481605887413,-0.5609598159790039
9.690407991409302,0.04253452271223068,-0.7421606779098511,0.5754558444023132,-0.5701152086257935,0.1184481605887413,-0.5609598159790039
9.710513591766357,0.04253452271223068,-0.7421606779098511,0.5750743746757507,-0.5701152086257935,0.1184481605887413,-0.5609598159790039
9.730608701705933,0.04291599988937378,-0.7421606779098511,0.5754558444023132,-0.5701152086257935,0.1180666834115982,-0.5609598159790039
9.750743865966797,0.04253452271223068,-0.7421606779098511,0.5750743746757507,-0.5701152086257935,0.1184481605887413,-0.5609598159790039
9.770870685577393,0.04253452271223068,-0.7421606779098511,0.5750743746757507,-0.5701152086257935,0.1180666834115982,-0.5609598159790039
9.790971755981445,0.04253452271223068,-0.7421606779098511,0.5750743746757507,-0.5701152086257935,0.1184481605887413,-0.5609598159790039
9.811152458190918,0.04253452271223068,-0.7421606779098511,0.5750743746757507,-0.5701152086257935,0.1180666834115982,-0.5609598159790039
9.831251621246338,0.04253452271223068,-0.7421606779098511,0.5750743746757507,-0.5701152086257935,0.1184481605887413,-0.5609598159790039
9.85165524482727,0.04253452271223068,-0.7421606779098511,0.5750743746757507,-0.5701152086257935,0.1180666834115982,-0.5609598159790039
9.87177300453186,0.04253452271223068,-0.7421606779098511,0.5750743746757507,-0.5701152086257935,0.1180666834115982,-0.5609598159790039
9.891826629638672,0.04253452271223068,-0.7421606779098511,0.5750743746757507,-0.5701152086257935,0.1184481605887413,-0.5609598159790039
9.912042617797852,0.04253452271223068,-0.7421606779098511,0.5750743746757507,-0.5701152086257935,0.1180666834115982,-0.5609598159790039
9.932100772857666,0.04253452271223068,-0.7421606779098511,0.5754558444023132,-0.5701152086257935,0.1184481605887413,-0.5609598159790039
9.952145338058472,0.04291599988937378,-0.7421606779098511,0.5754558444023132,-0.5701152086257935,0.1184481605887413,-0.5609598159790039
9.97232961654663,0.04253452271223068,-0.7421606779098511,0.5754558444023132,-0.5701152086257935,0.1180666834115982,-0.5609598159790039
9.992443084716797,0.04253452271223068,-0.7421606779098511,0.5750743746757507,-0.5701152086257935,0.1184481605887413,-0.5609598159790039
10.012559652328491,0.04291599988937378,-0.7421606779098511,0.5750743746757507,-0.5701152086257935,0.1184481605887413,-0.5609598159790039
10.032775640487671,0.04291599988937378,-0.7421606779098511,0.5750743746757507,-0.5701152086257935,0.1180666834115982,-0.5609598159790039
10.052834033966064,0.04291599988937378,-0.7421606779098511,0.5750743746757507,-0.5701152086257935,0.1184481605887413,-0.5609598159790039
10.072926998138428,0.04291599988937378,-0.7421606779098511,0.5754558444023132,-0.5701152086257935,0.1184481605887413,-0.5609598159790039
10.092994689941406,0.04253452271223068,-0.7421606779098511,0.5750743746757507,-0.5701152086257935,0.1180666834115982,-0.5609598159790039
10.113274574279785,0.04253452271223068,-0.7421606779098511,0.5750743746757507,-0.5701152086257935,0.1184481605887413,-0.5609598159790039
10.133553266525269,0.04291599988937378,-0.7421606779098511,0.5750743746757507,-0.5701152086257935,0.1184481605887413,-0.5609598159790039
10.153469800949097,0.04253452271223068,-0.7421606779098511,0.5750743746757507,-0.5701152086257935,0.1184481605887413,-0.5605783462524414
10.17356276512146,0.04253452271223068,-0.7421606779098511,0.5750743746757507,-0.5701152086257935,0.1184481605887413,-0.5609598159790039
10.193801879882812,0.04253452271223068,-0.7421606779098511,0.5750743746757507,-0.5701152086257935,0.1184481605887413,-0.5609598159790039
10.214112997055054,0.04253452271223068,-0.7421606779098511,0.5750743746757507,-0.5701152086257935,0.1180666834115982,-0.5609598159790039
10.23427939414978,0.04253452271223068,-0.7421606779098511,0.5754558444023132,-0.5701152086257935,0.1180666834115982,-0.5609598159790039
10.254330158233643,0.04253452271223068,-0.7421606779098511,0.5750743746757507,-0.5701152086257935,0.1184481605887413,-0.5605783462524414
10.27443242073059,0.04253452271223068,-0.7421606779098511,0.5750743746757507,-0.5701152086257935,0.1184481605887413,-0.5609598159790039
10.294563293457031,0.04253452271223068,-0.7421606779098511,0.5750743746757507,-0.5701152086257935,0.1184481605887413,-0.5605783462524414
10.314704179763794,0.04253452271223068,-0.7421606779098511,0.5750743746757507,-0.5701152086257935,0.1184481605887413,-0.5605783462524414
10.334793090820312,0.04253452271223068,-0.7421606779098511,0.5750743746757507,-0.5701152086257935,0.1180666834115982,-0.5609598159790039
10.354867219924927,0.04253452271223068,-0.7421606779098511,0.5754558444023132,-0.5701152086257935,0.1180666834115982,-0.5609598159790039
10.374939203262329,0.04253452271223068,-0.7421606779098511,0.5754558444023132,-0.5701152086257935,0.1184481605887413,-0.5609598159790039
10.395062685012817,0.04253452271223068,-0.7421606779098511,0.5754558444023132,-0.570496678352356,0.1184481605887413,-0.5609598159790039
10.415127038955688,0.04253452271223068,-0.7421606779098511,0.5754558444023132,-0.5701152086257935,0.1184481605887413,-0.5609598159790039
10.43522572517395,0.04253452271223068,-0.7421606779098511,0.5754558444023132,-0.5701152086257935,0.1180666834115982,-0.5609598159790039
10.45531415939331,0.04253452271223068,-0.7421606779098511,0.5754558444023132,-0.5701152086257935,0.1184481605887413,-0.5609598159790039
10.476083993911743,0.04253452271223068,-0.7421606779098511,0.5754558444023132,-0.570496678352356,0.1180666834115982,-0.5605783462524414
10.496256828308105,0.04253452271223068,-0.7421606779098511,0.5754558444023132,-0.570496678352356,0.1184481605887413,-0.5609598159790039
10.516302585601807,0.04253452271223068,-0.7421606779098511,0.5754558444023132,-0.5701152086257935,0.1184481605887413,-0.5609598159790039
10.536453008651733,0.04253452271223068,-0.7421606779098511,0.5754558444023132,-0.5701152086257935,0.1184481605887413,-0.5605783462524414
10.556565999984741,0.04253452271223068,-0.7421606779098511,0.5754558444023132,-0.570496678352356,0.1184481605887413,-0.5605783462524414
10.576882123947144,0.04253452271223068,-0.7421606779098511,0.5754558444023132,-0.570496678352356,0.1184481605887413,-0.5605783462524414
10.597050428390503,0.04253452271223068,-0.7421606779098511,0.5754558444023132,-0.570496678352356,0.1184481605887413,-0.5605783462524414
10.617165327072144,0.04253452271223068,-0.7421606779098511,0.5754558444023132,-0.570496678352356,0.1184481605887413,-0.5605783462524414
10.637168645858765,0.04253452271223068,-0.7421606779098511,0.5754558444023132,-0.5708781480789185,0.1184481605887413,-0.5609598159790039
10.657265424728394,0.04253452271223068,-0.7421606779098511,0.5754558444023132,-0.5708781480789185,0.1184481605887413,-0.5605783462524414
10.677664995193481,0.04253452271223068,-0.7421606779098511,0.5754558444023132,-0.571259617805481,0.1184481605887413,-0.5605783462524414
10.69782042503357,0.04253452271223068,-0.7421606779098511,0.5754558444023132,-0.571259617805481,0.1184481605887413,-0.5605783462524414
10.717980861663818,0.04253452271223068,-0.7421606779098511,0.5754558444023132,-0.5716410875320435,0.1184481605887413,-0.5605783462524414
10.738054513931274,0.04253452271223068,-0.7421606779098511,0.5754558444023132,-0.571259617805481,0.1184481605887413,-0.5605783462524414
10.758127927780151,0.04253452271223068,-0.7421606779098511,0.5754558444023132,-0.5716410875320435,0.1184481605887413,-0.5605783462524414
10.778214693069458,0.04253452271223068,-0.7421606779098511,0.5754558444023132,-0.5716410875320435,0.1184481605887413,-0.5605783462524414
10.798298358917236,0.04253452271223068,-0.7421606779098511,0.5754558444023132,-0.5716410875320435,0.1184481605887413,-0.5605783462524414
10.818362474441528,0.04291599988937378,-0.7421606779098511,0.5754558444023132,-0.5716410875320435,0.1184481605887413,-0.5605783462524414
10.838480949401855,0.04329747334122658,-0.7421606779098511,0.5754558444023132,-0.5716410875320435,0.1180666834115982,-0.5605783462524414
10.858617067337036,0.04329747334122658,-0.7421606779098511,0.5754558444023132,-0.5716410875320435,0.1180666834115982,-0.5605783462524414
10.878729104995728,0.04329747334122658,-0.7421606779098511,0.5754558444023132,-0.571259617805481,0.1184481605887413,-0.5605783462524414
10.898819208145142,0.04329747334122658,-0.7421606779098511,0.5754558444023132,-0.5716410875320435,0.1184481605887413,-0.5605783462524414
10.918887376785278,0.04329747334122658,-0.7421606779098511,0.5754558444023132,-0.5716410875320435,0.1184481605887413,-0.5605783462524414
10.93897271156311,0.04329747334122658,-0.7421606779098511,0.5754558444023132,-0.5716410875320435,0.1180666834115982,-0.5601968169212341
10.959040641784668,0.04329747334122658,-0.7421606779098511,0.5754558444023132,-0.5716410875320435,0.1180666834115982,-0.5601968169212341
10.979111194610596,0.04291599988937378,-0.7421606779098511,0.5754558444023132,-0.5716410875320435,0.1180666834115982,-0.5601968169212341
10.999260663986206,0.04291599988937378,-0.7421606779098511,0.5754558444023132,-0.5716410875320435,0.1180666834115982,-0.5601968169212341
11.019334077835083,0.04291599988937378,-0.7421606779098511,0.5754558444023132,-0.5716410875320435,0.1180666834115982,-0.5601968169212341
11.039440631866455,0.04291599988937378,-0.7421606779098511,0.5750743746757507,-0.5716410875320435,0.1180666834115982,-0.5601968169212341
11.059520721435547,0.04253452271223068,-0.7421606779098511,0.5750743746757507,-0.5716410875320435,0.1180666834115982,-0.5601968169212341
11.079725980758667,0.04253452271223068,-0.7421606779098511,0.5754558444023132,-0.5716410875320435,0.1180666834115982,-0.5601968169212341
11.099813222885132,0.04253452271223068,-0.7421606779098511,0.5750743746757507,-0.5716410875320435,0.1180666834115982,-0.5598153471946716
11.119882822036743,0.04253452271223068,-0.7421606779098511,0.5754558444023132,-0.5716410875320435,0.1180666834115982,-0.5601968169212341
11.140034198760986,0.04253452271223068,-0.7421606779098511,0.5754558444023132,-0.5716410875320435,0.1180666834115982,-0.5598153471946716
11.160099267959595,0.04253452271223068,-0.7421606779098511,0.5750743746757507,-0.571259617805481,0.1180666834115982,-0.5598153471946716
11.180840969085693,0.04253452271223068,-0.7421606779098511,0.5750743746757507,-0.5716410875320435,0.1180666834115982,-0.5598153471946716
11.200953960418701,0.04253452271223068,-0.7421606779098511,0.5750743746757507,-0.5716410875320435,0.1180666834115982,-0.5598153471946716
11.221025705337524,0.04253452271223068,-0.7421606779098511,0.5754558444023132,-0.5716410875320435,0.1180666834115982,-0.5598153471946716
11.241169452667236,0.04253452271223068,-0.7421606779098511,0.5750743746757507,-0.5716410875320435,0.1180666834115982,-0.5598153471946716
11.26130199432373,0.04253452271223068,-0.7421606779098511,0.5754558444023132,-0.571259617805481,0.1180666834115982,-0.5598153471946716
11.28127646446228,0.04253452271223068,-0.7421606779098511,0.5754558444023132,-0.5716410875320435,0.1180666834115982,-0.5598153471946716
11.301448345184326,0.04253452271223068,-0.7421606779098511,0.5754558444023132,-0.571259617805481,0.1180666834115982,-0.5598153471946716
11.321552038192749,0.04253452271223068,-0.7421606779098511,0.5754558444023132,-0.571259617805481,0.1180666834115982,-0.5598153471946716
11.34174633026123,0.04253452271223068,-0.7421606779098511,0.5754558444023132,-0.571259617805481,0.1180666834115982,-0.5598153471946716
11.361838579177856,0.04253452271223068,-0.7421606779098511,0.5754558444023132,-0.571259617805481,0.1180666834115982,-0.5598153471946716
11.381890535354614,0.04253452271223068,-0.7421606779098511,0.5754558444023132,-0.571259617805481,0.1180666834115982,-0.5598153471946716
11.402127981185913,0.04253452271223068,-0.7421606779098511,0.5754558444023132,-0.571259617805481,0.1180666834115982,-0.5598153471946716
11.422241926193237,0.04253452271223068,-0.7421606779098511,0.5754558444023132,-0.571259617805481,0.1180666834115982,-0.5598153471946716
11.44267463684082,0.04329747334122658,-0.7421606779098511,0.5750743746757507,-0.571259617805481,0.1180666834115982,-0.5598153471946716
11.462820291519165,0.04329747334122658,-0.7421606779098511,0.5754558444023132,-0.571259617805481,0.1180666834115982,-0.5598153471946716
11.483104944229126,0.04329747334122658,-0.7421606779098511,0.5754558444023132,-0.571259617805481,0.1180666834115982,-0.5598153471946716
11.503294706344604,0.04329747334122658,-0.7421606779098511,0.5754558444023132,-0.571259617805481,0.1184481605887413,-0.5598153471946716
11.523782968521118,0.04329747334122658,-0.7421606779098511,0.5754558444023132,-0.571259617805481,0.1184481605887413,-0.5598153471946716
11.54393720626831,0.04329747334122658,-0.7425421476364136,0.5754558444023132,-0.571259617805481,0.1184481605887413,-0.5598153471946716
11.563969850540161,0.04329747334122658,-0.7421606779098511,0.5754558444023132,-0.571259617805481,0.1180666834115982,-0.5598153471946716
11.584158420562744,0.04329747334122658,-0.7421606779098511,0.5750743746757507,-0.571259617805481,0.1180666834115982,-0.5598153471946716
11.60426950454712,0.04329747334122658,-0.7421606779098511,0.5754558444023132,-0.571259617805481,0.1180666834115982,-0.5598153471946716
11.624372482299805,0.04291599988937378,-0.7425421476364136,0.5754558444023132,-0.571259617805481,0.1180666834115982,-0.5598153471946716
11.644402503967285,0.04291599988937378,-0.7421606779098511,0.5754558444023132,-0.571259617805481,0.1180666834115982,-0.5598153471946716
11.664698600769043,0.04291599988937378,-0.7421606779098511,0.5754558444023132,-0.571259617805481,0.1180666834115982,-0.5598153471946716
11.684839248657227,0.04253452271223068,-0.7421606779098511,0.5754558444023132,-0.571259617805481,0.1180666834115982,-0.5598153471946716
11.705032348632812,0.04253452271223068,-0.7421606779098511,0.5750743746757507,-0.571259617805481,0.11768520623445511,-0.5598153471946716
11.725113868713379,0.04253452271223068,-0.7425421476364136,0.5750743746757507,-0.571259617805481,0.11768520623445511,-0.5598153471946716
11.745152711868286,0.04253452271223068,-0.7421606779098511,0.5754558444023132,-0.571259617805481,0.11768520623445511,-0.5598153471946716
11.765344381332397,0.04253452271223068,-0.7425421476364136,0.5754558444023132,-0.571259617805481,0.1180666834115982,-0.5598153471946716
11.785362482070923,0.04253452271223068,-0.7425421476364136,0.5754558444023132,-0.571259617805481,0.1180666834115982,-0.5598153471946716
11.805405616760254,0.04253452271223068,-0.7425421476364136,0.5754558444023132,-0.571259617805481,0.1180666834115982,-0.5598153471946716
11.825522184371948,0.04253452271223068,-0.7425421476364136,0.5754558444023132,-0.571259617805481,0.11768520623445511,-0.5598153471946716
11.845712423324585,0.04253452271223068,-0.7425421476364136,0.5754558444023132,-0.571259617805481,0.11768520623445511,-0.5598153471946716
11.865770816802979,0.04253452271223068,-0.7425421476364136,0.5754558444023132,-0.571259617805481,0.1180666834115982,-0.5598153471946716
11.88585901260376,0.04253452271223068,-0.7425421476364136,0.5754558444023132,-0.571259617805481,0.1180666834115982,-0.5598153471946716
11.905925512313843,0.04253452271223068,-0.7425421476364136,0.5754558444023132,-0.571259617805481,0.1180666834115982,-0.5598153471946716
11.926046133041382,0.04253452271223068,-0.7425421476364136,0.5754558444023132,-0.571259617805481,0.1180666834115982,-0.5598153471946716
11.946214437484741,0.04253452271223068,-0.7425421476364136,0.5754558444023132,-0.571259617805481,0.1180666834115982,-0.5598153471946716
11.966203927993774,0.04253452271223068,-0.7425421476364136,0.5754558444023132,-0.571259617805481,0.1180666834115982,-0.5598153471946716
11.986328840255737,0.04253452271223068,-0.7425421476364136,0.5754558444023132,-0.571259617805481,0.1180666834115982,-0.5598153471946716
12.00649118423462,0.04253452271223068,-0.7425421476364136,0.5754558444023132,-0.571259617805481,0.1180666834115982,-0.5598153471946716
12.026675701141357,0.04253452271223068,-0.7425421476364136,0.5754558444023132,-0.571259617805481,0.1180666834115982,-0.5598153471946716
12.046799898147583,0.04291599988937378,-0.7425421476364136,0.5754558444023132,-0.571259617805481,0.1180666834115982,-0.5598153471946716
12.066886186599731,0.04329747334122658,-0.7425421476364136,0.5754558444023132,-0.5708781480789185,0.1180666834115982,-0.5598153471946716
12.086995363235474,0.04329747334122658,-0.7425421476364136,0.5754558444023132,-0.571259617805481,0.1184481605887413,-0.5598153471946716
12.107097625732422,0.04329747334122658,-0.7429236173629761,0.5754558444023132,-0.571259617805481,0.1188296303153038,-0.5598153471946716
12.127216577529907,0.04329747334122658,-0.7429236173629761,0.5754558444023132,-0.571259617805481,0.1188296303153038,-0.5598153471946716
12.147333860397339,0.04329747334122658,-0.7433050870895386,0.5754558444023132,-0.571259617805481,0.1188296303153038,-0.5598153471946716
12.167348623275757,0.04329747334122658,-0.7433050870895386,0.5754558444023132,-0.571259617805481,0.1188296303153038,-0.5601968169212341
12.187779664993286,0.04329747334122658,-0.7433050870895386,0.5754558444023132,-0.571259617805481,0.1184481605887413,-0.5601968169212341
12.208266973495483,0.04329747334122658,-0.7429236173629761,0.5754558444023132,-0.571259617805481,0.1184481605887413,-0.5601968169212341
12.228444814682007,0.04329747334122658,-0.7429236173629761,0.5754558444023132,-0.571259617805481,0.1188296303153038,-0.5601968169212341
12.248601198196411,0.04329747334122658,-0.7429236173629761,0.5758373141288757,-0.571259617805481,0.1184481605887413,-0.5601968169212341
12.26877498626709,0.04329747334122658,-0.7429236173629761,0.5758373141288757,-0.571259617805481,0.1184481605887413,-0.5601968169212341
12.288810014724731,0.04291599988937378,-0.7429236173629761,0.5758373141288757,-0.571259617805481,0.1180666834115982,-0.5601968169212341
12.30899953842163,0.04291599988937378,-0.7429236173629761,0.5758373141288757,-0.571259617805481,0.11768520623445511,-0.5601968169212341
12.329033613204956,0.04291599988937378,-0.7429236173629761,0.5758373141288757,-0.571259617805481,0.11768520623445511,-0.5601968169212341
12.349180698394775,0.04291599988937378,-0.7429236173629761,0.5758373141288757,-0.571259617805481,0.11768520623445511,-0.5601968169212341
12.369288444519043,0.04291599988937378,-0.7429236173629761,0.5758373141288757,-0.571259617805481,0.11768520623445511,-0.5601968169212341
12.389358282089233,0.04291599988937378,-0.7429236173629761,0.5758373141288757,-0.571259617805481,0.11768520623445511,-0.5601968169212341
12.409526348114014,0.04291599988937378,-0.7425421476364136,0.5758373141288757,-0.571259617805481,0.11768520623445511,-0.5601968169212341
12.42992091178894,0.04253452271223068,-0.7425421476364136,0.5758373141288757,-0.571259617805481,0.1180666834115982,-0.5601968169212341
12.450010538101196,0.042153049260377884,-0.7425421476364136,0.5758373141288757,-0.571259617805481,0.11768520623445511,-0.5601968169212341
12.470069646835327,0.042153049260377884,-0.7425421476364136,0.5758373141288757,-0.571259617805481,0.11768520623445511,-0.5601968169212341
12.490153551101685,0.042153049260377884,-0.7425421476364136,0.5758373141288757,-0.571259617805481,0.1180666834115982,-0.5601968169212341
12.510325908660889,0.042153049260377884,-0.7425421476364136,0.5758373141288757,-0.571259617805481,0.1180666834115982,-0.5601968169212341
12.530519247055054,0.04253452271223068,-0.7425421476364136,0.5754558444023132,-0.571259617805481,0.1180666834115982,-0.5601968169212341
12.550509691238403,0.04253452271223068,-0.7425421476364136,0.5754558444023132,-0.571259617805481,0.1184481605887413,-0.5601968169212341
12.570601224899292,0.04253452271223068,-0.7425421476364136,0.5754558444023132,-0.571259617805481,0.1184481605887413,-0.5601968169212341
12.590673685073853,0.04253452271223068,-0.7425421476364136,0.5754558444023132,-0.571259617805481,0.1184481605887413,-0.5601968169212341
12.610775232315063,0.04253452271223068,-0.7425421476364136,0.5754558444023132,-0.571259617805481,0.1184481605887413,-0.5601968169212341
12.630833148956299,0.04253452271223068,-0.7425421476364136,0.5754558444023132,-0.571259617805481,0.1184481605887413,-0.5601968169212341
12.650949001312256,0.04253452271223068,-0.7425421476364136,0.5754558444023132,-0.571259617805481,0.1184481605887413,-0.5601968169212341
12.676105499267578,0.04253452271223068,-0.7425421476364136,0.5754558444023132,-0.571259617805481,0.1184481605887413,-0.5601968169212341
12.696223974227905,0.04253452271223068,-0.7425421476364136,0.5754558444023132,-0.571259617805481,0.1184481605887413,-0.5601968169212341
12.716268301010132,0.04253452271223068,-0.7425421476364136,0.5754558444023132,-0.571259617805481,0.1184481605887413,-0.5601968169212341
12.73639702796936,0.04253452271223068,-0.7425421476364136,0.5754558444023132,-0.571259617805481,0.1184481605887413,-0.5601968169212341
12.756436109542847,0.04253452271223068,-0.7425421476364136,0.5754558444023132,-0.571259617805481,0.1184481605887413,-0.5601968169212341
12.776554107666016,0.04253452271223068,-0.7425421476364136,0.5754558444023132,-0.5708781480789185,0.1184481605887413,-0.5601968169212341
12.796678066253662,0.04253452271223068,-0.7429236173629761,0.5754558444023132,-0.5708781480789185,0.1184481605887413,-0.5601968169212341
12.816864252090454,0.04329747334122658,-0.7425421476364136,0.5754558444023132,-0.571259617805481,0.1180666834115982,-0.5601968169212341
12.836962223052979,0.04253452271223068,-0.7436865568161011,0.5758373141288757,-0.571259617805481,0.1184481605887413,-0.5601968169212341
12.857100486755371,0.037193864583969116,-0.7467383742332458,0.5773632526397705,-0.5708781480789185,0.12188144028186798,-0.5601968169212341
12.877193212509155,0.02689402550458908,-0.7524605393409729,0.580033540725708,-0.5708781480789185,0.12455176562070847,-0.5605783462524414
12.897335767745972,0.01430533267557621,-0.7597085237503052,0.5827038884162903,-0.5708781480789185,0.12874799966812134,-0.5605783462524414
12.91774582862854,-0.00019073777366429567,-0.7696269154548645,0.5849927663803101,-0.571259617805481,0.12760357558727264,-0.5609598159790039
12.937843084335327,-0.01773861236870289,-0.7845044732093811,0.5910963416099548,-0.571259617805481,0.12607766687870026,-0.5605783462524414
12.957920551300049,-0.03452353551983833,-0.802815318107605,0.5979629158973694,-0.5727855563163757,0.12149996310472488,-0.5609598159790039
12.977998733520508,-0.050164032727479935,-0.8260852694511414,0.6090257167816162,-0.5735484957695007,0.11387044936418533,-0.5605783462524414
12.99807858467102,-0.06084534898400307,-0.84897381067276,0.6242847442626953,-0.576218843460083,0.11158160120248795,-0.5605783462524414
13.018523454666138,-0.06656748056411743,-0.8691920638084412,0.6380178332328796,-0.5804150700569153,0.10700388997793198,-0.5605783462524414
13.0386643409729,-0.07419699430465698,-0.890554666519165,0.655947208404541,-0.5819409489631653,0.10624094307422638,-0.5598153471946716
13.058792114257812,-0.07991912961006165,-0.9081025123596191,0.6731135845184326,-0.5853742361068726,0.11272602528333664,-0.5598153471946716
13.079097509384155,-0.0879301130771637,-0.9302281141281128,0.6929503083229065,-0.5853742361068726,0.1203555315732956,-0.5579079985618591
13.099182844161987,-0.09784847497940063,-0.9557870030403137,0.7162203192710876,-0.5865186452865601,0.12645913660526276,-0.5571450591087341
13.119262218475342,-0.10738536715507507,-0.9843976497650146,0.7352941036224365,-0.5865186452865601,0.1363775134086609,-0.5563820600509644
13.139363527297974,-0.1184481605887413,-1.0152971744537354,0.7585641145706177,-0.5869001150131226,0.1371404528617859,-0.5548561811447144
13.159459352493286,-0.12836651504039764,-1.049248456954956,0.7833600640296936,-0.5891889929771423,0.14286258816719055,-0.5540932416915894
13.179726362228394,-0.1340886503458023,-1.0793850421905518,0.8020523190498352,-0.5907148718833923,0.13828489184379578,-0.5525673031806946
13.199872970581055,-0.1363775134086609,-1.1079957485198975,0.8260852694511414,-0.5922408103942871,0.13828489184379578,-0.5514228940010071
13.219953536987305,-0.13752193748950958,-1.1301213502883911,0.84897381067276,-0.5952925682067871,0.14400701224803925,-0.5510414242744446
13.23999834060669,-0.13828489184379578,-1.1549172401428223,0.8745326995849609,-0.5937666893005371,0.1497291475534439,-0.5491340756416321
13.260077238082886,-0.13828489184379578,-1.1686503887176514,0.88979172706604,-0.5895704627037048,0.15430685877799988,-0.5483710765838623
13.28018856048584,-0.14248111844062805,-1.1926833391189575,0.916113555431366,-0.5853742361068726,0.17452506721019745,-0.5472266674041748
13.30030632019043,-0.14858472347259521,-1.2090867757797241,0.9325169920921326,-0.5819409489631653,0.18596932291984558,-0.5487525463104248
13.320374011993408,-0.15545128285884857,-1.2273975610733032,0.9470130205154419,-0.5754558444023132,0.1989395022392273,-0.5479896068572998
13.34051775932312,-0.16155488789081573,-1.2426565885543823,0.959983229637146,-0.5727855563163757,0.20504310727119446,-0.5491340756416321
13.361161947250366,-0.16880293190479279,-1.2537193298339844,0.9714275002479553,-0.5731670260429382,0.21686884760856628,-0.5510414242744446
13.381249189376831,-0.17452506721019745,-1.2659265995025635,0.9882124066352844,-0.570496678352356,0.22259098291397095,-0.5556191205978394
13.401349306106567,-0.17719538509845734,-1.2739375829696655,1.0023269653320312,-0.5613412857055664,0.22297245264053345,-0.5571450591087341
13.421409845352173,-0.17833982408046722,-1.2804226875305176,1.0111008882522583,-0.5510414242744446,0.22068360447883606,-0.5571450591087341
13.441519737243652,-0.17948424816131592,-1.2876707315444946,1.0206378698349,-0.5407415628433228,0.22564278542995453,-0.5579079985618591
13.46169924736023,-0.1806286722421646,-1.2949187755584717,1.027885913848877,-0.5327305793762207,0.23670557141304016,-0.5594338774681091
13.48179841041565,-0.182154580950737,-1.3040741682052612,1.0370413064956665,-0.5289158225059509,0.2569237947463989,-0.5647745728492737
13.501930713653564,-0.18520638346672058,-1.3124666213989258,1.0442893505096436,-0.5273899435997009,0.2756160795688629,-0.5724040865898132
13.522151708602905,-0.18940261006355286,-1.3162813186645508,1.051155924797058,-0.5277714133262634,0.2927824854850769,-0.5811780095100403
13.542346715927124,-0.19550621509552002,-1.3204776048660278,1.0633630752563477,-0.5239566564559937,0.30193790793418884,-0.5857557058334351
13.562367677688599,-0.1989395022392273,-1.3212405443191528,1.0728999376296997,-0.5144197940826416,0.29926756024360657,-0.5895704627037048
13.582440614700317,-0.20351719856262207,-1.3235293626785278,1.0767147541046143,-0.4983977973461151,0.28934919834136963,-0.5922408103942871
13.602523565292358,-0.20542457699775696,-1.3250553607940674,1.0805294513702393,-0.4861905872821808,0.28324559330940247,-0.5926222801208496
13.62292766571045,-0.20466163754463196,-1.3284885883331299,1.0809109210968018,-0.4797055125236511,0.2767605185508728,-0.5952925682067871
13.643100261688232,-0.20237277448177338,-1.335736632347107,1.0812923908233643,-0.47894254326820374,0.2771419882774353,-0.5998703241348267
13.663133382797241,-0.1989395022392273,-1.342221736907959,1.0812923908233643,-0.4800869822502136,0.28515297174453735,-0.6048294901847839
13.683226108551025,-0.19550621509552002,-1.346799373626709,1.0866330862045288,-0.4835202693939209,0.30003052949905396,-0.6124590039253235
13.703365564346313,-0.19398032128810883,-1.350232720375061,1.0927367210388184,-0.4835202693939209,0.32101166248321533,-0.6212329268455505
13.723496437072754,-0.19321736693382263,-1.3490883111953735,1.102655053138733,-0.4804684519767761,0.3290226459503174,-0.6246662139892578
13.743526458740234,-0.19398032128810883,-1.3464179039001465,1.112191915512085,-0.4720759987831116,0.33360037207603455,-0.6296253800392151
13.763671159744263,-0.20160982012748718,-1.342984676361084,1.1167696714401245,-0.45948728919029236,0.33588922023773193,-0.6296253800392151
13.783789157867432,-0.20885786414146423,-1.3418402671813965,1.114862322807312,-0.44422826170921326,0.33512628078460693,-0.6322957277297974
13.804450750350952,-0.21000228822231293,-1.342221736907959,1.11142897605896,-0.4396505653858185,0.3278782367706299,-0.6342030763626099
13.824538946151733,-0.21000228822231293,-1.3426032066345215,1.1087586879730225,-0.4404135048389435,0.31681543588638306,-0.6395437717437744
13.844686031341553,-0.20923933386802673,-1.3490883111953735,1.1045624017715454,-0.44346532225608826,0.3099488914012909,-0.6460288166999817
13.864695072174072,-0.20351719856262207,-1.354810357093811,1.103417992591858,-0.44613564014434814,0.3072785437107086,-0.6506065726280212
13.884791374206543,-0.1989395022392273,-1.359006643295288,1.104180932044983,-0.4503318965435028,0.3099488914012909,-0.6586175560951233
13.905364751815796,-0.19550621509552002,-1.359006643295288,1.1072328090667725,-0.4510948359966278,0.31567102670669556,-0.6639581918716431
13.925574541091919,-0.19321736693382263,-1.3563363552093506,1.116388201713562,-0.44728007912635803,0.3274967670440674,-0.6681544184684753
13.945651531219482,-0.19512474536895752,-1.3513771295547485,1.1224918365478516,-0.4373617172241211,0.33588922023773193,-0.6723506450653076
13.965687274932861,-0.20122835040092468,-1.348706841468811,1.1224918365478516,-0.4236285984516144,0.3400854468345642,-0.6746395230293274
13.98576307296753,-0.20504310727119446,-1.3483253717422485,1.1205843687057495,-0.41027694940567017,0.3435187339782715,-0.6776912808418274
14.006013631820679,-0.20580606162548065,-1.3471808433532715,1.1182955503463745,-0.4064621925354004,0.3423742949962616,-0.6799801588058472
14.026119947433472,-0.20580606162548065,-1.347943902015686,1.1175326108932495,-0.4079881012439728,0.3374151289463043,-0.6841763854026794
14.04619288444519,-0.20618753135204315,-1.350995659828186,1.115625262260437,-0.41294726729393005,0.33054855465888977,-0.6914244294166565
14.066269874572754,-0.20389868319034576,-1.3529030084609985,1.114862322807312,-0.41599908471107483,0.3263523280620575,-0.6971465349197388
14.086395025253296,-0.1997024416923523,-1.354047417640686,1.1167696714401245,-0.41523614525794983,0.3221561014652252,-0.700579822063446
14.106608629226685,-0.1962691694498062,-1.3513771295547485,1.121347427368164,-0.41409170627593994,0.3133821487426758,-0.7032501697540283
14.126769304275513,-0.1966506391763687,-1.3490883111953735,1.122110366821289,-0.4079881012439728,0.31719690561294556,-0.7078278660774231
14.147178888320923,-0.19550621509552002,-1.345273494720459,1.1232547760009766,-0.39692530035972595,0.3278782367706299,-0.7078278660774231
14.167305946350098,-0.1989395022392273,-1.3433661460876465,1.119439959526062,-0.3919661343097687,0.3393225073814392,-0.7093538045883179
14.187372207641602,-0.20237277448177338,-1.3410773277282715,1.115625262260437,-0.3904402256011963,0.3442816734313965,-0.7135500311851501
14.20759105682373,-0.20504310727119446,-1.3418402671813965,1.11295485496521,-0.3927290737628937,0.34924086928367615,-0.7188906669616699
14.2276451587677,-0.20656901597976685,-1.3426032066345215,1.11142897605896,-0.39501792192459106,0.34809643030166626,-0.7238498330116272
14.247689723968506,-0.20847637951374054,-1.3426032066345215,1.1125733852386475,-0.39463645219802856,0.3381780683994293,-0.726138710975647
14.267863750457764,-0.20695048570632935,-1.3410773277282715,1.115625262260437,-0.3927290737628937,0.3286411762237549,-0.728427529335022
14.287924528121948,-0.20351719856262207,-1.338025450706482,1.117151141166687,-0.3877699077129364,0.31757840514183044,-0.7303349375724792
14.307996034622192,-0.2004653960466385,-1.334973692893982,1.1167696714401245,-0.38166627287864685,0.3103303611278534,-0.7303349375724792
14.328115463256836,-0.1985580176115036,-1.332684874534607,1.1152437925338745,-0.3767071068286896,0.31490805745124817,-0.7307164072990417
14.348220348358154,-0.1981765478849411,-1.3319218158721924,1.1102845668792725,-0.3740367889404297,0.3233005404472351,-0.7330052852630615
14.368293523788452,-0.1977950781583786,-1.3319218158721924,1.1087586879730225,-0.3747997283935547,0.3416113555431366,-0.7360570430755615
