liuyurong129/humanoid-gym/humanoid/data/actual_q_20250522-040826.csv
timestamp,joint_1,joint_2,joint_3,joint_4,joint_5,joint_6
0.00016188621520996094,0.000572213320992887,0.1646067053079605,-0.08220797777175903,-0.00019073777366429567,-0.00019073777366429567,-0.000572213320992887
0.02022242546081543,0.000572213320992887,0.14248111844062805,-0.07343403995037079,0.00019073777366429567,-0.0009536888683214784,-0.000572213320992887
0.040341854095458984,-0.00019073777366429567,0.12111848592758179,-0.06351567804813385,0.00019073777366429567,0.0020981156267225742,-0.000572213320992887
0.060402631759643555,0.00019073777366429567,0.10662241280078888,-0.05703059583902359,-0.00019073777366429567,0.0009536888683214784,-0.000572213320992887
0.08048677444458008,0.00019073777366429567,0.09632257372140884,-0.05092698708176613,-0.00019073777366429567,0.00019073777366429567,-0.000572213320992887
0.1005561351776123,0.00019073777366429567,0.0875486359000206,-0.045204851776361465,-0.00019073777366429567,0.00019073777366429567,-0.000572213320992887
0.12064361572265625,0.00019073777366429567,0.07724879682064056,-0.03795681521296501,0.00019073777366429567,-0.00019073777366429567,-0.000572213320992887
0.14069461822509766,0.000572213320992887,0.06694895774126053,-0.034142062067985535,0.00019073777366429567,0.00019073777366429567,-0.000572213320992887
0.16079068183898926,0.000572213320992887,0.05741206929087639,-0.03147173300385475,0.00019073777366429567,0.00019073777366429567,-0.00019073777366429567
0.1808633804321289,0.0009536888683214784,0.050164032727479935,-0.03032730519771576,0.000572213320992887,0.00019073777366429567,-0.00019073777366429567
0.20091986656188965,0.0009536888683214784,0.04329747334122658,-0.029182879254221916,0.000572213320992887,-0.00019073777366429567,-0.000572213320992887
0.2210087776184082,0.0013351644156500697,0.03337911143898964,-0.025749599561095238,0.001716639962978661,-0.00019073777366429567,-0.00019073777366429567
0.24107718467712402,0.001716639962978661,0.024605173617601395,-0.022697795182466507,0.0024795911740511656,-0.00019073777366429567,-0.000572213320992887
0.26113343238830566,0.0020981156267225742,0.01773861236870289,-0.02040894143283367,0.0032425422687083483,-0.00019073777366429567,-0.000572213320992887
0.28122544288635254,0.0024795911740511656,0.010109102353453636,-0.01735713705420494,0.004005493130534887,-0.00019073777366429567,-0.00019073777366429567
0.30130720138549805,0.002861066721379757,0.004005493130534887,-0.01583123579621315,0.004386968910694122,-0.000572213320992887,-0.000572213320992887
0.32140088081359863,0.002861066721379757,-0.0036240178160369396,-0.01430533267557621,0.005149920005351305,-0.000572213320992887,-0.00019073777366429567
0.3414924144744873,0.002861066721379757,-0.01125352829694748,-0.01125352829694748,0.00667582219466567,-0.000572213320992887,-0.00019073777366429567
0.3615691661834717,0.002861066721379757,-0.01888304017484188,-0.009346150793135166,0.007438773289322853,-0.000572213320992887,-0.00019073777366429567
0.38168978691101074,0.002861066721379757,-0.02689402550458908,-0.00667582219466567,0.0078202486038208,-0.0009536888683214784,-0.00019073777366429567
0.40186262130737305,0.002861066721379757,-0.034142062067985535,-0.0036240178160369396,0.008201723918318748,-0.0009536888683214784,-0.00019073777366429567
0.42189574241638184,0.002861066721379757,-0.042153049260377884,-0.001716639962978661,0.009727626107633114,-0.0009536888683214784,-0.00019073777366429567
0.4419548511505127,0.002861066721379757,-0.05130846053361893,0.0020981156267225742,0.01125352829694748,-0.0009536888683214784,-0.00019073777366429567
0.4620327949523926,0.0032425422687083483,-0.058175019919872284,0.004386968910694122,0.011635004542768002,-0.0009536888683214784,-0.00019073777366429567
0.482219934463501,0.0032425422687083483,-0.06694895774126053,0.00667582219466567,0.012397955171763897,-0.0013351644156500697,-0.00019073777366429567
0.5023682117462158,0.004005493130534887,-0.07534141838550568,0.010109102353453636,0.013923857361078262,-0.001716639962978661,-0.00019073777366429567
0.5224313735961914,0.00476844422519207,-0.08487831056118011,0.012397955171763897,0.01506828423589468,-0.001716639962978661,0.00019073777366429567
0.5425186157226562,0.00476844422519207,-0.09594109654426575,0.016975661739706993,0.016212711110711098,-0.001716639962978661,0.00019073777366429567
0.5626351833343506,0.00476844422519207,-0.1035706102848053,0.019645990803837776,0.01773861236870289,-0.001716639962978661,0.00019073777366429567
0.5829019546508789,0.00476844422519207,-0.11234454810619354,0.02231631986796856,0.01888304017484188,-0.0020981156267225742,0.00019073777366429567
0.6029989719390869,0.00476844422519207,-0.12188144028186798,0.026131074875593185,0.01926451548933983,-0.0020981156267225742,0.00019073777366429567
0.6231307983398438,0.00476844422519207,-0.13179980218410492,0.02841992862522602,0.020027466118335724,-0.0024795911740511656,0.00019073777366429567
0.6436114311218262,0.00476844422519207,-0.14209964871406555,0.03223468363285065,0.02193484455347061,-0.0032425422687083483,0.000572213320992887
0.6637098789215088,0.00476844422519207,-0.1497291475534439,0.035667963325977325,0.023079270496964455,-0.004386968910694122,0.000572213320992887
0.683769941329956,0.00476844422519207,-0.15735866129398346,0.03833829239010811,0.02384222112596035,-0.004386968910694122,0.000572213320992887
0.7038547992706299,0.00476844422519207,-0.1661325991153717,0.04177157208323479,0.024986648932099342,-0.00476844422519207,0.000572213320992887
0.7239978313446045,0.005149920005351305,-0.17528800666332245,0.04482337832450867,0.026131074875593185,-0.005149920005351305,0.000572213320992887
0.7442116737365723,0.005149920005351305,-0.18673227727413177,0.04787518084049225,0.026512550190091133,-0.005149920005351305,0.000572213320992887
0.7643039226531982,0.005149920005351305,-0.19550621509552002,0.05245288833975792,0.02727550081908703,-0.007057297509163618,0.000572213320992887
0.7843811511993408,0.005531395319849253,-0.20275425910949707,0.0558861680328846,0.02880140393972397,-0.007057297509163618,0.000572213320992887
0.804480791091919,0.007057297509163618,-0.212672621011734,0.06008239835500717,0.02994582988321781,-0.008201723918318748,0.0009536888683214784
0.8245606422424316,0.007057297509163618,-0.22297245264053345,0.06389715522527695,0.031090257689356804,-0.008201723918318748,0.0009536888683214784
0.8446216583251953,0.00667582219466567,-0.23632410168647766,0.06733043491840363,0.03299763426184654,-0.008201723918318748,0.0009536888683214784
0.8647110462188721,0.007057297509163618,-0.2481498420238495,0.0715266615152359,0.03376058489084244,-0.008201723918318748,0.0009536888683214784
0.884793758392334,0.007057297509163618,-0.25577935576438904,0.07534141838550568,0.03452353551983833,-0.00858320016413927,0.0009536888683214784
0.9048624038696289,0.007057297509163618,-0.2653162479400635,0.07915617525577545,0.03490501269698143,-0.008964675478637218,0.0009536888683214784
0.9249544143676758,0.007057297509163618,-0.2771419882774353,0.08297093212604523,0.03681239113211632,-0.008201723918318748,0.0009536888683214784
0.9453973770141602,0.007057297509163618,-0.28934919834136963,0.08487831056118011,0.03757534176111221,-0.00858320016413927,0.0009536888683214784
0.9654955863952637,0.007057297509163618,-0.2973601818084717,0.08983749151229858,0.038719769567251205,-0.009346150793135166,0.0013351644156500697
0.9855833053588867,0.007057297509163618,-0.30537116527557373,0.09288929402828217,0.04100862145423889,-0.009346150793135166,0.0013351644156500697
1.0056464672088623,0.007057297509163618,-0.31910428404808044,0.09861142933368683,0.042153049260377884,-0.009727626107633114,0.0013351644156500697
1.0257093906402588,0.007057297509163618,-0.33550775051116943,0.10204470902681351,0.04329747334122658,-0.008964675478637218,0.0013351644156500697
1.046140193939209,0.007057297509163618,-0.35114824771881104,0.10624094307422638,0.04482337832450867,-0.009346150793135166,0.0013351644156500697
1.066232442855835,0.007057297509163618,-0.3606851398944855,0.11043716967105865,0.04558632895350456,-0.01125352829694748,0.0013351644156500697
1.0863308906555176,0.007057297509163618,-0.3702220320701599,0.11310750246047974,0.04634927958250046,-0.012397955171763897,0.0013351644156500697
1.1064245700836182,0.007057297509163618,-0.3843366205692291,0.11768520623445511,0.048256658017635345,-0.012779430486261845,0.0013351644156500697
1.1265130043029785,0.007057297509163618,-0.4003585875034332,0.12264438718557358,0.04901960864663124,-0.013542382046580315,0.0013351644156500697
1.1465530395507812,0.007438773289322853,-0.4182879328727722,0.12760357558727264,0.049782559275627136,-0.01430533267557621,0.001716639962978661
1.1667511463165283,0.008201723918318748,-0.42973220348358154,0.1329442262649536,0.051689937710762024,-0.015449759550392628,0.001716639962978661
1.1868188381195068,0.008201723918318748,-0.4404135048389435,0.1367589831352234,0.05245288833975792,-0.016212711110711098,0.001716639962978661
1.2072007656097412,0.0078202486038208,-0.4518577754497528,0.14095520973205566,0.053215838968753815,-0.016594186425209045,0.0020981156267225742
1.2273662090301514,0.0078202486038208,-0.4667353332042694,0.14744029939174652,0.05397878959774971,-0.016212711110711098,0.0020981156267225742
1.24739408493042,0.0078202486038208,-0.4812313914299011,0.1520180106163025,0.0551232174038887,-0.015449759550392628,0.0020981156267225742
1.2674829959869385,0.0078202486038208,-0.4957274794578552,0.15926603972911835,0.056267641484737396,-0.015449759550392628,0.0024795911740511656
1.28761625289917,0.008201723918318748,-0.5052643418312073,0.16346226632595062,0.05741206929087639,-0.016594186425209045,0.002861066721379757
1.307710886001587,0.0078202486038208,-0.5174715518951416,0.16956588625907898,0.059319447726011276,-0.016212711110711098,0.002861066721379757
1.3278086185455322,0.0078202486038208,-0.5323491096496582,0.17605096101760864,0.06008239835500717,-0.016594186425209045,0.0032425422687083483
1.3478591442108154,0.0078202486038208,-0.5479896068572998,0.17948424816131592,0.06084534898400307,-0.016212711110711098,0.004005493130534887
1.367964267730713,0.0078202486038208,-0.5609598159790039,0.18635080754756927,0.06237125024199486,-0.016212711110711098,0.004005493130534887
1.3880164623260498,0.008201723918318748,-0.5701152086257935,0.19092851877212524,0.06389715522527695,-0.016975661739706993,0.004386968910694122
1.408820629119873,0.008201723918318748,-0.5819409489631653,0.1966506391763687,0.06466010212898254,-0.016975661739706993,0.004386968910694122
1.428907871246338,0.008201723918318748,-0.5941481590270996,0.20199130475521088,0.06656748056411743,-0.016975661739706993,0.00476844422519207
1.448991298675537,0.008201723918318748,-0.6078813076019287,0.20504310727119446,0.06733043491840363,-0.016975661739706993,0.00476844422519207
1.4690680503845215,0.008201723918318748,-0.6204699873924255,0.21076524257659912,0.06847485899925232,-0.01735713705420494,0.00476844422519207
1.4891700744628906,0.008201723918318748,-0.6300068497657776,0.21725031733512878,0.06961929053068161,-0.018120087683200836,0.00476844422519207
1.509235143661499,0.00858320016413927,-0.6380178332328796,0.22106507420539856,0.0711451917886734,-0.018501564860343933,0.00476844422519207
1.529409646987915,0.008964675478637218,-0.6475547552108765,0.22755016386508942,0.071908138692379,-0.01926451548933983,0.005149920005351305
1.549471139907837,0.008964675478637218,-0.6578545570373535,0.23403525352478027,0.0722896158695221,-0.018501564860343933,0.005149920005351305
1.569598913192749,0.008964675478637218,-0.6677729487419128,0.23937590420246124,0.07419699430465698,-0.01735713705420494,0.005149920005351305
1.589707612991333,0.008964675478637218,-0.6754024624824524,0.2450980395078659,0.07534141838550568,-0.018120087683200836,0.005149920005351305
1.6099703311920166,0.008964675478637218,-0.6811245679855347,0.248531311750412,0.07610437273979187,-0.018501564860343933,0.005531395319849253
1.6301665306091309,0.008964675478637218,-0.6906614899635315,0.25616082549095154,0.07839322835206985,-0.01926451548933983,0.005149920005351305
1.6503009796142578,0.008964675478637218,-0.700579822063446,0.2607385218143463,0.07877469807863235,-0.018501564860343933,0.005149920005351305
1.6704819202423096,0.008964675478637218,-0.7097352743148804,0.26836803555488586,0.08068207651376724,-0.01926451548933983,0.005531395319849253
1.6905176639556885,0.008964675478637218,-0.7173647880554199,0.2733272314071655,0.08258945494890213,-0.01926451548933983,0.005531395319849253
1.7105967998504639,0.009346150793135166,-0.726901650428772,0.2805752754211426,0.08335240930318832,-0.018501564860343933,0.005912871100008488
1.7306690216064453,0.009727626107633114,-0.734149694442749,0.28591591119766235,0.08487831056118011,-0.018501564860343933,0.005912871100008488
1.7507688999176025,0.010109102353453636,-0.7391088604927063,0.28896772861480713,0.08602273464202881,-0.01888304017484188,0.005912871100008488
1.7708706855773926,0.010109102353453636,-0.7452124953269958,0.2943083941936493,0.0864042118191719,-0.01888304017484188,0.00667582219466567
1.7910144329071045,0.010109102353453636,-0.7513160705566406,0.29926756024360657,0.0871671661734581,-0.01926451548933983,0.00667582219466567
1.8113245964050293,0.010109102353453636,-0.7581826448440552,0.30384528636932373,0.0879301130771637,-0.01888304017484188,0.007438773289322853
1.8314592838287354,0.010109102353453636,-0.7639048099517822,0.309567391872406,0.08907453715801239,-0.01926451548933983,0.0078202486038208
1.8515541553497314,0.010109102353453636,-0.770008385181427,0.31528952717781067,0.09021896868944168,-0.01926451548933983,0.008201723918318748
1.8715884685516357,0.010109102353453636,-0.7768749594688416,0.3217746317386627,0.09136339277029037,-0.01888304017484188,0.00858320016413927
1.8916845321655273,0.010109102353453636,-0.7825970649719238,0.3255893886089325,0.09288929402828217,-0.020027466118335724,0.00858320016413927
1.91176176071167,0.010109102353453636,-0.7902265787124634,0.33016708493232727,0.09403372555971146,-0.01926451548933983,0.008964675478637218
1.9318501949310303,0.010109102353453636,-0.7963302135467529,0.33588922023773193,0.09479667246341705,-0.019645990803837776,0.008964675478637218
1.951944351196289,0.010109102353453636,-0.8024337887763977,0.3397039771080017,0.09594109654426575,-0.01926451548933983,0.008964675478637218
1.9720191955566406,0.010109102353453636,-0.8112077713012695,0.34771496057510376,0.09784847497940063,-0.019645990803837776,0.009346150793135166
1.992095708847046,0.010109102353453636,-0.8176928162574768,0.3526741564273834,0.09899290651082993,-0.019645990803837776,0.009727626107633114
2.012218713760376,0.010490577667951584,-0.8249408602714539,0.3583962619304657,0.10051880776882172,-0.01926451548933983,0.009727626107633114
2.032402276992798,0.010490577667951584,-0.8310444951057434,0.36488136649131775,0.10166323184967041,-0.01926451548933983,0.010490577667951584
2.0524659156799316,0.010490577667951584,-0.8360036611557007,0.36907759308815,0.1024261862039566,-0.020027466118335724,0.01125352829694748
2.072512149810791,0.010872052982449532,-0.8424887657165527,0.3751811981201172,0.10433356463909149,-0.02079041674733162,0.011635004542768002
2.092609167098999,0.01125352829694748,-0.84897381067276,0.38052186369895935,0.10509651154279709,-0.02040894143283367,0.01201647985726595
2.1133739948272705,0.01125352829694748,-0.8558403849601746,0.3866254687309265,0.10585946589708328,-0.020027466118335724,0.01201647985726595
2.133453369140625,0.01125352829694748,-0.8630884289741516,0.39387351274490356,0.10700388997793198,-0.019645990803837776,0.012397955171763897
2.153625011444092,0.01125352829694748,-0.8672846555709839,0.39768826961517334,0.10814831405878067,-0.02040894143283367,0.01201647985726595
2.173884868621826,0.012397955171763897,-0.8730067610740662,0.4037918746471405,0.10929274559020996,-0.02079041674733162,0.012779430486261845
2.194000482559204,0.012397955171763897,-0.8787289261817932,0.40989547967910767,0.11005569249391556,-0.021553369238972664,0.012397955171763897
2.2140402793884277,0.01201647985726595,-0.8829251527786255,0.41409170627593994,0.11120012402534485,-0.021553369238972664,0.012779430486261845
2.2341504096984863,0.01201647985726595,-0.8894102573394775,0.4209582805633545,0.11234454810619354,-0.02079041674733162,0.012779430486261845
2.254220724105835,0.012397955171763897,-0.8932250142097473,0.42553597688674927,0.11310750246047974,-0.021171892061829567,0.012779430486261845
2.274319648742676,0.01201647985726595,-0.9008545279502869,0.4327840209007263,0.11425192654132843,-0.02079041674733162,0.012779430486261845
2.2943873405456543,0.012397955171763897,-0.9058136940002441,0.4388876259326935,0.11577782779932022,-0.021553369238972664,0.012779430486261845
2.3144428730010986,0.012397955171763897,-0.9126802682876587,0.44613564014434814,0.11692225188016891,-0.02231631986796856,0.013160906732082367
2.33454966545105,0.012397955171763897,-0.918402373790741,0.4526207447052002,0.11768520623445511,-0.023079270496964455,0.013160906732082367
2.3549463748931885,0.012779430486261845,-0.9252689480781555,0.46063172817230225,0.1199740618467331,-0.023079270496964455,0.013160906732082367
2.3749911785125732,0.013160906732082367,-0.9332799315452576,0.4694056510925293,0.12111848592758179,-0.023079270496964455,0.013542382046580315
2.3950555324554443,0.013160906732082367,-0.9382390975952148,0.47474631667137146,0.12226291000843048,-0.023079270496964455,0.013542382046580315
2.4151370525360107,0.013542382046580315,-0.9458686113357544,0.4827573001384735,0.12378881871700287,-0.022697795182466507,0.013923857361078262
2.4351978302001953,0.01430533267557621,-0.9504463076591492,0.4880979657173157,0.12455176562070847,-0.02384222112596035,0.014686808921396732
2.455289602279663,0.01430533267557621,-0.9576943516731262,0.4957274794578552,0.12569619715213776,-0.023460745811462402,0.01506828423589468
2.47536039352417,0.01430533267557621,-0.9641794562339783,0.5033569931983948,0.12722209095954895,-0.023460745811462402,0.01506828423589468
2.4955668449401855,0.01430533267557621,-0.9706645011901855,0.5106050372123718,0.12874799966812134,-0.023460745811462402,0.01583123579621315
2.5156667232513428,0.01430533267557621,-0.9779125452041626,0.5189974904060364,0.13065537810325623,-0.024223696440458298,0.015449759550392628
2.5357367992401123,0.01430533267557621,-0.9832532405853271,0.5258640646934509,0.13141833245754242,-0.024223696440458298,0.016212711110711098
2.5558149814605713,0.01430533267557621,-0.9912642240524292,0.5357823967933655,0.13218127191066742,-0.024986648932099342,0.016212711110711098
2.5758931636810303,0.01430533267557621,-0.996604859828949,0.541886031627655,0.1337071806192398,-0.02536812424659729,0.016212711110711098
2.5961334705352783,0.01430533267557621,-1.0049973726272583,0.5525673031806946,0.135233074426651,-0.024986648932099342,0.016594186425209045
2.6161463260650635,0.01430533267557621,-1.0111008882522583,0.5613412857055664,0.1371404528617859,-0.025749599561095238,0.016594186425209045
2.6364786624908447,0.01430533267557621,-1.0172045230865479,0.569733738899231,0.13828489184379578,-0.024986648932099342,0.016975661739706993
2.6566050052642822,0.01430533267557621,-1.0233081579208374,0.578507661819458,0.13904783129692078,-0.025749599561095238,0.01773861236870289
2.6768229007720947,0.01430533267557621,-1.0282673835754395,0.5861371755599976,0.13981078565120697,-0.026131074875593185,0.018120087683200836
2.6969096660614014,0.014686808921396732,-1.034752368927002,0.5960555672645569,0.14171816408634186,-0.026512550190091133,0.01888304017484188
2.7169604301452637,0.01506828423589468,-1.0400930643081665,0.6044480204582214,0.14324407279491425,-0.026512550190091133,0.01926451548933983
2.737053871154785,0.01506828423589468,-1.0473411083221436,0.6158922910690308,0.14515145123004913,-0.026512550190091133,0.019645990803837776
2.7571136951446533,0.01506828423589468,-1.052681803703308,0.6235218048095703,0.14667734503746033,-0.026131074875593185,0.019645990803837776
2.7772319316864014,0.01506828423589468,-1.0587854385375977,0.6326771974563599,0.14858472347259521,-0.02689402550458908,0.020027466118335724
2.7972912788391113,0.015449759550392628,-1.0664149522781372,0.6425955891609192,0.1501106321811676,-0.02689402550458908,0.020027466118335724
2.817502021789551,0.01506828423589468,-1.0740443468093872,0.6525139212608337,0.1512550562620163,-0.027656977996230125,0.020027466118335724
2.837594747543335,0.01506828423589468,-1.0820554494857788,0.6639581918716431,0.15354390442371368,-0.02689402550458908,0.020027466118335724
2.857685089111328,0.015449759550392628,-1.0877774953842163,0.6742580533027649,0.15545128285884857,-0.02880140393972397,0.02040894143283367
2.8778419494628906,0.01583123579621315,-1.0957884788513184,0.6887540817260742,0.15697719156742096,-0.029564354568719864,0.02040894143283367
2.897915840148926,0.016212711110711098,-1.1007477045059204,0.6979095339775085,0.15735866129398346,-0.02994582988321781,0.02040894143283367
2.9180166721343994,0.016212711110711098,-1.1079957485198975,0.7112611532211304,0.15774014592170715,-0.02994582988321781,0.02079041674733162
2.9380781650543213,0.016594186425209045,-1.114099383354187,0.7219424843788147,0.15964750945568085,-0.031090257689356804,0.02079041674733162
2.958235025405884,0.016594186425209045,-1.122110366821289,0.734912633895874,0.16155488789081573,-0.03032730519771576,0.02079041674733162
2.978384494781494,0.016975661739706993,-1.1301213502883911,0.7482643127441406,0.16308079659938812,-0.03032730519771576,0.021171892061829567
2.9986445903778076,0.01735713705420494,-1.1369879245758057,0.7597085237503052,0.164988175034523,-0.03223468363285065,0.021553369238972664
3.018766164779663,0.01735713705420494,-1.1465247869491577,0.7749675512313843,0.1665140837430954,-0.031090257689356804,0.022697795182466507
3.0388598442077637,0.01735713705420494,-1.1526284217834473,0.7860303521156311,0.1684214472770691,-0.03185320645570755,0.023079270496964455
3.058903932571411,0.01735713705420494,-1.1617838144302368,0.8009079098701477,0.16956588625907898,-0.032616160809993744,0.023460745811462402
3.0789802074432373,0.01735713705420494,-1.1697947978973389,0.813878059387207,0.17223620414733887,-0.034142062067985535,0.023460745811462402
3.0990653038024902,0.01735713705420494,-1.1804760694503784,0.8291370868682861,0.17490653693675995,-0.03376058489084244,0.02384222112596035
3.1191914081573486,0.01735713705420494,-1.191157341003418,0.8455405235290527,0.17681391537189484,-0.034142062067985535,0.02384222112596035
3.1394360065460205,0.01735713705420494,-1.201838731765747,0.8619440197944641,0.17872129380702972,-0.03452353551983833,0.024223696440458298
3.15959095954895,0.018501564860343933,-1.2144273519515991,0.8794918656349182,0.1810101419687271,-0.03528648987412453,0.024605173617601395
3.1796939373016357,0.01926451548933983,-1.2258716821670532,0.8978027105331421,0.1840619444847107,-0.03757534176111221,0.024986648932099342
3.1998260021209717,0.019645990803837776,-1.2411307096481323,0.9187838435173035,0.18558785319328308,-0.03757534176111221,0.02689402550458908
3.219904661178589,0.019645990803837776,-1.254482388496399,0.9390020370483398,0.18825818598270416,-0.038719769567251205,0.02727550081908703
3.2402939796447754,0.02079041674733162,-1.2724117040634155,0.9645609259605408,0.19130998849868774,-0.03757534176111221,0.027656977996230125
3.2603795528411865,0.021553369238972664,-1.2880522012710571,0.9870679974555969,0.19398032128810883,-0.040245670825242996,0.028038453310728073
3.2804486751556396,0.021553369238972664,-1.3029297590255737,1.0118639469146729,0.1970321238040924,-0.042153049260377884,0.02841992862522602
3.30058217048645,0.021553369238972664,-1.3223849534988403,1.040474534034729,0.20237277448177338,-0.04177157208323479,0.029182879254221916
3.3206348419189453,0.021553369238972664,-1.338788390159607,1.0679408311843872,0.20733195543289185,-0.04406042397022247,0.029564354568719864
3.340738534927368,0.021553369238972664,-1.3601510524749756,1.098840355873108,0.212672621011734,-0.04329747334122658,0.030708782374858856
3.3608551025390625,0.021553369238972664,-1.3765544891357422,1.124399185180664,0.21801327168941498,-0.04558632895350456,0.031090257689356804
3.3809525966644287,0.021553369238972664,-1.3937208652496338,1.1499580144882202,0.22106507420539856,-0.045204851776361465,0.031090257689356804
3.4011173248291016,0.021553369238972664,-1.412413239479065,1.1728465557098389,0.22640573978424072,-0.04901960864663124,0.031090257689356804
3.4214000701904297,0.02193484455347061,-1.4303425550460815,1.198405385017395,0.23327229917049408,-0.04940108209848404,0.03185320645570755
3.4414820671081543,0.022697795182466507,-1.4501793384552002,1.2235828638076782,0.23785001039505005,-0.049782559275627136,0.03185320645570755
3.4616732597351074,0.023460745811462402,-1.4650568962097168,1.2441824674606323,0.2447165697813034,-0.05359731614589691,0.03223468363285065
3.481680154800415,0.024986648932099342,-1.481078863143921,1.2666895389556885,0.2508201599121094,-0.0551232174038887,0.03490501269698143
3.501774549484253,0.02536812424659729,-1.493667483329773,1.2857633829116821,0.2588311731815338,-0.05741206929087639,0.03528648987412453
3.5220279693603516,0.026512550190091133,-1.505874752998352,1.3056000471115112,0.265697717666626,-0.059319447726011276,0.037193864583969116
3.542147397994995,0.02841992862522602,-1.5142672061920166,1.3197146654129028,0.27103838324546814,-0.05970092490315437,0.03833829239010811
3.562204599380493,0.03032730519771576,-1.5188448429107666,1.3303959369659424,0.2763790488243103,-0.06160829961299896,0.038719769567251205
3.5823047161102295,0.03185320645570755,-1.5230411291122437,1.340695858001709,0.28324559330940247,-0.06351567804813385,0.038719769567251205
3.602374315261841,0.032616160809993744,-1.5249484777450562,1.346799373626709,0.290112167596817,-0.06733043491840363,0.039101243019104004
3.6227006912231445,0.03376058489084244,-1.5241855382919312,1.348706841468811,0.2973601818084717,-0.0707637146115303,0.0394827201962471
3.6428229808807373,0.03604944050312042,-1.5234225988388062,1.3490883111953735,0.30422675609588623,-0.07267109304666519,0.0398641936480999
3.662881851196289,0.03604944050312042,-1.5226596593856812,1.348706841468811,0.3114747703075409,-0.07572289556264877,0.0398641936480999
3.6829607486724854,0.03643091395497322,-1.5222781896591187,1.3483253717422485,0.31795987486839294,-0.07686731964349747,0.040245670825242996
3.703047275543213,0.03643091395497322,-1.5222781896591187,1.3471808433532715,0.3244449496269226,-0.07877469807863235,0.040627144277095795
3.723121166229248,0.03681239113211632,-1.5218967199325562,1.346036434173584,0.33360037207603455,-0.08068207651376724,0.04139009863138199
3.74322772026062,0.03681239113211632,-1.5218967199325562,1.3456549644470215,0.343900203704834,-0.08487831056118011,0.042153049260377884
3.763324022293091,0.037193864583969116,-1.5215152502059937,1.3448920249938965,0.35152971744537354,-0.0879301130771637,0.04291599988937378
3.7836802005767822,0.037193864583969116,-1.5211337804794312,1.344510555267334,0.361829549074173,-0.09021896868944168,0.04329747334122658
3.803770065307617,0.03757534176111221,-1.519226312637329,1.3433661460876465,0.3732738196849823,-0.09327077120542526,0.04406042397022247
3.8238391876220703,0.03795681521296501,-1.517700433731079,1.342221736907959,0.3847180902957916,-0.09517814964056015,0.045204851776361465
3.8439226150512695,0.039101243019104004,-1.515411615371704,1.3410773277282715,0.39883267879486084,-0.09861142933368683,0.04596780240535736
3.864008903503418,0.040245670825242996,-1.512359857559204,1.339551329612732,0.41485464572906494,-0.10204470902681351,0.04634927958250046
3.8840622901916504,0.040627144277095795,-1.510452389717102,1.3391698598861694,0.42858776450157166,-0.10471503436565399,0.04634927958250046
3.9041924476623535,0.04177157208323479,-1.5070191621780396,1.3384069204330444,0.44117647409439087,-0.10585946589708328,0.046730753034353256
3.924238920211792,0.04329747334122658,-1.5039674043655396,1.3376439809799194,0.4545281231403351,-0.10700388997793198,0.046730753034353256
3.9445078372955322,0.04406042397022247,-1.5012969970703125,1.3368810415267944,0.4678797721862793,-0.10967422276735306,0.046730753034353256
3.9646379947662354,0.04444190114736557,-1.4974822998046875,1.335736632347107,0.4812313914299011,-0.11043716967105865,0.046730753034353256
3.9853358268737793,0.04482337832450867,-1.494430422782898,1.3353551626205444,0.49458304047584534,-0.11310750246047974,0.046730753034353256
4.005441427230835,0.04558632895350456,-1.492141604423523,1.334210753440857,0.506027340888977,-0.11539635062217712,0.04711223021149635
4.025510311126709,0.04558632895350456,-1.489852786064148,1.333447813987732,0.5148012638092041,-0.11959258466959,0.04711223021149635
4.0456178188323975,0.04558632895350456,-1.487945318222046,1.3330663442611694,0.5251010656356812,-0.12340734153985977,0.04711223021149635
4.0656960010528564,0.04558632895350456,-1.486419439315796,1.3323034048080444,0.5342565178871155,-0.12493324279785156,0.04711223021149635
4.085778713226318,0.04558632895350456,-1.4845120906829834,1.3311588764190674,0.5415045619010925,-0.12760357558727264,0.04711223021149635
4.105860233306885,0.04558632895350456,-1.4822232723236084,1.3307774066925049,0.5495155453681946,-0.13027389347553253,0.04749370738863945
4.125950813293457,0.04596780240535736,-1.4799343347549438,1.3300144672393799,0.5556191205978394,-0.13065537810325623,0.04711223021149635
4.146027565002441,0.04634927958250046,-1.4784084558486938,1.3303959369659424,0.5605783462524414,-0.13065537810325623,0.04711223021149635
4.166077136993408,0.04634927958250046,-1.4761196374893188,1.3303959369659424,0.5643930435180664,-0.13027389347553253,0.046730753034353256
4.186170816421509,0.04634927958250046,-1.4745937585830688,1.3303959369659424,0.5685893297195435,-0.12989242374897003,0.04634927958250046
4.206247568130493,0.04634927958250046,-1.4723048210144043,1.3303959369659424,0.5743114352226257,-0.12989242374897003,0.04596780240535736
4.226477861404419,0.04634927958250046,-1.4711604118347168,1.3300144672393799,0.5796520709991455,-0.13027389347553253,0.04558632895350456
4.246566295623779,0.04634927958250046,-1.4700160026550293,1.3296329975128174,0.5830853581428528,-0.12989242374897003,0.045204851776361465
4.266637086868286,0.04634927958250046,-1.4692530632019043,1.3292515277862549,0.5861371755599976,-0.13065537810325623,0.04444190114736557
4.286773204803467,0.04634927958250046,-1.4688715934753418,1.3288700580596924,0.5891889929771423,-0.13065537810325623,0.04253452271223068
4.306979179382324,0.04634927958250046,-1.4677271842956543,1.3281071186065674,0.5918593406677246,-0.12989242374897003,0.040245670825242996
4.326968431472778,0.04634927958250046,-1.4669642448425293,1.3281071186065674,0.5960555672645569,-0.13027389347553253,0.038719769567251205
4.347362518310547,0.04634927958250046,-1.4658198356628418,1.3281071186065674,0.5994887948036194,-0.12989242374897003,0.03795681521296501
4.367335557937622,0.04634927958250046,-1.4650568962097168,1.3281071186065674,0.6010147333145142,-0.12912946939468384,0.037193864583969116
4.387335777282715,0.04634927958250046,-1.4642938375473022,1.3277256488800049,0.6029220819473267,-0.12836651504039764,0.03643091395497322
4.407410621643066,0.04634927958250046,-1.4631494283676147,1.3273441791534424,0.6029220819473267,-0.12722209095954895,0.03490501269698143
4.427484512329102,0.04596780240535736,-1.4627679586410522,1.3273441791534424,0.6036850810050964,-0.12760357558727264,0.03337911143898964
4.44784140586853,0.04558632895350456,-1.4620050191879272,1.3261997699737549,0.6063553690910339,-0.12645913660526276,0.03223468363285065
4.467749118804932,0.045204851776361465,-1.4612420797348022,1.3250553607940674,0.6067368388175964,-0.12569619715213776,0.030708782374858856
4.4877610206604,0.04444190114736557,-1.4604791402816772,1.3239108324050903,0.6086442470550537,-0.12531471252441406,0.02994582988321781
4.507878065109253,0.04406042397022247,-1.4597162008285522,1.3235293626785278,0.6109330654144287,-0.12493324279785156,0.02880140393972397
4.527947425842285,0.04329747334122658,-1.4589532613754272,1.3231478929519653,0.613603413105011,-0.12455176562070847,0.02689402550458908
4.548007965087891,0.04291599988937378,-1.4585717916488647,1.3231478929519653,0.6147478222846985,-0.12378881871700287,0.025749599561095238
4.568100452423096,0.04291599988937378,-1.4574273824691772,1.3231478929519653,0.6174181699752808,-0.12302586436271667,0.022697795182466507
4.588183641433716,0.04253452271223068,-1.4562828540802002,1.3231478929519653,0.619325578212738,-0.12302586436271667,0.021553369238972664
4.608219146728516,0.042153049260377884,-1.4555199146270752,1.3231478929519653,0.6219958662986755,-0.12188144028186798,0.01888304017484188
4.628335475921631,0.042153049260377884,-1.4551384449005127,1.3231478929519653,0.622377336025238,-0.1199740618467331,0.018501564860343933
4.6484174728393555,0.04139009863138199,-1.4551384449005127,1.3231478929519653,0.6227588057518005,-0.1188296303153038,0.01773861236870289
4.668488025665283,0.04100862145423889,-1.4547569751739502,1.3220034837722778,0.6246662139892578,-0.11654078215360641,0.01583123579621315
4.688542127609253,0.04100862145423889,-1.4543755054473877,1.3212405443191528,0.6265735626220703,-0.11692225188016891,0.015449759550392628
4.708646774291992,0.04100862145423889,-1.4543755054473877,1.3208590745925903,0.6284809708595276,-0.11654078215360641,0.014686808921396732
4.728700876235962,0.04100862145423889,-1.4536125659942627,1.3208590745925903,0.6292439103126526,-0.11615930497646332,0.013923857361078262
4.748791217803955,0.040627144277095795,-1.4524681568145752,1.3193331956863403,0.6303883194923401,-0.11501488089561462,0.01201647985726595
4.768996715545654,0.040627144277095795,-1.4513237476348877,1.3189517259597778,0.6322957277297974,-0.11387044936418533,0.010872052982449532
4.7891504764556885,0.040245670825242996,-1.4505608081817627,1.3189517259597778,0.6338216066360474,-0.11158160120248795,0.010109102353453636
4.80916428565979,0.040245670825242996,-1.4501793384552002,1.3181887865066528,0.6357290148735046,-0.10852979123592377,0.0078202486038208
4.829242467880249,0.0398641936480999,-1.4486533403396606,1.3166629076004028,0.6364919543266296,-0.10662241280078888,0.00667582219466567
4.849347352981567,0.0398641936480999,-1.4486533403396606,1.3166629076004028,0.6383993029594421,-0.10776684433221817,0.005149920005351305
4.869470834732056,0.0398641936480999,-1.4486533403396606,1.3158998489379883,0.6406881809234619,-0.10585946589708328,0.004005493130534887
4.889547348022461,0.039101243019104004,-1.4486533403396606,1.3155183792114258,0.6429770588874817,-0.10585946589708328,0.002861066721379757
4.90968132019043,0.039101243019104004,-1.4486533403396606,1.3147554397583008,0.6456473469734192,-0.10585946589708328,0.0020981156267225742
4.929738521575928,0.039101243019104004,-1.4486533403396606,1.3136110305786133,0.6475547552108765,-0.10509651154279709,0.000572213320992887
4.950563430786133,0.039101243019104004,-1.4482718706130981,1.3136110305786133,0.648699164390564,-0.10585946589708328,-0.00019073777366429567
4.9706597328186035,0.039101243019104004,-1.4478904008865356,1.3132295608520508,0.6513695120811462,-0.10509651154279709,-0.0013351644156500697
4.99073600769043,0.039101243019104004,-1.4471274614334106,1.3128480911254883,0.6528953909873962,-0.10433356463909149,-0.004005493130534887
5.0119311809539795,0.039101243019104004,-1.4456015825271606,1.3124666213989258,0.6548027992248535,-0.1039520874619484,-0.005912871100008488
5.031979084014893,0.039101243019104004,-1.4444571733474731,1.3117036819458008,0.655184268951416,-0.10090028494596481,-0.007057297509163618
5.05208158493042,0.039101243019104004,-1.4436942338943481,1.3113222122192383,0.6555657386779785,-0.10013733059167862,-0.0078202486038208
5.072437524795532,0.039101243019104004,-1.4433127641677856,1.3105592727661133,0.6555657386779785,-0.09746700525283813,-0.008964675478637218
5.092554807662964,0.039101243019104004,-1.4429312944412231,1.3101778030395508,0.6578545570373535,-0.09670405089855194,-0.010872052982449532
5.112620830535889,0.039101243019104004,-1.4429312944412231,1.3090333938598633,0.6593804955482483,-0.09517814964056015,-0.011635004542768002
5.132699251174927,0.039101243019104004,-1.4429312944412231,1.3086519241333008,0.6624323129653931,-0.09555962681770325,-0.013923857361078262
5.152787685394287,0.039101243019104004,-1.4429312944412231,1.3082703351974487,0.6643396615982056,-0.09555962681770325,-0.01430533267557621
5.172848224639893,0.039101243019104004,-1.4429312944412231,1.3075073957443237,0.6658655405044556,-0.09403372555971146,-0.01506828423589468
5.19295072555542,0.039101243019104004,-1.4421683549880981,1.3063629865646362,0.6670100092887878,-0.09327077120542526,-0.015449759550392628
5.213116884231567,0.039101243019104004,-1.4417868852615356,1.3063629865646362,0.6681544184684753,-0.09288929402828217,-0.016212711110711098
5.23312783241272,0.039101243019104004,-1.441023826599121,1.3052185773849487,0.6708247661590576,-0.09136339277029037,-0.018120087683200836
5.253221273422241,0.039101243019104004,-1.4406423568725586,1.3044556379318237,0.6727321147918701,-0.08907453715801239,-0.01926451548933983
5.273291826248169,0.038719769567251205,-1.4406423568725586,1.3040741682052612,0.6742580533027649,-0.0879301130771637,-0.021171892061829567
5.2938079833984375,0.038719769567251205,-1.440260887145996,1.3033112287521362,0.6750209927558899,-0.08564125746488571,-0.022697795182466507
5.313995361328125,0.039101243019104004,-1.440260887145996,1.3029297590255737,0.6776912808418274,-0.08525978773832321,-0.023079270496964455
5.333986759185791,0.038719769567251205,-1.4398794174194336,1.3025482892990112,0.6795986890792847,-0.08373387902975082,-0.02384222112596035
5.354118824005127,0.038719769567251205,-1.4398794174194336,1.3021668195724487,0.6811245679855347,-0.08297093212604523,-0.02536812424659729
5.374197959899902,0.038719769567251205,-1.4391164779663086,1.3014038801193237,0.6815060377120972,-0.08068207651376724,-0.026512550190091133
5.394934177398682,0.038719769567251205,-1.4383535385131836,1.3002593517303467,0.6818875670433044,-0.07953765243291855,-0.027656977996230125
5.415053844451904,0.03833829239010811,-1.437972068786621,1.2998778820037842,0.6841763854026794,-0.07839322835206985,-0.029564354568719864
5.435142755508423,0.03833829239010811,-1.437972068786621,1.2994964122772217,0.6860837936401367,-0.07724879682064056,-0.02994582988321781
5.4552037715911865,0.03833829239010811,-1.437209129333496,1.2991149425506592,0.6887540817260742,-0.07610437273979187,-0.03147173300385475
5.475283145904541,0.03833829239010811,-1.4368276596069336,1.2983520030975342,0.689517080783844,-0.07648584991693497,-0.03185320645570755
5.495349168777466,0.03833829239010811,-1.4368276596069336,1.2979705333709717,0.690280020236969,-0.07610437273979187,-0.03299763426184654
5.515431880950928,0.03795681521296501,-1.4368276596069336,1.2979705333709717,0.6914244294166565,-0.07572289556264877,-0.03337911143898964
5.535532236099243,0.03833829239010811,-1.436446189880371,1.2972075939178467,0.692568838596344,-0.07381551712751389,-0.034142062067985535
5.556379318237305,0.03833829239010811,-1.4360647201538086,1.2964446544647217,0.693331778049469,-0.07343403995037079,-0.03490501269698143
5.5764710903167725,0.03795681521296501,-1.4360647201538086,1.2953002452850342,0.6960021257400513,-0.071908138692379,-0.03604944050312042
5.596571922302246,0.03795681521296501,-1.4360647201538086,1.2949187755584717,0.6971465349197388,-0.0711451917886734,-0.03681239113211632
5.617297410964966,0.03795681521296501,-1.4360647201538086,1.2945373058319092,0.6979095339775085,-0.0711451917886734,-0.03795681521296501
5.637537240982056,0.03795681521296501,-1.4360647201538086,1.2937743663787842,0.699816882610321,-0.07038223743438721,-0.038719769567251205
5.65748405456543,0.03795681521296501,-1.4360647201538086,1.2933928966522217,0.7009612917900085,-0.06961929053068161,-0.040627144277095795
5.677568674087524,0.03795681521296501,-1.4353017807006836,1.2922483682632446,0.7024872303009033,-0.06809338182210922,-0.04139009863138199
5.69763708114624,0.03795681521296501,-1.4345388412475586,1.2918668985366821,0.7047760486602783,-0.06771191209554672,-0.04177157208323479
5.717868328094482,0.03795681521296501,-1.434157371520996,1.2914854288101196,0.7070649266242981,-0.06771191209554672,-0.042153049260377884
5.73806095123291,0.03795681521296501,-1.434157371520996,1.2907224893569946,0.7074463963508606,-0.06542305648326874,-0.04253452271223068
5.758087396621704,0.03795681521296501,-1.4337759017944336,1.2903410196304321,0.7078278660774231,-0.06351567804813385,-0.04406042397022247
5.778247117996216,0.03795681521296501,-1.4337759017944336,1.2899595499038696,0.7082093358039856,-0.06160829961299896,-0.045204851776361465
5.798323631286621,0.03795681521296501,-1.4337759017944336,1.2899595499038696,0.7085908055305481,-0.06198977679014206,-0.04558632895350456
5.818390607833862,0.03795681521296501,-1.4337759017944336,1.2895780801773071,0.7101167440414429,-0.06160829961299896,-0.04634927958250046
5.8385350704193115,0.03795681521296501,-1.4337759017944336,1.2888151407241821,0.7112611532211304,-0.06046387553215027,-0.048256658017635345
5.858617544174194,0.03795681521296501,-1.4337759017944336,1.2876707315444946,0.7120240926742554,-0.05893797054886818,-0.04901960864663124
5.878918886184692,0.03795681521296501,-1.433012843132019,1.2872892618179321,0.7146944403648376,-0.058175019919872284,-0.050164032727479935
5.899091005325317,0.03795681521296501,-1.433012843132019,1.2865263223648071,0.7162203192710876,-0.05741206929087639,-0.05092698708176613
5.919081687927246,0.03795681521296501,-1.4326313734054565,1.2853819131851196,0.7177462577819824,-0.05664911866188049,-0.05245288833975792
5.939219236373901,0.03795681521296501,-1.4326313734054565,1.284618854522705,0.7188906669616699,-0.05359731614589691,-0.053215838968753815
5.959311008453369,0.03795681521296501,-1.432249903678894,1.2834744453430176,0.7200350761413574,-0.05245288833975792,-0.054741740226745605
5.979386806488037,0.03795681521296501,-1.432249903678894,1.283092975616455,0.7227054238319397,-0.05207141116261482,-0.056267641484737396
5.999513149261475,0.03795681521296501,-1.432249903678894,1.28233003616333,0.7242313027381897,-0.049782559275627136,-0.05741206929087639
6.019596815109253,0.03795681521296501,-1.4318684339523315,1.2819485664367676,0.726901650428772,-0.04940108209848404,-0.05855649709701538
6.039721727371216,0.03795681521296501,-1.4318684339523315,1.2811856269836426,0.7295719981193542,-0.048638131469488144,-0.05970092490315437
6.059757232666016,0.03795681521296501,-1.4318684339523315,1.2811856269836426,0.7310978770256042,-0.048256658017635345,-0.05970092490315437
6.079878330230713,0.03795681521296501,-1.4318684339523315,1.2804226875305176,0.733386754989624,-0.046730753034353256,-0.06008239835500717
6.100008964538574,0.03795681521296501,-1.4318684339523315,1.280041217803955,0.7337682247161865,-0.04634927958250046,-0.06046387553215027
6.120119094848633,0.03795681521296501,-1.431486964225769,1.27927827835083,0.7345311641693115,-0.04444190114736557,-0.061226826161146164
6.140206813812256,0.03795681521296501,-1.4311054944992065,1.27927827835083,0.7368200421333313,-0.04406042397022247,-0.06237125024199486
6.160233497619629,0.03795681521296501,-1.430724024772644,1.2781338691711426,0.7383459210395813,-0.04291599988937378,-0.06351567804813385
6.180361032485962,0.03795681521296501,-1.429961085319519,1.27775239944458,0.7398717999458313,-0.04177157208323479,-0.06504157930612564
6.2004005908966064,0.03795681521296501,-1.429961085319519,1.2773709297180176,0.7410162687301636,-0.040627144277095795,-0.06542305648326874
6.2204835414886475,0.03795681521296501,-1.429961085319519,1.2773709297180176,0.7413977384567261,-0.040627144277095795,-0.06694895774126053
6.240576505661011,0.03795681521296501,-1.429961085319519,1.276607871055603,0.7425421476364136,-0.0398641936480999,-0.06771191209554672
6.26066255569458,0.03795681521296501,-1.429961085319519,1.275081992149353,0.7440680265426636,-0.039101243019104004,-0.06847485899925232
6.28074312210083,0.03795681521296501,-1.429961085319519,1.2739375829696655,0.7455939650535583,-0.03795681521296501,-0.06923781335353851
6.300847291946411,0.03795681521296501,-1.429961085319519,1.272793173789978,0.7482643127441406,-0.03681239113211632,-0.0711451917886734
6.321147918701172,0.03795681521296501,-1.429961085319519,1.272030234336853,0.7501716613769531,-0.03490501269698143,-0.07305257022380829
6.341253280639648,0.03795681521296501,-1.429961085319519,1.2708858251571655,0.7528420090675354,-0.03376058489084244,-0.07457847148180008
6.361374378204346,0.03795681521296501,-1.429961085319519,1.2701228857040405,0.7551308274269104,-0.03185320645570755,-0.07572289556264877
6.381604433059692,0.03795681521296501,-1.429961085319519,1.269741415977478,0.7570382356643677,-0.031090257689356804,-0.07648584991693497
6.401634454727173,0.03795681521296501,-1.429961085319519,1.269741415977478,0.7593270540237427,-0.029564354568719864,-0.07763027399778366
6.42260217666626,0.03795681521296501,-1.429961085319519,1.269741415977478,0.7597085237503052,-0.02880140393972397,-0.07801175117492676
6.442825078964233,0.03795681521296501,-1.4295796155929565,1.269741415977478,0.7600900530815125,-0.027656977996230125,-0.07877469807863235
6.462900400161743,0.03795681521296501,-1.4295796155929565,1.269741415977478,0.760471522808075,-0.025749599561095238,-0.07953765243291855
6.483010530471802,0.03795681521296501,-1.429198145866394,1.269741415977478,0.761997401714325,-0.024986648932099342,-0.07991912961006165
6.503046274185181,0.03795681521296501,-1.4288166761398315,1.269359827041626,0.763523280620575,-0.024986648932099342,-0.08030059933662415
6.523157835006714,0.03795681521296501,-1.4288166761398315,1.2689783573150635,0.7642862796783447,-0.024223696440458298,-0.08106355369091034
6.543246030807495,0.03795681521296501,-1.4288166761398315,1.268596887588501,0.7646677494049072,-0.02384222112596035,-0.08220797777175903
6.563420057296753,0.03795681521296501,-1.4288166761398315,1.267833948135376,0.7661936283111572,-0.023079270496964455,-0.08297093212604523
6.583487033843994,0.03795681521296501,-1.4288166761398315,1.2674524784088135,0.7673380374908447,-0.023079270496964455,-0.08297093212604523
6.603538513183594,0.03795681521296501,-1.4288166761398315,1.2666895389556885,0.7681010365486145,-0.021553369238972664,-0.08411535620689392
6.62362265586853,0.03795681521296501,-1.4288166761398315,1.2666895389556885,0.770771324634552,-0.02079041674733162,-0.08487831056118011
6.643734455108643,0.03795681521296501,-1.4288166761398315,1.2659265995025635,0.7726787328720093,-0.018120087683200836,-0.08564125746488571
6.663874387741089,0.03795681521296501,-1.428435206413269,1.2659265995025635,0.7749675512313843,-0.016594186425209045,-0.0864042118191719
6.683955907821655,0.03795681521296501,-1.428435206413269,1.265545129776001,0.776493489742279,-0.01583123579621315,-0.086785688996315
6.7040159702301025,0.03795681521296501,-1.4280537366867065,1.2651636600494385,0.7784008383750916,-0.014686808921396732,-0.0871671661734581
6.724137306213379,0.03795681521296501,-1.427672266960144,1.264782190322876,0.7795453071594238,-0.013923857361078262,-0.0875486359000206
6.744233131408691,0.03795681521296501,-1.427672266960144,1.2644007205963135,0.7822155952453613,-0.013160906732082367,-0.08869306743144989
6.764971494674683,0.03795681521296501,-1.427672266960144,1.2636377811431885,0.7825970649719238,-0.010872052982449532,-0.08945601433515549
6.7851762771606445,0.03795681521296501,-1.427672266960144,1.263256311416626,0.7833600640296936,-0.010109102353453636,-0.09021896868944168
6.80518913269043,0.03795681521296501,-1.427672266960144,1.262493371963501,0.7852674126625061,-0.008201723918318748,-0.09098191559314728
6.825268507003784,0.03795681521296501,-1.427672266960144,1.262493371963501,0.7856488823890686,-0.007438773289322853,-0.09174486994743347
6.845330238342285,0.03795681521296501,-1.427672266960144,1.261730432510376,0.7856488823890686,-0.006294346414506435,-0.09327077120542526
6.86569881439209,0.03795681521296501,-1.427672266960144,1.261348843574524,0.7856488823890686,-0.005531395319849253,-0.09365224838256836
6.885793209075928,0.03795681521296501,-1.427672266960144,1.261348843574524,0.7856488823890686,-0.004386968910694122,-0.09403372555971146
6.905849933624268,0.03795681521296501,-1.427672266960144,1.260585904121399,0.7856488823890686,-0.0036240178160369396,-0.09441519528627396
6.925968408584595,0.03757534176111221,-1.427672266960144,1.259822964668274,0.7864118218421936,-0.0032425422687083483,-0.09479667246341705
6.9460413455963135,0.037193864583969116,-1.427672266960144,1.2586785554885864,0.7875562906265259,-0.0020981156267225742,-0.09517814964056015
6.966201543807983,0.03681239113211632,-1.427672266960144,1.2586785554885864,0.7898451089859009,-0.0024795911740511656,-0.09594109654426575
6.986354351043701,0.03681239113211632,-1.4280537366867065,1.258297085762024,0.7917525172233582,-0.0020981156267225742,-0.09708552807569504
7.006407737731934,0.03681239113211632,-1.4280537366867065,1.258297085762024,0.7936598658561707,-0.0013351644156500697,-0.09746700525283813
7.026601314544678,0.03681239113211632,-1.427672266960144,1.257534146308899,0.7948042750358582,0.000572213320992887,-0.09784847497940063
7.0466883182525635,0.03681239113211632,-1.427672266960144,1.257534146308899,0.7967116832733154,0.0020981156267225742,-0.09861142933368683
7.067007780075073,0.03681239113211632,-1.427672266960144,1.257534146308899,0.7974746227264404,0.0032425422687083483,-0.09937438368797302
7.087096691131592,0.03681239113211632,-1.427672266960144,1.2571526765823364,0.7990005612373352,0.0032425422687083483,-0.10090028494596481
7.10718297958374,0.037193864583969116,-1.427672266960144,1.2563897371292114,0.8009079098701477,0.004005493130534887,-0.10128175467252731
7.1272666454315186,0.03681239113211632,-1.427672266960144,1.2556267976760864,0.8024337887763977,0.004386968910694122,-0.10166323184967041
7.147368669509888,0.03681239113211632,-1.427672266960144,1.255245327949524,0.8047226667404175,0.00476844422519207,-0.10204470902681351
7.167512655258179,0.03681239113211632,-1.427672266960144,1.254482388496399,0.80510413646698,0.00476844422519207,-0.10204470902681351
7.187607526779175,0.03681239113211632,-1.427672266960144,1.2541009187698364,0.8062485456466675,0.005149920005351305,-0.1024261862039566
7.207685947418213,0.03681239113211632,-1.427672266960144,1.2533378601074219,0.8081559538841248,0.005912871100008488,-0.1028076633810997
7.227849721908569,0.03681239113211632,-1.4280537366867065,1.2533378601074219,0.8096818327903748,0.005912871100008488,-0.1035706102848053
7.247937202453613,0.03681239113211632,-1.4280537366867065,1.2525749206542969,0.811589241027832,0.0078202486038208,-0.10471503436565399
7.268489360809326,0.03681239113211632,-1.4280537366867065,1.2525749206542969,0.812352180480957,0.009346150793135166,-0.10547798871994019
7.2885518074035645,0.03681239113211632,-1.4280537366867065,1.2521934509277344,0.8127336502075195,0.010872052982449532,-0.10624094307422638
7.308627367019653,0.03681239113211632,-1.4280537366867065,1.2521934509277344,0.8142595291137695,0.01201647985726595,-0.10738536715507507
7.3287153244018555,0.03681239113211632,-1.4280537366867065,1.2514305114746094,0.8157854676246643,0.012779430486261845,-0.10891126841306686
7.348796367645264,0.03681239113211632,-1.4280537366867065,1.2510490417480469,0.8176928162574768,0.013923857361078262,-0.10967422276735306
7.369057893753052,0.03681239113211632,-1.4280537366867065,1.2506675720214844,0.8192187547683716,0.01430533267557621,-0.11005569249391556
7.389153957366943,0.03681239113211632,-1.4280537366867065,1.2502861022949219,0.8199816942214966,0.01506828423589468,-0.11081864684820175
7.409231424331665,0.03681239113211632,-1.4280537366867065,1.2502861022949219,0.8203631639480591,0.01583123579621315,-0.11158160120248795
7.429309844970703,0.03681239113211632,-1.4280537366867065,1.2502861022949219,0.8215075731277466,0.016975661739706993,-0.11196307092905045
7.449433088302612,0.03681239113211632,-1.4280537366867065,1.2502861022949219,0.8234149813652039,0.018501564860343933,-0.11196307092905045
7.469518423080444,0.03681239113211632,-1.4280537366867065,1.2499046325683594,0.8245593905448914,0.01926451548933983,-0.11272602528333664
7.489686727523804,0.03681239113211632,-1.4280537366867065,1.2491416931152344,0.8264667987823486,0.02040894143283367,-0.11310750246047974
7.509690999984741,0.03681239113211632,-1.4280537366867065,1.2483787536621094,0.8276112079620361,0.021553369238972664,-0.11310750246047974
7.529792547225952,0.03681239113211632,-1.4280537366867065,1.2483787536621094,0.8291370868682861,0.021553369238972664,-0.11387044936418533
7.567537307739258,0.03681239113211632,-1.428435206413269,1.2479972839355469,0.8318074345588684,0.022697795182466507,-0.11539635062217712
7.58761739730835,0.03681239113211632,-1.428435206413269,1.2479972839355469,0.8333333134651184,0.024986648932099342,-0.11615930497646332
7.607753276824951,0.03681239113211632,-1.428435206413269,1.2479972839355469,0.8344777822494507,0.02689402550458908,-0.11654078215360641
7.628106594085693,0.037193864583969116,-1.428435206413269,1.2479972839355469,0.8348592519760132,0.027656977996230125,-0.11730372905731201
7.64819860458374,0.03681239113211632,-1.428435206413269,1.2472343444824219,0.8360036611557007,0.02880140393972397,-0.1180666834115982
7.668291330337524,0.03681239113211632,-1.428435206413269,1.2460898160934448,0.8375295400619507,0.02994582988321781,-0.1188296303153038
7.688337087631226,0.03681239113211632,-1.428435206413269,1.2453268766403198,0.837911069393158,0.029182879254221916,-0.1192111074924469
7.708415746688843,0.037193864583969116,-1.4288166761398315,1.2441824674606323,0.8382925391197205,0.02994582988321781,-0.11959258466959
7.728506326675415,0.03681239113211632,-1.4288166761398315,1.2430380582809448,0.8390554785728455,0.03032730519771576,-0.1203555315732956
7.748574256896973,0.03681239113211632,-1.4288166761398315,1.2430380582809448,0.840962827205658,0.029182879254221916,-0.1203555315732956
7.768789768218994,0.03681239113211632,-1.4288166761398315,1.2426565885543823,0.8421072959899902,0.029564354568719864,-0.12073700875043869
7.788794755935669,0.03681239113211632,-1.4288166761398315,1.2430380582809448,0.8428702354431152,0.02994582988321781,-0.12111848592758179
7.808884143829346,0.03681239113211632,-1.4288166761398315,1.2430380582809448,0.8447775840759277,0.03147173300385475,-0.12149996310472488
7.828988075256348,0.03681239113211632,-1.4288166761398315,1.2430380582809448,0.84592205286026,0.034142062067985535,-0.12188144028186798
7.849640369415283,0.03681239113211632,-1.4288166761398315,1.2430380582809448,0.8470664620399475,0.03490501269698143,-0.12340734153985977
7.869768381118774,0.03681239113211632,-1.4288166761398315,1.2430380582809448,0.8485923409461975,0.03490501269698143,-0.12378881871700287
7.88982892036438,0.03681239113211632,-1.4288166761398315,1.2426565885543823,0.8493552803993225,0.03528648987412453,-0.12455176562070847
7.909997940063477,0.03681239113211632,-1.4288166761398315,1.2426565885543823,0.8501182794570923,0.035667963325977325,-0.12493324279785156
7.930098056793213,0.03681239113211632,-1.4288166761398315,1.2418936491012573,0.8512626886367798,0.03604944050312042,-0.12569619715213776
7.950279474258423,0.03681239113211632,-1.4288166761398315,1.2418936491012573,0.8527885675430298,0.03681239113211632,-0.12684062123298645
7.970355987548828,0.03681239113211632,-1.4288166761398315,1.2411307096481323,0.8539330363273621,0.03795681521296501,-0.12722209095954895
7.990414381027222,0.03681239113211632,-1.4288166761398315,1.2403677701950073,0.8550774455070496,0.03833829239010811,-0.12760357558727264
8.010466814041138,0.03681239113211632,-1.4288166761398315,1.2399863004684448,0.8566033244132996,0.0398641936480999,-0.12798504531383514
8.030627489089966,0.03681239113211632,-1.429198145866394,1.2399863004684448,0.8569847941398621,0.04139009863138199,-0.12798504531383514
8.050671577453613,0.03681239113211632,-1.429198145866394,1.2399863004684448,0.8581292629241943,0.04253452271223068,-0.12836651504039764
8.070724487304688,0.03681239113211632,-1.429198145866394,1.2399863004684448,0.8592736721038818,0.04329747334122658,-0.12836651504039764
8.090854167938232,0.03681239113211632,-1.429198145866394,1.2399863004684448,0.8607995510101318,0.04482337832450867,-0.12874799966812134
8.110963821411133,0.03681239113211632,-1.429198145866394,1.2399863004684448,0.8615625500679016,0.04558632895350456,-0.12951095402240753
8.131303071975708,0.03681239113211632,-1.429198145866394,1.2396048307418823,0.8623254895210266,0.04558632895350456,-0.13027389347553253
8.151413440704346,0.03681239113211632,-1.429198145866394,1.2388418912887573,0.8638513684272766,0.046730753034353256,-0.13103684782981873
8.171489238739014,0.03681239113211632,-1.4295796155929565,1.2388418912887573,0.8642328381538391,0.04711223021149635,-0.13103684782981873
8.191590070724487,0.03681239113211632,-1.4303425550460815,1.2388418912887573,0.8646143078804016,0.048256658017635345,-0.13141833245754242
8.211640119552612,0.03681239113211632,-1.4303425550460815,1.2388418912887573,0.8649957776069641,0.04940108209848404,-0.13179980218410492
8.23174262046814,0.03681239113211632,-1.430724024772644,1.2384604215621948,0.8665217161178589,0.04940108209848404,-0.13218127191066742
8.251860618591309,0.03681239113211632,-1.430724024772644,1.2380788326263428,0.8684290647506714,0.051689937710762024,-0.1325627565383911
8.271947383880615,0.03681239113211632,-1.430724024772644,1.2380788326263428,0.8695735335350037,0.051689937710762024,-0.1333257108926773
8.292041301727295,0.03681239113211632,-1.430724024772644,1.2376973628997803,0.8707179427146912,0.05207141116261482,-0.1340886503458023
8.312167644500732,0.03681239113211632,-1.430724024772644,1.2373158931732178,0.8718623518943787,0.05283436179161072,-0.134470134973526
8.332268476486206,0.03681239113211632,-1.430724024772644,1.2369344234466553,0.8722438216209412,0.054741740226745605,-0.135233074426651
8.352537393569946,0.03681239113211632,-1.430724024772644,1.2369344234466553,0.8741512298583984,0.0551232174038887,-0.135233074426651
8.372514724731445,0.03681239113211632,-1.430724024772644,1.2369344234466553,0.8760585784912109,0.0558861680328846,-0.1356145590543747
8.392580270767212,0.03681239113211632,-1.430724024772644,1.2369344234466553,0.8775845170021057,0.0558861680328846,-0.1359960287809372
8.41266679763794,0.03681239113211632,-1.430724024772644,1.2365529537200928,0.8791103959083557,0.056267641484737396,-0.1359960287809372
8.432835340499878,0.03681239113211632,-1.430724024772644,1.2365529537200928,0.8798733353614807,0.05703059583902359,-0.1363775134086609
8.452980041503906,0.03681239113211632,-1.430724024772644,1.2361714839935303,0.881017804145813,0.05741206929087639,-0.13752193748950958
8.473042488098145,0.03681239113211632,-1.430724024772644,1.2357900142669678,0.882543683052063,0.05893797054886818,-0.13790340721607208
8.49338150024414,0.03681239113211632,-1.430724024772644,1.2357900142669678,0.8836880922317505,0.06008239835500717,-0.13828489184379578
8.513546705245972,0.03681239113211632,-1.4311054944992065,1.2354085445404053,0.8848325610160828,0.06046387553215027,-0.13866636157035828
8.533633470535278,0.03681239113211632,-1.4311054944992065,1.2346456050872803,0.8867399096488953,0.06275273114442825,-0.13866636157035828
8.553672552108765,0.03681239113211632,-1.4311054944992065,1.2342641353607178,0.8875028491020203,0.06351567804813385,-0.13904783129692078
8.573755025863647,0.03681239113211632,-1.4311054944992065,1.2338826656341553,0.8886472582817078,0.06427863240242004,-0.13904783129692078
8.593827724456787,0.03681239113211632,-1.4311054944992065,1.2338826656341553,0.8901731967926025,0.06389715522527695,-0.13942931592464447
8.613949298858643,0.03643091395497322,-1.4311054944992065,1.2338826656341553,0.890554666519165,0.06427863240242004,-0.13981078565120697
8.634010076522827,0.03604944050312042,-1.4311054944992065,1.2338826656341553,0.89131760597229,0.06466010212898254,-0.14019227027893066
8.65406346321106,0.03604944050312042,-1.4311054944992065,1.2338826656341553,0.892080545425415,0.06504157930612564,-0.14095520973205566
8.67415452003479,0.03604944050312042,-1.4311054944992065,1.2335011959075928,0.8932250142097473,0.06580453366041183,-0.14171816408634186
8.694294691085815,0.03604944050312042,-1.4311054944992065,1.2335011959075928,0.8939879536628723,0.06694895774126053,-0.14248111844062805
8.714345932006836,0.03604944050312042,-1.4311054944992065,1.2327382564544678,0.8943694233894348,0.06885633617639542,-0.14286258816719055
8.73445463180542,0.03604944050312042,-1.431486964225769,1.2327382564544678,0.8955138325691223,0.07038223743438721,-0.14324407279491425
8.754606246948242,0.03604944050312042,-1.432249903678894,1.2327382564544678,0.8970397710800171,0.0715266615152359,-0.14362554252147675
8.774859428405762,0.03604944050312042,-1.432249903678894,1.2323567867279053,0.8981841802597046,0.0715266615152359,-0.14400701224803925
8.794954776763916,0.03604944050312042,-1.432249903678894,1.2319753170013428,0.8981841802597046,0.0715266615152359,-0.14476996660232544
8.815002918243408,0.03604944050312042,-1.432249903678894,1.2319753170013428,0.8993285894393921,0.071908138692379,-0.14515145123004913
8.835093021392822,0.03604944050312042,-1.432249903678894,1.2319753170013428,0.9008545279502869,0.071908138692379,-0.14553292095661163
8.855238914489746,0.03604944050312042,-1.432249903678894,1.2319753170013428,0.9016174674034119,0.0722896158695221,-0.14591439068317413
8.875254154205322,0.03604944050312042,-1.432249903678894,1.2315938472747803,0.9027618765830994,0.07381551712751389,-0.14591439068317413
8.89535641670227,0.03604944050312042,-1.432249903678894,1.2315938472747803,0.9035248160362244,0.07457847148180008,-0.14629587531089783
8.915431499481201,0.03604944050312042,-1.4326313734054565,1.2308309078216553,0.9054322242736816,0.07610437273979187,-0.14629587531089783
8.935746669769287,0.03604944050312042,-1.4326313734054565,1.2304493188858032,0.9061951637268066,0.07877469807863235,-0.14667734503746033
8.955827474594116,0.03604944050312042,-1.433012843132019,1.2300678491592407,0.9077210426330566,0.07877469807863235,-0.14705882966518402
8.975884675979614,0.03604944050312042,-1.433012843132019,1.2296863794326782,0.9088655114173889,0.07877469807863235,-0.14744029939174652
8.995972394943237,0.03604944050312042,-1.433012843132019,1.2296863794326782,0.9096284508705139,0.07877469807863235,-0.14744029939174652
9.016090393066406,0.03604944050312042,-1.433012843132019,1.2296863794326782,0.9103913903236389,0.07877469807863235,-0.14820325374603271
9.036357641220093,0.03604944050312042,-1.433012843132019,1.2296863794326782,0.9115357995033264,0.07877469807863235,-0.14858472347259521
9.056499242782593,0.03604944050312042,-1.433012843132019,1.2296863794326782,0.9126802682876587,0.07953765243291855,-0.1497291475534439
9.07657790184021,0.03604944050312042,-1.433012843132019,1.2293049097061157,0.9130617380142212,0.07991912961006165,-0.1504921019077301
9.096651315689087,0.03604944050312042,-1.433012843132019,1.2289234399795532,0.9142061471939087,0.08068207651376724,-0.1508735716342926
9.116738319396973,0.03604944050312042,-1.433012843132019,1.2285419702529907,0.9157320261001587,0.08182650804519653,-0.1508735716342926
9.136796474456787,0.03604944050312042,-1.433012843132019,1.2285419702529907,0.916113555431366,0.08182650804519653,-0.1512550562620163
9.156893968582153,0.03604944050312042,-1.4337759017944336,1.2285419702529907,0.9164950251579285,0.08220797777175903,-0.1516365259885788
9.176976680755615,0.03604944050312042,-1.434157371520996,1.2285419702529907,0.9172579646110535,0.08411535620689392,-0.1527809500694275
9.19716215133667,0.035667963325977325,-1.434157371520996,1.2281605005264282,0.9180209040641785,0.08487831056118011,-0.15316243469715118
9.217250347137451,0.035667963325977325,-1.434157371520996,1.2277790307998657,0.919165313243866,0.08564125746488571,-0.15354390442371368
9.237304925918579,0.035667963325977325,-1.434157371520996,1.2273975610733032,0.9199283123016357,0.0864042118191719,-0.15354390442371368
9.257408142089844,0.035667963325977325,-1.434157371520996,1.2273975610733032,0.9203097820281982,0.086785688996315,-0.15392538905143738
9.277546644210815,0.035667963325977325,-1.434157371520996,1.2273975610733032,0.9214541912078857,0.0871671661734581,-0.15392538905143738
9.29754900932312,0.035667963325977325,-1.434157371520996,1.2270160913467407,0.9233615398406982,0.0875486359000206,-0.15430685877799988
9.317667007446289,0.035667963325977325,-1.434157371520996,1.2266346216201782,0.924124538898468,0.08869306743144989,-0.15392538905143738
9.337715148925781,0.03528648987412453,-1.434157371520996,1.2262531518936157,0.9245060086250305,0.08907453715801239,-0.15430685877799988
9.357819080352783,0.03490501269698143,-1.4345388412475586,1.2262531518936157,0.9252689480781555,0.08945601433515549,-0.15430685877799988
9.377893447875977,0.03490501269698143,-1.434920310974121,1.2262531518936157,0.926413357257843,0.08945601433515549,-0.15468832850456238
9.39796233177185,0.03452353551983833,-1.434920310974121,1.2262531518936157,0.9275577664375305,0.09098191559314728,-0.15468832850456238
9.418234586715698,0.03376058489084244,-1.4353017807006836,1.2262531518936157,0.9279392957687378,0.09174486994743347,-0.15545128285884857
9.438344478607178,0.03376058489084244,-1.4353017807006836,1.2258716821670532,0.9283207654953003,0.09327077120542526,-0.15583276748657227
9.45840334892273,0.03376058489084244,-1.4353017807006836,1.2254902124404907,0.9298466444015503,0.09403372555971146,-0.15659570693969727
9.478515863418579,0.03376058489084244,-1.4353017807006836,1.2254902124404907,0.9313725233078003,0.09441519528627396,-0.15697719156742096
9.498633861541748,0.03376058489084244,-1.4353017807006836,1.2254902124404907,0.9321355223655701,0.09517814964056015,-0.15735866129398346
9.51875615119934,0.03376058489084244,-1.435683250427246,1.2254902124404907,0.9328984618186951,0.09670405089855194,-0.15774014592170715
9.538819551467896,0.03376058489084244,-1.4360647201538086,1.2254902124404907,0.9344243407249451,0.09861142933368683,-0.15774014592170715
9.558940887451172,0.03376058489084244,-1.436446189880371,1.2251087427139282,0.9351872801780701,0.10051880776882172,-0.15774014592170715
9.57900333404541,0.03376058489084244,-1.436446189880371,1.2247272729873657,0.9363317489624023,0.10090028494596481,-0.15812161564826965
9.599172830581665,0.03376058489084244,-1.436446189880371,1.2243458032608032,0.9382390975952148,0.10166323184967041,-0.15850308537483215
9.619256496429443,0.03376058489084244,-1.436446189880371,1.2243458032608032,0.9386205673217773,0.10166323184967041,-0.15888457000255585
9.639338493347168,0.03376058489084244,-1.436446189880371,1.2243458032608032,0.9390020370483398,0.10166323184967041,-0.15964750945568085
9.659417390823364,0.03376058489084244,-1.436446189880371,1.2243458032608032,0.9393835067749023,0.10166323184967041,-0.16079194843769073
9.679489612579346,0.03376058489084244,-1.436446189880371,1.2243458032608032,0.9397650361061096,0.10166323184967041,-0.16117341816425323
9.699544906616211,0.03376058489084244,-1.4368276596069336,1.2243458032608032,0.9401465058326721,0.10204470902681351,-0.16155488789081573
9.71970272064209,0.03376058489084244,-1.4368276596069336,1.2239643335342407,0.9412909150123596,0.1028076633810997,-0.16193637251853943
9.739844799041748,0.03376058489084244,-1.4368276596069336,1.2235828638076782,0.9424353241920471,0.1039520874619484,-0.16193637251853943
9.759837627410889,0.03376058489084244,-1.437209129333496,1.2232013940811157,0.9428167939186096,0.10471503436565399,-0.16193637251853943
9.77996015548706,0.03376058489084244,-1.437209129333496,1.2232013940811157,0.9435797929763794,0.10471503436565399,-0.16231784224510193
9.80002474784851,0.03376058489084244,-1.437209129333496,1.2232013940811157,0.9439612627029419,0.10509651154279709,-0.16231784224510193
9.820107460021973,0.03376058489084244,-1.437209129333496,1.2232013940811157,0.9451056718826294,0.10547798871994019,-0.16308079659938812
9.840213060379028,0.03376058489084244,-1.437209129333496,1.2232013940811157,0.9458686113357544,0.10585946589708328,-0.16346226632595062
9.860271453857422,0.03376058489084244,-1.437209129333496,1.2224383354187012,0.9466315507888794,0.10700388997793198,-0.16346226632595062
9.880354404449463,0.03376058489084244,-1.437209129333496,1.2220568656921387,0.9473945498466492,0.10776684433221817,-0.16422522068023682
9.900421857833862,0.03376058489084244,-1.437209129333496,1.2220568656921387,0.9477760195732117,0.10776684433221817,-0.16422522068023682
9.920515775680542,0.03376058489084244,-1.4375905990600586,1.2220568656921387,0.9485389590263367,0.10776684433221817,-0.1646067053079605
9.94065523147583,0.03376058489084244,-1.4383535385131836,1.2220568656921387,0.9496833682060242,0.10891126841306686,-0.1646067053079605
9.960707426071167,0.03376058489084244,-1.4383535385131836,1.2220568656921387,0.9504463076591492,0.11005569249391556,-0.1646067053079605
9.981563091278076,0.03376058489084244,-1.438735008239746,1.2216753959655762,0.9504463076591492,0.10929274559020996,-0.1646067053079605
10.00165343284607,0.03376058489084244,-1.4391164779663086,1.2216753959655762,0.951209306716919,0.10967422276735306,-0.164988175034523
10.021772384643555,0.03376058489084244,-1.4391164779663086,1.2212939262390137,0.9523537158966064,0.10967422276735306,-0.164988175034523
10.042054653167725,0.03376058489084244,-1.4391164779663086,1.2212939262390137,0.953498125076294,0.10967422276735306,-0.164988175034523
10.062242984771729,0.03376058489084244,-1.4391164779663086,1.2212939262390137,0.9538795948028564,0.11081864684820175,-0.1653696447610855
10.082345008850098,0.03376058489084244,-1.4391164779663086,1.2212939262390137,0.9546425342559814,0.11196307092905045,-0.1653696447610855
10.102384567260742,0.03376058489084244,-1.4391164779663086,1.2212939262390137,0.9557870030403137,0.11310750246047974,-0.1653696447610855
10.122517585754395,0.03376058489084244,-1.4391164779663086,1.2212939262390137,0.9573128819465637,0.11387044936418533,-0.1657511293888092
10.142633438110352,0.03376058489084244,-1.4391164779663086,1.2212939262390137,0.9576943516731262,0.11463340371847153,-0.1657511293888092
10.16279935836792,0.03376058489084244,-1.4391164779663086,1.2212939262390137,0.9580758213996887,0.11501488089561462,-0.1657511293888092
10.182841300964355,0.03376058489084244,-1.4391164779663086,1.2212939262390137,0.9584572911262512,0.11539635062217712,-0.1661325991153717
10.202938318252563,0.03376058489084244,-1.4391164779663086,1.2212939262390137,0.9584572911262512,0.11577782779932022,-0.1661325991153717
10.222997903823853,0.03376058489084244,-1.4391164779663086,1.2212939262390137,0.9588387608528137,0.11577782779932022,-0.1665140837430954
10.243291854858398,0.03376058489084244,-1.4391164779663086,1.2209124565124512,0.959983229637146,0.11615930497646332,-0.1668955534696579
10.263432264328003,0.03376058489084244,-1.4391164779663086,1.2209124565124512,0.9611276388168335,0.11615930497646332,-0.1676585078239441
10.283546686172485,0.03376058489084244,-1.4391164779663086,1.2201495170593262,0.9618905782699585,0.11730372905731201,-0.1684214472770691
10.303638935089111,0.03376058489084244,-1.4391164779663086,1.2190051078796387,0.9626535177230835,0.1184481605887413,-0.16880293190479279
10.32370114326477,0.03376058489084244,-1.4391164779663086,1.2186236381530762,0.9637979865074158,0.1184481605887413,-0.16918440163135529
10.343755722045898,0.03376058489084244,-1.4391164779663086,1.2182421684265137,0.9649423956871033,0.1192111074924469,-0.16918440163135529
10.363847732543945,0.03376058489084244,-1.4391164779663086,1.2178606986999512,0.9657053351402283,0.1184481605887413,-0.16918440163135529
10.383975505828857,0.03376058489084244,-1.439497947692871,1.2178606986999512,0.9668498039245605,0.1199740618467331,-0.16956588625907898
10.404042959213257,0.03376058489084244,-1.439497947692871,1.2182421684265137,0.967994213104248,0.12073700875043869,-0.16956588625907898
10.424119234085083,0.03376058489084244,-1.439497947692871,1.2182421684265137,0.9683756828308105,0.12302586436271667,-0.16956588625907898
10.444242477416992,0.03376058489084244,-1.439497947692871,1.2182421684265137,0.968757152557373,0.12417028844356537,-0.16994735598564148
10.464293479919434,0.03376058489084244,-1.439497947692871,1.2182421684265137,0.968757152557373,0.12417028844356537,-0.16994735598564148
10.484445095062256,0.03376058489084244,-1.439497947692871,1.2182421684265137,0.9691386222839355,0.12417028844356537,-0.17032882571220398
10.504521131515503,0.03376058489084244,-1.440260887145996,1.2182421684265137,0.969520092010498,0.12493324279785156,-0.17071031033992767
10.524614095687866,0.03376058489084244,-1.4406423568725586,1.2182421684265137,0.970283031463623,0.12607766687870026,-0.17071031033992767
10.5447096824646,0.03376058489084244,-1.441023826599121,1.2182421684265137,0.9714275002479553,0.12607766687870026,-0.17071031033992767
10.564833164215088,0.03376058489084244,-1.441023826599121,1.2182421684265137,0.9725719094276428,0.12607766687870026,-0.17109178006649017
10.585124015808105,0.03376058489084244,-1.441023826599121,1.2182421684265137,0.9733348488807678,0.12645913660526276,-0.17109178006649017
10.605226755142212,0.03376058489084244,-1.441023826599121,1.2182421684265137,0.9748607873916626,0.12836651504039764,-0.17147326469421387
10.625705480575562,0.03376058489084244,-1.441023826599121,1.2182421684265137,0.9760051965713501,0.13027389347553253,-0.17185473442077637
10.645796537399292,0.03376058489084244,-1.441023826599121,1.2186236381530762,0.9760051965713501,0.13065537810325623,-0.17185473442077637
10.665971755981445,0.03376058489084244,-1.441023826599121,1.2190051078796387,0.9763866662979126,0.13065537810325623,-0.17185473442077637
10.686376094818115,0.03376058489084244,-1.441023826599121,1.2190051078796387,0.9767681360244751,0.13103684782981873,-0.17185473442077637
10.70646619796753,0.03376058489084244,-1.441023826599121,1.2190051078796387,0.9767681360244751,0.13103684782981873,-0.17185473442077637
10.726521730422974,0.03376058489084244,-1.441023826599121,1.2190051078796387,0.9775310754776001,0.13103684782981873,-0.17223620414733887
10.746629476547241,0.03376058489084244,-1.441023826599121,1.2190051078796387,0.9790570139884949,0.13103684782981873,-0.17223620414733887
10.766730070114136,0.03376058489084244,-1.441023826599121,1.2190051078796387,0.9802014231681824,0.13103684782981873,-0.17223620414733887
10.78695559501648,0.03376058489084244,-1.441023826599121,1.2190051078796387,0.9805828928947449,0.13141833245754242,-0.17223620414733887
10.807048320770264,0.03376058489084244,-1.441023826599121,1.2190051078796387,0.9813458323478699,0.13179980218410492,-0.17223620414733887
10.827107667922974,0.03376058489084244,-1.441023826599121,1.2190051078796387,0.9824903011322021,0.13218127191066742,-0.17261768877506256
10.84718632698059,0.03376058489084244,-1.441023826599121,1.2190051078796387,0.9836347103118896,0.1329442262649536,-0.17261768877506256
10.867328405380249,0.03376058489084244,-1.441023826599121,1.2182421684265137,0.9840161800384521,0.1329442262649536,-0.17299915850162506
10.887768030166626,0.03376058489084244,-1.441023826599121,1.2178606986999512,0.9847791194915771,0.1337071806192398,-0.17338064312934875
10.90785264968872,0.03376058489084244,-1.4414052963256836,1.2178606986999512,0.9855420589447021,0.1337071806192398,-0.17338064312934875
10.927917957305908,0.03376058489084244,-1.4414052963256836,1.2178606986999512,0.9866865277290344,0.1337071806192398,-0.17338064312934875
10.948243141174316,0.03376058489084244,-1.4414052963256836,1.2178606986999512,0.9874494671821594,0.134470134973526,-0.17376211285591125
10.968325853347778,0.03376058489084244,-1.4414052963256836,1.2178606986999512,0.9874494671821594,0.1359960287809372,-0.17376211285591125
10.988306760787964,0.03376058489084244,-1.4414052963256836,1.2178606986999512,0.9878309369087219,0.13828489184379578,-0.17414358258247375
11.008401155471802,0.03376058489084244,-1.4414052963256836,1.2178606986999512,0.9882124066352844,0.13866636157035828,-0.17452506721019745
11.028446674346924,0.03376058489084244,-1.4414052963256836,1.2178606986999512,0.9885938763618469,0.13904783129692078,-0.17528800666332245
11.048736572265625,0.03376058489084244,-1.4417868852615356,1.2174792289733887,0.9897382855415344,0.13904783129692078,-0.17566949129104614
11.06888198852539,0.03376058489084244,-1.4425498247146606,1.2170977592468262,0.9905012845993042,0.13942931592464447,-0.17566949129104614
11.089009761810303,0.03376058489084244,-1.4433127641677856,1.2170977592468262,0.9908827543258667,0.13942931592464447,-0.17566949129104614
11.10907769203186,0.03376058489084244,-1.4436942338943481,1.2170977592468262,0.9912642240524292,0.13904783129692078,-0.17566949129104614
11.129168272018433,0.03376058489084244,-1.4444571733474731,1.2167162895202637,0.9912642240524292,0.13904783129692078,-0.17605096101760864
11.14997124671936,0.03376058489084244,-1.4444571733474731,1.2167162895202637,0.9912642240524292,0.13904783129692078,-0.17605096101760864
11.170065879821777,0.03376058489084244,-1.4444571733474731,1.2167162895202637,0.9912642240524292,0.13904783129692078,-0.17605096101760864
11.190278053283691,0.03376058489084244,-1.4444571733474731,1.2167162895202637,0.9920271635055542,0.14019227027893066,-0.17643244564533234
11.210246562957764,0.03337911143898964,-1.4444571733474731,1.2167162895202637,0.9927901029586792,0.14095520973205566,-0.17643244564533234
11.230350971221924,0.03337911143898964,-1.4444571733474731,1.2167162895202637,0.9935530424118042,0.14171816408634186,-0.17681391537189484
11.250539302825928,0.03299763426184654,-1.4444571733474731,1.2167162895202637,0.994316041469574,0.14171816408634186,-0.17681391537189484
11.270714282989502,0.03299763426184654,-1.4444571733474731,1.2167162895202637,0.9946975111961365,0.14171816408634186,-0.17719538509845734
11.290818214416504,0.032616160809993744,-1.4444571733474731,1.2163348197937012,0.995078980922699,0.14209964871406555,-0.17757686972618103
11.310858249664307,0.032616160809993744,-1.4444571733474731,1.2159533500671387,0.9954604506492615,0.14286258816719055,-0.17795833945274353
11.330944538116455,0.032616160809993744,-1.4444571733474731,1.2159533500671387,0.995841920375824,0.14286258816719055,-0.17795833945274353
11.351037979125977,0.032616160809993744,-1.4444571733474731,1.2159533500671387,0.997367799282074,0.14286258816719055,-0.17795833945274353
11.371371030807495,0.032616160809993744,-1.4444571733474731,1.2159533500671387,0.9981307983398438,0.14324407279491425,-0.17833982408046722
11.391473770141602,0.032616160809993744,-1.4444571733474731,1.2159533500671387,0.9985122680664062,0.14515145123004913,-0.17833982408046722
11.41162395477295,0.032616160809993744,-1.4444571733474731,1.2159533500671387,0.9988937377929688,0.14667734503746033,-0.17910276353359222
11.431711196899414,0.032616160809993744,-1.4444571733474731,1.2159533500671387,0.9996566772460938,0.14782176911830902,-0.17948424816131592
11.451740741729736,0.032616160809993744,-1.4444571733474731,1.2159533500671387,1.0004196166992188,0.14858472347259521,-0.17948424816131592
11.471817016601562,0.032616160809993744,-1.4444571733474731,1.2159533500671387,1.0019454956054688,0.1489662081003189,-0.17948424816131592
11.491916179656982,0.032616160809993744,-1.4444571733474731,1.2159533500671387,1.0023269653320312,0.1489662081003189,-0.17948424816131592
11.511991262435913,0.032616160809993744,-1.4444571733474731,1.2159533500671387,1.0027084350585938,0.1489662081003189,-0.17948424816131592
11.532075881958008,0.032616160809993744,-1.4444571733474731,1.2159533500671387,1.0027084350585938,0.1497291475534439,-0.17948424816131592
11.552135944366455,0.032616160809993744,-1.4444571733474731,1.2159533500671387,1.0030899047851562,0.1497291475534439,-0.17948424816131592
11.572277069091797,0.032616160809993744,-1.4444571733474731,1.2159533500671387,1.0034713745117188,0.1501106321811676,-0.17948424816131592
11.592325210571289,0.03223468363285065,-1.4444571733474731,1.2159533500671387,1.0034713745117188,0.1501106321811676,-0.17948424816131592
11.61241102218628,0.03147173300385475,-1.4444571733474731,1.2159533500671387,1.0038528442382812,0.1504921019077301,-0.17986571788787842
11.632515668869019,0.03147173300385475,-1.4444571733474731,1.2159533500671387,1.0046159029006958,0.1504921019077301,-0.17986571788787842
11.652578353881836,0.03147173300385475,-1.4444571733474731,1.2159533500671387,1.0057603120803833,0.1504921019077301,-0.17986571788787842
11.672707557678223,0.03147173300385475,-1.4444571733474731,1.2159533500671387,1.0061417818069458,0.1508735716342926,-0.17986571788787842
11.692821264266968,0.03147173300385475,-1.4444571733474731,1.2159533500671387,1.0061417818069458,0.1512550562620163,-0.17986571788787842
11.712874174118042,0.03147173300385475,-1.4444571733474731,1.2155718803405762,1.0069047212600708,0.1527809500694275,-0.17986571788787842
11.733107089996338,0.03147173300385475,-1.4444571733474731,1.2155718803405762,1.0072861909866333,0.15354390442371368,-0.1802472025156021
11.753082990646362,0.03185320645570755,-1.4444571733474731,1.2151904106140137,1.0080491304397583,0.15468832850456238,-0.17986571788787842
11.77318263053894,0.03185320645570755,-1.4444571733474731,1.2151904106140137,1.0091935396194458,0.15506981313228607,-0.1802472025156021
11.793323278427124,0.03185320645570755,-1.4448386430740356,1.2151904106140137,1.0099564790725708,0.15545128285884857,-0.1802472025156021
11.81413745880127,0.03147173300385475,-1.4452201128005981,1.2151904106140137,1.0107194185256958,0.15583276748657227,-0.1802472025156021
11.834233283996582,0.03147173300385475,-1.4456015825271606,1.2151904106140137,1.0114823579788208,0.15583276748657227,-0.1802472025156021
11.854342937469482,0.03147173300385475,-1.4463645219802856,1.2151904106140137,1.0122454166412354,0.15583276748657227,-0.1802472025156021
11.874608039855957,0.03147173300385475,-1.4463645219802856,1.2148088216781616,1.0130083560943604,0.15621423721313477,-0.1806286722421646
11.894699573516846,0.03147173300385475,-1.4463645219802856,1.2148088216781616,1.0130083560943604,0.15621423721313477,-0.1806286722421646
11.914775848388672,0.03185320645570755,-1.4463645219802856,1.2148088216781616,1.0133898258209229,0.15659570693969727,-0.1810101419687271
11.9348623752594,0.03185320645570755,-1.4463645219802856,1.2148088216781616,1.0137712955474854,0.15774014592170715,-0.1810101419687271
11.954956293106079,0.03185320645570755,-1.4463645219802856,1.2148088216781616,1.0137712955474854,0.15774014592170715,-0.1810101419687271
11.975163221359253,0.03147173300385475,-1.4463645219802856,1.2148088216781616,1.0141527652740479,0.15774014592170715,-0.1810101419687271
11.995254755020142,0.03185320645570755,-1.4463645219802856,1.2148088216781616,1.0149157047271729,0.15774014592170715,-0.1810101419687271
12.01533555984497,0.03147173300385475,-1.4463645219802856,1.2148088216781616,1.0156786441802979,0.15774014592170715,-0.1813916265964508
12.035770416259766,0.03147173300385475,-1.4463645219802856,1.2148088216781616,1.0164415836334229,0.15774014592170715,-0.1813916265964508
12.055853366851807,0.03185320645570755,-1.4463645219802856,1.2148088216781616,1.0172045230865479,0.15850308537483215,-0.182154580950737
12.07591462135315,0.03185320645570755,-1.4463645219802856,1.2148088216781616,1.0175859928131104,0.15964750945568085,-0.182917520403862
12.096014261245728,0.03147173300385475,-1.4463645219802856,1.2148088216781616,1.0179674625396729,0.15964750945568085,-0.1832990050315857
12.116027593612671,0.03147173300385475,-1.4463645219802856,1.2144273519515991,1.0183489322662354,0.16002899408340454,-0.1836804747581482
12.13613224029541,0.03147173300385475,-1.4463645219802856,1.2140458822250366,1.0191118717193604,0.16079194843769073,-0.1840619444847107
12.156227111816406,0.03147173300385475,-1.4463645219802856,1.2136644124984741,1.019874930381775,0.16079194843769073,-0.1836804747581482
12.17643141746521,0.03147173300385475,-1.4467459917068481,1.2136644124984741,1.0202564001083374,0.16079194843769073,-0.1840619444847107
12.196521282196045,0.03147173300385475,-1.4467459917068481,1.2136644124984741,1.0206378698349,0.16079194843769073,-0.1840619444847107
12.216590166091919,0.03185320645570755,-1.4467459917068481,1.2136644124984741,1.0206378698349,0.16117341816425323,-0.1840619444847107
12.23667025566101,0.03147173300385475,-1.4467459917068481,1.2136644124984741,1.0210193395614624,0.16155488789081573,-0.1840619444847107
12.25674057006836,0.03147173300385475,-1.4467459917068481,1.2136644124984741,1.0210193395614624,0.16231784224510193,-0.1840619444847107
12.276796579360962,0.03185320645570755,-1.4467459917068481,1.2136644124984741,1.021400809288025,0.16269932687282562,-0.1840619444847107
12.29689073562622,0.03147173300385475,-1.4471274614334106,1.2136644124984741,1.0217822790145874,0.16346226632595062,-0.1840619444847107
12.316969871520996,0.03147173300385475,-1.4475089311599731,1.2136644124984741,1.0217822790145874,0.16422522068023682,-0.1840619444847107
12.337034702301025,0.03185320645570755,-1.4475089311599731,1.2136644124984741,1.0217822790145874,0.16346226632595062,-0.1840619444847107
12.357123136520386,0.03147173300385475,-1.4478904008865356,1.2132829427719116,1.02216374874115,0.16384375095367432,-0.1840619444847107
12.377185344696045,0.03185320645570755,-1.4482718706130981,1.2132829427719116,1.0225452184677124,0.16422522068023682,-0.1844434291124344
12.397329330444336,0.03185320645570755,-1.4486533403396606,1.2132829427719116,1.0225452184677124,0.16422522068023682,-0.1848248988389969
12.417428731918335,0.03185320645570755,-1.4486533403396606,1.2129014730453491,1.022926688194275,0.16384375095367432,-0.1848248988389969
12.437493562698364,0.03147173300385475,-1.4490348100662231,1.2129014730453491,1.0236896276474,0.16308079659938812,-0.18520638346672058
12.457574844360352,0.03147173300385475,-1.4490348100662231,1.2129014730453491,1.024452567100525,0.16346226632595062,-0.18520638346672058
12.477703094482422,0.03185320645570755,-1.4490348100662231,1.2129014730453491,1.0248340368270874,0.16422522068023682,-0.18520638346672058
12.4984769821167,0.03147173300385475,-1.4490348100662231,1.2129014730453491,1.02521550655365,0.164988175034523,-0.18520638346672058
12.518555402755737,0.03147173300385475,-1.4490348100662231,1.2132829427719116,1.02521550655365,0.164988175034523,-0.18520638346672058
12.538695573806763,0.03147173300385475,-1.4490348100662231,1.2132829427719116,1.025978446006775,0.1653696447610855,-0.18520638346672058
12.559181690216064,0.03185320645570755,-1.4490348100662231,1.2129014730453491,1.0267413854599,0.1653696447610855,-0.18520638346672058
12.57939100265503,0.03147173300385475,-1.4490348100662231,1.2132829427719116,1.0275044441223145,0.1657511293888092,-0.18520638346672058
12.599372625350952,0.03147173300385475,-1.4490348100662231,1.2129014730453491,1.0282673835754395,0.1665140837430954,-0.18520638346672058
12.619454145431519,0.03147173300385475,-1.4490348100662231,1.2132829427719116,1.0282673835754395,0.1668955534696579,-0.18520638346672058
12.639573812484741,0.03147173300385475,-1.4486533403396606,1.2140458822250366,1.0282673835754395,0.1668955534696579,-0.18558785319328308
12.659616470336914,0.03147173300385475,-1.4478904008865356,1.2151904106140137,1.0282673835754395,0.1665140837430954,-0.18635080754756927
12.67977237701416,0.03147173300385475,-1.4463645219802856,1.2163348197937012,1.0275044441223145,0.1661325991153717,-0.18787670135498047
12.69982361793518,0.030708782374858856,-1.4440757036209106,1.2186236381530762,1.0271228551864624,0.1661325991153717,-0.18863965570926666
12.72002124786377,0.030708782374858856,-1.4417868852615356,1.2205309867858887,1.0248340368270874,0.1668955534696579,-0.19016556441783905
12.740115880966187,0.029182879254221916,-1.4383535385131836,1.2228199243545532,1.0217822790145874,0.1676585078239441,-0.19207294285297394
12.7602858543396,0.028038453310728073,-1.435683250427246,1.2251087427139282,1.0191118717193604,0.16880293190479279,-0.19359883666038513
12.780339002609253,0.02727550081908703,-1.433012843132019,1.2266346216201782,1.0160601139068604,0.1684214472770691,-0.19550621509552002
12.800388813018799,0.026512550190091133,-1.429961085319519,1.2285419702529907,1.0126268863677979,0.1684214472770691,-0.1977950781583786
12.820473432540894,0.024223696440458298,-1.428435206413269,1.2296863794326782,1.0065232515335083,0.1676585078239441,-0.1997024416923523
12.840564489364624,0.023460745811462402,-1.425764799118042,1.2308309078216553,1.0008010864257812,0.1661325991153717,-0.20237277448177338
12.860646486282349,0.023079270496964455,-1.422713041305542,1.2323567867279053,0.9954604506492615,0.16269932687282562,-0.20580606162548065
12.880868673324585,0.02231631986796856,-1.4200427532196045,1.2338826656341553,0.9905012845993042,0.16041046380996704,-0.20847637951374054
12.901020765304565,0.021171892061829567,-1.41622793674469,1.2361714839935303,0.9859235286712646,0.16002899408340454,-0.21076524257659912
12.92104721069336,0.02079041674733162,-1.4127947092056274,1.2384604215621948,0.9817273020744324,0.16002899408340454,-0.2138170450925827
12.941242456436157,0.02040894143283367,-1.4093613624572754,1.2399863004684448,0.9763866662979126,0.16041046380996704,-0.21725031733512878
12.961259365081787,0.01926451548933983,-1.405165195465088,1.2415121793746948,0.9714275002479553,0.16079194843769073,-0.21915769577026367
12.98131251335144,0.01773861236870289,-1.4024949073791504,1.2426565885543823,0.9668498039245605,0.16079194843769073,-0.22259098291397095
13.001478433609009,0.016975661739706993,-1.3994430303573608,1.2434195280075073,0.9611276388168335,0.16002899408340454,-0.22602425515651703
13.021608591079712,0.015449759550392628,-1.3971542119979858,1.2441824674606323,0.9565499424934387,0.15888457000255585,-0.22793163359165192
13.042395830154419,0.013923857361078262,-1.3944838047027588,1.2449454069137573,0.9500648379325867,0.15774014592170715,-0.2317463904619217
13.06249475479126,0.012779430486261845,-1.3910505771636963,1.2457083463668823,0.9447242021560669,0.15545128285884857,-0.23479819297790527
13.082575559616089,0.011635004542768002,-1.3876173496246338,1.2464714050292969,0.9401465058326721,0.1520180106163025,-0.23785001039505005
13.102659463882446,0.010872052982449532,-1.3845654726028442,1.2472343444824219,0.9355688095092773,0.1520180106163025,-0.24128328263759613
13.122754096984863,0.009346150793135166,-1.3803693056106567,1.2491416931152344,0.9298466444015503,0.1520180106163025,-0.2443350851535797
13.142916440963745,0.00858320016413927,-1.3773174285888672,1.2502861022949219,0.9233615398406982,0.1527809500694275,-0.2473868876695633
13.162932395935059,0.0078202486038208,-1.3742656707763672,1.2510490417480469,0.917639434337616,0.1527809500694275,-0.2508201599121094
13.183000326156616,0.00667582219466567,-1.3712139129638672,1.2518119812011719,0.9134432077407837,0.1527809500694275,-0.25387197732925415
13.203213214874268,0.006294346414506435,-1.3685435056686401,1.2525749206542969,0.9084840416908264,0.1516365259885788,-0.2573052644729614
13.223222732543945,0.005531395319849253,-1.3654917478561401,1.2529563903808594,0.9019989371299744,0.1501106321811676,-0.2607385218143463
13.243295192718506,0.004386968910694122,-1.3635843992233276,1.2533378601074219,0.8955138325691223,0.1489662081003189,-0.2634088695049286
13.263408422470093,0.0036240178160369396,-1.3609139919281006,1.2533378601074219,0.889028787612915,0.14820325374603271,-0.26798656582832336
13.28354263305664,0.0024795911740511656,-1.357480764389038,1.2537193298339844,0.8848325610160828,0.14744029939174652,-0.27065691351890564
13.303580045700073,0.001716639962978661,-1.3544288873672485,1.2537193298339844,0.881017804145813,0.14629587531089783,-0.273708701133728
13.323682069778442,0.00019073777366429567,-1.350995659828186,1.2537193298339844,0.8749141693115234,0.14591439068317413,-0.2775234580039978
13.343760013580322,-0.000572213320992887,-1.347943902015686,1.254482388496399,0.8691920638084412,0.14553292095661163,-0.2798123061656952
13.36381459236145,-0.001716639962978661,-1.3464179039001465,1.2548638582229614,0.8657587766647339,0.14553292095661163,-0.28400853276252747
13.383940935134888,-0.002861066721379757,-1.342984676361084,1.2548638582229614,0.8615625500679016,0.14553292095661163,-0.28706035017967224
13.40396499633789,-0.0032425422687083483,-1.3403143882751465,1.2548638582229614,0.8566033244132996,0.14362554252147675,-0.290112167596817
13.424057722091675,-0.004005493130534887,-1.3384069204330444,1.254482388496399,0.8512626886367798,0.14248111844062805,-0.2939268946647644
13.444140911102295,-0.00476844422519207,-1.334973692893982,1.254482388496399,0.8455405235290527,0.14286258816719055,-0.2969787120819092
13.464217901229858,-0.005912871100008488,-1.3323034048080444,1.2541009187698364,0.8405813574790955,0.14286258816719055,-0.29964902997016907
13.48431944847107,-0.00667582219466567,-1.3300144672393799,1.2533378601074219,0.8356221914291382,0.14324407279491425,-0.30270084738731384
13.504416942596436,-0.0078202486038208,-1.3265812397003174,1.2529563903808594,0.8306630253791809,0.14248111844062805,-0.3061341345310211
13.5245521068573,-0.008201723918318748,-1.3246738910675049,1.2521934509277344,0.8257037997245789,0.14209964871406555,-0.309567391872406
13.544719457626343,-0.009346150793135166,-1.3212405443191528,1.2510490417480469,0.8196002244949341,0.14171816408634186,-0.31376364827156067
13.564736127853394,-0.010490577667951584,-1.3189517259597778,1.2499046325683594,0.813878059387207,0.14133669435977936,-0.31757840514183044
13.584813356399536,-0.010872052982449532,-1.3166629076004028,1.2487602233886719,0.8085374236106873,0.14171816408634186,-0.3217746317386627
13.604953527450562,-0.01201647985726595,-1.3143739700317383,1.2476158142089844,0.8039597272872925,0.14171816408634186,-0.3240634799003601
13.62497854232788,-0.012779430486261845,-1.3124666213989258,1.2460898160934448,0.7993820309638977,0.14171816408634186,-0.3278782367706299
13.6451416015625,-0.012779430486261845,-1.3101778030395508,1.2453268766403198,0.7932783961296082,0.14019227027893066,-0.33054855465888977
13.66519284248352,-0.013923857361078262,-1.3071259260177612,1.2441824674606323,0.7890821695327759,0.14019227027893066,-0.33436331152915955
13.685280084609985,-0.014686808921396732,-1.3052185773849487,1.2426565885543823,0.7841230034828186,0.14019227027893066,-0.3381780683994293
13.705376386642456,-0.01506828423589468,-1.3025482892990112,1.2418936491012573,0.7803082466125488,0.13981078565120697,-0.3416113555431366
13.72545599937439,-0.015449759550392628,-1.3006408214569092,1.2407492399215698,0.778019368648529,0.14019227027893066,-0.34542611241340637
13.745527267456055,-0.016594186425209045,-1.2987334728240967,1.2403677701950073,0.7734416723251343,0.14019227027893066,-0.34885939955711365
13.765618562698364,-0.016975661739706993,-1.2960631847381592,1.2392233610153198,0.767719566822052,0.14095520973205566,-0.35114824771881104
13.785705327987671,-0.01735713705420494,-1.2941558361053467,1.2376973628997803,0.76276034116745,0.14057374000549316,-0.3545815348625183
13.805768966674805,-0.018501564860343933,-1.2918668985366821,1.2365529537200928,0.7578011751174927,0.14019227027893066,-0.3576333224773407
13.825929880142212,-0.01926451548933983,-1.2888151407241821,1.2354085445404053,0.7547493577003479,0.13981078565120697,-0.3614480793476105
13.84591293334961,-0.020027466118335724,-1.2865263223648071,1.2335011959075928,0.7509346008300781,0.13942931592464447,-0.36526283621788025
13.86604356765747,-0.021171892061829567,-1.284618854522705,1.2323567867279053,0.7467383742332458,0.13942931592464447,-0.36755168437957764
13.886099815368652,-0.02193484455347061,-1.28233003616333,1.2312123775482178,0.7429236173629761,0.13981078565120697,-0.3713664412498474
13.906230688095093,-0.02231631986796856,-1.28080415725708,1.2296863794326782,0.7383459210395813,0.14019227027893066,-0.3747997283935547
13.926320314407349,-0.02231631986796856,-1.278515338897705,1.2281605005264282,0.7360570430755615,0.13942931592464447,-0.3763256371021271
13.946427822113037,-0.02231631986796856,-1.2769893407821655,1.2258716821670532,0.733386754989624,0.13904783129692078,-0.37975889444351196
13.966484785079956,-0.02231631986796856,-1.275844931602478,1.2251087427139282,0.7288090586662292,0.13904783129692078,-0.38319218158721924
13.986555814743042,-0.022697795182466507,-1.2731746435165405,1.2235828638076782,0.725375771522522,0.13942931592464447,-0.386243999004364
14.006624460220337,-0.023079270496964455,-1.271267294883728,1.2224383354187012,0.7204165458679199,0.13981078565120697,-0.3900587558746338
14.026787281036377,-0.024223696440458298,-1.268596887588501,1.2212939262390137,0.7158388495445251,0.14095520973205566,-0.3931105434894562
14.04681396484375,-0.024605173617601395,-1.266308069229126,1.2193865776062012,0.7127870321273804,0.14171816408634186,-0.39578089118003845
14.06694769859314,-0.025749599561095238,-1.263256311416626,1.2174792289733887,0.7116426229476929,0.14171816408634186,-0.39921414852142334
14.087053775787354,-0.026512550190091133,-1.261730432510376,1.2155718803405762,0.7074463963508606,0.14171816408634186,-0.4018844962120056
14.107128381729126,-0.02727550081908703,-1.259822964668274,1.2136644124984741,0.7043945789337158,0.14057374000549316,-0.4053177833557129
14.127318382263184,-0.02727550081908703,-1.258297085762024,1.2109941244125366,0.7021057605743408,0.14057374000549316,-0.4083695709705353
14.147407293319702,-0.027656977996230125,-1.256008267402649,1.2094682455062866,0.6979095339775085,0.13942931592464447,-0.41027694940567017
14.167466402053833,-0.027656977996230125,-1.254482388496399,1.2067978382110596,0.6929503083229065,0.13942931592464447,-0.41409170627593994
14.18759822845459,-0.02841992862522602,-1.2525749206542969,1.204890489578247,0.6876096725463867,0.14057374000549316,-0.4179064631462097
14.207658529281616,-0.02880140393972397,-1.2510490417480469,1.203364610671997,0.6845578551292419,0.14171816408634186,-0.4205767810344696
14.227704524993896,-0.029182879254221916,-1.2491416931152344,1.2022202014923096,0.6826505064964294,0.14209964871406555,-0.4236285984516144
14.247807025909424,-0.029564354568719864,-1.2476158142089844,1.201075792312622,0.6795986890792847,0.14209964871406555,-0.42629891633987427
14.267882585525513,-0.029564354568719864,-1.2457083463668823,1.199549913406372,0.6776912808418274,0.14133669435977936,-0.42820629477500916
14.288407802581787,-0.030708782374858856,-1.2445639371871948,1.19764244556427,0.6757839322090149,0.14171816408634186,-0.43125811219215393
14.308496236801147,-0.03147173300385475,-1.2426565885543823,1.195353627204895,0.6723506450653076,0.14209964871406555,-0.4343098998069763
14.328575611114502,-0.03185320645570755,-1.2403677701950073,1.1926833391189575,0.6685358881950378,0.14133669435977936,-0.4362172782421112
14.348659753799438,-0.03223468363285065,-1.2384604215621948,1.19153892993927,0.6647211313247681,0.14133669435977936,-0.440032035112381
14.368788003921509,-0.032616160809993744,-1.2369344234466553,1.1892499923706055,0.6605249047279358,0.14324407279491425,-0.44346532225608826
14.389918088912964,-0.03376058489084244,-1.2350270748138428,1.1877241134643555,0.6586175560951233,0.14324407279491425,-0.44613564014434814
14.410060405731201,-0.03376058489084244,-1.2342641353607178,1.1861982345581055,0.6555657386779785,0.14286258816719055,-0.4495689272880554
