liuyurong129/humanoid-gym/humanoid/data/actual_q_20250522-035909.csv
timestamp,joint_1,joint_2,joint_3,joint_4,joint_5,joint_6
0.000141143798828125,0.000572213320992887,0.16422522068023682,-0.08220797777175903,0.00019073777366429567,0.00019073777366429567,-0.00019073777366429567
0.020201444625854492,0.000572213320992887,0.14209964871406555,-0.07343403995037079,0.00019073777366429567,0.00019073777366429567,-0.00019073777366429567
0.04026508331298828,-0.00019073777366429567,0.12073700875043869,-0.06351567804813385,-0.00019073777366429567,0.002861066721379757,-0.00019073777366429567
0.06034517288208008,0.00019073777366429567,0.10662241280078888,-0.05741206929087639,0.00019073777366429567,0.0009536888683214784,-0.00019073777366429567
0.08040452003479004,0.00019073777366429567,0.09670405089855194,-0.05092698708176613,0.00019073777366429567,0.00019073777366429567,-0.00019073777366429567
0.10046052932739258,0.00019073777366429567,0.08564125746488571,-0.04444190114736557,0.00019073777366429567,0.00019073777366429567,-0.00019073777366429567
0.1205742359161377,-0.00019073777366429567,0.07763027399778366,-0.037193864583969116,0.00019073777366429567,0.00019073777366429567,-0.00019073777366429567
0.14075326919555664,-0.00019073777366429567,0.07000076025724411,-0.030708782374858856,-0.00019073777366429567,0.00019073777366429567,-0.00019073777366429567
0.16086888313293457,-0.00019073777366429567,0.06237125024199486,-0.024986648932099342,-0.00019073777366429567,0.00019073777366429567,-0.00019073777366429567
0.18144726753234863,-0.00019073777366429567,0.0555046908557415,-0.02079041674733162,-0.000572213320992887,0.00019073777366429567,-0.000572213320992887
0.20154404640197754,-0.00019073777366429567,0.04749370738863945,-0.01506828423589468,-0.0013351644156500697,0.00019073777366429567,-0.000572213320992887
0.22162485122680664,-0.000572213320992887,0.0398641936480999,-0.010109102353453636,-0.0020981156267225742,0.000572213320992887,-0.000572213320992887
0.24170231819152832,-0.000572213320992887,0.03299763426184654,-0.00476844422519207,-0.004386968910694122,0.00019073777366429567,-0.000572213320992887
0.26177287101745605,-0.0013351644156500697,0.027656977996230125,0.000572213320992887,-0.005149920005351305,0.0009536888683214784,-0.0009536888683214784
0.2818276882171631,-0.0024795911740511656,0.02384222112596035,0.004386968910694122,-0.00667582219466567,0.0009536888683214784,-0.0009536888683214784
0.30192041397094727,-0.00476844422519207,0.018120087683200836,0.009346150793135166,-0.00858320016413927,0.0009536888683214784,-0.0013351644156500697
0.3220181465148926,-0.006294346414506435,0.01125352829694748,0.013542382046580315,-0.009727626107633114,0.0009536888683214784,-0.0020981156267225742
0.3430638313293457,-0.008201723918318748,0.0032425422687083483,0.018501564860343933,-0.011635004542768002,0.00019073777366429567,-0.0024795911740511656
0.3631744384765625,-0.009727626107633114,-0.004386968910694122,0.024605173617601395,-0.013160906732082367,0.00019073777366429567,-0.0024795911740511656
0.38324713706970215,-0.010109102353453636,-0.0078202486038208,0.02841992862522602,-0.015449759550392628,0.00019073777366429567,-0.0024795911740511656
0.40341925621032715,-0.01201647985726595,-0.01430533267557621,0.03452353551983833,-0.016975661739706993,-0.00019073777366429567,-0.002861066721379757
0.42345762252807617,-0.014686808921396732,-0.024223696440458298,0.040627144277095795,-0.019645990803837776,-0.00019073777366429567,-0.0032425422687083483
0.4442172050476074,-0.016975661739706993,-0.03528648987412453,0.04634927958250046,-0.02079041674733162,0.0009536888683214784,-0.0032425422687083483
0.4643871784210205,-0.018501564860343933,-0.04329747334122658,0.05283436179161072,-0.022697795182466507,0.0009536888683214784,-0.0032425422687083483
0.4845283031463623,-0.01926451548933983,-0.048256658017635345,0.057793546468019485,-0.02384222112596035,0.0009536888683214784,-0.0032425422687083483
0.5059139728546143,-0.021171892061829567,-0.05664911866188049,0.06466010212898254,-0.025749599561095238,0.000572213320992887,-0.0036240178160369396
0.5259923934936523,-0.022697795182466507,-0.06733043491840363,0.07267109304666519,-0.02689402550458908,-0.00019073777366429567,-0.0036240178160369396
0.54608154296875,-0.023460745811462402,-0.08030059933662415,0.07763027399778366,-0.027656977996230125,0.000572213320992887,-0.0036240178160369396
0.5662431716918945,-0.024605173617601395,-0.09288929402828217,0.08525978773832321,-0.029564354568719864,0.00019073777366429567,-0.0036240178160369396
0.586313009262085,-0.02536812424659729,-0.10090028494596481,0.09212634712457657,-0.031090257689356804,0.00019073777366429567,-0.004005493130534887
0.6063711643218994,-0.026512550190091133,-0.11005569249391556,0.09937438368797302,-0.032616160809993744,0.000572213320992887,-0.004386968910694122
0.6264543533325195,-0.027656977996230125,-0.12264438718557358,0.10929274559020996,-0.03452353551983833,0.000572213320992887,-0.00476844422519207
0.6465697288513184,-0.02880140393972397,-0.13942931592464447,0.11615930497646332,-0.037193864583969116,0.0013351644156500697,-0.005531395319849253
0.6666669845581055,-0.029564354568719864,-0.15354390442371368,0.12607766687870026,-0.038719769567251205,0.001716639962978661,-0.005912871100008488
0.6867449283599854,-0.029182879254221916,-0.16308079659938812,0.1340886503458023,-0.04100862145423889,0.000572213320992887,-0.006294346414506435
0.7067949771881104,-0.029182879254221916,-0.17071031033992767,0.14095520973205566,-0.04253452271223068,0.00019073777366429567,-0.006294346414506435
0.7269048690795898,-0.029182879254221916,-0.1810101419687271,0.1504921019077301,-0.043678950518369675,0.00019073777366429567,-0.006294346414506435
0.746957540512085,-0.029564354568719864,-0.19474326074123383,0.15735866129398346,-0.045204851776361465,0.000572213320992887,-0.006294346414506435
0.7673172950744629,-0.029564354568719864,-0.20962081849575043,0.1653696447610855,-0.04634927958250046,0.001716639962978661,-0.00667582219466567
0.7874431610107422,-0.029564354568719864,-0.21953918039798737,0.17376211285591125,-0.04787518084049225,0.0024795911740511656,-0.00667582219466567
0.8075401782989502,-0.029564354568719864,-0.22755016386508942,0.1806286722421646,-0.049782559275627136,0.0013351644156500697,-0.00667582219466567
0.8278162479400635,-0.03032730519771576,-0.23899443447589874,0.18902114033699036,-0.05207141116261482,0.001716639962978661,-0.00667582219466567
0.8479466438293457,-0.03185320645570755,-0.25234606862068176,0.1966506391763687,-0.053215838968753815,0.001716639962978661,-0.007057297509163618
0.8680281639099121,-0.03147173300385475,-0.26722362637519836,0.20275425910949707,-0.05397878959774971,0.001716639962978661,-0.007057297509163618
0.8884363174438477,-0.03185320645570755,-0.2782863974571228,0.21114671230316162,-0.0551232174038887,0.0009536888683214784,-0.007057297509163618
0.9086050987243652,-0.032616160809993744,-0.28553444147109985,0.21915769577026367,-0.05664911866188049,0.0009536888683214784,-0.007057297509163618
0.9286293983459473,-0.03337911143898964,-0.2912565767765045,0.22487983107566833,-0.058175019919872284,0.000572213320992887,-0.007057297509163618
0.9487557411193848,-0.035667963325977325,-0.30117493867874146,0.23403525352478027,-0.06046387553215027,0.001716639962978661,-0.007438773289322853
0.9688544273376465,-0.03681239113211632,-0.3110933005809784,0.23975738883018494,-0.06160829961299896,0.0024795911740511656,-0.007438773289322853
0.9890625476837158,-0.03681239113211632,-0.3217746317386627,0.2458609938621521,-0.06351567804813385,0.0024795911740511656,-0.0078202486038208
1.009181261062622,-0.03681239113211632,-0.3286411762237549,0.25272753834724426,-0.06466010212898254,0.0013351644156500697,-0.0078202486038208
1.029289722442627,-0.03681239113211632,-0.33321890234947205,0.2588311731815338,-0.06733043491840363,0.0009536888683214784,-0.0078202486038208
1.0493652820587158,-0.03643091395497322,-0.3389410376548767,0.265697717666626,-0.06885633617639542,0.0009536888683214784,-0.008201723918318748
1.0695042610168457,-0.03681239113211632,-0.34695202112197876,0.2733272314071655,-0.07038223743438721,0.001716639962978661,-0.00858320016413927
1.0895874500274658,-0.03681239113211632,-0.3553444743156433,0.2794308364391327,-0.071908138692379,0.0032425422687083483,-0.008964675478637218
1.1100611686706543,-0.03681239113211632,-0.36411839723587036,0.28667888045310974,-0.07381551712751389,0.0032425422687083483,-0.010109102353453636
1.1301891803741455,-0.037193864583969116,-0.369840532541275,0.2935454249382019,-0.07572289556264877,0.0032425422687083483,-0.010872052982449532
1.1503121852874756,-0.037193864583969116,-0.3736552894115448,0.29850462079048157,-0.07648584991693497,0.0032425422687083483,-0.010872052982449532
1.1704216003417969,-0.03757534176111221,-0.3778515160083771,0.30537116527557373,-0.07801175117492676,0.0032425422687083483,-0.010872052982449532
1.1905817985534668,-0.038719769567251205,-0.38357365131378174,0.3114747703075409,-0.07953765243291855,0.0032425422687083483,-0.01125352829694748
1.210576057434082,-0.0398641936480999,-0.3885328471660614,0.31681543588638306,-0.08144503086805344,0.0036240178160369396,-0.01125352829694748
1.2306618690490723,-0.040627144277095795,-0.3912031650543213,0.3233005404472351,-0.08297093212604523,0.0036240178160369396,-0.011635004542768002
1.2507350444793701,-0.04139009863138199,-0.39387351274490356,0.3286411762237549,-0.08449683338403702,0.004386968910694122,-0.011635004542768002
1.2708711624145508,-0.04177157208323479,-0.39768826961517334,0.33550775051116943,-0.086785688996315,0.004386968910694122,-0.01201647985726595
1.2909660339355469,-0.04253452271223068,-0.4011215269565582,0.3412298858165741,-0.08945601433515549,0.004005493130534887,-0.012779430486261845
1.3110296726226807,-0.04329747334122658,-0.4037918746471405,0.34695202112197876,-0.09060044586658478,0.00476844422519207,-0.013542382046580315
1.3311164379119873,-0.04406042397022247,-0.4076066315174103,0.3564889132976532,-0.09212634712457657,0.007057297509163618,-0.013923857361078262
1.3511884212493896,-0.04444190114736557,-0.41142138838768005,0.36602577567100525,-0.09479667246341705,0.0078202486038208,-0.01430533267557621
1.3713054656982422,-0.045204851776361465,-0.41523614525794983,0.3740367889404297,-0.09784847497940063,0.008964675478637218,-0.01430533267557621
1.391345739364624,-0.04634927958250046,-0.4201953113079071,0.3858625292778015,-0.09975585341453552,0.010490577667951584,-0.014686808921396732
1.4114468097686768,-0.048256658017635345,-0.42591744661331177,0.39883267879486084,-0.1028076633810997,0.01125352829694748,-0.014686808921396732
1.4315237998962402,-0.05054550990462303,-0.4343098998069763,0.41332876682281494,-0.10700388997793198,0.012397955171763897,-0.01506828423589468
1.4516804218292236,-0.05245288833975792,-0.44499123096466064,0.4327840209007263,-0.11043716967105865,0.01201647985726595,-0.015449759550392628
1.4717278480529785,-0.05397878959774971,-0.4560540020465851,0.4510948359966278,-0.11425192654132843,0.013542382046580315,-0.01583123579621315
1.4920523166656494,-0.056267641484737396,-0.4678797721862793,0.4732204079627991,-0.1180666834115982,0.01430533267557621,-0.016975661739706993
1.5121619701385498,-0.05855649709701538,-0.49000534415245056,0.4976348578929901,-0.12226291000843048,0.014686808921396732,-0.018120087683200836
1.532193660736084,-0.05893797054886818,-0.5109865069389343,0.5205233693122864,-0.12531471252441406,0.01735713705420494,-0.01888304017484188
1.5523595809936523,-0.05855649709701538,-0.5331120491027832,0.5453193187713623,-0.12874799966812134,0.01773861236870289,-0.02040894143283367
1.572448492050171,-0.05855649709701538,-0.5483710765838623,0.5663004517555237,-0.1325627565383911,0.018120087683200836,-0.02193484455347061
1.5925276279449463,-0.05855649709701538,-0.5643930435180664,0.5834668278694153,-0.1363775134086609,0.01888304017484188,-0.022697795182466507
1.613220453262329,-0.05855649709701538,-0.5853742361068726,0.6044480204582214,-0.14057374000549316,0.02193484455347061,-0.023460745811462402
1.633324384689331,-0.05855649709701538,-0.6097886562347412,0.619325578212738,-0.14324407279491425,0.02384222112596035,-0.024986648932099342
1.653364896774292,-0.05855649709701538,-0.6345845460891724,0.6345845460891724,-0.14629587531089783,0.025749599561095238,-0.025749599561095238
1.673454999923706,-0.058175019919872284,-0.654421329498291,0.6506065726280212,-0.1501106321811676,0.02689402550458908,-0.026512550190091133
1.6935303211212158,-0.05741206929087639,-0.6727321147918701,0.6612878441810608,-0.15354390442371368,0.026512550190091133,-0.02841992862522602
1.7135813236236572,-0.05664911866188049,-0.6963835954666138,0.6727321147918701,-0.15850308537483215,0.026131074875593185,-0.02994582988321781
1.7336664199829102,-0.0551232174038887,-0.7181277275085449,0.6841763854026794,-0.16193637251853943,0.026512550190091133,-0.031090257689356804
1.753774881362915,-0.053215838968753815,-0.735675573348999,0.6921873688697815,-0.16422522068023682,0.028038453310728073,-0.03223468363285065
1.7740912437438965,-0.05130846053361893,-0.7501716613769531,0.698291003704071,-0.16880293190479279,0.03223468363285065,-0.03299763426184654
1.7942631244659424,-0.04940108209848404,-0.7593270540237427,0.7055390477180481,-0.17338064312934875,0.03376058489084244,-0.03337911143898964
1.814298391342163,-0.04749370738863945,-0.7612344622612,0.7101167440414429,-0.17719538509845734,0.03757534176111221,-0.03376058489084244
1.8343560695648193,-0.046730753034353256,-0.761997401714325,0.7154573798179626,-0.17948424816131592,0.04100862145423889,-0.03452353551983833
1.8544368743896484,-0.04596780240535736,-0.76276034116745,0.7204165458679199,-0.182917520403862,0.04291599988937378,-0.03528648987412453
1.8745653629302979,-0.04596780240535736,-0.761997401714325,0.7249943017959595,-0.18520638346672058,0.045204851776361465,-0.03643091395497322
1.8945999145507812,-0.04711223021149635,-0.760471522808075,0.7303349375724792,-0.18749523162841797,0.045204851776361465,-0.03757534176111221
1.9146757125854492,-0.04901960864663124,-0.7600900530815125,0.734149694442749,-0.19016556441783905,0.046730753034353256,-0.038719769567251205
1.9348664283752441,-0.05245288833975792,-0.7597085237503052,0.7391088604927063,-0.19283588230609894,0.04940108209848404,-0.0398641936480999
1.9549202919006348,-0.05703059583902359,-0.7593270540237427,0.7448310256004333,-0.1981765478849411,0.05245288833975792,-0.04100862145423889
1.9751639366149902,-0.06351567804813385,-0.7589455842971802,0.7486457824707031,-0.20428015291690826,0.05436026677489281,-0.04253452271223068
1.9952855110168457,-0.07000076025724411,-0.7589455842971802,0.7543678879737854,-0.20885786414146423,0.056267641484737396,-0.04558632895350456
2.0153696537017822,-0.07534141838550568,-0.7589455842971802,0.7578011751174927,-0.2149614691734314,0.05970092490315437,-0.04901960864663124
2.035426616668701,-0.07991912961006165,-0.7589455842971802,0.7631418108940125,-0.22220951318740845,0.06008239835500717,-0.051689937710762024
2.0555825233459473,-0.08220797777175903,-0.7597085237503052,0.7681010365486145,-0.2294575423002243,0.06046387553215027,-0.05436026677489281
2.075683832168579,-0.08297093212604523,-0.7600900530815125,0.7711527943611145,-0.23441672325134277,0.06046387553215027,-0.058175019919872284
2.095834255218506,-0.08220797777175903,-0.760471522808075,0.7738231420516968,-0.24052032828330994,0.06237125024199486,-0.06046387553215027
2.1158435344696045,-0.08182650804519653,-0.7608529925346375,0.7761120200157166,-0.2458609938621521,0.06656748056411743,-0.06275273114442825
2.135899305343628,-0.07991912961006165,-0.7608529925346375,0.7768749594688416,-0.25234606862068176,0.07267109304666519,-0.06504157930612564
2.1559836864471436,-0.07839322835206985,-0.7608529925346375,0.7795453071594238,-0.2584496736526489,0.08411535620689392,-0.06847485899925232
2.176182746887207,-0.07801175117492676,-0.7616159319877625,0.7829785346984863,-0.26722362637519836,0.09212634712457657,-0.07457847148180008
2.196838617324829,-0.07877469807863235,-0.7623788714408875,0.7875562906265259,-0.2759975492954254,0.1035706102848053,-0.07953765243291855
2.216970920562744,-0.08297093212604523,-0.7623788714408875,0.7917525172233582,-0.28248265385627747,0.10929274559020996,-0.08564125746488571
2.2370691299438477,-0.08602273464202881,-0.76276034116745,0.7951858043670654,-0.28782328963279724,0.11120012402534485,-0.09021896868944168
2.2571892738342285,-0.086785688996315,-0.76276034116745,0.7963302135467529,-0.290875107049942,0.11120012402534485,-0.09479667246341705
2.277273416519165,-0.08602273464202881,-0.763523280620575,0.7978560924530029,-0.2939268946647644,0.10738536715507507,-0.09746700525283813
2.2974958419799805,-0.08335240930318832,-0.7646677494049072,0.7986190319061279,-0.29926756024360657,0.10624094307422638,-0.10090028494596481
2.3175153732299805,-0.08030059933662415,-0.7650492191314697,0.8005264401435852,-0.3061341345310211,0.10662241280078888,-0.10471503436565399
2.3376317024230957,-0.07915617525577545,-0.7654306888580322,0.802815318107605,-0.3118562698364258,0.11158160120248795,-0.10814831405878067
2.35793137550354,-0.07839322835206985,-0.7646677494049072,0.8047226667404175,-0.31643396615982056,0.12111848592758179,-0.11310750246047974
2.3781473636627197,-0.07801175117492676,-0.763523280620575,0.8062485456466675,-0.31948578357696533,0.12760357558727264,-0.11615930497646332
2.3982131481170654,-0.07991912961006165,-0.7631418108940125,0.8077744841575623,-0.3225375711917877,0.13218127191066742,-0.1184481605887413
2.4183390140533447,-0.08144503086805344,-0.76276034116745,0.8085374236106873,-0.3278782367706299,0.1325627565383911,-0.12073700875043869
2.438377618789673,-0.08258945494890213,-0.7639048099517822,0.8093003630638123,-0.33207446336746216,0.13179980218410492,-0.12226291000843048
2.4584765434265137,-0.08258945494890213,-0.7650492191314697,0.8093003630638123,-0.33550775051116943,0.12684062123298645,-0.12378881871700287
2.4785470962524414,-0.08106355369091034,-0.7661936283111572,0.8100633025169373,-0.3400854468345642,0.12607766687870026,-0.12493324279785156
2.498824119567871,-0.07724879682064056,-0.7673380374908447,0.810826301574707,-0.3427557647228241,0.12340734153985977,-0.12836651504039764
2.5187926292419434,-0.07610437273979187,-0.767719566822052,0.8119707107543945,-0.34542611241340637,0.12417028844356537,-0.12836651504039764
2.5389392375946045,-0.07495994865894318,-0.7673380374908447,0.8134965896606445,-0.34885939955711365,0.12912946939468384,-0.12989242374897003
2.5590226650238037,-0.07381551712751389,-0.7669565677642822,0.8150225281715393,-0.3530556261539459,0.134470134973526,-0.13179980218410492
2.579232931137085,-0.07305257022380829,-0.7669565677642822,0.8154039978981018,-0.3564889132976532,0.1356145590543747,-0.1333257108926773
2.5993266105651855,-0.07572289556264877,-0.7669565677642822,0.8157854676246643,-0.3599221706390381,0.1359960287809372,-0.1359960287809372
2.619377613067627,-0.07610437273979187,-0.767719566822052,0.8157854676246643,-0.36373692750930786,0.1359960287809372,-0.13752193748950958
2.639497995376587,-0.07648584991693497,-0.7681010365486145,0.8157854676246643,-0.36755168437957764,0.1337071806192398,-0.13828489184379578
2.659552812576294,-0.07572289556264877,-0.769245445728302,0.8161669373512268,-0.3686961233615875,0.12989242374897003,-0.13828489184379578
2.6797266006469727,-0.07267109304666519,-0.770008385181427,0.8169298768043518,-0.3713664412498474,0.12798504531383514,-0.13828489184379578
2.699817657470703,-0.07000076025724411,-0.770008385181427,0.8173113465309143,-0.3728923499584198,0.12760357558727264,-0.13828489184379578
2.7198851108551025,-0.06923781335353851,-0.770008385181427,0.8184558153152466,-0.3755626678466797,0.13065537810325623,-0.13828489184379578
2.73996639251709,-0.06733043491840363,-0.770008385181427,0.8192187547683716,-0.38090333342552185,0.1348516047000885,-0.13866636157035828
2.760077476501465,-0.06885633617639542,-0.770008385181427,0.8192187547683716,-0.3847180902957916,0.13790340721607208,-0.13866636157035828
2.7801525592803955,-0.0711451917886734,-0.770008385181427,0.8192187547683716,-0.3866254687309265,0.13904783129692078,-0.13904783129692078
2.8002026081085205,-0.0711451917886734,-0.770771324634552,0.8192187547683716,-0.3881513774394989,0.1371404528617859,-0.13866636157035828
2.820272207260132,-0.0711451917886734,-0.7722972631454468,0.8196002244949341,-0.3896772861480713,0.1325627565383911,-0.13866636157035828
2.840420961380005,-0.0711451917886734,-0.7726787328720093,0.8207446336746216,-0.3915846347808838,0.12798504531383514,-0.13866636157035828
2.8605127334594727,-0.06656748056411743,-0.7734416723251343,0.8207446336746216,-0.39387351274490356,0.12493324279785156,-0.13828489184379578
2.8805949687957764,-0.06427863240242004,-0.7734416723251343,0.8207446336746216,-0.39425498247146606,0.12531471252441406,-0.13790340721607208
2.9006693363189697,-0.06389715522527695,-0.7734416723251343,0.8211261034011841,-0.39654383063316345,0.12874799966812134,-0.13790340721607208
2.9207558631896973,-0.06351567804813385,-0.7734416723251343,0.8211261034011841,-0.4011215269565582,0.1325627565383911,-0.13790340721607208
2.940864086151123,-0.06427863240242004,-0.7734416723251343,0.8215075731277466,-0.4026474356651306,0.135233074426651,-0.13790340721607208
2.9609792232513428,-0.06580453366041183,-0.7734416723251343,0.8215075731277466,-0.4056992530822754,0.135233074426651,-0.13752193748950958
2.9810357093811035,-0.06656748056411743,-0.7742046117782593,0.8215075731277466,-0.4079881012439728,0.1340886503458023,-0.1363775134086609
3.0011093616485596,-0.06694895774126053,-0.7742046117782593,0.8222705721855164,-0.40951400995254517,0.13065537810325623,-0.135233074426651
3.0212013721466064,-0.06733043491840363,-0.7753490209579468,0.8226520419120789,-0.40951400995254517,0.12607766687870026,-0.1337071806192398
3.0412700176239014,-0.06618601083755493,-0.7753490209579468,0.8226520419120789,-0.41065841913223267,0.12340734153985977,-0.13179980218410492
3.0613956451416016,-0.06427863240242004,-0.7761120200157166,0.8226520419120789,-0.41218432784080505,0.12378881871700287,-0.12989242374897003
3.081462860107422,-0.06275273114442825,-0.776493489742279,0.8226520419120789,-0.41409170627593994,0.12531471252441406,-0.12951095402240753
3.1015074253082275,-0.06237125024199486,-0.776493489742279,0.8230335116386414,-0.41676202416419983,0.13141833245754242,-0.12836651504039764
3.1216013431549072,-0.061226826161146164,-0.776493489742279,0.8234149813652039,-0.4205767810344696,0.134470134973526,-0.12760357558727264
3.141704559326172,-0.06313420087099075,-0.776493489742279,0.8245593905448914,-0.4209582805633545,0.1363775134086609,-0.12722209095954895
3.1622636318206787,-0.06580453366041183,-0.776493489742279,0.8249408602714539,-0.421339750289917,0.1340886503458023,-0.12645913660526276
3.1824207305908203,-0.06618601083755493,-0.776493489742279,0.8249408602714539,-0.4217212200164795,0.13103684782981873,-0.12455176562070847
3.2024354934692383,-0.06618601083755493,-0.7776378989219666,0.8245593905448914,-0.4228656589984894,0.12455176562070847,-0.12149996310472488
3.2225282192230225,-0.06504157930612564,-0.778782308101654,0.8245593905448914,-0.4240100681781769,0.12073700875043869,-0.11959258466959
3.242933750152588,-0.06160829961299896,-0.7799267768859863,0.8245593905448914,-0.42515450716018677,0.11959258466959,-0.1192111074924469
3.26302433013916,-0.05970092490315437,-0.7803082466125488,0.8249408602714539,-0.42820629477500916,0.12378881871700287,-0.1184481605887413
3.283114194869995,-0.05970092490315437,-0.7795453071594238,0.8257037997245789,-0.43163958191871643,0.12989242374897003,-0.1180666834115982
3.3032007217407227,-0.061226826161146164,-0.778782308101654,0.8264667987823486,-0.43163958191871643,0.135233074426651,-0.11730372905731201
3.323770523071289,-0.06466010212898254,-0.778019368648529,0.8276112079620361,-0.43202105164527893,0.1340886503458023,-0.11577782779932022
3.343939781188965,-0.06656748056411743,-0.778019368648529,0.8276112079620361,-0.43163958191871643,0.1329442262649536,-0.11463340371847153
3.3639416694641113,-0.06618601083755493,-0.7784008383750916,0.8276112079620361,-0.43163958191871643,0.12798504531383514,-0.11272602528333664
3.384244441986084,-0.06618601083755493,-0.7799267768859863,0.8268482685089111,-0.43240252137184143,0.12302586436271667,-0.11120012402534485
3.404337167739868,-0.06313420087099075,-0.7810711860656738,0.8264667987823486,-0.4346913993358612,0.12149996310472488,-0.11043716967105865
3.4244282245635986,-0.06046387553215027,-0.7818341255187988,0.8264667987823486,-0.4381246566772461,0.12188144028186798,-0.10891126841306686
3.444554328918457,-0.05855649709701538,-0.7822155952453613,0.8268482685089111,-0.4388876259326935,0.12378881871700287,-0.10776684433221817
3.4647367000579834,-0.05855649709701538,-0.7810711860656738,0.8283741474151611,-0.439269095659256,0.12836651504039764,-0.10700388997793198
3.4847493171691895,-0.05855649709701538,-0.7803082466125488,0.8295185565948486,-0.4396505653858185,0.13218127191066742,-0.10585946589708328
3.504912853240967,-0.06275273114442825,-0.7795453071594238,0.8295185565948486,-0.440032035112381,0.1333257108926773,-0.10433356463909149
3.5249905586242676,-0.06466010212898254,-0.7795453071594238,0.8291370868682861,-0.440032035112381,0.1329442262649536,-0.1035706102848053
3.5453343391418457,-0.06504157930612564,-0.7806897163391113,0.8283741474151611,-0.44117647409439087,0.13027389347553253,-0.10128175467252731
3.5656652450561523,-0.06504157930612564,-0.7822155952453613,0.8279926776885986,-0.44346532225608826,0.12645913660526276,-0.10051880776882172
3.5859768390655518,-0.06275273114442825,-0.7837415337562561,0.8276112079620361,-0.44537270069122314,0.12340734153985977,-0.09937438368797302
3.6060993671417236,-0.058175019919872284,-0.7841230034828186,0.8283741474151611,-0.44613564014434814,0.12264438718557358,-0.09784847497940063
3.6261961460113525,-0.05855649709701538,-0.7833600640296936,0.8299000263214111,-0.44651713967323303,0.12417028844356537,-0.09632257372140884
3.6467995643615723,-0.058175019919872284,-0.7822155952453613,0.8310444951057434,-0.44651713967323303,0.12645913660526276,-0.09555962681770325
3.666900634765625,-0.058175019919872284,-0.7806897163391113,0.8314259648323059,-0.44651713967323303,0.12951095402240753,-0.09327077120542526
3.6870758533477783,-0.05970092490315437,-0.7795453071594238,0.8310444951057434,-0.44651713967323303,0.13065537810325623,-0.09250781685113907
3.707214593887329,-0.06313420087099075,-0.7803082466125488,0.8295185565948486,-0.44689860939979553,0.13065537810325623,-0.09174486994743347
3.7272822856903076,-0.06313420087099075,-0.7818341255187988,0.8287556171417236,-0.4484245181083679,0.13027389347553253,-0.09021896868944168
3.747378349304199,-0.06351567804813385,-0.7829785346984863,0.8283741474151611,-0.4510948359966278,0.12760357558727264,-0.08869306743144989
3.7674400806427,-0.06389715522527695,-0.7845044732093811,0.8287556171417236,-0.4533836841583252,0.12569619715213776,-0.0871671661734581
3.787503719329834,-0.05970092490315437,-0.7848859429359436,0.8291370868682861,-0.4537651538848877,0.12188144028186798,-0.08525978773832321
3.8075950145721436,-0.05664911866188049,-0.7845044732093811,0.8306630253791809,-0.4537651538848877,0.12073700875043869,-0.08487831056118011
3.8277063369750977,-0.056267641484737396,-0.7841230034828186,0.8314259648323059,-0.4537651538848877,0.12226291000843048,-0.08373387902975082
3.8478195667266846,-0.056267641484737396,-0.7833600640296936,0.8314259648323059,-0.4537651538848877,0.12684062123298645,-0.08297093212604523
3.8679656982421875,-0.059319447726011276,-0.7833600640296936,0.8310444951057434,-0.4537651538848877,0.13065537810325623,-0.08182650804519653
3.8880043029785156,-0.061226826161146164,-0.7837415337562561,0.8302815556526184,-0.4552910625934601,0.13141833245754242,-0.08106355369091034
3.908099889755249,-0.06198977679014206,-0.7845044732093811,0.8302815556526184,-0.45719844102859497,0.13027389347553253,-0.07991912961006165
3.928237199783325,-0.06237125024199486,-0.7845044732093811,0.8306630253791809,-0.45757991075515747,0.12531471252441406,-0.07763027399778366
3.948265314102173,-0.06237125024199486,-0.7845044732093811,0.8314259648323059,-0.45757991075515747,0.11959258466959,-0.07572289556264877
3.9683520793914795,-0.05893797054886818,-0.7845044732093811,0.8314259648323059,-0.45719844102859497,0.11654078215360641,-0.07419699430465698
3.9884605407714844,-0.05741206929087639,-0.7845044732093811,0.8314259648323059,-0.45757991075515747,0.11692225188016891,-0.07343403995037079
4.00866436958313,-0.05703059583902359,-0.7845044732093811,0.8314259648323059,-0.45757991075515747,0.12111848592758179,-0.07305257022380829
4.028786659240723,-0.05741206929087639,-0.7848859429359436,0.8310444951057434,-0.45872434973716736,0.12798504531383514,-0.07305257022380829
4.04888391494751,-0.057793546468019485,-0.7845044732093811,0.8310444951057434,-0.46139466762542725,0.13103684782981873,-0.071908138692379
4.06898307800293,-0.05893797054886818,-0.7845044732093811,0.8310444951057434,-0.46177613735198975,0.13179980218410492,-0.0707637146115303
4.089079856872559,-0.06084534898400307,-0.7845044732093811,0.8318074345588684,-0.46177613735198975,0.12874799966812134,-0.06923781335353851
4.109127759933472,-0.06160829961299896,-0.7841230034828186,0.8325703740119934,-0.46177613735198975,0.12264438718557358,-0.06694895774126053
4.129218816757202,-0.06313420087099075,-0.7845044732093811,0.8325703740119934,-0.46139466762542725,0.1188296303153038,-0.06580453366041183
4.1493330001831055,-0.06084534898400307,-0.7848859429359436,0.8325703740119934,-0.46139466762542725,0.11501488089561462,-0.06466010212898254
4.169535398483276,-0.058175019919872284,-0.7856488823890686,0.8318074345588684,-0.46215763688087463,0.11387044936418533,-0.06313420087099075
4.189633131027222,-0.0558861680328846,-0.7867932915687561,0.8314259648323059,-0.46215763688087463,0.11768520623445511,-0.06198977679014206
4.209726095199585,-0.05436026677489281,-0.7867932915687561,0.8314259648323059,-0.46368351578712463,0.12417028844356537,-0.06160829961299896
4.229775667190552,-0.0555046908557415,-0.7864118218421936,0.8314259648323059,-0.4648279547691345,0.13218127191066742,-0.061226826161146164
4.249874114990234,-0.06008239835500717,-0.7852674126625061,0.8321889042854309,-0.465209424495697,0.1359960287809372,-0.06084534898400307
4.269991397857666,-0.06237125024199486,-0.7856488823890686,0.8337147831916809,-0.4655908942222595,0.1333257108926773,-0.06046387553215027
4.290076017379761,-0.06313420087099075,-0.7856488823890686,0.8340963125228882,-0.4648279547691345,0.12874799966812134,-0.05855649709701538
4.310143709182739,-0.06351567804813385,-0.7860303521156311,0.8344777822494507,-0.465209424495697,0.11959258466959,-0.05741206929087639
4.330250978469849,-0.06084534898400307,-0.7867932915687561,0.8344777822494507,-0.465209424495697,0.11539635062217712,-0.0558861680328846
4.350357294082642,-0.05703059583902359,-0.7879377603530884,0.8333333134651184,-0.465209424495697,0.11234454810619354,-0.05397878959774971
4.370456695556641,-0.0558861680328846,-0.7879377603530884,0.8333333134651184,-0.4655908942222595,0.11463340371847153,-0.05359731614589691
4.390572547912598,-0.0555046908557415,-0.7879377603530884,0.8333333134651184,-0.4667353332042694,0.12149996310472488,-0.05283436179161072
4.410658121109009,-0.0555046908557415,-0.7875562906265259,0.8333333134651184,-0.4678797721862793,0.12874799966812134,-0.05283436179161072
4.4307427406311035,-0.05703059583902359,-0.7864118218421936,0.8337147831916809,-0.4682612419128418,0.13179980218410492,-0.05207141116261482
4.450815200805664,-0.06008239835500717,-0.7856488823890686,0.8337147831916809,-0.4682612419128418,0.1333257108926773,-0.051689937710762024
4.470951080322266,-0.06198977679014206,-0.7856488823890686,0.8337147831916809,-0.4682612419128418,0.13218127191066742,-0.05130846053361893
4.491022825241089,-0.06237125024199486,-0.7860303521156311,0.8337147831916809,-0.4682612419128418,0.12760357558727264,-0.050164032727479935
4.511525392532349,-0.06275273114442825,-0.7867932915687561,0.8337147831916809,-0.4682612419128418,0.12340734153985977,-0.048256658017635345
4.531612396240234,-0.06008239835500717,-0.7879377603530884,0.8337147831916809,-0.4682612419128418,0.1180666834115982,-0.04749370738863945
4.5516815185546875,-0.05741206929087639,-0.7879377603530884,0.8337147831916809,-0.4686427116394043,0.11730372905731201,-0.04711223021149635
4.571761608123779,-0.0551232174038887,-0.7879377603530884,0.8337147831916809,-0.4686427116394043,0.1180666834115982,-0.04596780240535736
4.5918967723846436,-0.05359731614589691,-0.7879377603530884,0.8337147831916809,-0.4686427116394043,0.1199740618467331,-0.045204851776361465
4.611945629119873,-0.05359731614589691,-0.7875562906265259,0.8337147831916809,-0.4690241813659668,0.12607766687870026,-0.04444190114736557
4.632058620452881,-0.057793546468019485,-0.7867932915687561,0.8340963125228882,-0.4697871506214142,0.12951095402240753,-0.04406042397022247
4.652818918228149,-0.05970092490315437,-0.7867932915687561,0.8340963125228882,-0.4709315598011017,0.13027389347553253,-0.043678950518369675
4.6729042530059814,-0.061226826161146164,-0.7867932915687561,0.8340963125228882,-0.4713130295276642,0.12760357558727264,-0.042153049260377884
4.693068504333496,-0.06275273114442825,-0.7867932915687561,0.8348592519760132,-0.4713130295276642,0.12111848592758179,-0.040245670825242996
4.7131195068359375,-0.06198977679014206,-0.7875562906265259,0.8348592519760132,-0.4713130295276642,0.11425192654132843,-0.0398641936480999
4.733255386352539,-0.058175019919872284,-0.7879377603530884,0.8344777822494507,-0.4713130295276642,0.11158160120248795,-0.039101243019104004
4.753338098526001,-0.056267641484737396,-0.7883192300796509,0.8344777822494507,-0.4713130295276642,0.11272602528333664,-0.03795681521296501
4.773473262786865,-0.056267641484737396,-0.7883192300796509,0.8340963125228882,-0.4716945290565491,0.11615930497646332,-0.03757534176111221
4.793571472167969,-0.056267641484737396,-0.7879377603530884,0.8340963125228882,-0.4716945290565491,0.12188144028186798,-0.03757534176111221
4.813634634017944,-0.05664911866188049,-0.7871748208999634,0.8340963125228882,-0.4720759987831116,0.12760357558727264,-0.03757534176111221
4.833701848983765,-0.059319447726011276,-0.7864118218421936,0.8344777822494507,-0.4724574685096741,0.12836651504039764,-0.037193864583969116
4.853785514831543,-0.06084534898400307,-0.7864118218421936,0.8348592519760132,-0.4724574685096741,0.12645913660526276,-0.03681239113211632
4.873844146728516,-0.06160829961299896,-0.7864118218421936,0.8348592519760132,-0.4724574685096741,0.12226291000843048,-0.035667963325977325
4.894021987915039,-0.06198977679014206,-0.7864118218421936,0.8348592519760132,-0.4724574685096741,0.11654078215360641,-0.034142062067985535
4.914129972457886,-0.059319447726011276,-0.7867932915687561,0.8344777822494507,-0.4724574685096741,0.11234454810619354,-0.03299763426184654
4.934221506118774,-0.05741206929087639,-0.7871748208999634,0.8337147831916809,-0.4724574685096741,0.11310750246047974,-0.032616160809993744
4.9543373584747314,-0.0558861680328846,-0.7871748208999634,0.8333333134651184,-0.4724574685096741,0.11501488089561462,-0.03223468363285065
4.974390268325806,-0.0555046908557415,-0.7871748208999634,0.8333333134651184,-0.4728389382362366,0.11959258466959,-0.032616160809993744
4.994454383850098,-0.0555046908557415,-0.7867932915687561,0.8337147831916809,-0.4732204079627991,0.12531471252441406,-0.03223468363285065
5.014578580856323,-0.05703059583902359,-0.7864118218421936,0.8337147831916809,-0.47398337721824646,0.12798504531383514,-0.03223468363285065
5.034794092178345,-0.059319447726011276,-0.7860303521156311,0.8337147831916809,-0.47474631667137146,0.12836651504039764,-0.03223468363285065
5.054784297943115,-0.06084534898400307,-0.7856488823890686,0.8337147831916809,-0.47550925612449646,0.12645913660526276,-0.03147173300385475
5.074936151504517,-0.06084534898400307,-0.7856488823890686,0.8337147831916809,-0.47550925612449646,0.11959258466959,-0.030708782374858856
5.095499038696289,-0.06046387553215027,-0.7867932915687561,0.8337147831916809,-0.47550925612449646,0.11463340371847153,-0.02880140393972397
5.115585803985596,-0.05703059583902359,-0.7867932915687561,0.8337147831916809,-0.47512778639793396,0.11348897218704224,-0.02841992862522602
5.1356353759765625,-0.0555046908557415,-0.7867932915687561,0.8337147831916809,-0.47550925612449646,0.11463340371847153,-0.027656977996230125
5.155765533447266,-0.05397878959774971,-0.7867932915687561,0.8337147831916809,-0.47550925612449646,0.1180666834115982,-0.02727550081908703
5.175837278366089,-0.05359731614589691,-0.7867932915687561,0.8337147831916809,-0.47589075565338135,0.12264438718557358,-0.026512550190091133
5.196323871612549,-0.0555046908557415,-0.7864118218421936,0.8340963125228882,-0.47589075565338135,0.12798504531383514,-0.025749599561095238
5.216410398483276,-0.05855649709701538,-0.7860303521156311,0.8348592519760132,-0.47627222537994385,0.12912946939468384,-0.025749599561095238
5.2365193367004395,-0.05970092490315437,-0.7864118218421936,0.8348592519760132,-0.47627222537994385,0.12722209095954895,-0.024986648932099342
5.25667405128479,-0.061226826161146164,-0.7864118218421936,0.8348592519760132,-0.47627222537994385,0.12264438718557358,-0.024605173617601395
5.27672815322876,-0.06008239835500717,-0.7867932915687561,0.8348592519760132,-0.47627222537994385,0.11501488089561462,-0.02384222112596035
5.296783685684204,-0.05741206929087639,-0.7871748208999634,0.8348592519760132,-0.47627222537994385,0.11196307092905045,-0.022697795182466507
5.316866397857666,-0.0551232174038887,-0.7879377603530884,0.8348592519760132,-0.47627222537994385,0.11272602528333664,-0.02193484455347061
5.3369691371917725,-0.05283436179161072,-0.7879377603530884,0.8344777822494507,-0.47665369510650635,0.11387044936418533,-0.021553369238972664
5.357273101806641,-0.051689937710762024,-0.7879377603530884,0.8344777822494507,-0.47665369510650635,0.12111848592758179,-0.021553369238972664
5.377368927001953,-0.054741740226745605,-0.7875562906265259,0.8344777822494507,-0.47703516483306885,0.12645913660526276,-0.021553369238972664
5.397559642791748,-0.05855649709701538,-0.7867932915687561,0.8348592519760132,-0.47817960381507874,0.13027389347553253,-0.021553369238972664
5.41759991645813,-0.06046387553215027,-0.7867932915687561,0.8348592519760132,-0.47932401299476624,0.12912946939468384,-0.021171892061829567
5.437722206115723,-0.06198977679014206,-0.7867932915687561,0.8348592519760132,-0.47894254326820374,0.12378881871700287,-0.02079041674733162
5.457821607589722,-0.06198977679014206,-0.7879377603530884,0.8348592519760132,-0.47932401299476624,0.11577782779932022,-0.020027466118335724
5.4779417514801025,-0.05855649709701538,-0.7887006998062134,0.8348592519760132,-0.47932401299476624,0.11120012402534485,-0.01888304017484188
5.498088598251343,-0.05436026677489281,-0.7898451089859009,0.8348592519760132,-0.47932401299476624,0.11081864684820175,-0.016975661739706993
5.518185615539551,-0.053215838968753815,-0.7898451089859009,0.8348592519760132,-0.47932401299476624,0.11272602528333664,-0.016594186425209045
5.538398027420044,-0.05283436179161072,-0.7898451089859009,0.8348592519760132,-0.47932401299476624,0.11615930497646332,-0.016594186425209045
5.558446645736694,-0.05130846053361893,-0.7890821695327759,0.8352407217025757,-0.4797055125236511,0.12264438718557358,-0.016594186425209045
5.578556060791016,-0.05359731614589691,-0.7879377603530884,0.8360036611557007,-0.4797055125236511,0.12722209095954895,-0.016594186425209045
5.598640441894531,-0.05855649709701538,-0.7875562906265259,0.8360036611557007,-0.4797055125236511,0.12874799966812134,-0.016975661739706993
5.618748903274536,-0.06198977679014206,-0.7871748208999634,0.8360036611557007,-0.4797055125236511,0.12760357558727264,-0.016594186425209045
5.638818979263306,-0.06160829961299896,-0.7879377603530884,0.8360036611557007,-0.4800869822502136,0.12264438718557358,-0.016594186425209045
5.659025192260742,-0.06084534898400307,-0.7887006998062134,0.8360036611557007,-0.4797055125236511,0.1180666834115982,-0.01430533267557621
5.679105043411255,-0.05703059583902359,-0.7898451089859009,0.8360036611557007,-0.4797055125236511,0.11310750246047974,-0.013923857361078262
5.699234247207642,-0.0551232174038887,-0.7898451089859009,0.8360036611557007,-0.4800869822502136,0.11272602528333664,-0.013923857361078262
5.719350814819336,-0.05359731614589691,-0.7898451089859009,0.8360036611557007,-0.4800869822502136,0.11577782779932022,-0.013542382046580315
5.739414215087891,-0.05245288833975792,-0.7898451089859009,0.8360036611557007,-0.4800869822502136,0.12111848592758179,-0.013542382046580315
5.759917736053467,-0.05092698708176613,-0.7894636392593384,0.8367666006088257,-0.4800869822502136,0.12684062123298645,-0.013542382046580315
5.7800281047821045,-0.0558861680328846,-0.7887006998062134,0.8367666006088257,-0.4804684519767761,0.13141833245754242,-0.013923857361078262
5.800195693969727,-0.05855649709701538,-0.7887006998062134,0.8367666006088257,-0.4808499217033386,0.13218127191066742,-0.013542382046580315
5.820201635360718,-0.05855649709701538,-0.7887006998062134,0.8367666006088257,-0.4808499217033386,0.12989242374897003,-0.013160906732082367
5.840272903442383,-0.059319447726011276,-0.7890821695327759,0.8367666006088257,-0.4808499217033386,0.12302586436271667,-0.012779430486261845
5.860323905944824,-0.059319447726011276,-0.7898451089859009,0.8367666006088257,-0.4808499217033386,0.1188296303153038,-0.012397955171763897
5.88041615486145,-0.057793546468019485,-0.7898451089859009,0.8367666006088257,-0.4808499217033386,0.11692225188016891,-0.011635004542768002
5.900489807128906,-0.0551232174038887,-0.7902265787124634,0.8367666006088257,-0.4808499217033386,0.11463340371847153,-0.010872052982449532
5.920647859573364,-0.05397878959774971,-0.7902265787124634,0.8367666006088257,-0.4808499217033386,0.1180666834115982,-0.010490577667951584
5.9407429695129395,-0.053215838968753815,-0.7902265787124634,0.8367666006088257,-0.4808499217033386,0.12226291000843048,-0.010490577667951584
5.960822105407715,-0.05359731614589691,-0.7898451089859009,0.8367666006088257,-0.4812313914299011,0.12874799966812134,-0.010872052982449532
5.980894565582275,-0.056267641484737396,-0.7898451089859009,0.8367666006088257,-0.4812313914299011,0.13141833245754242,-0.010490577667951584
6.000988006591797,-0.05855649709701538,-0.7898451089859009,0.8367666006088257,-0.4819943606853485,0.13027389347553253,-0.010490577667951584
6.021038770675659,-0.059319447726011276,-0.7898451089859009,0.8371480703353882,-0.482375830411911,0.12684062123298645,-0.010109102353453636
6.0411365032196045,-0.05970092490315437,-0.7898451089859009,0.8367666006088257,-0.482375830411911,0.1199740618467331,-0.009346150793135166
6.0612452030181885,-0.058175019919872284,-0.7898451089859009,0.8367666006088257,-0.482375830411911,0.11425192654132843,-0.00858320016413927
6.081414222717285,-0.0555046908557415,-0.7902265787124634,0.8367666006088257,-0.482375830411911,0.11234454810619354,-0.007057297509163618
6.101510763168335,-0.053215838968753815,-0.7902265787124634,0.8367666006088257,-0.482375830411911,0.11387044936418533,-0.00667582219466567
6.121591806411743,-0.05092698708176613,-0.7906080484390259,0.8367666006088257,-0.482375830411911,0.11692225188016891,-0.00667582219466567
6.1418492794036865,-0.05092698708176613,-0.7906080484390259,0.8367666006088257,-0.482375830411911,0.12455176562070847,-0.00667582219466567
6.161942481994629,-0.054741740226745605,-0.7902265787124634,0.8367666006088257,-0.483138769865036,0.13065537810325623,-0.00667582219466567
6.182013273239136,-0.058175019919872284,-0.7898451089859009,0.8371480703353882,-0.483138769865036,0.1333257108926773,-0.007057297509163618
6.202094554901123,-0.05893797054886818,-0.7898451089859009,0.8371480703353882,-0.4827573001384735,0.12989242374897003,-0.00667582219466567
6.222180604934692,-0.06008239835500717,-0.7898451089859009,0.8375295400619507,-0.4827573001384735,0.12188144028186798,-0.00667582219466567
6.242367744445801,-0.059319447726011276,-0.7902265787124634,0.8375295400619507,-0.4827573001384735,0.11501488089561462,-0.005912871100008488
6.262457609176636,-0.0558861680328846,-0.7909895181655884,0.8375295400619507,-0.4827573001384735,0.11348897218704224,-0.005912871100008488
6.282530069351196,-0.05436026677489281,-0.7909895181655884,0.8371480703353882,-0.4827573001384735,0.11272602528333664,-0.005531395319849253
6.30261754989624,-0.05359731614589691,-0.7909895181655884,0.8367666006088257,-0.4827573001384735,0.11577782779932022,-0.005531395319849253
6.322736501693726,-0.053215838968753815,-0.7906080484390259,0.8367666006088257,-0.4827573001384735,0.12111848592758179,-0.005531395319849253
6.342776536941528,-0.05397878959774971,-0.7902265787124634,0.8371480703353882,-0.4827573001384735,0.12607766687870026,-0.005531395319849253
6.3629150390625,-0.05664911866188049,-0.7898451089859009,0.8371480703353882,-0.483138769865036,0.12722209095954895,-0.005531395319849253
6.383082389831543,-0.058175019919872284,-0.7894636392593384,0.8371480703353882,-0.4827573001384735,0.12722209095954895,-0.005531395319849253
6.403065919876099,-0.05855649709701538,-0.7894636392593384,0.8371480703353882,-0.4827573001384735,0.12188144028186798,-0.005149920005351305
6.423154830932617,-0.05855649709701538,-0.7898451089859009,0.8371480703353882,-0.4827573001384735,0.11615930497646332,-0.004386968910694122
6.44330096244812,-0.058175019919872284,-0.7898451089859009,0.8371480703353882,-0.4827573001384735,0.11387044936418533,-0.0032425422687083483
6.463281869888306,-0.056267641484737396,-0.7898451089859009,0.8367666006088257,-0.4827573001384735,0.11310750246047974,-0.0032425422687083483
6.483410596847534,-0.054741740226745605,-0.7898451089859009,0.8367666006088257,-0.4827573001384735,0.11463340371847153,-0.002861066721379757
6.503471612930298,-0.05397878959774971,-0.7898451089859009,0.8367666006088257,-0.4827573001384735,0.11730372905731201,-0.002861066721379757
6.523786783218384,-0.053215838968753815,-0.7898451089859009,0.8367666006088257,-0.483138769865036,0.12302586436271667,-0.0032425422687083483
6.543896675109863,-0.054741740226745605,-0.7894636392593384,0.8367666006088257,-0.483138769865036,0.12798504531383514,-0.0032425422687083483
6.563978910446167,-0.05741206929087639,-0.7894636392593384,0.8367666006088257,-0.483138769865036,0.12874799966812134,-0.002861066721379757
6.584200143814087,-0.05893797054886818,-0.7890821695327759,0.8367666006088257,-0.483138769865036,0.12722209095954895,-0.002861066721379757
6.604294776916504,-0.05855649709701538,-0.7890821695327759,0.8367666006088257,-0.483138769865036,0.12149996310472488,-0.0024795911740511656
6.624423503875732,-0.05855649709701538,-0.7890821695327759,0.8367666006088257,-0.483138769865036,0.11348897218704224,-0.0020981156267225742
6.6444995403289795,-0.057793546468019485,-0.7894636392593384,0.8367666006088257,-0.483138769865036,0.11043716967105865,-0.001716639962978661
6.664585590362549,-0.0551232174038887,-0.7898451089859009,0.8367666006088257,-0.4827573001384735,0.11158160120248795,-0.0013351644156500697
6.684691905975342,-0.05359731614589691,-0.7898451089859009,0.8367666006088257,-0.483138769865036,0.11425192654132843,-0.0009536888683214784
6.70477557182312,-0.053215838968753815,-0.7898451089859009,0.8367666006088257,-0.483138769865036,0.12149996310472488,-0.0009536888683214784
6.724910736083984,-0.054741740226745605,-0.7894636392593384,0.8367666006088257,-0.483138769865036,0.12645913660526276,-0.0009536888683214784
6.744924783706665,-0.057793546468019485,-0.7887006998062134,0.8367666006088257,-0.4835202693939209,0.12836651504039764,-0.0009536888683214784
6.765014171600342,-0.05893797054886818,-0.7887006998062134,0.8367666006088257,-0.4835202693939209,0.12645913660526276,-0.0009536888683214784
6.785096883773804,-0.06046387553215027,-0.7887006998062134,0.8367666006088257,-0.4835202693939209,0.12188144028186798,-0.00019073777366429567
6.805194616317749,-0.06046387553215027,-0.7887006998062134,0.8367666006088257,-0.4835202693939209,0.11387044936418533,0.00019073777366429567
6.825350999832153,-0.05703059583902359,-0.7894636392593384,0.8367666006088257,-0.4835202693939209,0.11158160120248795,0.0009536888683214784
6.845458745956421,-0.0555046908557415,-0.7898451089859009,0.8367666006088257,-0.4835202693939209,0.11158160120248795,0.0009536888683214784
6.865478515625,-0.05245288833975792,-0.7898451089859009,0.8367666006088257,-0.4835202693939209,0.11234454810619354,0.0009536888683214784
6.885586738586426,-0.05092698708176613,-0.7898451089859009,0.8367666006088257,-0.4835202693939209,0.11692225188016891,0.0009536888683214784
6.905657768249512,-0.05245288833975792,-0.7894636392593384,0.8367666006088257,-0.4839017391204834,0.12264438718557358,0.0009536888683214784
6.925705909729004,-0.056267641484737396,-0.7890821695327759,0.8367666006088257,-0.4839017391204834,0.12607766687870026,0.000572213320992887
6.945820093154907,-0.057793546468019485,-0.7887006998062134,0.8367666006088257,-0.4846646785736084,0.12645913660526276,0.000572213320992887
6.965914011001587,-0.05893797054886818,-0.7887006998062134,0.8367666006088257,-0.4850461483001709,0.12302586436271667,0.000572213320992887
6.9860053062438965,-0.05855649709701538,-0.7890821695327759,0.8367666006088257,-0.4850461483001709,0.11425192654132843,0.0009536888683214784
7.0062196254730225,-0.05741206929087639,-0.7898451089859009,0.8367666006088257,-0.4850461483001709,0.11120012402534485,0.0009536888683214784
7.0262861251831055,-0.0551232174038887,-0.7898451089859009,0.8367666006088257,-0.4850461483001709,0.11043716967105865,0.0013351644156500697
7.0463361740112305,-0.05359731614589691,-0.7898451089859009,0.8363851308822632,-0.4850461483001709,0.11158160120248795,0.0013351644156500697
7.066443681716919,-0.05207141116261482,-0.7898451089859009,0.8363851308822632,-0.4854276478290558,0.11539635062217712,0.0013351644156500697
7.086946249008179,-0.05130846053361893,-0.7894636392593384,0.8363851308822632,-0.4858091175556183,0.12073700875043869,0.0013351644156500697
7.107048749923706,-0.0551232174038887,-0.7887006998062134,0.8363851308822632,-0.4865720570087433,0.12569619715213776,0.0013351644156500697
7.127200365066528,-0.057793546468019485,-0.7883192300796509,0.8363851308822632,-0.4869535267353058,0.12798504531383514,0.0013351644156500697
7.147287607192993,-0.05893797054886818,-0.7883192300796509,0.8363851308822632,-0.4865720570087433,0.12645913660526276,0.0013351644156500697
7.167339086532593,-0.059319447726011276,-0.7887006998062134,0.8363851308822632,-0.4865720570087433,0.12073700875043869,0.001716639962978661
7.187406063079834,-0.059319447726011276,-0.7887006998062134,0.8363851308822632,-0.4869535267353058,0.11387044936418533,0.0020981156267225742
7.2075536251068115,-0.05741206929087639,-0.7890821695327759,0.8363851308822632,-0.4865720570087433,0.11196307092905045,0.002861066721379757
7.2275917530059814,-0.0551232174038887,-0.7898451089859009,0.8363851308822632,-0.4865720570087433,0.11158160120248795,0.0036240178160369396
7.247684001922607,-0.05436026677489281,-0.7898451089859009,0.8363851308822632,-0.4865720570087433,0.11348897218704224,0.004386968910694122
7.267792463302612,-0.053215838968753815,-0.7898451089859009,0.8363851308822632,-0.4865720570087433,0.1184481605887413,0.004005493130534887
7.287872076034546,-0.05397878959774971,-0.7894636392593384,0.8363851308822632,-0.4869535267353058,0.12417028844356537,0.004005493130534887
7.308054208755493,-0.05741206929087639,-0.7887006998062134,0.8367666006088257,-0.4869535267353058,0.12684062123298645,0.004005493130534887
7.328099727630615,-0.05855649709701538,-0.7887006998062134,0.8367666006088257,-0.4869535267353058,0.12645913660526276,0.004005493130534887
7.3482513427734375,-0.059319447726011276,-0.7887006998062134,0.8371480703353882,-0.4865720570087433,0.12226291000843048,0.004005493130534887
7.368382692337036,-0.06084534898400307,-0.7887006998062134,0.8371480703353882,-0.4865720570087433,0.11501488089561462,0.004005493130534887
7.3883957862854,-0.06008239835500717,-0.7890821695327759,0.8371480703353882,-0.4865720570087433,0.11081864684820175,0.004386968910694122
7.408485412597656,-0.056267641484737396,-0.7898451089859009,0.8371480703353882,-0.4865720570087433,0.10929274559020996,0.004386968910694122
7.428593158721924,-0.054741740226745605,-0.7898451089859009,0.8371480703353882,-0.4865720570087433,0.11005569249391556,0.00476844422519207
7.448669672012329,-0.053215838968753815,-0.7898451089859009,0.8367666006088257,-0.4865720570087433,0.11387044936418533,0.004386968910694122
7.468753099441528,-0.05283436179161072,-0.7898451089859009,0.8367666006088257,-0.4865720570087433,0.12073700875043869,0.004386968910694122
7.488823652267456,-0.05397878959774971,-0.7894636392593384,0.8367666006088257,-0.4865720570087433,0.12455176562070847,0.004386968910694122
7.508934736251831,-0.05741206929087639,-0.7887006998062134,0.8371480703353882,-0.4865720570087433,0.12684062123298645,0.004386968910694122
7.529016494750977,-0.06008239835500717,-0.7887006998062134,0.8367666006088257,-0.4865720570087433,0.12645913660526276,0.004386968910694122
7.5490782260894775,-0.06198977679014206,-0.7887006998062134,0.8371480703353882,-0.4865720570087433,0.12188144028186798,0.004386968910694122
7.569215536117554,-0.06198977679014206,-0.7887006998062134,0.8371480703353882,-0.4865720570087433,0.11654078215360641,0.004386968910694122
7.589319467544556,-0.05855649709701538,-0.7894636392593384,0.8371480703353882,-0.4865720570087433,0.11120012402534485,0.00476844422519207
7.609335899353027,-0.0558861680328846,-0.7898451089859009,0.8371480703353882,-0.4865720570087433,0.11234454810619354,0.005149920005351305
7.629424571990967,-0.05436026677489281,-0.7898451089859009,0.8371480703353882,-0.4865720570087433,0.11387044936418533,0.005149920005351305
7.649527072906494,-0.053215838968753815,-0.7898451089859009,0.8371480703353882,-0.4865720570087433,0.1184481605887413,0.00476844422519207
7.669731378555298,-0.05359731614589691,-0.7894636392593384,0.8371480703353882,-0.4865720570087433,0.12607766687870026,0.00476844422519207
7.689843654632568,-0.058175019919872284,-0.7887006998062134,0.8371480703353882,-0.4865720570087433,0.12874799966812134,0.00476844422519207
7.709886789321899,-0.06046387553215027,-0.7887006998062134,0.8371480703353882,-0.4865720570087433,0.12798504531383514,0.00476844422519207
7.729973316192627,-0.06351567804813385,-0.7887006998062134,0.8371480703353882,-0.4865720570087433,0.12760357558727264,0.004386968910694122
7.750042676925659,-0.06198977679014206,-0.7887006998062134,0.8375295400619507,-0.4865720570087433,0.12111848592758179,0.00476844422519207
7.770092725753784,-0.059319447726011276,-0.7898451089859009,0.8375295400619507,-0.4865720570087433,0.11501488089561462,0.00476844422519207
7.790201187133789,-0.0555046908557415,-0.7902265787124634,0.8375295400619507,-0.4865720570087433,0.11272602528333664,0.005149920005351305
7.810347557067871,-0.0555046908557415,-0.7898451089859009,0.8375295400619507,-0.4865720570087433,0.11387044936418533,0.005149920005351305
7.830524682998657,-0.0555046908557415,-0.7898451089859009,0.8371480703353882,-0.4865720570087433,0.1188296303153038,0.00476844422519207
7.8506317138671875,-0.0551232174038887,-0.7898451089859009,0.8371480703353882,-0.4865720570087433,0.12607766687870026,0.00476844422519207
7.870683193206787,-0.0555046908557415,-0.7898451089859009,0.8371480703353882,-0.4865720570087433,0.12874799966812134,0.00476844422519207
7.890763998031616,-0.05664911866188049,-0.7898451089859009,0.8371480703353882,-0.4865720570087433,0.12989242374897003,0.00476844422519207
7.910878896713257,-0.05855649709701538,-0.7898451089859009,0.8375295400619507,-0.4865720570087433,0.12912946939468384,0.00476844422519207
7.930934429168701,-0.05893797054886818,-0.7898451089859009,0.8375295400619507,-0.4865720570087433,0.12493324279785156,0.00476844422519207
7.951016426086426,-0.059319447726011276,-0.7898451089859009,0.837911069393158,-0.4865720570087433,0.1192111074924469,0.00476844422519207
7.971104621887207,-0.05855649709701538,-0.7898451089859009,0.837911069393158,-0.4861905872821808,0.11234454810619354,0.005149920005351305
7.9912333488464355,-0.056267641484737396,-0.7898451089859009,0.8375295400619507,-0.4861905872821808,0.11158160120248795,0.005149920005351305
8.011320114135742,-0.05397878959774971,-0.7902265787124634,0.8375295400619507,-0.4861905872821808,0.11310750246047974,0.005149920005351305
8.031402826309204,-0.05436026677489281,-0.7902265787124634,0.8375295400619507,-0.4865720570087433,0.11692225188016891,0.00476844422519207
8.051506519317627,-0.05359731614589691,-0.7898451089859009,0.8375295400619507,-0.4865720570087433,0.12264438718557358,0.00476844422519207
8.071594953536987,-0.05664911866188049,-0.7898451089859009,0.8375295400619507,-0.4861905872821808,0.12645913660526276,0.00476844422519207
8.091677188873291,-0.058175019919872284,-0.7894636392593384,0.8375295400619507,-0.4861905872821808,0.12607766687870026,0.00476844422519207
8.11233115196228,-0.059319447726011276,-0.7894636392593384,0.8375295400619507,-0.4861905872821808,0.12340734153985977,0.005149920005351305
8.132424116134644,-0.059319447726011276,-0.7898451089859009,0.8375295400619507,-0.4861905872821808,0.11577782779932022,0.005149920005351305
8.152500629425049,-0.05855649709701538,-0.7898451089859009,0.8375295400619507,-0.4861905872821808,0.11081864684820175,0.005149920005351305
8.172585725784302,-0.0555046908557415,-0.7898451089859009,0.8375295400619507,-0.4861905872821808,0.10929274559020996,0.005531395319849253
8.192758560180664,-0.05359731614589691,-0.7898451089859009,0.8375295400619507,-0.4861905872821808,0.11120012402534485,0.005531395319849253
8.212759017944336,-0.05245288833975792,-0.7898451089859009,0.8375295400619507,-0.4861905872821808,0.11501488089561462,0.005531395319849253
8.23288893699646,-0.051689937710762024,-0.7898451089859009,0.8375295400619507,-0.4861905872821808,0.12149996310472488,0.005531395319849253
8.253070831298828,-0.0558861680328846,-0.7894636392593384,0.8375295400619507,-0.4865720570087433,0.12798504531383514,0.005149920005351305
8.27311110496521,-0.05855649709701538,-0.7887006998062134,0.8375295400619507,-0.4865720570087433,0.12798504531383514,0.005149920005351305
8.293210744857788,-0.06084534898400307,-0.7887006998062134,0.8375295400619507,-0.4865720570087433,0.12722209095954895,0.005531395319849253
8.313267946243286,-0.06046387553215027,-0.7887006998062134,0.8375295400619507,-0.4861905872821808,0.11959258466959,0.005531395319849253
8.3333740234375,-0.06046387553215027,-0.7894636392593384,0.8375295400619507,-0.4861905872821808,0.11348897218704224,0.005531395319849253
8.353440046310425,-0.0558861680328846,-0.7902265787124634,0.8375295400619507,-0.4861905872821808,0.10967422276735306,0.005531395319849253
8.373506784439087,-0.05359731614589691,-0.7902265787124634,0.8375295400619507,-0.4861905872821808,0.11196307092905045,0.006294346414506435
8.393589973449707,-0.053215838968753815,-0.7902265787124634,0.8371480703353882,-0.4861905872821808,0.11539635062217712,0.006294346414506435
8.413747549057007,-0.053215838968753815,-0.7898451089859009,0.8371480703353882,-0.4861905872821808,0.12226291000843048,0.005912871100008488
8.43381667137146,-0.054741740226745605,-0.7894636392593384,0.8371480703353882,-0.4865720570087433,0.12951095402240753,0.005912871100008488
8.453872919082642,-0.057793546468019485,-0.7894636392593384,0.8371480703353882,-0.4865720570087433,0.13065537810325623,0.005912871100008488
8.473948955535889,-0.05970092490315437,-0.7894636392593384,0.8375295400619507,-0.4865720570087433,0.12951095402240753,0.005531395319849253
8.494502544403076,-0.06084534898400307,-0.7894636392593384,0.8375295400619507,-0.4861905872821808,0.12645913660526276,0.005531395319849253
8.514593362808228,-0.06084534898400307,-0.7898451089859009,0.8375295400619507,-0.4861905872821808,0.1199740618467331,0.005912871100008488
8.534672737121582,-0.058175019919872284,-0.7898451089859009,0.8375295400619507,-0.4861905872821808,0.11425192654132843,0.005912871100008488
8.554918050765991,-0.0555046908557415,-0.7902265787124634,0.8375295400619507,-0.4861905872821808,0.11348897218704224,0.006294346414506435
8.575052499771118,-0.05359731614589691,-0.7902265787124634,0.8375295400619507,-0.4861905872821808,0.11577782779932022,0.006294346414506435
8.595107555389404,-0.05359731614589691,-0.7902265787124634,0.8375295400619507,-0.4861905872821808,0.12111848592758179,0.006294346414506435
8.61522626876831,-0.05359731614589691,-0.7898451089859009,0.8375295400619507,-0.4861905872821808,0.12760357558727264,0.005912871100008488
8.635352373123169,-0.05741206929087639,-0.7898451089859009,0.8375295400619507,-0.4861905872821808,0.13027389347553253,0.005912871100008488
8.655424356460571,-0.059319447726011276,-0.7898451089859009,0.8375295400619507,-0.4861905872821808,0.12912946939468384,0.005531395319849253
8.675583600997925,-0.05970092490315437,-0.7898451089859009,0.8375295400619507,-0.4861905872821808,0.12645913660526276,0.005531395319849253
8.695730686187744,-0.06046387553215027,-0.7898451089859009,0.8375295400619507,-0.4861905872821808,0.12073700875043869,0.005912871100008488
8.71572208404541,-0.05893797054886818,-0.7902265787124634,0.837911069393158,-0.4861905872821808,0.11387044936418533,0.005912871100008488
8.735844612121582,-0.0551232174038887,-0.7909895181655884,0.837911069393158,-0.4858091175556183,0.11348897218704224,0.006294346414506435
8.755935668945312,-0.05359731614589691,-0.7909895181655884,0.837911069393158,-0.4858091175556183,0.11310750246047974,0.00667582219466567
8.77599048614502,-0.053215838968753815,-0.7909895181655884,0.8375295400619507,-0.4861905872821808,0.11692225188016891,0.00667582219466567
8.796069622039795,-0.053215838968753815,-0.7909895181655884,0.8375295400619507,-0.4861905872821808,0.12340734153985977,0.00667582219466567
8.816256523132324,-0.0555046908557415,-0.7902265787124634,0.837911069393158,-0.4861905872821808,0.12836651504039764,0.006294346414506435
8.836318016052246,-0.058175019919872284,-0.7898451089859009,0.837911069393158,-0.4861905872821808,0.12874799966812134,0.006294346414506435
8.856415033340454,-0.05855649709701538,-0.7898451089859009,0.837911069393158,-0.4861905872821808,0.12684062123298645,0.006294346414506435
8.876478672027588,-0.05855649709701538,-0.7898451089859009,0.837911069393158,-0.4858091175556183,0.12149996310472488,0.00667582219466567
8.896580457687378,-0.05855649709701538,-0.7902265787124634,0.837911069393158,-0.4861905872821808,0.11425192654132843,0.007057297509163618
8.916672706604004,-0.05741206929087639,-0.7902265787124634,0.837911069393158,-0.4858091175556183,0.11234454810619354,0.007438773289322853
8.9367516040802,-0.0555046908557415,-0.7906080484390259,0.837911069393158,-0.4858091175556183,0.11272602528333664,0.0078202486038208
8.956984043121338,-0.05359731614589691,-0.7909895181655884,0.837911069393158,-0.4861905872821808,0.11425192654132843,0.008201723918318748
8.976985931396484,-0.05130846053361893,-0.7909895181655884,0.837911069393158,-0.4858091175556183,0.11692225188016891,0.0078202486038208
8.997084856033325,-0.05130846053361893,-0.7909895181655884,0.8375295400619507,-0.4861905872821808,0.12264438718557358,0.0078202486038208
9.017173290252686,-0.0551232174038887,-0.7902265787124634,0.837911069393158,-0.4861905872821808,0.12722209095954895,0.0078202486038208
9.037242889404297,-0.058175019919872284,-0.7898451089859009,0.837911069393158,-0.4861905872821808,0.12645913660526276,0.007438773289322853
9.057353019714355,-0.05855649709701538,-0.7898451089859009,0.837911069393158,-0.4861905872821808,0.12302586436271667,0.0078202486038208
9.07742977142334,-0.05855649709701538,-0.7898451089859009,0.837911069393158,-0.4861905872821808,0.11463340371847153,0.0078202486038208
9.097601890563965,-0.05855649709701538,-0.7906080484390259,0.837911069393158,-0.4861905872821808,0.11081864684820175,0.008201723918318748
9.117687225341797,-0.054741740226745605,-0.7909895181655884,0.837911069393158,-0.4861905872821808,0.11043716967105865,0.008201723918318748
9.137773513793945,-0.053215838968753815,-0.7913710474967957,0.837911069393158,-0.4861905872821808,0.11196307092905045,0.00858320016413927
9.157930850982666,-0.05092698708176613,-0.7917525172233582,0.837911069393158,-0.4861905872821808,0.11615930497646332,0.008201723918318748
9.178022623062134,-0.05130846053361893,-0.7913710474967957,0.837911069393158,-0.4861905872821808,0.12340734153985977,0.008201723918318748
9.198168754577637,-0.05359731614589691,-0.7906080484390259,0.837911069393158,-0.4861905872821808,0.12722209095954895,0.008201723918318748
9.218303442001343,-0.05703059583902359,-0.7898451089859009,0.837911069393158,-0.4865720570087433,0.13065537810325623,0.0078202486038208
9.238398313522339,-0.06008239835500717,-0.7898451089859009,0.837911069393158,-0.4861905872821808,0.12912946939468384,0.0078202486038208
9.258573055267334,-0.06046387553215027,-0.7898451089859009,0.8390554785728455,-0.4861905872821808,0.12188144028186798,0.008201723918318748
9.278720378875732,-0.05893797054886818,-0.7909895181655884,0.838674008846283,-0.4861905872821808,0.11577782779932022,0.008201723918318748
9.298770427703857,-0.0551232174038887,-0.7921339869499207,0.838674008846283,-0.4861905872821808,0.11081864684820175,0.00858320016413927
9.318878650665283,-0.053215838968753815,-0.7921339869499207,0.838674008846283,-0.4861905872821808,0.11120012402534485,0.00858320016413927
9.3389573097229,-0.05092698708176613,-0.7925154566764832,0.837911069393158,-0.4861905872821808,0.11348897218704224,0.008201723918318748
9.359169721603394,-0.05054550990462303,-0.7925154566764832,0.8375295400619507,-0.4861905872821808,0.1199740618467331,0.008201723918318748
9.379265308380127,-0.05283436179161072,-0.7913710474967957,0.837911069393158,-0.4861905872821808,0.12607766687870026,0.008201723918318748
9.399349927902222,-0.05664911866188049,-0.7906080484390259,0.837911069393158,-0.4865720570087433,0.13027389347553253,0.0078202486038208
9.41944146156311,-0.05855649709701538,-0.7898451089859009,0.8382925391197205,-0.4865720570087433,0.12951095402240753,0.0078202486038208
9.439541101455688,-0.05970092490315437,-0.7898451089859009,0.8390554785728455,-0.4861905872821808,0.12607766687870026,0.008201723918318748
9.459625244140625,-0.06046387553215027,-0.7902265787124634,0.8390554785728455,-0.4861905872821808,0.11692225188016891,0.008201723918318748
9.479684352874756,-0.05855649709701538,-0.7909895181655884,0.838674008846283,-0.4861905872821808,0.11272602528333664,0.008201723918318748
9.499751329421997,-0.0558861680328846,-0.7921339869499207,0.838674008846283,-0.4861905872821808,0.11196307092905045,0.00858320016413927
9.520110607147217,-0.05397878959774971,-0.7928969264030457,0.838674008846283,-0.4861905872821808,0.11158160120248795,0.008201723918318748
9.540212631225586,-0.053215838968753815,-0.7932783961296082,0.838674008846283,-0.4861905872821808,0.11615930497646332,0.008201723918318748
9.56028413772583,-0.053215838968753815,-0.7925154566764832,0.838674008846283,-0.4865720570087433,0.12226291000843048,0.008201723918318748
9.580451011657715,-0.053215838968753815,-0.7917525172233582,0.838674008846283,-0.4861905872821808,0.12722209095954895,0.008201723918318748
9.600493431091309,-0.05664911866188049,-0.7909895181655884,0.838674008846283,-0.4865720570087433,0.12912946939468384,0.008201723918318748
9.620569705963135,-0.05855649709701538,-0.7906080484390259,0.8390554785728455,-0.4865720570087433,0.12722209095954895,0.008201723918318748
9.640636205673218,-0.05970092490315437,-0.7902265787124634,0.8390554785728455,-0.4865720570087433,0.12531471252441406,0.008201723918318748
9.660735845565796,-0.06046387553215027,-0.7902265787124634,0.838674008846283,-0.4861905872821808,0.11768520623445511,0.008201723918318748
9.680794477462769,-0.05970092490315437,-0.7909895181655884,0.838674008846283,-0.4861905872821808,0.11158160120248795,0.008201723918318748
9.700896739959717,-0.054741740226745605,-0.7917525172233582,0.838674008846283,-0.4861905872821808,0.11005569249391556,0.008201723918318748
9.721002578735352,-0.05283436179161072,-0.7921339869499207,0.8382925391197205,-0.4861905872821808,0.11234454810619354,0.00858320016413927
9.741054058074951,-0.050164032727479935,-0.7917525172233582,0.8375295400619507,-0.4865720570087433,0.11348897218704224,0.008201723918318748
9.761160135269165,-0.05245288833975792,-0.7913710474967957,0.8375295400619507,-0.4865720570087433,0.12340734153985977,0.008201723918318748
9.781196117401123,-0.0555046908557415,-0.7902265787124634,0.8375295400619507,-0.4865720570087433,0.12836651504039764,0.008201723918318748
9.801303148269653,-0.05893797054886818,-0.7898451089859009,0.837911069393158,-0.4865720570087433,0.12989242374897003,0.0078202486038208
9.821453094482422,-0.06046387553215027,-0.7894636392593384,0.8382925391197205,-0.4865720570087433,0.12836651504039764,0.0078202486038208
9.841498136520386,-0.061226826161146164,-0.7898451089859009,0.838674008846283,-0.4865720570087433,0.11959258466959,0.008201723918318748
9.861615180969238,-0.06046387553215027,-0.7902265787124634,0.838674008846283,-0.4865720570087433,0.11463340371847153,0.008201723918318748
9.88165020942688,-0.057793546468019485,-0.7909895181655884,0.838674008846283,-0.4865720570087433,0.11272602528333664,0.008201723918318748
9.901722192764282,-0.0555046908557415,-0.7913710474967957,0.8382925391197205,-0.4865720570087433,0.11310750246047974,0.00858320016413927
9.92180871963501,-0.054741740226745605,-0.7917525172233582,0.837911069393158,-0.4865720570087433,0.11577782779932022,0.008201723918318748
9.941861629486084,-0.053215838968753815,-0.7913710474967957,0.837911069393158,-0.4865720570087433,0.12149996310472488,0.008201723918318748
9.961955308914185,-0.053215838968753815,-0.7906080484390259,0.837911069393158,-0.4865720570087433,0.12874799966812134,0.008201723918318748
9.982078313827515,-0.05664911866188049,-0.7898451089859009,0.837911069393158,-0.4865720570087433,0.12989242374897003,0.0078202486038208
10.002724885940552,-0.05893797054886818,-0.7898451089859009,0.837911069393158,-0.4865720570087433,0.12798504531383514,0.0078202486038208
10.02294397354126,-0.06084534898400307,-0.7898451089859009,0.8382925391197205,-0.4861905872821808,0.12569619715213776,0.0078202486038208
10.043026447296143,-0.06046387553215027,-0.7898451089859009,0.8382925391197205,-0.4861905872821808,0.11768520623445511,0.0078202486038208
10.063057661056519,-0.05893797054886818,-0.7902265787124634,0.8382925391197205,-0.4865720570087433,0.11348897218704224,0.008201723918318748
10.083189725875854,-0.0551232174038887,-0.7909895181655884,0.837911069393158,-0.4865720570087433,0.11158160120248795,0.008201723918318748
10.103269577026367,-0.05397878959774971,-0.7909895181655884,0.837911069393158,-0.4861905872821808,0.11272602528333664,0.008201723918318748
10.123469829559326,-0.053215838968753815,-0.7909895181655884,0.837911069393158,-0.4865720570087433,0.11654078215360641,0.008201723918318748
10.14347243309021,-0.053215838968753815,-0.7906080484390259,0.837911069393158,-0.4865720570087433,0.12417028844356537,0.0078202486038208
10.163546800613403,-0.05359731614589691,-0.7906080484390259,0.837911069393158,-0.4865720570087433,0.12798504531383514,0.0078202486038208
10.183631181716919,-0.05664911866188049,-0.7898451089859009,0.837911069393158,-0.4865720570087433,0.12989242374897003,0.007438773289322853
10.203721284866333,-0.05893797054886818,-0.7898451089859009,0.837911069393158,-0.4865720570087433,0.12951095402240753,0.007438773289322853
10.22377610206604,-0.06160829961299896,-0.7898451089859009,0.837911069393158,-0.4865720570087433,0.12760357558727264,0.0078202486038208
10.243941068649292,-0.06275273114442825,-0.7898451089859009,0.837911069393158,-0.4865720570087433,0.12073700875043869,0.0078202486038208
10.263946533203125,-0.05970092490315437,-0.7909895181655884,0.837911069393158,-0.4865720570087433,0.11348897218704224,0.0078202486038208
10.284865856170654,-0.05436026677489281,-0.7917525172233582,0.837911069393158,-0.4865720570087433,0.11158160120248795,0.008201723918318748
10.304959774017334,-0.05359731614589691,-0.7917525172233582,0.837911069393158,-0.4865720570087433,0.11348897218704224,0.008201723918318748
10.325042009353638,-0.053215838968753815,-0.7917525172233582,0.837911069393158,-0.4869535267353058,0.1192111074924469,0.007438773289322853
10.34509801864624,-0.05359731614589691,-0.7909895181655884,0.837911069393158,-0.4869535267353058,0.12760357558727264,0.0078202486038208
10.365249633789062,-0.057793546468019485,-0.7898451089859009,0.8382925391197205,-0.4869535267353058,0.12951095402240753,0.007438773289322853
10.385329008102417,-0.059319447726011276,-0.7898451089859009,0.8382925391197205,-0.4869535267353058,0.12912946939468384,0.007057297509163618
10.4054536819458,-0.059319447726011276,-0.7898451089859009,0.8390554785728455,-0.4865720570087433,0.12645913660526276,0.007057297509163618
10.425616979598999,-0.05970092490315437,-0.7898451089859009,0.838674008846283,-0.4865720570087433,0.1184481605887413,0.007438773289322853
10.445736169815063,-0.05893797054886818,-0.7909895181655884,0.838674008846283,-0.4865720570087433,0.11425192654132843,0.007438773289322853
10.4657564163208,-0.0558861680328846,-0.7921339869499207,0.8382925391197205,-0.4865720570087433,0.11387044936418533,0.0078202486038208
10.485854148864746,-0.053215838968753815,-0.7925154566764832,0.837911069393158,-0.4865720570087433,0.11387044936418533,0.0078202486038208
10.505962610244751,-0.05130846053361893,-0.7928969264030457,0.8371480703353882,-0.4865720570087433,0.11577782779932022,0.0078202486038208
10.526079416275024,-0.05130846053361893,-0.7921339869499207,0.8375295400619507,-0.4865720570087433,0.12188144028186798,0.0078202486038208
10.54619812965393,-0.05436026677489281,-0.7913710474967957,0.837911069393158,-0.4869535267353058,0.12874799966812134,0.007057297509163618
10.566236734390259,-0.058175019919872284,-0.7902265787124634,0.838674008846283,-0.4869535267353058,0.13027389347553253,0.00667582219466567
10.586329460144043,-0.05893797054886818,-0.7898451089859009,0.8390554785728455,-0.4865720570087433,0.12607766687870026,0.006294346414506435
10.60639476776123,-0.05970092490315437,-0.7898451089859009,0.839436948299408,-0.4865720570087433,0.1188296303153038,0.00667582219466567
10.626544713973999,-0.05970092490315437,-0.7898451089859009,0.8390554785728455,-0.4865720570087433,0.10929274559020996,0.007057297509163618
10.646657943725586,-0.05703059583902359,-0.7909895181655884,0.838674008846283,-0.4865720570087433,0.10738536715507507,0.007057297509163618
10.666754245758057,-0.054741740226745605,-0.7917525172233582,0.8375295400619507,-0.4865720570087433,0.10776684433221817,0.007438773289322853
10.687386989593506,-0.05283436179161072,-0.7921339869499207,0.8367666006088257,-0.4869535267353058,0.11005569249391556,0.007438773289322853
10.707495927810669,-0.05092698708176613,-0.7917525172233582,0.8367666006088257,-0.4869535267353058,0.11654078215360641,0.007438773289322853
10.727556705474854,-0.05092698708176613,-0.7909895181655884,0.8371480703353882,-0.4869535267353058,0.12378881871700287,0.00667582219466567
10.747761964797974,-0.054741740226745605,-0.7894636392593384,0.8375295400619507,-0.4869535267353058,0.12798504531383514,0.00667582219466567
10.76785945892334,-0.05855649709701538,-0.7887006998062134,0.837911069393158,-0.4869535267353058,0.12722209095954895,0.005531395319849253
10.788029432296753,-0.06084534898400307,-0.7887006998062134,0.837911069393158,-0.4869535267353058,0.12531471252441406,0.005531395319849253
10.80807375907898,-0.06198977679014206,-0.7890821695327759,0.837911069393158,-0.4869535267353058,0.1184481605887413,0.005531395319849253
10.828194618225098,-0.05970092490315437,-0.7898451089859009,0.837911069393158,-0.4869535267353058,0.11272602528333664,0.005531395319849253
10.848301887512207,-0.056267641484737396,-0.7909895181655884,0.8375295400619507,-0.4869535267353058,0.11081864684820175,0.005912871100008488
10.868406772613525,-0.054741740226745605,-0.7909895181655884,0.8375295400619507,-0.4869535267353058,0.11196307092905045,0.005912871100008488
10.888495683670044,-0.05207141116261482,-0.7909895181655884,0.8375295400619507,-0.4869535267353058,0.11234454810619354,0.005531395319849253
10.908612728118896,-0.051689937710762024,-0.7906080484390259,0.8375295400619507,-0.4869535267353058,0.11692225188016891,0.005531395319849253
10.928692817687988,-0.053215838968753815,-0.7898451089859009,0.8375295400619507,-0.4869535267353058,0.12111848592758179,0.005531395319849253
10.948781251907349,-0.05703059583902359,-0.7894636392593384,0.8375295400619507,-0.4869535267353058,0.12645913660526276,0.005149920005351305
10.968840599060059,-0.05855649709701538,-0.7894636392593384,0.8375295400619507,-0.4869535267353058,0.12760357558727264,0.005149920005351305
10.988948822021484,-0.06008239835500717,-0.7894636392593384,0.837911069393158,-0.4869535267353058,0.12455176562070847,0.005149920005351305
11.009012460708618,-0.06046387553215027,-0.7898451089859009,0.8375295400619507,-0.4869535267353058,0.1192111074924469,0.005149920005351305
11.029351711273193,-0.059319447726011276,-0.7902265787124634,0.8375295400619507,-0.4869535267353058,0.11234454810619354,0.005531395319849253
11.049445629119873,-0.0551232174038887,-0.7902265787124634,0.8375295400619507,-0.4865720570087433,0.11081864684820175,0.005531395319849253
11.069570541381836,-0.054741740226745605,-0.7902265787124634,0.8375295400619507,-0.4865720570087433,0.11234454810619354,0.005531395319849253
11.089656352996826,-0.05436026677489281,-0.7898451089859009,0.8375295400619507,-0.4869535267353058,0.11463340371847153,0.005531395319849253
11.109751224517822,-0.053215838968753815,-0.7898451089859009,0.8375295400619507,-0.4869535267353058,0.12111848592758179,0.005531395319849253
11.129971742630005,-0.05359731614589691,-0.7898451089859009,0.8375295400619507,-0.4869535267353058,0.12607766687870026,0.005531395319849253
11.15011978149414,-0.05741206929087639,-0.7894636392593384,0.8375295400619507,-0.4869535267353058,0.12684062123298645,0.005531395319849253
11.17021369934082,-0.05855649709701538,-0.7894636392593384,0.837911069393158,-0.4869535267353058,0.12607766687870026,0.005531395319849253
11.190296411514282,-0.06008239835500717,-0.7890821695327759,0.837911069393158,-0.4869535267353058,0.12226291000843048,0.005531395319849253
11.21049952507019,-0.06046387553215027,-0.7890821695327759,0.837911069393158,-0.4869535267353058,0.11463340371847153,0.005531395319849253
11.23056173324585,-0.05893797054886818,-0.7890821695327759,0.837911069393158,-0.4865720570087433,0.11158160120248795,0.005912871100008488
11.250677347183228,-0.0555046908557415,-0.7898451089859009,0.8375295400619507,-0.4865720570087433,0.11005569249391556,0.005912871100008488
11.270751476287842,-0.0551232174038887,-0.7898451089859009,0.8375295400619507,-0.4865720570087433,0.11234454810619354,0.006294346414506435
11.290842294692993,-0.0551232174038887,-0.7898451089859009,0.8371480703353882,-0.4865720570087433,0.1188296303153038,0.006294346414506435
11.311009168624878,-0.053215838968753815,-0.7898451089859009,0.8371480703353882,-0.4869535267353058,0.12378881871700287,0.005912871100008488
11.331388473510742,-0.05436026677489281,-0.7898451089859009,0.8371480703353882,-0.4865720570087433,0.12836651504039764,0.005912871100008488
11.351603031158447,-0.05741206929087639,-0.7894636392593384,0.837911069393158,-0.4865720570087433,0.12722209095954895,0.005531395319849253
11.371619939804077,-0.05855649709701538,-0.7890821695327759,0.837911069393158,-0.4865720570087433,0.12607766687870026,0.005531395319849253
11.391840934753418,-0.05970092490315437,-0.7887006998062134,0.837911069393158,-0.4865720570087433,0.12188144028186798,0.005912871100008488
11.412020921707153,-0.06008239835500717,-0.7887006998062134,0.837911069393158,-0.4865720570087433,0.11463340371847153,0.005912871100008488
11.432025909423828,-0.057793546468019485,-0.7898451089859009,0.8375295400619507,-0.4865720570087433,0.11043716967105865,0.006294346414506435
11.452339887619019,-0.05436026677489281,-0.7898451089859009,0.8375295400619507,-0.4865720570087433,0.11120012402534485,0.006294346414506435
11.472427368164062,-0.05283436179161072,-0.7898451089859009,0.8371480703353882,-0.4865720570087433,0.11425192654132843,0.006294346414506435
11.492491006851196,-0.051689937710762024,-0.7898451089859009,0.8367666006088257,-0.4865720570087433,0.12111848592758179,0.006294346414506435
11.512601613998413,-0.05436026677489281,-0.7898451089859009,0.8367666006088257,-0.4865720570087433,0.12645913660526276,0.005912871100008488
11.532660961151123,-0.05893797054886818,-0.7890821695327759,0.8371480703353882,-0.4865720570087433,0.12989242374897003,0.005531395319849253
11.552716970443726,-0.06008239835500717,-0.7890821695327759,0.8371480703353882,-0.4865720570087433,0.12874799966812134,0.005531395319849253
11.572807312011719,-0.05970092490315437,-0.7898451089859009,0.837911069393158,-0.4861905872821808,0.12226291000843048,0.005912871100008488
11.592888832092285,-0.05855649709701538,-0.7902265787124634,0.837911069393158,-0.4861905872821808,0.11387044936418533,0.005912871100008488
11.612968683242798,-0.0555046908557415,-0.7909895181655884,0.837911069393158,-0.4861905872821808,0.11196307092905045,0.006294346414506435
11.633076429367065,-0.053215838968753815,-0.7909895181655884,0.8375295400619507,-0.4861905872821808,0.11272602528333664,0.00667582219466567
11.653227090835571,-0.051689937710762024,-0.7917525172233582,0.8375295400619507,-0.4865720570087433,0.11348897218704224,0.007057297509163618
11.673280239105225,-0.05130846053361893,-0.7917525172233582,0.8375295400619507,-0.4861905872821808,0.11959258466959,0.007057297509163618
11.69338607788086,-0.053215838968753815,-0.7913710474967957,0.8375295400619507,-0.4865720570087433,0.12493324279785156,0.00667582219466567
11.713460445404053,-0.05664911866188049,-0.7902265787124634,0.837911069393158,-0.4865720570087433,0.12912946939468384,0.00667582219466567
11.733667373657227,-0.057793546468019485,-0.7902265787124634,0.837911069393158,-0.4865720570087433,0.12836651504039764,0.00667582219466567
11.75375771522522,-0.05855649709701538,-0.7898451089859009,0.8382925391197205,-0.4861905872821808,0.12302586436271667,0.007057297509163618
11.773818969726562,-0.05855649709701538,-0.7902265787124634,0.838674008846283,-0.4865720570087433,0.11501488089561462,0.007438773289322853
11.793907165527344,-0.05855649709701538,-0.7906080484390259,0.8382925391197205,-0.4865720570087433,0.11234454810619354,0.0078202486038208
11.813983917236328,-0.0551232174038887,-0.7909895181655884,0.8382925391197205,-0.4861905872821808,0.11158160120248795,0.008201723918318748
11.834038257598877,-0.05397878959774971,-0.7909895181655884,0.8375295400619507,-0.4861905872821808,0.11348897218704224,0.008201723918318748
11.854134321212769,-0.053215838968753815,-0.7909895181655884,0.8375295400619507,-0.4865720570087433,0.11615930497646332,0.008201723918318748
11.874217987060547,-0.053215838968753815,-0.7909895181655884,0.8375295400619507,-0.4865720570087433,0.12378881871700287,0.008201723918318748
11.89488697052002,-0.05397878959774971,-0.7902265787124634,0.8375295400619507,-0.4865720570087433,0.12760357558727264,0.008201723918318748
11.915091037750244,-0.057793546468019485,-0.7898451089859009,0.837911069393158,-0.4865720570087433,0.12760357558727264,0.0078202486038208
11.935087442398071,-0.05970092490315437,-0.7898451089859009,0.837911069393158,-0.4865720570087433,0.12531471252441406,0.008201723918318748
11.955189943313599,-0.06084534898400307,-0.7898451089859009,0.837911069393158,-0.4865720570087433,0.1203555315732956,0.008201723918318748
11.97531270980835,-0.06046387553215027,-0.7902265787124634,0.837911069393158,-0.4865720570087433,0.11425192654132843,0.008201723918318748
11.995357751846313,-0.05855649709701538,-0.7909895181655884,0.837911069393158,-0.4865720570087433,0.11120012402534485,0.008201723918318748
12.015447616577148,-0.05359731614589691,-0.7909895181655884,0.837911069393158,-0.4865720570087433,0.11120012402534485,0.00858320016413927
12.035528659820557,-0.05054550990462303,-0.7913710474967957,0.837911069393158,-0.4865720570087433,0.11158160120248795,0.00858320016413927
12.055615663528442,-0.05054550990462303,-0.7917525172233582,0.837911069393158,-0.4865720570087433,0.11768520623445511,0.00858320016413927
12.075764417648315,-0.05397878959774971,-0.7906080484390259,0.837911069393158,-0.4865720570087433,0.12455176562070847,0.008201723918318748
12.095800399780273,-0.05741206929087639,-0.7898451089859009,0.837911069393158,-0.4869535267353058,0.12951095402240753,0.0078202486038208
12.115910768508911,-0.059319447726011276,-0.7898451089859009,0.837911069393158,-0.4869535267353058,0.12874799966812134,0.0078202486038208
12.13597583770752,-0.06084534898400307,-0.7898451089859009,0.837911069393158,-0.4865720570087433,0.12378881871700287,0.0078202486038208
12.156053066253662,-0.06046387553215027,-0.7898451089859009,0.837911069393158,-0.4869535267353058,0.11539635062217712,0.008201723918318748
12.176162481307983,-0.05893797054886818,-0.7902265787124634,0.837911069393158,-0.4865720570087433,0.11234454810619354,0.008201723918318748
12.196215391159058,-0.056267641484737396,-0.7906080484390259,0.837911069393158,-0.4865720570087433,0.11005569249391556,0.008201723918318748
12.216268062591553,-0.054741740226745605,-0.7909895181655884,0.837911069393158,-0.4865720570087433,0.11120012402534485,0.00858320016413927
12.236385583877563,-0.05245288833975792,-0.7909895181655884,0.837911069393158,-0.4869535267353058,0.11425192654132843,0.008201723918318748
12.256468296051025,-0.05092698708176613,-0.7906080484390259,0.837911069393158,-0.4869535267353058,0.12073700875043869,0.008201723918318748
12.27660083770752,-0.053215838968753815,-0.7898451089859009,0.8375295400619507,-0.4869535267353058,0.12645913660526276,0.008201723918318748
12.29667854309082,-0.05741206929087639,-0.7894636392593384,0.837911069393158,-0.4869535267353058,0.12874799966812134,0.0078202486038208
12.316744804382324,-0.06008239835500717,-0.7894636392593384,0.837911069393158,-0.4869535267353058,0.12874799966812134,0.0078202486038208
12.336819887161255,-0.06084534898400307,-0.7898451089859009,0.837911069393158,-0.4869535267353058,0.12455176562070847,0.0078202486038208
12.356942653656006,-0.06084534898400307,-0.7898451089859009,0.8375295400619507,-0.4869535267353058,0.11692225188016891,0.008201723918318748
12.377541303634644,-0.05855649709701538,-0.7906080484390259,0.837911069393158,-0.4869535267353058,0.11043716967105865,0.008201723918318748
12.397646427154541,-0.054741740226745605,-0.7909895181655884,0.837911069393158,-0.4869535267353058,0.10929274559020996,0.00858320016413927
12.417758226394653,-0.053215838968753815,-0.7913710474967957,0.837911069393158,-0.4869535267353058,0.11005569249391556,0.00858320016413927
12.437885999679565,-0.05245288833975792,-0.7909895181655884,0.8375295400619507,-0.4869535267353058,0.11654078215360641,0.008201723918318748
12.457948207855225,-0.05245288833975792,-0.7906080484390259,0.8375295400619507,-0.4869535267353058,0.12188144028186798,0.008201723918318748
12.478044748306274,-0.0555046908557415,-0.7898451089859009,0.837911069393158,-0.4869535267353058,0.12798504531383514,0.0078202486038208
12.498150825500488,-0.06198977679014206,-0.7894636392593384,0.8382925391197205,-0.4873350262641907,0.13103684782981873,0.0078202486038208
12.51829719543457,-0.06694895774126053,-0.7894636392593384,0.8398184180259705,-0.4880979657173157,0.13141833245754242,0.005531395319849253
12.538321256637573,-0.0711451917886734,-0.7898451089859009,0.8413442969322205,-0.49114975333213806,0.12836651504039764,0.0032425422687083483
12.55848741531372,-0.07419699430465698,-0.7902265787124634,0.8440146446228027,-0.49305713176727295,0.12073700875043869,-0.0009536888683214784
12.57890272140503,-0.07686731964349747,-0.7909895181655884,0.8451590538024902,-0.4961089491844177,0.11463340371847153,-0.0078202486038208
12.598998069763184,-0.07839322835206985,-0.7921339869499207,0.8470664620399475,-0.499542236328125,0.10852979123592377,-0.014686808921396732
12.619116306304932,-0.07839322835206985,-0.7928969264030457,0.8478294014930725,-0.5029755234718323,0.10738536715507507,-0.023460745811462402
12.639153957366943,-0.07763027399778366,-0.7940413355827332,0.848210871219635,-0.5064088106155396,0.10891126841306686,-0.03223468363285065
12.65929889678955,-0.07648584991693497,-0.7948042750358582,0.8485923409461975,-0.5117494463920593,0.11272602528333664,-0.04139009863138199
12.679579496383667,-0.07610437273979187,-0.7951858043670654,0.8485923409461975,-0.5174715518951416,0.1199740618467331,-0.05283436179161072
12.699670791625977,-0.07686731964349747,-0.7951858043670654,0.8508812189102173,-0.5228122472763062,0.12836651504039764,-0.06427863240242004
12.719727277755737,-0.08030059933662415,-0.7951858043670654,0.8527885675430298,-0.5251010656356812,0.1337071806192398,-0.07495994865894318
12.739827156066895,-0.08525978773832321,-0.7951858043670654,0.8550774455070496,-0.5258640646934509,0.1337071806192398,-0.0864042118191719
12.75994873046875,-0.0871671661734581,-0.7951858043670654,0.8577477931976318,-0.5273899435997009,0.13141833245754242,-0.09517814964056015
12.780139684677124,-0.0875486359000206,-0.7955672740936279,0.8588922023773193,-0.5273899435997009,0.12645913660526276,-0.1024261862039566
12.800239086151123,-0.0871671661734581,-0.7967116832733154,0.8592736721038818,-0.5277714133262634,0.12149996310472488,-0.11081864684820175
12.820306062698364,-0.08602273464202881,-0.7974746227264404,0.8596551418304443,-0.5285343527793884,0.12226291000843048,-0.11959258466959
12.840378999710083,-0.08411535620689392,-0.7986190319061279,0.8596551418304443,-0.5304417610168457,0.12493324279785156,-0.12912946939468384
12.860486507415771,-0.08335240930318832,-0.7986190319061279,0.8607995510101318,-0.5334935784339905,0.13141833245754242,-0.14019227027893066
12.880549669265747,-0.08182650804519653,-0.7986190319061279,0.8619440197944641,-0.536163866519928,0.13752193748950958,-0.1489662081003189
12.900630474090576,-0.08373387902975082,-0.7974746227264404,0.8627069592475891,-0.5365453362464905,0.14209964871406555,-0.15812161564826965
12.920701265335083,-0.0871671661734581,-0.7963302135467529,0.8642328381538391,-0.5365453362464905,0.14248111844062805,-0.1668955534696579
12.940758228302002,-0.08907453715801239,-0.7959487438201904,0.8649957776069641,-0.536926805973053,0.14095520973205566,-0.17376211285591125
12.960857629776001,-0.08869306743144989,-0.7967116832733154,0.8649957776069641,-0.536926805973053,0.13790340721607208,-0.17872129380702972
12.980952501296997,-0.08907453715801239,-0.7970931529998779,0.8646143078804016,-0.5373083353042603,0.1337071806192398,-0.18635080754756927
13.001013994216919,-0.0883115902543068,-0.7982375621795654,0.8638513684272766,-0.5388342142105103,0.1340886503458023,-0.19398032128810883
13.021085977554321,-0.0864042118191719,-0.7986190319061279,0.8638513684272766,-0.5399786233901978,0.1348516047000885,-0.2004653960466385
13.04117727279663,-0.08525978773832321,-0.7986190319061279,0.8646143078804016,-0.5399786233901978,0.1371404528617859,-0.20771344006061554
13.06147289276123,-0.08449683338403702,-0.7982375621795654,0.8653773069381714,-0.5407415628433228,0.14286258816719055,-0.2161058932542801
13.081562280654907,-0.08411535620689392,-0.7970931529998779,0.8665217161178589,-0.54112309217453,0.14782176911830902,-0.22373540699481964
13.101633787155151,-0.08487831056118011,-0.7963302135467529,0.8672846555709839,-0.54112309217453,0.1489662081003189,-0.2294575423002243
13.121734857559204,-0.0871671661734581,-0.7959487438201904,0.8672846555709839,-0.5407415628433228,0.14858472347259521,-0.23556114733219147
13.141828060150146,-0.0879301130771637,-0.7963302135467529,0.8669031858444214,-0.5407415628433228,0.14667734503746033,-0.24128328263759613
13.161900520324707,-0.0879301130771637,-0.7970931529998779,0.8661402463912964,-0.54112309217453,0.14324407279491425,-0.2458609938621521
13.181976795196533,-0.0875486359000206,-0.7978560924530029,0.8657587766647339,-0.5407415628433228,0.14133669435977936,-0.2504386901855469
13.202077627182007,-0.08564125746488571,-0.7982375621795654,0.8657587766647339,-0.54112309217453,0.14133669435977936,-0.25539788603782654
13.222152948379517,-0.08411535620689392,-0.7986190319061279,0.8661402463912964,-0.54112309217453,0.14209964871406555,-0.2607385218143463
13.242232084274292,-0.08335240930318832,-0.7982375621795654,0.8661402463912964,-0.5407415628433228,0.14553292095661163,-0.2660791873931885
13.262309074401855,-0.08144503086805344,-0.7978560924530029,0.8661402463912964,-0.5407415628433228,0.1501106321811676,-0.2725642919540405
13.282662630081177,-0.08335240930318832,-0.7967116832733154,0.8665217161178589,-0.5403600931167603,0.15354390442371368,-0.2779049277305603
13.302906036376953,-0.0864042118191719,-0.7970931529998779,0.8665217161178589,-0.5407415628433228,0.15468832850456238,-0.28248265385627747
13.322888135910034,-0.0875486359000206,-0.7970931529998779,0.8665217161178589,-0.5403600931167603,0.15468832850456238,-0.28744181990623474
13.342995405197144,-0.0879301130771637,-0.7974746227264404,0.8665217161178589,-0.5403600931167603,0.14858472347259521,-0.290112167596817
13.36317253112793,-0.0871671661734581,-0.7982375621795654,0.8661402463912964,-0.5399786233901978,0.14438849687576294,-0.2946898639202118
13.38317584991455,-0.08525978773832321,-0.7993820309638977,0.8661402463912964,-0.5399786233901978,0.14362554252147675,-0.29812315106391907
13.403262376785278,-0.08220797777175903,-0.7993820309638977,0.8661402463912964,-0.5395971536636353,0.14324407279491425,-0.30117493867874146
13.423379182815552,-0.08106355369091034,-0.7993820309638977,0.8657587766647339,-0.5395971536636353,0.1489662081003189,-0.30498969554901123
13.443469285964966,-0.08068207651376724,-0.7990005612373352,0.8661402463912964,-0.5392156839370728,0.15583276748657227,-0.3091859221458435
13.46354055404663,-0.08449683338403702,-0.7990005612373352,0.8661402463912964,-0.5388342142105103,0.16079194843769073,-0.31452658772468567
13.483670234680176,-0.086785688996315,-0.7990005612373352,0.8665217161178589,-0.5380712747573853,0.16231784224510193,-0.31948578357696533
13.503845453262329,-0.08907453715801239,-0.7993820309638977,0.8669031858444214,-0.536926805973053,0.16117341816425323,-0.3233005404472351
13.523959159851074,-0.08907453715801239,-0.7993820309638977,0.8672846555709839,-0.535400927066803,0.15506981313228607,-0.32520791888237
13.543964862823486,-0.0883115902543068,-0.8001449704170227,0.8672846555709839,-0.535400927066803,0.1489662081003189,-0.3286411762237549
13.564059972763062,-0.08411535620689392,-0.8012893795967102,0.8669031858444214,-0.5350194573402405,0.14591439068317413,-0.33016708493232727
13.584247827529907,-0.08258945494890213,-0.8012893795967102,0.8669031858444214,-0.5350194573402405,0.14667734503746033,-0.33093002438545227
13.604282855987549,-0.08220797777175903,-0.8012893795967102,0.8665217161178589,-0.5350194573402405,0.1520180106163025,-0.33550775051116943
13.6244535446167,-0.08220797777175903,-0.8012893795967102,0.8665217161178589,-0.534637987613678,0.16002899408340454,-0.3416113555431366
13.644669771194458,-0.08297093212604523,-0.8009079098701477,0.8669031858444214,-0.5342565178871155,0.16308079659938812,-0.34580758213996887
13.665074348449707,-0.08525978773832321,-0.8009079098701477,0.8672846555709839,-0.5327305793762207,0.164988175034523,-0.34847790002822876
13.68514084815979,-0.0864042118191719,-0.8009079098701477,0.8680475950241089,-0.5312047004699707,0.164988175034523,-0.34885939955711365
13.705237627029419,-0.0871671661734581,-0.8012893795967102,0.8684290647506714,-0.5296788215637207,0.16041046380996704,-0.35038527846336365
13.725329399108887,-0.0875486359000206,-0.8012893795967102,0.8680475950241089,-0.5281528830528259,0.15545128285884857,-0.35229265689849854
13.745481252670288,-0.0864042118191719,-0.8020523190498352,0.8680475950241089,-0.5281528830528259,0.15354390442371368,-0.3542000353336334
13.765532493591309,-0.08449683338403702,-0.8024337887763977,0.8676661252975464,-0.5281528830528259,0.152399480342865,-0.3561074137687683
13.785660743713379,-0.08258945494890213,-0.802815318107605,0.8669031858444214,-0.5281528830528259,0.15354390442371368,-0.3568703830242157
13.805759906768799,-0.08220797777175903,-0.8031967878341675,0.8669031858444214,-0.5281528830528259,0.15888457000255585,-0.3603036403656006
13.826012134552002,-0.07991912961006165,-0.8031967878341675,0.8669031858444214,-0.5281528830528259,0.1653696447610855,-0.36602577567100525
13.846147298812866,-0.08258945494890213,-0.8031967878341675,0.8672846555709839,-0.5277714133262634,0.1684214472770691,-0.36907759308815
13.866384029388428,-0.08564125746488571,-0.802815318107605,0.8680475950241089,-0.5270084738731384,0.16994735598564148,-0.3721294105052948
13.886738538742065,-0.0864042118191719,-0.8031967878341675,0.8680475950241089,-0.5258640646934509,0.1661325991153717,-0.3740367889404297
13.90688180923462,-0.086785688996315,-0.80357825756073,0.8684290647506714,-0.5235751867294312,0.16041046380996704,-0.3740367889404297
13.926944017410278,-0.0864042118191719,-0.8039597272872925,0.8680475950241089,-0.5231937170028687,0.15545128285884857,-0.3744182586669922
13.947080373764038,-0.08335240930318832,-0.8047226667404175,0.8680475950241089,-0.5228122472763062,0.15583276748657227,-0.3744182586669922
13.967190742492676,-0.08182650804519653,-0.8054856061935425,0.8676661252975464,-0.5228122472763062,0.15697719156742096,-0.3747997283935547
13.987364768981934,-0.08030059933662415,-0.805867075920105,0.8669031858444214,-0.5231937170028687,0.15850308537483215,-0.3763256371021271
14.007532835006714,-0.07991912961006165,-0.805867075920105,0.8669031858444214,-0.5220493078231812,0.1653696447610855,-0.37823301553726196
14.027544498443604,-0.08106355369091034,-0.8054856061935425,0.8672846555709839,-0.5220493078231812,0.1684214472770691,-0.38128480315208435
14.047632455825806,-0.08373387902975082,-0.8054856061935425,0.8680475950241089,-0.5220493078231812,0.16994735598564148,-0.38319218158721924
14.06771993637085,-0.08525978773832321,-0.8054856061935425,0.8684290647506714,-0.5205233693122864,0.16880293190479279,-0.3843366205692291
14.08788514137268,-0.0871671661734581,-0.8054856061935425,0.8688105344772339,-0.5201418995857239,0.1653696447610855,-0.3854810297489166
14.107991695404053,-0.0875486359000206,-0.8054856061935425,0.8688105344772339,-0.5197604298591614,0.15850308537483215,-0.386243999004364
14.128090620040894,-0.0871671661734581,-0.8062485456466675,0.8688105344772339,-0.5193789601325989,0.15621423721313477,-0.386243999004364
14.148236274719238,-0.08411535620689392,-0.80663001537323,0.8684290647506714,-0.5193789601325989,0.15621423721313477,-0.3881513774394989
14.168392896652222,-0.08220797777175903,-0.80663001537323,0.8680475950241089,-0.5193789601325989,0.15812161564826965,-0.3904402256011963
14.188514471054077,-0.08030059933662415,-0.8070115447044373,0.8680475950241089,-0.5193789601325989,0.16155488789081573,-0.3915846347808838
14.20865273475647,-0.07953765243291855,-0.80663001537323,0.8680475950241089,-0.5186160206794739,0.1680399775505066,-0.3934920132160187
14.228663444519043,-0.08220797777175903,-0.80663001537323,0.8684290647506714,-0.5170900821685791,0.17071031033992767,-0.39463645219802856
14.249175548553467,-0.0871671661734581,-0.80663001537323,0.8688105344772339,-0.5163271427154541,0.17223620414733887,-0.39730677008628845
