liuyurong129/humanoid-gym/humanoid/data/actual_q_20250521-003240.csv
timestamp,joint_1,joint_2,joint_3,joint_4,joint_5,joint_6
2.7894973754882812e-05,0.00019073777366429567,0.17414358258247375,-0.0871671661734581,-0.00019073777366429567,0.00019073777366429567,-0.00019073777366429567
0.020128726959228516,-0.00019073777366429567,0.15354390442371368,-0.07877469807863235,-0.00019073777366429567,-0.000572213320992887,-0.00019073777366429567
0.04019951820373535,-0.00019073777366429567,0.13027389347553253,-0.06771191209554672,-0.00019073777366429567,0.000572213320992887,-0.000572213320992887
0.060239553451538086,-0.00019073777366429567,0.11348897218704224,-0.06084534898400307,-0.00019073777366429567,0.0020981156267225742,-0.000572213320992887
0.08032417297363281,-0.00019073777366429567,0.10738536715507507,-0.05703059583902359,0.00019073777366429567,0.000572213320992887,-0.00019073777366429567
0.10047388076782227,-0.000572213320992887,0.10662241280078888,-0.056267641484737396,0.00019073777366429567,0.000572213320992887,-0.000572213320992887
0.12046504020690918,-0.00019073777366429567,0.10700388997793198,-0.05436026677489281,-0.00019073777366429567,0.00019073777366429567,-0.000572213320992887
0.14057707786560059,-0.0009536888683214784,0.10662241280078888,-0.05245288833975792,0.00019073777366429567,0.00019073777366429567,-0.000572213320992887
0.1606438159942627,-0.001716639962978661,0.10624094307422638,-0.051689937710762024,0.00019073777366429567,0.000572213320992887,-0.000572213320992887
0.1807246208190918,-0.002861066721379757,0.10547798871994019,-0.051689937710762024,0.00019073777366429567,0.000572213320992887,-0.0009536888683214784
0.2007887363433838,-0.0036240178160369396,0.10433356463909149,-0.05130846053361893,0.00019073777366429567,0.000572213320992887,-0.0013351644156500697
0.22088193893432617,-0.00476844422519207,0.1028076633810997,-0.05054550990462303,0.00019073777366429567,0.000572213320992887,-0.0020981156267225742
0.2409534454345703,-0.005912871100008488,0.1024261862039566,-0.048638131469488144,0.00019073777366429567,0.00019073777366429567,-0.0024795911740511656
0.26099324226379395,-0.0078202486038208,0.1024261862039566,-0.04749370738863945,0.00019073777366429567,0.00019073777366429567,-0.0024795911740511656
0.2811133861541748,-0.008201723918318748,0.10128175467252731,-0.04634927958250046,0.00019073777366429567,0.00019073777366429567,-0.002861066721379757
0.3011939525604248,-0.008964675478637218,0.10051880776882172,-0.045204851776361465,0.00019073777366429567,-0.00019073777366429567,-0.002861066721379757
0.3212587833404541,-0.010109102353453636,0.09937438368797302,-0.04406042397022247,0.00019073777366429567,-0.00019073777366429567,-0.002861066721379757
0.3413529396057129,-0.010872052982449532,0.09822995215654373,-0.04329747334122658,0.00019073777366429567,-0.000572213320992887,-0.0032425422687083483
0.36150503158569336,-0.01201647985726595,0.09784847497940063,-0.042153049260377884,0.00019073777366429567,-0.000572213320992887,-0.0032425422687083483
0.38166284561157227,-0.013160906732082367,0.09708552807569504,-0.040627144277095795,0.00019073777366429567,-0.000572213320992887,-0.0032425422687083483
0.40171170234680176,-0.013923857361078262,0.09632257372140884,-0.0394827201962471,0.00019073777366429567,-0.000572213320992887,-0.0032425422687083483
0.42177581787109375,-0.01506828423589468,0.09517814964056015,-0.038719769567251205,0.00019073777366429567,-0.000572213320992887,-0.0032425422687083483
0.44200706481933594,-0.01583123579621315,0.09403372555971146,-0.03757534176111221,0.00019073777366429567,-0.0009536888683214784,-0.0036240178160369396
0.4621467590332031,-0.01735713705420494,0.09288929402828217,-0.03643091395497322,0.00019073777366429567,-0.0009536888683214784,-0.0036240178160369396
0.48221421241760254,-0.018120087683200836,0.09212634712457657,-0.03490501269698143,0.000572213320992887,-0.0013351644156500697,-0.004005493130534887
0.5023128986358643,-0.01926451548933983,0.09136339277029037,-0.03376058489084244,0.000572213320992887,-0.0020981156267225742,-0.004005493130534887
0.5223519802093506,-0.02040894143283367,0.09060044586658478,-0.03299763426184654,0.000572213320992887,-0.002861066721379757,-0.004005493130534887
0.5424561500549316,-0.021553369238972664,0.08983749151229858,-0.03147173300385475,0.000572213320992887,-0.0032425422687083483,-0.004386968910694122
0.5625202655792236,-0.02231631986796856,0.08869306743144989,-0.03032730519771576,0.000572213320992887,-0.0032425422687083483,-0.00476844422519207
0.5826373100280762,-0.02231631986796856,0.0879301130771637,-0.029182879254221916,0.0009536888683214784,-0.004005493130534887,-0.005912871100008488
0.6026673316955566,-0.02384222112596035,0.086785688996315,-0.027656977996230125,0.0009536888683214784,-0.004005493130534887,-0.005912871100008488
0.6227459907531738,-0.024986648932099342,0.08564125746488571,-0.025749599561095238,0.0009536888683214784,-0.004386968910694122,-0.006294346414506435
0.6428482532501221,-0.026131074875593185,0.08449683338403702,-0.024223696440458298,0.0013351644156500697,-0.00476844422519207,-0.006294346414506435
0.6629645824432373,-0.02727550081908703,0.08335240930318832,-0.023460745811462402,0.0013351644156500697,-0.005149920005351305,-0.006294346414506435
0.682959794998169,-0.02880140393972397,0.08297093212604523,-0.02231631986796856,0.001716639962978661,-0.006294346414506435,-0.006294346414506435
0.7031979560852051,-0.029564354568719864,0.08144503086805344,-0.021171892061829567,0.0020981156267225742,-0.00667582219466567,-0.00667582219466567
0.7232751846313477,-0.02994582988321781,0.08030059933662415,-0.01926451548933983,0.0020981156267225742,-0.00667582219466567,-0.00667582219466567
0.743366003036499,-0.030708782374858856,0.07953765243291855,-0.018120087683200836,0.0024795911740511656,-0.00667582219466567,-0.00667582219466567
0.7634100914001465,-0.03223468363285065,0.07839322835206985,-0.016594186425209045,0.002861066721379757,-0.007057297509163618,-0.007057297509163618
0.7837376594543457,-0.034142062067985535,0.07648584991693497,-0.01506828423589468,0.002861066721379757,-0.007057297509163618,-0.007057297509163618
0.803823709487915,-0.035667963325977325,0.07457847148180008,-0.012397955171763897,0.002861066721379757,-0.007057297509163618,-0.007057297509163618
0.8239068984985352,-0.03681239113211632,0.07343403995037079,-0.010872052982449532,0.0032425422687083483,-0.007057297509163618,-0.007438773289322853
0.8440289497375488,-0.037193864583969116,0.0722896158695221,-0.009346150793135166,0.0032425422687083483,-0.007438773289322853,-0.007438773289322853
0.8640687465667725,-0.03795681521296501,0.0711451917886734,-0.007438773289322853,0.0036240178160369396,-0.0078202486038208,-0.007438773289322853
0.8841378688812256,-0.0394827201962471,0.06961929053068161,-0.005531395319849253,0.0036240178160369396,-0.007438773289322853,-0.0078202486038208
0.9042916297912598,-0.04139009863138199,0.06885633617639542,-0.00476844422519207,0.0036240178160369396,-0.007438773289322853,-0.008201723918318748
0.9243168830871582,-0.04253452271223068,0.06733043491840363,-0.0036240178160369396,0.0036240178160369396,-0.0078202486038208,-0.00858320016413927
0.9443914890289307,-0.04329747334122658,0.06580453366041183,-0.001716639962978661,0.004005493130534887,-0.0078202486038208,-0.008964675478637218
0.9644625186920166,-0.04406042397022247,0.06389715522527695,0.00019073777366429567,0.004005493130534887,-0.0078202486038208,-0.009727626107633114
0.9845468997955322,-0.04482337832450867,0.06275273114442825,0.0024795911740511656,0.004386968910694122,-0.008201723918318748,-0.010490577667951584
1.0046780109405518,-0.04634927958250046,0.061226826161146164,0.004386968910694122,0.004386968910694122,-0.008201723918318748,-0.010490577667951584
1.02476167678833,-0.04787518084049225,0.05893797054886818,0.007438773289322853,0.00476844422519207,-0.00858320016413927,-0.010872052982449532
1.0448529720306396,-0.04940108209848404,0.05741206929087639,0.008964675478637218,0.005531395319849253,-0.008964675478637218,-0.01125352829694748
1.0649051666259766,-0.05130846053361893,0.056267641484737396,0.010872052982449532,0.00667582219466567,-0.009346150793135166,-0.01125352829694748
1.0849947929382324,-0.051689937710762024,0.05359731614589691,0.013160906732082367,0.007057297509163618,-0.009727626107633114,-0.011635004542768002
1.1050999164581299,-0.05245288833975792,0.05130846053361893,0.01583123579621315,0.007057297509163618,-0.010872052982449532,-0.01201647985726595
1.1251952648162842,-0.05397878959774971,0.049782559275627136,0.018501564860343933,0.007438773289322853,-0.01125352829694748,-0.012779430486261845
1.1452445983886719,-0.056267641484737396,0.04749370738863945,0.021171892061829567,0.007438773289322853,-0.01125352829694748,-0.013542382046580315
1.1653897762298584,-0.05855649709701538,0.04444190114736557,0.024605173617601395,0.007438773289322853,-0.011635004542768002,-0.013923857361078262
1.1854612827301025,-0.059319447726011276,0.042153049260377884,0.027656977996230125,0.007438773289322853,-0.01201647985726595,-0.013923857361078262
1.2055284976959229,-0.05970092490315437,0.04100862145423889,0.02994582988321781,0.0078202486038208,-0.01506828423589468,-0.01430533267557621
1.2255947589874268,-0.06084534898400307,0.039101243019104004,0.03223468363285065,0.008201723918318748,-0.01506828423589468,-0.01430533267557621
1.245743989944458,-0.06313420087099075,0.03604944050312042,0.03604944050312042,0.00858320016413927,-0.015449759550392628,-0.014686808921396732
1.2657725811004639,-0.06466010212898254,0.03337911143898964,0.0394827201962471,0.009346150793135166,-0.015449759550392628,-0.014686808921396732
1.2858386039733887,-0.06618601083755493,0.030708782374858856,0.04253452271223068,0.009727626107633114,-0.01506828423589468,-0.01506828423589468
1.3058910369873047,-0.06733043491840363,0.02727550081908703,0.04634927958250046,0.010109102353453636,-0.01583123579621315,-0.015449759550392628
1.3260266780853271,-0.06923781335353851,0.023460745811462402,0.051689937710762024,0.010490577667951584,-0.01583123579621315,-0.015449759550392628
1.3460867404937744,-0.0715266615152359,0.02040894143283367,0.0558861680328846,0.010872052982449532,-0.01583123579621315,-0.016212711110711098
1.3661868572235107,-0.07305257022380829,0.01735713705420494,0.05970092490315437,0.01125352829694748,-0.016212711110711098,-0.01773861236870289
1.386204481124878,-0.07381551712751389,0.01506828423589468,0.06313420087099075,0.011635004542768002,-0.016975661739706993,-0.018120087683200836
1.406322956085205,-0.07572289556264877,0.010490577667951584,0.06885633617639542,0.01201647985726595,-0.018120087683200836,-0.018501564860343933
1.4263978004455566,-0.07839322835206985,0.005531395319849253,0.07381551712751389,0.012397955171763897,-0.01773861236870289,-0.01888304017484188
1.4464259147644043,-0.08030059933662415,0.000572213320992887,0.07877469807863235,0.013160906732082367,-0.01773861236870289,-0.02079041674733162
1.466672420501709,-0.08182650804519653,-0.005912871100008488,0.08564125746488571,0.014686808921396732,-0.018120087683200836,-0.02193484455347061
1.486753225326538,-0.08373387902975082,-0.012397955171763897,0.09136339277029037,0.01506828423589468,-0.018120087683200836,-0.02231631986796856
1.5068321228027344,-0.08564125746488571,-0.01735713705420494,0.09784847497940063,0.015449759550392628,-0.018501564860343933,-0.02231631986796856
1.5269181728363037,-0.0875486359000206,-0.02231631986796856,0.1039520874619484,0.01583123579621315,-0.018501564860343933,-0.023079270496964455
1.547011137008667,-0.08983749151229858,-0.02880140393972397,0.11005569249391556,0.016975661739706993,-0.01926451548933983,-0.02384222112596035
1.5671584606170654,-0.09212634712457657,-0.03604944050312042,0.1192111074924469,0.018501564860343933,-0.01926451548933983,-0.02536812424659729
1.5872485637664795,-0.09441519528627396,-0.04406042397022247,0.12722209095954895,0.01888304017484188,-0.019645990803837776,-0.025749599561095238
1.6073002815246582,-0.09517814964056015,-0.05245288833975792,0.1359960287809372,0.01926451548933983,-0.01926451548933983,-0.026512550190091133
1.6273126602172852,-0.09746700525283813,-0.06198977679014206,0.14553292095661163,0.02040894143283367,-0.019645990803837776,-0.02727550081908703
1.6473987102508545,-0.10051880776882172,-0.071908138692379,0.15506981313228607,0.02231631986796856,-0.019645990803837776,-0.02994582988321781
1.6674926280975342,-0.1035706102848053,-0.08449683338403702,0.17109178006649017,0.02384222112596035,-0.020027466118335724,-0.030708782374858856
1.6875567436218262,-0.10662241280078888,-0.10051880776882172,0.18825818598270416,0.02536812424659729,-0.02040894143283367,-0.032616160809993744
1.7076168060302734,-0.11081864684820175,-0.12264438718557358,0.21152819693088531,0.02689402550458908,-0.02040894143283367,-0.03376058489084244
1.7277238368988037,-0.11501488089561462,-0.14476996660232544,0.23861294984817505,0.029564354568719864,-0.02040894143283367,-0.037193864583969116
1.7478139400482178,-0.1180666834115982,-0.17223620414733887,0.26913100481033325,0.032616160809993744,-0.02079041674733162,-0.04177157208323479
1.7678840160369873,-0.1199740618467331,-0.20695048570632935,0.3072785437107086,0.04177157208323479,-0.024223696440458298,-0.049782559275627136
1.7879366874694824,-0.12188144028186798,-0.2439536154270172,0.34580758213996887,0.050164032727479935,-0.024605173617601395,-0.061226826161146164
1.8082776069641113,-0.12188144028186798,-0.2809567451477051,0.38357365131378174,0.054741740226745605,-0.02384222112596035,-0.06961929053068161
1.828355073928833,-0.12149996310472488,-0.31757840514183044,0.4201953113079071,0.06237125024199486,-0.022697795182466507,-0.08297093212604523
1.8484234809875488,-0.1199740618467331,-0.361829549074173,0.464446485042572,0.07457847148180008,-0.021553369238972664,-0.1035706102848053
1.868499994277954,-0.11768520623445511,-0.4030289053916931,0.5033569931983948,0.08411535620689392,-0.01583123579621315,-0.1192111074924469
1.8885471820831299,-0.11272602528333664,-0.438506156206131,0.5395971536636353,0.09594109654426575,-0.011635004542768002,-0.14019227027893066
1.908653736114502,-0.11081864684820175,-0.46139466762542725,0.5609598159790039,0.11158160120248795,-0.006294346414506435,-0.1665140837430954
1.9287431240081787,-0.11158160120248795,-0.4690241813659668,0.5678263306617737,0.12874799966812134,0.0020981156267225742,-0.1970321238040924
1.9487838745117188,-0.11158160120248795,-0.4659723937511444,0.5636301040649414,0.14705882966518402,0.005912871100008488,-0.2317463904619217
1.968867540359497,-0.11577782779932022,-0.46025025844573975,0.5556191205978394,0.15506981313228607,0.008201723918318748,-0.25158312916755676
1.9889299869537354,-0.12264438718557358,-0.4533836841583252,0.5498970150947571,0.164988175034523,0.009727626107633114,-0.2733272314071655
2.00901198387146,-0.12188144028186798,-0.4499503970146179,0.5476081371307373,0.19321736693382263,-0.0020981156267225742,-0.31528952717781067
2.029064416885376,-0.1192111074924469,-0.44537270069122314,0.54264897108078,0.21076524257659912,-0.007057297509163618,-0.33474478125572205
2.0491812229156494,-0.12569619715213776,-0.438506156206131,0.5388342142105103,0.2298390120267868,-0.018501564860343933,-0.3614480793476105
2.069267988204956,-0.13103684782981873,-0.4331654906272888,0.5327305793762207,0.24319066107273102,-0.022697795182466507,-0.3873884081840515
2.0893442630767822,-0.12798504531383514,-0.42935073375701904,0.5277714133262634,0.2481498420238495,-0.02841992862522602,-0.403410404920578
2.109402656555176,-0.13103684782981873,-0.43087664246559143,0.5258640646934509,0.2599755823612213,-0.02689402550458908,-0.4228656589984894
2.129894733428955,-0.1359960287809372,-0.4346913993358612,0.5270084738731384,0.2763790488243103,-0.02536812424659729,-0.44232088327407837
2.149977445602417,-0.1337071806192398,-0.4404135048389435,0.5300602912902832,0.28629741072654724,-0.02384222112596035,-0.45757991075515747
2.1700375080108643,-0.13179980218410492,-0.44537270069122314,0.535400927066803,0.2962157726287842,-0.026512550190091133,-0.4686427116394043
2.1900997161865234,-0.14171816408634186,-0.44766154885292053,0.5388342142105103,0.32101166248321533,-0.02536812424659729,-0.48962387442588806
2.210216522216797,-0.14629587531089783,-0.44804301857948303,0.5388342142105103,0.3374151289463043,-0.01735713705420494,-0.5052643418312073
2.2303006649017334,-0.14286258816719055,-0.44689860939979553,0.5384527444839478,0.34580758213996887,-0.020027466118335724,-0.5117494463920593
2.250359296798706,-0.14171816408634186,-0.44689860939979553,0.534637987613678,0.3576333224773407,-0.02384222112596035,-0.5197604298591614
2.2705729007720947,-0.14171816408634186,-0.4503318965435028,0.5331120491027832,0.3717479109764099,-0.024986648932099342,-0.536926805973053
2.2905619144439697,-0.14171816408634186,-0.4541466534137726,0.533875048160553,0.3774700462818146,-0.025749599561095238,-0.5430304408073425
2.310655117034912,-0.14095520973205566,-0.46025025844573975,0.5350194573402405,0.38166627287864685,-0.024605173617601395,-0.5483710765838623
2.330716848373413,-0.14057374000549316,-0.46253910660743713,0.536926805973053,0.38357365131378174,-0.024986648932099342,-0.5525673031806946
2.3509464263916016,-0.14057374000549316,-0.46330204606056213,0.5437933802604675,0.3892957866191864,-0.024223696440458298,-0.5571450591087341
2.3710227012634277,-0.13904783129692078,-0.46368351578712463,0.5464637279510498,0.3999771177768707,-0.02193484455347061,-0.5632486343383789
2.3911561965942383,-0.13866636157035828,-0.46368351578712463,0.5460822582244873,0.4045548141002655,-0.016594186425209045,-0.5655375123023987
2.411162853240967,-0.13866636157035828,-0.46177613735198975,0.54264897108078,0.41332876682281494,-0.018120087683200836,-0.568970799446106
2.4312570095062256,-0.13904783129692078,-0.4713130295276642,0.541886031627655,0.4354543387889862,-0.018501564860343933,-0.5857557058334351
2.451340913772583,-0.13866636157035828,-0.47817960381507874,0.5430304408073425,0.4495689272880554,-0.018120087683200836,-0.5987258553504944
2.471423864364624,-0.13828489184379578,-0.4858091175556183,0.5430304408073425,0.4518577754497528,-0.01735713705420494,-0.6002517938613892
2.4915027618408203,-0.13828489184379578,-0.4873350262641907,0.541886031627655,0.4526207447052002,-0.025749599561095238,-0.6025406122207642
2.51157808303833,-0.13866636157035828,-0.4869535267353058,0.543411910533905,0.4530022144317627,-0.02994582988321781,-0.6025406122207642
2.5317015647888184,-0.13866636157035828,-0.4858091175556183,0.5491340756416321,0.4541466534137726,-0.02536812424659729,-0.6029220819473267
2.551711082458496,-0.1367589831352234,-0.4858091175556183,0.5510414242744446,0.4674982726573944,-0.023079270496964455,-0.613603413105011
2.57175612449646,-0.13752193748950958,-0.4854276478290558,0.5491340756416321,0.47779813408851624,-0.01506828423589468,-0.620088517665863
2.591843605041504,-0.14133669435977936,-0.4854276478290558,0.5529488325119019,0.4983977973461151,-0.010109102353453636,-0.6399252414703369
2.6119234561920166,-0.14019227027893066,-0.4865720570087433,0.5544747114181519,0.5094605684280396,-0.016975661739706993,-0.6563286781311035
2.6320302486419678,-0.13790340721607208,-0.49305713176727295,0.5563820600509644,0.5174715518951416,-0.01201647985726595,-0.6696802973747253
2.6520802974700928,-0.13981078565120697,-0.4957274794578552,0.5617227554321289,0.5319676399230957,-0.018120087683200836,-0.6834134459495544
2.672177791595459,-0.1367589831352234,-0.4968718886375427,0.5628671646118164,0.5399786233901978,-0.01735713705420494,-0.6940947771072388
2.692331552505493,-0.13828489184379578,-0.4968718886375427,0.5636301040649414,0.5560005903244019,-0.01583123579621315,-0.7108796834945679
2.712364912033081,-0.14782176911830902,-0.4964904189109802,0.5632486343383789,0.572022557258606,-0.00476844422519207,-0.7265201807022095
2.7323551177978516,-0.14705882966518402,-0.4964904189109802,0.5628671646118164,0.576218843460083,-0.006294346414506435,-0.7364385724067688
2.7524349689483643,-0.14324407279491425,-0.4968718886375427,0.5651560425758362,0.5815594792366028,-0.006294346414506435,-0.7440680265426636
2.7724995613098145,-0.14171816408634186,-0.4999237060546875,0.5682078003883362,0.5930037498474121,-0.016212711110711098,-0.7562752962112427
2.792609214782715,-0.14095520973205566,-0.5025940537452698,0.5678263306617737,0.6006332635879517,-0.010109102353453636,-0.76276034116745
2.8126542568206787,-0.14057374000549316,-0.5033569931983948,0.572022557258606,0.6147478222846985,-0.0078202486038208,-0.7768749594688416
2.8327598571777344,-0.13981078565120697,-0.506790280342102,0.5766003131866455,0.6273365616798401,-0.009727626107633114,-0.7902265787124634
2.85286283493042,-0.13790340721607208,-0.5094605684280396,0.5766003131866455,0.6311513185501099,0.0024795911740511656,-0.7978560924530029
2.872986316680908,-0.13828489184379578,-0.509079098701477,0.576981782913208,0.6414511203765869,0.0036240178160369396,-0.80510413646698
2.893052816390991,-0.14820325374603271,-0.5094605684280396,0.5804150700569153,0.657473087310791,-0.00019073777366429567,-0.8180742859840393
2.9131245613098145,-0.14782176911830902,-0.5125123858451843,0.5811780095100403,0.6628137826919556,-0.0024795911740511656,-0.8260852694511414
2.933206558227539,-0.14553292095661163,-0.5148012638092041,0.5834668278694153,0.6670100092887878,-0.001716639962978661,-0.8276112079620361
2.953274726867676,-0.14324407279491425,-0.5159456729888916,0.5884260535240173,0.6754024624824524,-0.011635004542768002,-0.8318074345588684
2.9733948707580566,-0.13904783129692078,-0.5186160206794739,0.5918593406677246,0.6853207945823669,-0.012397955171763897,-0.8421072959899902
2.9935972690582275,-0.13866636157035828,-0.5205233693122864,0.5895704627037048,0.6914244294166565,-0.0009536888683214784,-0.8485923409461975
3.0136609077453613,-0.13866636157035828,-0.5205233693122864,0.5903334021568298,0.7017242908477783,0.005912871100008488,-0.8569847941398621
3.0336802005767822,-0.13828489184379578,-0.5220493078231812,0.5975814461708069,0.7116426229476929,-0.000572213320992887,-0.8691920638084412
3.0537476539611816,-0.1359960287809372,-0.5273899435997009,0.5975814461708069,0.7169833183288574,0.008964675478637218,-0.8794918656349182
3.0738439559936523,-0.13904783129692078,-0.5262455344200134,0.5998703241348267,0.733386754989624,0.016594186425209045,-0.892080545425415
3.093904733657837,-0.13866636157035828,-0.5235751867294312,0.5964370369911194,0.7417792081832886,0.01125352829694748,-0.8981841802597046
3.113975763320923,-0.13981078565120697,-0.5258640646934509,0.5964370369911194,0.7501716613769531,0.010109102353453636,-0.9084840416908264
3.134018659591675,-0.13942931592464447,-0.5308232307434082,0.6048294901847839,0.7585641145706177,0.00476844422519207,-0.9187838435173035
3.1541271209716797,-0.1363775134086609,-0.5392156839370728,0.6101701259613037,0.7631418108940125,0.01201647985726595,-0.9275577664375305
3.1742289066314697,-0.1337071806192398,-0.543411910533905,0.6101701259613037,0.775730550289154,0.020027466118335724,-0.9382390975952148
3.1943039894104004,-0.13942931592464447,-0.5384527444839478,0.6048294901847839,0.7864118218421936,0.01735713705420494,-0.9458686113357544
3.2143425941467285,-0.14248111844062805,-0.536926805973053,0.6036850810050964,0.7898451089859009,0.012779430486261845,-0.954261064529419
3.2344422340393066,-0.13828489184379578,-0.5376898050308228,0.6044480204582214,0.7951858043670654,0.012397955171763897,-0.962272047996521
3.254503011703491,-0.14209964871406555,-0.5399786233901978,0.6109330654144287,0.8047226667404175,0.007057297509163618,-0.9668498039245605
3.2745771408081055,-0.14667734503746033,-0.5395971536636353,0.612840473651886,0.8081559538841248,0.010109102353453636,-0.9706645011901855
3.294617176055908,-0.14553292095661163,-0.5392156839370728,0.6124590039253235,0.8096818327903748,0.011635004542768002,-0.9752422571182251
3.314696788787842,-0.14400701224803925,-0.5384527444839478,0.6086442470550537,0.8134965896606445,0.01125352829694748,-0.9756237268447876
3.334798812866211,-0.14744029939174652,-0.5395971536636353,0.6101701259613037,0.8241779208183289,0.008964675478637218,-0.9813458323478699
3.3548617362976074,-0.14782176911830902,-0.5422675013542175,0.6116960644721985,0.8279926776885986,0.007057297509163618,-0.9828717708587646
3.374932050704956,-0.14209964871406555,-0.5468451976776123,0.613603413105011,0.8310444951057434,0.00858320016413927,-0.9866865277290344
3.395054817199707,-0.14095520973205566,-0.5491340756416321,0.620088517665863,0.8363851308822632,0.004005493130534887,-0.9897382855415344
3.415106773376465,-0.14057374000549316,-0.5491340756416321,0.6212329268455505,0.8398184180259705,0.006294346414506435,-0.995078980922699
3.4351541996002197,-0.14057374000549316,-0.5483710765838623,0.6204699873924255,0.8421072959899902,0.013160906732082367,-0.9962233901023865
3.4552066326141357,-0.14095520973205566,-0.5468451976776123,0.6189440488815308,0.8451590538024902,0.015449759550392628,-0.9969863295555115
3.47528338432312,-0.14095520973205566,-0.5468451976776123,0.612840473651886,0.8497368097305298,0.018501564860343933,-0.9992752075195312
3.495349645614624,-0.14133669435977936,-0.5468451976776123,0.615129292011261,0.8546959757804871,0.007057297509163618,-1.0023269653320312
3.5154213905334473,-0.135233074426651,-0.5518043637275696,0.6189440488815308,0.8569847941398621,0.002861066721379757,-1.0053788423538208
3.5354881286621094,-0.13027389347553253,-0.5571450591087341,0.6219958662986755,0.8592736721038818,0.007057297509163618,-1.0095750093460083
3.5556211471557617,-0.1337071806192398,-0.5594338774681091,0.6258106231689453,0.8619440197944641,0.005531395319849253,-1.0114823579788208
3.5756723880767822,-0.1356145590543747,-0.5594338774681091,0.6250476837158203,0.8642328381538391,0.013542382046580315,-1.0168230533599854
3.5957555770874023,-0.1348516047000885,-0.5582894682884216,0.622377336025238,0.8676661252975464,0.021171892061829567,-1.0210193395614624
3.615809917449951,-0.14133669435977936,-0.5571450591087341,0.619325578212738,0.8760585784912109,0.02536812424659729,-1.0240710973739624
3.6359057426452637,-0.14476996660232544,-0.5567635893821716,0.619325578212738,0.8794918656349182,0.015449759550392628,-1.0263599157333374
3.6559629440307617,-0.14095520973205566,-0.5582894682884216,0.6197070479393005,0.8813992738723755,0.012397955171763897,-1.0297932624816895
3.676008701324463,-0.13904783129692078,-0.5598153471946716,0.6235218048095703,0.8863584399223328,0.005912871100008488,-1.0297932624816895
3.696091890335083,-0.13828489184379578,-0.5609598159790039,0.6254291534423828,0.8878843188285828,0.004386968910694122,-1.032463550567627
3.7161712646484375,-0.13752193748950958,-0.5605783462524414,0.6227588057518005,0.890554666519165,0.01735713705420494,-1.0362783670425415
3.7363314628601074,-0.1363775134086609,-0.5590524077415466,0.6185625791549683,0.8947508931159973,0.02689402550458908,-1.0385671854019165
3.75632905960083,-0.14095520973205566,-0.5582894682884216,0.6204699873924255,0.8989471197128296,0.02536812424659729,-1.0416189432144165
3.7764458656311035,-0.1337071806192398,-0.5605783462524414,0.6246662139892578,0.9031433463096619,0.013160906732082367,-1.0496299266815186
3.796492576599121,-0.134470134973526,-0.5647745728492737,0.6246662139892578,0.9077210426330566,0.019645990803837776,-1.051918864250183
3.816563129425049,-0.14209964871406555,-0.5655375123023987,0.6269550919532776,0.9134432077407837,0.013160906732082367,-1.055733561515808
3.8368608951568604,-0.14248111844062805,-0.5651560425758362,0.6273365616798401,0.9138246774673462,0.0078202486038208,-1.0591669082641602
3.856943130493164,-0.14095520973205566,-0.5647745728492737,0.6284809708595276,0.916113555431366,0.00667582219466567,-1.0603113174438477
3.877023458480835,-0.14057374000549316,-0.5647745728492737,0.6322957277297974,0.918402373790741,0.0020981156267225742,-1.0614557266235352
3.8971123695373535,-0.14057374000549316,-0.5651560425758362,0.6300068497657776,0.9225986003875732,0.005912871100008488,-1.0660333633422852
3.9171507358551025,-0.13942931592464447,-0.5651560425758362,0.6280995011329651,0.9252689480781555,0.015449759550392628,-1.0706111192703247
3.937239646911621,-0.14095520973205566,-0.5643930435180664,0.6326771974563599,0.9294651746749878,0.011635004542768002,-1.0740443468093872
3.9573192596435547,-0.14171816408634186,-0.5666819214820862,0.6315327882766724,0.9332799315452576,0.014686808921396732,-1.0809109210968018
3.9773988723754883,-0.14057374000549316,-0.5666819214820862,0.6311513185501099,0.9355688095092773,0.013160906732082367,-1.0835813283920288
3.9974870681762695,-0.14057374000549316,-0.5663004517555237,0.6361104846000671,0.9397650361061096,0.005149920005351305,-1.0854886770248413
4.0175697803497314,-0.13752193748950958,-0.5678263306617737,0.6380178332328796,0.9420538544654846,0.005149920005351305,-1.0885404348373413
4.037633419036865,-0.13752193748950958,-0.568970799446106,0.6357290148735046,0.9447242021560669,0.012779430486261845,-1.0889219045639038
4.057738304138184,-0.13866636157035828,-0.5685893297195435,0.6357290148735046,0.9473945498466492,0.01583123579621315,-1.0904479026794434
4.077808380126953,-0.1367589831352234,-0.568970799446106,0.6372548937797546,0.9508277773857117,0.010109102353453636,-1.0950255393981934
4.097901105880737,-0.135233074426651,-0.5708781480789185,0.6330586671829224,0.954261064529419,0.01735713705420494,-1.098840355873108
4.117964744567871,-0.135233074426651,-0.571259617805481,0.6326771974563599,0.9554055333137512,0.013923857361078262,-1.1007477045059204
4.138035297393799,-0.135233074426651,-0.5708781480789185,0.6345845460891724,0.9573128819465637,0.008201723918318748,-1.1037994623184204
4.158095359802246,-0.13218127191066742,-0.5716410875320435,0.6380178332328796,0.9584572911262512,0.005912871100008488,-1.107614278793335
4.178241014480591,-0.13065537810325623,-0.5716410875320435,0.6368734240531921,0.960746169090271,0.01583123579621315,-1.1079957485198975
4.198329210281372,-0.1337071806192398,-0.570496678352356,0.6353475451469421,0.9637979865074158,0.018501564860343933,-1.10837721824646
4.218361854553223,-0.1367589831352234,-0.570496678352356,0.6311513185501099,0.9664682745933533,0.02384222112596035,-1.112191915512085
4.238439083099365,-0.12951095402240753,-0.5708781480789185,0.6311513185501099,0.969520092010498,0.013542382046580315,-1.1152437925338745
4.258527040481567,-0.13141833245754242,-0.5731670260429382,0.6319142580032349,0.9725719094276428,0.01201647985726595,-1.1152437925338745
4.2785866260528564,-0.1367589831352234,-0.576218843460083,0.6338216066360474,0.9729533791542053,0.009346150793135166,-1.116388201713562
4.298654317855835,-0.135233074426651,-0.576218843460083,0.6357290148735046,0.9733348488807678,0.009727626107633114,-1.120965838432312
4.318787336349487,-0.13218127191066742,-0.5743114352226257,0.6395437717437744,0.9771496057510376,0.008201723918318748,-1.122873306274414
4.3388800621032715,-0.13218127191066742,-0.5727855563163757,0.6399252414703369,0.9798199534416199,0.01506828423589468,-1.1232547760009766
4.359009027481079,-0.1337071806192398,-0.571259617805481,0.6391623020172119,0.9821087718009949,0.018120087683200836,-1.1232547760009766
4.379016160964966,-0.1333257108926773,-0.570496678352356,0.6368734240531921,0.9828717708587646,0.021171892061829567,-1.1247806549072266
4.399068355560303,-0.13942931592464447,-0.570496678352356,0.6338216066360474,0.9863049983978271,0.02079041674733162,-1.126688003540039
4.419146776199341,-0.14171816408634186,-0.572022557258606,0.6338216066360474,0.9882124066352844,0.015449759550392628,-1.1297398805618286
4.439233064651489,-0.14019227027893066,-0.5750743746757507,0.6349660754203796,0.9893568158149719,0.01201647985726595,-1.1320286989212036
4.45929741859436,-0.13981078565120697,-0.5754558444023132,0.6372548937797546,0.9908827543258667,0.005531395319849253,-1.1324101686477661
4.479344606399536,-0.14057374000549316,-0.5758373141288757,0.6425955891609192,0.9912642240524292,0.0032425422687083483,-1.1324101686477661
4.499518156051636,-0.13828489184379578,-0.5754558444023132,0.6441214680671692,0.9920271635055542,0.009346150793135166,-1.1327916383743286
4.519579887390137,-0.1371404528617859,-0.5746929049491882,0.6433585286140442,0.9935530424118042,0.01735713705420494,-1.1327916383743286
4.539612531661987,-0.1371404528617859,-0.5735484957695007,0.6425955891609192,0.9939345121383667,0.020027466118335724,-1.1327916383743286
4.559685945510864,-0.1363775134086609,-0.5739299654960632,0.6391623020172119,0.994316041469574,0.02040894143283367,-1.1331731081008911
4.579770565032959,-0.14019227027893066,-0.5739299654960632,0.6387808322906494,0.9981307983398438,0.020027466118335724,-1.1358433961868286
4.599844455718994,-0.14133669435977936,-0.5766003131866455,0.6391623020172119,0.9985122680664062,0.01125352829694748,-1.1377508640289307
4.6199235916137695,-0.14057374000549316,-0.5781261920928955,0.6410696506500244,1.0000381469726562,0.004386968910694122,-1.1377508640289307
4.639980316162109,-0.14171816408634186,-0.578507661819458,0.6460288166999817,1.0019454956054688,0.00019073777366429567,-1.1377508640289307
4.66006326675415,-0.1371404528617859,-0.5781261920928955,0.6448844075202942,1.0027084350585938,0.010490577667951584,-1.1385138034820557
4.6801745891571045,-0.1363775134086609,-0.577744722366333,0.6433585286140442,1.0042344331741333,0.01583123579621315,-1.1385138034820557
4.700268268585205,-0.13790340721607208,-0.577744722366333,0.6406881809234619,1.0049973726272583,0.020027466118335724,-1.1396582126617432
4.720400810241699,-0.1340886503458023,-0.577744722366333,0.6383993029594421,1.0088120698928833,0.02040894143283367,-1.1430914402008057
4.740505218505859,-0.1348516047000885,-0.5788891315460205,0.6387808322906494,1.0126268863677979,0.01506828423589468,-1.1449989080429077
4.760573863983154,-0.13828489184379578,-0.5819409489631653,0.6418325901031494,1.0133898258209229,0.00476844422519207,-1.1488136053085327
4.780611515045166,-0.13828489184379578,-0.5823224186897278,0.6441214680671692,1.0137712955474854,0.0013351644156500697,-1.1518653631210327
4.800682067871094,-0.1348516047000885,-0.5815594792366028,0.6490806341171265,1.0152971744537354,-0.000572213320992887,-1.1514838933944702
4.820767402648926,-0.1325627565383911,-0.5807965397834778,0.6490806341171265,1.0168230533599854,0.008964675478637218,-1.1514838933944702
4.840818881988525,-0.1329442262649536,-0.580033540725708,0.648699164390564,1.0191118717193604,0.010872052982449532,-1.1514838933944702
4.8608949184417725,-0.1333257108926773,-0.580033540725708,0.6464102864265442,1.0191118717193604,0.012397955171763897,-1.1522468328475952
4.880994081497192,-0.1363775134086609,-0.580033540725708,0.6448844075202942,1.021400809288025,0.01583123579621315,-1.1530098915100098
4.901074171066284,-0.13828489184379578,-0.5815594792366028,0.6483176946640015,1.02216374874115,0.002861066721379757,-1.1568245887756348
4.921114206314087,-0.135233074426651,-0.5846112966537476,0.6490806341171265,1.02216374874115,0.004386968910694122,-1.1598763465881348
4.9411985874176025,-0.1348516047000885,-0.5838482975959778,0.654421329498291,1.024452567100525,0.00019073777366429567,-1.1598763465881348
4.961266279220581,-0.14171816408634186,-0.5823224186897278,0.655184268951416,1.0267413854599,0.008201723918318748,-1.1602579355239868
4.981346130371094,-0.14362554252147675,-0.5815594792366028,0.6548027992248535,1.0267413854599,0.013923857361078262,-1.1629282236099243
5.0014026165008545,-0.14286258816719055,-0.5804150700569153,0.6506065726280212,1.0290303230285645,0.019645990803837776,-1.1629282236099243
5.021490812301636,-0.14515145123004913,-0.580033540725708,0.6521324515342712,1.032463550567627,0.02079041674733162,-1.1636911630630493
5.041568040847778,-0.14553292095661163,-0.5804150700569153,0.654421329498291,1.033226490020752,0.006294346414506435,-1.1652170419692993
5.061721086502075,-0.14133669435977936,-0.5842298269271851,0.6548027992248535,1.032463550567627,0.005912871100008488,-1.1678873300552368
5.081725835800171,-0.13828489184379578,-0.5857557058334351,0.6589990258216858,1.033226490020752,-0.00019073777366429567,-1.1682689189910889
5.101841926574707,-0.14286258816719055,-0.5846112966537476,0.6612878441810608,1.0343708992004395,-0.0013351644156500697,-1.1709392070770264
5.121884107589722,-0.14400701224803925,-0.5834668278694153,0.6605249047279358,1.0351338386535645,0.007438773289322853,-1.1743724346160889
5.141967535018921,-0.14362554252147675,-0.5827038884162903,0.6582360863685608,1.0362783670425415,0.011635004542768002,-1.1743724346160889
5.162006139755249,-0.14438849687576294,-0.5827038884162903,0.6555657386779785,1.0416189432144165,0.009346150793135166,-1.1755168437957764
5.182095050811768,-0.14591439068317413,-0.5830853581428528,0.656710147857666,1.0450522899627686,0.0020981156267225742,-1.1755168437957764
5.202221155166626,-0.14362554252147675,-0.5857557058334351,0.6586175560951233,1.046196699142456,0.000572213320992887,-1.1766613721847534
5.222344160079956,-0.14019227027893066,-0.5884260535240173,0.6609063744544983,1.046959638595581,-0.0024795911740511656,-1.177805781364441
5.24237585067749,-0.13942931592464447,-0.5884260535240173,0.6647211313247681,1.046959638595581,-0.00858320016413927,-1.1789501905441284
5.262602806091309,-0.13828489184379578,-0.5876630544662476,0.6631952524185181,1.046959638595581,0.0020981156267225742,-1.1804760694503784
5.2826902866363525,-0.13866636157035828,-0.5857557058334351,0.6578545570373535,1.0481040477752686,0.01430533267557621,-1.182383418083191
5.30287766456604,-0.14591439068317413,-0.5842298269271851,0.6570916175842285,1.052681803703308,0.01583123579621315,-1.183146357536316
5.322865724563599,-0.1497291475534439,-0.5842298269271851,0.6597619652748108,1.054207682609558,0.0024795911740511656,-1.185053825378418
5.34296441078186,-0.14858472347259521,-0.5865186452865601,0.6589990258216858,1.054970622062683,0.008201723918318748,-1.1861982345581055
5.36306095123291,-0.14324407279491425,-0.5884260535240173,0.6601434350013733,1.057259440422058,0.0020981156267225742,-1.1861982345581055
5.3832104206085205,-0.14171816408634186,-0.5884260535240173,0.6628137826919556,1.0584038496017456,-0.0036240178160369396,-1.1861982345581055
5.403254747390747,-0.14705882966518402,-0.5888075232505798,0.6635767221450806,1.058022379875183,0.0024795911740511656,-1.188105583190918
5.423444986343384,-0.14591439068317413,-0.5884260535240173,0.6624323129653931,1.0576409101486206,0.012397955171763897,-1.191157341003418
5.443533182144165,-0.14209964871406555,-0.5876630544662476,0.6570916175842285,1.0584038496017456,0.020027466118335724,-1.19306480884552
5.463543176651001,-0.14438849687576294,-0.5861371755599976,0.6555657386779785,1.0587854385375977,0.018120087683200836,-1.1934462785720825
5.483586549758911,-0.14705882966518402,-0.5872815847396851,0.6578545570373535,1.0595483779907227,0.010490577667951584,-1.193827748298645
5.503697872161865,-0.14400701224803925,-0.5891889929771423,0.6582360863685608,1.0599298477172852,0.008201723918318748,-1.195353627204895
5.523741006851196,-0.14171816408634186,-0.5891889929771423,0.6616693139076233,1.0614557266235352,0.0024795911740511656,-1.195353627204895
5.543804883956909,-0.14324407279491425,-0.5891889929771423,0.6609063744544983,1.0622186660766602,0.00667582219466567,-1.19611656665802
5.563883543014526,-0.14248111844062805,-0.5880445837974548,0.6589990258216858,1.0622186660766602,0.013923857361078262,-1.19764244556427
5.583961486816406,-0.14248111844062805,-0.5861371755599976,0.6631952524185181,1.0629816055297852,0.00858320016413927,-1.1987868547439575
5.6040356159210205,-0.14133669435977936,-0.5872815847396851,0.6628137826919556,1.0645074844360352,0.006294346414506435,-1.2014572620391846
5.6241044998168945,-0.13866636157035828,-0.5872815847396851,0.6578545570373535,1.0660333633422852,0.0078202486038208,-1.202601671218872
5.644190788269043,-0.14095520973205566,-0.5872815847396851,0.6586175560951233,1.0679408311843872,0.00019073777366429567,-1.2029831409454346
5.664266586303711,-0.14019227027893066,-0.5888075232505798,0.6609063744544983,1.0683223009109497,-0.0036240178160369396,-1.2045090198516846
5.684324741363525,-0.13866636157035828,-0.5895704627037048,0.6635767221450806,1.0690852403640747,-0.010872052982449532,-1.204890489578247
5.704386472702026,-0.1359960287809372,-0.5895704627037048,0.6670100092887878,1.0694667100906372,-0.014686808921396732,-1.2052719593048096
5.724485158920288,-0.134470134973526,-0.5891889929771423,0.6647211313247681,1.0698481798171997,-0.001716639962978661,-1.2060348987579346
5.744666576385498,-0.135233074426651,-0.5884260535240173,0.6620507836341858,1.0702296495437622,0.005149920005351305,-1.2075608968734741
5.764643669128418,-0.13904783129692078,-0.5880445837974548,0.6589990258216858,1.0709925889968872,0.013160906732082367,-1.2094682455062866
5.784778118133545,-0.14019227027893066,-0.5884260535240173,0.6589990258216858,1.0721369981765747,0.00476844422519207,-1.2125200033187866
5.804857969284058,-0.13942931592464447,-0.5903334021568298,0.6612878441810608,1.0732814073562622,0.0013351644156500697,-1.2125200033187866
5.824932813644409,-0.13866636157035828,-0.5918593406677246,0.6651026010513306,1.0732814073562622,-0.006294346414506435,-1.2125200033187866
5.845005750656128,-0.1356145590543747,-0.5914778113365173,0.6651026010513306,1.0736628770828247,-0.0032425422687083483,-1.2125200033187866
5.8650524616241455,-0.135233074426651,-0.5903334021568298,0.6624323129653931,1.0748074054718018,0.006294346414506435,-1.2125200033187866
5.885228157043457,-0.13790340721607208,-0.5899519324302673,0.6582360863685608,1.0748074054718018,0.012779430486261845,-1.2132829427719116
5.905277490615845,-0.1359960287809372,-0.5899519324302673,0.6609063744544983,1.0770962238311768,0.005912871100008488,-1.2144273519515991
5.925311088562012,-0.13752193748950958,-0.5914778113365173,0.6612878441810608,1.0782406330108643,0.005531395319849253,-1.2159533500671387
5.945939779281616,-0.13752193748950958,-0.5926222801208496,0.654421329498291,1.0778591632843018,0.016594186425209045,-1.2182421684265137
5.966041564941406,-0.1367589831352234,-0.5922408103942871,0.6528953909873962,1.0778591632843018,0.001716639962978661,-1.2190051078796387
5.986116647720337,-0.13790340721607208,-0.5926222801208496,0.6532768607139587,1.0778591632843018,-0.001716639962978661,-1.2190051078796387
6.006301164627075,-0.13866636157035828,-0.5930037498474121,0.655184268951416,1.0778591632843018,-0.0024795911740511656,-1.2190051078796387
6.026272296905518,-0.13828489184379578,-0.5926222801208496,0.6589990258216858,1.0778591632843018,-0.0036240178160369396,-1.2190051078796387
6.046369314193726,-0.1337071806192398,-0.5918593406677246,0.6586175560951233,1.0782406330108643,0.0024795911740511656,-1.2193865776062012
6.066444158554077,-0.13218127191066742,-0.5903334021568298,0.655947208404541,1.0797665119171143,0.015449759550392628,-1.2190051078796387
6.086505174636841,-0.1363775134086609,-0.5899519324302673,0.6548027992248535,1.0801479816436768,0.01888304017484188,-1.2193865776062012
6.106558322906494,-0.14248111844062805,-0.5903334021568298,0.657473087310791,1.0812923908233643,0.013160906732082367,-1.2201495170593262
6.126651048660278,-0.14133669435977936,-0.5918593406677246,0.6586175560951233,1.0816738605499268,0.009346150793135166,-1.2212939262390137
6.146728038787842,-0.1371404528617859,-0.5930037498474121,0.6605249047279358,1.0828183889389038,0.0036240178160369396,-1.2205309867858887
6.166817665100098,-0.13981078565120697,-0.5933852195739746,0.6616693139076233,1.0847257375717163,-0.005531395319849253,-1.2201495170593262
6.186920404434204,-0.14629587531089783,-0.5930037498474121,0.6597619652748108,1.0839627981185913,0.008201723918318748,-1.2205309867858887
6.206950664520264,-0.14248111844062805,-0.5922408103942871,0.6609063744544983,1.0843442678451538,0.008201723918318748,-1.2212939262390137
6.227048635482788,-0.14362554252147675,-0.5918593406677246,0.6589990258216858,1.0843442678451538,0.01125352829694748,-1.2209124565124512
6.2471277713775635,-0.14476996660232544,-0.5914778113365173,0.6563286781311035,1.0851072072982788,0.01773861236870289,-1.2216753959655762
6.267230987548828,-0.135233074426651,-0.5914778113365173,0.655947208404541,1.0854886770248413,0.00858320016413927,-1.2239643335342407
6.287282228469849,-0.1363775134086609,-0.5918593406677246,0.6570916175842285,1.0873960256576538,0.006294346414506435,-1.2235828638076782
6.307357311248779,-0.14019227027893066,-0.5937666893005371,0.6582360863685608,1.0873960256576538,0.005531395319849253,-1.2243458032608032
6.327427625656128,-0.1359960287809372,-0.5930037498474121,0.6597619652748108,1.0877774953842163,0.005531395319849253,-1.2273975610733032
6.347483158111572,-0.13866636157035828,-0.5926222801208496,0.6605249047279358,1.0889219045639038,0.007438773289322853,-1.2273975610733032
6.367624998092651,-0.14209964871406555,-0.5922408103942871,0.6589990258216858,1.0893033742904663,0.010872052982449532,-1.2277790307998657
6.38772177696228,-0.134470134973526,-0.5910963416099548,0.656710147857666,1.0904479026794434,0.013542382046580315,-1.2277790307998657
6.407756567001343,-0.12951095402240753,-0.5914778113365173,0.6548027992248535,1.0931181907653809,0.0078202486038208,-1.2270160913467407
6.428176641464233,-0.1359960287809372,-0.5926222801208496,0.6548027992248535,1.0942625999450684,0.0036240178160369396,-1.2277790307998657
6.4482526779174805,-0.13904783129692078,-0.5945296287536621,0.6570916175842285,1.0934996604919434,0.002861066721379757,-1.2300678491592407
6.468339443206787,-0.13828489184379578,-0.5945296287536621,0.6589990258216858,1.0934996604919434,0.004005493130534887,-1.2304493188858032
6.4883952140808105,-0.13752193748950958,-0.5933852195739746,0.6616693139076233,1.0938811302185059,0.002861066721379757,-1.2304493188858032
6.508472442626953,-0.13752193748950958,-0.5922408103942871,0.6570916175842285,1.0950255393981934,0.018120087683200836,-1.2304493188858032
6.528544902801514,-0.14324407279491425,-0.5895704627037048,0.6578545570373535,1.0976959466934204,0.01583123579621315,-1.2296863794326782
6.548631906509399,-0.14591439068317413,-0.5895704627037048,0.6582360863685608,1.098077416419983,0.013923857361078262,-1.2304493188858032
6.568791151046753,-0.14133669435977936,-0.5910963416099548,0.655184268951416,1.0984588861465454,0.018120087683200836,-1.2304493188858032
6.588970184326172,-0.13790340721607208,-0.5918593406677246,0.6582360863685608,1.099603295326233,0.01125352829694748,-1.2300678491592407
6.608996629714966,-0.14209964871406555,-0.5930037498474121,0.6578545570373535,1.099603295326233,0.0078202486038208,-1.2308309078216553
6.629351377487183,-0.14515145123004913,-0.5926222801208496,0.654421329498291,1.0992218255996704,0.019645990803837776,-1.2323567867279053
6.649432897567749,-0.14362554252147675,-0.5922408103942871,0.655184268951416,1.0992218255996704,0.01506828423589468,-1.2327382564544678
6.6695520877838135,-0.14362554252147675,-0.5922408103942871,0.6589990258216858,1.0992218255996704,0.0078202486038208,-1.2331197261810303
6.689578533172607,-0.14057374000549316,-0.5933852195739746,0.6620507836341858,1.0992218255996704,0.0032425422687083483,-1.2331197261810303
6.709681272506714,-0.1371404528617859,-0.5933852195739746,0.6563286781311035,1.0992218255996704,0.005912871100008488,-1.2327382564544678
6.7297539710998535,-0.13981078565120697,-0.5922408103942871,0.6540398001670837,1.099603295326233,0.009727626107633114,-1.2315938472747803
6.749826669692993,-0.13866636157035828,-0.5918593406677246,0.6548027992248535,1.098840355873108,0.004005493130534887,-1.2338826656341553
6.77050256729126,-0.1367589831352234,-0.5930037498474121,0.6563286781311035,1.0984588861465454,0.002861066721379757,-1.2357900142669678
6.790618419647217,-0.13752193748950958,-0.5937666893005371,0.6620507836341858,1.098840355873108,-0.0020981156267225742,-1.2365529537200928
6.810673713684082,-0.1367589831352234,-0.5933852195739746,0.655947208404541,1.098840355873108,0.01201647985726595,-1.2376973628997803
6.830748796463013,-0.1363775134086609,-0.5903334021568298,0.6525139212608337,1.0992218255996704,0.015449759550392628,-1.2376973628997803
6.850852012634277,-0.13981078565120697,-0.5903334021568298,0.6593804955482483,1.099603295326233,0.009346150793135166,-1.2369344234466553
6.870932102203369,-0.13790340721607208,-0.5930037498474121,0.6639581918716431,1.0984588861465454,-0.0020981156267225742,-1.2380788326263428
6.890960216522217,-0.1356145590543747,-0.5952925682067871,0.6631952524185181,1.0992218255996704,0.01201647985726595,-1.2380788326263428
6.911085844039917,-0.1356145590543747,-0.5945296287536621,0.6620507836341858,1.0992218255996704,0.013160906732082367,-1.2380788326263428
6.931186199188232,-0.14133669435977936,-0.5945296287536621,0.6582360863685608,1.0999847650527954,0.01735713705420494,-1.2384604215621948
6.95128059387207,-0.14286258816719055,-0.5945296287536621,0.6582360863685608,1.1007477045059204,0.01125352829694748,-1.2384604215621948
6.971303939819336,-0.14209964871406555,-0.5952925682067871,0.6593804955482483,1.1015106439590454,0.0078202486038208,-1.2384604215621948
6.991551160812378,-0.14248111844062805,-0.5956740379333496,0.6624323129653931,1.1022735834121704,0.0020981156267225742,-1.2384604215621948
7.011561870574951,-0.14057374000549316,-0.5956740379333496,0.6658655405044556,1.1030365228652954,-0.000572213320992887,-1.2380788326263428
7.031617879867554,-0.1348516047000885,-0.5952925682067871,0.6658655405044556,1.1030365228652954,0.008201723918318748,-1.2384604215621948
7.051733016967773,-0.1333257108926773,-0.5952925682067871,0.6651026010513306,1.103417992591858,0.011635004542768002,-1.2376973628997803
7.071925163269043,-0.1337071806192398,-0.5949110984802246,0.6620507836341858,1.1030365228652954,0.015449759550392628,-1.2384604215621948
7.092013597488403,-0.1371404528617859,-0.5945296287536621,0.6593804955482483,1.103417992591858,0.020027466118335724,-1.2388418912887573
7.1120312213897705,-0.13866636157035828,-0.5956740379333496,0.6589990258216858,1.103417992591858,0.010872052982449532,-1.2399863004684448
7.132150888442993,-0.13866636157035828,-0.5968185067176819,0.6589990258216858,1.103417992591858,0.004005493130534887,-1.2399863004684448
7.152297496795654,-0.13942931592464447,-0.5968185067176819,0.6616693139076233,1.103417992591858,-0.0013351644156500697,-1.2392233610153198
7.172327518463135,-0.13942931592464447,-0.5964370369911194,0.6654840707778931,1.1037994623184204,-0.000572213320992887,-1.2388418912887573
7.192402601242065,-0.1348516047000885,-0.5964370369911194,0.6666285395622253,1.1037994623184204,0.006294346414506435,-1.2388418912887573
7.212474346160889,-0.134470134973526,-0.5952925682067871,0.6662470698356628,1.104180932044983,0.013542382046580315,-1.2384604215621948
7.232546806335449,-0.134470134973526,-0.5949110984802246,0.6639581918716431,1.1037994623184204,0.01773861236870289,-1.2388418912887573
7.25261926651001,-0.134470134973526,-0.5949110984802246,0.6593804955482483,1.1037994623184204,0.021171892061829567,-1.2399863004684448
7.272663116455078,-0.1367589831352234,-0.5956740379333496,0.6589990258216858,1.1037994623184204,0.01430533267557621,-1.2399863004684448
7.292843580245972,-0.1367589831352234,-0.5968185067176819,0.6612878441810608,1.1037994623184204,0.002861066721379757,-1.2411307096481323
7.312916994094849,-0.1363775134086609,-0.5971999764442444,0.6643396615982056,1.104180932044983,-0.0036240178160369396,-1.2411307096481323
7.332937717437744,-0.1359960287809372,-0.5971999764442444,0.6677729487419128,1.1037994623184204,-0.007438773289322853,-1.2411307096481323
7.352997303009033,-0.13103684782981873,-0.5964370369911194,0.6670100092887878,1.104180932044983,0.00476844422519207,-1.2407492399215698
7.373090744018555,-0.13141833245754242,-0.5952925682067871,0.6662470698356628,1.104943871498108,0.010872052982449532,-1.2396048307418823
7.393200874328613,-0.13103684782981873,-0.5952925682067871,0.6639581918716431,1.104180932044983,0.012779430486261845,-1.2407492399215698
7.413311004638672,-0.135233074426651,-0.5952925682067871,0.6609063744544983,1.1045624017715454,0.014686808921396732,-1.2418936491012573
7.433396100997925,-0.13828489184379578,-0.5956740379333496,0.6605249047279358,1.104943871498108,0.00667582219466567,-1.2430380582809448
7.4534807205200195,-0.13866636157035828,-0.5968185067176819,0.6612878441810608,1.104943871498108,0.0009536888683214784,-1.2434195280075073
7.473575115203857,-0.13866636157035828,-0.5971999764442444,0.6631952524185181,1.1053253412246704,-0.005149920005351305,-1.2430380582809448
7.493634939193726,-0.14057374000549316,-0.5971999764442444,0.6666285395622253,1.1057069301605225,-0.004005493130534887,-1.2426565885543823
7.513923645019531,-0.135233074426651,-0.5964370369911194,0.6670100092887878,1.106088399887085,0.00019073777366429567,-1.2430380582809448
7.534018516540527,-0.1333257108926773,-0.5952925682067871,0.6654840707778931,1.1072328090667725,0.009346150793135166,-1.2418936491012573
7.554089784622192,-0.134470134973526,-0.5952925682067871,0.6620507836341858,1.10685133934021,0.012779430486261845,-1.2430380582809448
7.574140548706055,-0.14171816408634186,-0.5952925682067871,0.6601434350013733,1.1079957485198975,0.01430533267557621,-1.2434195280075073
7.594350814819336,-0.14286258816719055,-0.5960555672645569,0.6605249047279358,1.1079957485198975,0.005912871100008488,-1.2453268766403198
7.61443567276001,-0.14286258816719055,-0.5975814461708069,0.6612878441810608,1.10837721824646,0.001716639962978661,-1.2453268766403198
7.634554624557495,-0.14324407279491425,-0.5975814461708069,0.6628137826919556,1.1087586879730225,-0.005149920005351305,-1.2449454069137573
7.654627561569214,-0.14515145123004913,-0.5971999764442444,0.6658655405044556,1.1095216274261475,-0.00476844422519207,-1.2445639371871948
7.6748340129852295,-0.14057374000549316,-0.5964370369911194,0.6677729487419128,1.10990309715271,0.0009536888683214784,-1.2445639371871948
7.694956541061401,-0.13942931592464447,-0.5964370369911194,0.6673914790153503,1.110666036605835,0.009727626107633114,-1.2441824674606323
7.715012550354004,-0.13942931592464447,-0.5964370369911194,0.6654840707778931,1.1102845668792725,0.013160906732082367,-1.2449454069137573
7.735179901123047,-0.14209964871406555,-0.5964370369911194,0.6620507836341858,1.1110475063323975,0.016975661739706993,-1.2457083463668823
7.755205869674683,-0.14248111844062805,-0.5968185067176819,0.6631952524185181,1.11142897605896,0.006294346414506435,-1.2457083463668823
7.775262117385864,-0.14019227027893066,-0.5979629158973694,0.6670100092887878,1.11142897605896,-0.0013351644156500697,-1.2460898160934448
7.795338869094849,-0.13866636157035828,-0.5975814461708069,0.6666285395622253,1.11142897605896,-0.0032425422687083483,-1.2457083463668823
7.815410852432251,-0.13904783129692078,-0.5960555672645569,0.6601434350013733,1.1118104457855225,0.01773861236870289,-1.2453268766403198
7.835475206375122,-0.14171816408634186,-0.5930037498474121,0.6597619652748108,1.113336443901062,0.02040894143283367,-1.2445639371871948
7.855556964874268,-0.14515145123004913,-0.5922408103942871,0.6555657386779785,1.114099383354187,0.023460745811462402,-1.2453268766403198
7.875645875930786,-0.1363775134086609,-0.5926222801208496,0.655184268951416,1.1144808530807495,0.02231631986796856,-1.2453268766403198
7.895724534988403,-0.13218127191066742,-0.5945296287536621,0.655184268951416,1.115625262260437,0.021171892061829567,-1.2441824674606323
7.915771722793579,-0.13752193748950958,-0.5952925682067871,0.6563286781311035,1.1152437925338745,0.01926451548933983,-1.2453268766403198
7.935875415802002,-0.1363775134086609,-0.5960555672645569,0.6593804955482483,1.114862322807312,0.01735713705420494,-1.2464714050292969
7.955941915512085,-0.13027389347553253,-0.5956740379333496,0.6612878441810608,1.1152437925338745,0.01583123579621315,-1.2460898160934448
7.976023435592651,-0.13103684782981873,-0.5949110984802246,0.6612878441810608,1.1160067319869995,0.024223696440458298,-1.2457083463668823
7.996205568313599,-0.13141833245754242,-0.5945296287536621,0.6609063744544983,1.1160067319869995,0.026131074875593185,-1.2460898160934448
8.016316175460815,-0.1329442262649536,-0.5945296287536621,0.655947208404541,1.116388201713562,0.027656977996230125,-1.2457083463668823
8.036373376846313,-0.13981078565120697,-0.5945296287536621,0.6548027992248535,1.117151141166687,0.024986648932099342,-1.2457083463668823
8.05643892288208,-0.14095520973205566,-0.5956740379333496,0.6548027992248535,1.1167696714401245,0.016212711110711098,-1.2472343444824219
8.076525688171387,-0.14057374000549316,-0.5964370369911194,0.6548027992248535,1.117151141166687,0.010872052982449532,-1.2464714050292969
8.096650838851929,-0.14209964871406555,-0.5964370369911194,0.657473087310791,1.117151141166687,0.007438773289322853,-1.2460898160934448
8.11669373512268,-0.14133669435977936,-0.5964370369911194,0.6612878441810608,1.117151141166687,0.009346150793135166,-1.2460898160934448
8.136739492416382,-0.1340886503458023,-0.5952925682067871,0.6582360863685608,1.1167696714401245,0.016594186425209045,-1.2464714050292969
8.15683627128601,-0.13218127191066742,-0.5945296287536621,0.655947208404541,1.118677020072937,0.027656977996230125,-1.2457083463668823
8.176884412765503,-0.1367589831352234,-0.5941481590270996,0.6540398001670837,1.1175326108932495,0.027656977996230125,-1.2460898160934448
8.196953058242798,-0.14171816408634186,-0.5945296287536621,0.655184268951416,1.1167696714401245,0.02231631986796856,-1.2472343444824219
8.217004776000977,-0.13790340721607208,-0.5964370369911194,0.6570916175842285,1.1167696714401245,0.018501564860343933,-1.2476158142089844
8.237099885940552,-0.134470134973526,-0.5975814461708069,0.6609063744544983,1.117151141166687,0.013542382046580315,-1.2468528747558594
8.257175207138062,-0.13828489184379578,-0.5971999764442444,0.6624323129653931,1.117151141166687,0.0032425422687083483,-1.2460898160934448
8.277292251586914,-0.13981078565120697,-0.5956740379333496,0.6609063744544983,1.1167696714401245,0.01773861236870289,-1.2464714050292969
8.297359466552734,-0.1333257108926773,-0.5933852195739746,0.6631952524185181,1.118677020072937,0.013923857361078262,-1.2460898160934448
8.31744909286499,-0.13218127191066742,-0.5930037498474121,0.6635767221450806,1.118677020072937,0.016212711110711098,-1.2457083463668823
8.3375244140625,-0.13218127191066742,-0.5933852195739746,0.6612878441810608,1.1182955503463745,0.019645990803837776,-1.2460898160934448
8.357593536376953,-0.134470134973526,-0.5933852195739746,0.6582360863685608,1.118677020072937,0.023079270496964455,-1.2460898160934448
8.37765383720398,-0.1363775134086609,-0.5937666893005371,0.6578545570373535,1.1182955503463745,0.011635004542768002,-1.2472343444824219
8.397719383239746,-0.1363775134086609,-0.5952925682067871,0.6589990258216858,1.1182955503463745,0.005912871100008488,-1.2472343444824219
8.417826890945435,-0.1371404528617859,-0.5956740379333496,0.6631952524185181,1.1182955503463745,0.002861066721379757,-1.2468528747558594
8.437902212142944,-0.1348516047000885,-0.5956740379333496,0.6651026010513306,1.1182955503463745,0.0020981156267225742,-1.2464714050292969
8.45798659324646,-0.1333257108926773,-0.5945296287536621,0.6639581918716431,1.118677020072937,0.013923857361078262,-1.2460898160934448
8.47828483581543,-0.1337071806192398,-0.5945296287536621,0.6624323129653931,1.1182955503463745,0.01926451548933983,-1.2460898160934448
8.498374462127686,-0.13942931592464447,-0.5945296287536621,0.6586175560951233,1.1182955503463745,0.023460745811462402,-1.2464714050292969
8.518439054489136,-0.14286258816719055,-0.5945296287536621,0.6597619652748108,1.117914080619812,0.01583123579621315,-1.2472343444824219
8.538496494293213,-0.14171816408634186,-0.5964370369911194,0.6612878441810608,1.1182955503463745,0.01201647985726595,-1.2483787536621094
8.558611631393433,-0.14019227027893066,-0.5971999764442444,0.6654840707778931,1.1182955503463745,0.001716639962978661,-1.2483787536621094
8.578701496124268,-0.13752193748950958,-0.5971999764442444,0.6681544184684753,1.1182955503463745,-0.0024795911740511656,-1.2487602233886719
8.598775625228882,-0.135233074426651,-0.5964370369911194,0.6677729487419128,1.118677020072937,0.007057297509163618,-1.2483787536621094
8.618832349777222,-0.1367589831352234,-0.5960555672645569,0.6662470698356628,1.118677020072937,0.014686808921396732,-1.2476158142089844
8.639097452163696,-0.13828489184379578,-0.5952925682067871,0.6620507836341858,1.118677020072937,0.020027466118335724,-1.2483787536621094
8.659208059310913,-0.13828489184379578,-0.5952925682067871,0.6677729487419128,1.118677020072937,0.004386968910694122,-1.2487602233886719
8.679298639297485,-0.1359960287809372,-0.5979629158973694,0.6692988276481628,1.1190584897994995,0.008201723918318748,-1.2491416931152344
8.69935131072998,-0.14248111844062805,-0.5979629158973694,0.6666285395622253,1.1198214292526245,0.011635004542768002,-1.2495231628417969
8.719446897506714,-0.14553292095661163,-0.5952925682067871,0.6673914790153503,1.121347427368164,0.002861066721379757,-1.2495231628417969
8.739490032196045,-0.14248111844062805,-0.5945296287536621,0.6673914790153503,1.122110366821289,0.005149920005351305,-1.2491416931152344
8.75955581665039,-0.1359960287809372,-0.5945296287536621,0.6654840707778931,1.122873306274414,0.010109102353453636,-1.2483787536621094
8.77962851524353,-0.1367589831352234,-0.5945296287536621,0.6639581918716431,1.124399185180664,0.011635004542768002,-1.2479972839355469
8.799717903137207,-0.14820325374603271,-0.5952925682067871,0.6647211313247681,1.1240177154541016,0.00858320016413927,-1.2483787536621094
8.819820165634155,-0.1501106321811676,-0.5964370369911194,0.6647211313247681,1.122110366821289,0.007438773289322853,-1.2518119812011719
8.83988070487976,-0.14744029939174652,-0.5968185067176819,0.6654840707778931,1.1224918365478516,0.006294346414506435,-1.2521934509277344
8.859952449798584,-0.14782176911830902,-0.5968185067176819,0.6685358881950378,1.1224918365478516,0.0024795911740511656,-1.2521934509277344
8.880129098892212,-0.14209964871406555,-0.5964370369911194,0.6696802973747253,1.1224918365478516,0.005531395319849253,-1.2518119812011719
8.900265455245972,-0.13981078565120697,-0.5964370369911194,0.6692988276481628,1.123636245727539,0.01201647985726595,-1.2506675720214844
8.920295715332031,-0.14171816408634186,-0.5964370369911194,0.6670100092887878,1.123636245727539,0.016212711110711098,-1.2495231628417969
8.940363645553589,-0.14057374000549316,-0.5964370369911194,0.6670100092887878,1.123636245727539,0.011635004542768002,-1.2499046325683594
8.960411310195923,-0.13828489184379578,-0.5979629158973694,0.6692988276481628,1.123636245727539,0.008201723918318748,-1.2499046325683594
8.980504035949707,-0.14057374000549316,-0.5979629158973694,0.6631952524185181,1.1224918365478516,0.01201647985726595,-1.2502861022949219
9.000571966171265,-0.14095520973205566,-0.5971999764442444,0.6628137826919556,1.1224918365478516,0.00667582219466567,-1.2506675720214844
9.020644903182983,-0.14095520973205566,-0.5971999764442444,0.6643396615982056,1.1224918365478516,0.005912871100008488,-1.2502861022949219
9.04069447517395,-0.13752193748950958,-0.5975814461708069,0.6685358881950378,1.122110366821289,0.0020981156267225742,-1.2502861022949219
9.060789823532104,-0.135233074426651,-0.5971999764442444,0.6677729487419128,1.1224918365478516,0.01125352829694748,-1.2495231628417969
9.080910205841064,-0.1371404528617859,-0.5964370369911194,0.6651026010513306,1.1224918365478516,0.018120087683200836,-1.2495231628417969
9.10093092918396,-0.13828489184379578,-0.5964370369911194,0.6643396615982056,1.1224918365478516,0.024605173617601395,-1.2499046325683594
9.12098240852356,-0.1371404528617859,-0.5968185067176819,0.6658655405044556,1.1224918365478516,0.013160906732082367,-1.2506675720214844
9.141108989715576,-0.1363775134086609,-0.5975814461708069,0.6609063744544983,1.1217288970947266,0.012779430486261845,-1.2510490417480469
9.161153554916382,-0.13752193748950958,-0.5960555672645569,0.6578545570373535,1.121347427368164,0.020027466118335724,-1.2510490417480469
9.18123173713684,-0.13866636157035828,-0.5952925682067871,0.6593804955482483,1.121347427368164,0.012397955171763897,-1.2510490417480469
9.201306104660034,-0.13790340721607208,-0.5956740379333496,0.6624323129653931,1.1217288970947266,0.011635004542768002,-1.2510490417480469
9.22140622138977,-0.12989242374897003,-0.5956740379333496,0.6593804955482483,1.120965838432312,0.02040894143283367,-1.2510490417480469
9.241473913192749,-0.12874799966812134,-0.5952925682067871,0.6582360863685608,1.121347427368164,0.02079041674733162,-1.2491416931152344
9.26155400276184,-0.12951095402240753,-0.5956740379333496,0.6570916175842285,1.120202898979187,0.024223696440458298,-1.2502861022949219
9.281612634658813,-0.1363775134086609,-0.5956740379333496,0.655184268951416,1.117914080619812,0.02841992862522602,-1.2521934509277344
9.301664113998413,-0.1367589831352234,-0.5956740379333496,0.6555657386779785,1.117151141166687,0.01888304017484188,-1.2537193298339844
9.32174563407898,-0.1363775134086609,-0.5960555672645569,0.6597619652748108,1.1175326108932495,0.01201647985726595,-1.2533378601074219
9.34181833267212,-0.134470134973526,-0.5964370369911194,0.6586175560951233,1.1175326108932495,0.013542382046580315,-1.2529563903808594
9.361877202987671,-0.1340886503458023,-0.5952925682067871,0.654421329498291,1.117914080619812,0.02689402550458908,-1.2529563903808594
9.382676839828491,-0.1371404528617859,-0.5937666893005371,0.655184268951416,1.1182955503463745,0.023079270496964455,-1.2514305114746094
9.402877569198608,-0.13103684782981873,-0.5952925682067871,0.6612878441810608,1.1175326108932495,0.012779430486261845,-1.2521934509277344
9.422940492630005,-0.12455176562070847,-0.5968185067176819,0.6628137826919556,1.116388201713562,0.021171892061829567,-1.2525749206542969
9.442950010299683,-0.12569619715213776,-0.5964370369911194,0.6624323129653931,1.116388201713562,0.02231631986796856,-1.2521934509277344
9.462998151779175,-0.12607766687870026,-0.5964370369911194,0.6609063744544983,1.114862322807312,0.02536812424659729,-1.2533378601074219
9.483124494552612,-0.13065537810325623,-0.5952925682067871,0.6578545570373535,1.1144808530807495,0.029564354568719864,-1.2529563903808594
9.503173112869263,-0.1367589831352234,-0.5949110984802246,0.6612878441810608,1.114862322807312,0.01926451548933983,-1.2533378601074219
9.52324652671814,-0.1371404528617859,-0.5956740379333496,0.6624323129653931,1.1152437925338745,0.018501564860343933,-1.2529563903808594
9.543303489685059,-0.12874799966812134,-0.5949110984802246,0.6612878441810608,1.116388201713562,0.018120087683200836,-1.2518119812011719
9.563429355621338,-0.135233074426651,-0.5941481590270996,0.6612878441810608,1.119439959526062,0.01926451548933983,-1.2506675720214844
9.583494663238525,-0.13790340721607208,-0.5937666893005371,0.6586175560951233,1.1182955503463745,0.019645990803837776,-1.2495231628417969
9.603583097457886,-0.12989242374897003,-0.5937666893005371,0.6570916175842285,1.1175326108932495,0.020027466118335724,-1.2491416931152344
9.623653173446655,-0.12798504531383514,-0.5949110984802246,0.6570916175842285,1.117914080619812,0.018501564860343933,-1.2483787536621094
9.643728256225586,-0.13218127191066742,-0.5968185067176819,0.657473087310791,1.116388201713562,0.018501564860343933,-1.2491416931152344
9.663787603378296,-0.1325627565383911,-0.5975814461708069,0.6593804955482483,1.1152437925338745,0.016594186425209045,-1.2499046325683594
9.68386197090149,-0.13179980218410492,-0.5968185067176819,0.6624323129653931,1.1152437925338745,0.012397955171763897,-1.2499046325683594
9.703944206237793,-0.13790340721607208,-0.5952925682067871,0.6570916175842285,1.1152437925338745,0.02536812424659729,-1.2495231628417969
9.724029302597046,-0.1340886503458023,-0.5922408103942871,0.6616693139076233,1.116388201713562,0.020027466118335724,-1.2491416931152344
9.744158506393433,-0.12874799966812134,-0.5926222801208496,0.6628137826919556,1.118677020072937,0.006294346414506435,-1.2479972839355469
9.764210224151611,-0.12951095402240753,-0.5937666893005371,0.6612878441810608,1.119439959526062,0.011635004542768002,-1.2464714050292969
9.785244941711426,-0.135233074426651,-0.5949110984802246,0.6605249047279358,1.118677020072937,0.012397955171763897,-1.2472343444824219
9.805344820022583,-0.1356145590543747,-0.5949110984802246,0.6616693139076233,1.1182955503463745,0.009346150793135166,-1.2487602233886719
9.825400590896606,-0.13218127191066742,-0.5952925682067871,0.6647211313247681,1.1182955503463745,0.00858320016413927,-1.2491416931152344
9.845467567443848,-0.1325627565383911,-0.5956740379333496,0.6662470698356628,1.1182955503463745,0.010490577667951584,-1.2491416931152344
9.865552425384521,-0.134470134973526,-0.5949110984802246,0.6651026010513306,1.1182955503463745,0.01583123579621315,-1.2487602233886719
9.88564682006836,-0.1356145590543747,-0.5941481590270996,0.6624323129653931,1.1198214292526245,0.02040894143283367,-1.2483787536621094
9.905694246292114,-0.13790340721607208,-0.5933852195739746,0.6692988276481628,1.122110366821289,0.00858320016413927,-1.2483787536621094
9.925789833068848,-0.1367589831352234,-0.5952925682067871,0.6685358881950378,1.122110366821289,0.008201723918318748,-1.2487602233886719
9.945822954177856,-0.13790340721607208,-0.5945296287536621,0.6677729487419128,1.1232547760009766,0.007057297509163618,-1.2487602233886719
9.96611213684082,-0.13218127191066742,-0.5941481590270996,0.6685358881950378,1.122873306274414,-0.0009536888683214784,-1.2487602233886719
9.986121416091919,-0.12722209095954895,-0.5949110984802246,0.6689173579216003,1.1224918365478516,0.0032425422687083483,-1.2487602233886719
10.006174087524414,-0.12722209095954895,-0.5949110984802246,0.6689173579216003,1.1224918365478516,0.008964675478637218,-1.2483787536621094
10.026235580444336,-0.12874799966812134,-0.5952925682067871,0.6673914790153503,1.122110366821289,0.01201647985726595,-1.2495231628417969
10.046318769454956,-0.13218127191066742,-0.5949110984802246,0.6658655405044556,1.1224918365478516,0.012397955171763897,-1.2495231628417969
10.066385984420776,-0.1329442262649536,-0.5952925682067871,0.6670100092887878,1.122873306274414,0.007057297509163618,-1.2502861022949219
10.086458683013916,-0.13218127191066742,-0.5960555672645569,0.6696802973747253,1.122873306274414,0.002861066721379757,-1.2499046325683594
10.106688737869263,-0.1333257108926773,-0.5964370369911194,0.6685358881950378,1.1224918365478516,0.0009536888683214784,-1.2495231628417969
10.126914024353027,-0.1356145590543747,-0.5949110984802246,0.6685358881950378,1.1224918365478516,0.01583123579621315,-1.2499046325683594
10.146992921829224,-0.1367589831352234,-0.5945296287536621,0.6708247661590576,1.1224918365478516,0.008964675478637218,-1.2499046325683594
10.167361736297607,-0.1359960287809372,-0.5945296287536621,0.6708247661590576,1.1224918365478516,0.016212711110711098,-1.2499046325683594
10.18747067451477,-0.1363775134086609,-0.5949110984802246,0.6681544184684753,1.1224918365478516,0.020027466118335724,-1.2499046325683594
10.207606554031372,-0.14057374000549316,-0.5945296287536621,0.6662470698356628,1.122873306274414,0.026131074875593185,-1.2502861022949219
10.227699995040894,-0.14591439068317413,-0.5952925682067871,0.6692988276481628,1.1224918365478516,0.012779430486261845,-1.2510490417480469
10.247872829437256,-0.14400701224803925,-0.5960555672645569,0.6692988276481628,1.122873306274414,0.01201647985726595,-1.2529563903808594
10.267899751663208,-0.14057374000549316,-0.5960555672645569,0.6738765835762024,1.123636245727539,0.005531395319849253,-1.2525749206542969
10.287927627563477,-0.14171816408634186,-0.5960555672645569,0.6769283413887024,1.123636245727539,0.008201723918318748,-1.2529563903808594
10.308025360107422,-0.14171816408634186,-0.5952925682067871,0.6765468716621399,1.1240177154541016,0.013923857361078262,-1.2529563903808594
10.328075885772705,-0.14057374000549316,-0.5949110984802246,0.6742580533027649,1.1240177154541016,0.019645990803837776,-1.2529563903808594
10.348142623901367,-0.14209964871406555,-0.5945296287536621,0.6685358881950378,1.1240177154541016,0.022697795182466507,-1.2533378601074219
10.368261337280273,-0.14553292095661163,-0.5945296287536621,0.6666285395622253,1.123636245727539,0.016212711110711098,-1.2533378601074219
10.388346910476685,-0.14476996660232544,-0.5960555672645569,0.6666285395622253,1.123636245727539,0.007057297509163618,-1.2541009187698364
10.408438444137573,-0.14515145123004913,-0.5975814461708069,0.6673914790153503,1.1240177154541016,-0.0009536888683214784,-1.2537193298339844
10.428555727005005,-0.14629587531089783,-0.5975814461708069,0.6696802973747253,1.1240177154541016,-0.005531395319849253,-1.2537193298339844
10.448580265045166,-0.14248111844062805,-0.5971999764442444,0.6727321147918701,1.1240177154541016,-0.0036240178160369396,-1.2533378601074219
10.468700170516968,-0.13942931592464447,-0.5964370369911194,0.6723506450653076,1.124399185180664,0.00858320016413927,-1.2533378601074219
10.488733291625977,-0.13866636157035828,-0.5964370369911194,0.6700618267059326,1.1247806549072266,0.014686808921396732,-1.2533378601074219
10.50880765914917,-0.13904783129692078,-0.5964370369911194,0.6666285395622253,1.124399185180664,0.018501564860343933,-1.2537193298339844
10.528852462768555,-0.14362554252147675,-0.5964370369911194,0.6651026010513306,1.124399185180664,0.01430533267557621,-1.254482388496399
10.548993825912476,-0.14362554252147675,-0.5979629158973694,0.6658655405044556,1.124399185180664,0.00858320016413927,-1.2556267976760864
10.569028377532959,-0.14362554252147675,-0.5991073250770569,0.6681544184684753,1.1247806549072266,-0.00019073777366429567,-1.2556267976760864
10.589133739471436,-0.14438849687576294,-0.5991073250770569,0.6715877056121826,1.124399185180664,-0.0036240178160369396,-1.2556267976760864
10.609174013137817,-0.13828489184379578,-0.5987258553504944,0.6742580533027649,1.1247806549072266,0.0013351644156500697,-1.255245327949524
10.629258632659912,-0.1356145590543747,-0.5979629158973694,0.6746395230293274,1.125162124633789,0.010872052982449532,-1.2548638582229614
10.649321556091309,-0.1363775134086609,-0.5975814461708069,0.6734950542449951,1.125162124633789,0.01506828423589468,-1.2548638582229614
10.669384241104126,-0.1356145590543747,-0.5975814461708069,0.6704432964324951,1.1247806549072266,0.018120087683200836,-1.2556267976760864
10.689430236816406,-0.14171816408634186,-0.5975814461708069,0.6689173579216003,1.1247806549072266,0.01583123579621315,-1.2571526765823364
10.70954179763794,-0.14400701224803925,-0.5994887948036194,0.6692988276481628,1.124399185180664,0.00667582219466567,-1.258297085762024
10.729618310928345,-0.14248111844062805,-0.5998703241348267,0.6708247661590576,1.1247806549072266,-0.00019073777366429567,-1.258297085762024
10.749776601791382,-0.14324407279491425,-0.5998703241348267,0.6731135845184326,1.125162124633789,-0.0032425422687083483,-1.2571526765823364
10.76978850364685,-0.13790340721607208,-0.5994887948036194,0.6757839322090149,1.1247806549072266,-0.0009536888683214784,-1.2571526765823364
10.789853572845459,-0.1337071806192398,-0.5987258553504944,0.6754024624824524,1.125162124633789,0.010109102353453636,-1.2563897371292114
10.809948682785034,-0.1340886503458023,-0.5983443856239319,0.6746395230293274,1.1255435943603516,0.01201647985726595,-1.2563897371292114
10.829978942871094,-0.1340886503458023,-0.5983443856239319,0.6723506450653076,1.124399185180664,0.014686808921396732,-1.2579156160354614
10.850066661834717,-0.14019227027893066,-0.5983443856239319,0.6715877056121826,1.1247806549072266,0.01735713705420494,-1.2579156160354614
10.870131015777588,-0.14248111844062805,-0.5994887948036194,0.6715877056121826,1.1247806549072266,0.0032425422687083483,-1.259060025215149
10.890308856964111,-0.14171816408634186,-0.6006332635879517,0.6742580533027649,1.1247806549072266,-0.001716639962978661,-1.261348843574524
10.910389423370361,-0.135233074426651,-0.5994887948036194,0.6750209927558899,1.125162124633789,0.00019073777366429567,-1.2602044343948364
10.930447578430176,-0.13103684782981873,-0.5983443856239319,0.6712062358856201,1.1255435943603516,0.01583123579621315,-1.2602044343948364
10.950579166412354,-0.13179980218410492,-0.5964370369911194,0.6689173579216003,1.1255435943603516,0.01735713705420494,-1.259060025215149
10.97064208984375,-0.135233074426651,-0.5964370369911194,0.6647211313247681,1.125162124633789,0.02079041674733162,-1.2602044343948364
10.990680694580078,-0.13866636157035828,-0.5964370369911194,0.6624323129653931,1.1247806549072266,0.02193484455347061,-1.260585904121399
11.011014223098755,-0.13790340721607208,-0.5983443856239319,0.6624323129653931,1.1247806549072266,0.016594186425209045,-1.2609673738479614
11.03110647201538,-0.13790340721607208,-0.5998703241348267,0.6643396615982056,1.1247806549072266,0.009346150793135166,-1.2609673738479614
11.051210880279541,-0.13866636157035828,-0.6002517938613892,0.6670100092887878,1.1247806549072266,0.0036240178160369396,-1.2609673738479614
11.07127046585083,-0.13866636157035828,-0.5998703241348267,0.6712062358856201,1.1247806549072266,0.0036240178160369396,-1.2609673738479614
11.091397285461426,-0.13790340721607208,-0.5991073250770569,0.6700618267059326,1.125162124633789,0.01583123579621315,-1.260585904121399
11.111459493637085,-0.13828489184379578,-0.5983443856239319,0.6673914790153503,1.125162124633789,0.021553369238972664,-1.2602044343948364
11.131510496139526,-0.13866636157035828,-0.5971999764442444,0.6643396615982056,1.125162124633789,0.025749599561095238,-1.260585904121399
11.151552438735962,-0.13828489184379578,-0.5964370369911194,0.6651026010513306,1.125162124633789,0.020027466118335724,-1.260585904121399
11.171645164489746,-0.13790340721607208,-0.5987258553504944,0.6662470698356628,1.124399185180664,0.008964675478637218,-1.2609673738479614
11.191708087921143,-0.13752193748950958,-0.5994887948036194,0.6670100092887878,1.1247806549072266,0.013923857361078262,-1.260585904121399
11.211788415908813,-0.13790340721607208,-0.5975814461708069,0.6700618267059326,1.1247806549072266,0.008964675478637218,-1.260585904121399
11.231986999511719,-0.13828489184379578,-0.5975814461708069,0.6696802973747253,1.1247806549072266,0.009727626107633114,-1.260585904121399
11.252074718475342,-0.13866636157035828,-0.5968185067176819,0.6643396615982056,1.125162124633789,0.02040894143283367,-1.259822964668274
11.272145748138428,-0.14286258816719055,-0.5956740379333496,0.6647211313247681,1.1255435943603516,0.01888304017484188,-1.2594414949417114
11.29222059249878,-0.14400701224803925,-0.5952925682067871,0.6647211313247681,1.1255435943603516,0.010490577667951584,-1.259822964668274
11.312371015548706,-0.14209964871406555,-0.5968185067176819,0.6647211313247681,1.1255435943603516,0.00667582219466567,-1.259822964668274
11.332465171813965,-0.14095520973205566,-0.5975814461708069,0.6677729487419128,1.1255435943603516,0.0013351644156500697,-1.259822964668274
11.35256052017212,-0.1371404528617859,-0.5975814461708069,0.6670100092887878,1.125162124633789,-0.001716639962978661,-1.259822964668274
11.372654438018799,-0.1348516047000885,-0.5968185067176819,0.6673914790153503,1.125162124633789,0.011635004542768002,-1.259822964668274
11.392710447311401,-0.13790340721607208,-0.5964370369911194,0.6670100092887878,1.125162124633789,0.01583123579621315,-1.2586785554885864
11.412773132324219,-0.1371404528617859,-0.5964370369911194,0.6609063744544983,1.125162124633789,0.02040894143283367,-1.2586785554885864
11.43284010887146,-0.1367589831352234,-0.5964370369911194,0.6616693139076233,1.1255435943603516,0.012397955171763897,-1.2586785554885864
11.45291543006897,-0.1363775134086609,-0.5975814461708069,0.6631952524185181,1.1255435943603516,0.006294346414506435,-1.2586785554885864
11.472965478897095,-0.1363775134086609,-0.5979629158973694,0.6647211313247681,1.1255435943603516,-0.0024795911740511656,-1.2586785554885864
11.493045091629028,-0.1367589831352234,-0.5975814461708069,0.6689173579216003,1.1255435943603516,-0.0032425422687083483,-1.2586785554885864
11.513145208358765,-0.134470134973526,-0.5975814461708069,0.6715877056121826,1.1255435943603516,-0.000572213320992887,-1.2586785554885864
11.533205509185791,-0.1348516047000885,-0.5968185067176819,0.6715877056121826,1.1255435943603516,0.012397955171763897,-1.256771206855774
11.553297758102417,-0.135233074426651,-0.5964370369911194,0.6715877056121826,1.1255435943603516,0.016212711110711098,-1.256771206855774
11.573508262634277,-0.135233074426651,-0.5964370369911194,0.6681544184684753,1.1255435943603516,0.016975661739706993,-1.2571526765823364
11.593586683273315,-0.13866636157035828,-0.5964370369911194,0.6662470698356628,1.1255435943603516,0.01773861236870289,-1.256771206855774
11.61365795135498,-0.13828489184379578,-0.5994887948036194,0.6670100092887878,1.1255435943603516,0.0024795911740511656,-1.2579156160354614
11.633708715438843,-0.13866636157035828,-0.6036850810050964,0.6685358881950378,1.1255435943603516,0.0009536888683214784,-1.2571526765823364
11.653810024261475,-0.13866636157035828,-0.6078813076019287,0.6727321147918701,1.125925064086914,-0.0009536888683214784,-1.2571526765823364
11.67389988899231,-0.13866636157035828,-0.6105515956878662,0.6769283413887024,1.125925064086914,0.004005493130534887,-1.256771206855774
11.693946123123169,-0.13828489184379578,-0.612840473651886,0.6807430982589722,1.125925064086914,0.00858320016413927,-1.2571526765823364
11.714030504226685,-0.13752193748950958,-0.6155108213424683,0.6837949156761169,1.125925064086914,0.013923857361078262,-1.2571526765823364
11.734185695648193,-0.1356145590543747,-0.6189440488815308,0.6872282028198242,1.125925064086914,0.01583123579621315,-1.2571526765823364
11.75435471534729,-0.1337071806192398,-0.6231403350830078,0.691042959690094,1.125925064086914,0.016212711110711098,-1.257534146308899
11.774441480636597,-0.1329442262649536,-0.6284809708595276,0.6937133073806763,1.125925064086914,0.013542382046580315,-1.257534146308899
11.794514656066895,-0.1333257108926773,-0.6342030763626099,0.6971465349197388,1.125925064086914,0.012397955171763897,-1.257534146308899
11.814575672149658,-0.1329442262649536,-0.6403067111968994,0.7017242908477783,1.125925064086914,0.01125352829694748,-1.257534146308899
11.834683895111084,-0.13218127191066742,-0.6448844075202942,0.7059205174446106,1.1263065338134766,0.00858320016413927,-1.257534146308899
11.85474443435669,-0.13141833245754242,-0.648699164390564,0.7085908055305481,1.1263065338134766,0.00858320016413927,-1.2571526765823364
11.8748140335083,-0.13065537810325623,-0.6525139212608337,0.7127870321273804,1.1263065338134766,0.01201647985726595,-1.257534146308899
11.895023584365845,-0.12989242374897003,-0.6563286781311035,0.7169833183288574,1.1263065338134766,0.015449759550392628,-1.257534146308899
11.915116548538208,-0.12874799966812134,-0.6597619652748108,0.7211795449256897,1.1263065338134766,0.018120087683200836,-1.257534146308899
11.935236930847168,-0.12798504531383514,-0.6639581918716431,0.7242313027381897,1.126688003540039,0.01735713705420494,-1.257534146308899
11.955253601074219,-0.12569619715213776,-0.6681544184684753,0.728427529335022,1.126688003540039,0.01888304017484188,-1.2579156160354614
11.975639343261719,-0.12531471252441406,-0.6734950542449951,0.733386754989624,1.126688003540039,0.01926451548933983,-1.2579156160354614
11.995729207992554,-0.12378881871700287,-0.6784542798995972,0.7375829815864563,1.1270694732666016,0.02040894143283367,-1.2579156160354614
12.015795946121216,-0.12378881871700287,-0.6830319762229919,0.7413977384567261,1.127450942993164,0.018501564860343933,-1.2579156160354614
12.035880327224731,-0.12340734153985977,-0.6883726119995117,0.7455939650535583,1.127450942993164,0.019645990803837776,-1.2579156160354614
12.055965185165405,-0.12149996310472488,-0.6948577165603638,0.7513160705566406,1.1278324127197266,0.02079041674733162,-1.2579156160354614
12.076066732406616,-0.1199740618467331,-0.7017242908477783,0.7574197053909302,1.128213882446289,0.024605173617601395,-1.2579156160354614
12.096176624298096,-0.1180666834115982,-0.7074463963508606,0.7623788714408875,1.1285953521728516,0.02384222112596035,-1.2579156160354614
12.116244077682495,-0.11539635062217712,-0.7150759100914001,0.7696269154548645,1.1289769411087036,0.024223696440458298,-1.258297085762024
12.136365413665771,-0.11425192654132843,-0.7227054238319397,0.7753490209579468,1.1293584108352661,0.03032730519771576,-1.258297085762024
12.156575441360474,-0.11272602528333664,-0.7291905283927917,0.7810711860656738,1.1293584108352661,0.024986648932099342,-1.2586785554885864
12.176546335220337,-0.11196307092905045,-0.7364385724067688,0.7871748208999634,1.1297398805618286,0.023460745811462402,-1.2602044343948364
12.19684886932373,-0.11081864684820175,-0.7448310256004333,0.7944228053092957,1.1297398805618286,0.02727550081908703,-1.260585904121399
12.216946601867676,-0.10929274559020996,-0.7532234787940979,0.802815318107605,1.1297398805618286,0.027656977996230125,-1.260585904121399
12.236997365951538,-0.10814831405878067,-0.7593270540237427,0.8089188933372498,1.1301213502883911,0.028038453310728073,-1.260585904121399
12.257062911987305,-0.10662241280078888,-0.7654306888580322,0.8154039978981018,1.1305028200149536,0.029564354568719864,-1.260585904121399
12.277665853500366,-0.10433356463909149,-0.7730602025985718,0.8234149813652039,1.1305028200149536,0.03337911143898964,-1.2609673738479614
12.297775268554688,-0.1024261862039566,-0.7818341255187988,0.8325703740119934,1.1308842897415161,0.03643091395497322,-1.2609673738479614
12.31788945198059,-0.10051880776882172,-0.7898451089859009,0.840199887752533,1.1312657594680786,0.03795681521296501,-1.2609673738479614
12.337915182113647,-0.09937438368797302,-0.7978560924530029,0.8485923409461975,1.1316472291946411,0.0394827201962471,-1.2609673738479614
12.35799241065979,-0.09746700525283813,-0.8077744841575623,0.8558403849601746,1.1320286989212036,0.043678950518369675,-1.2609673738479614
12.37807321548462,-0.09479667246341705,-0.8173113465309143,0.8649957776069641,1.1324101686477661,0.04253452271223068,-1.2609673738479614
12.398138761520386,-0.09288929402828217,-0.8272297382354736,0.8749141693115234,1.1331731081008911,0.04177157208323479,-1.2609673738479614
12.418195962905884,-0.08983749151229858,-0.840962827205658,0.8867399096488953,1.1331731081008911,0.042153049260377884,-1.261348843574524
12.438391208648682,-0.08602273464202881,-0.8550774455070496,0.9008545279502869,1.1335545778274536,0.04482337832450867,-1.261348843574524
12.458495140075684,-0.08106355369091034,-0.8730067610740662,0.916113555431366,1.1339360475540161,0.04634927958250046,-1.261730432510376
12.4785795211792,-0.07419699430465698,-0.8947508931159973,0.9351872801780701,1.1346989870071411,0.04558632895350456,-1.2621119022369385
12.498688459396362,-0.06580453366041183,-0.9210727214813232,0.9626535177230835,1.1366063356399536,0.05207141116261482,-1.2628748416900635
12.518800497055054,-0.0558861680328846,-0.9458686113357544,0.9924086332321167,1.1385138034820557,0.04940108209848404,-1.2636377811431885
12.538958549499512,-0.04711223021149635,-0.9706645011901855,1.0206378698349,1.1396582126617432,0.04787518084049225,-1.2644007205963135
12.55900502204895,-0.04177157208323479,-0.9954604506492615,1.049248456954956,1.1415655612945557,0.04482337832450867,-1.264782190322876
12.579028367996216,-0.03681239113211632,-1.0248340368270874,1.0801479816436768,1.1423285007476807,0.04901960864663124,-1.265545129776001
12.599122762680054,-0.03376058489084244,-1.056496500968933,1.114099383354187,1.1449989080429077,0.057793546468019485,-1.266308069229126
12.619184255599976,-0.03147173300385475,-1.0877774953842163,1.1476691961288452,1.1476691961288452,0.04940108209848404,-1.2682154178619385
12.639275074005127,-0.027656977996230125,-1.125162124633789,1.190394401550293,1.1530098915100098,0.040245670825242996,-1.2731746435165405
12.660123348236084,-0.024223696440458298,-1.1602579355239868,1.2346456050872803,1.1625467538833618,0.043678950518369675,-1.28233003616333
12.680214881896973,-0.024223696440458298,-1.1919203996658325,1.272793173789978,1.1675058603286743,0.030708782374858856,-1.2903410196304321
12.7003014087677,-0.021171892061829567,-1.2170977592468262,1.3044556379318237,1.1724650859832764,0.018120087683200836,-1.2998778820037842
12.72034740447998,-0.01735713705420494,-1.2323567867279053,1.3258183002471924,1.180094599723816,0.022697795182466507,-1.3105592727661133
12.740593671798706,-0.01926451548933983,-1.2468528747558594,1.349469780921936,1.182383418083191,0.00476844422519207,-1.3178073167800903
12.76070785522461,-0.018120087683200836,-1.259822964668274,1.3700693845748901,1.183146357536316,0.00667582219466567,-1.3250553607940674
12.780800104141235,-0.016975661739706993,-1.265545129776001,1.3784618377685547,1.186579704284668,0.016594186425209045,-1.3323034048080444
12.800828456878662,-0.018120087683200836,-1.265545129776001,1.3803693056106567,1.1877241134643555,0.018501564860343933,-1.334210753440857
12.820875883102417,-0.02193484455347061,-1.264782190322876,1.3818951845169067,1.189631462097168,0.01506828423589468,-1.335736632347107
12.840967178344727,-0.024223696440458298,-1.2636377811431885,1.3872358798980713,1.19153892993927,0.007057297509163618,-1.3391698598861694
12.861031770706177,-0.024605173617601395,-1.263256311416626,1.3906691074371338,1.19306480884552,0.001716639962978661,-1.340695858001709
12.88109540939331,-0.02689402550458908,-1.263256311416626,1.3971542119979858,1.193827748298645,-0.0032425422687083483,-1.3418402671813965
12.901216983795166,-0.02536812424659729,-1.2621119022369385,1.403639316558838,1.1942092180252075,-0.006294346414506435,-1.3441290855407715
12.921306133270264,-0.02536812424659729,-1.2602044343948364,1.4047837257385254,1.19611656665802,-0.0013351644156500697,-1.345273494720459
12.94139575958252,-0.026131074875593185,-1.2571526765823364,1.403639316558838,1.19764244556427,0.004386968910694122,-1.3471808433532715
12.961462020874023,-0.02689402550458908,-1.2548638582229614,1.4032578468322754,1.1999313831329346,0.008201723918318748,-1.350232720375061
12.981500387191772,-0.029182879254221916,-1.254482388496399,1.4085984230041504,1.2067978382110596,-0.00019073777366429567,-1.3586251735687256
13.00158166885376,-0.028038453310728073,-1.2556267976760864,1.41317617893219,1.2090867757797241,-0.008964675478637218,-1.3647288084030151
13.021651983261108,-0.028038453310728073,-1.2541009187698364,1.412413239479065,1.2132829427719116,-0.005531395319849253,-1.3715953826904297
13.041727304458618,-0.029564354568719864,-1.2533378601074219,1.4127947092056274,1.2163348197937012,-0.012397955171763897,-1.3773174285888672
13.061817646026611,-0.029564354568719864,-1.2533378601074219,1.41622793674469,1.2190051078796387,-0.012779430486261845,-1.3796063661575317
13.0819411277771,-0.028038453310728073,-1.2537193298339844,1.423475980758667,1.2209124565124512,-0.013160906732082367,-1.3830395936965942
13.101963996887207,-0.027656977996230125,-1.2537193298339844,1.4238574504852295,1.2239643335342407,-0.010109102353453636,-1.3879988193511963
13.122043132781982,-0.02880140393972397,-1.2521934509277344,1.422713041305542,1.2254902124404907,-0.005531395319849253,-1.3910505771636963
13.142090320587158,-0.029182879254221916,-1.2514305114746094,1.421950101852417,1.2315938472747803,-0.005149920005351305,-1.3982986211776733
13.162169694900513,-0.02841992862522602,-1.2521934509277344,1.427672266960144,1.2361714839935303,-0.012397955171763897,-1.4040207862854004
13.182235479354858,-0.028038453310728073,-1.254482388496399,1.4295796155929565,1.2384604215621948,-0.010872052982449532,-1.4093613624572754
13.202318668365479,-0.029182879254221916,-1.2541009187698364,1.4288166761398315,1.2407492399215698,-0.011635004542768002,-1.41470205783844
13.222502946853638,-0.029182879254221916,-1.2548638582229614,1.4337759017944336,1.2441824674606323,-0.02231631986796856,-1.421187162399292
13.242557287216187,-0.023460745811462402,-1.255245327949524,1.434920310974121,1.2464714050292969,-0.024605173617601395,-1.425001859664917
13.262644529342651,-0.02536812424659729,-1.2556267976760864,1.4391164779663086,1.2502861022949219,-0.025749599561095238,-1.4280537366867065
13.282713651657104,-0.022697795182466507,-1.2556267976760864,1.440260887145996,1.2529563903808594,-0.024986648932099342,-1.4345388412475586
13.302846193313599,-0.02231631986796856,-1.255245327949524,1.4391164779663086,1.2548638582229614,-0.018120087683200836,-1.437972068786621
13.322928667068481,-0.023460745811462402,-1.255245327949524,1.436446189880371,1.257534146308899,-0.012397955171763897,-1.4417868852615356
13.343101263046265,-0.028038453310728073,-1.2556267976760864,1.437209129333496,1.261730432510376,-0.013160906732082367,-1.4478904008865356
13.363100528717041,-0.02841992862522602,-1.2563897371292114,1.438735008239746,1.2628748416900635,-0.018501564860343933,-1.4490348100662231
13.383313655853271,-0.02880140393972397,-1.257534146308899,1.4433127641677856,1.264782190322876,-0.026512550190091133,-1.4494163990020752
13.403433799743652,-0.024605173617601395,-1.258297085762024,1.4482718706130981,1.266308069229126,-0.032616160809993744,-1.4501793384552002
13.423539161682129,-0.02079041674733162,-1.257534146308899,1.4486533403396606,1.269359827041626,-0.024605173617601395,-1.4520866870880127
13.443860530853271,-0.01926451548933983,-1.2563897371292114,1.4486533403396606,1.269741415977478,-0.02231631986796856,-1.4524681568145752
13.464019536972046,-0.01888304017484188,-1.2556267976760864,1.4475089311599731,1.2708858251571655,-0.01735713705420494,-1.4536125659942627
13.484183073043823,-0.01735713705420494,-1.2556267976760864,1.4456015825271606,1.271267294883728,-0.01506828423589468,-1.4551384449005127
13.504180431365967,-0.01773861236870289,-1.256771206855774,1.4436942338943481,1.272030234336853,-0.015449759550392628,-1.4559013843536377
13.52441954612732,-0.02079041674733162,-1.2579156160354614,1.4444571733474731,1.2731746435165405,-0.021171892061829567,-1.4574273824691772
13.544581890106201,-0.02231631986796856,-1.259822964668274,1.4459830522537231,1.273556113243103,-0.026512550190091133,-1.4600976705551147
13.56471872329712,-0.023079270496964455,-1.260585904121399,1.4490348100662231,1.274319052696228,-0.031090257689356804,-1.4604791402816772
13.584733009338379,-0.02536812424659729,-1.260585904121399,1.4539940357208252,1.2754634618759155,-0.03452353551983833,-1.4604791402816772
13.604835748672485,-0.024223696440458298,-1.2594414949417114,1.4513237476348877,1.276607871055603,-0.025749599561095238,-1.4616235494613647
13.624963283538818,-0.027656977996230125,-1.257534146308899,1.4475089311599731,1.27927827835083,-0.02231631986796856,-1.4623864889144897
13.645052433013916,-0.02727550081908703,-1.256008267402649,1.4452201128005981,1.2819485664367676,-0.01888304017484188,-1.4635308980941772
13.665127277374268,-0.026512550190091133,-1.256771206855774,1.4475089311599731,1.2834744453430176,-0.024223696440458298,-1.4642938375473022
13.685198307037354,-0.024605173617601395,-1.2594414949417114,1.4551384449005127,1.2842373847961426,-0.034142062067985535,-1.4673457145690918
13.705309391021729,-0.020027466118335724,-1.2621119022369385,1.4562828540802002,1.284618854522705,-0.03528648987412453,-1.4707789421081543
13.725346326828003,-0.021553369238972664,-1.2621119022369385,1.4559013843536377,1.2857633829116821,-0.032616160809993744,-1.4726864099502563
13.745438575744629,-0.023079270496964455,-1.261348843574524,1.4551384449005127,1.2880522012710571,-0.027656977996230125,-1.4749752283096313
13.76547384262085,-0.018501564860343933,-1.260585904121399,1.4574273824691772,1.2937743663787842,-0.02880140393972397,-1.4765011072158813
13.78556513786316,-0.019645990803837776,-1.2602044343948364,1.4570459127426147,1.2983520030975342,-0.024605173617601395,-1.4765011072158813
13.80566143989563,-0.021171892061829567,-1.2602044343948364,1.4559013843536377,1.2994964122772217,-0.024223696440458298,-1.4772640466690063
13.825703620910645,-0.024605173617601395,-1.2602044343948364,1.4532310962677002,1.3021668195724487,-0.021553369238972664,-1.4787899255752563
13.845757484436035,-0.024986648932099342,-1.2609673738479614,1.4528496265411377,1.3033112287521362,-0.02727550081908703,-1.4791713953018188
13.86592721939087,-0.024986648932099342,-1.2621119022369385,1.4536125659942627,1.3036926984786987,-0.032616160809993744,-1.4799343347549438
13.88596487045288,-0.024986648932099342,-1.2628748416900635,1.4562828540802002,1.3036926984786987,-0.03681239113211632,-1.4814603328704834
13.906023263931274,-0.024986648932099342,-1.2628748416900635,1.4604791402816772,1.3040741682052612,-0.04177157208323479,-1.481841802597046
13.926071405410767,-0.02384222112596035,-1.262493371963501,1.4612420797348022,1.3052185773849487,-0.035667963325977325,-1.484130620956421
13.946158170700073,-0.024223696440458298,-1.2609673738479614,1.4616235494613647,1.3063629865646362,-0.026512550190091133,-1.4860379695892334
13.966228485107422,-0.024223696440458298,-1.259822964668274,1.4604791402816772,1.3071259260177612,-0.01926451548933983,-1.4868009090423584
13.986302137374878,-0.024223696440458298,-1.2594414949417114,1.4585717916488647,1.3082703351974487,-0.01773861236870289,-1.487945318222046
14.006381273269653,-0.029182879254221916,-1.259822964668274,1.4570459127426147,1.3101778030395508,-0.018120087683200836,-1.489089846611023
14.026570558547974,-0.031090257689356804,-1.261730432510376,1.4616235494613647,1.3113222122192383,-0.034142062067985535,-1.491378664970398
14.046605348587036,-0.029182879254221916,-1.2644007205963135,1.4662013053894043,1.3124666213989258,-0.040245670825242996,-1.4925230741500854
14.066744565963745,-0.02841992862522602,-1.264782190322876,1.4715418815612793,1.3128480911254883,-0.04596780240535736,-1.4925230741500854
14.08674931526184,-0.02727550081908703,-1.2644007205963135,1.4703974723815918,1.3136110305786133,-0.0398641936480999,-1.492904543876648
14.107001543045044,-0.028038453310728073,-1.2621119022369385,1.4658198356628418,1.3147554397583008,-0.03337911143898964,-1.4940489530563354
14.127076864242554,-0.029182879254221916,-1.2602044343948364,1.4600976705551147,1.3170443773269653,-0.02880140393972397,-1.494430422782898
14.147151708602905,-0.02880140393972397,-1.2594414949417114,1.4612420797348022,1.3189517259597778,-0.03452353551983833,-1.4967193603515625
14.167228937149048,-0.02689402550458908,-1.262493371963501,1.4658198356628418,1.3200961351394653,-0.04291599988937378,-1.4993896484375
14.187506914138794,-0.02727550081908703,-1.264019250869751,1.4654383659362793,1.3212405443191528,-0.04100862145423889,-1.5012969970703125
14.207621335983276,-0.02727550081908703,-1.264782190322876,1.4681086540222168,1.3227664232254028,-0.04634927958250046,-1.50244140625
14.22773003578186,-0.02727550081908703,-1.264782190322876,1.4684901237487793,1.3250553607940674,-0.04940108209848404,-1.505111813545227
14.247772216796875,-0.028038453310728073,-1.264019250869751,1.4692530632019043,1.3269627094268799,-0.045204851776361465,-1.5077821016311646
14.267865896224976,-0.029564354568719864,-1.2628748416900635,1.4650568962097168,1.3296329975128174,-0.037193864583969116,-1.5093079805374146
14.287971258163452,-0.03032730519771576,-1.261348843574524,1.4631494283676147,1.333447813987732,-0.02994582988321781,-1.511215329170227
14.308034181594849,-0.03147173300385475,-1.261730432510376,1.4635308980941772,1.335736632347107,-0.030708782374858856,-1.5135042667388916
14.328087329864502,-0.027656977996230125,-1.2636377811431885,1.4677271842956543,1.3361181020736694,-0.03337911143898964,-1.516174554824829
14.348410367965698,-0.02880140393972397,-1.264782190322876,1.4665827751159668,1.3368810415267944,-0.032616160809993744,-1.5165560245513916
