liuyurong129/humanoid-gym/humanoid/data/actual_q_20250522-054058.csv
timestamp,joint_1,joint_2,joint_3,joint_4,joint_5,joint_6
4.4345855712890625e-05,-0.00019073777366429567,0.001716639962978661,-0.001716639962978661,-0.00019073777366429567,0.00019073777366429567,-0.00019073777366429567
0.020133495330810547,-0.00019073777366429567,0.001716639962978661,-0.0013351644156500697,-0.00019073777366429567,0.00019073777366429567,-0.00019073777366429567
0.04019784927368164,-0.00019073777366429567,0.001716639962978661,-0.0013351644156500697,-0.00019073777366429567,0.00019073777366429567,-0.00019073777366429567
0.06043577194213867,-0.00019073777366429567,0.001716639962978661,-0.0009536888683214784,-0.00019073777366429567,0.00019073777366429567,-0.00019073777366429567
0.0805516242980957,-0.00019073777366429567,0.000572213320992887,-0.000572213320992887,-0.00019073777366429567,-0.00019073777366429567,-0.00019073777366429567
0.10060358047485352,-0.00019073777366429567,0.000572213320992887,-0.00019073777366429567,-0.00019073777366429567,-0.00019073777366429567,-0.00019073777366429567
0.12065577507019043,-0.00019073777366429567,0.00019073777366429567,-0.00019073777366429567,-0.00019073777366429567,0.00019073777366429567,-0.00019073777366429567
0.14073395729064941,-0.00019073777366429567,-0.00019073777366429567,0.00019073777366429567,-0.00019073777366429567,0.00019073777366429567,-0.00019073777366429567
0.16079926490783691,-0.000572213320992887,-0.0013351644156500697,0.000572213320992887,-0.00019073777366429567,0.00019073777366429567,-0.00019073777366429567
0.18091773986816406,-0.000572213320992887,-0.0013351644156500697,0.000572213320992887,-0.00019073777366429567,0.00019073777366429567,-0.00019073777366429567
0.20105481147766113,-0.0009536888683214784,-0.0020981156267225742,0.000572213320992887,-0.00019073777366429567,0.00019073777366429567,-0.00019073777366429567
0.22108817100524902,-0.002861066721379757,-0.0032425422687083483,0.0009536888683214784,-0.00019073777366429567,0.00019073777366429567,-0.00019073777366429567
0.24127650260925293,-0.0032425422687083483,-0.004005493130534887,0.001716639962978661,-0.00019073777366429567,0.00019073777366429567,-0.00019073777366429567
0.2612617015838623,-0.004386968910694122,-0.004386968910694122,0.0020981156267225742,-0.00019073777366429567,0.00019073777366429567,-0.00019073777366429567
0.28135013580322266,-0.005531395319849253,-0.005531395319849253,0.0024795911740511656,-0.00019073777366429567,-0.00019073777366429567,-0.00019073777366429567
0.30150818824768066,-0.005912871100008488,-0.005912871100008488,0.002861066721379757,-0.00019073777366429567,0.00019073777366429567,-0.00019073777366429567
0.32149767875671387,-0.00667582219466567,-0.00667582219466567,0.002861066721379757,-0.00019073777366429567,0.00019073777366429567,-0.00019073777366429567
0.34157347679138184,-0.0078202486038208,-0.00667582219466567,0.002861066721379757,-0.00019073777366429567,0.00019073777366429567,-0.00019073777366429567
0.3616616725921631,-0.0078202486038208,-0.007057297509163618,0.0032425422687083483,-0.00019073777366429567,-0.00019073777366429567,-0.00019073777366429567
0.3817315101623535,-0.0078202486038208,-0.0078202486038208,0.0032425422687083483,-0.00019073777366429567,-0.00019073777366429567,-0.00019073777366429567
0.4017794132232666,-0.00858320016413927,-0.00858320016413927,0.004005493130534887,-0.00019073777366429567,-0.00019073777366429567,-0.00019073777366429567
0.4220149517059326,-0.009727626107633114,-0.008964675478637218,0.004386968910694122,-0.00019073777366429567,-0.00019073777366429567,-0.00019073777366429567
0.44210290908813477,-0.010109102353453636,-0.009727626107633114,0.00476844422519207,-0.00019073777366429567,-0.00019073777366429567,-0.00019073777366429567
0.46219468116760254,-0.010490577667951584,-0.010109102353453636,0.00476844422519207,-0.00019073777366429567,0.00019073777366429567,-0.00019073777366429567
0.4822373390197754,-0.01125352829694748,-0.010872052982449532,0.00476844422519207,-0.00019073777366429567,0.00019073777366429567,-0.00019073777366429567
0.5024154186248779,-0.01201647985726595,-0.011635004542768002,0.00476844422519207,-0.00019073777366429567,0.00019073777366429567,-0.00019073777366429567
0.5225093364715576,-0.012779430486261845,-0.01201647985726595,0.005149920005351305,-0.00019073777366429567,0.00019073777366429567,-0.00019073777366429567
0.5425283908843994,-0.013923857361078262,-0.012779430486261845,0.005149920005351305,0.00019073777366429567,0.00019073777366429567,-0.00019073777366429567
0.5629310607910156,-0.01506828423589468,-0.013923857361078262,0.006294346414506435,-0.00019073777366429567,0.00019073777366429567,-0.00019073777366429567
0.5830156803131104,-0.01506828423589468,-0.014686808921396732,0.007057297509163618,0.00019073777366429567,-0.00019073777366429567,-0.00019073777366429567
0.6031122207641602,-0.015449759550392628,-0.015449759550392628,0.007057297509163618,0.00019073777366429567,0.00019073777366429567,-0.00019073777366429567
0.6231563091278076,-0.016212711110711098,-0.01583123579621315,0.007057297509163618,0.00019073777366429567,0.00019073777366429567,-0.00019073777366429567
0.6433157920837402,-0.01735713705420494,-0.016594186425209045,0.007057297509163618,0.00019073777366429567,-0.00019073777366429567,-0.00019073777366429567
0.6633443832397461,-0.018120087683200836,-0.01735713705420494,0.007057297509163618,0.00019073777366429567,0.00019073777366429567,-0.00019073777366429567
0.6834390163421631,-0.01926451548933983,-0.018120087683200836,0.0078202486038208,0.00019073777366429567,0.00019073777366429567,-0.00019073777366429567
0.7034852504730225,-0.020027466118335724,-0.01888304017484188,0.008201723918318748,0.00019073777366429567,0.00019073777366429567,-0.00019073777366429567
0.7235672473907471,-0.02040894143283367,-0.01926451548933983,0.00858320016413927,0.00019073777366429567,-0.00019073777366429567,-0.00019073777366429567
0.7436478137969971,-0.021171892061829567,-0.019645990803837776,0.00858320016413927,0.00019073777366429567,0.00019073777366429567,-0.00019073777366429567
0.7636814117431641,-0.02231631986796856,-0.02079041674733162,0.008964675478637218,0.00019073777366429567,-0.00019073777366429567,-0.00019073777366429567
0.7841250896453857,-0.02231631986796856,-0.021553369238972664,0.008964675478637218,0.00019073777366429567,-0.00019073777366429567,-0.00019073777366429567
0.8042116165161133,-0.022697795182466507,-0.02231631986796856,0.008964675478637218,0.00019073777366429567,-0.00019073777366429567,-0.00019073777366429567
0.8243072032928467,-0.023460745811462402,-0.023079270496964455,0.009346150793135166,0.00019073777366429567,0.00019073777366429567,-0.00019073777366429567
0.8443548679351807,-0.024223696440458298,-0.023460745811462402,0.009727626107633114,0.00019073777366429567,0.00019073777366429567,-0.00019073777366429567
0.8644170761108398,-0.024986648932099342,-0.024223696440458298,0.010109102353453636,0.00019073777366429567,-0.00019073777366429567,-0.00019073777366429567
0.8845374584197998,-0.025749599561095238,-0.024605173617601395,0.010490577667951584,0.00019073777366429567,-0.00019073777366429567,-0.00019073777366429567
0.9046592712402344,-0.026512550190091133,-0.02536812424659729,0.010490577667951584,0.000572213320992887,0.00019073777366429567,-0.00019073777366429567
0.9246606826782227,-0.02727550081908703,-0.026131074875593185,0.010872052982449532,0.000572213320992887,0.00019073777366429567,-0.00019073777366429567
0.9447450637817383,-0.027656977996230125,-0.026512550190091133,0.010872052982449532,0.000572213320992887,-0.00019073777366429567,-0.00019073777366429567
0.9648258686065674,-0.02841992862522602,-0.027656977996230125,0.01125352829694748,0.000572213320992887,-0.00019073777366429567,-0.00019073777366429567
0.9849035739898682,-0.029564354568719864,-0.02841992862522602,0.01125352829694748,0.000572213320992887,0.00019073777366429567,-0.00019073777366429567
1.0050015449523926,-0.029564354568719864,-0.02880140393972397,0.01201647985726595,0.0009536888683214784,0.00019073777366429567,-0.00019073777366429567
1.0251400470733643,-0.029564354568719864,-0.029564354568719864,0.012397955171763897,0.0009536888683214784,-0.00019073777366429567,-0.00019073777366429567
1.0452322959899902,-0.030708782374858856,-0.030708782374858856,0.012397955171763897,0.0009536888683214784,0.00019073777366429567,-0.00019073777366429567
1.0653178691864014,-0.03147173300385475,-0.031090257689356804,0.012397955171763897,0.0013351644156500697,0.00019073777366429567,-0.00019073777366429567
1.0854077339172363,-0.03223468363285065,-0.03185320645570755,0.012779430486261845,0.0013351644156500697,0.00019073777366429567,-0.00019073777366429567
1.1054813861846924,-0.03337911143898964,-0.03299763426184654,0.013160906732082367,0.0013351644156500697,0.00019073777366429567,-0.00019073777366429567
1.1255080699920654,-0.03452353551983833,-0.03376058489084244,0.013542382046580315,0.0013351644156500697,-0.00019073777366429567,-0.00019073777366429567
1.14577054977417,-0.03490501269698143,-0.034142062067985535,0.013923857361078262,0.0013351644156500697,-0.00019073777366429567,-0.00019073777366429567
1.1657764911651611,-0.03604944050312042,-0.03490501269698143,0.01430533267557621,0.001716639962978661,-0.00019073777366429567,-0.00019073777366429567
1.1858630180358887,-0.03681239113211632,-0.03604944050312042,0.01506828423589468,0.0020981156267225742,0.00019073777366429567,-0.00019073777366429567
1.2059495449066162,-0.03681239113211632,-0.03604944050312042,0.01506828423589468,0.0020981156267225742,-0.00019073777366429567,-0.00019073777366429567
1.2260868549346924,-0.03681239113211632,-0.03681239113211632,0.01506828423589468,0.0020981156267225742,-0.00019073777366429567,-0.00019073777366429567
1.2461097240447998,-0.03757534176111221,-0.03757534176111221,0.015449759550392628,0.0024795911740511656,-0.00019073777366429567,-0.00019073777366429567
1.2662112712860107,-0.039101243019104004,-0.038719769567251205,0.01583123579621315,0.0024795911740511656,0.00019073777366429567,-0.00019073777366429567
1.2862763404846191,-0.0398641936480999,-0.039101243019104004,0.016212711110711098,0.0024795911740511656,0.00019073777366429567,-0.00019073777366429567
1.3064708709716797,-0.040245670825242996,-0.0398641936480999,0.016594186425209045,0.002861066721379757,0.00019073777366429567,-0.00019073777366429567
1.3268215656280518,-0.04139009863138199,-0.040627144277095795,0.01735713705420494,0.002861066721379757,0.00019073777366429567,-0.00019073777366429567
1.3469138145446777,-0.042153049260377884,-0.04139009863138199,0.01735713705420494,0.002861066721379757,-0.00019073777366429567,-0.00019073777366429567
1.3670201301574707,-0.04253452271223068,-0.042153049260377884,0.01773861236870289,0.0032425422687083483,0.00019073777366429567,-0.00019073777366429567
1.3870961666107178,-0.04329747334122658,-0.04291599988937378,0.01773861236870289,0.0032425422687083483,0.00019073777366429567,-0.00019073777366429567
1.4072303771972656,-0.04406042397022247,-0.04444190114736557,0.018501564860343933,0.0032425422687083483,0.00019073777366429567,-0.00019073777366429567
1.427278995513916,-0.04444190114736557,-0.045204851776361465,0.01888304017484188,0.0032425422687083483,0.00019073777366429567,-0.00019073777366429567
1.4473214149475098,-0.04444190114736557,-0.04558632895350456,0.01926451548933983,0.0036240178160369396,0.00019073777366429567,-0.00019073777366429567
1.4674108028411865,-0.045204851776361465,-0.04596780240535736,0.019645990803837776,0.0036240178160369396,0.00019073777366429567,-0.00019073777366429567
1.487546443939209,-0.04634927958250046,-0.04711223021149635,0.019645990803837776,0.0036240178160369396,0.00019073777366429567,-0.00019073777366429567
1.5075769424438477,-0.04749370738863945,-0.04787518084049225,0.020027466118335724,0.004005493130534887,0.00019073777366429567,-0.00019073777366429567
1.5276439189910889,-0.048256658017635345,-0.048256658017635345,0.02040894143283367,0.004005493130534887,0.00019073777366429567,-0.00019073777366429567
1.5477497577667236,-0.04901960864663124,-0.04901960864663124,0.02079041674733162,0.004005493130534887,0.00019073777366429567,0.00019073777366429567
1.5678284168243408,-0.049782559275627136,-0.04940108209848404,0.021171892061829567,0.004005493130534887,0.00019073777366429567,-0.00019073777366429567
1.587918758392334,-0.05054550990462303,-0.050164032727479935,0.021553369238972664,0.004386968910694122,0.00019073777366429567,-0.00019073777366429567
1.6080236434936523,-0.05130846053361893,-0.05092698708176613,0.021553369238972664,0.004386968910694122,0.00019073777366429567,-0.00019073777366429567
1.6281158924102783,-0.051689937710762024,-0.05207141116261482,0.02193484455347061,0.004386968910694122,0.00019073777366429567,-0.00019073777366429567
1.6481835842132568,-0.05207141116261482,-0.05283436179161072,0.02231631986796856,0.004386968910694122,-0.00019073777366429567,-0.00019073777366429567
1.6683213710784912,-0.05283436179161072,-0.05359731614589691,0.022697795182466507,0.00476844422519207,0.00019073777366429567,-0.00019073777366429567
1.6883506774902344,-0.05359731614589691,-0.05436026677489281,0.023079270496964455,0.00476844422519207,0.00019073777366429567,-0.00019073777366429567
1.7084333896636963,-0.054741740226745605,-0.0555046908557415,0.023460745811462402,0.005149920005351305,0.00019073777366429567,-0.00019073777366429567
1.728501319885254,-0.0555046908557415,-0.0555046908557415,0.023460745811462402,0.005912871100008488,0.00019073777366429567,-0.00019073777366429567
1.7485737800598145,-0.0558861680328846,-0.0558861680328846,0.02384222112596035,0.006294346414506435,0.00019073777366429567,-0.00019073777366429567
1.7686553001403809,-0.056267641484737396,-0.05664911866188049,0.02384222112596035,0.00667582219466567,-0.00019073777366429567,-0.00019073777366429567
1.7887492179870605,-0.057793546468019485,-0.058175019919872284,0.024605173617601395,0.00667582219466567,0.00019073777366429567,-0.00019073777366429567
1.8088347911834717,-0.05855649709701538,-0.05970092490315437,0.024986648932099342,0.00667582219466567,0.00019073777366429567,-0.00019073777366429567
1.828934907913208,-0.05893797054886818,-0.061226826161146164,0.02536812424659729,0.007057297509163618,0.00019073777366429567,-0.00019073777366429567
1.8489534854888916,-0.059319447726011276,-0.06237125024199486,0.02536812424659729,0.007057297509163618,-0.00019073777366429567,0.00019073777366429567
1.8691048622131348,-0.06046387553215027,-0.06275273114442825,0.025749599561095238,0.007057297509163618,0.00019073777366429567,-0.00019073777366429567
1.889143943786621,-0.06084534898400307,-0.06351567804813385,0.025749599561095238,0.007057297509163618,0.00019073777366429567,-0.00019073777366429567
1.909203290939331,-0.06160829961299896,-0.06389715522527695,0.026131074875593185,0.007057297509163618,0.00019073777366429567,-0.00019073777366429567
1.9293131828308105,-0.06275273114442825,-0.06466010212898254,0.02689402550458908,0.007057297509163618,0.00019073777366429567,-0.00019073777366429567
1.9493935108184814,-0.06351567804813385,-0.06580453366041183,0.02727550081908703,0.007057297509163618,0.00019073777366429567,-0.00019073777366429567
1.9695217609405518,-0.06389715522527695,-0.06618601083755493,0.027656977996230125,0.007438773289322853,0.00019073777366429567,-0.00019073777366429567
1.9899952411651611,-0.06504157930612564,-0.06694895774126053,0.027656977996230125,0.007438773289322853,-0.00019073777366429567,0.00019073777366429567
2.0100746154785156,-0.06618601083755493,-0.06809338182210922,0.028038453310728073,0.007438773289322853,0.00019073777366429567,-0.00019073777366429567
2.030186891555786,-0.06618601083755493,-0.06885633617639542,0.02880140393972397,0.007438773289322853,0.00019073777366429567,-0.00019073777366429567
2.0502350330352783,-0.06656748056411743,-0.07000076025724411,0.029182879254221916,0.007438773289322853,0.00019073777366429567,0.00019073777366429567
2.0706050395965576,-0.06809338182210922,-0.0711451917886734,0.029564354568719864,0.0078202486038208,-0.00019073777366429567,-0.00019073777366429567
2.0908727645874023,-0.06885633617639542,-0.071908138692379,0.02994582988321781,0.0078202486038208,0.00019073777366429567,-0.00019073777366429567
2.11083722114563,-0.06923781335353851,-0.0722896158695221,0.03032730519771576,0.0078202486038208,0.00019073777366429567,0.00019073777366429567
2.1309022903442383,-0.07038223743438721,-0.07343403995037079,0.031090257689356804,0.008201723918318748,0.00019073777366429567,0.00019073777366429567
2.1510095596313477,-0.0715266615152359,-0.07457847148180008,0.03147173300385475,0.0078202486038208,0.00019073777366429567,0.00019073777366429567
2.171081304550171,-0.07267109304666519,-0.07610437273979187,0.03185320645570755,0.008201723918318748,0.00019073777366429567,0.00019073777366429567
2.1912827491760254,-0.07305257022380829,-0.07724879682064056,0.03223468363285065,0.008201723918318748,0.00019073777366429567,0.00019073777366429567
2.211367607116699,-0.07343403995037079,-0.07801175117492676,0.032616160809993744,0.00858320016413927,-0.00019073777366429567,0.00019073777366429567
2.231433629989624,-0.07381551712751389,-0.07877469807863235,0.03299763426184654,0.00858320016413927,-0.00019073777366429567,0.00019073777366429567
2.2514829635620117,-0.07495994865894318,-0.07953765243291855,0.03376058489084244,0.008964675478637218,0.00019073777366429567,0.00019073777366429567
2.271583080291748,-0.07572289556264877,-0.08068207651376724,0.034142062067985535,0.009346150793135166,0.00019073777366429567,-0.00019073777366429567
2.291658878326416,-0.07686731964349747,-0.08144503086805344,0.03452353551983833,0.010109102353453636,0.00019073777366429567,-0.00019073777366429567
2.311708688735962,-0.07763027399778366,-0.08297093212604523,0.03490501269698143,0.010109102353453636,0.00019073777366429567,0.00019073777366429567
2.331789016723633,-0.07839322835206985,-0.08411535620689392,0.035667963325977325,0.010490577667951584,0.00019073777366429567,0.00019073777366429567
2.3518548011779785,-0.07953765243291855,-0.08487831056118011,0.03604944050312042,0.010490577667951584,0.00019073777366429567,0.00019073777366429567
2.37190842628479,-0.07991912961006165,-0.08564125746488571,0.03604944050312042,0.010872052982449532,0.00019073777366429567,0.00019073777366429567
2.392456293106079,-0.08068207651376724,-0.0864042118191719,0.03643091395497322,0.010872052982449532,0.00019073777366429567,0.00019073777366429567
2.4125375747680664,-0.08106355369091034,-0.0875486359000206,0.037193864583969116,0.010872052982449532,-0.00019073777366429567,0.00019073777366429567
2.4326212406158447,-0.08144503086805344,-0.0879301130771637,0.037193864583969116,0.01125352829694748,-0.00019073777366429567,0.00019073777366429567
2.4526872634887695,-0.08258945494890213,-0.08869306743144989,0.037193864583969116,0.01125352829694748,0.00019073777366429567,0.00019073777366429567
2.472766399383545,-0.08335240930318832,-0.08983749151229858,0.03757534176111221,0.01125352829694748,0.00019073777366429567,0.00019073777366429567
2.4928388595581055,-0.08487831056118011,-0.09098191559314728,0.03833829239010811,0.01125352829694748,0.00019073777366429567,0.00019073777366429567
2.5129106044769287,-0.08564125746488571,-0.09212634712457657,0.039101243019104004,0.011635004542768002,0.00019073777366429567,0.00019073777366429567
2.532968282699585,-0.086785688996315,-0.09288929402828217,0.039101243019104004,0.011635004542768002,0.00019073777366429567,0.00019073777366429567
2.553115129470825,-0.0875486359000206,-0.09403372555971146,0.0394827201962471,0.011635004542768002,0.00019073777366429567,0.00019073777366429567
2.5732109546661377,-0.0879301130771637,-0.09479667246341705,0.0398641936480999,0.01201647985726595,-0.00019073777366429567,0.00019073777366429567
2.593283176422119,-0.0879301130771637,-0.09594109654426575,0.0398641936480999,0.01201647985726595,-0.00019073777366429567,0.00019073777366429567
2.613365650177002,-0.08869306743144989,-0.09746700525283813,0.040245670825242996,0.012397955171763897,-0.00019073777366429567,0.00019073777366429567
2.6334447860717773,-0.08983749151229858,-0.09822995215654373,0.04100862145423889,0.012779430486261845,0.00019073777366429567,0.00019073777366429567
2.653475284576416,-0.09021896868944168,-0.09899290651082993,0.04100862145423889,0.013160906732082367,0.00019073777366429567,0.00019073777366429567
2.673795223236084,-0.09098191559314728,-0.09937438368797302,0.04139009863138199,0.01430533267557621,0.00019073777366429567,0.00019073777366429567
2.6939306259155273,-0.09250781685113907,-0.10013733059167862,0.04177157208323479,0.01430533267557621,0.00019073777366429567,0.00019073777366429567
2.7139809131622314,-0.09327077120542526,-0.10128175467252731,0.042153049260377884,0.01430533267557621,0.00019073777366429567,0.00019073777366429567
2.734046220779419,-0.09403372555971146,-0.1035706102848053,0.04253452271223068,0.014686808921396732,0.00019073777366429567,0.00019073777366429567
2.7541215419769287,-0.09479667246341705,-0.10471503436565399,0.04329747334122658,0.014686808921396732,-0.00019073777366429567,0.00019073777366429567
2.774179697036743,-0.09517814964056015,-0.10585946589708328,0.043678950518369675,0.014686808921396732,-0.00019073777366429567,0.00019073777366429567
2.7942447662353516,-0.09555962681770325,-0.10662241280078888,0.04406042397022247,0.014686808921396732,-0.00019073777366429567,0.00019073777366429567
2.8145041465759277,-0.09708552807569504,-0.10662241280078888,0.04444190114736557,0.01506828423589468,-0.00019073777366429567,0.00019073777366429567
2.834620475769043,-0.09784847497940063,-0.10814831405878067,0.04482337832450867,0.01506828423589468,0.00019073777366429567,0.00019073777366429567
2.854763984680176,-0.09937438368797302,-0.10929274559020996,0.04558632895350456,0.01506828423589468,0.00019073777366429567,0.00019073777366429567
2.874765157699585,-0.10013733059167862,-0.11081864684820175,0.04634927958250046,0.01506828423589468,0.00019073777366429567,0.00019073777366429567
2.894869089126587,-0.10051880776882172,-0.11196307092905045,0.046730753034353256,0.015449759550392628,0.00019073777366429567,0.00019073777366429567
2.9149398803710938,-0.10166323184967041,-0.11310750246047974,0.046730753034353256,0.01583123579621315,0.00019073777366429567,0.00019073777366429567
2.935046672821045,-0.10204470902681351,-0.11348897218704224,0.04749370738863945,0.01583123579621315,-0.00019073777366429567,0.00019073777366429567
2.9551029205322266,-0.1024261862039566,-0.11501488089561462,0.048256658017635345,0.016212711110711098,-0.000572213320992887,0.00019073777366429567
2.975175380706787,-0.1035706102848053,-0.11615930497646332,0.048638131469488144,0.016594186425209045,-0.00019073777366429567,0.00019073777366429567
2.9952304363250732,-0.1039520874619484,-0.11730372905731201,0.048638131469488144,0.016975661739706993,0.00019073777366429567,0.00019073777366429567
3.0154502391815186,-0.10509651154279709,-0.1184481605887413,0.04901960864663124,0.01735713705420494,0.00019073777366429567,0.00019073777366429567
3.035536766052246,-0.10662241280078888,-0.1199740618467331,0.049782559275627136,0.01773861236870289,0.00019073777366429567,0.00019073777366429567
3.055588722229004,-0.10700388997793198,-0.12073700875043869,0.05054550990462303,0.01773861236870289,0.00019073777366429567,0.00019073777366429567
3.075665235519409,-0.10852979123592377,-0.12302586436271667,0.05092698708176613,0.018120087683200836,0.00019073777366429567,0.00019073777366429567
3.0957839488983154,-0.10929274559020996,-0.12378881871700287,0.051689937710762024,0.018501564860343933,0.00019073777366429567,0.00019073777366429567
3.115861654281616,-0.10929274559020996,-0.12417028844356537,0.05207141116261482,0.018501564860343933,-0.000572213320992887,0.00019073777366429567
3.1363420486450195,-0.11005569249391556,-0.12531471252441406,0.05245288833975792,0.018501564860343933,-0.0009536888683214784,0.00019073777366429567
3.156420946121216,-0.11158160120248795,-0.12722209095954895,0.05283436179161072,0.018501564860343933,-0.000572213320992887,0.00019073777366429567
3.1764917373657227,-0.11234454810619354,-0.12836651504039764,0.05359731614589691,0.01888304017484188,-0.00019073777366429567,0.00019073777366429567
3.196666717529297,-0.11348897218704224,-0.13027389347553253,0.05359731614589691,0.01926451548933983,0.00019073777366429567,0.00019073777366429567
3.2168595790863037,-0.11501488089561462,-0.13179980218410492,0.05436026677489281,0.01926451548933983,-0.00019073777366429567,0.00019073777366429567
3.23690128326416,-0.11501488089561462,-0.1329442262649536,0.054741740226745605,0.01926451548933983,0.00019073777366429567,0.00019073777366429567
3.2569355964660645,-0.11577782779932022,-0.1333257108926773,0.0551232174038887,0.019645990803837776,0.00019073777366429567,0.00019073777366429567
3.2770416736602783,-0.11654078215360641,-0.1340886503458023,0.0555046908557415,0.019645990803837776,-0.000572213320992887,0.00019073777366429567
3.297135353088379,-0.11692225188016891,-0.135233074426651,0.0558861680328846,0.020027466118335724,-0.0009536888683214784,0.00019073777366429567
3.3172788619995117,-0.11730372905731201,-0.1363775134086609,0.05664911866188049,0.02040894143283367,-0.000572213320992887,0.00019073777366429567
3.3373138904571533,-0.1180666834115982,-0.1371404528617859,0.05664911866188049,0.021171892061829567,0.00019073777366429567,0.00019073777366429567
3.35736346244812,-0.1192111074924469,-0.13828489184379578,0.05703059583902359,0.021553369238972664,-0.00019073777366429567,0.00019073777366429567
3.3775112628936768,-0.1199740618467331,-0.13942931592464447,0.057793546468019485,0.021553369238972664,-0.00019073777366429567,0.00019073777366429567
3.3976588249206543,-0.12111848592758179,-0.14095520973205566,0.058175019919872284,0.02193484455347061,0.00019073777366429567,0.00019073777366429567
3.417635679244995,-0.12188144028186798,-0.14171816408634186,0.05855649709701538,0.02193484455347061,-0.00019073777366429567,0.00019073777366429567
3.4377188682556152,-0.12302586436271667,-0.14286258816719055,0.05855649709701538,0.02231631986796856,-0.00019073777366429567,0.00019073777366429567
3.457782506942749,-0.12378881871700287,-0.14362554252147675,0.059319447726011276,0.02231631986796856,-0.000572213320992887,0.00019073777366429567
3.477839946746826,-0.12417028844356537,-0.14476996660232544,0.05970092490315437,0.02231631986796856,-0.000572213320992887,0.00019073777366429567
3.4979703426361084,-0.12455176562070847,-0.14667734503746033,0.06046387553215027,0.022697795182466507,-0.0013351644156500697,0.00019073777366429567
3.518005847930908,-0.12607766687870026,-0.1497291475534439,0.061226826161146164,0.022697795182466507,-0.000572213320992887,0.00019073777366429567
3.5380945205688477,-0.12684062123298645,-0.1497291475534439,0.06198977679014206,0.023079270496964455,-0.000572213320992887,0.00019073777366429567
3.558257818222046,-0.12722209095954895,-0.1508735716342926,0.06198977679014206,0.023079270496964455,-0.00019073777366429567,0.00019073777366429567
3.5783474445343018,-0.12836651504039764,-0.1520180106163025,0.06275273114442825,0.023460745811462402,-0.00019073777366429567,0.00019073777366429567
3.5984714031219482,-0.12912946939468384,-0.1527809500694275,0.06313420087099075,0.02384222112596035,-0.00019073777366429567,0.00019073777366429567
3.6184844970703125,-0.12989242374897003,-0.15392538905143738,0.06351567804813385,0.024223696440458298,-0.000572213320992887,0.00019073777366429567
3.6385645866394043,-0.13141833245754242,-0.15506981313228607,0.06427863240242004,0.024605173617601395,-0.000572213320992887,0.00019073777366429567
3.65863037109375,-0.13141833245754242,-0.15621423721313477,0.06504157930612564,0.024986648932099342,-0.000572213320992887,0.00019073777366429567
3.6786961555480957,-0.13141833245754242,-0.15697719156742096,0.06504157930612564,0.02536812424659729,-0.000572213320992887,0.000572213320992887
3.6987926959991455,-0.1325627565383911,-0.15888457000255585,0.06580453366041183,0.025749599561095238,-0.000572213320992887,0.000572213320992887
3.7189176082611084,-0.1337071806192398,-0.16041046380996704,0.06656748056411743,0.025749599561095238,-0.00019073777366429567,0.00019073777366429567
3.7390596866607666,-0.1348516047000885,-0.16155488789081573,0.06733043491840363,0.025749599561095238,-0.00019073777366429567,0.00019073777366429567
3.759101152420044,-0.1356145590543747,-0.16231784224510193,0.06771191209554672,0.026131074875593185,-0.00019073777366429567,0.00019073777366429567
3.779176712036133,-0.1367589831352234,-0.16384375095367432,0.06809338182210922,0.026131074875593185,-0.000572213320992887,0.00019073777366429567
3.799278974533081,-0.13790340721607208,-0.1653696447610855,0.06885633617639542,0.026512550190091133,-0.000572213320992887,0.000572213320992887
3.8194031715393066,-0.13866636157035828,-0.1672770231962204,0.06961929053068161,0.026512550190091133,-0.0009536888683214784,0.00019073777366429567
3.8394505977630615,-0.13866636157035828,-0.16880293190479279,0.06961929053068161,0.026512550190091133,-0.0013351644156500697,0.000572213320992887
3.859639883041382,-0.13942931592464447,-0.17032882571220398,0.07038223743438721,0.02689402550458908,-0.0013351644156500697,0.00019073777366429567
3.8798422813415527,-0.14095520973205566,-0.17147326469421387,0.0711451917886734,0.02689402550458908,-0.000572213320992887,0.000572213320992887
3.8998684883117676,-0.14171816408634186,-0.17261768877506256,0.0711451917886734,0.02727550081908703,-0.000572213320992887,0.000572213320992887
3.919933319091797,-0.14248111844062805,-0.17376211285591125,0.0715266615152359,0.027656977996230125,-0.000572213320992887,0.000572213320992887
3.940124988555908,-0.14362554252147675,-0.17490653693675995,0.0722896158695221,0.02841992862522602,-0.000572213320992887,0.00019073777366429567
3.9601187705993652,-0.14400701224803925,-0.17681391537189484,0.07343403995037079,0.029182879254221916,-0.000572213320992887,0.000572213320992887
3.980252504348755,-0.14515145123004913,-0.17833982408046722,0.07343403995037079,0.029564354568719864,-0.0009536888683214784,0.00019073777366429567
4.000593662261963,-0.14591439068317413,-0.17948424816131592,0.07419699430465698,0.02994582988321781,-0.0013351644156500697,0.000572213320992887
4.020719766616821,-0.14629587531089783,-0.1806286722421646,0.07495994865894318,0.03032730519771576,-0.0020981156267225742,0.000572213320992887
4.040766954421997,-0.14705882966518402,-0.1825360506772995,0.07534141838550568,0.03032730519771576,-0.0020981156267225742,0.000572213320992887
4.060857772827148,-0.14820325374603271,-0.1840619444847107,0.07572289556264877,0.030708782374858856,-0.0013351644156500697,0.000572213320992887
4.080975294113159,-0.1489662081003189,-0.18596932291984558,0.07610437273979187,0.030708782374858856,-0.0013351644156500697,0.000572213320992887
4.101017713546753,-0.1497291475534439,-0.18635080754756927,0.07648584991693497,0.031090257689356804,-0.001716639962978661,0.000572213320992887
4.121106863021851,-0.1504921019077301,-0.18673227727413177,0.07686731964349747,0.03147173300385475,-0.0013351644156500697,0.000572213320992887
4.141168832778931,-0.1512550562620163,-0.18825818598270416,0.07763027399778366,0.03223468363285065,-0.001716639962978661,0.000572213320992887
4.161252498626709,-0.15316243469715118,-0.19016556441783905,0.07839322835206985,0.03299763426184654,-0.001716639962978661,0.000572213320992887
4.181339740753174,-0.15354390442371368,-0.19169145822525024,0.07953765243291855,0.03337911143898964,-0.0024795911740511656,0.000572213320992887
4.201451539993286,-0.15430685877799988,-0.19398032128810883,0.07991912961006165,0.03376058489084244,-0.002861066721379757,0.000572213320992887
4.221546649932861,-0.15545128285884857,-0.19512474536895752,0.08068207651376724,0.03376058489084244,-0.002861066721379757,0.000572213320992887
4.241587162017822,-0.15659570693969727,-0.1966506391763687,0.08144503086805344,0.03376058489084244,-0.0024795911740511656,0.000572213320992887
4.261663436889648,-0.15774014592170715,-0.1981765478849411,0.08182650804519653,0.034142062067985535,-0.002861066721379757,0.000572213320992887
4.281707525253296,-0.15964750945568085,-0.200083926320076,0.08297093212604523,0.034142062067985535,-0.002861066721379757,0.000572213320992887
4.301793098449707,-0.16041046380996704,-0.20122835040092468,0.08373387902975082,0.034142062067985535,-0.0032425422687083483,0.000572213320992887
4.321858167648315,-0.16079194843769073,-0.20351719856262207,0.08449683338403702,0.03452353551983833,-0.0036240178160369396,0.000572213320992887
4.341905117034912,-0.16079194843769073,-0.20542457699775696,0.08525978773832321,0.03452353551983833,-0.004386968910694122,0.0009536888683214784
4.362493276596069,-0.16155488789081573,-0.20656901597976685,0.08564125746488571,0.03490501269698143,-0.004005493130534887,0.0009536888683214784
4.382586479187012,-0.16269932687282562,-0.20771344006061554,0.0864042118191719,0.035667963325977325,-0.0032425422687083483,0.0009536888683214784
4.402658939361572,-0.16384375095367432,-0.20885786414146423,0.0871671661734581,0.03643091395497322,-0.0032425422687083483,0.0009536888683214784
4.4226696491241455,-0.164988175034523,-0.21076524257659912,0.0871671661734581,0.03681239113211632,-0.0032425422687083483,0.0009536888683214784
4.442849397659302,-0.1657511293888092,-0.212672621011734,0.08869306743144989,0.037193864583969116,-0.0036240178160369396,0.0009536888683214784
4.463050127029419,-0.1668955534696579,-0.2138170450925827,0.08945601433515549,0.03757534176111221,-0.004005493130534887,0.0009536888683214784
4.483022451400757,-0.1676585078239441,-0.2157244235277176,0.09021896868944168,0.03757534176111221,-0.004386968910694122,0.0009536888683214784
4.503107786178589,-0.1684214472770691,-0.21725031733512878,0.09060044586658478,0.03795681521296501,-0.005149920005351305,0.0009536888683214784
4.523182153701782,-0.16918440163135529,-0.21953918039798737,0.09098191559314728,0.03833829239010811,-0.005149920005351305,0.0009536888683214784
4.543287038803101,-0.16994735598564148,-0.22220951318740845,0.09212634712457657,0.03833829239010811,-0.004005493130534887,0.0009536888683214784
4.563310146331787,-0.17071031033992767,-0.22297245264053345,0.09250781685113907,0.038719769567251205,-0.004005493130534887,0.0009536888683214784
4.583519220352173,-0.17261768877506256,-0.22487983107566833,0.09365224838256836,0.0394827201962471,-0.0036240178160369396,0.0009536888683214784
4.603606224060059,-0.17338064312934875,-0.22602425515651703,0.09441519528627396,0.040627144277095795,-0.004005493130534887,0.0009536888683214784
4.62362813949585,-0.17414358258247375,-0.22716869413852692,0.09555962681770325,0.04100862145423889,-0.004005493130534887,0.0009536888683214784
4.643675327301025,-0.17490653693675995,-0.2290760725736618,0.09594109654426575,0.04139009863138199,-0.005531395319849253,0.0009536888683214784
4.663805246353149,-0.17566949129104614,-0.230601966381073,0.09670405089855194,0.04139009863138199,-0.006294346414506435,0.0009536888683214784
4.683851480484009,-0.17605096101760864,-0.23212787508964539,0.09746700525283813,0.04139009863138199,-0.00667582219466567,0.0009536888683214784
4.70393705368042,-0.17719538509845734,-0.23441672325134277,0.09822995215654373,0.04177157208323479,-0.006294346414506435,0.0009536888683214784
4.724101781845093,-0.17872129380702972,-0.23785001039505005,0.09975585341453552,0.042153049260377884,-0.006294346414506435,0.0009536888683214784
4.744095087051392,-0.1802472025156021,-0.24013885855674744,0.10051880776882172,0.04253452271223068,-0.005912871100008488,0.0009536888683214784
4.764211893081665,-0.1810101419687271,-0.24166475236415863,0.10166323184967041,0.043678950518369675,-0.006294346414506435,0.0009536888683214784
4.784226655960083,-0.182154580950737,-0.24242770671844482,0.10204470902681351,0.04444190114736557,-0.007057297509163618,0.0009536888683214784
4.80438756942749,-0.1825360506772995,-0.2443350851535797,0.1031891331076622,0.04482337832450867,-0.0078202486038208,0.0009536888683214784
4.824545621871948,-0.182917520403862,-0.2454795092344284,0.10433356463909149,0.045204851776361465,-0.007438773289322853,0.0009536888683214784
4.8445820808410645,-0.1844434291124344,-0.2466239482164383,0.10471503436565399,0.045204851776361465,-0.00667582219466567,0.0009536888683214784
4.864718437194824,-0.1848248988389969,-0.248531311750412,0.10547798871994019,0.04558632895350456,-0.00667582219466567,0.0009536888683214784
4.884762525558472,-0.18558785319328308,-0.2508201599121094,0.10624094307422638,0.04558632895350456,-0.00667582219466567,0.0009536888683214784
4.90489387512207,-0.18673227727413177,-0.25310903787612915,0.10700388997793198,0.04596780240535736,-0.00667582219466567,0.0009536888683214784
4.924996376037598,-0.18711376190185547,-0.25501641631126404,0.10700388997793198,0.046730753034353256,-0.00667582219466567,0.0009536888683214784
4.945031404495239,-0.18902114033699036,-0.2573052644729614,0.10814831405878067,0.04749370738863945,-0.007438773289322853,0.0009536888683214784
4.965067386627197,-0.18940261006355286,-0.2588311731815338,0.10891126841306686,0.048256658017635345,-0.007438773289322853,0.0009536888683214784
4.985148668289185,-0.18978407979011536,-0.2595941126346588,0.11005569249391556,0.048638131469488144,-0.008201723918318748,0.0009536888683214784
5.005252361297607,-0.19054703414440155,-0.2603570520877838,0.11081864684820175,0.048638131469488144,-0.0078202486038208,0.0009536888683214784
5.0253050327301025,-0.19130998849868774,-0.2611200213432312,0.11196307092905045,0.048638131469488144,-0.007057297509163618,0.0009536888683214784
5.045383453369141,-0.19245441257953644,-0.264934778213501,0.11272602528333664,0.04901960864663124,-0.007057297509163618,0.0009536888683214784
5.0654449462890625,-0.19359883666038513,-0.26760509610176086,0.11387044936418533,0.04901960864663124,-0.00667582219466567,0.0009536888683214784
5.08549690246582,-0.19474326074123383,-0.26989394426345825,0.11425192654132843,0.04940108209848404,-0.00667582219466567,0.0009536888683214784
5.105579137802124,-0.1962691694498062,-0.2725642919540405,0.11539635062217712,0.04940108209848404,-0.007438773289322853,0.0009536888683214784
5.125706672668457,-0.1970321238040924,-0.2752346098423004,0.11692225188016891,0.050164032727479935,-0.007438773289322853,0.0009536888683214784
5.145809888839722,-0.1977950781583786,-0.2763790488243103,0.11730372905731201,0.051689937710762024,-0.00858320016413927,0.0013351644156500697
5.165834665298462,-0.1993209719657898,-0.2790493667125702,0.1192111074924469,0.05245288833975792,-0.00858320016413927,0.0013351644156500697
5.185994863510132,-0.20084688067436218,-0.2805752754211426,0.1203555315732956,0.05245288833975792,-0.008201723918318748,0.0013351644156500697
5.206010818481445,-0.20199130475521088,-0.2821011543273926,0.12111848592758179,0.05245288833975792,-0.0078202486038208,0.0013351644156500697
5.2260870933532715,-0.20275425910949707,-0.28553444147109985,0.12226291000843048,0.05283436179161072,-0.007438773289322853,0.0013351644156500697
5.246238946914673,-0.20389868319034576,-0.28820478916168213,0.12302586436271667,0.053215838968753815,-0.007438773289322853,0.0013351644156500697
5.266315698623657,-0.20389868319034576,-0.2912565767765045,0.12417028844356537,0.05359731614589691,-0.007438773289322853,0.0013351644156500697
5.286560535430908,-0.20466163754463196,-0.2935454249382019,0.12531471252441406,0.05397878959774971,-0.008201723918318748,0.0013351644156500697
5.306703567504883,-0.20580606162548065,-0.2950713336467743,0.12645913660526276,0.0551232174038887,-0.008201723918318748,0.0013351644156500697
5.326717853546143,-0.20656901597976685,-0.2969787120819092,0.12760357558727264,0.0558861680328846,-0.008201723918318748,0.0013351644156500697
5.346797704696655,-0.20733195543289185,-0.2977416515350342,0.12874799966812134,0.056267641484737396,-0.008201723918318748,0.0013351644156500697
5.366837978363037,-0.20847637951374054,-0.30079346895217896,0.12989242374897003,0.05664911866188049,-0.0078202486038208,0.0013351644156500697
5.386908531188965,-0.21038375794887543,-0.30384528636932373,0.13141833245754242,0.05664911866188049,-0.007438773289322853,0.0013351644156500697
5.407049894332886,-0.21114671230316162,-0.3065156042575836,0.13218127191066742,0.05664911866188049,-0.008201723918318748,0.0013351644156500697
5.427137613296509,-0.21190966665744781,-0.3084229826927185,0.1329442262649536,0.05703059583902359,-0.00858320016413927,0.0013351644156500697
5.447234153747559,-0.2130540907382965,-0.3103303611278534,0.1340886503458023,0.057793546468019485,-0.009727626107633114,0.001716639962978661
5.467314958572388,-0.2138170450925827,-0.3118562698364258,0.135233074426651,0.05893797054886818,-0.010109102353453636,0.001716639962978661
5.48737096786499,-0.2145799994468689,-0.31414511799812317,0.1363775134086609,0.05970092490315437,-0.010109102353453636,0.001716639962978661
5.507719039916992,-0.21648737788200378,-0.31681543588638306,0.13790340721607208,0.05970092490315437,-0.009727626107633114,0.001716639962978661
5.5277979373931885,-0.21801327168941498,-0.32063019275665283,0.13942931592464447,0.05970092490315437,-0.009727626107633114,0.001716639962978661
5.5478904247283936,-0.21839475631713867,-0.3233005404472351,0.14095520973205566,0.06008239835500717,-0.010490577667951584,0.001716639962978661
5.567943572998047,-0.21915769577026367,-0.3255893886089325,0.14209964871406555,0.06046387553215027,-0.01125352829694748,0.001716639962978661
5.588056802749634,-0.21992065012454987,-0.3278782367706299,0.14362554252147675,0.061226826161146164,-0.011635004542768002,0.001716639962978661
5.608212947845459,-0.22144655883312225,-0.32978561520576477,0.14515145123004913,0.061226826161146164,-0.010872052982449532,0.001716639962978661
5.628237962722778,-0.22297245264053345,-0.33169299364089966,0.14629587531089783,0.06198977679014206,-0.010872052982449532,0.001716639962978661
5.648405313491821,-0.22373540699481964,-0.33474478125572205,0.14782176911830902,0.06313420087099075,-0.011635004542768002,0.001716639962978661
5.668524742126465,-0.22449836134910583,-0.3374151289463043,0.1497291475534439,0.06351567804813385,-0.011635004542768002,0.0020981156267225742
5.688588857650757,-0.22526131570339203,-0.3397039771080017,0.1508735716342926,0.06389715522527695,-0.01201647985726595,0.0020981156267225742
5.708621025085449,-0.22602425515651703,-0.3423742949962616,0.1520180106163025,0.06427863240242004,-0.012397955171763897,0.0024795911740511656
5.728780031204224,-0.22678720951080322,-0.344663143157959,0.15316243469715118,0.06466010212898254,-0.013542382046580315,0.0024795911740511656
5.748780727386475,-0.22793163359165192,-0.34657052159309387,0.15506981313228607,0.06504157930612564,-0.013160906732082367,0.0024795911740511656
5.76885199546814,-0.2302204966545105,-0.34962233901023865,0.15621423721313477,0.06580453366041183,-0.013542382046580315,0.0020981156267225742
5.788979530334473,-0.23212787508964539,-0.35229265689849854,0.15774014592170715,0.06694895774126053,-0.013923857361078262,0.0024795911740511656
5.8091089725494385,-0.23327229917049408,-0.3545815348625183,0.15964750945568085,0.06771191209554672,-0.013923857361078262,0.0024795911740511656
5.829230308532715,-0.23365376889705658,-0.3568703830242157,0.16155488789081573,0.06809338182210922,-0.01506828423589468,0.0024795911740511656
5.849266290664673,-0.23327229917049408,-0.3591592311859131,0.16269932687282562,0.06885633617639542,-0.01583123579621315,0.002861066721379757
5.869597434997559,-0.23441672325134277,-0.361829549074173,0.1646067053079605,0.06961929053068161,-0.01506828423589468,0.002861066721379757
5.8898022174835205,-0.23556114733219147,-0.36488136649131775,0.1668955534696579,0.0711451917886734,-0.01430533267557621,0.002861066721379757
5.909870147705078,-0.23632410168647766,-0.368314653635025,0.1684214472770691,0.0711451917886734,-0.01430533267557621,0.0032425422687083483
5.929953336715698,-0.23785001039505005,-0.3709849715232849,0.16956588625907898,0.0715266615152359,-0.01430533267557621,0.0032425422687083483
5.950095891952515,-0.23861294984817505,-0.3736552894115448,0.17109178006649017,0.071908138692379,-0.014686808921396732,0.0036240178160369396
5.970219612121582,-0.24013885855674744,-0.3759441375732422,0.17261768877506256,0.07267109304666519,-0.01506828423589468,0.004005493130534887
5.990326881408691,-0.24052032828330994,-0.3778515160083771,0.17414358258247375,0.07457847148180008,-0.01583123579621315,0.004005493130534887
6.010383605957031,-0.24090181291103363,-0.38128480315208435,0.17566949129104614,0.07534141838550568,-0.016212711110711098,0.004386968910694122
6.030468463897705,-0.24242770671844482,-0.3843366205692291,0.17757686972618103,0.07534141838550568,-0.016212711110711098,0.004386968910694122
6.050534248352051,-0.24319066107273102,-0.387006938457489,0.17948424816131592,0.07572289556264877,-0.01506828423589468,0.004386968910694122
6.070604562759399,-0.2439536154270172,-0.3896772861480713,0.1810101419687271,0.07648584991693497,-0.01506828423589468,0.004386968910694122
6.090667724609375,-0.2450980395078659,-0.3919661343097687,0.1825360506772995,0.07801175117492676,-0.014686808921396732,0.004386968910694122
6.110739469528198,-0.2470054179430008,-0.39425498247146606,0.1844434291124344,0.07877469807863235,-0.01506828423589468,0.004386968910694122
6.130807638168335,-0.247768372297287,-0.39692530035972595,0.18635080754756927,0.07877469807863235,-0.01583123579621315,0.004386968910694122
6.150875091552734,-0.247768372297287,-0.39883267879486084,0.18749523162841797,0.07915617525577545,-0.016975661739706993,0.004386968910694122
6.170944929122925,-0.248531311750412,-0.4015030264854431,0.18940261006355286,0.07953765243291855,-0.01773861236870289,0.004386968910694122
6.191004514694214,-0.24967575073242188,-0.4037918746471405,0.19130998849868774,0.08030059933662415,-0.016975661739706993,0.004386968910694122
6.2110679149627686,-0.2504386901855469,-0.4056992530822754,0.19359883666038513,0.08106355369091034,-0.01583123579621315,0.004386968910694122
6.231207370758057,-0.2508201599121094,-0.4079881012439728,0.19550621509552002,0.08182650804519653,-0.015449759550392628,0.004386968910694122
6.25120997428894,-0.25272753834724426,-0.41103988885879517,0.1970321238040924,0.08220797777175903,-0.01583123579621315,0.004386968910694122
6.27130389213562,-0.25425344705581665,-0.41409170627593994,0.1989395022392273,0.08297093212604523,-0.01583123579621315,0.004386968910694122
6.291386604309082,-0.25463491678237915,-0.41676202416419983,0.20122835040092468,0.08335240930318832,-0.01735713705420494,0.004386968910694122
6.311473608016968,-0.25501641631126404,-0.4201953113079071,0.20199130475521088,0.08449683338403702,-0.018120087683200836,0.004386968910694122
6.331498146057129,-0.25539788603782654,-0.4224841594696045,0.20389868319034576,0.08602273464202881,-0.018501564860343933,0.00476844422519207
6.351583003997803,-0.25654229521751404,-0.42553597688674927,0.20656901597976685,0.08602273464202881,-0.018120087683200836,0.004386968910694122
6.371696710586548,-0.2573052644729614,-0.42782482504844666,0.20885786414146423,0.0864042118191719,-0.016212711110711098,0.004386968910694122
6.391751289367676,-0.2580682039260864,-0.43125811219215393,0.21076524257659912,0.0864042118191719,-0.016212711110711098,0.004386968910694122
6.411998271942139,-0.2592126429080963,-0.4335469603538513,0.2134355753660202,0.0871671661734581,-0.016212711110711098,0.00476844422519207
6.431955099105835,-0.2607385218143463,-0.4362172782421112,0.2157244235277176,0.0875486359000206,-0.016975661739706993,0.004386968910694122
6.452008247375488,-0.2622644305229187,-0.440032035112381,0.21763180196285248,0.08907453715801239,-0.01773861236870289,0.004386968910694122
6.4720540046691895,-0.2626459002494812,-0.44384679198265076,0.22030213475227356,0.09021896868944168,-0.018501564860343933,0.00476844422519207
6.492143392562866,-0.2637903392314911,-0.44766154885292053,0.22297245264053345,0.09060044586658478,-0.018501564860343933,0.00476844422519207
6.512206792831421,-0.2645532786846161,-0.4510948359966278,0.22564278542995453,0.09136339277029037,-0.018120087683200836,0.00476844422519207
6.53227686882019,-0.2653162479400635,-0.4533836841583252,0.22755016386508942,0.09327077120542526,-0.01735713705420494,0.00476844422519207
6.552318811416626,-0.2660791873931885,-0.45643550157546997,0.2290760725736618,0.09365224838256836,-0.016975661739706993,0.00476844422519207
6.572508096694946,-0.266460657119751,-0.45910581946372986,0.2317463904619217,0.09403372555971146,-0.01735713705420494,0.00476844422519207
6.59253191947937,-0.26760509610176086,-0.46139466762542725,0.23403525352478027,0.09479667246341705,-0.01773861236870289,0.00476844422519207
6.612659215927124,-0.26951247453689575,-0.4648279547691345,0.23556114733219147,0.09517814964056015,-0.018501564860343933,0.00476844422519207
6.632659196853638,-0.27027541399002075,-0.4682612419128418,0.23785001039505005,0.09746700525283813,-0.01888304017484188,0.00476844422519207
6.6527321338653564,-0.27103838324546814,-0.4713130295276642,0.24052032828330994,0.09784847497940063,-0.018501564860343933,0.00476844422519207
6.672800540924072,-0.27180132269859314,-0.47436484694480896,0.24357213079929352,0.09861142933368683,-0.018501564860343933,0.00476844422519207
6.692873954772949,-0.27218279242515564,-0.47665369510650635,0.2454795092344284,0.10013733059167862,-0.018501564860343933,0.00476844422519207
6.712910175323486,-0.2733272314071655,-0.4797055125236511,0.247768372297287,0.10166323184967041,-0.018501564860343933,0.005149920005351305
6.733097791671753,-0.2744716703891754,-0.4835202693939209,0.25120165944099426,0.10166323184967041,-0.01773861236870289,0.00476844422519207
6.753198623657227,-0.2752346098423004,-0.4865720570087433,0.25387197732925415,0.10204470902681351,-0.018501564860343933,0.00476844422519207
6.773223638534546,-0.2767605185508728,-0.49076828360557556,0.2569237947463989,0.10433356463909149,-0.018501564860343933,0.00476844422519207
6.793374538421631,-0.2767605185508728,-0.49420157074928284,0.2599755823612213,0.10509651154279709,-0.01888304017484188,0.005149920005351305
6.813465595245361,-0.2779049277305603,-0.4976348578929901,0.2637903392314911,0.10509651154279709,-0.019645990803837776,0.005149920005351305
6.833544969558716,-0.2790493667125702,-0.4999237060546875,0.2660791873931885,0.10547798871994019,-0.01926451548933983,0.00476844422519207
6.853584289550781,-0.2790493667125702,-0.5022125840187073,0.26798656582832336,0.10585946589708328,-0.018501564860343933,0.005149920005351305
6.873647689819336,-0.2801937758922577,-0.506027340888977,0.27065691351890564,0.10700388997793198,-0.018120087683200836,0.005149920005351305
6.893786191940308,-0.2809567451477051,-0.5098420977592468,0.2740901708602905,0.10776684433221817,-0.018120087683200836,0.005149920005351305
6.913924932479858,-0.2817196846008301,-0.5128938555717468,0.2763790488243103,0.10891126841306686,-0.018501564860343933,0.005149920005351305
6.934010744094849,-0.28362706303596497,-0.5155642032623291,0.2779049277305603,0.10929274559020996,-0.019645990803837776,0.00476844422519207
6.954164028167725,-0.28400853276252747,-0.5182345509529114,0.2805752754211426,0.11005569249391556,-0.01926451548933983,0.005149920005351305
6.974301815032959,-0.28439003229141235,-0.5212863087654114,0.28362706303596497,0.11158160120248795,-0.019645990803837776,0.005149920005351305
6.994351625442505,-0.28477150201797485,-0.5239566564559937,0.28553444147109985,0.11234454810619354,-0.01926451548933983,0.005149920005351305
7.01444673538208,-0.28591591119766235,-0.5270084738731384,0.28820478916168213,0.11272602528333664,-0.018120087683200836,0.005149920005351305
7.034597635269165,-0.28706035017967224,-0.5304417610168457,0.2920195460319519,0.11387044936418533,-0.018501564860343933,0.005149920005351305
7.054673910140991,-0.28858625888824463,-0.533875048160553,0.2946898639202118,0.11463340371847153,-0.018120087683200836,0.005149920005351305
7.074728965759277,-0.290112167596817,-0.5365453362464905,0.2969787120819092,0.11615930497646332,-0.01888304017484188,0.005149920005351305
7.094777345657349,-0.290875107049942,-0.5392156839370728,0.30003052949905396,0.11692225188016891,-0.01888304017484188,0.005149920005351305
7.114917039871216,-0.2912565767765045,-0.5422675013542175,0.30270084738731384,0.11768520623445511,-0.020027466118335724,0.005149920005351305
7.134942054748535,-0.2912565767765045,-0.5453193187713623,0.3057526648044586,0.1199740618467331,-0.02079041674733162,0.005149920005351305
7.155021905899048,-0.2912565767765045,-0.5479896068572998,0.308041512966156,0.1203555315732956,-0.02040894143283367,0.005149920005351305
7.175315856933594,-0.291638046503067,-0.5514228940010071,0.3114747703075409,0.12073700875043869,-0.01926451548933983,0.005149920005351305
7.195452690124512,-0.2927824854850769,-0.5537117719650269,0.31490805745124817,0.12188144028186798,-0.018120087683200836,0.005149920005351305
7.2155468463897705,-0.2935454249382019,-0.5575265288352966,0.31795987486839294,0.12340734153985977,-0.018120087683200836,0.005149920005351305
7.235586404800415,-0.2943083941936493,-0.5605783462524414,0.32063019275665283,0.12378881871700287,-0.01888304017484188,0.005149920005351305
7.255692958831787,-0.2962157726287842,-0.5647745728492737,0.3236820101737976,0.12455176562070847,-0.019645990803837776,0.005149920005351305
7.275798082351685,-0.2973601818084717,-0.5685893297195435,0.3271152675151825,0.12569619715213776,-0.020027466118335724,0.005531395319849253
7.295873165130615,-0.29850462079048157,-0.571259617805481,0.32940414547920227,0.12760357558727264,-0.019645990803837776,0.005531395319849253
7.315960645675659,-0.29850462079048157,-0.5743114352226257,0.33207446336746216,0.12798504531383514,-0.02040894143283367,0.005531395319849253
7.336012363433838,-0.29850462079048157,-0.5781261920928955,0.33588922023773193,0.12874799966812134,-0.02040894143283367,0.005531395319849253
7.356118679046631,-0.29888609051704407,-0.5811780095100403,0.3389410376548767,0.13027389347553253,-0.020027466118335724,0.005531395319849253
7.376152038574219,-0.29926756024360657,-0.5846112966537476,0.3416113555431366,0.13141833245754242,-0.01888304017484188,0.005912871100008488
7.396218776702881,-0.30041199922561646,-0.5888075232505798,0.34542611241340637,0.13141833245754242,-0.018120087683200836,0.005531395319849253
7.416299343109131,-0.30117493867874146,-0.5922408103942871,0.34924086928367615,0.13218127191066742,-0.018120087683200836,0.005531395319849253
7.436361789703369,-0.30193790793418884,-0.5960555672645569,0.3530556261539459,0.1333257108926773,-0.01888304017484188,0.005531395319849253
7.456436634063721,-0.30384528636932373,-0.5994887948036194,0.3557259440422058,0.1348516047000885,-0.01888304017484188,0.005912871100008488
7.476641893386841,-0.30498969554901123,-0.6033035516738892,0.3595407009124756,0.135233074426651,-0.020027466118335724,0.005912871100008488
7.496734380722046,-0.3057526648044586,-0.6067368388175964,0.36335545778274536,0.1367589831352234,-0.020027466118335724,0.006294346414506435
7.516821384429932,-0.3057526648044586,-0.6097886562347412,0.36564430594444275,0.13790340721607208,-0.02040894143283367,0.006294346414506435
7.53695273399353,-0.3057526648044586,-0.612840473651886,0.368314653635025,0.13866636157035828,-0.020027466118335724,0.007057297509163618
7.557032346725464,-0.3061341345310211,-0.6166552305221558,0.3721294105052948,0.13904783129692078,-0.01926451548933983,0.007057297509163618
7.577105283737183,-0.3065156042575836,-0.620851457118988,0.3759441375732422,0.13981078565120697,-0.01888304017484188,0.007438773289322853
7.5972795486450195,-0.3068970739841461,-0.6235218048095703,0.3778515160083771,0.14133669435977936,-0.018501564860343933,0.007438773289322853
7.617281436920166,-0.308041512966156,-0.6258106231689453,0.38052186369895935,0.14248111844062805,-0.01888304017484188,0.0078202486038208
7.637367010116577,-0.3091859221458435,-0.6292439103126526,0.3843366205692291,0.14362554252147675,-0.01888304017484188,0.008201723918318748
7.657470703125,-0.3110933005809784,-0.6330586671829224,0.3877699077129364,0.14553292095661163,-0.020027466118335724,0.008201723918318748
7.67756724357605,-0.3126192092895508,-0.6380178332328796,0.3927290737628937,0.14667734503746033,-0.019645990803837776,0.00858320016413927
7.697607755661011,-0.3133821487426758,-0.6414511203765869,0.39654383063316345,0.14820325374603271,-0.020027466118335724,0.00858320016413927
7.7176971435546875,-0.3133821487426758,-0.6452658772468567,0.4007400572299957,0.1501106321811676,-0.021553369238972664,0.00858320016413927
7.73780369758606,-0.31376364827156067,-0.648699164390564,0.4045548141002655,0.1512550562620163,-0.02193484455347061,0.008964675478637218
7.757898807525635,-0.31414511799812317,-0.6517509818077087,0.4076066315174103,0.15316243469715118,-0.021171892061829567,0.008964675478637218
7.777902364730835,-0.31452658772468567,-0.6548027992248535,0.41103988885879517,0.15430685877799988,-0.02040894143283367,0.008964675478637218
7.797979116439819,-0.31528952717781067,-0.6586175560951233,0.41485464572906494,0.15468832850456238,-0.020027466118335724,0.008964675478637218
7.818041086196899,-0.31757840514183044,-0.6624323129653931,0.4190509021282196,0.15621423721313477,-0.019645990803837776,0.008964675478637218
7.838126182556152,-0.31834134459495544,-0.6662470698356628,0.4224841594696045,0.15735866129398346,-0.020027466118335724,0.008964675478637218
7.858179807662964,-0.31986725330352783,-0.6712062358856201,0.42668038606643677,0.15850308537483215,-0.02079041674733162,0.009346150793135166
7.878305673599243,-0.32063019275665283,-0.6761654019355774,0.43163958191871643,0.16041046380996704,-0.02079041674733162,0.009346150793135166
7.898447275161743,-0.32063019275665283,-0.6792172193527222,0.4354543387889862,0.16155488789081573,-0.022697795182466507,0.009727626107633114
7.918526649475098,-0.32063019275665283,-0.6826505064964294,0.438506156206131,0.16231784224510193,-0.023460745811462402,0.009727626107633114
7.938650608062744,-0.3213931620121002,-0.6876096725463867,0.44346532225608826,0.1646067053079605,-0.02193484455347061,0.009727626107633114
7.958681344985962,-0.3225375711917877,-0.692568838596344,0.4488059878349304,0.1653696447610855,-0.021171892061829567,0.010109102353453636
7.978764533996582,-0.3229190409183502,-0.6963835954666138,0.4526207447052002,0.1665140837430954,-0.020027466118335724,0.010109102353453636
7.998846054077148,-0.3236820101737976,-0.699816882610321,0.4556725323200226,0.1684214472770691,-0.019645990803837776,0.010490577667951584
8.018877506256104,-0.3244449496269226,-0.7032501697540283,0.45910581946372986,0.16956588625907898,-0.020027466118335724,0.010872052982449532
8.038973331451416,-0.3255893886089325,-0.7078278660774231,0.46368351578712463,0.17071031033992767,-0.021171892061829567,0.010872052982449532
8.059079647064209,-0.325970858335495,-0.7104982137680054,0.4667353332042694,0.17261768877506256,-0.02231631986796856,0.01125352829694748
8.079142808914185,-0.32673379778862,-0.7139315009117126,0.4701686203479767,0.17414358258247375,-0.022697795182466507,0.011635004542768002
8.099229097366333,-0.3274967670440674,-0.7169833183288574,0.4736018776893616,0.17605096101760864,-0.02193484455347061,0.011635004542768002
8.119371175765991,-0.3278782367706299,-0.7207980751991272,0.47817960381507874,0.17681391537189484,-0.02040894143283367,0.011635004542768002
8.139420986175537,-0.3282597064971924,-0.724612832069397,0.4819943606853485,0.17833982408046722,-0.02040894143283367,0.011635004542768002
8.15945291519165,-0.3282597064971924,-0.727664589881897,0.4854276478290558,0.1802472025156021,-0.02040894143283367,0.01201647985726595
8.179611921310425,-0.3290226459503174,-0.7318608164787292,0.48962387442588806,0.182154580950737,-0.020027466118335724,0.01201647985726595
8.199660301208496,-0.33016708493232727,-0.735675573348999,0.49382010102272034,0.1840619444847107,-0.020027466118335724,0.01201647985726595
8.219854354858398,-0.33207446336746216,-0.7398717999458313,0.4983977973461151,0.1844434291124344,-0.020027466118335724,0.01201647985726595
8.239872694015503,-0.33360037207603455,-0.7444495558738708,0.5029755234718323,0.18596932291984558,-0.020027466118335724,0.01201647985726595
8.259979009628296,-0.33474478125572205,-0.7497901916503906,0.5086976289749146,0.18787670135498047,-0.01888304017484188,0.01201647985726595
8.280019521713257,-0.33550775051116943,-0.7536049485206604,0.5132753252983093,0.18978407979011536,-0.02040894143283367,0.01201647985726595
8.300079584121704,-0.33588922023773193,-0.7574197053909302,0.5178530812263489,0.19207294285297394,-0.02040894143283367,0.012779430486261845
8.320754289627075,-0.33665215969085693,-0.7631418108940125,0.5235751867294312,0.19359883666038513,-0.020027466118335724,0.012779430486261845
8.340848445892334,-0.3370336592197418,-0.7681010365486145,0.5296788215637207,0.19512474536895752,-0.020027466118335724,0.012779430486261845
8.360920429229736,-0.3374151289463043,-0.7715343236923218,0.533875048160553,0.1962691694498062,-0.019645990803837776,0.012397955171763897
8.380986452102661,-0.3374151289463043,-0.7745860815048218,0.5373083353042603,0.1985580176115036,-0.01926451548933983,0.012779430486261845
8.401124477386475,-0.3381780683994293,-0.7791637778282166,0.5422675013542175,0.2004653960466385,-0.018120087683200836,0.012779430486261845
8.421223878860474,-0.3393225073814392,-0.7837415337562561,0.5476081371307373,0.20237277448177338,-0.01735713705420494,0.012397955171763897
8.441298484802246,-0.3404669165611267,-0.7871748208999634,0.5514228940010071,0.20466163754463196,-0.018120087683200836,0.012397955171763897
8.461345434188843,-0.3423742949962616,-0.7906080484390259,0.5556191205978394,0.20618753135204315,-0.01888304017484188,0.012397955171763897
8.48154592514038,-0.3442816734313965,-0.7963302135467529,0.5617227554321289,0.20847637951374054,-0.018501564860343933,0.012397955171763897
8.501650094985962,-0.34504464268684387,-0.8009079098701477,0.5674448609352112,0.21076524257659912,-0.018120087683200836,0.012779430486261845
8.52174425125122,-0.34580758213996887,-0.8047226667404175,0.5716410875320435,0.21229113638401031,-0.018501564860343933,0.012397955171763897
8.541770219802856,-0.34733349084854126,-0.8077744841575623,0.5758373141288757,0.2141985148191452,-0.018501564860343933,0.012779430486261845
8.561812400817871,-0.34733349084854126,-0.8127336502075195,0.5815594792366028,0.2157244235277176,-0.01888304017484188,0.012779430486261845
8.581896781921387,-0.34771496057510376,-0.8180742859840393,0.5876630544662476,0.21839475631713867,-0.018501564860343933,0.013160906732082367
8.602175235748291,-0.34885939955711365,-0.8218890428543091,0.5926222801208496,0.22030213475227356,-0.01773861236870289,0.012779430486261845
8.622185707092285,-0.34924086928367615,-0.8249408602714539,0.5968185067176819,0.22182802855968475,-0.018120087683200836,0.012779430486261845
8.642298221588135,-0.34962233901023865,-0.8295185565948486,0.6017776727676392,0.22449836134910583,-0.016975661739706993,0.012779430486261845
8.662376403808594,-0.35000380873680115,-0.8337147831916809,0.6071183085441589,0.22602425515651703,-0.01735713705420494,0.013160906732082367
8.682475328445435,-0.35076677799224854,-0.8371480703353882,0.6113145351409912,0.2283131182193756,-0.01773861236870289,0.012779430486261845
8.702580451965332,-0.35152971744537354,-0.8405813574790955,0.6147478222846985,0.2298390120267868,-0.01773861236870289,0.013160906732082367
8.72271180152893,-0.3538185656070709,-0.8443961143493652,0.6189440488815308,0.23212787508964539,-0.01735713705420494,0.012779430486261845
8.742793798446655,-0.3549630045890808,-0.848210871219635,0.622377336025238,0.23441672325134277,-0.018120087683200836,0.012779430486261845
8.762859344482422,-0.3561074137687683,-0.8512626886367798,0.6261920928955078,0.23670557141304016,-0.018120087683200836,0.013160906732082367
8.783169031143188,-0.3568703830242157,-0.8550774455070496,0.6303883194923401,0.23899443447589874,-0.018120087683200836,0.012779430486261845
8.803099632263184,-0.3572518527507782,-0.8585107326507568,0.6349660754203796,0.24204623699188232,-0.018120087683200836,0.013160906732082367
8.823193550109863,-0.3572518527507782,-0.8615625500679016,0.6391623020172119,0.2439536154270172,-0.018501564860343933,0.013160906732082367
8.843219995498657,-0.3583962619304657,-0.8657587766647339,0.6441214680671692,0.2458609938621521,-0.01735713705420494,0.013160906732082367
8.863304853439331,-0.3591592311859131,-0.8695735335350037,0.649462103843689,0.2481498420238495,-0.01735713705420494,0.013160906732082367
8.883387804031372,-0.3599221706390381,-0.8737697601318359,0.6548027992248535,0.2508201599121094,-0.01735713705420494,0.013160906732082367
8.903440237045288,-0.361066609621048,-0.8772030472755432,0.6582360863685608,0.25310903787612915,-0.01773861236870289,0.013160906732082367
8.923505067825317,-0.3622110188007355,-0.881017804145813,0.6631952524185181,0.25539788603782654,-0.016975661739706993,0.013160906732082367
8.943585395812988,-0.36373692750930786,-0.8855955004692078,0.6681544184684753,0.2584496736526489,-0.016975661739706993,0.012779430486261845
8.96372103691101,-0.36411839723587036,-0.8894102573394775,0.6723506450653076,0.2615014910697937,-0.016975661739706993,0.013160906732082367
8.983829736709595,-0.36411839723587036,-0.892080545425415,0.6754024624824524,0.2630273997783661,-0.01773861236870289,0.013542382046580315
9.004136085510254,-0.36449989676475525,-0.8955138325691223,0.6795986890792847,0.264934778213501,-0.01773861236870289,0.013542382046580315
9.02424669265747,-0.36564430594444275,-0.8997100591659546,0.6849393248558044,0.26684215664863586,-0.01735713705420494,0.013923857361078262
9.044348001480103,-0.36678874492645264,-0.9042877554893494,0.6898985505104065,0.26913100481033325,-0.016212711110711098,0.013542382046580315
9.06439757347107,-0.36755168437957764,-0.9081025123596191,0.6940947771072388,0.27065691351890564,-0.01506828423589468,0.013542382046580315
9.084498405456543,-0.368314653635025,-0.9115357995033264,0.6986724734306335,0.2733272314071655,-0.01506828423589468,0.013542382046580315
9.104579210281372,-0.36907759308815,-0.9149690866470337,0.7036316394805908,0.2767605185508728,-0.015449759550392628,0.013542382046580315
9.1246657371521,-0.3706035017967224,-0.917639434337616,0.7066834568977356,0.2801937758922577,-0.01506828423589468,0.013542382046580315
9.144710540771484,-0.3713664412498474,-0.9206912517547607,0.7104982137680054,0.28362706303596497,-0.015449759550392628,0.013923857361078262
9.164809942245483,-0.3713664412498474,-0.924887478351593,0.7154573798179626,0.28744181990623474,-0.015449759550392628,0.013923857361078262
9.1849365234375,-0.3717479109764099,-0.9279392957687378,0.7188906669616699,0.28934919834136963,-0.01583123579621315,0.01430533267557621
9.204965114593506,-0.3721294105052948,-0.9302281141281128,0.7227054238319397,0.2920195460319519,-0.01583123579621315,0.013923857361078262
9.225043058395386,-0.3732738196849823,-0.9321355223655701,0.725375771522522,0.2943083941936493,-0.01506828423589468,0.013923857361078262
9.245123386383057,-0.3736552894115448,-0.9340428709983826,0.7288090586662292,0.2962157726287842,-0.013923857361078262,0.013923857361078262
9.265292644500732,-0.3744182586669922,-0.9363317489624023,0.732623815536499,0.29812315106391907,-0.013923857361078262,0.013923857361078262
9.28538990020752,-0.3755626678466797,-0.9386205673217773,0.735675573348999,0.30041199922561646,-0.012779430486261845,0.013923857361078262
9.30538034439087,-0.3778515160083771,-0.9405279755592346,0.7391088604927063,0.30422675609588623,-0.01125352829694748,0.013923857361078262
9.325484991073608,-0.37899595499038696,-0.9435797929763794,0.7425421476364136,0.3091859221458435,-0.010872052982449532,0.013542382046580315
9.34554648399353,-0.37937742471694946,-0.9470130205154419,0.7463569045066833,0.31452658772468567,-0.01201647985726595,0.013923857361078262
9.365680456161499,-0.38052186369895935,-0.9496833682060242,0.7497901916503906,0.31795987486839294,-0.012779430486261845,0.013542382046580315
9.385759115219116,-0.38052186369895935,-0.9531166553497314,0.7536049485206604,0.32101166248321533,-0.01201647985726595,0.013923857361078262
9.40578556060791,-0.38052186369895935,-0.9561684727668762,0.7574197053909302,0.3236820101737976,-0.011635004542768002,0.013923857361078262
9.425892353057861,-0.38052186369895935,-0.9576943516731262,0.7597085237503052,0.32673379778862,-0.01125352829694748,0.013923857361078262
9.446049213409424,-0.38052186369895935,-0.9596017599105835,0.761997401714325,0.33016708493232727,-0.010490577667951584,0.013542382046580315
9.466126441955566,-0.38128480315208435,-0.962272047996521,0.7654306888580322,0.33398184180259705,-0.009346150793135166,0.013542382046580315
9.486239433288574,-0.38204777240753174,-0.9641794562339783,0.767719566822052,0.3370336592197418,-0.00858320016413927,0.013542382046580315
9.50630497932434,-0.38319218158721924,-0.9657053351402283,0.770008385181427,0.3400854468345642,-0.008201723918318748,0.013542382046580315
9.52641487121582,-0.3854810297489166,-0.968757152557373,0.7734416723251343,0.343900203704834,-0.007438773289322853,0.013542382046580315
9.54649305343628,-0.3854810297489166,-0.9718089699745178,0.7768749594688416,0.34733349084854126,-0.0078202486038208,0.013160906732082367
9.566648244857788,-0.387006938457489,-0.9744792580604553,0.7803082466125488,0.35076677799224854,-0.009727626107633114,0.013542382046580315
9.586777925491333,-0.3881513774394989,-0.9771496057510376,0.7833600640296936,0.3542000353336334,-0.010109102353453636,0.013542382046580315
9.60680627822876,-0.3881513774394989,-0.9794384837150574,0.7864118218421936,0.3583962619304657,-0.008964675478637218,0.013542382046580315
9.626958847045898,-0.3877699077129364,-0.9813458323478699,0.7890821695327759,0.361829549074173,-0.008201723918318748,0.013542382046580315
9.647023677825928,-0.3877699077129364,-0.9824903011322021,0.7906080484390259,0.36678874492645264,-0.007057297509163618,0.013160906732082367
9.667035102844238,-0.3877699077129364,-0.9840161800384521,0.7925154566764832,0.369840532541275,-0.006294346414506435,0.013160906732082367
9.687143087387085,-0.3881513774394989,-0.9863049983978271,0.7944228053092957,0.3728923499584198,-0.005531395319849253,0.013160906732082367
9.70723557472229,-0.3881513774394989,-0.9878309369087219,0.7963302135467529,0.3755626678466797,-0.00476844422519207,0.013160906732082367
9.727335691452026,-0.3885328471660614,-0.9893568158149719,0.7978560924530029,0.37899595499038696,-0.004386968910694122,0.012779430486261845
9.747454166412354,-0.3892957866191864,-0.9912642240524292,0.7993820309638977,0.38319218158721924,-0.004386968910694122,0.012779430486261845
9.767547607421875,-0.3900587558746338,-0.9931715726852417,0.8020523190498352,0.3873884081840515,-0.0036240178160369396,0.012779430486261845
9.78760313987732,-0.3908216953277588,-0.9946975111961365,0.8031967878341675,0.3904402256011963,-0.0036240178160369396,0.012779430486261845
9.807673692703247,-0.3912031650543213,-0.995841920375824,0.8047226667404175,0.39463645219802856,-0.004005493130534887,0.012779430486261845
9.827742099761963,-0.3912031650543213,-0.9969863295555115,0.8062485456466675,0.39730677008628845,-0.004005493130534887,0.012779430486261845
9.847915172576904,-0.3912031650543213,-0.9988937377929688,0.8085374236106873,0.4011215269565582,-0.004005493130534887,0.012397955171763897
9.86797022819519,-0.3915846347808838,-1.0004196166992188,0.8104447722434998,0.4045548141002655,-0.0036240178160369396,0.01201647985726595
9.888037204742432,-0.3923476040363312,-1.0019454956054688,0.8119707107543945,0.4087510406970978,-0.001716639962978661,0.01201647985726595
9.908162832260132,-0.3927290737628937,-1.0030899047851562,0.813878059387207,0.41256579756736755,-0.000572213320992887,0.01201647985726595
9.928222179412842,-0.3931105434894562,-1.0046159029006958,0.8157854676246643,0.41638055443763733,0.000572213320992887,0.011635004542768002
9.94827914237976,-0.3931105434894562,-1.0065232515335083,0.8173113465309143,0.4209582805633545,0.000572213320992887,0.011635004542768002
9.9684157371521,-0.3931105434894562,-1.0084306001663208,0.8192187547683716,0.42591744661331177,0.000572213320992887,0.01125352829694748
9.98854947090149,-0.3931105434894562,-1.0099564790725708,0.8203631639480591,0.42896926403045654,0.00019073777366429567,0.011635004542768002
10.008630990982056,-0.3934920132160187,-1.0111008882522583,0.8218890428543091,0.4327840209007263,0.000572213320992887,0.01125352829694748
10.028746128082275,-0.3934920132160187,-1.0122454166412354,0.8226520419120789,0.4362172782421112,0.000572213320992887,0.01125352829694748
10.04880166053772,-0.3934920132160187,-1.0130083560943604,0.8241779208183289,0.4396505653858185,0.0013351644156500697,0.010872052982449532
10.06886887550354,-0.39425498247146606,-1.0141527652740479,0.8260852694511414,0.44460976123809814,0.0024795911740511656,0.010490577667951584
10.088985919952393,-0.39501792192459106,-1.0152971744537354,0.8279926776885986,0.4499503970146179,0.0036240178160369396,0.010109102353453636
10.109085321426392,-0.39578089118003845,-1.0160601139068604,0.8295185565948486,0.4549095928668976,0.004005493130534887,0.009346150793135166
10.129236936569214,-0.39654383063316345,-1.0172045230865479,0.8306630253791809,0.45986875891685486,0.005149920005351305,0.008964675478637218
10.149311065673828,-0.39768826961517334,-1.0191118717193604,0.8329518437385559,0.4655908942222595,0.005531395319849253,0.00858320016413927
10.169503450393677,-0.39845120906829834,-1.0206378698349,0.8337147831916809,0.4701686203479767,0.005531395319849253,0.00858320016413927
10.18948245048523,-0.39921414852142334,-1.0210193395614624,0.8348592519760132,0.4736018776893616,0.004386968910694122,0.008201723918318748
10.209559679031372,-0.3995956480503082,-1.0217822790145874,0.8356221914291382,0.47703516483306885,0.00476844422519207,0.0078202486038208
10.229637861251831,-0.3995956480503082,-1.02216374874115,0.8367666006088257,0.4819943606853485,0.005912871100008488,0.0078202486038208
10.249692916870117,-0.3995956480503082,-1.022926688194275,0.837911069393158,0.4869535267353058,0.007057297509163618,0.007057297509163618
10.269740343093872,-0.3995956480503082,-1.0236896276474,0.839436948299408,0.49382010102272034,0.009346150793135166,0.006294346414506435
10.289937019348145,-0.3995956480503082,-1.024452567100525,0.840962827205658,0.4991607666015625,0.010872052982449532,0.005531395319849253
10.3099684715271,-0.3995956480503082,-1.0255969762802124,0.8421072959899902,0.5037384629249573,0.01125352829694748,0.004386968910694122
10.330020666122437,-0.3995956480503082,-1.0267413854599,0.8428702354431152,0.507553219795227,0.01201647985726595,0.004386968910694122
10.350420951843262,-0.4003585875034332,-1.027885913848877,0.8440146446228027,0.5125123858451843,0.012397955171763897,0.004005493130534887
10.370469570159912,-0.4003585875034332,-1.0290303230285645,0.8455405235290527,0.5170900821685791,0.012779430486261845,0.0036240178160369396
10.39053463935852,-0.4003585875034332,-1.030174732208252,0.846684992313385,0.5212863087654114,0.013160906732082367,0.0036240178160369396
10.410582304000854,-0.4003585875034332,-1.030937671661377,0.84744793176651,0.5258640646934509,0.013160906732082367,0.0036240178160369396
10.430856466293335,-0.4003585875034332,-1.031700611114502,0.848210871219635,0.5300602912902832,0.013542382046580315,0.0032425422687083483
10.450949907302856,-0.4003585875034332,-1.0320820808410645,0.84897381067276,0.533875048160553,0.015449759550392628,0.002861066721379757
10.471019744873047,-0.4003585875034332,-1.0328450202941895,0.8493552803993225,0.5395971536636353,0.016212711110711098,0.001716639962978661
10.491065740585327,-0.4003585875034332,-1.0336079597473145,0.8504997491836548,0.5453193187713623,0.018501564860343933,0.0013351644156500697
10.511225938796997,-0.4007400572299957,-1.0351338386535645,0.8520256280899048,0.5514228940010071,0.02040894143283367,0.0009536888683214784
10.531231880187988,-0.4007400572299957,-1.036659836769104,0.8535515666007996,0.5563820600509644,0.02193484455347061,0.000572213320992887
10.551345348358154,-0.4011215269565582,-1.0378042459487915,0.8543145060539246,0.5621042251586914,0.023460745811462402,0.00019073777366429567
10.571981430053711,-0.4015030264854431,-1.0385671854019165,0.8554589152336121,0.5685893297195435,0.024605173617601395,-0.00019073777366429567
10.592077016830444,-0.4018844962120056,-1.0400930643081665,0.8566033244132996,0.5743114352226257,0.024986648932099342,-0.00019073777366429567
10.61217188835144,-0.4026474356651306,-1.041237473487854,0.8581292629241943,0.5796520709991455,0.025749599561095238,-0.000572213320992887
10.63218879699707,-0.4026474356651306,-1.042000412940979,0.8592736721038818,0.5842298269271851,0.026512550190091133,-0.0013351644156500697
10.652292013168335,-0.4026474356651306,-1.0423818826675415,0.8607995510101318,0.5891889929771423,0.026512550190091133,-0.002861066721379757
10.672386646270752,-0.4026474356651306,-1.043144941329956,0.8619440197944641,0.5937666893005371,0.02727550081908703,-0.0036240178160369396
10.692461013793945,-0.4026474356651306,-1.0435264110565186,0.8627069592475891,0.6002517938613892,0.028038453310728073,-0.004386968910694122
10.712512731552124,-0.4026474356651306,-1.0442893505096436,0.8630884289741516,0.6052109599113464,0.029564354568719864,-0.005149920005351305
10.732647895812988,-0.4026474356651306,-1.044670820236206,0.8630884289741516,0.6105515956878662,0.030708782374858856,-0.006294346414506435
10.752763509750366,-0.4026474356651306,-1.045433759689331,0.8638513684272766,0.615129292011261,0.030708782374858856,-0.00667582219466567
10.772778511047363,-0.4026474356651306,-1.046196699142456,0.8646143078804016,0.620088517665863,0.03223468363285065,-0.007057297509163618
10.792830228805542,-0.4026474356651306,-1.046959638595581,0.8649957776069641,0.6250476837158203,0.034142062067985535,-0.007057297509163618
10.812962055206299,-0.4030289053916931,-1.047722578048706,0.8661402463912964,0.6300068497657776,0.03452353551983833,-0.0078202486038208
10.832998752593994,-0.403410404920578,-1.048485517501831,0.8672846555709839,0.6349660754203796,0.03604944050312042,-0.0078202486038208
10.853060245513916,-0.403410404920578,-1.048485517501831,0.8672846555709839,0.6403067111968994,0.03757534176111221,-0.00858320016413927
10.873440027236938,-0.403410404920578,-1.0496299266815186,0.8680475950241089,0.6464102864265442,0.03757534176111221,-0.008964675478637218
10.89355182647705,-0.403410404920578,-1.0503928661346436,0.8691920638084412,0.6513695120811462,0.0398641936480999,-0.009727626107633114
10.91367220878601,-0.403410404920578,-1.051155924797058,0.8691920638084412,0.6555657386779785,0.04177157208323479,-0.010872052982449532
10.933711767196655,-0.403410404920578,-1.051918864250183,0.8695735335350037,0.6620507836341858,0.042153049260377884,-0.01125352829694748
10.953789472579956,-0.403410404920578,-1.052681803703308,0.8707179427146912,0.6685358881950378,0.04444190114736557,-0.011635004542768002
10.97386360168457,-0.403410404920578,-1.0538262128829956,0.8718623518943787,0.6750209927558899,0.04558632895350456,-0.01201647985726595
10.993929386138916,-0.403410404920578,-1.054970622062683,0.8733882904052734,0.6811245679855347,0.04749370738863945,-0.012397955171763897
11.013974905014038,-0.403410404920578,-1.055733561515808,0.8741512298583984,0.6860837936401367,0.049782559275627136,-0.013160906732082367
11.034058094024658,-0.4037918746471405,-1.056496500968933,0.8752956390380859,0.692568838596344,0.05130846053361893,-0.013923857361078262
11.054123640060425,-0.4045548141002655,-1.057259440422058,0.8760585784912109,0.698291003704071,0.053215838968753815,-0.014686808921396732
11.074182510375977,-0.404936283826828,-1.057259440422058,0.8768215179443359,0.7047760486602783,0.05436026677489281,-0.014686808921396732
11.094307899475098,-0.404936283826828,-1.058022379875183,0.8772030472755432,0.7120240926742554,0.056267641484737396,-0.01506828423589468
11.114394426345825,-0.404936283826828,-1.0587854385375977,0.8779659867286682,0.7177462577819824,0.057793546468019485,-0.01506828423589468
11.134468793869019,-0.404936283826828,-1.0591669082641602,0.8787289261817932,0.7238498330116272,0.057793546468019485,-0.015449759550392628
11.154548168182373,-0.404936283826828,-1.0591669082641602,0.8787289261817932,0.7291905283927917,0.05893797054886818,-0.01583123579621315
11.174702644348145,-0.404936283826828,-1.0599298477172852,0.8794918656349182,0.7345311641693115,0.06198977679014206,-0.01583123579621315
11.194946050643921,-0.404936283826828,-1.0610742568969727,0.8802548050880432,0.7410162687301636,0.06542305648326874,-0.016594186425209045
11.214939832687378,-0.4053177833557129,-1.0618371963500977,0.881017804145813,0.7467383742332458,0.06771191209554672,-0.018120087683200836
11.23497724533081,-0.4053177833557129,-1.0626001358032227,0.8813992738723755,0.7547493577003479,0.0715266615152359,-0.01926451548933983
11.255118131637573,-0.4056992530822754,-1.0637445449829102,0.881780743598938,0.763523280620575,0.07305257022380829,-0.020027466118335724
11.275155067443848,-0.4056992530822754,-1.0648889541625977,0.8829251527786255,0.770771324634552,0.07457847148180008,-0.021553369238972664
11.295245885848999,-0.4056992530822754,-1.0656518936157227,0.883306622505188,0.7795453071594238,0.07686731964349747,-0.02231631986796856
11.3152916431427,-0.4056992530822754,-1.0664149522781372,0.884069561958313,0.7875562906265259,0.07991912961006165,-0.022697795182466507
11.3354172706604,-0.4056992530822754,-1.0667964220046997,0.8852140307426453,0.7955672740936279,0.08220797777175903,-0.023079270496964455
11.35551643371582,-0.4056992530822754,-1.0679408311843872,0.8859769701957703,0.8031967878341675,0.0864042118191719,-0.024223696440458298
11.375621795654297,-0.4056992530822754,-1.0687037706375122,0.8867399096488953,0.810826301574707,0.08907453715801239,-0.02536812424659729
11.395645380020142,-0.4064621925354004,-1.0694667100906372,0.8875028491020203,0.8192187547683716,0.09098191559314728,-0.026131074875593185
11.415733337402344,-0.4068436622619629,-1.0706111192703247,0.8886472582817078,0.8287556171417236,0.09403372555971146,-0.02727550081908703
11.435784578323364,-0.4068436622619629,-1.0713740587234497,0.88979172706604,0.838674008846283,0.09517814964056015,-0.02841992862522602
11.455858945846558,-0.4068436622619629,-1.0721369981765747,0.890554666519165,0.84744793176651,0.09861142933368683,-0.02994582988321781
11.475956916809082,-0.4068436622619629,-1.0725184679031372,0.89131760597229,0.8577477931976318,0.10166323184967041,-0.03032730519771576
11.496057033538818,-0.4072251319885254,-1.0736628770828247,0.892080545425415,0.8680475950241089,0.10585946589708328,-0.030708782374858856
11.516096353530884,-0.4076066315174103,-1.0744259357452393,0.8928435444831848,0.8768215179443359,0.10967422276735306,-0.03223468363285065
11.536188125610352,-0.4076066315174103,-1.0755703449249268,0.8939879536628723,0.8867399096488953,0.11348897218704224,-0.03337911143898964
11.55627727508545,-0.4076066315174103,-1.0770962238311768,0.8947508931159973,0.8962767720222473,0.11654078215360641,-0.03376058489084244
11.57634711265564,-0.4076066315174103,-1.0774776935577393,0.8955138325691223,0.9092469811439514,0.11959258466959,-0.03528648987412453
11.59641981124878,-0.4076066315174103,-1.0778591632843018,0.8962767720222473,0.9222171306610107,0.12378881871700287,-0.03604944050312042
11.616534233093262,-0.4076066315174103,-1.0786221027374268,0.8970397710800171,0.9325169920921326,0.12912946939468384,-0.03795681521296501
11.636586427688599,-0.4076066315174103,-1.0793850421905518,0.8978027105331421,0.9481574892997742,0.1325627565383911,-0.0394827201962471
11.656640768051147,-0.4076066315174103,-1.0797665119171143,0.8981841802597046,0.9611276388168335,0.13828489184379578,-0.04139009863138199
11.676692724227905,-0.4076066315174103,-1.0801479816436768,0.8981841802597046,0.9740977883338928,0.14209964871406555,-0.04329747334122658
11.6968412399292,-0.4076066315174103,-1.0809109210968018,0.8981841802597046,0.9855420589447021,0.14667734503746033,-0.04558632895350456
11.716970205307007,-0.4076066315174103,-1.0812923908233643,0.8985656499862671,0.996604859828949,0.1508735716342926,-0.046730753034353256
11.736969470977783,-0.4076066315174103,-1.0812923908233643,0.8989471197128296,0.9969863295555115,0.1520180106163025,-0.048256658017635345
11.757038593292236,-0.4076066315174103,-1.0809109210968018,0.8993285894393921,0.9977492690086365,0.15316243469715118,-0.048638131469488144
11.77712345123291,-0.4076066315174103,-1.0809109210968018,0.8993285894393921,0.9977492690086365,0.15354390442371368,-0.048638131469488144
11.797207117080688,-0.4076066315174103,-1.0809109210968018,0.8993285894393921,0.9977492690086365,0.15354390442371368,-0.048638131469488144
11.81728219985962,-0.4076066315174103,-1.0812923908233643,0.8993285894393921,0.9977492690086365,0.15316243469715118,-0.048638131469488144
11.837396383285522,-0.4076066315174103,-1.0809109210968018,0.8993285894393921,0.9977492690086365,0.15316243469715118,-0.048638131469488144
11.85744857788086,-0.4076066315174103,-1.0809109210968018,0.8993285894393921,0.9977492690086365,0.15316243469715118,-0.048638131469488144
11.877540349960327,-0.4076066315174103,-1.0809109210968018,0.8993285894393921,0.9977492690086365,0.15354390442371368,-0.048638131469488144
11.897679567337036,-0.4076066315174103,-1.0809109210968018,0.8993285894393921,0.9977492690086365,0.15354390442371368,-0.048638131469488144
11.917869567871094,-0.4076066315174103,-1.0809109210968018,0.8993285894393921,0.9977492690086365,0.15354390442371368,-0.048638131469488144
11.937886238098145,-0.4076066315174103,-1.0809109210968018,0.8993285894393921,0.9977492690086365,0.15316243469715118,-0.048638131469488144
11.957938432693481,-0.4076066315174103,-1.0809109210968018,0.8993285894393921,0.9977492690086365,0.15316243469715118,-0.048638131469488144
11.978091478347778,-0.4072251319885254,-1.0809109210968018,0.8993285894393921,0.9977492690086365,0.15354390442371368,-0.04901960864663124
11.998117685317993,-0.4072251319885254,-1.0809109210968018,0.8993285894393921,0.997367799282074,0.15354390442371368,-0.04901960864663124
12.018275499343872,-0.4068436622619629,-1.0809109210968018,0.8993285894393921,0.997367799282074,0.15354390442371368,-0.04901960864663124
12.03867793083191,-0.4064621925354004,-1.0809109210968018,0.8993285894393921,0.997367799282074,0.15354390442371368,-0.04940108209848404
12.05881381034851,-0.4064621925354004,-1.0809109210968018,0.8997100591659546,0.9977492690086365,0.15354390442371368,-0.04940108209848404
12.07893443107605,-0.4064621925354004,-1.0809109210968018,0.8997100591659546,0.997367799282074,0.15354390442371368,-0.04940108209848404
12.099176168441772,-0.4060807228088379,-1.0809109210968018,0.8997100591659546,0.997367799282074,0.15392538905143738,-0.04940108209848404
12.119319438934326,-0.4053177833557129,-1.0809109210968018,0.8997100591659546,0.997367799282074,0.15354390442371368,-0.049782559275627136
12.139335632324219,-0.4053177833557129,-1.0809109210968018,0.8997100591659546,0.997367799282074,0.15354390442371368,-0.049782559275627136
12.159403800964355,-0.4053177833557129,-1.0809109210968018,0.9000915288925171,0.997367799282074,0.15392538905143738,-0.050164032727479935
12.179473400115967,-0.4045548141002655,-1.0809109210968018,0.9000915288925171,0.997367799282074,0.15392538905143738,-0.050164032727479935
12.199552774429321,-0.4045548141002655,-1.0809109210968018,0.9000915288925171,0.997367799282074,0.15430685877799988,-0.05054550990462303
12.2196364402771,-0.4045548141002655,-1.0809109210968018,0.9000915288925171,0.997367799282074,0.15430685877799988,-0.05054550990462303
12.239646911621094,-0.4045548141002655,-1.0809109210968018,0.9000915288925171,0.997367799282074,0.15430685877799988,-0.05054550990462303
12.259727716445923,-0.4045548141002655,-1.0809109210968018,0.9000915288925171,0.997367799282074,0.15430685877799988,-0.05092698708176613
12.279797077178955,-0.4045548141002655,-1.0809109210968018,0.9000915288925171,0.997367799282074,0.15430685877799988,-0.05092698708176613
12.299862384796143,-0.4045548141002655,-1.0809109210968018,0.9000915288925171,0.997367799282074,0.15430685877799988,-0.05092698708176613
12.320297956466675,-0.404173344373703,-1.0809109210968018,0.9004730582237244,0.997367799282074,0.15430685877799988,-0.05130846053361893
12.340389728546143,-0.4037918746471405,-1.0809109210968018,0.9004730582237244,0.997367799282074,0.15430685877799988,-0.05130846053361893
12.360458374023438,-0.4030289053916931,-1.0809109210968018,0.9004730582237244,0.997367799282074,0.15430685877799988,-0.05130846053361893
12.380529165267944,-0.4026474356651306,-1.0809109210968018,0.9004730582237244,0.9969863295555115,0.15468832850456238,-0.051689937710762024
12.400614023208618,-0.4022659659385681,-1.0809109210968018,0.9004730582237244,0.9969863295555115,0.15468832850456238,-0.051689937710762024
12.420691013336182,-0.4022659659385681,-1.0809109210968018,0.9004730582237244,0.9969863295555115,0.15545128285884857,-0.051689937710762024
12.440744876861572,-0.4022659659385681,-1.0809109210968018,0.9012359976768494,0.9969863295555115,0.15545128285884857,-0.05207141116261482
12.460827112197876,-0.4022659659385681,-1.0809109210968018,0.9012359976768494,0.9969863295555115,0.15583276748657227,-0.05207141116261482
12.480926036834717,-0.4022659659385681,-1.0809109210968018,0.9012359976768494,0.9969863295555115,0.15621423721313477,-0.05207141116261482
12.501012563705444,-0.4022659659385681,-1.0809109210968018,0.9016174674034119,0.9969863295555115,0.15621423721313477,-0.05207141116261482
12.521115779876709,-0.4022659659385681,-1.0809109210968018,0.9016174674034119,0.9969863295555115,0.15621423721313477,-0.05207141116261482
12.54120659828186,-0.4007400572299957,-1.0809109210968018,0.9016174674034119,0.9969863295555115,0.15621423721313477,-0.05245288833975792
12.561338186264038,-0.4003585875034332,-1.0809109210968018,0.9016174674034119,0.9969863295555115,0.15621423721313477,-0.05245288833975792
12.581453084945679,-0.4003585875034332,-1.0809109210968018,0.9016174674034119,0.996604859828949,0.15659570693969727,-0.05245288833975792
12.601449489593506,-0.4003585875034332,-1.0809109210968018,0.9016174674034119,0.996604859828949,0.15735866129398346,-0.05283436179161072
12.621535301208496,-0.3999771177768707,-1.0809109210968018,0.9016174674034119,0.9962233901023865,0.15735866129398346,-0.05283436179161072
12.64171576499939,-0.3999771177768707,-1.0809109210968018,0.9016174674034119,0.9962233901023865,0.15735866129398346,-0.05283436179161072
12.661697626113892,-0.4003585875034332,-1.0809109210968018,0.9016174674034119,0.9962233901023865,0.15735866129398346,-0.05283436179161072
12.681860446929932,-0.4003585875034332,-1.0809109210968018,0.9016174674034119,0.9962233901023865,0.15735866129398346,-0.05283436179161072
12.70198130607605,-0.3999771177768707,-1.0809109210968018,0.9019989371299744,0.9962233901023865,0.15735866129398346,-0.053215838968753815
12.72209906578064,-0.3999771177768707,-1.0809109210968018,0.9019989371299744,0.9962233901023865,0.15735866129398346,-0.053215838968753815
12.742112398147583,-0.3999771177768707,-1.0809109210968018,0.9019989371299744,0.9962233901023865,0.15735866129398346,-0.053215838968753815
12.762192964553833,-0.39921414852142334,-1.0809109210968018,0.9019989371299744,0.9962233901023865,0.15735866129398346,-0.05359731614589691
12.782254219055176,-0.39883267879486084,-1.0809109210968018,0.9023804068565369,0.995841920375824,0.15735866129398346,-0.05359731614589691
12.802343368530273,-0.39806973934173584,-1.0809109210968018,0.9023804068565369,0.995841920375824,0.15735866129398346,-0.05397878959774971
12.822504758834839,-0.39806973934173584,-1.0809109210968018,0.9023804068565369,0.995841920375824,0.15735866129398346,-0.054741740226745605
12.84259295463562,-0.39806973934173584,-1.0809109210968018,0.9023804068565369,0.995841920375824,0.15774014592170715,-0.0551232174038887
12.86266565322876,-0.39806973934173584,-1.0809109210968018,0.9023804068565369,0.995841920375824,0.15774014592170715,-0.0551232174038887
12.882683515548706,-0.39806973934173584,-1.0809109210968018,0.9023804068565369,0.995841920375824,0.15735866129398346,-0.0555046908557415
12.902835130691528,-0.39806973934173584,-1.0809109210968018,0.9023804068565369,0.995841920375824,0.15774014592170715,-0.0555046908557415
12.922851085662842,-0.39768826961517334,-1.0809109210968018,0.9023804068565369,0.9954604506492615,0.15735866129398346,-0.0555046908557415
12.9429771900177,-0.39730677008628845,-1.0809109210968018,0.9023804068565369,0.995841920375824,0.15735866129398346,-0.0558861680328846
12.963039636611938,-0.39730677008628845,-1.0809109210968018,0.9023804068565369,0.9954604506492615,0.15774014592170715,-0.0558861680328846
12.983141660690308,-0.39692530035972595,-1.0809109210968018,0.9023804068565369,0.9954604506492615,0.15774014592170715,-0.0558861680328846
13.00330662727356,-0.39692530035972595,-1.0809109210968018,0.9023804068565369,0.9954604506492615,0.15812161564826965,-0.0558861680328846
13.023349523544312,-0.39654383063316345,-1.0809109210968018,0.9023804068565369,0.9954604506492615,0.15812161564826965,-0.0558861680328846
13.043644428253174,-0.39616236090660095,-1.0809109210968018,0.9023804068565369,0.9954604506492615,0.15812161564826965,-0.0558861680328846
13.063717365264893,-0.39616236090660095,-1.0809109210968018,0.9027618765830994,0.9954604506492615,0.15812161564826965,-0.0558861680328846
13.083873271942139,-0.39616236090660095,-1.0809109210968018,0.9027618765830994,0.9954604506492615,0.15812161564826965,-0.056267641484737396
13.103861570358276,-0.39578089118003845,-1.0809109210968018,0.9027618765830994,0.9954604506492615,0.15812161564826965,-0.056267641484737396
13.123974800109863,-0.39578089118003845,-1.0809109210968018,0.9031433463096619,0.9954604506492615,0.15812161564826965,-0.056267641484737396
13.144051551818848,-0.39501792192459106,-1.0809109210968018,0.9035248160362244,0.9954604506492615,0.15812161564826965,-0.056267641484737396
13.164085865020752,-0.39501792192459106,-1.0809109210968018,0.9035248160362244,0.995078980922699,0.15888457000255585,-0.05664911866188049
13.184362173080444,-0.39501792192459106,-1.0809109210968018,0.9035248160362244,0.995078980922699,0.15926603972911835,-0.05664911866188049
13.204492092132568,-0.39501792192459106,-1.0809109210968018,0.9035248160362244,0.995078980922699,0.15926603972911835,-0.05664911866188049
13.224576950073242,-0.39463645219802856,-1.0809109210968018,0.9035248160362244,0.995078980922699,0.15926603972911835,-0.05703059583902359
13.24460768699646,-0.39463645219802856,-1.0809109210968018,0.9035248160362244,0.995078980922699,0.15926603972911835,-0.05703059583902359
13.26521372795105,-0.39387351274490356,-1.0809109210968018,0.9035248160362244,0.995078980922699,0.15926603972911835,-0.05703059583902359
13.28530240058899,-0.39387351274490356,-1.0809109210968018,0.9035248160362244,0.995078980922699,0.15926603972911835,-0.05741206929087639
13.305380582809448,-0.3927290737628937,-1.0809109210968018,0.9039062857627869,0.995078980922699,0.15926603972911835,-0.05741206929087639
13.32550597190857,-0.3927290737628937,-1.0809109210968018,0.9039062857627869,0.995078980922699,0.15964750945568085,-0.05741206929087639
13.345610857009888,-0.3927290737628937,-1.0809109210968018,0.9039062857627869,0.995078980922699,0.15964750945568085,-0.057793546468019485
13.365692615509033,-0.3927290737628937,-1.0809109210968018,0.9042877554893494,0.995078980922699,0.15964750945568085,-0.057793546468019485
13.38578176498413,-0.3927290737628937,-1.0809109210968018,0.9042877554893494,0.995078980922699,0.16002899408340454,-0.058175019919872284
13.40595293045044,-0.3927290737628937,-1.0809109210968018,0.9042877554893494,0.995078980922699,0.16002899408340454,-0.058175019919872284
13.426120042800903,-0.3927290737628937,-1.0809109210968018,0.9042877554893494,0.995078980922699,0.16002899408340454,-0.058175019919872284
13.446200847625732,-0.3923476040363312,-1.0809109210968018,0.9042877554893494,0.995078980922699,0.16002899408340454,-0.058175019919872284
13.466320037841797,-0.3923476040363312,-1.0809109210968018,0.9042877554893494,0.995078980922699,0.16002899408340454,-0.05855649709701538
13.486402988433838,-0.3919661343097687,-1.0809109210968018,0.9042877554893494,0.995078980922699,0.16002899408340454,-0.05855649709701538
13.506566524505615,-0.3919661343097687,-1.0809109210968018,0.9042877554893494,0.995078980922699,0.16041046380996704,-0.05893797054886818
13.526580333709717,-0.3915846347808838,-1.0809109210968018,0.9042877554893494,0.995078980922699,0.16041046380996704,-0.05893797054886818
13.546704292297363,-0.3912031650543213,-1.0809109210968018,0.9046692848205566,0.9946975111961365,0.16041046380996704,-0.05893797054886818
13.566755056381226,-0.3908216953277588,-1.0809109210968018,0.9046692848205566,0.995078980922699,0.16041046380996704,-0.05893797054886818
13.586833477020264,-0.3908216953277588,-1.0809109210968018,0.9046692848205566,0.995078980922699,0.16041046380996704,-0.05893797054886818
13.606926202774048,-0.3908216953277588,-1.0809109210968018,0.9046692848205566,0.995078980922699,0.16041046380996704,-0.059319447726011276
13.62708830833435,-0.3904402256011963,-1.0809109210968018,0.9046692848205566,0.995078980922699,0.16041046380996704,-0.059319447726011276
13.647156238555908,-0.3900587558746338,-1.0809109210968018,0.9046692848205566,0.9946975111961365,0.16041046380996704,-0.059319447726011276
13.66719937324524,-0.3900587558746338,-1.0809109210968018,0.9046692848205566,0.995078980922699,0.16041046380996704,-0.059319447726011276
13.687291622161865,-0.3900587558746338,-1.0809109210968018,0.9046692848205566,0.995078980922699,0.16041046380996704,-0.059319447726011276
13.70738172531128,-0.3896772861480713,-1.0809109210968018,0.9046692848205566,0.995078980922699,0.16079194843769073,-0.059319447726011276
13.727418422698975,-0.3896772861480713,-1.0809109210968018,0.9050507545471191,0.9946975111961365,0.16079194843769073,-0.059319447726011276
13.747500896453857,-0.3896772861480713,-1.0809109210968018,0.9050507545471191,0.9946975111961365,0.16079194843769073,-0.059319447726011276
13.767590284347534,-0.3892957866191864,-1.0809109210968018,0.9054322242736816,0.9946975111961365,0.16079194843769073,-0.05970092490315437
13.787742853164673,-0.3885328471660614,-1.0809109210968018,0.9054322242736816,0.9946975111961365,0.16079194843769073,-0.05970092490315437
13.807758331298828,-0.3885328471660614,-1.0809109210968018,0.9058136940002441,0.9946975111961365,0.16117341816425323,-0.05970092490315437
13.827925443649292,-0.3877699077129364,-1.0809109210968018,0.9058136940002441,0.9946975111961365,0.16079194843769073,-0.06008239835500717
13.847943544387817,-0.3877699077129364,-1.0809109210968018,0.9058136940002441,0.9946975111961365,0.16079194843769073,-0.06008239835500717
13.868058443069458,-0.3877699077129364,-1.0809109210968018,0.9058136940002441,0.994316041469574,0.16079194843769073,-0.06008239835500717
13.888083219528198,-0.3877699077129364,-1.0809109210968018,0.9058136940002441,0.994316041469574,0.16117341816425323,-0.06008239835500717
13.908173084259033,-0.3873884081840515,-1.0809109210968018,0.9058136940002441,0.994316041469574,0.16155488789081573,-0.06008239835500717
13.928312301635742,-0.3873884081840515,-1.0809109210968018,0.9061951637268066,0.994316041469574,0.16155488789081573,-0.06008239835500717
13.948341608047485,-0.3873884081840515,-1.0809109210968018,0.9061951637268066,0.994316041469574,0.16117341816425323,-0.06008239835500717
13.968528270721436,-0.387006938457489,-1.0809109210968018,0.9061951637268066,0.994316041469574,0.16117341816425323,-0.06008239835500717
13.9886794090271,-0.3858625292778015,-1.0809109210968018,0.9061951637268066,0.994316041469574,0.16117341816425323,-0.06008239835500717
