liuyurong129/humanoid-gym/humanoid/data/actual_q_20250523-225939.csv
timestamp,joint_1,joint_2,joint_3,joint_4,joint_5,joint_6
5.054473876953125e-05,-0.0013351644156500697,0.14286258816719055,-0.07457847148180008,-0.00019073777366429567,0.00019073777366429567,0.00667582219466567
0.020128250122070312,-0.0009536888683214784,0.12111848592758179,-0.06427863240242004,-0.000572213320992887,0.000572213320992887,0.006294346414506435
0.04024004936218262,-0.0009536888683214784,0.10776684433221817,-0.059319447726011276,-0.00019073777366429567,0.00019073777366429567,0.00667582219466567
0.06030559539794922,-0.0013351644156500697,0.09670405089855194,-0.05245288833975792,-0.00019073777366429567,0.00019073777366429567,0.005912871100008488
0.0803682804107666,-0.0013351644156500697,0.08411535620689392,-0.04482337832450867,-0.00019073777366429567,0.00019073777366429567,0.004386968910694122
0.10044288635253906,-0.0009536888683214784,0.07267109304666519,-0.03757534176111221,-0.00019073777366429567,0.00019073777366429567,0.0032425422687083483
0.12050914764404297,-0.0009536888683214784,0.06847485899925232,-0.03452353551983833,-0.00019073777366429567,0.00019073777366429567,0.0032425422687083483
0.14060115814208984,-0.0009536888683214784,0.06580453366041183,-0.03032730519771576,-0.000572213320992887,0.000572213320992887,0.002861066721379757
0.16068243980407715,-0.0013351644156500697,0.06504157930612564,-0.029564354568719864,-0.000572213320992887,0.000572213320992887,0.002861066721379757
0.1810758113861084,-0.0009536888683214784,0.06351567804813385,-0.028038453310728073,-0.0009536888683214784,0.0009536888683214784,0.0020981156267225742
0.20117902755737305,-0.0009536888683214784,0.06084534898400307,-0.02536812424659729,-0.0013351644156500697,0.0009536888683214784,0.0009536888683214784
0.2212672233581543,-0.0013351644156500697,0.05970092490315437,-0.022697795182466507,-0.0020981156267225742,0.0009536888683214784,-0.00019073777366429567
0.24133586883544922,-0.0009536888683214784,0.06008239835500717,-0.02040894143283367,-0.0032425422687083483,0.0009536888683214784,-0.0009536888683214784
0.26142096519470215,-0.0009536888683214784,0.06008239835500717,-0.01773861236870289,-0.0036240178160369396,0.0009536888683214784,-0.001716639962978661
0.2814977169036865,-0.0009536888683214784,0.05970092490315437,-0.01430533267557621,-0.004386968910694122,0.0009536888683214784,-0.002861066721379757
0.3015930652618408,-0.0009536888683214784,0.05970092490315437,-0.013160906732082367,-0.005149920005351305,0.0009536888683214784,-0.004386968910694122
0.3216588497161865,-0.0009536888683214784,0.059319447726011276,-0.010872052982449532,-0.0078202486038208,0.0009536888683214784,-0.005149920005351305
0.3417239189147949,-0.0009536888683214784,0.058175019919872284,-0.008201723918318748,-0.00858320016413927,0.0013351644156500697,-0.005912871100008488
0.36177921295166016,-0.0009536888683214784,0.05741206929087639,-0.00667582219466567,-0.009727626107633114,0.0013351644156500697,-0.008201723918318748
0.38187408447265625,-0.0009536888683214784,0.05664911866188049,-0.0036240178160369396,-0.010872052982449532,0.001716639962978661,-0.008964675478637218
0.4019486904144287,-0.0009536888683214784,0.0558861680328846,-0.0009536888683214784,-0.01125352829694748,0.0020981156267225742,-0.010872052982449532
0.42208194732666016,-0.0009536888683214784,0.0551232174038887,0.0013351644156500697,-0.01201647985726595,0.002861066721379757,-0.01201647985726595
0.44215989112854004,-0.0009536888683214784,0.05436026677489281,0.004386968910694122,-0.012779430486261845,0.004005493130534887,-0.012779430486261845
0.462249755859375,-0.0009536888683214784,0.05359731614589691,0.007438773289322853,-0.014686808921396732,0.00476844422519207,-0.014686808921396732
0.48227381706237793,-0.0009536888683214784,0.05283436179161072,0.009346150793135166,-0.01583123579621315,0.005149920005351305,-0.016212711110711098
0.5023689270019531,-0.0009536888683214784,0.051689937710762024,0.012397955171763897,-0.016975661739706993,0.00667582219466567,-0.01735713705420494
0.5224432945251465,-0.0009536888683214784,0.05054550990462303,0.016212711110711098,-0.018501564860343933,0.00858320016413927,-0.01926451548933983
0.5425314903259277,-0.0009536888683214784,0.05054550990462303,0.018120087683200836,-0.01926451548933983,0.008964675478637218,-0.020027466118335724
0.5628046989440918,-0.0009536888683214784,0.04940108209848404,0.02040894143283367,-0.019645990803837776,0.010490577667951584,-0.021171892061829567
0.5829067230224609,-0.000572213320992887,0.048638131469488144,0.02384222112596035,-0.02040894143283367,0.01201647985726595,-0.023079270496964455
0.6029858589172363,-0.00019073777366429567,0.04711223021149635,0.02689402550458908,-0.02231631986796856,0.012397955171763897,-0.023460745811462402
0.6230440139770508,-0.00019073777366429567,0.045204851776361465,0.029564354568719864,-0.023079270496964455,0.013542382046580315,-0.024223696440458298
0.6431043148040771,-0.00019073777366429567,0.043678950518369675,0.03299763426184654,-0.024223696440458298,0.01506828423589468,-0.026131074875593185
0.6631829738616943,-0.00019073777366429567,0.04253452271223068,0.035667963325977325,-0.026512550190091133,0.01583123579621315,-0.02689402550458908
0.6832361221313477,-0.00019073777366429567,0.042153049260377884,0.03795681521296501,-0.026512550190091133,0.016594186425209045,-0.02727550081908703
0.7033290863037109,-0.00019073777366429567,0.04100862145423889,0.04139009863138199,-0.02727550081908703,0.016594186425209045,-0.02841992862522602
0.7234029769897461,-0.00019073777366429567,0.0394827201962471,0.04482337832450867,-0.027656977996230125,0.01735713705420494,-0.03032730519771576
0.7434678077697754,-0.00019073777366429567,0.03833829239010811,0.04749370738863945,-0.029182879254221916,0.01735713705420494,-0.03147173300385475
0.7635517120361328,-0.00019073777366429567,0.03643091395497322,0.051689937710762024,-0.03032730519771576,0.01773861236870289,-0.03376058489084244
0.7836263179779053,0.00019073777366429567,0.03490501269698143,0.0558861680328846,-0.03185320645570755,0.01773861236870289,-0.03490501269698143
0.8036892414093018,0.00019073777366429567,0.034142062067985535,0.05893797054886818,-0.03452353551983833,0.01773861236870289,-0.03643091395497322
0.8240966796875,0.00019073777366429567,0.032616160809993744,0.06275273114442825,-0.03604944050312042,0.018120087683200836,-0.038719769567251205
0.8442909717559814,0.00019073777366429567,0.02994582988321781,0.06771191209554672,-0.03757534176111221,0.01888304017484188,-0.04100862145423889
0.8644118309020996,0.000572213320992887,0.027656977996230125,0.0707637146115303,-0.03795681521296501,0.01926451548933983,-0.04253452271223068
0.8851566314697266,0.0009536888683214784,0.025749599561095238,0.07419699430465698,-0.038719769567251205,0.019645990803837776,-0.04406042397022247
0.9052906036376953,0.0020981156267225742,0.02384222112596035,0.07915617525577545,-0.040627144277095795,0.020027466118335724,-0.04596780240535736
0.9253637790679932,0.002861066721379757,0.02231631986796856,0.08258945494890213,-0.042153049260377884,0.02040894143283367,-0.04711223021149635
0.945382833480835,0.0032425422687083483,0.02079041674733162,0.08564125746488571,-0.043678950518369675,0.02079041674733162,-0.04901960864663124
0.9654848575592041,0.002861066721379757,0.018501564860343933,0.09060044586658478,-0.045204851776361465,0.022697795182466507,-0.050164032727479935
0.9855566024780273,0.0032425422687083483,0.016212711110711098,0.09594109654426575,-0.04596780240535736,0.023460745811462402,-0.051689937710762024
1.005608081817627,0.0032425422687083483,0.013923857361078262,0.09975585341453552,-0.04711223021149635,0.024223696440458298,-0.053215838968753815
1.0257024765014648,0.0032425422687083483,0.011635004542768002,0.10433356463909149,-0.048638131469488144,0.024223696440458298,-0.054741740226745605
1.0457673072814941,0.0032425422687083483,0.00858320016413927,0.10967422276735306,-0.04940108209848404,0.024605173617601395,-0.05741206929087639
1.0658812522888184,0.0032425422687083483,0.00667582219466567,0.11272602528333664,-0.050164032727479935,0.024986648932099342,-0.05855649709701538
1.0859735012054443,0.0032425422687083483,0.004386968910694122,0.11654078215360641,-0.05245288833975792,0.024605173617601395,-0.06084534898400307
1.1060583591461182,0.0032425422687083483,0.0020981156267225742,0.12073700875043869,-0.05283436179161072,0.024605173617601395,-0.06237125024199486
1.1261100769042969,0.0032425422687083483,0.0009536888683214784,0.12378881871700287,-0.05359731614589691,0.024605173617601395,-0.06504157930612564
1.1462039947509766,0.0036240178160369396,-0.001716639962978661,0.12798504531383514,-0.05436026677489281,0.02536812424659729,-0.06618601083755493
1.1663165092468262,0.004005493130534887,-0.005531395319849253,0.1325627565383911,-0.0558861680328846,0.02536812424659729,-0.06885633617639542
1.1864655017852783,0.004005493130534887,-0.00858320016413927,0.135233074426651,-0.05664911866188049,0.026512550190091133,-0.07038223743438721
1.2065658569335938,0.004005493130534887,-0.01201647985726595,0.14095520973205566,-0.057793546468019485,0.027656977996230125,-0.07267109304666519
1.2266342639923096,0.004386968910694122,-0.014686808921396732,0.14515145123004913,-0.06046387553215027,0.028038453310728073,-0.07381551712751389
1.247385025024414,0.004386968910694122,-0.01773861236870289,0.14858472347259521,-0.06237125024199486,0.029182879254221916,-0.07686731964349747
1.2675104141235352,0.004386968910694122,-0.021171892061829567,0.15468832850456238,-0.06427863240242004,0.030708782374858856,-0.07915617525577545
1.2876698970794678,0.005149920005351305,-0.02536812424659729,0.15888457000255585,-0.06542305648326874,0.030708782374858856,-0.08068207651376724
1.3077359199523926,0.005149920005351305,-0.029182879254221916,0.16346226632595062,-0.06771191209554672,0.031090257689356804,-0.08373387902975082
1.3278660774230957,0.005149920005351305,-0.03299763426184654,0.16994735598564148,-0.06923781335353851,0.032616160809993744,-0.08564125746488571
1.3479125499725342,0.005531395319849253,-0.03643091395497322,0.17452506721019745,-0.0715266615152359,0.03299763426184654,-0.0879301130771637
1.3679661750793457,0.005912871100008488,-0.0394827201962471,0.17910276353359222,-0.071908138692379,0.03452353551983833,-0.09060044586658478
1.388120412826538,0.006294346414506435,-0.04406042397022247,0.18596932291984558,-0.07267109304666519,0.03452353551983833,-0.09250781685113907
1.4082367420196533,0.007057297509163618,-0.04901960864663124,0.19130998849868774,-0.07381551712751389,0.035667963325977325,-0.09517814964056015
1.4282479286193848,0.007438773289322853,-0.05359731614589691,0.1962691694498062,-0.07572289556264877,0.035667963325977325,-0.09708552807569504
1.448361873626709,0.008201723918318748,-0.05855649709701538,0.20313572883605957,-0.07686731964349747,0.03643091395497322,-0.09975585341453552
1.4684388637542725,0.00858320016413927,-0.06466010212898254,0.21114671230316162,-0.07839322835206985,0.037193864583969116,-0.1028076633810997
1.488501787185669,0.00858320016413927,-0.0711451917886734,0.21763180196285248,-0.07953765243291855,0.03833829239010811,-0.10471503436565399
1.5085632801055908,0.00858320016413927,-0.07801175117492676,0.22602425515651703,-0.08030059933662415,0.038719769567251205,-0.10662241280078888
1.5286555290222168,0.009346150793135166,-0.08487831056118011,0.23441672325134277,-0.08144503086805344,0.03833829239010811,-0.10967422276735306
1.5487112998962402,0.010490577667951584,-0.08983749151229858,0.24090181291103363,-0.08297093212604523,0.038719769567251205,-0.11120012402534485
1.5688276290893555,0.011635004542768002,-0.09517814964056015,0.24929426610469818,-0.08335240930318832,0.038719769567251205,-0.11425192654132843
1.5889363288879395,0.012779430486261845,-0.1024261862039566,0.2576867341995239,-0.08602273464202881,0.038719769567251205,-0.11692225188016891
1.609069585800171,0.012779430486261845,-0.11043716967105865,0.2660791873931885,-0.0871671661734581,0.039101243019104004,-0.11959258466959
1.62908935546875,0.012779430486261845,-0.11959258466959,0.2733272314071655,-0.08945601433515549,0.0394827201962471,-0.12264438718557358
1.6491813659667969,0.013923857361078262,-0.12760357558727264,0.28286412358283997,-0.09060044586658478,0.0394827201962471,-0.12684062123298645
1.6692516803741455,0.015449759550392628,-0.1348516047000885,0.2924010157585144,-0.09136339277029037,0.0394827201962471,-0.12989242374897003
1.6893033981323242,0.01735713705420494,-0.14209964871406555,0.29964902997016907,-0.09403372555971146,0.039101243019104004,-0.1325627565383911
1.7093915939331055,0.01888304017484188,-0.1520180106163025,0.309567391872406,-0.09479667246341705,0.039101243019104004,-0.135233074426651
1.729506254196167,0.019645990803837776,-0.16193637251853943,0.32024872303009033,-0.09594109654426575,0.0398641936480999,-0.13904783129692078
1.749568223953247,0.020027466118335724,-0.17071031033992767,0.3290226459503174,-0.09746700525283813,0.0394827201962471,-0.14171816408634186
1.769639015197754,0.02079041674733162,-0.1802472025156021,0.3370336592197418,-0.09784847497940063,0.040245670825242996,-0.14629587531089783
1.7897167205810547,0.021553369238972664,-0.19016556441783905,0.34695202112197876,-0.09822995215654373,0.040245670825242996,-0.1501106321811676
1.8098018169403076,0.02193484455347061,-0.1993209719657898,0.3534370958805084,-0.09937438368797302,0.0394827201962471,-0.15316243469715118
1.8298704624176025,0.023079270496964455,-0.21038375794887543,0.36259251832962036,-0.10128175467252731,0.039101243019104004,-0.15697719156742096
1.849982500076294,0.024223696440458298,-0.22068360447883606,0.3713664412498474,-0.1028076633810997,0.038719769567251205,-0.16079194843769073
1.8700370788574219,0.02536812424659729,-0.2313649207353592,0.37937742471694946,-0.10471503436565399,0.03795681521296501,-0.164988175034523
1.8901104927062988,0.026131074875593185,-0.24242770671844482,0.3885328471660614,-0.10547798871994019,0.03795681521296501,-0.16994735598564148
1.910193920135498,0.02727550081908703,-0.25234606862068176,0.39883267879486084,-0.10585946589708328,0.03833829239010811,-0.17414358258247375
1.9302661418914795,0.02880140393972397,-0.2622644305229187,0.4064621925354004,-0.10624094307422638,0.038719769567251205,-0.17948424816131592
1.950340747833252,0.031090257689356804,-0.2725642919540405,0.4175249934196472,-0.10814831405878067,0.03833829239010811,-0.1832990050315857
1.970435619354248,0.03299763426184654,-0.2821011543273926,0.42820629477500916,-0.10891126841306686,0.03795681521296501,-0.18711376190185547
1.990485429763794,0.034142062067985535,-0.2935454249382019,0.4365987777709961,-0.11043716967105865,0.03681239113211632,-0.19207294285297394
2.010582447052002,0.03681239113211632,-0.30422675609588623,0.4488059878349304,-0.11310750246047974,0.03490501269698143,-0.1962691694498062
2.0306591987609863,0.039101243019104004,-0.31452658772468567,0.45872434973716736,-0.11348897218704224,0.03452353551983833,-0.20160982012748718
2.050713300704956,0.04177157208323479,-0.3248264193534851,0.4674982726573944,-0.11577782779932022,0.03299763426184654,-0.20733195543289185
2.070815324783325,0.04444190114736557,-0.33588922023773193,0.47894254326820374,-0.11654078215360641,0.03147173300385475,-0.21229113638401031
2.0908639430999756,0.046730753034353256,-0.34618905186653137,0.49038681387901306,-0.11768520623445511,0.02994582988321781,-0.21686884760856628
2.1109390258789062,0.04901960864663124,-0.3564889132976532,0.5014495849609375,-0.1199740618467331,0.02841992862522602,-0.22259098291397095
2.1310606002807617,0.05283436179161072,-0.36755168437957764,0.5155642032623291,-0.12073700875043869,0.02689402550458908,-0.2283131182193756
2.151143789291382,0.05664911866188049,-0.37975889444351196,0.5308232307434082,-0.12149996310472488,0.024605173617601395,-0.23403525352478027
2.171191930770874,0.05970092490315437,-0.3896772861480713,0.54264897108078,-0.12302586436271667,0.021553369238972664,-0.23861294984817505
2.191274404525757,0.06427863240242004,-0.4018844962120056,0.5579079985618591,-0.12340734153985977,0.01888304017484188,-0.2447165697813034
2.211357831954956,0.06885633617639542,-0.41332876682281494,0.572022557258606,-0.12378881871700287,0.01735713705420494,-0.2508201599121094
2.231403350830078,0.07381551712751389,-0.42553597688674927,0.5842298269271851,-0.12417028844356537,0.01506828423589468,-0.2576867341995239
2.25150465965271,0.07991912961006165,-0.4388876259326935,0.5998703241348267,-0.12455176562070847,0.012397955171763897,-0.264934778213501
2.2715680599212646,0.08564125746488571,-0.4522392749786377,0.6158922910690308,-0.12493324279785156,0.010490577667951584,-0.27180132269859314
2.29164981842041,0.09288929402828217,-0.4655908942222595,0.6277180314064026,-0.12493324279785156,0.00476844422519207,-0.2809567451477051
2.3117425441741943,0.10051880776882172,-0.47932401299476624,0.6429770588874817,-0.12531471252441406,0.0013351644156500697,-0.28973066806793213
2.3318545818328857,0.10814831405878067,-0.49305713176727295,0.6578545570373535,-0.12722209095954895,-0.002861066721379757,-0.29888609051704407
2.35193133354187,0.11539635062217712,-0.5064088106155396,0.6708247661590576,-0.12760357558727264,-0.007438773289322853,-0.3084229826927185
2.372366428375244,0.12340734153985977,-0.5216678380966187,0.6872282028198242,-0.12798504531383514,-0.010872052982449532,-0.31719690561294556
2.3924973011016846,0.13141833245754242,-0.536163866519928,0.7036316394805908,-0.12836651504039764,-0.01506828423589468,-0.3263523280620575
2.412569522857666,0.13828489184379578,-0.5476081371307373,0.7166017889976501,-0.12874799966812134,-0.02193484455347061,-0.33512628078460693
2.4326159954071045,0.14553292095661163,-0.5594338774681091,0.7288090586662292,-0.12951095402240753,-0.02841992862522602,-0.343137264251709
2.452713966369629,0.15316243469715118,-0.5716410875320435,0.7429236173629761,-0.12951095402240753,-0.03528648987412453,-0.35152971744537354
2.472813367843628,0.16041046380996704,-0.5842298269271851,0.7555122971534729,-0.12989242374897003,-0.042153049260377884,-0.3595407009124756
2.492856502532959,0.1661325991153717,-0.5952925682067871,0.7658121585845947,-0.13027389347553253,-0.049782559275627136,-0.36755168437957764
2.512948989868164,0.17261768877506256,-0.6071183085441589,0.7795453071594238,-0.12989242374897003,-0.05703059583902359,-0.3763256371021271
2.533008575439453,0.17910276353359222,-0.6197070479393005,0.7925154566764832,-0.13027389347553253,-0.06351567804813385,-0.3843366205692291
2.5530922412872314,0.1840619444847107,-0.6284809708595276,0.8020523190498352,-0.13027389347553253,-0.0711451917886734,-0.3927290737628937
2.5731754302978516,0.18863965570926666,-0.6357290148735046,0.8112077713012695,-0.13027389347553253,-0.08030059933662415,-0.4007400572299957
2.5932517051696777,0.19398032128810883,-0.6425955891609192,0.8203631639480591,-0.13065537810325623,-0.08869306743144989,-0.4091325104236603
2.61332631111145,0.1981765478849411,-0.648699164390564,0.8279926776885986,-0.13065537810325623,-0.09594109654426575,-0.4175249934196472
2.6333916187286377,0.20160982012748718,-0.654421329498291,0.8325703740119934,-0.13065537810325623,-0.10471503436565399,-0.42591744661331177
2.6534812450408936,0.20542457699775696,-0.6609063744544983,0.8382925391197205,-0.13065537810325623,-0.11196307092905045,-0.4346913993358612
2.6735527515411377,0.20847637951374054,-0.6662470698356628,0.8424887657165527,-0.13065537810325623,-0.11959258466959,-0.44384679198265076
2.693605899810791,0.21076524257659912,-0.6712062358856201,0.8447775840759277,-0.13065537810325623,-0.12684062123298645,-0.4518577754497528
2.713697910308838,0.2134355753660202,-0.6757839322090149,0.848210871219635,-0.13065537810325623,-0.1337071806192398,-0.46139466762542725
2.7337875366210938,0.2157244235277176,-0.6792172193527222,0.8508812189102173,-0.13065537810325623,-0.14133669435977936,-0.4713130295276642
2.753849506378174,0.21801327168941498,-0.6815060377120972,0.8531700372695923,-0.13027389347553253,-0.14782176911830902,-0.481612890958786
2.773956537246704,0.22068360447883606,-0.6841763854026794,0.8558403849601746,-0.13027389347553253,-0.15735866129398346,-0.49229419231414795
2.7940282821655273,0.22373540699481964,-0.6864652633666992,0.8596551418304443,-0.13065537810325623,-0.1657511293888092,-0.5025940537452698
2.814087390899658,0.22602425515651703,-0.6876096725463867,0.8627069592475891,-0.13027389347553253,-0.17376211285591125,-0.5151827335357666
2.83437180519104,0.2290760725736618,-0.6898985505104065,0.8649957776069641,-0.13065537810325623,-0.1844434291124344,-0.5281528830528259
2.854484796524048,0.2317463904619217,-0.692568838596344,0.8688105344772339,-0.13027389347553253,-0.19321736693382263,-0.5430304408073425
2.874552011489868,0.23479819297790527,-0.6952391862869263,0.8714808821678162,-0.13065537810325623,-0.20389868319034576,-0.5579079985618591
2.8950657844543457,0.23823148012161255,-0.699053943157196,0.8745326995849609,-0.13065537810325623,-0.2157244235277176,-0.5739299654960632
2.9151642322540283,0.24166475236415863,-0.7036316394805908,0.8775845170021057,-0.13065537810325623,-0.22602425515651703,-0.5884260535240173
2.9352285861968994,0.2450980395078659,-0.7078278660774231,0.881017804145813,-0.13065537810325623,-0.23594263195991516,-0.6040665507316589
2.9555821418762207,0.248531311750412,-0.7120240926742554,0.883306622505188,-0.13065537810325623,-0.2447165697813034,-0.619325578212738
2.9757497310638428,0.25196459889411926,-0.7169833183288574,0.8871213793754578,-0.13065537810325623,-0.25272753834724426,-0.6345845460891724
2.9958322048187256,0.25577935576438904,-0.7219424843788147,0.890554666519165,-0.13065537810325623,-0.2618829607963562,-0.6509880423545837
3.015854835510254,0.2592126429080963,-0.7257572412490845,0.8936064839363098,-0.13065537810325623,-0.27027541399002075,-0.6666285395622253
3.0359487533569336,0.2622644305229187,-0.7303349375724792,0.8981841802597046,-0.13065537810325623,-0.2771419882774353,-0.6826505064964294
3.0560266971588135,0.266460657119751,-0.735675573348999,0.9035248160362244,-0.13027389347553253,-0.28553444147109985,-0.6994354128837585
3.076078414916992,0.26989394426345825,-0.7406347990036011,0.9069581031799316,-0.13065537810325623,-0.2939268946647644,-0.7166017889976501
3.0962471961975098,0.2740901708602905,-0.7448310256004333,0.9111543297767639,-0.13065537810325623,-0.30384528636932373,-0.734912633895874
3.1163477897644043,0.2775234580039978,-0.7501716613769531,0.9164950251579285,-0.13027389347553253,-0.3122377395629883,-0.7532234787940979
3.1363701820373535,0.2805752754211426,-0.7547493577003479,0.9203097820281982,-0.12989242374897003,-0.3236820101737976,-0.7715343236923218
3.156430244445801,0.28362706303596497,-0.7593270540237427,0.9237430095672607,-0.12989242374897003,-0.33398184180259705,-0.7917525172233582
3.176520824432373,0.28706035017967224,-0.7646677494049072,0.9283207654953003,-0.12989242374897003,-0.344663143157959,-0.8112077713012695
3.1965672969818115,0.28934919834136963,-0.7688639760017395,0.9321355223655701,-0.12912946939468384,-0.3538185656070709,-0.8295185565948486
3.2171990871429443,0.2924010157585144,-0.7738231420516968,0.9363317489624023,-0.12874799966812134,-0.36373692750930786,-0.8501182794570923
3.237291097640991,0.2946898639202118,-0.7784008383750916,0.9401465058326721,-0.12760357558727264,-0.3702220320701599,-0.8688105344772339
3.2573862075805664,0.2973601818084717,-0.7837415337562561,0.9443427324295044,-0.12607766687870026,-0.3767071068286896,-0.8875028491020203
3.2778377532958984,0.29964902997016907,-0.7879377603530884,0.9481574892997742,-0.12531471252441406,-0.38204777240753174,-0.9050507545471191
3.2979323863983154,0.30155640840530396,-0.7925154566764832,0.951209306716919,-0.12340734153985977,-0.3858625292778015,-0.9225986003875732
3.3179824352264404,0.30308231711387634,-0.7978560924530029,0.9557870030403137,-0.12149996310472488,-0.3892957866191864,-0.9401465058326721
3.3380632400512695,0.30498969554901123,-0.8016708493232727,0.9588387608528137,-0.12111848592758179,-0.3931105434894562,-0.9554055333137512
3.358144521713257,0.3061341345310211,-0.8054856061935425,0.9618905782699585,-0.1188296303153038,-0.39730677008628845,-0.9710460305213928
3.3782143592834473,0.308041512966156,-0.8100633025169373,0.9653238654136658,-0.11654078215360641,-0.4007400572299957,-0.9851605892181396
3.398271322250366,0.309567391872406,-0.813878059387207,0.968757152557373,-0.11463340371847153,-0.4045548141002655,-0.9985122680664062
3.4183566570281982,0.3107118308544159,-0.8180742859840393,0.9714275002479553,-0.11234454810619354,-0.4079881012439728,-1.0122454166412354
3.4384217262268066,0.3118562698364258,-0.8218890428543091,0.9748607873916626,-0.11043716967105865,-0.40989547967910767,-1.0263599157333374
3.458491802215576,0.3133821487426758,-0.8253223299980164,0.9782940149307251,-0.10662241280078888,-0.41103988885879517,-1.0393301248550415
3.4785854816436768,0.31414511799812317,-0.8287556171417236,0.9802014231681824,-0.1039520874619484,-0.41218432784080505,-1.050774335861206
3.4986681938171387,0.31567102670669556,-0.8325703740119934,0.9832532405853271,-0.10204470902681351,-0.41371023654937744,-1.0618371963500977
3.518740653991699,0.31643396615982056,-0.8363851308822632,0.9863049983978271,-0.10051880776882172,-0.41371023654937744,-1.0732814073562622
3.5392544269561768,0.31719690561294556,-0.8398184180259705,0.9885938763618469,-0.09746700525283813,-0.41371023654937744,-1.0851072072982788
3.5593628883361816,0.31757840514183044,-0.8428702354431152,0.9905012845993042,-0.09365224838256836,-0.41447317600250244,-1.0954070091247559
3.5794339179992676,0.31795987486839294,-0.84592205286026,0.9924086332321167,-0.09212634712457657,-0.41485464572906494,-1.1037994623184204
3.5999605655670166,0.31834134459495544,-0.84897381067276,0.9954604506492615,-0.0883115902543068,-0.41485464572906494,-1.114099383354187
3.620044708251953,0.31910428404808044,-0.8512626886367798,0.9981307983398438,-0.08602273464202881,-0.41599908471107483,-1.124399185180664
3.6401336193084717,0.31986725330352783,-0.8543145060539246,1.0000381469726562,-0.08487831056118011,-0.41599908471107483,-1.1324101686477661
3.6601994037628174,0.31986725330352783,-0.8569847941398621,1.0015640258789062,-0.08220797777175903,-0.41599908471107483,-1.1415655612945557
3.6802854537963867,0.31986725330352783,-0.8588922023773193,1.0030899047851562,-0.07991912961006165,-0.41523614525794983,-1.1499580144882202
3.70035982131958,0.32024872303009033,-0.8615625500679016,1.0046159029006958,-0.07686731964349747,-0.41447317600250244,-1.1568245887756348
3.7204415798187256,0.32063019275665283,-0.8634698987007141,1.0065232515335083,-0.07381551712751389,-0.41409170627593994,-1.1633096933364868
3.740563154220581,0.32063019275665283,-0.8653773069381714,1.0076676607131958,-0.0707637146115303,-0.41332876682281494,-1.1701762676239014
3.7605960369110107,0.32063019275665283,-0.8665217161178589,1.0088120698928833,-0.06961929053068161,-0.41180285811424255,-1.1766613721847534
3.7806880474090576,0.32063019275665283,-0.8684290647506714,1.0107194185256958,-0.06847485899925232,-0.41065841913223267,-1.182383418083191
3.80077862739563,0.32063019275665283,-0.8710994124412537,1.0118639469146729,-0.06618601083755493,-0.4091325104236603,-1.189631462097168
3.820849657058716,0.32063019275665283,-0.8726252913475037,1.0122454166412354,-0.06504157930612564,-0.4072251319885254,-1.195353627204895
3.8409197330474854,0.32063019275665283,-0.8733882904052734,1.0126268863677979,-0.061226826161146164,-0.4056992530822754,-1.2022202014923096
3.861001968383789,0.32063019275665283,-0.8749141693115234,1.0130083560943604,-0.058175019919872284,-0.4037918746471405,-1.205653429031372
3.881091833114624,0.32063019275665283,-0.8764400482177734,1.0145342350006104,-0.0551232174038887,-0.403410404920578,-1.2109941244125366
3.901167869567871,0.32063019275665283,-0.8775845170021057,1.0149157047271729,-0.05436026677489281,-0.4003585875034332,-1.2148088216781616
3.92149019241333,0.32063019275665283,-0.8783474564552307,1.0156786441802979,-0.05397878959774971,-0.39921414852142334,-1.2197680473327637
3.941615104675293,0.32063019275665283,-0.8794918656349182,1.0160601139068604,-0.05207141116261482,-0.39883267879486084,-1.2254902124404907
3.9616751670837402,0.32063019275665283,-0.8802548050880432,1.0160601139068604,-0.051689937710762024,-0.39616236090660095,-1.2296863794326782
3.9819514751434326,0.32024872303009033,-0.8813992738723755,1.0164415836334229,-0.05130846053361893,-0.39425498247146606,-1.2338826656341553
4.002035140991211,0.31948578357696533,-0.881780743598938,1.0172045230865479,-0.048638131469488144,-0.3927290737628937,-1.2388418912887573
4.0220935344696045,0.31872281432151794,-0.8821622133255005,1.0172045230865479,-0.04749370738863945,-0.3912031650543213,-1.2407492399215698
4.042212963104248,0.31834134459495544,-0.883306622505188,1.0168230533599854,-0.04482337832450867,-0.3885328471660614,-1.2441824674606323
4.062303066253662,0.31834134459495544,-0.8836880922317505,1.0168230533599854,-0.043678950518369675,-0.3866254687309265,-1.2479972839355469
4.082372426986694,0.31795987486839294,-0.8836880922317505,1.0168230533599854,-0.04329747334122658,-0.3847180902957916,-1.2525749206542969
4.102599859237671,0.31643396615982056,-0.8836880922317505,1.0168230533599854,-0.04139009863138199,-0.38242924213409424,-1.2556267976760864
4.122708082199097,0.31643396615982056,-0.8836880922317505,1.0168230533599854,-0.040245670825242996,-0.38014039397239685,-1.2563897371292114
4.142799377441406,0.31605249643325806,-0.8844510316848755,1.0168230533599854,-0.0394827201962471,-0.3778515160083771,-1.258297085762024
4.162861347198486,0.31567102670669556,-0.8844510316848755,1.0168230533599854,-0.039101243019104004,-0.3767071068286896,-1.2594414949417114
4.182941675186157,0.31452658772468567,-0.8844510316848755,1.0164415836334229,-0.03833829239010811,-0.3740367889404297,-1.261348843574524
4.202992916107178,0.31452658772468567,-0.8844510316848755,1.0160601139068604,-0.03681239113211632,-0.3725108802318573,-1.2628748416900635
4.2233192920684814,0.3133821487426758,-0.8844510316848755,1.0156786441802979,-0.03604944050312042,-0.3721294105052948,-1.2644007205963135
4.2434093952178955,0.3133821487426758,-0.8844510316848755,1.0152971744537354,-0.03528648987412453,-0.3713664412498474,-1.266308069229126
4.26348090171814,0.3122377395629883,-0.8844510316848755,1.0145342350006104,-0.034142062067985535,-0.3694590628147125,-1.2682154178619385
4.283836841583252,0.3122377395629883,-0.884069561958313,1.0145342350006104,-0.03337911143898964,-0.36907759308815,-1.269741415977478
4.303936243057251,0.3118562698364258,-0.8836880922317505,1.0137712955474854,-0.03223468363285065,-0.36907759308815,-1.272030234336853
4.323997974395752,0.3114747703075409,-0.8829251527786255,1.0126268863677979,-0.03185320645570755,-0.36755168437957764,-1.2739375829696655
4.3444504737854,0.3110933005809784,-0.882543683052063,1.0122454166412354,-0.031090257689356804,-0.36602577567100525,-1.2769893407821655
4.364535808563232,0.3103303611278534,-0.8821622133255005,1.0114823579788208,-0.03032730519771576,-0.36449989676475525,-1.2773709297180176
4.384589672088623,0.3091859221458435,-0.8821622133255005,1.0114823579788208,-0.02880140393972397,-0.361829549074173,-1.27775239944458
4.404911518096924,0.3084229826927185,-0.881780743598938,1.0103379487991333,-0.027656977996230125,-0.3583962619304657,-1.27927827835083
4.425000429153442,0.3076600432395935,-0.8813992738723755,1.0099564790725708,-0.025749599561095238,-0.3561074137687683,-1.28080415725708
4.445056200027466,0.3072785437107086,-0.881017804145813,1.0095750093460083,-0.02536812424659729,-0.3542000353336334,-1.28080415725708
4.465766429901123,0.3065156042575836,-0.8802548050880432,1.0084306001663208,-0.02536812424659729,-0.3530556261539459,-1.28080415725708
4.485860824584961,0.3061341345310211,-0.8791103959083557,1.0076676607131958,-0.024986648932099342,-0.35038527846336365,-1.2819485664367676
4.505926132202148,0.30537116527557373,-0.8783474564552307,1.0065232515335083,-0.024986648932099342,-0.34885939955711365,-1.28233003616333
4.526266813278198,0.30422675609588623,-0.8772030472755432,1.0046159029006958,-0.02536812424659729,-0.34695202112197876,-1.283092975616455
4.546357870101929,0.30384528636932373,-0.8764400482177734,1.0038528442382812,-0.024986648932099342,-0.34618905186653137,-1.2842373847961426
4.56642484664917,0.30308231711387634,-0.8764400482177734,1.0034713745117188,-0.02384222112596035,-0.34618905186653137,-1.28385591506958
4.5865418910980225,0.30231937766075134,-0.8760585784912109,1.0030899047851562,-0.02384222112596035,-0.34504464268684387,-1.2842373847961426
4.606659173965454,0.30231937766075134,-0.8756771087646484,1.0030899047851562,-0.02384222112596035,-0.343900203704834,-1.2842373847961426
4.626746654510498,0.30231937766075134,-0.8752956390380859,1.0027084350585938,-0.023460745811462402,-0.343900203704834,-1.2842373847961426
4.646874904632568,0.30193790793418884,-0.8741512298583984,1.0015640258789062,-0.02384222112596035,-0.343900203704834,-1.284618854522705
4.666956663131714,0.30193790793418884,-0.8733882904052734,1.0004196166992188,-0.023079270496964455,-0.343137264251709,-1.2850003242492676
4.687014102935791,0.30193790793418884,-0.8726252913475037,0.9992752075195312,-0.02193484455347061,-0.3423742949962616,-1.2850003242492676
4.7072882652282715,0.30117493867874146,-0.8718623518943787,0.9977492690086365,-0.021171892061829567,-0.3397039771080017,-1.2853819131851196
4.727391719818115,0.30041199922561646,-0.8707179427146912,0.9969863295555115,-0.02040894143283367,-0.3389410376548767,-1.2861448526382446
4.747432470321655,0.30041199922561646,-0.8707179427146912,0.9969863295555115,-0.01926451548933983,-0.3370336592197418,-1.2869077920913696
4.76749587059021,0.30003052949905396,-0.8695735335350037,0.9962233901023865,-0.019645990803837776,-0.33550775051116943,-1.2872892618179321
4.7875816822052,0.30003052949905396,-0.8691920638084412,0.995841920375824,-0.018501564860343933,-0.33474478125572205,-1.2884336709976196
4.807650566101074,0.30003052949905396,-0.8688105344772339,0.9946975111961365,-0.018501564860343933,-0.33436331152915955,-1.2880522012710571
4.827720880508423,0.29926756024360657,-0.8684290647506714,0.994316041469574,-0.018501564860343933,-0.33207446336746216,-1.2884336709976196
4.8478102684021,0.29812315106391907,-0.8676661252975464,0.9935530424118042,-0.018501564860343933,-0.33169299364089966,-1.2884336709976196
4.867879152297974,0.29812315106391907,-0.8672846555709839,0.9927901029586792,-0.018501564860343933,-0.3282597064971924,-1.2880522012710571
4.887952089309692,0.29812315106391907,-0.8669031858444214,0.9924086332321167,-0.01773861236870289,-0.3286411762237549,-1.2884336709976196
4.908034324645996,0.29812315106391907,-0.8661402463912964,0.9916456937789917,-0.018120087683200836,-0.3282597064971924,-1.2884336709976196
4.928107738494873,0.29812315106391907,-0.8653773069381714,0.9908827543258667,-0.018120087683200836,-0.3278782367706299,-1.2884336709976196
4.948182821273804,0.2977416515350342,-0.8646143078804016,0.9905012845993042,-0.01773861236870289,-0.3278782367706299,-1.2884336709976196
4.968337774276733,0.2977416515350342,-0.8642328381538391,0.9897382855415344,-0.018501564860343933,-0.3271152675151825,-1.2884336709976196
4.988429307937622,0.2969787120819092,-0.8634698987007141,0.9893568158149719,-0.018120087683200836,-0.3244449496269226,-1.2891966104507446
5.008497953414917,0.2969787120819092,-0.8630884289741516,0.9885938763618469,-0.01773861236870289,-0.3240634799003601,-1.2888151407241821
5.02878475189209,0.2969787120819092,-0.8627069592475891,0.9874494671821594,-0.018501564860343933,-0.3240634799003601,-1.2888151407241821
5.048880577087402,0.2965972423553467,-0.8623254895210266,0.9866865277290344,-0.018501564860343933,-0.3221561014652252,-1.2891966104507446
5.0689568519592285,0.2958342730998993,-0.8615625500679016,0.9855420589447021,-0.018120087683200836,-0.31948578357696533,-1.2888151407241821
5.089008569717407,0.2954528033733368,-0.8611810207366943,0.9847791194915771,-0.018120087683200836,-0.31834134459495544,-1.2888151407241821
5.109104871749878,0.2950713336467743,-0.8604180812835693,0.9843976497650146,-0.018120087683200836,-0.31719690561294556,-1.2891966104507446
5.129172325134277,0.2946898639202118,-0.8600366115570068,0.9836347103118896,-0.018120087683200836,-0.31681543588638306,-1.2888151407241821
5.149241209030151,0.2939268946647644,-0.8592736721038818,0.9836347103118896,-0.018120087683200836,-0.31490805745124817,-1.2888151407241821
5.169321298599243,0.2939268946647644,-0.8581292629241943,0.9832532405853271,-0.018120087683200836,-0.31452658772468567,-1.2888151407241821
5.189427375793457,0.2935454249382019,-0.8573662638664246,0.9824903011322021,-0.018120087683200836,-0.31452658772468567,-1.2888151407241821
5.20946192741394,0.2931639552116394,-0.8566033244132996,0.9824903011322021,-0.018120087683200836,-0.31414511799812317,-1.2888151407241821
5.229541540145874,0.2927824854850769,-0.8562218546867371,0.9813458323478699,-0.018120087683200836,-0.31376364827156067,-1.2884336709976196
5.249622583389282,0.2927824854850769,-0.8566033244132996,0.9809643626213074,-0.018120087683200836,-0.31414511799812317,-1.2884336709976196
5.269714832305908,0.2927824854850769,-0.8566033244132996,0.9805828928947449,-0.018120087683200836,-0.31414511799812317,-1.2888151407241821
5.289979457855225,0.2924010157585144,-0.8566033244132996,0.9805828928947449,-0.01735713705420494,-0.31376364827156067,-1.2888151407241821
5.310129165649414,0.2920195460319519,-0.8562218546867371,0.9802014231681824,-0.016975661739706993,-0.3133821487426758,-1.2888151407241821
5.330150365829468,0.291638046503067,-0.8562218546867371,0.9794384837150574,-0.01735713705420494,-0.3130006790161133,-1.2884336709976196
5.35023832321167,0.291638046503067,-0.8554589152336121,0.9794384837150574,-0.016594186425209045,-0.3126192092895508,-1.2888151407241821
5.370320081710815,0.290875107049942,-0.8550774455070496,0.9794384837150574,-0.01583123579621315,-0.3122377395629883,-1.2888151407241821
5.390395641326904,0.290875107049942,-0.8543145060539246,0.9790570139884949,-0.01583123579621315,-0.3110933005809784,-1.2884336709976196
5.4104602336883545,0.290875107049942,-0.8539330363273621,0.9786755442619324,-0.01583123579621315,-0.3107118308544159,-1.2884336709976196
5.430543422698975,0.2904936373233795,-0.8535515666007996,0.9786755442619324,-0.01583123579621315,-0.3103303611278534,-1.2884336709976196
5.450670957565308,0.290112167596817,-0.8531700372695923,0.9782940149307251,-0.015449759550392628,-0.309567391872406,-1.2884336709976196
5.470990419387817,0.28973066806793213,-0.8531700372695923,0.9775310754776001,-0.014686808921396732,-0.308804452419281,-1.2880522012710571
5.491074085235596,0.28973066806793213,-0.8527885675430298,0.9775310754776001,-0.014686808921396732,-0.3084229826927185,-1.2880522012710571
5.511131763458252,0.28973066806793213,-0.8527885675430298,0.9771496057510376,-0.014686808921396732,-0.308041512966156,-1.2876707315444946
5.531586408615112,0.28973066806793213,-0.8524070978164673,0.9767681360244751,-0.014686808921396732,-0.3072785437107086,-1.2876707315444946
5.551686525344849,0.28973066806793213,-0.8516441583633423,0.9763866662979126,-0.014686808921396732,-0.3072785437107086,-1.2876707315444946
5.5717597007751465,0.28973066806793213,-0.8508812189102173,0.9763866662979126,-0.014686808921396732,-0.3068970739841461,-1.2876707315444946
5.591811656951904,0.28973066806793213,-0.8504997491836548,0.9760051965713501,-0.014686808921396732,-0.3061341345310211,-1.2876707315444946
5.611902713775635,0.28973066806793213,-0.8501182794570923,0.9752422571182251,-0.01506828423589468,-0.3061341345310211,-1.2876707315444946
5.631973743438721,0.28973066806793213,-0.8501182794570923,0.9752422571182251,-0.01506828423589468,-0.3057526648044586,-1.2872892618179321
5.652051687240601,0.28934919834136963,-0.8501182794570923,0.9748607873916626,-0.01430533267557621,-0.3057526648044586,-1.2872892618179321
5.6721367835998535,0.28858625888824463,-0.8501182794570923,0.9744792580604553,-0.013923857361078262,-0.3057526648044586,-1.2869077920913696
5.692245006561279,0.28858625888824463,-0.8497368097305298,0.9744792580604553,-0.013542382046580315,-0.30537116527557373,-1.2869077920913696
5.712302207946777,0.28782328963279724,-0.84897381067276,0.9740977883338928,-0.013160906732082367,-0.30537116527557373,-1.2865263223648071
5.732598304748535,0.28782328963279724,-0.8485923409461975,0.9740977883338928,-0.013542382046580315,-0.30498969554901123,-1.2861448526382446
5.752726793289185,0.28782328963279724,-0.8485923409461975,0.9737163186073303,-0.01430533267557621,-0.30498969554901123,-1.2850003242492676
5.77278470993042,0.28782328963279724,-0.8485923409461975,0.9733348488807678,-0.01430533267557621,-0.30498969554901123,-1.28385591506958
5.792898178100586,0.28782328963279724,-0.848210871219635,0.9721904397010803,-0.013923857361078262,-0.30498969554901123,-1.28385591506958
5.8130128383636475,0.28782328963279724,-0.8478294014930725,0.9718089699745178,-0.013542382046580315,-0.30537116527557373,-1.28385591506958
5.833071708679199,0.28782328963279724,-0.8478294014930725,0.9714275002479553,-0.013160906732082367,-0.30460822582244873,-1.2834744453430176
5.8534016609191895,0.28782328963279724,-0.8478294014930725,0.9710460305213928,-0.012779430486261845,-0.30422675609588623,-1.2834744453430176
5.873495578765869,0.28782328963279724,-0.8478294014930725,0.9710460305213928,-0.012779430486261845,-0.30308231711387634,-1.2834744453430176
5.893568277359009,0.28782328963279724,-0.8478294014930725,0.9710460305213928,-0.013160906732082367,-0.30193790793418884,-1.2834744453430176
5.913620710372925,0.28782328963279724,-0.8470664620399475,0.9710460305213928,-0.013160906732082367,-0.30193790793418884,-1.2834744453430176
5.933709144592285,0.28782328963279724,-0.8470664620399475,0.9710460305213928,-0.012779430486261845,-0.30193790793418884,-1.2834744453430176
5.953776597976685,0.28782328963279724,-0.8470664620399475,0.9710460305213928,-0.013160906732082367,-0.30193790793418884,-1.283092975616455
5.973832845687866,0.28782328963279724,-0.846684992313385,0.9710460305213928,-0.013160906732082367,-0.30193790793418884,-1.283092975616455
5.993920087814331,0.28782328963279724,-0.846684992313385,0.9706645011901855,-0.012779430486261845,-0.30193790793418884,-1.283092975616455
6.0139970779418945,0.28782328963279724,-0.8463035225868225,0.970283031463623,-0.013160906732082367,-0.30193790793418884,-1.283092975616455
6.03406834602356,0.28782328963279724,-0.84592205286026,0.970283031463623,-0.013160906732082367,-0.30193790793418884,-1.283092975616455
6.054215669631958,0.28782328963279724,-0.84592205286026,0.970283031463623,-0.013160906732082367,-0.30193790793418884,-1.2827115058898926
6.074305534362793,0.28782328963279724,-0.84592205286026,0.970283031463623,-0.013160906732082367,-0.30193790793418884,-1.28233003616333
6.094357013702393,0.28782328963279724,-0.84592205286026,0.970283031463623,-0.012779430486261845,-0.30193790793418884,-1.2827115058898926
6.114650011062622,0.28782328963279724,-0.84592205286026,0.970283031463623,-0.012779430486261845,-0.30193790793418884,-1.2819485664367676
6.134746789932251,0.28782328963279724,-0.84592205286026,0.9699015617370605,-0.013160906732082367,-0.30193790793418884,-1.281567096710205
6.154818296432495,0.28782328963279724,-0.8455405235290527,0.9699015617370605,-0.012779430486261845,-0.30193790793418884,-1.2811856269836426
6.1751625537872314,0.28782328963279724,-0.8455405235290527,0.9699015617370605,-0.013160906732082367,-0.30193790793418884,-1.28080415725708
6.195255756378174,0.28782328963279724,-0.8455405235290527,0.9699015617370605,-0.013160906732082367,-0.30193790793418884,-1.28080415725708
6.21532416343689,0.28782328963279724,-0.8447775840759277,0.9691386222839355,-0.013160906732082367,-0.30193790793418884,-1.2804226875305176
6.235382795333862,0.28782328963279724,-0.8447775840759277,0.9691386222839355,-0.012779430486261845,-0.30193790793418884,-1.28080415725708
6.255471467971802,0.28782328963279724,-0.8447775840759277,0.9691386222839355,-0.012397955171763897,-0.30193790793418884,-1.2804226875305176
6.275538206100464,0.28782328963279724,-0.8447775840759277,0.9691386222839355,-0.012779430486261845,-0.30193790793418884,-1.2804226875305176
6.295595169067383,0.28782328963279724,-0.8447775840759277,0.9691386222839355,-0.012779430486261845,-0.30193790793418884,-1.2804226875305176
6.315687656402588,0.28782328963279724,-0.8447775840759277,0.9691386222839355,-0.012779430486261845,-0.30193790793418884,-1.2804226875305176
6.335760831832886,0.28782328963279724,-0.8447775840759277,0.9691386222839355,-0.012779430486261845,-0.30193790793418884,-1.2804226875305176
6.35580849647522,0.28782328963279724,-0.8447775840759277,0.9691386222839355,-0.012779430486261845,-0.30193790793418884,-1.2804226875305176
6.375999212265015,0.28782328963279724,-0.8443961143493652,0.9691386222839355,-0.012779430486261845,-0.30193790793418884,-1.2804226875305176
6.396088123321533,0.28782328963279724,-0.8443961143493652,0.9691386222839355,-0.012779430486261845,-0.30193790793418884,-1.2804226875305176
6.416151523590088,0.28782328963279724,-0.8443961143493652,0.9691386222839355,-0.012779430486261845,-0.30155640840530396,-1.280041217803955
6.436212062835693,0.28782328963279724,-0.8440146446228027,0.9691386222839355,-0.012779430486261845,-0.30155640840530396,-1.280041217803955
6.456317186355591,0.28782328963279724,-0.8440146446228027,0.9691386222839355,-0.012779430486261845,-0.30155640840530396,-1.280041217803955
6.476377487182617,0.28782328963279724,-0.8440146446228027,0.9691386222839355,-0.012779430486261845,-0.30193790793418884,-1.280041217803955
6.496433258056641,0.28782328963279724,-0.8440146446228027,0.9691386222839355,-0.012779430486261845,-0.30193790793418884,-1.2796597480773926
6.516608953475952,0.28782328963279724,-0.8440146446228027,0.9691386222839355,-0.012779430486261845,-0.30193790793418884,-1.2796597480773926
6.536656856536865,0.28782328963279724,-0.8440146446228027,0.9691386222839355,-0.012779430486261845,-0.30193790793418884,-1.2796597480773926
6.556695938110352,0.28782328963279724,-0.8440146446228027,0.9691386222839355,-0.012779430486261845,-0.30193790793418884,-1.2796597480773926
6.57749342918396,0.28782328963279724,-0.8440146446228027,0.9691386222839355,-0.012779430486261845,-0.30193790793418884,-1.2796597480773926
6.597586631774902,0.28782328963279724,-0.8440146446228027,0.9691386222839355,-0.012779430486261845,-0.30193790793418884,-1.2796597480773926
6.6176438331604,0.28782328963279724,-0.8440146446228027,0.9691386222839355,-0.012779430486261845,-0.30193790793418884,-1.2796597480773926
6.6377034187316895,0.28782328963279724,-0.8440146446228027,0.9691386222839355,-0.012779430486261845,-0.30155640840530396,-1.2796597480773926
6.657811641693115,0.28782328963279724,-0.8440146446228027,0.9691386222839355,-0.012779430486261845,-0.30193790793418884,-1.2796597480773926
6.677878141403198,0.28782328963279724,-0.8440146446228027,0.9691386222839355,-0.012779430486261845,-0.30193790793418884,-1.2796597480773926
6.697933912277222,0.28782328963279724,-0.8440146446228027,0.9691386222839355,-0.012779430486261845,-0.30193790793418884,-1.27927827835083
6.718034744262695,0.28782328963279724,-0.8440146446228027,0.9691386222839355,-0.012779430486261845,-0.30193790793418884,-1.2796597480773926
6.738084077835083,0.28782328963279724,-0.8440146446228027,0.9691386222839355,-0.012779430486261845,-0.30193790793418884,-1.27927827835083
6.758148431777954,0.28820478916168213,-0.8440146446228027,0.9691386222839355,-0.012779430486261845,-0.30193790793418884,-1.27927827835083
6.778253078460693,0.28820478916168213,-0.8440146446228027,0.9691386222839355,-0.012779430486261845,-0.30193790793418884,-1.27927827835083
6.7983176708221436,0.28820478916168213,-0.8440146446228027,0.9691386222839355,-0.012779430486261845,-0.30193790793418884,-1.27927827835083
6.818480730056763,0.28820478916168213,-0.8440146446228027,0.9691386222839355,-0.012779430486261845,-0.30193790793418884,-1.27927827835083
6.838593244552612,0.28820478916168213,-0.8440146446228027,0.9691386222839355,-0.012779430486261845,-0.30193790793418884,-1.2788968086242676
6.858649492263794,0.28820478916168213,-0.8440146446228027,0.9691386222839355,-0.012779430486261845,-0.30193790793418884,-1.2788968086242676
6.87874698638916,0.28820478916168213,-0.8440146446228027,0.9691386222839355,-0.012779430486261845,-0.30193790793418884,-1.2788968086242676
6.898813724517822,0.28820478916168213,-0.8440146446228027,0.9691386222839355,-0.012779430486261845,-0.30193790793418884,-1.2788968086242676
6.918903589248657,0.28820478916168213,-0.8440146446228027,0.9691386222839355,-0.012779430486261845,-0.30193790793418884,-1.2788968086242676
6.938969612121582,0.28820478916168213,-0.8440146446228027,0.9691386222839355,-0.012779430486261845,-0.30193790793418884,-1.2788968086242676
6.959049701690674,0.28820478916168213,-0.8440146446228027,0.9691386222839355,-0.012779430486261845,-0.30193790793418884,-1.2788968086242676
6.979243755340576,0.28820478916168213,-0.8440146446228027,0.9691386222839355,-0.012779430486261845,-0.30193790793418884,-1.278515338897705
6.999331951141357,0.28820478916168213,-0.8440146446228027,0.9691386222839355,-0.012779430486261845,-0.30193790793418884,-1.278515338897705
7.037329912185669,0.28820478916168213,-0.8440146446228027,0.9691386222839355,-0.012779430486261845,-0.30193790793418884,-1.278515338897705
7.057412624359131,0.28820478916168213,-0.8440146446228027,0.969520092010498,-0.012779430486261845,-0.30193790793418884,-1.278515338897705
7.0774760246276855,0.28820478916168213,-0.8440146446228027,0.969520092010498,-0.012779430486261845,-0.30193790793418884,-1.278515338897705
7.09768533706665,0.28820478916168213,-0.8440146446228027,0.969520092010498,-0.013160906732082367,-0.30193790793418884,-1.278515338897705
7.1177709102630615,0.28820478916168213,-0.8443961143493652,0.969520092010498,-0.012779430486261845,-0.30193790793418884,-1.2781338691711426
7.137831687927246,0.28820478916168213,-0.8443961143493652,0.969520092010498,-0.013160906732082367,-0.30193790793418884,-1.2781338691711426
7.157922983169556,0.28820478916168213,-0.8443961143493652,0.969520092010498,-0.013160906732082367,-0.30193790793418884,-1.2781338691711426
7.1779913902282715,0.28820478916168213,-0.8443961143493652,0.969520092010498,-0.012779430486261845,-0.30193790793418884,-1.2781338691711426
7.198051929473877,0.28820478916168213,-0.8443961143493652,0.969520092010498,-0.013160906732082367,-0.30193790793418884,-1.27775239944458
7.2181408405303955,0.28820478916168213,-0.8443961143493652,0.970283031463623,-0.012779430486261845,-0.30193790793418884,-1.2773709297180176
7.238202095031738,0.28820478916168213,-0.8443961143493652,0.970283031463623,-0.013160906732082367,-0.30193790793418884,-1.2769893407821655
7.258269309997559,0.28820478916168213,-0.8443961143493652,0.970283031463623,-0.013160906732082367,-0.30193790793418884,-1.2769893407821655
7.278385400772095,0.28858625888824463,-0.8443961143493652,0.970283031463623,-0.013160906732082367,-0.30193790793418884,-1.2769893407821655
7.298460960388184,0.28858625888824463,-0.8443961143493652,0.970283031463623,-0.013160906732082367,-0.30193790793418884,-1.2769893407821655
7.318535804748535,0.28858625888824463,-0.8447775840759277,0.970283031463623,-0.012779430486261845,-0.30193790793418884,-1.2769893407821655
7.338628768920898,0.28858625888824463,-0.8447775840759277,0.970283031463623,-0.013160906732082367,-0.30193790793418884,-1.2769893407821655
7.358698129653931,0.28858625888824463,-0.8447775840759277,0.970283031463623,-0.013160906732082367,-0.30193790793418884,-1.2769893407821655
7.378756523132324,0.28858625888824463,-0.8447775840759277,0.970283031463623,-0.013160906732082367,-0.30193790793418884,-1.2769893407821655
7.398852586746216,0.28858625888824463,-0.8447775840759277,0.970283031463623,-0.013160906732082367,-0.30193790793418884,-1.2769893407821655
7.418924570083618,0.28858625888824463,-0.8447775840759277,0.970283031463623,-0.013160906732082367,-0.30193790793418884,-1.2769893407821655
7.438978910446167,0.28858625888824463,-0.8447775840759277,0.970283031463623,-0.013160906732082367,-0.30193790793418884,-1.2769893407821655
7.459062099456787,0.28858625888824463,-0.8447775840759277,0.970283031463623,-0.013160906732082367,-0.30231937766075134,-1.2769893407821655
7.47914457321167,0.28858625888824463,-0.8447775840759277,0.970283031463623,-0.013160906732082367,-0.30193790793418884,-1.2773709297180176
7.499250650405884,0.28858625888824463,-0.8447775840759277,0.970283031463623,-0.013160906732082367,-0.30231937766075134,-1.2769893407821655
7.519347190856934,0.28858625888824463,-0.8447775840759277,0.970283031463623,-0.013160906732082367,-0.30231937766075134,-1.2769893407821655
7.539418458938599,0.28858625888824463,-0.8447775840759277,0.970283031463623,-0.013160906732082367,-0.30231937766075134,-1.2769893407821655
7.559764385223389,0.28858625888824463,-0.8447775840759277,0.970283031463623,-0.013160906732082367,-0.30231937766075134,-1.2769893407821655
7.579901695251465,0.28858625888824463,-0.8447775840759277,0.970283031463623,-0.013160906732082367,-0.30231937766075134,-1.2773709297180176
7.599961280822754,0.28858625888824463,-0.8447775840759277,0.970283031463623,-0.013160906732082367,-0.30231937766075134,-1.2769893407821655
7.620093584060669,0.28858625888824463,-0.8447775840759277,0.970283031463623,-0.013160906732082367,-0.30231937766075134,-1.2769893407821655
7.640182733535767,0.28858625888824463,-0.8447775840759277,0.970283031463623,-0.013160906732082367,-0.30231937766075134,-1.2773709297180176
7.660273313522339,0.28858625888824463,-0.8447775840759277,0.970283031463623,-0.013160906732082367,-0.30231937766075134,-1.2769893407821655
7.680521726608276,0.28858625888824463,-0.8447775840759277,0.970283031463623,-0.013160906732082367,-0.30231937766075134,-1.2769893407821655
7.700639486312866,0.28858625888824463,-0.8447775840759277,0.970283031463623,-0.013160906732082367,-0.30231937766075134,-1.2769893407821655
7.720722436904907,0.28858625888824463,-0.8447775840759277,0.970283031463623,-0.013160906732082367,-0.30270084738731384,-1.2773709297180176
7.740769386291504,0.28858625888824463,-0.8447775840759277,0.970283031463623,-0.013160906732082367,-0.30270084738731384,-1.2773709297180176
7.760895490646362,0.28858625888824463,-0.8447775840759277,0.970283031463623,-0.013160906732082367,-0.30270084738731384,-1.2769893407821655
7.78096604347229,0.28858625888824463,-0.8447775840759277,0.970283031463623,-0.013160906732082367,-0.30270084738731384,-1.2773709297180176
7.801027536392212,0.28858625888824463,-0.8447775840759277,0.970283031463623,-0.013160906732082367,-0.30270084738731384,-1.2773709297180176
7.8210978507995605,0.28858625888824463,-0.8447775840759277,0.970283031463623,-0.013160906732082367,-0.30270084738731384,-1.2773709297180176
7.8411829471588135,0.28858625888824463,-0.8447775840759277,0.970283031463623,-0.013160906732082367,-0.30270084738731384,-1.2773709297180176
7.861260652542114,0.28858625888824463,-0.8447775840759277,0.970283031463623,-0.013160906732082367,-0.30270084738731384,-1.2769893407821655
7.881370544433594,0.28858625888824463,-0.8447775840759277,0.970283031463623,-0.013160906732082367,-0.30270084738731384,-1.2769893407821655
7.901448965072632,0.28858625888824463,-0.8447775840759277,0.970283031463623,-0.013160906732082367,-0.30308231711387634,-1.2773709297180176
7.921509504318237,0.28858625888824463,-0.8447775840759277,0.970283031463623,-0.013160906732082367,-0.30308231711387634,-1.2769893407821655
7.941699266433716,0.28858625888824463,-0.8447775840759277,0.970283031463623,-0.013160906732082367,-0.30308231711387634,-1.2773709297180176
7.961817979812622,0.28858625888824463,-0.8447775840759277,0.970283031463623,-0.013160906732082367,-0.30308231711387634,-1.2773709297180176
7.981902837753296,0.28858625888824463,-0.8447775840759277,0.970283031463623,-0.013160906732082367,-0.30308231711387634,-1.2773709297180176
8.001948118209839,0.28858625888824463,-0.8447775840759277,0.970283031463623,-0.013160906732082367,-0.30308231711387634,-1.2773709297180176
8.022031784057617,0.28858625888824463,-0.8447775840759277,0.970283031463623,-0.013160906732082367,-0.30308231711387634,-1.2773709297180176
8.042081594467163,0.28858625888824463,-0.8447775840759277,0.970283031463623,-0.013160906732082367,-0.30308231711387634,-1.2773709297180176
8.062173843383789,0.28858625888824463,-0.8447775840759277,0.970283031463623,-0.013160906732082367,-0.30308231711387634,-1.2773709297180176
8.082255601882935,0.28858625888824463,-0.8451590538024902,0.9706645011901855,-0.013160906732082367,-0.30308231711387634,-1.2773709297180176
8.102338075637817,0.28858625888824463,-0.8451590538024902,0.9706645011901855,-0.013160906732082367,-0.30308231711387634,-1.2773709297180176
8.122397422790527,0.28858625888824463,-0.8451590538024902,0.9706645011901855,-0.013160906732082367,-0.30308231711387634,-1.2773709297180176
8.142514705657959,0.28858625888824463,-0.8451590538024902,0.9706645011901855,-0.013160906732082367,-0.30308231711387634,-1.2773709297180176
8.162599086761475,0.28858625888824463,-0.8451590538024902,0.970283031463623,-0.013160906732082367,-0.30308231711387634,-1.2773709297180176
8.182668209075928,0.28858625888824463,-0.8451590538024902,0.9706645011901855,-0.013160906732082367,-0.30346378684043884,-1.2773709297180176
8.202755689620972,0.28858625888824463,-0.8451590538024902,0.9706645011901855,-0.013160906732082367,-0.30346378684043884,-1.2773709297180176
8.222832441329956,0.28858625888824463,-0.8451590538024902,0.9706645011901855,-0.013160906732082367,-0.30346378684043884,-1.2773709297180176
8.242914915084839,0.28858625888824463,-0.8451590538024902,0.9710460305213928,-0.013160906732082367,-0.30346378684043884,-1.2773709297180176
8.263077020645142,0.28858625888824463,-0.8451590538024902,0.9710460305213928,-0.013160906732082367,-0.30346378684043884,-1.2773709297180176
8.28318977355957,0.28858625888824463,-0.8455405235290527,0.9710460305213928,-0.013542382046580315,-0.30384528636932373,-1.2773709297180176
8.303258657455444,0.28858625888824463,-0.8455405235290527,0.9710460305213928,-0.013542382046580315,-0.30384528636932373,-1.2773709297180176
8.323531150817871,0.28858625888824463,-0.8455405235290527,0.9710460305213928,-0.013542382046580315,-0.30384528636932373,-1.2773709297180176
8.343621492385864,0.28858625888824463,-0.8455405235290527,0.9710460305213928,-0.013542382046580315,-0.30384528636932373,-1.2773709297180176
8.363688945770264,0.28858625888824463,-0.8455405235290527,0.9710460305213928,-0.013542382046580315,-0.30384528636932373,-1.2773709297180176
8.383756160736084,0.28858625888824463,-0.8455405235290527,0.9710460305213928,-0.013542382046580315,-0.30422675609588623,-1.2773709297180176
8.403875589370728,0.28858625888824463,-0.8455405235290527,0.9710460305213928,-0.013923857361078262,-0.30422675609588623,-1.2773709297180176
8.423950910568237,0.28858625888824463,-0.8455405235290527,0.9710460305213928,-0.013542382046580315,-0.30422675609588623,-1.27775239944458
8.44404125213623,0.28858625888824463,-0.8455405235290527,0.9710460305213928,-0.013542382046580315,-0.30422675609588623,-1.27775239944458
8.464110851287842,0.28858625888824463,-0.8455405235290527,0.9710460305213928,-0.013542382046580315,-0.30422675609588623,-1.27775239944458
8.484187364578247,0.28858625888824463,-0.8455405235290527,0.9710460305213928,-0.013542382046580315,-0.30422675609588623,-1.27775239944458
8.504247665405273,0.28896772861480713,-0.8455405235290527,0.9710460305213928,-0.013542382046580315,-0.30422675609588623,-1.27775239944458
8.52453327178955,0.28896772861480713,-0.8455405235290527,0.9710460305213928,-0.013542382046580315,-0.30422675609588623,-1.27775239944458
8.544620513916016,0.28896772861480713,-0.8455405235290527,0.9710460305213928,-0.013923857361078262,-0.30422675609588623,-1.27775239944458
8.564675569534302,0.28896772861480713,-0.8455405235290527,0.9710460305213928,-0.013542382046580315,-0.30422675609588623,-1.27775239944458
8.584744691848755,0.28896772861480713,-0.8455405235290527,0.9710460305213928,-0.013542382046580315,-0.30422675609588623,-1.27775239944458
8.604843378067017,0.28896772861480713,-0.8455405235290527,0.9710460305213928,-0.013542382046580315,-0.30422675609588623,-1.27775239944458
8.624902248382568,0.28896772861480713,-0.8455405235290527,0.9710460305213928,-0.013542382046580315,-0.30422675609588623,-1.27775239944458
8.644989967346191,0.28896772861480713,-0.8455405235290527,0.9710460305213928,-0.013923857361078262,-0.30422675609588623,-1.27775239944458
8.66506290435791,0.28896772861480713,-0.8455405235290527,0.9710460305213928,-0.013542382046580315,-0.30422675609588623,-1.27775239944458
8.685110330581665,0.28896772861480713,-0.8455405235290527,0.9710460305213928,-0.013542382046580315,-0.30422675609588623,-1.27775239944458
8.705408334732056,0.28896772861480713,-0.8455405235290527,0.9710460305213928,-0.013542382046580315,-0.30422675609588623,-1.27775239944458
8.725498914718628,0.28896772861480713,-0.8455405235290527,0.9710460305213928,-0.013542382046580315,-0.30422675609588623,-1.27775239944458
8.745559692382812,0.28896772861480713,-0.8455405235290527,0.9710460305213928,-0.013542382046580315,-0.30422675609588623,-1.27775239944458
8.76569676399231,0.28896772861480713,-0.8455405235290527,0.9710460305213928,-0.013542382046580315,-0.30422675609588623,-1.27775239944458
8.785868883132935,0.28896772861480713,-0.8455405235290527,0.9710460305213928,-0.013542382046580315,-0.30422675609588623,-1.27775239944458
8.805868864059448,0.28896772861480713,-0.8455405235290527,0.9710460305213928,-0.013542382046580315,-0.30422675609588623,-1.27775239944458
8.825928926467896,0.28896772861480713,-0.8455405235290527,0.9710460305213928,-0.013542382046580315,-0.30422675609588623,-1.27775239944458
8.846022605895996,0.28896772861480713,-0.8455405235290527,0.9710460305213928,-0.013542382046580315,-0.30422675609588623,-1.2781338691711426
8.866088151931763,0.28896772861480713,-0.8455405235290527,0.9710460305213928,-0.013542382046580315,-0.30422675609588623,-1.27775239944458
8.886158227920532,0.28896772861480713,-0.8455405235290527,0.9710460305213928,-0.013542382046580315,-0.30422675609588623,-1.27775239944458
8.90625,0.28896772861480713,-0.8455405235290527,0.9710460305213928,-0.013542382046580315,-0.30422675609588623,-1.2781338691711426
8.926318168640137,0.28896772861480713,-0.8455405235290527,0.9710460305213928,-0.013542382046580315,-0.30422675609588623,-1.27775239944458
8.946369409561157,0.28896772861480713,-0.8455405235290527,0.9710460305213928,-0.013542382046580315,-0.30422675609588623,-1.2781338691711426
8.966471433639526,0.28896772861480713,-0.8455405235290527,0.9710460305213928,-0.013542382046580315,-0.30422675609588623,-1.2781338691711426
8.986565113067627,0.28896772861480713,-0.8455405235290527,0.9710460305213928,-0.013542382046580315,-0.30422675609588623,-1.2781338691711426
9.006630420684814,0.28896772861480713,-0.8455405235290527,0.9710460305213928,-0.013542382046580315,-0.30422675609588623,-1.2781338691711426
9.026731491088867,0.28896772861480713,-0.8455405235290527,0.9710460305213928,-0.013542382046580315,-0.30422675609588623,-1.2781338691711426
9.046859979629517,0.28896772861480713,-0.8455405235290527,0.9710460305213928,-0.013542382046580315,-0.30422675609588623,-1.2781338691711426
9.066909551620483,0.28896772861480713,-0.8455405235290527,0.9710460305213928,-0.013542382046580315,-0.30422675609588623,-1.2781338691711426
9.087051153182983,0.28896772861480713,-0.8455405235290527,0.9710460305213928,-0.013542382046580315,-0.30422675609588623,-1.2781338691711426
9.107071876525879,0.28896772861480713,-0.8455405235290527,0.9710460305213928,-0.013542382046580315,-0.30422675609588623,-1.2781338691711426
9.127150535583496,0.28896772861480713,-0.8455405235290527,0.9710460305213928,-0.013542382046580315,-0.30422675609588623,-1.2781338691711426
9.147271633148193,0.28896772861480713,-0.8455405235290527,0.9710460305213928,-0.013542382046580315,-0.30422675609588623,-1.278515338897705
9.167316436767578,0.28896772861480713,-0.8455405235290527,0.9710460305213928,-0.013542382046580315,-0.30422675609588623,-1.2781338691711426
9.187540054321289,0.28896772861480713,-0.8455405235290527,0.9710460305213928,-0.013542382046580315,-0.30422675609588623,-1.278515338897705
9.20763611793518,0.28896772861480713,-0.8455405235290527,0.9710460305213928,-0.013542382046580315,-0.30422675609588623,-1.278515338897705
9.227704763412476,0.28896772861480713,-0.8455405235290527,0.9710460305213928,-0.013542382046580315,-0.30422675609588623,-1.278515338897705
9.247836112976074,0.28896772861480713,-0.8455405235290527,0.9710460305213928,-0.013542382046580315,-0.30422675609588623,-1.278515338897705
9.267927169799805,0.28896772861480713,-0.8455405235290527,0.9710460305213928,-0.013542382046580315,-0.30422675609588623,-1.278515338897705
9.28798246383667,0.28896772861480713,-0.8455405235290527,0.9710460305213928,-0.013542382046580315,-0.30422675609588623,-1.278515338897705
9.308059215545654,0.28896772861480713,-0.8455405235290527,0.9710460305213928,-0.013542382046580315,-0.30422675609588623,-1.278515338897705
9.32815408706665,0.28896772861480713,-0.8455405235290527,0.9710460305213928,-0.013542382046580315,-0.30422675609588623,-1.278515338897705
9.348219156265259,0.28896772861480713,-0.8455405235290527,0.9710460305213928,-0.013542382046580315,-0.30422675609588623,-1.278515338897705
9.368309259414673,0.28896772861480713,-0.8455405235290527,0.9710460305213928,-0.013542382046580315,-0.30422675609588623,-1.278515338897705
9.388389587402344,0.28896772861480713,-0.8455405235290527,0.9710460305213928,-0.013542382046580315,-0.30422675609588623,-1.278515338897705
9.40849256515503,0.28896772861480713,-0.8455405235290527,0.9710460305213928,-0.013542382046580315,-0.30422675609588623,-1.278515338897705
9.428675174713135,0.28896772861480713,-0.8455405235290527,0.9710460305213928,-0.013542382046580315,-0.30422675609588623,-1.278515338897705
9.44868803024292,0.28896772861480713,-0.8455405235290527,0.9710460305213928,-0.013542382046580315,-0.30422675609588623,-1.278515338897705
9.468729019165039,0.28896772861480713,-0.8455405235290527,0.9710460305213928,-0.013542382046580315,-0.30422675609588623,-1.278515338897705
9.488861799240112,0.28896772861480713,-0.8455405235290527,0.9710460305213928,-0.013542382046580315,-0.30422675609588623,-1.278515338897705
9.508938074111938,0.28896772861480713,-0.8455405235290527,0.9710460305213928,-0.013542382046580315,-0.30422675609588623,-1.278515338897705
9.528989315032959,0.28896772861480713,-0.8455405235290527,0.9710460305213928,-0.013542382046580315,-0.30422675609588623,-1.278515338897705
9.549265146255493,0.28896772861480713,-0.8455405235290527,0.9710460305213928,-0.013542382046580315,-0.30422675609588623,-1.278515338897705
9.569385051727295,0.28896772861480713,-0.8455405235290527,0.9710460305213928,-0.013542382046580315,-0.30422675609588623,-1.278515338897705
9.589383602142334,0.28896772861480713,-0.8455405235290527,0.9710460305213928,-0.013542382046580315,-0.30422675609588623,-1.278515338897705
9.610492944717407,0.28896772861480713,-0.8455405235290527,0.9710460305213928,-0.013542382046580315,-0.30422675609588623,-1.278515338897705
9.630584239959717,0.28896772861480713,-0.8455405235290527,0.9710460305213928,-0.013542382046580315,-0.30422675609588623,-1.278515338897705
9.650648593902588,0.28896772861480713,-0.8455405235290527,0.9710460305213928,-0.013542382046580315,-0.30422675609588623,-1.278515338897705
9.670753717422485,0.28896772861480713,-0.8455405235290527,0.9710460305213928,-0.013542382046580315,-0.30422675609588623,-1.278515338897705
9.690868616104126,0.28896772861480713,-0.8455405235290527,0.9710460305213928,-0.013542382046580315,-0.30422675609588623,-1.278515338897705
9.710936546325684,0.28896772861480713,-0.8455405235290527,0.9710460305213928,-0.013542382046580315,-0.30422675609588623,-1.278515338897705
9.731185674667358,0.28896772861480713,-0.8455405235290527,0.9710460305213928,-0.013542382046580315,-0.30422675609588623,-1.278515338897705
9.751268863677979,0.28896772861480713,-0.8455405235290527,0.9710460305213928,-0.013542382046580315,-0.30422675609588623,-1.278515338897705
9.771331548690796,0.28896772861480713,-0.8455405235290527,0.9710460305213928,-0.013542382046580315,-0.30422675609588623,-1.278515338897705
9.791402816772461,0.28896772861480713,-0.8455405235290527,0.9710460305213928,-0.013542382046580315,-0.30422675609588623,-1.278515338897705
9.811524868011475,0.28896772861480713,-0.8455405235290527,0.9710460305213928,-0.013542382046580315,-0.30422675609588623,-1.278515338897705
9.83159589767456,0.28896772861480713,-0.8455405235290527,0.9710460305213928,-0.013542382046580315,-0.30422675609588623,-1.278515338897705
9.851652383804321,0.28896772861480713,-0.8455405235290527,0.9710460305213928,-0.013542382046580315,-0.30422675609588623,-1.278515338897705
9.871776580810547,0.28896772861480713,-0.8455405235290527,0.9710460305213928,-0.013542382046580315,-0.30422675609588623,-1.278515338897705
9.891830444335938,0.28896772861480713,-0.8455405235290527,0.9710460305213928,-0.013542382046580315,-0.30422675609588623,-1.278515338897705
9.911922693252563,0.28896772861480713,-0.8455405235290527,0.9710460305213928,-0.013542382046580315,-0.30422675609588623,-1.278515338897705
9.931991577148438,0.28896772861480713,-0.8455405235290527,0.9710460305213928,-0.013542382046580315,-0.30422675609588623,-1.278515338897705
9.952065706253052,0.28896772861480713,-0.8455405235290527,0.9710460305213928,-0.013542382046580315,-0.30422675609588623,-1.278515338897705
9.972116470336914,0.28896772861480713,-0.8455405235290527,0.9710460305213928,-0.013160906732082367,-0.30422675609588623,-1.278515338897705
9.992217540740967,0.28896772861480713,-0.8455405235290527,0.9710460305213928,-0.013542382046580315,-0.30422675609588623,-1.278515338897705
10.012336730957031,0.28896772861480713,-0.8455405235290527,0.9710460305213928,-0.013542382046580315,-0.30422675609588623,-1.278515338897705
10.032405138015747,0.28896772861480713,-0.8455405235290527,0.9710460305213928,-0.013542382046580315,-0.30422675609588623,-1.278515338897705
10.05248475074768,0.28896772861480713,-0.8455405235290527,0.9710460305213928,-0.013542382046580315,-0.30422675609588623,-1.278515338897705
10.072563648223877,0.28896772861480713,-0.8455405235290527,0.9710460305213928,-0.013542382046580315,-0.30422675609588623,-1.278515338897705
10.092623949050903,0.28896772861480713,-0.8455405235290527,0.9710460305213928,-0.013542382046580315,-0.30422675609588623,-1.278515338897705
10.112683296203613,0.28896772861480713,-0.8455405235290527,0.9710460305213928,-0.013542382046580315,-0.30422675609588623,-1.278515338897705
10.132774591445923,0.28896772861480713,-0.8455405235290527,0.9710460305213928,-0.013542382046580315,-0.30422675609588623,-1.278515338897705
10.152852296829224,0.28896772861480713,-0.8455405235290527,0.9710460305213928,-0.013542382046580315,-0.30422675609588623,-1.278515338897705
10.172932386398315,0.28896772861480713,-0.8455405235290527,0.9710460305213928,-0.013542382046580315,-0.30422675609588623,-1.278515338897705
10.193006753921509,0.28896772861480713,-0.8455405235290527,0.9710460305213928,-0.013542382046580315,-0.30422675609588623,-1.278515338897705
10.213075637817383,0.28896772861480713,-0.8455405235290527,0.9710460305213928,-0.013542382046580315,-0.30422675609588623,-1.278515338897705
10.233194828033447,0.28896772861480713,-0.8455405235290527,0.9710460305213928,-0.013542382046580315,-0.30422675609588623,-1.278515338897705
10.253260374069214,0.28896772861480713,-0.8455405235290527,0.9710460305213928,-0.013160906732082367,-0.30422675609588623,-1.278515338897705
10.273309707641602,0.28896772861480713,-0.8455405235290527,0.9710460305213928,-0.013542382046580315,-0.30422675609588623,-1.278515338897705
10.29343843460083,0.28896772861480713,-0.8455405235290527,0.9710460305213928,-0.013542382046580315,-0.30422675609588623,-1.278515338897705
10.313528299331665,0.28896772861480713,-0.8455405235290527,0.9710460305213928,-0.013542382046580315,-0.30422675609588623,-1.278515338897705
10.333577156066895,0.28896772861480713,-0.8455405235290527,0.9710460305213928,-0.013542382046580315,-0.30422675609588623,-1.278515338897705
10.353664875030518,0.28896772861480713,-0.8455405235290527,0.9710460305213928,-0.013542382046580315,-0.30422675609588623,-1.278515338897705
10.3737633228302,0.28896772861480713,-0.8455405235290527,0.9710460305213928,-0.013542382046580315,-0.30422675609588623,-1.278515338897705
10.39380931854248,0.28896772861480713,-0.8455405235290527,0.9710460305213928,-0.013160906732082367,-0.30422675609588623,-1.278515338897705
10.413905143737793,0.28896772861480713,-0.8455405235290527,0.9710460305213928,-0.013542382046580315,-0.30422675609588623,-1.278515338897705
10.433984518051147,0.28896772861480713,-0.8455405235290527,0.9710460305213928,-0.013542382046580315,-0.30422675609588623,-1.278515338897705
10.454027891159058,0.28896772861480713,-0.8455405235290527,0.9710460305213928,-0.013160906732082367,-0.30422675609588623,-1.278515338897705
10.474119424819946,0.28896772861480713,-0.8455405235290527,0.9710460305213928,-0.013542382046580315,-0.30422675609588623,-1.278515338897705
10.494187831878662,0.28896772861480713,-0.8455405235290527,0.9710460305213928,-0.013542382046580315,-0.30422675609588623,-1.278515338897705
10.51425290107727,0.28896772861480713,-0.8455405235290527,0.9710460305213928,-0.013542382046580315,-0.30422675609588623,-1.278515338897705
10.534444808959961,0.28896772861480713,-0.8455405235290527,0.9710460305213928,-0.013542382046580315,-0.30422675609588623,-1.278515338897705
10.554546356201172,0.28896772861480713,-0.8455405235290527,0.9710460305213928,-0.013160906732082367,-0.30422675609588623,-1.278515338897705
10.574632406234741,0.28896772861480713,-0.8455405235290527,0.9710460305213928,-0.013542382046580315,-0.30422675609588623,-1.278515338897705
10.594736814498901,0.28896772861480713,-0.8455405235290527,0.9710460305213928,-0.013542382046580315,-0.30422675609588623,-1.278515338897705
10.614925146102905,0.28896772861480713,-0.8455405235290527,0.9710460305213928,-0.013160906732082367,-0.30422675609588623,-1.278515338897705
10.634912967681885,0.28896772861480713,-0.8455405235290527,0.9710460305213928,-0.013542382046580315,-0.30422675609588623,-1.278515338897705
10.655135154724121,0.28896772861480713,-0.8455405235290527,0.9710460305213928,-0.013542382046580315,-0.30422675609588623,-1.278515338897705
10.675231695175171,0.28896772861480713,-0.8455405235290527,0.9710460305213928,-0.013542382046580315,-0.30422675609588623,-1.278515338897705
10.695312261581421,0.28896772861480713,-0.8455405235290527,0.9710460305213928,-0.013542382046580315,-0.30422675609588623,-1.278515338897705
10.715363502502441,0.28896772861480713,-0.8455405235290527,0.9710460305213928,-0.013542382046580315,-0.30422675609588623,-1.278515338897705
10.735450983047485,0.28896772861480713,-0.8455405235290527,0.9710460305213928,-0.013542382046580315,-0.30422675609588623,-1.278515338897705
10.755497217178345,0.28896772861480713,-0.8455405235290527,0.9710460305213928,-0.013542382046580315,-0.30422675609588623,-1.278515338897705
10.775610208511353,0.28896772861480713,-0.8455405235290527,0.9710460305213928,-0.013160906732082367,-0.30422675609588623,-1.278515338897705
10.795676946640015,0.28896772861480713,-0.8455405235290527,0.9710460305213928,-0.013542382046580315,-0.30422675609588623,-1.278515338897705
10.815746068954468,0.28896772861480713,-0.8455405235290527,0.9710460305213928,-0.013542382046580315,-0.30422675609588623,-1.278515338897705
10.835826873779297,0.28896772861480713,-0.8455405235290527,0.9710460305213928,-0.013542382046580315,-0.30422675609588623,-1.278515338897705
10.855892419815063,0.28896772861480713,-0.8455405235290527,0.9710460305213928,-0.013542382046580315,-0.30422675609588623,-1.278515338897705
10.875959634780884,0.28896772861480713,-0.8455405235290527,0.9710460305213928,-0.013542382046580315,-0.30422675609588623,-1.278515338897705
10.896315097808838,0.28896772861480713,-0.8455405235290527,0.9710460305213928,-0.013542382046580315,-0.30422675609588623,-1.278515338897705
10.9164137840271,0.28896772861480713,-0.8455405235290527,0.9710460305213928,-0.013542382046580315,-0.30422675609588623,-1.278515338897705
10.936768770217896,0.28896772861480713,-0.8455405235290527,0.9710460305213928,-0.013542382046580315,-0.30422675609588623,-1.278515338897705
10.956665277481079,0.28896772861480713,-0.8455405235290527,0.9710460305213928,-0.013542382046580315,-0.30422675609588623,-1.278515338897705
10.976832151412964,0.28896772861480713,-0.8455405235290527,0.9710460305213928,-0.013542382046580315,-0.30422675609588623,-1.278515338897705
10.996870517730713,0.28896772861480713,-0.8455405235290527,0.9710460305213928,-0.013160906732082367,-0.30422675609588623,-1.278515338897705
11.01693844795227,0.28896772861480713,-0.8455405235290527,0.9710460305213928,-0.013542382046580315,-0.30422675609588623,-1.278515338897705
11.037017107009888,0.28896772861480713,-0.8455405235290527,0.9710460305213928,-0.013542382046580315,-0.30422675609588623,-1.278515338897705
11.057100772857666,0.28896772861480713,-0.8455405235290527,0.9710460305213928,-0.013542382046580315,-0.30422675609588623,-1.278515338897705
11.077148675918579,0.28896772861480713,-0.8455405235290527,0.9710460305213928,-0.013542382046580315,-0.30422675609588623,-1.278515338897705
11.097236156463623,0.28896772861480713,-0.8455405235290527,0.9710460305213928,-0.013542382046580315,-0.30422675609588623,-1.278515338897705
11.117333173751831,0.28896772861480713,-0.8455405235290527,0.9710460305213928,-0.013542382046580315,-0.30422675609588623,-1.278515338897705
11.137425422668457,0.28896772861480713,-0.8455405235290527,0.9710460305213928,-0.013542382046580315,-0.30422675609588623,-1.278515338897705
11.157506227493286,0.28896772861480713,-0.8455405235290527,0.9710460305213928,-0.013542382046580315,-0.30422675609588623,-1.278515338897705
11.17757248878479,0.28896772861480713,-0.8455405235290527,0.9710460305213928,-0.013160906732082367,-0.30422675609588623,-1.278515338897705
11.197748184204102,0.28896772861480713,-0.8455405235290527,0.9710460305213928,-0.013542382046580315,-0.30422675609588623,-1.278515338897705
11.217848300933838,0.28896772861480713,-0.8455405235290527,0.9710460305213928,-0.013542382046580315,-0.30422675609588623,-1.278515338897705
11.237897157669067,0.28896772861480713,-0.8455405235290527,0.9710460305213928,-0.013542382046580315,-0.30422675609588623,-1.278515338897705
11.259592771530151,0.28896772861480713,-0.8455405235290527,0.9710460305213928,-0.013542382046580315,-0.30422675609588623,-1.278515338897705
11.279687643051147,0.28896772861480713,-0.8455405235290527,0.9710460305213928,-0.013542382046580315,-0.30422675609588623,-1.278515338897705
11.299760103225708,0.28896772861480713,-0.8455405235290527,0.9710460305213928,-0.013542382046580315,-0.30422675609588623,-1.278515338897705
11.319827795028687,0.28896772861480713,-0.8455405235290527,0.9710460305213928,-0.013542382046580315,-0.30422675609588623,-1.278515338897705
11.339919567108154,0.28896772861480713,-0.8455405235290527,0.9710460305213928,-0.013542382046580315,-0.30422675609588623,-1.278515338897705
11.360020160675049,0.28896772861480713,-0.8455405235290527,0.9710460305213928,-0.013542382046580315,-0.30422675609588623,-1.278515338897705
11.380073070526123,0.28896772861480713,-0.8455405235290527,0.9710460305213928,-0.013542382046580315,-0.30422675609588623,-1.278515338897705
11.400189399719238,0.28896772861480713,-0.8455405235290527,0.9710460305213928,-0.013542382046580315,-0.30422675609588623,-1.278515338897705
11.420263767242432,0.28896772861480713,-0.8455405235290527,0.9710460305213928,-0.013542382046580315,-0.30422675609588623,-1.278515338897705
11.440359354019165,0.28896772861480713,-0.8455405235290527,0.9710460305213928,-0.013542382046580315,-0.30422675609588623,-1.278515338897705
11.460426807403564,0.28896772861480713,-0.8455405235290527,0.9710460305213928,-0.013542382046580315,-0.30422675609588623,-1.278515338897705
11.48051905632019,0.28896772861480713,-0.8455405235290527,0.9710460305213928,-0.013542382046580315,-0.30422675609588623,-1.278515338897705
11.500603914260864,0.28896772861480713,-0.8455405235290527,0.9710460305213928,-0.013542382046580315,-0.30422675609588623,-1.278515338897705
11.520668268203735,0.28896772861480713,-0.8455405235290527,0.9710460305213928,-0.013542382046580315,-0.30422675609588623,-1.278515338897705
11.540770530700684,0.28896772861480713,-0.8455405235290527,0.9710460305213928,-0.013542382046580315,-0.30422675609588623,-1.278515338897705
11.560855627059937,0.28896772861480713,-0.8455405235290527,0.9710460305213928,-0.013542382046580315,-0.30422675609588623,-1.278515338897705
11.580905675888062,0.28896772861480713,-0.8455405235290527,0.9710460305213928,-0.013542382046580315,-0.30422675609588623,-1.278515338897705
11.601001501083374,0.28896772861480713,-0.8455405235290527,0.9710460305213928,-0.013542382046580315,-0.30422675609588623,-1.278515338897705
11.621079683303833,0.28896772861480713,-0.8455405235290527,0.9710460305213928,-0.013542382046580315,-0.30422675609588623,-1.278515338897705
11.641127824783325,0.28896772861480713,-0.8455405235290527,0.9710460305213928,-0.013542382046580315,-0.30422675609588623,-1.278515338897705
11.661218404769897,0.28896772861480713,-0.8455405235290527,0.9710460305213928,-0.013542382046580315,-0.30422675609588623,-1.278515338897705
11.681293964385986,0.28896772861480713,-0.8455405235290527,0.9710460305213928,-0.013542382046580315,-0.30422675609588623,-1.278515338897705
11.701358318328857,0.28896772861480713,-0.8455405235290527,0.9710460305213928,-0.013542382046580315,-0.30422675609588623,-1.278515338897705
11.721592426300049,0.28896772861480713,-0.8455405235290527,0.9710460305213928,-0.013160906732082367,-0.30422675609588623,-1.278515338897705
11.74169111251831,0.28896772861480713,-0.8455405235290527,0.9710460305213928,-0.013542382046580315,-0.30422675609588623,-1.278515338897705
11.76176381111145,0.28896772861480713,-0.8455405235290527,0.9710460305213928,-0.013542382046580315,-0.30422675609588623,-1.278515338897705
11.781863451004028,0.28896772861480713,-0.8455405235290527,0.9710460305213928,-0.013542382046580315,-0.30422675609588623,-1.278515338897705
11.80198049545288,0.28896772861480713,-0.8455405235290527,0.9710460305213928,-0.013542382046580315,-0.30422675609588623,-1.278515338897705
11.822040557861328,0.28896772861480713,-0.8455405235290527,0.9710460305213928,-0.013542382046580315,-0.30422675609588623,-1.278515338897705
11.842113256454468,0.28896772861480713,-0.8455405235290527,0.9710460305213928,-0.013542382046580315,-0.30422675609588623,-1.278515338897705
11.862177848815918,0.28896772861480713,-0.8455405235290527,0.9710460305213928,-0.013542382046580315,-0.30422675609588623,-1.278515338897705
11.88232159614563,0.28896772861480713,-0.8455405235290527,0.9710460305213928,-0.013542382046580315,-0.30422675609588623,-1.278515338897705
11.902393817901611,0.28896772861480713,-0.8455405235290527,0.9710460305213928,-0.013160906732082367,-0.30422675609588623,-1.278515338897705
11.922491550445557,0.28896772861480713,-0.8455405235290527,0.9710460305213928,-0.013542382046580315,-0.30422675609588623,-1.278515338897705
11.942601919174194,0.28896772861480713,-0.8455405235290527,0.9710460305213928,-0.013542382046580315,-0.30422675609588623,-1.278515338897705
11.962676763534546,0.28896772861480713,-0.8455405235290527,0.9710460305213928,-0.013542382046580315,-0.30422675609588623,-1.278515338897705
11.982846975326538,0.28896772861480713,-0.8455405235290527,0.9710460305213928,-0.013542382046580315,-0.30422675609588623,-1.278515338897705
12.002870798110962,0.28896772861480713,-0.8455405235290527,0.9710460305213928,-0.013542382046580315,-0.30422675609588623,-1.278515338897705
12.023197174072266,0.28896772861480713,-0.8455405235290527,0.9710460305213928,-0.013542382046580315,-0.30422675609588623,-1.278515338897705
12.04328441619873,0.28896772861480713,-0.8455405235290527,0.9710460305213928,-0.013160906732082367,-0.30422675609588623,-1.278515338897705
12.063361883163452,0.28896772861480713,-0.8455405235290527,0.9710460305213928,-0.013542382046580315,-0.30422675609588623,-1.278515338897705
12.083417892456055,0.28896772861480713,-0.8455405235290527,0.9710460305213928,-0.013542382046580315,-0.30422675609588623,-1.278515338897705
12.103531837463379,0.28896772861480713,-0.8455405235290527,0.9710460305213928,-0.013542382046580315,-0.30422675609588623,-1.278515338897705
12.123618841171265,0.28896772861480713,-0.8455405235290527,0.9710460305213928,-0.013160906732082367,-0.30422675609588623,-1.278515338897705
12.143967390060425,0.28896772861480713,-0.84592205286026,0.9706645011901855,-0.013160906732082367,-0.30422675609588623,-1.278515338897705
12.164056777954102,0.28858625888824463,-0.8463035225868225,0.9699015617370605,-0.013542382046580315,-0.30422675609588623,-1.2781338691711426
12.184110879898071,0.28858625888824463,-0.8463035225868225,0.9691386222839355,-0.013160906732082367,-0.30422675609588623,-1.2781338691711426
12.204205989837646,0.28858625888824463,-0.846684992313385,0.9683756828308105,-0.012397955171763897,-0.30422675609588623,-1.2773709297180176
12.22427773475647,0.28858625888824463,-0.84744793176651,0.967994213104248,-0.01125352829694748,-0.30422675609588623,-1.2762264013290405
12.24433159828186,0.28858625888824463,-0.848210871219635,0.967994213104248,-0.010490577667951584,-0.30422675609588623,-1.275844931602478
12.264421463012695,0.28782328963279724,-0.8485923409461975,0.967231273651123,-0.010490577667951584,-0.30422675609588623,-1.275081992149353
12.284502744674683,0.28667888045310974,-0.84897381067276,0.9668498039245605,-0.010109102353453636,-0.30422675609588623,-1.274319052696228
12.30456018447876,0.28667888045310974,-0.84897381067276,0.9664682745933533,-0.010109102353453636,-0.30422675609588623,-1.2724117040634155
12.324670314788818,0.28553444147109985,-0.8493552803993225,0.9660868048667908,-0.009727626107633114,-0.30422675609588623,-1.2716487646102905
12.344738245010376,0.28477150201797485,-0.8497368097305298,0.9649423956871033,-0.008964675478637218,-0.30498969554901123,-1.2708858251571655
12.364952802658081,0.28439003229141235,-0.8501182794570923,0.9645609259605408,-0.00858320016413927,-0.30537116527557373,-1.2689783573150635
12.385049104690552,0.28324559330940247,-0.8504997491836548,0.9637979865074158,-0.007438773289322853,-0.30537116527557373,-1.267833948135376
12.405113935470581,0.28248265385627747,-0.8512626886367798,0.9637979865074158,-0.005912871100008488,-0.3057526648044586,-1.2674524784088135
12.425235033035278,0.2813382148742676,-0.8512626886367798,0.9637979865074158,-0.005149920005351305,-0.3065156042575836,-1.266308069229126
12.445326566696167,0.2805752754211426,-0.8516441583633423,0.9626535177230835,-0.005149920005351305,-0.3065156042575836,-1.264782190322876
12.46541452407837,0.2801937758922577,-0.8520256280899048,0.962272047996521,-0.004005493130534887,-0.3068970739841461,-1.264019250869751
12.485627889633179,0.2794308364391327,-0.8524070978164673,0.9618905782699585,-0.004005493130534887,-0.308041512966156,-1.2628748416900635
12.505719184875488,0.2790493667125702,-0.8531700372695923,0.961509108543396,-0.002861066721379757,-0.3091859221458435,-1.261348843574524
12.525778770446777,0.2782863974571228,-0.8535515666007996,0.960746169090271,-0.0020981156267225742,-0.3091859221458435,-1.2602044343948364
12.54605746269226,0.2775234580039978,-0.8539330363273621,0.9603646993637085,-0.001716639962978661,-0.309567391872406,-1.259060025215149
12.566152095794678,0.2763790488243103,-0.8546959757804871,0.9596017599105835,-0.001716639962978661,-0.309567391872406,-1.256771206855774
12.58623480796814,0.2759975492954254,-0.8550774455070496,0.9596017599105835,-0.0009536888683214784,-0.309567391872406,-1.256771206855774
12.606549263000488,0.2752346098423004,-0.8550774455070496,0.959220290184021,0.00019073777366429567,-0.309567391872406,-1.256008267402649
12.626671314239502,0.2740901708602905,-0.8554589152336121,0.9584572911262512,0.00019073777366429567,-0.309567391872406,-1.2548638582229614
12.646761417388916,0.2733272314071655,-0.8558403849601746,0.9573128819465637,0.0009536888683214784,-0.309567391872406,-1.2537193298339844
12.667323112487793,0.27180132269859314,-0.8562218546867371,0.9569314122200012,0.001716639962978661,-0.3103303611278534,-1.2533378601074219
12.68745470046997,0.27103838324546814,-0.8569847941398621,0.9565499424934387,0.001716639962978661,-0.3107118308544159,-1.2525749206542969
12.70751690864563,0.27065691351890564,-0.8573662638664246,0.9557870030403137,0.002861066721379757,-0.3107118308544159,-1.2514305114746094
12.727623701095581,0.26989394426345825,-0.8577477931976318,0.9554055333137512,0.004005493130534887,-0.3110933005809784,-1.2499046325683594
12.747712135314941,0.26874953508377075,-0.8581292629241943,0.955024003982544,0.004386968910694122,-0.3118562698364258,-1.2487602233886719
12.767780303955078,0.26836803555488586,-0.8585107326507568,0.954261064529419,0.004386968910694122,-0.3122377395629883,-1.2483787536621094
12.787838697433472,0.26760509610176086,-0.8588922023773193,0.954261064529419,0.004386968910694122,-0.3126192092895508,-1.2472343444824219
12.807936429977417,0.266460657119751,-0.8592736721038818,0.953498125076294,0.005149920005351305,-0.3130006790161133,-1.2453268766403198
12.828003644943237,0.265697717666626,-0.8596551418304443,0.952735185623169,0.006294346414506435,-0.3133821487426758,-1.2449454069137573
12.848077058792114,0.264934778213501,-0.8604180812835693,0.9523537158966064,0.00667582219466567,-0.3133821487426758,-1.2434195280075073
12.868184566497803,0.2645532786846161,-0.8607995510101318,0.951972246170044,0.0078202486038208,-0.31376364827156067,-1.2418936491012573
12.888253688812256,0.2645532786846161,-0.8611810207366943,0.951209306716919,0.00858320016413927,-0.31414511799812317,-1.2403677701950073
12.908327579498291,0.2637903392314911,-0.8615625500679016,0.9508277773857117,0.008964675478637218,-0.31452658772468567,-1.2396048307418823
12.929121017456055,0.2634088695049286,-0.8615625500679016,0.9500648379325867,0.008964675478637218,-0.31414511799812317,-1.2380788326263428
12.949222087860107,0.2622644305229187,-0.8619440197944641,0.9496833682060242,0.009727626107633114,-0.31414511799812317,-1.2373158931732178
12.969282150268555,0.2615014910697937,-0.8623254895210266,0.9493018984794617,0.010490577667951584,-0.31376364827156067,-1.2365529537200928
12.989359855651855,0.2607385218143463,-0.8630884289741516,0.9493018984794617,0.01125352829694748,-0.31376364827156067,-1.2342641353607178
13.009446859359741,0.2603570520877838,-0.8634698987007141,0.9485389590263367,0.01201647985726595,-0.31376364827156067,-1.2335011959075928
13.029515743255615,0.2592126429080963,-0.8638513684272766,0.9473945498466492,0.012397955171763897,-0.31414511799812317,-1.2323567867279053
13.049582719802856,0.2584496736526489,-0.8638513684272766,0.9470130205154419,0.012779430486261845,-0.31414511799812317,-1.2308309078216553
13.069671154022217,0.2573052644729614,-0.8646143078804016,0.9466315507888794,0.01430533267557621,-0.31452658772468567,-1.2300678491592407
13.089762449264526,0.25616082549095154,-0.8653773069381714,0.9458686113357544,0.014686808921396732,-0.31452658772468567,-1.2293049097061157
13.109972715377808,0.25577935576438904,-0.8653773069381714,0.9454871416091919,0.015449759550392628,-0.31452658772468567,-1.2277790307998657
13.130057573318481,0.25425344705581665,-0.8657587766647339,0.9451056718826294,0.016594186425209045,-0.31452658772468567,-1.2270160913467407
13.150139331817627,0.25387197732925415,-0.8661402463912964,0.9447242021560669,0.01773861236870289,-0.31490805745124817,-1.2262531518936157
13.170422077178955,0.25310903787612915,-0.8661402463912964,0.9439612627029419,0.018120087683200836,-0.31452658772468567,-1.2247272729873657
13.19052767753601,0.25196459889411926,-0.8669031858444214,0.9428167939186096,0.018501564860343933,-0.31528952717781067,-1.2228199243545532
13.210618019104004,0.25120165944099426,-0.8672846555709839,0.9424353241920471,0.01926451548933983,-0.31528952717781067,-1.2220568656921387
13.230658531188965,0.2500572204589844,-0.8672846555709839,0.9416723847389221,0.019645990803837776,-0.31528952717781067,-1.2201495170593262
13.250744342803955,0.24891279637813568,-0.8680475950241089,0.9409094452857971,0.02040894143283367,-0.31643396615982056,-1.2186236381530762
13.270819425582886,0.2481498420238495,-0.8684290647506714,0.9401465058326721,0.021171892061829567,-0.31643396615982056,-1.2174792289733887
13.290882110595703,0.2470054179430008,-0.8688105344772339,0.9397650361061096,0.021553369238972664,-0.31643396615982056,-1.2155718803405762
13.310980319976807,0.2462424635887146,-0.8695735335350037,0.9390020370483398,0.023079270496964455,-0.31681543588638306,-1.2148088216781616
13.331052780151367,0.2450980395078659,-0.8699550032615662,0.9386205673217773,0.02384222112596035,-0.31719690561294556,-1.2129014730453491
13.351110458374023,0.2439536154270172,-0.8703364729881287,0.9378576278686523,0.024605173617601395,-0.31719690561294556,-1.2113755941390991
13.371393203735352,0.24319066107273102,-0.8710994124412537,0.9374761581420898,0.02536812424659729,-0.31719690561294556,-1.2106126546859741
13.391485452651978,0.24242770671844482,-0.8714808821678162,0.9367132186889648,0.026131074875593185,-0.31719690561294556,-1.2090867757797241
13.411568641662598,0.24166475236415863,-0.8718623518943787,0.9355688095092773,0.02727550081908703,-0.31757840514183044,-1.2079423666000366
13.431660652160645,0.24052032828330994,-0.8722438216209412,0.9351872801780701,0.02727550081908703,-0.31719690561294556,-1.2060348987579346
13.451752662658691,0.23975738883018494,-0.8722438216209412,0.9348058104515076,0.02727550081908703,-0.31719690561294556,-1.2045090198516846
13.471862077713013,0.23937590420246124,-0.8733882904052734,0.9344243407249451,0.02841992862522602,-0.31757840514183044,-1.204127550125122
13.492273569107056,0.23861294984817505,-0.8733882904052734,0.9344243407249451,0.02841992862522602,-0.31719690561294556,-1.2029831409454346
13.51236629486084,0.23746852576732635,-0.8737697601318359,0.9336614012718201,0.028038453310728073,-0.31719690561294556,-1.201838731765747
13.53244161605835,0.23632410168647766,-0.8741512298583984,0.9325169920921326,0.02880140393972397,-0.31719690561294556,-1.200312852859497
13.552542448043823,0.23556114733219147,-0.8745326995849609,0.9325169920921326,0.03032730519771576,-0.31719690561294556,-1.19916832447052
13.572627305984497,0.23479819297790527,-0.8752956390380859,0.9313725233078003,0.03147173300385475,-0.31795987486839294,-1.196879506111145
13.592703104019165,0.23403525352478027,-0.8760585784912109,0.9309910535812378,0.03337911143898964,-0.31795987486839294,-1.19611656665802
13.612755298614502,0.23327229917049408,-0.8760585784912109,0.9306095838546753,0.03376058489084244,-0.31719690561294556,-1.1942092180252075
13.632852554321289,0.23250934481620789,-0.8764400482177734,0.9306095838546753,0.03452353551983833,-0.31757840514183044,-1.1926833391189575
13.652933359146118,0.2313649207353592,-0.8768215179443359,0.9302281141281128,0.03452353551983833,-0.31757840514183044,-1.19153892993927
13.673054456710815,0.2302204966545105,-0.8772030472755432,0.9302281141281128,0.03452353551983833,-0.31757840514183044,-1.1900129318237305
13.693190336227417,0.2290760725736618,-0.8775845170021057,0.9290837049484253,0.03452353551983833,-0.31719690561294556,-1.1884870529174805
13.713290929794312,0.2283131182193756,-0.8779659867286682,0.9283207654953003,0.03528648987412453,-0.31757840514183044,-1.187342643737793
13.733367681503296,0.22755016386508942,-0.8783474564552307,0.9275577664375305,0.03681239113211632,-0.31795987486839294,-1.1854352951049805
13.754093408584595,0.22716869413852692,-0.8783474564552307,0.927176296710968,0.03795681521296501,-0.31795987486839294,-1.1839094161987305
13.774189949035645,0.22602425515651703,-0.8787289261817932,0.9260318875312805,0.038719769567251205,-0.31795987486839294,-1.1820019483566284
13.794257879257202,0.22526131570339203,-0.8791103959083557,0.924887478351593,0.0394827201962471,-0.31757840514183044,-1.1812390089035034
13.8144371509552,0.22411687672138214,-0.8794918656349182,0.924887478351593,0.0394827201962471,-0.31757840514183044,-1.1797131299972534
13.834529399871826,0.22297245264053345,-0.8798733353614807,0.924124538898468,0.040627144277095795,-0.31757840514183044,-1.177805781364441
13.854615926742554,0.22220951318740845,-0.8802548050880432,0.9237430095672607,0.042153049260377884,-0.31757840514183044,-1.1766613721847534
13.874688863754272,0.22106507420539856,-0.8806362748146057,0.9233615398406982,0.042153049260377884,-0.31719690561294556,-1.1747539043426514
13.894832849502563,0.22030213475227356,-0.8813992738723755,0.9222171306610107,0.04291599988937378,-0.31795987486839294,-1.1739909648895264
13.914921998977661,0.21915769577026367,-0.881780743598938,0.9218356609344482,0.04329747334122658,-0.31757840514183044,-1.1709392070770264
13.935117959976196,0.21801327168941498,-0.8821622133255005,0.9206912517547607,0.04444190114736557,-0.31719690561294556,-1.1697947978973389
13.955090284347534,0.21686884760856628,-0.882543683052063,0.9195467829704285,0.04596780240535736,-0.31757840514183044,-1.1678873300552368
13.975187301635742,0.21648737788200378,-0.882543683052063,0.9187838435173035,0.046730753034353256,-0.31757840514183044,-1.1663614511489868
13.995319366455078,0.2153429538011551,-0.883306622505188,0.918402373790741,0.04787518084049225,-0.31719690561294556,-1.1652170419692993
14.015345811843872,0.2145799994468689,-0.8836880922317505,0.917639434337616,0.04901960864663124,-0.31757840514183044,-1.1629282236099243
14.035392761230469,0.2138170450925827,-0.8836880922317505,0.9172579646110535,0.04940108209848404,-0.31719690561294556,-1.1617838144302368
14.055529117584229,0.2130540907382965,-0.884069561958313,0.916876494884491,0.050164032727479935,-0.31719690561294556,-1.1591134071350098
14.07570505142212,0.21190966665744781,-0.8844510316848755,0.916113555431366,0.050164032727479935,-0.31719690561294556,-1.1579689979553223
14.095761775970459,0.21114671230316162,-0.8848325610160828,0.916113555431366,0.05092698708176613,-0.31681543588638306,-1.1564431190490723
14.115824222564697,0.20962081849575043,-0.8855955004692078,0.9157320261001587,0.05245288833975792,-0.31719690561294556,-1.1545357704162598
14.135900497436523,0.20847637951374054,-0.8855955004692078,0.9145876169204712,0.05245288833975792,-0.31719690561294556,-1.1518653631210327
14.156001567840576,0.20733195543289185,-0.8859769701957703,0.9138246774673462,0.05359731614589691,-0.31643396615982056,-1.1511024236679077
14.176589012145996,0.20656901597976685,-0.8859769701957703,0.9134432077407837,0.054741740226745605,-0.31681543588638306,-1.1503394842147827
14.19668984413147,0.20580606162548065,-0.8867399096488953,0.9126802682876587,0.0551232174038887,-0.31719690561294556,-1.1480506658554077
14.216758966445923,0.20466163754463196,-0.8871213793754578,0.9122987985610962,0.05664911866188049,-0.31681543588638306,-1.1472877264022827
14.236981868743896,0.20313572883605957,-0.8875028491020203,0.9119172692298889,0.05664911866188049,-0.31719690561294556,-1.1446174383163452
14.257076501846313,0.20237277448177338,-0.8878843188285828,0.9103913903236389,0.05703059583902359,-0.31681543588638306,-1.1434729099273682
14.277281999588013,0.2004653960466385,-0.8882657885551453,0.9096284508705139,0.057793546468019485,-0.31643396615982056,-1.1419470310211182
