liuyurong129/humanoid-gym/humanoid/data/actual_q_20250523-001606.csv
timestamp,joint_1,joint_2,joint_3,joint_4,joint_5,joint_6
0.00011777877807617188,0.00019073777366429567,0.17414358258247375,-0.0875486359000206,-0.00019073777366429567,0.00019073777366429567,-0.00019073777366429567
0.020193099975585938,0.000572213320992887,0.15354390442371368,-0.07839322835206985,-0.00019073777366429567,0.00019073777366429567,-0.00019073777366429567
0.04028201103210449,0.00019073777366429567,0.13027389347553253,-0.06733043491840363,-0.00019073777366429567,0.0009536888683214784,-0.00019073777366429567
0.060356855392456055,0.00019073777366429567,0.11310750246047974,-0.06084534898400307,-0.00019073777366429567,0.0024795911740511656,-0.00019073777366429567
0.08048868179321289,0.000572213320992887,0.10624094307422638,-0.05741206929087639,-0.00019073777366429567,0.000572213320992887,-0.00019073777366429567
0.10112142562866211,-0.0009536888683214784,0.09746700525283813,-0.05664911866188049,-0.000572213320992887,0.00019073777366429567,-0.00019073777366429567
0.12127494812011719,-0.0024795911740511656,0.09136339277029037,-0.0555046908557415,-0.0009536888683214784,-0.00019073777366429567,0.00019073777366429567
0.14127826690673828,-0.005912871100008488,0.08373387902975082,-0.0555046908557415,-0.0013351644156500697,0.0013351644156500697,0.00019073777366429567
0.16134023666381836,-0.008964675478637218,0.07839322835206985,-0.0558861680328846,-0.0032425422687083483,0.0009536888683214784,0.000572213320992887
0.181410551071167,-0.013160906732082367,0.07038223743438721,-0.05664911866188049,-0.004386968910694122,0.0009536888683214784,0.00019073777366429567
0.20148253440856934,-0.020027466118335724,0.059319447726011276,-0.05741206929087639,-0.00667582219466567,0.0024795911740511656,0.000572213320992887
0.22158503532409668,-0.02841992862522602,0.04558632895350456,-0.05703059583902359,-0.008201723918318748,0.001716639962978661,0.000572213320992887
0.2417006492614746,-0.03681239113211632,0.03223468363285065,-0.056267641484737396,-0.010490577667951584,-0.00019073777366429567,0.000572213320992887
0.26187992095947266,-0.04406042397022247,0.02193484455347061,-0.056267641484737396,-0.01201647985726595,-0.0013351644156500697,0.000572213320992887
0.2819082736968994,-0.05092698708176613,0.010490577667951584,-0.05664911866188049,-0.01506828423589468,-0.0013351644156500697,0.0013351644156500697
0.30201077461242676,-0.057793546468019485,-0.0020981156267225742,-0.0558861680328846,-0.018501564860343933,-0.0013351644156500697,0.0013351644156500697
0.32219362258911133,-0.06694895774126053,-0.018120087683200836,-0.0555046908557415,-0.021553369238972664,-0.0009536888683214784,0.001716639962978661
0.34224534034729004,-0.07495994865894318,-0.03528648987412453,-0.0551232174038887,-0.024605173617601395,-0.0020981156267225742,0.0020981156267225742
0.36231160163879395,-0.08106355369091034,-0.048638131469488144,-0.054741740226745605,-0.027656977996230125,-0.0036240178160369396,0.002861066721379757
0.3824021816253662,-0.08564125746488571,-0.06084534898400307,-0.05436026677489281,-0.029564354568719864,-0.00476844422519207,0.0032425422687083483
0.40249013900756836,-0.0883115902543068,-0.07000076025724411,-0.05397878959774971,-0.030708782374858856,-0.007057297509163618,0.0032425422687083483
0.4225902557373047,-0.09060044586658478,-0.07801175117492676,-0.05359731614589691,-0.03299763426184654,-0.008201723918318748,0.0036240178160369396
0.4429469108581543,-0.09403372555971146,-0.086785688996315,-0.05359731614589691,-0.03490501269698143,-0.00858320016413927,0.0036240178160369396
0.46317601203918457,-0.09670405089855194,-0.09632257372140884,-0.05283436179161072,-0.03757534176111221,-0.0078202486038208,0.0036240178160369396
0.4832577705383301,-0.09899290651082993,-0.10624094307422638,-0.051689937710762024,-0.0398641936480999,-0.00667582219466567,0.0036240178160369396
0.5039281845092773,-0.1028076633810997,-0.11730372905731201,-0.049782559275627136,-0.04406042397022247,-0.005531395319849253,0.004005493130534887
0.5241246223449707,-0.10662241280078888,-0.12569619715213776,-0.04711223021149635,-0.04711223021149635,-0.00476844422519207,0.004386968910694122
0.5441117286682129,-0.11081864684820175,-0.134470134973526,-0.04558632895350456,-0.05092698708176613,-0.00476844422519207,0.005531395319849253
0.5641968250274658,-0.11768520623445511,-0.14705882966518402,-0.04291599988937378,-0.0555046908557415,-0.005149920005351305,0.0078202486038208
0.5842545032501221,-0.12569619715213776,-0.16155488789081573,-0.03795681521296501,-0.06084534898400307,-0.00476844422519207,0.009346150793135166
0.6043241024017334,-0.1363775134086609,-0.17986571788787842,-0.030708782374858856,-0.06885633617639542,-0.004005493130534887,0.011635004542768002
0.624859094619751,-0.1504921019077301,-0.20580606162548065,-0.02040894143283367,-0.07763027399778366,-0.005149920005351305,0.013923857361078262
0.6449611186981201,-0.1646067053079605,-0.2313649207353592,-0.005912871100008488,-0.08525978773832321,-0.006294346414506435,0.01583123579621315
0.665036678314209,-0.17948424816131592,-0.2599755823612213,0.009346150793135166,-0.09708552807569504,-0.00667582219466567,0.019645990803837776
0.685100793838501,-0.1974135935306549,-0.2946898639202118,0.03032730519771576,-0.10776684433221817,-0.0078202486038208,0.02231631986796856
0.7051641941070557,-0.21648737788200378,-0.33207446336746216,0.059319447726011276,-0.1199740618467331,-0.009346150793135166,0.026512550190091133
0.7252223491668701,-0.23365376889705658,-0.36564430594444275,0.09098191559314728,-0.12989242374897003,-0.010109102353453636,0.030708782374858856
0.7452921867370605,-0.2462424635887146,-0.4011215269565582,0.12645913660526276,-0.14515145123004913,-0.01125352829694748,0.038719769567251205
0.765369176864624,-0.2569237947463989,-0.44155794382095337,0.16880293190479279,-0.16308079659938812,-0.01583123579621315,0.04558632895350456
0.7854330539703369,-0.265697717666626,-0.47817960381507874,0.21000228822231293,-0.1802472025156021,-0.020027466118335724,0.05245288833975792
0.8055069446563721,-0.27218279242515564,-0.5121309161186218,0.2500572204589844,-0.1977950781583786,-0.023460745811462402,0.06084534898400307
0.8255734443664551,-0.2763790488243103,-0.5483710765838623,0.2931639552116394,-0.21190966665744781,-0.024605173617601395,0.06771191209554672
0.8456587791442871,-0.2790493667125702,-0.5838482975959778,0.33474478125572205,-0.22297245264053345,-0.023460745811462402,0.07381551712751389
0.8657560348510742,-0.2794308364391327,-0.6147478222846985,0.3736552894115448,-0.23212787508964539,-0.021553369238972664,0.07801175117492676
0.8857889175415039,-0.2786678969860077,-0.647173285484314,0.41676202416419983,-0.24280919134616852,-0.01583123579621315,0.08335240930318832
0.9058399200439453,-0.2748531401157379,-0.6773098111152649,0.45719844102859497,-0.25234606862068176,-0.014686808921396732,0.0875486359000206
0.9259495735168457,-0.27027541399002075,-0.7032501697540283,0.49496451020240784,-0.2618829607963562,-0.012779430486261845,0.09250781685113907
0.9460203647613525,-0.26760509610176086,-0.7299534678459167,0.5270084738731384,-0.27141985297203064,-0.01125352829694748,0.09746700525283813
0.9661283493041992,-0.264934778213501,-0.7547493577003479,0.5563820600509644,-0.2821011543273926,-0.01201647985726595,0.10166323184967041
0.9862298965454102,-0.2622644305229187,-0.7761120200157166,0.580033540725708,-0.2946898639202118,-0.01125352829694748,0.11005569249391556
1.006335973739624,-0.2592126429080963,-0.7932783961296082,0.5971999764442444,-0.3068970739841461,-0.009346150793135166,0.1180666834115982
1.0264501571655273,-0.25577935576438904,-0.8085374236106873,0.6094071865081787,-0.3233005404472351,-0.00858320016413927,0.12645913660526276
1.0464930534362793,-0.25234606862068176,-0.8287556171417236,0.6212329268455505,-0.33550775051116943,-0.008964675478637218,0.1340886503458023
1.0665547847747803,-0.2504386901855469,-0.8443961143493652,0.6277180314064026,-0.3549630045890808,-0.009346150793135166,0.14705882966518402
1.086620569229126,-0.2470054179430008,-0.8546959757804871,0.6322957277297974,-0.3755626678466797,-0.011635004542768002,0.16079194843769073
1.1066913604736328,-0.2458609938621521,-0.8615625500679016,0.6326771974563599,-0.39692530035972595,-0.010109102353453636,0.17223620414733887
1.1267354488372803,-0.2447165697813034,-0.8688105344772339,0.6334401369094849,-0.41447317600250244,-0.00858320016413927,0.182154580950737
1.1468234062194824,-0.24280919134616852,-0.8775845170021057,0.6342030763626099,-0.4343098998069763,-0.012397955171763897,0.1974135935306549
1.1668908596038818,-0.24166475236415863,-0.8829251527786255,0.6353475451469421,-0.4488059878349304,-0.012397955171763897,0.20771344006061554
1.1869735717773438,-0.24052032828330994,-0.8882657885551453,0.6357290148735046,-0.46368351578712463,-0.01506828423589468,0.21915769577026367
1.2070181369781494,-0.24166475236415863,-0.8966583013534546,0.6349660754203796,-0.4858091175556183,-0.01506828423589468,0.23823148012161255
1.2271037101745605,-0.24319066107273102,-0.9031433463096619,0.6330586671829224,-0.5159456729888916,-0.01773861236870289,0.2595941126346588
1.2471709251403809,-0.24280919134616852,-0.9065766334533691,0.6300068497657776,-0.5479896068572998,-0.01926451548933983,0.2817196846008301
1.2672312259674072,-0.2447165697813034,-0.9096284508705139,0.6280995011329651,-0.5819409489631653,-0.015449759550392628,0.3065156042575836
1.2873189449310303,-0.2462424635887146,-0.9119172692298889,0.6269550919532776,-0.6219958662986755,-0.01773861236870289,0.33665215969085693
1.3074090480804443,-0.2462424635887146,-0.9115357995033264,0.6265735626220703,-0.6605249047279358,-0.023079270496964455,0.36717021465301514
1.327448844909668,-0.2466239482164383,-0.9126802682876587,0.6246662139892578,-0.698291003704071,-0.031090257689356804,0.39692530035972595
1.3474974632263184,-0.2466239482164383,-0.9138246774673462,0.6219958662986755,-0.7375829815864563,-0.035667963325977325,0.42744335532188416
1.3676161766052246,-0.2462424635887146,-0.9153505563735962,0.6185625791549683,-0.7722972631454468,-0.03643091395497322,0.45757991075515747
1.3876838684082031,-0.2454795092344284,-0.9153505563735962,0.6147478222846985,-0.8100633025169373,-0.03376058489084244,0.48962387442588806
1.4077603816986084,-0.2454795092344284,-0.9145876169204712,0.6101701259613037,-0.8421072959899902,-0.032616160809993744,0.5197604298591614
1.4279139041900635,-0.2454795092344284,-0.9126802682876587,0.6082627773284912,-0.8718623518943787,-0.03185320645570755,0.5506599545478821
1.4479968547821045,-0.2454795092344284,-0.9115357995033264,0.6048294901847839,-0.9153505563735962,-0.03795681521296501,0.5811780095100403
1.4680795669555664,-0.2439536154270172,-0.9103913903236389,0.6017776727676392,-0.9531166553497314,-0.04787518084049225,0.613603413105011
1.488114595413208,-0.24280919134616852,-0.9088655114173889,0.5979629158973694,-0.9843976497650146,-0.0551232174038887,0.6410696506500244
1.5082025527954102,-0.24242770671844482,-0.9073395729064941,0.5941481590270996,-1.0145342350006104,-0.05703059583902359,0.6681544184684753
1.528304100036621,-0.24280919134616852,-0.9058136940002441,0.5895704627037048,-1.048485517501831,-0.0555046908557415,0.6967650651931763
1.5483331680297852,-0.24280919134616852,-0.9039062857627869,0.5846112966537476,-1.0839627981185913,-0.0558861680328846,0.7230868935585022
1.5685298442840576,-0.24242770671844482,-0.9008545279502869,0.5815594792366028,-1.110666036605835,-0.06008239835500717,0.7486457824707031
1.5886273384094238,-0.24242770671844482,-0.8985656499862671,0.5773632526397705,-1.1449989080429077,-0.06504157930612564,0.7749675512313843
1.6086561679840088,-0.24204623699188232,-0.8966583013534546,0.5743114352226257,-1.1713206768035889,-0.071908138692379,0.7982375621795654
1.6291320323944092,-0.24013885855674744,-0.8955138325691223,0.5708781480789185,-1.201838731765747,-0.08030059933662415,0.8222705721855164
1.6492197513580322,-0.24013885855674744,-0.8928435444831848,0.5666819214820862,-1.2273975610733032,-0.08258945494890213,0.8451590538024902
1.6693260669708252,-0.23937590420246124,-0.8909361362457275,0.5624856948852539,-1.2525749206542969,-0.08525978773832321,0.8669031858444214
1.6893701553344727,-0.23861294984817505,-0.889028787612915,0.5590524077415466,-1.276607871055603,-0.086785688996315,0.8875028491020203
1.7094805240631104,-0.23746852576732635,-0.8863584399223328,0.5552376508712769,-1.3017853498458862,-0.09136339277029037,0.9092469811439514
1.7295784950256348,-0.23594263195991516,-0.8836880922317505,0.5514228940010071,-1.3265812397003174,-0.09517814964056015,0.9267948269844055
1.749675989151001,-0.23441672325134277,-0.881780743598938,0.5483710765838623,-1.349469780921936,-0.1031891331076622,0.9462500810623169
1.7697789669036865,-0.23250934481620789,-0.8794918656349182,0.5449378490447998,-1.3704508543014526,-0.10585946589708328,0.9641794562339783
1.789917230606079,-0.23212787508964539,-0.8772030472755432,0.5407415628433228,-1.3891432285308838,-0.11081864684820175,0.9813458323478699
1.8099620342254639,-0.2317463904619217,-0.8752956390380859,0.5376898050308228,-1.4101243019104004,-0.11196307092905045,0.9969863295555115
1.8301105499267578,-0.2309834510087967,-0.8733882904052734,0.5342565178871155,-1.426909327507019,-0.11501488089561462,1.0122454166412354
1.8507723808288574,-0.2298390120267868,-0.8710994124412537,0.5312047004699707,-1.4433127641677856,-0.11959258466959,1.0263599157333374
1.870896816253662,-0.2290760725736618,-0.8688105344772339,0.5277714133262634,-1.4597162008285522,-0.12378881871700287,1.0408560037612915
1.891016960144043,-0.22755016386508942,-0.8669031858444214,0.5247195959091187,-1.4768825769424438,-0.13065537810325623,1.0538262128829956
1.9110276699066162,-0.22602425515651703,-0.8649957776069641,0.5224307775497437,-1.4925230741500854,-0.1359960287809372,1.0671778917312622
1.9311408996582031,-0.22487983107566833,-0.8630884289741516,0.5189974904060364,-1.5077821016311646,-0.14133669435977936,1.0790035724639893
1.951235294342041,-0.22335393726825714,-0.8607995510101318,0.5151827335357666,-1.5203708410263062,-0.14324407279491425,1.0904479026794434
1.9713020324707031,-0.22259098291397095,-0.8588922023773193,0.5121309161186218,-1.5337224006652832,-0.14438849687576294,1.101892113685608
1.991379976272583,-0.22182802855968475,-0.8573662638664246,0.5102235674858093,-1.5455482006072998,-0.14591439068317413,1.112191915512085
2.0115036964416504,-0.22106507420539856,-0.8554589152336121,0.5071717500686646,-1.5569924116134644,-0.1508735716342926,1.122110366821289
2.031581401824951,-0.22030213475227356,-0.8531700372695923,0.5045014023780823,-1.5684367418289185,-0.15354390442371368,1.1316472291946411
2.0516111850738525,-0.21877622604370117,-0.8504997491836548,0.5018310546875,-1.5794994831085205,-0.15964750945568085,1.1423285007476807
2.0717196464538574,-0.21801327168941498,-0.84897381067276,0.4987792670726776,-1.589417815208435,-0.16155488789081573,1.1499580144882202
2.0918710231781006,-0.21725031733512878,-0.84744793176651,0.4961089491844177,-1.5997177362442017,-0.16346226632595062,1.1572060585021973
2.112048625946045,-0.2153429538011551,-0.8455405235290527,0.49382010102272034,-1.6084916591644287,-0.16422522068023682,1.1644541025161743
2.1320269107818604,-0.2141985148191452,-0.8436331748962402,0.49114975333213806,-1.6176470518112183,-0.1661325991153717,1.1724650859832764
2.1521155834198,-0.2134355753660202,-0.841725766658783,0.4888609051704407,-1.6248950958251953,-0.1668955534696579,1.1781872510910034
2.172233819961548,-0.2130540907382965,-0.840199887752533,0.4865720570087433,-1.6317616701126099,-0.17109178006649017,1.1846723556518555
2.19230055809021,-0.2130540907382965,-0.8390554785728455,0.4846646785736084,-1.6393911838531494,-0.17414358258247375,1.1907758712768555
2.212371587753296,-0.21114671230316162,-0.8371480703353882,0.4835202693939209,-1.6451133489608765,-0.17719538509845734,1.1964980363845825
2.2324767112731934,-0.21114671230316162,-0.8356221914291382,0.4812313914299011,-1.650835394859314,-0.1806286722421646,1.2014572620391846
2.252505302429199,-0.21076524257659912,-0.8337147831916809,0.47856107354164124,-1.657320499420166,-0.182917520403862,1.2060348987579346
2.272584915161133,-0.21038375794887543,-0.8329518437385559,0.47627222537994385,-1.664568543434143,-0.1840619444847107,1.2106126546859741
2.2926132678985596,-0.20962081849575043,-0.8314259648323059,0.47512778639793396,-1.6699092388153076,-0.1844434291124344,1.2151904106140137
2.312706708908081,-0.20885786414146423,-0.8299000263214111,0.4728389382362366,-1.6741054058074951,-0.18558785319328308,1.2197680473327637
2.3328697681427,-0.20847637951374054,-0.8287556171417236,0.4709315598011017,-1.6786831617355347,-0.18596932291984558,1.2232013940811157
2.3529696464538574,-0.20771344006061554,-0.8276112079620361,0.4697871506214142,-1.6821163892745972,-0.18863965570926666,1.2266346216201782
2.3730225563049316,-0.20733195543289185,-0.8264667987823486,0.4686427116394043,-1.6863126754760742,-0.19054703414440155,1.2293049097061157
2.3930904865264893,-0.20656901597976685,-0.8249408602714539,0.4671168029308319,-1.6901273727416992,-0.19321736693382263,1.2331197261810303
2.4131674766540527,-0.20542457699775696,-0.8230335116386414,0.465209424495697,-1.6939421892166138,-0.1962691694498062,1.2361714839935303
2.4333441257476807,-0.20428015291690826,-0.8211261034011841,0.46292057633399963,-1.6977568864822388,-0.1985580176115036,1.2403677701950073
2.453361988067627,-0.20351719856262207,-0.8188372850418091,0.46063172817230225,-1.7011902332305908,-0.1997024416923523,1.2441824674606323
2.473402500152588,-0.20313572883605957,-0.8184558153152466,0.45948728919029236,-1.7046234607696533,-0.1997024416923523,1.2464714050292969
2.49348521232605,-0.20313572883605957,-0.8176928162574768,0.45834288001060486,-1.7080568075180054,-0.20199130475521088,1.2491416931152344
2.5135531425476074,-0.20275425910949707,-0.8165484070777893,0.45719844102859497,-1.7103456258773804,-0.20237277448177338,1.2510490417480469
2.533649206161499,-0.20275425910949707,-0.8150225281715393,0.4556725323200226,-1.7126344442367554,-0.20160982012748718,1.2521934509277344
2.55373477935791,-0.20275425910949707,-0.8134965896606445,0.4545281231403351,-1.7137788534164429,-0.20313572883605957,1.2537193298339844
2.5738914012908936,-0.20275425910949707,-0.813115119934082,0.4537651538848877,-1.71492338180542,-0.20428015291690826,1.2548638582229614
2.593940496444702,-0.20275425910949707,-0.813115119934082,0.4533836841583252,-1.7168307304382324,-0.20656901597976685,1.256008267402649
2.6140224933624268,-0.20275425910949707,-0.8127336502075195,0.4533836841583252,-1.7175936698913574,-0.20695048570632935,1.2563897371292114
2.634080648422241,-0.20275425910949707,-0.8127336502075195,0.4530022144317627,-1.7183566093444824,-0.20695048570632935,1.2571526765823364
2.6541433334350586,-0.20275425910949707,-0.8127336502075195,0.4526207447052002,-1.7198824882507324,-0.20847637951374054,1.2579156160354614
2.6742124557495117,-0.20275425910949707,-0.812352180480957,0.4518577754497528,-1.7206454277038574,-0.20656901597976685,1.2579156160354614
2.6942641735076904,-0.20199130475521088,-0.8112077713012695,0.4503318965435028,-1.7214083671569824,-0.20695048570632935,1.259060025215149
2.714353322982788,-0.20160982012748718,-0.8100633025169373,0.4499503970146179,-1.721789836883545,-0.20542457699775696,1.261348843574524
2.7344913482666016,-0.20122835040092468,-0.8093003630638123,0.4491874575614929,-1.722934365272522,-0.20847637951374054,1.2621119022369385
2.7545812129974365,-0.20084688067436218,-0.8085374236106873,0.4491874575614929,-1.7256046533584595,-0.20809490978717804,1.262493371963501
2.774689197540283,-0.20084688067436218,-0.8085374236106873,0.4484245181083679,-1.725986123085022,-0.21076524257659912,1.2636377811431885
2.794768810272217,-0.20084688067436218,-0.8085374236106873,0.44766154885292053,-1.727512001991272,-0.21038375794887543,1.264782190322876
2.8148088455200195,-0.20084688067436218,-0.8073930144309998,0.44651713967323303,-1.728274941444397,-0.20962081849575043,1.265545129776001
2.834879159927368,-0.20084688067436218,-0.80663001537323,0.44499123096466064,-1.7286564111709595,-0.20847637951374054,1.266308069229126
2.8550050258636475,-0.20084688067436218,-0.8062485456466675,0.44499123096466064,-1.729037880897522,-0.20923933386802673,1.2682154178619385
2.87506103515625,-0.2004653960466385,-0.8054856061935425,0.44499123096466064,-1.729800820350647,-0.20962081849575043,1.2689783573150635
2.895219564437866,-0.2004653960466385,-0.8039597272872925,0.44460976123809814,-1.730945348739624,-0.21000228822231293,1.2689783573150635
2.915339469909668,-0.1993209719657898,-0.8031967878341675,0.44422826170921326,-1.7320897579193115,-0.21076524257659912,1.269359827041626
2.935439348220825,-0.1985580176115036,-0.8031967878341675,0.44384679198265076,-1.732471227645874,-0.21229113638401031,1.269741415977478
2.9555134773254395,-0.1985580176115036,-0.8024337887763977,0.44308385252952576,-1.733234167098999,-0.212672621011734,1.270504355430603
2.9755773544311523,-0.1985580176115036,-0.8024337887763977,0.44232088327407837,-1.7343785762786865,-0.21038375794887543,1.271267294883728
2.9956560134887695,-0.1985580176115036,-0.8024337887763977,0.44193941354751587,-1.7351415157318115,-0.21000228822231293,1.272030234336853
3.0157272815704346,-0.1985580176115036,-0.8020523190498352,0.44117647409439087,-1.735522985458374,-0.21076524257659912,1.2724117040634155
3.035796642303467,-0.1985580176115036,-0.8012893795967102,0.44117647409439087,-1.735522985458374,-0.21076524257659912,1.273556113243103
3.05596923828125,-0.1985580176115036,-0.8009079098701477,0.44079500436782837,-1.7359044551849365,-0.21114671230316162,1.2739375829696655
3.0760719776153564,-0.1985580176115036,-0.8009079098701477,0.44079500436782837,-1.736285924911499,-0.21152819693088531,1.275081992149353
3.096141815185547,-0.1985580176115036,-0.8005264401435852,0.4404135048389435,-1.7366673946380615,-0.2134355753660202,1.275844931602478
3.1163580417633057,-0.1985580176115036,-0.8005264401435852,0.440032035112381,-1.7374303340911865,-0.212672621011734,1.275844931602478
3.136476516723633,-0.1985580176115036,-0.8001449704170227,0.439269095659256,-1.737811803817749,-0.2134355753660202,1.2762264013290405
3.1564886569976807,-0.1985580176115036,-0.8001449704170227,0.4388876259326935,-1.7385748624801636,-0.2134355753660202,1.276607871055603
3.1765193939208984,-0.1985580176115036,-0.7997635006904602,0.4388876259326935,-1.738956332206726,-0.212672621011734,1.276607871055603
3.1965739727020264,-0.1985580176115036,-0.7993820309638977,0.438506156206131,-1.7393378019332886,-0.212672621011734,1.2769893407821655
3.216661214828491,-0.1985580176115036,-0.7990005612373352,0.4381246566772461,-1.7393378019332886,-0.2138170450925827,1.2773709297180176
3.2368123531341553,-0.1985580176115036,-0.7990005612373352,0.4381246566772461,-1.739719271659851,-0.2145799994468689,1.2773709297180176
3.257016181945801,-0.1985580176115036,-0.7986190319061279,0.4377431869506836,-1.7401007413864136,-0.2141985148191452,1.27775239944458
3.277103900909424,-0.1985580176115036,-0.7982375621795654,0.4373617172241211,-1.740482211112976,-0.2141985148191452,1.278515338897705
3.2972052097320557,-0.1985580176115036,-0.7982375621795654,0.4369802474975586,-1.740482211112976,-0.2145799994468689,1.2788968086242676
3.317232370376587,-0.1985580176115036,-0.7978560924530029,0.4369802474975586,-1.740482211112976,-0.2141985148191452,1.27927827835083
3.3373310565948486,-0.1985580176115036,-0.7978560924530029,0.4369802474975586,-1.7408636808395386,-0.2141985148191452,1.2796597480773926
3.3573832511901855,-0.1981765478849411,-0.7970931529998779,0.4365987777709961,-1.741245150566101,-0.2141985148191452,1.280041217803955
3.377603769302368,-0.1977950781583786,-0.7967116832733154,0.4362172782421112,-1.741245150566101,-0.2153429538011551,1.280041217803955
3.397562265396118,-0.1970321238040924,-0.7970931529998779,0.4362172782421112,-1.7416266202926636,-0.2153429538011551,1.2804226875305176
3.417673349380493,-0.1966506391763687,-0.7970931529998779,0.4358358085155487,-1.7423895597457886,-0.2149614691734314,1.28080415725708
3.4378912448883057,-0.1966506391763687,-0.7967116832733154,0.4358358085155487,-1.7431524991989136,-0.2145799994468689,1.28080415725708
3.4579644203186035,-0.1966506391763687,-0.7967116832733154,0.4358358085155487,-1.743533968925476,-0.2149614691734314,1.2811856269836426
3.478085994720459,-0.1966506391763687,-0.7963302135467529,0.4358358085155487,-1.7431524991989136,-0.2149614691734314,1.281567096710205
3.498213768005371,-0.1966506391763687,-0.7963302135467529,0.4350728690624237,-1.7431524991989136,-0.2161058932542801,1.2819485664367676
3.518245220184326,-0.1966506391763687,-0.7963302135467529,0.4350728690624237,-1.7431524991989136,-0.21648737788200378,1.283092975616455
3.5383307933807373,-0.1966506391763687,-0.7963302135467529,0.4346913993358612,-1.7431524991989136,-0.2157244235277176,1.2834744453430176
3.558486223220825,-0.1966506391763687,-0.7959487438201904,0.4346913993358612,-1.743533968925476,-0.2153429538011551,1.2834744453430176
3.578794479370117,-0.1966506391763687,-0.7959487438201904,0.4346913993358612,-1.743533968925476,-0.2157244235277176,1.2834744453430176
3.59883713722229,-0.1966506391763687,-0.7959487438201904,0.4346913993358612,-1.743533968925476,-0.2161058932542801,1.2834744453430176
3.619009017944336,-0.1966506391763687,-0.7955672740936279,0.4346913993358612,-1.743533968925476,-0.2161058932542801,1.2834744453430176
3.6390342712402344,-0.1966506391763687,-0.7951858043670654,0.4343098998069763,-1.743533968925476,-0.2161058932542801,1.2834744453430176
3.6592628955841064,-0.1966506391763687,-0.7948042750358582,0.4339284300804138,-1.743533968925476,-0.2161058932542801,1.2834744453430176
3.6793711185455322,-0.1966506391763687,-0.7948042750358582,0.4339284300804138,-1.743533968925476,-0.2161058932542801,1.28385591506958
3.6994714736938477,-0.1966506391763687,-0.7948042750358582,0.4339284300804138,-1.7439154386520386,-0.2161058932542801,1.28385591506958
3.719499349594116,-0.1966506391763687,-0.7948042750358582,0.4339284300804138,-1.7439154386520386,-0.2161058932542801,1.28385591506958
3.7396161556243896,-0.1966506391763687,-0.7948042750358582,0.4339284300804138,-1.7439154386520386,-0.2161058932542801,1.28385591506958
3.759864568710327,-0.1966506391763687,-0.7948042750358582,0.4339284300804138,-1.7439154386520386,-0.2161058932542801,1.28385591506958
3.779871702194214,-0.1966506391763687,-0.7948042750358582,0.4339284300804138,-1.7439154386520386,-0.2161058932542801,1.28385591506958
3.7999651432037354,-0.1966506391763687,-0.7948042750358582,0.4339284300804138,-1.7439154386520386,-0.2161058932542801,1.28385591506958
3.820042133331299,-0.1966506391763687,-0.7944228053092957,0.4339284300804138,-1.744296908378601,-0.2161058932542801,1.28385591506958
3.8400959968566895,-0.1966506391763687,-0.7944228053092957,0.4339284300804138,-1.744296908378601,-0.2161058932542801,1.28385591506958
3.860159397125244,-0.1966506391763687,-0.7944228053092957,0.4335469603538513,-1.744296908378601,-0.2161058932542801,1.28385591506958
3.880258321762085,-0.1966506391763687,-0.7940413355827332,0.4335469603538513,-1.744296908378601,-0.2161058932542801,1.28385591506958
3.9003896713256836,-0.1966506391763687,-0.7940413355827332,0.4331654906272888,-1.744296908378601,-0.21648737788200378,1.2842373847961426
3.920395612716675,-0.1966506391763687,-0.7940413355827332,0.4331654906272888,-1.744296908378601,-0.2161058932542801,1.2842373847961426
3.940570592880249,-0.1966506391763687,-0.7940413355827332,0.4327840209007263,-1.744296908378601,-0.2161058932542801,1.2842373847961426
3.960690498352051,-0.1966506391763687,-0.7940413355827332,0.4327840209007263,-1.744296908378601,-0.2157244235277176,1.2842373847961426
3.980966806411743,-0.1966506391763687,-0.7940413355827332,0.4327840209007263,-1.744296908378601,-0.2161058932542801,1.2842373847961426
4.000928640365601,-0.1966506391763687,-0.7940413355827332,0.4327840209007263,-1.744296908378601,-0.21648737788200378,1.2842373847961426
4.021148681640625,-0.1966506391763687,-0.7940413355827332,0.4327840209007263,-1.7446783781051636,-0.21648737788200378,1.2842373847961426
4.0412421226501465,-0.1966506391763687,-0.7940413355827332,0.4327840209007263,-1.7446783781051636,-0.2161058932542801,1.2842373847961426
4.061355352401733,-0.1966506391763687,-0.7940413355827332,0.4327840209007263,-1.7446783781051636,-0.2161058932542801,1.2842373847961426
4.081505537033081,-0.1966506391763687,-0.7936598658561707,0.4327840209007263,-1.7446783781051636,-0.2161058932542801,1.2842373847961426
4.101525545120239,-0.1966506391763687,-0.7936598658561707,0.4327840209007263,-1.7446783781051636,-0.21648737788200378,1.2842373847961426
4.1216888427734375,-0.1966506391763687,-0.7936598658561707,0.4327840209007263,-1.7446783781051636,-0.21648737788200378,1.2842373847961426
4.1417553424835205,-0.1966506391763687,-0.7936598658561707,0.4327840209007263,-1.7446783781051636,-0.2161058932542801,1.2842373847961426
4.161855697631836,-0.1966506391763687,-0.7936598658561707,0.4327840209007263,-1.7446783781051636,-0.2161058932542801,1.2842373847961426
4.181983232498169,-0.1966506391763687,-0.7936598658561707,0.4327840209007263,-1.7446783781051636,-0.2161058932542801,1.2842373847961426
4.202073812484741,-0.1970321238040924,-0.7932783961296082,0.4327840209007263,-1.7446783781051636,-0.2161058932542801,1.2842373847961426
4.222102642059326,-0.1966506391763687,-0.7928969264030457,0.4327840209007263,-1.7446783781051636,-0.2161058932542801,1.2842373847961426
4.242214918136597,-0.1970321238040924,-0.7928969264030457,0.4327840209007263,-1.7446783781051636,-0.21648737788200378,1.2842373847961426
4.262367010116577,-0.1970321238040924,-0.7928969264030457,0.4327840209007263,-1.7446783781051636,-0.21648737788200378,1.2842373847961426
4.282814025878906,-0.1970321238040924,-0.7928969264030457,0.43240252137184143,-1.745059847831726,-0.2161058932542801,1.2842373847961426
4.302922487258911,-0.1970321238040924,-0.7928969264030457,0.43240252137184143,-1.745059847831726,-0.2161058932542801,1.2842373847961426
4.323047399520874,-0.1970321238040924,-0.7928969264030457,0.43240252137184143,-1.745059847831726,-0.2161058932542801,1.2842373847961426
4.343088150024414,-0.1970321238040924,-0.7928969264030457,0.43240252137184143,-1.745059847831726,-0.2161058932542801,1.2842373847961426
4.363160133361816,-0.1970321238040924,-0.7928969264030457,0.43240252137184143,-1.745059847831726,-0.2161058932542801,1.2842373847961426
4.383224964141846,-0.1970321238040924,-0.7928969264030457,0.43240252137184143,-1.745059847831726,-0.2161058932542801,1.2842373847961426
4.403285503387451,-0.1970321238040924,-0.7928969264030457,0.43240252137184143,-1.745059847831726,-0.2161058932542801,1.2842373847961426
4.423433780670166,-0.1970321238040924,-0.7928969264030457,0.43240252137184143,-1.745059847831726,-0.2161058932542801,1.2842373847961426
4.443536996841431,-0.1970321238040924,-0.7928969264030457,0.43240252137184143,-1.745059847831726,-0.2161058932542801,1.2842373847961426
4.463606595993042,-0.1970321238040924,-0.7928969264030457,0.43240252137184143,-1.745059847831726,-0.2161058932542801,1.2842373847961426
4.483669281005859,-0.1970321238040924,-0.7928969264030457,0.43240252137184143,-1.745059847831726,-0.2161058932542801,1.2842373847961426
4.503864288330078,-0.1970321238040924,-0.7928969264030457,0.43240252137184143,-1.745059847831726,-0.2161058932542801,1.2842373847961426
4.524052858352661,-0.1970321238040924,-0.7928969264030457,0.43240252137184143,-1.745059847831726,-0.2161058932542801,1.284618854522705
4.544111013412476,-0.1970321238040924,-0.7928969264030457,0.43240252137184143,-1.745059847831726,-0.2161058932542801,1.2842373847961426
4.564138889312744,-0.1970321238040924,-0.7928969264030457,0.43240252137184143,-1.745059847831726,-0.2161058932542801,1.2842373847961426
4.584368944168091,-0.1970321238040924,-0.7928969264030457,0.43240252137184143,-1.745059847831726,-0.2161058932542801,1.284618854522705
4.604346036911011,-0.1970321238040924,-0.7928969264030457,0.43240252137184143,-1.745059847831726,-0.2161058932542801,1.284618854522705
4.6243908405303955,-0.1970321238040924,-0.7928969264030457,0.43240252137184143,-1.745059847831726,-0.2161058932542801,1.284618854522705
4.644579172134399,-0.1970321238040924,-0.7928969264030457,0.43240252137184143,-1.745059847831726,-0.2161058932542801,1.284618854522705
4.664739608764648,-0.1970321238040924,-0.7928969264030457,0.43240252137184143,-1.745059847831726,-0.2161058932542801,1.284618854522705
4.684955596923828,-0.1970321238040924,-0.7928969264030457,0.43240252137184143,-1.745059847831726,-0.2161058932542801,1.284618854522705
4.70492959022522,-0.1970321238040924,-0.7928969264030457,0.43240252137184143,-1.745059847831726,-0.2161058932542801,1.284618854522705
4.725022315979004,-0.1970321238040924,-0.7928969264030457,0.43240252137184143,-1.745059847831726,-0.2161058932542801,1.284618854522705
4.745134353637695,-0.1970321238040924,-0.7928969264030457,0.43240252137184143,-1.745059847831726,-0.2161058932542801,1.284618854522705
4.7652928829193115,-0.1970321238040924,-0.7928969264030457,0.43240252137184143,-1.745059847831726,-0.2161058932542801,1.284618854522705
4.785392999649048,-0.1970321238040924,-0.7928969264030457,0.43240252137184143,-1.745059847831726,-0.2157244235277176,1.284618854522705
4.805513620376587,-0.1970321238040924,-0.7928969264030457,0.43240252137184143,-1.745059847831726,-0.2157244235277176,1.284618854522705
4.825543642044067,-0.1970321238040924,-0.7928969264030457,0.43240252137184143,-1.745059847831726,-0.2157244235277176,1.284618854522705
4.845615386962891,-0.1970321238040924,-0.7928969264030457,0.43240252137184143,-1.745059847831726,-0.2157244235277176,1.284618854522705
4.86580228805542,-0.1970321238040924,-0.7928969264030457,0.43240252137184143,-1.745059847831726,-0.2157244235277176,1.284618854522705
4.885771751403809,-0.1970321238040924,-0.7928969264030457,0.43240252137184143,-1.745059847831726,-0.2157244235277176,1.284618854522705
4.90599513053894,-0.1970321238040924,-0.7928969264030457,0.43240252137184143,-1.745059847831726,-0.2157244235277176,1.284618854522705
4.926097869873047,-0.1970321238040924,-0.7928969264030457,0.43240252137184143,-1.745059847831726,-0.2157244235277176,1.284618854522705
4.946149110794067,-0.1970321238040924,-0.7928969264030457,0.43240252137184143,-1.745059847831726,-0.2157244235277176,1.284618854522705
4.966193675994873,-0.1970321238040924,-0.7928969264030457,0.43240252137184143,-1.745059847831726,-0.2157244235277176,1.284618854522705
4.986293792724609,-0.1970321238040924,-0.7928969264030457,0.43240252137184143,-1.745059847831726,-0.2157244235277176,1.284618854522705
5.006426572799683,-0.1970321238040924,-0.7928969264030457,0.43240252137184143,-1.745059847831726,-0.2157244235277176,1.284618854522705
5.026472330093384,-0.1970321238040924,-0.7928969264030457,0.43240252137184143,-1.745059847831726,-0.2157244235277176,1.284618854522705
5.046556711196899,-0.1970321238040924,-0.7928969264030457,0.43240252137184143,-1.745059847831726,-0.2157244235277176,1.284618854522705
5.066643238067627,-0.1970321238040924,-0.7928969264030457,0.43240252137184143,-1.745059847831726,-0.2157244235277176,1.284618854522705
5.086774587631226,-0.1970321238040924,-0.7928969264030457,0.43240252137184143,-1.745059847831726,-0.2157244235277176,1.284618854522705
5.1068243980407715,-0.1970321238040924,-0.7928969264030457,0.43240252137184143,-1.745059847831726,-0.2157244235277176,1.284618854522705
5.126941204071045,-0.1970321238040924,-0.7928969264030457,0.43240252137184143,-1.745059847831726,-0.2157244235277176,1.284618854522705
5.147006273269653,-0.1970321238040924,-0.7928969264030457,0.43240252137184143,-1.745059847831726,-0.2157244235277176,1.284618854522705
5.167069911956787,-0.1970321238040924,-0.7928969264030457,0.43240252137184143,-1.745059847831726,-0.2157244235277176,1.284618854522705
5.18712043762207,-0.1970321238040924,-0.7928969264030457,0.43240252137184143,-1.745059847831726,-0.2157244235277176,1.284618854522705
5.207233667373657,-0.1970321238040924,-0.7928969264030457,0.43240252137184143,-1.745059847831726,-0.2157244235277176,1.284618854522705
5.227346420288086,-0.1970321238040924,-0.7928969264030457,0.43240252137184143,-1.745059847831726,-0.2157244235277176,1.284618854522705
5.2474634647369385,-0.1970321238040924,-0.7928969264030457,0.43240252137184143,-1.745059847831726,-0.2157244235277176,1.284618854522705
5.267471075057983,-0.1970321238040924,-0.7928969264030457,0.43240252137184143,-1.745059847831726,-0.2157244235277176,1.284618854522705
5.2876105308532715,-0.1970321238040924,-0.7928969264030457,0.43240252137184143,-1.745059847831726,-0.2157244235277176,1.284618854522705
5.3076395988464355,-0.1970321238040924,-0.7928969264030457,0.43240252137184143,-1.745059847831726,-0.2157244235277176,1.284618854522705
5.328423500061035,-0.1970321238040924,-0.7928969264030457,0.43240252137184143,-1.745059847831726,-0.2157244235277176,1.284618854522705
5.348508596420288,-0.1970321238040924,-0.7928969264030457,0.43240252137184143,-1.745059847831726,-0.2157244235277176,1.284618854522705
5.368768215179443,-0.1970321238040924,-0.7928969264030457,0.43240252137184143,-1.745059847831726,-0.2157244235277176,1.284618854522705
5.388681650161743,-0.1970321238040924,-0.7928969264030457,0.43240252137184143,-1.745059847831726,-0.2157244235277176,1.284618854522705
5.408888101577759,-0.1970321238040924,-0.7928969264030457,0.43240252137184143,-1.745059847831726,-0.2157244235277176,1.284618854522705
5.429015874862671,-0.1970321238040924,-0.7928969264030457,0.43240252137184143,-1.745059847831726,-0.2157244235277176,1.284618854522705
5.4490087032318115,-0.1970321238040924,-0.7928969264030457,0.43240252137184143,-1.745059847831726,-0.2157244235277176,1.284618854522705
5.469111204147339,-0.1970321238040924,-0.7928969264030457,0.43240252137184143,-1.745059847831726,-0.2157244235277176,1.284618854522705
5.48914361000061,-0.1970321238040924,-0.7928969264030457,0.43240252137184143,-1.745059847831726,-0.2157244235277176,1.284618854522705
5.50919508934021,-0.1970321238040924,-0.7928969264030457,0.43240252137184143,-1.745059847831726,-0.2157244235277176,1.284618854522705
5.529801607131958,-0.1970321238040924,-0.7928969264030457,0.43240252137184143,-1.745059847831726,-0.2157244235277176,1.284618854522705
5.549906492233276,-0.1970321238040924,-0.7928969264030457,0.43240252137184143,-1.7454413175582886,-0.2157244235277176,1.284618854522705
5.569966077804565,-0.1970321238040924,-0.7928969264030457,0.43240252137184143,-1.745059847831726,-0.2157244235277176,1.284618854522705
5.59002161026001,-0.1970321238040924,-0.7928969264030457,0.43240252137184143,-1.745059847831726,-0.2157244235277176,1.284618854522705
5.610176086425781,-0.1970321238040924,-0.7928969264030457,0.43240252137184143,-1.745059847831726,-0.2157244235277176,1.284618854522705
5.630242824554443,-0.1970321238040924,-0.7928969264030457,0.43240252137184143,-1.745059847831726,-0.2157244235277176,1.284618854522705
5.650288343429565,-0.1970321238040924,-0.7928969264030457,0.43240252137184143,-1.745059847831726,-0.2157244235277176,1.284618854522705
5.670393466949463,-0.1970321238040924,-0.7928969264030457,0.43240252137184143,-1.745059847831726,-0.2157244235277176,1.284618854522705
5.6905858516693115,-0.1970321238040924,-0.7928969264030457,0.43240252137184143,-1.745059847831726,-0.2157244235277176,1.284618854522705
5.710590600967407,-0.1970321238040924,-0.7928969264030457,0.43240252137184143,-1.745059847831726,-0.2157244235277176,1.284618854522705
5.730724573135376,-0.1970321238040924,-0.7928969264030457,0.43240252137184143,-1.745059847831726,-0.2157244235277176,1.284618854522705
5.750904560089111,-0.1970321238040924,-0.7928969264030457,0.43240252137184143,-1.745059847831726,-0.2157244235277176,1.284618854522705
5.771049737930298,-0.1970321238040924,-0.7928969264030457,0.43240252137184143,-1.745059847831726,-0.2157244235277176,1.284618854522705
5.791161775588989,-0.1970321238040924,-0.7928969264030457,0.43240252137184143,-1.745059847831726,-0.2157244235277176,1.284618854522705
5.811248302459717,-0.1970321238040924,-0.7928969264030457,0.43240252137184143,-1.745059847831726,-0.2157244235277176,1.284618854522705
5.831329345703125,-0.1970321238040924,-0.7928969264030457,0.43240252137184143,-1.745059847831726,-0.2157244235277176,1.284618854522705
5.851404428482056,-0.1970321238040924,-0.7928969264030457,0.43240252137184143,-1.745059847831726,-0.2157244235277176,1.284618854522705
5.871448993682861,-0.1970321238040924,-0.7928969264030457,0.43240252137184143,-1.745059847831726,-0.2157244235277176,1.284618854522705
5.891531944274902,-0.1970321238040924,-0.7928969264030457,0.43240252137184143,-1.745059847831726,-0.2157244235277176,1.284618854522705
5.911709308624268,-0.1970321238040924,-0.7928969264030457,0.43240252137184143,-1.745059847831726,-0.2157244235277176,1.284618854522705
5.931737899780273,-0.1970321238040924,-0.7928969264030457,0.43240252137184143,-1.745059847831726,-0.2157244235277176,1.284618854522705
5.951786041259766,-0.1970321238040924,-0.7928969264030457,0.43240252137184143,-1.745059847831726,-0.2157244235277176,1.284618854522705
5.971868276596069,-0.1970321238040924,-0.7928969264030457,0.43240252137184143,-1.745059847831726,-0.2157244235277176,1.284618854522705
5.991916656494141,-0.1970321238040924,-0.7928969264030457,0.43240252137184143,-1.745059847831726,-0.2157244235277176,1.284618854522705
6.011976480484009,-0.1970321238040924,-0.7928969264030457,0.43240252137184143,-1.745059847831726,-0.2157244235277176,1.284618854522705
6.032098293304443,-0.1970321238040924,-0.7928969264030457,0.43240252137184143,-1.745059847831726,-0.2157244235277176,1.284618854522705
6.052331447601318,-0.1970321238040924,-0.7928969264030457,0.43240252137184143,-1.745059847831726,-0.2157244235277176,1.284618854522705
6.072262525558472,-0.1970321238040924,-0.7928969264030457,0.43240252137184143,-1.745059847831726,-0.2157244235277176,1.284618854522705
6.092350959777832,-0.1970321238040924,-0.7928969264030457,0.43240252137184143,-1.745059847831726,-0.2157244235277176,1.284618854522705
6.112401485443115,-0.1970321238040924,-0.7928969264030457,0.43240252137184143,-1.745059847831726,-0.2157244235277176,1.284618854522705
6.132511377334595,-0.1970321238040924,-0.7928969264030457,0.43240252137184143,-1.745059847831726,-0.2157244235277176,1.284618854522705
6.15259313583374,-0.1970321238040924,-0.7928969264030457,0.43240252137184143,-1.745059847831726,-0.2157244235277176,1.284618854522705
6.17268705368042,-0.1970321238040924,-0.7928969264030457,0.43240252137184143,-1.745059847831726,-0.2157244235277176,1.284618854522705
6.19274640083313,-0.1970321238040924,-0.7928969264030457,0.43240252137184143,-1.745059847831726,-0.2157244235277176,1.284618854522705
6.2128472328186035,-0.1970321238040924,-0.7928969264030457,0.43240252137184143,-1.745059847831726,-0.2157244235277176,1.284618854522705
6.233018159866333,-0.1970321238040924,-0.7928969264030457,0.43240252137184143,-1.745059847831726,-0.2157244235277176,1.284618854522705
6.25311803817749,-0.1970321238040924,-0.7928969264030457,0.43240252137184143,-1.745059847831726,-0.2157244235277176,1.284618854522705
6.273166179656982,-0.1970321238040924,-0.7928969264030457,0.43240252137184143,-1.745059847831726,-0.2157244235277176,1.284618854522705
6.293207883834839,-0.1970321238040924,-0.7928969264030457,0.43240252137184143,-1.745059847831726,-0.2157244235277176,1.284618854522705
6.313270807266235,-0.1970321238040924,-0.7928969264030457,0.43240252137184143,-1.745059847831726,-0.2157244235277176,1.284618854522705
6.333374261856079,-0.1970321238040924,-0.7928969264030457,0.43240252137184143,-1.745059847831726,-0.2157244235277176,1.284618854522705
6.353410959243774,-0.1970321238040924,-0.7928969264030457,0.43240252137184143,-1.745059847831726,-0.2157244235277176,1.284618854522705
6.373485088348389,-0.1970321238040924,-0.7928969264030457,0.43240252137184143,-1.745059847831726,-0.2157244235277176,1.284618854522705
6.393633604049683,-0.1970321238040924,-0.7928969264030457,0.43240252137184143,-1.745059847831726,-0.2157244235277176,1.284618854522705
6.4137632846832275,-0.1970321238040924,-0.7928969264030457,0.43240252137184143,-1.745059847831726,-0.2157244235277176,1.284618854522705
6.433825492858887,-0.1970321238040924,-0.7928969264030457,0.43240252137184143,-1.745059847831726,-0.2157244235277176,1.284618854522705
6.453907251358032,-0.1970321238040924,-0.7928969264030457,0.43240252137184143,-1.745059847831726,-0.2157244235277176,1.284618854522705
6.473999738693237,-0.1970321238040924,-0.7928969264030457,0.43240252137184143,-1.745059847831726,-0.2157244235277176,1.284618854522705
6.494034767150879,-0.1970321238040924,-0.7928969264030457,0.43240252137184143,-1.745059847831726,-0.2157244235277176,1.284618854522705
6.514090299606323,-0.1970321238040924,-0.7928969264030457,0.43240252137184143,-1.745059847831726,-0.2157244235277176,1.284618854522705
6.534235715866089,-0.1970321238040924,-0.7928969264030457,0.43240252137184143,-1.745059847831726,-0.2157244235277176,1.284618854522705
6.554276466369629,-0.1970321238040924,-0.7928969264030457,0.43240252137184143,-1.745059847831726,-0.2157244235277176,1.284618854522705
6.574597120285034,-0.1970321238040924,-0.7928969264030457,0.43240252137184143,-1.745059847831726,-0.2157244235277176,1.284618854522705
6.5947160720825195,-0.1970321238040924,-0.7928969264030457,0.43240252137184143,-1.745059847831726,-0.2157244235277176,1.284618854522705
6.614780902862549,-0.1970321238040924,-0.7928969264030457,0.43240252137184143,-1.7454413175582886,-0.2157244235277176,1.284618854522705
6.634867429733276,-0.1970321238040924,-0.7928969264030457,0.43240252137184143,-1.745059847831726,-0.2157244235277176,1.284618854522705
6.6549248695373535,-0.1970321238040924,-0.7928969264030457,0.43240252137184143,-1.745059847831726,-0.2157244235277176,1.284618854522705
6.674992084503174,-0.1970321238040924,-0.7928969264030457,0.43240252137184143,-1.745059847831726,-0.2157244235277176,1.284618854522705
6.695128440856934,-0.1970321238040924,-0.7928969264030457,0.43240252137184143,-1.745059847831726,-0.2157244235277176,1.284618854522705
6.715160846710205,-0.1970321238040924,-0.7928969264030457,0.43240252137184143,-1.745059847831726,-0.2157244235277176,1.284618854522705
6.735243320465088,-0.1970321238040924,-0.7928969264030457,0.43240252137184143,-1.7454413175582886,-0.2157244235277176,1.284618854522705
6.7554075717926025,-0.1970321238040924,-0.7928969264030457,0.43240252137184143,-1.745059847831726,-0.2157244235277176,1.284618854522705
6.775400161743164,-0.1970321238040924,-0.7928969264030457,0.43240252137184143,-1.745059847831726,-0.2157244235277176,1.284618854522705
6.795468807220459,-0.1970321238040924,-0.7928969264030457,0.43240252137184143,-1.745059847831726,-0.2157244235277176,1.284618854522705
6.815531253814697,-0.1970321238040924,-0.7928969264030457,0.43240252137184143,-1.745059847831726,-0.2157244235277176,1.284618854522705
6.835623741149902,-0.1970321238040924,-0.7928969264030457,0.43240252137184143,-1.745059847831726,-0.2157244235277176,1.284618854522705
6.855662107467651,-0.1970321238040924,-0.7928969264030457,0.43240252137184143,-1.745059847831726,-0.2157244235277176,1.284618854522705
6.875740051269531,-0.1970321238040924,-0.7928969264030457,0.43240252137184143,-1.745059847831726,-0.2157244235277176,1.284618854522705
6.8958353996276855,-0.1970321238040924,-0.7928969264030457,0.43240252137184143,-1.745059847831726,-0.2157244235277176,1.284618854522705
6.915894269943237,-0.1970321238040924,-0.7928969264030457,0.43240252137184143,-1.745059847831726,-0.2157244235277176,1.284618854522705
6.935990810394287,-0.1970321238040924,-0.7928969264030457,0.43240252137184143,-1.745059847831726,-0.2157244235277176,1.284618854522705
6.9561052322387695,-0.1970321238040924,-0.7928969264030457,0.43240252137184143,-1.745059847831726,-0.2157244235277176,1.284618854522705
6.976194381713867,-0.1970321238040924,-0.7928969264030457,0.43240252137184143,-1.745059847831726,-0.2157244235277176,1.284618854522705
6.996270418167114,-0.1970321238040924,-0.7928969264030457,0.43240252137184143,-1.745059847831726,-0.2157244235277176,1.284618854522705
7.016318321228027,-0.1970321238040924,-0.7928969264030457,0.43240252137184143,-1.745059847831726,-0.2157244235277176,1.284618854522705
7.036427021026611,-0.1970321238040924,-0.7932783961296082,0.43240252137184143,-1.745059847831726,-0.2157244235277176,1.284618854522705
7.056500434875488,-0.1970321238040924,-0.7928969264030457,0.43240252137184143,-1.745059847831726,-0.2157244235277176,1.284618854522705
7.076620817184448,-0.1970321238040924,-0.7928969264030457,0.43240252137184143,-1.745059847831726,-0.2157244235277176,1.284618854522705
7.096832513809204,-0.1970321238040924,-0.7928969264030457,0.43240252137184143,-1.745059847831726,-0.2157244235277176,1.284618854522705
7.116826772689819,-0.1970321238040924,-0.7928969264030457,0.43240252137184143,-1.7454413175582886,-0.2157244235277176,1.284618854522705
7.136883020401001,-0.1970321238040924,-0.7928969264030457,0.43240252137184143,-1.745059847831726,-0.2157244235277176,1.284618854522705
7.157282829284668,-0.1970321238040924,-0.7928969264030457,0.43240252137184143,-1.745059847831726,-0.2157244235277176,1.284618854522705
7.177469730377197,-0.1970321238040924,-0.7928969264030457,0.43240252137184143,-1.745059847831726,-0.2157244235277176,1.284618854522705
7.197583913803101,-0.1970321238040924,-0.7928969264030457,0.43240252137184143,-1.745059847831726,-0.2157244235277176,1.284618854522705
7.217597484588623,-0.1970321238040924,-0.7932783961296082,0.43240252137184143,-1.745059847831726,-0.2157244235277176,1.284618854522705
7.2376933097839355,-0.1970321238040924,-0.7928969264030457,0.43240252137184143,-1.745059847831726,-0.2157244235277176,1.284618854522705
7.257807731628418,-0.1970321238040924,-0.7928969264030457,0.43240252137184143,-1.745059847831726,-0.2157244235277176,1.284618854522705
7.278008222579956,-0.1970321238040924,-0.7928969264030457,0.43240252137184143,-1.745059847831726,-0.2157244235277176,1.284618854522705
7.297959089279175,-0.1970321238040924,-0.7928969264030457,0.43240252137184143,-1.745059847831726,-0.2157244235277176,1.284618854522705
7.318078517913818,-0.1970321238040924,-0.7932783961296082,0.43240252137184143,-1.745059847831726,-0.2157244235277176,1.284618854522705
7.3381898403167725,-0.1970321238040924,-0.7928969264030457,0.43240252137184143,-1.745059847831726,-0.2157244235277176,1.284618854522705
7.358235597610474,-0.1970321238040924,-0.7928969264030457,0.43240252137184143,-1.7454413175582886,-0.2157244235277176,1.284618854522705
7.378642797470093,-0.1970321238040924,-0.7928969264030457,0.43240252137184143,-1.745059847831726,-0.2157244235277176,1.284618854522705
7.398742198944092,-0.1970321238040924,-0.7928969264030457,0.43240252137184143,-1.7454413175582886,-0.2157244235277176,1.284618854522705
7.41884183883667,-0.1970321238040924,-0.7928969264030457,0.43240252137184143,-1.745059847831726,-0.2157244235277176,1.284618854522705
7.438855409622192,-0.1970321238040924,-0.7928969264030457,0.43240252137184143,-1.745059847831726,-0.2157244235277176,1.284618854522705
7.458966255187988,-0.1970321238040924,-0.7928969264030457,0.43240252137184143,-1.7454413175582886,-0.2157244235277176,1.284618854522705
7.479185104370117,-0.1970321238040924,-0.7928969264030457,0.43240252137184143,-1.745059847831726,-0.2157244235277176,1.284618854522705
7.499172925949097,-0.1970321238040924,-0.7928969264030457,0.43240252137184143,-1.745059847831726,-0.2157244235277176,1.284618854522705
7.519241809844971,-0.1970321238040924,-0.7928969264030457,0.43240252137184143,-1.7454413175582886,-0.2157244235277176,1.284618854522705
7.539304494857788,-0.1970321238040924,-0.7928969264030457,0.43240252137184143,-1.745059847831726,-0.2157244235277176,1.284618854522705
7.559391021728516,-0.1970321238040924,-0.7932783961296082,0.43240252137184143,-1.7454413175582886,-0.2157244235277176,1.284618854522705
7.5794594287872314,-0.1970321238040924,-0.7928969264030457,0.43240252137184143,-1.745059847831726,-0.2157244235277176,1.284618854522705
7.599567651748657,-0.1970321238040924,-0.7928969264030457,0.43240252137184143,-1.745059847831726,-0.2157244235277176,1.284618854522705
7.619597911834717,-0.1970321238040924,-0.7928969264030457,0.43240252137184143,-1.745059847831726,-0.2157244235277176,1.284618854522705
7.639952182769775,-0.1970321238040924,-0.7932783961296082,0.43240252137184143,-1.745059847831726,-0.2157244235277176,1.284618854522705
7.660072565078735,-0.1970321238040924,-0.7928969264030457,0.43240252137184143,-1.745059847831726,-0.2157244235277176,1.284618854522705
7.680130481719971,-0.1970321238040924,-0.7928969264030457,0.43240252137184143,-1.7454413175582886,-0.2157244235277176,1.284618854522705
7.700202465057373,-0.1970321238040924,-0.7928969264030457,0.43240252137184143,-1.7454413175582886,-0.2157244235277176,1.284618854522705
7.720274925231934,-0.1970321238040924,-0.7928969264030457,0.43240252137184143,-1.7454413175582886,-0.2157244235277176,1.284618854522705
7.740439414978027,-0.1970321238040924,-0.7928969264030457,0.43240252137184143,-1.745059847831726,-0.2157244235277176,1.284618854522705
7.7605602741241455,-0.1970321238040924,-0.7928969264030457,0.43240252137184143,-1.7454413175582886,-0.2157244235277176,1.284618854522705
7.781167268753052,-0.1970321238040924,-0.7928969264030457,0.43240252137184143,-1.7454413175582886,-0.2157244235277176,1.284618854522705
7.801307439804077,-0.1970321238040924,-0.7928969264030457,0.43240252137184143,-1.745059847831726,-0.2157244235277176,1.284618854522705
7.821343183517456,-0.1970321238040924,-0.7928969264030457,0.43240252137184143,-1.745059847831726,-0.2157244235277176,1.284618854522705
7.841442108154297,-0.1970321238040924,-0.7928969264030457,0.43240252137184143,-1.7454413175582886,-0.2157244235277176,1.284618854522705
7.861517906188965,-0.1970321238040924,-0.7928969264030457,0.43240252137184143,-1.745059847831726,-0.2157244235277176,1.284618854522705
7.881619930267334,-0.1970321238040924,-0.7928969264030457,0.43240252137184143,-1.745059847831726,-0.2157244235277176,1.284618854522705
7.901682615280151,-0.1970321238040924,-0.7928969264030457,0.43240252137184143,-1.745059847831726,-0.2157244235277176,1.284618854522705
7.921781063079834,-0.1970321238040924,-0.7928969264030457,0.43240252137184143,-1.745059847831726,-0.2157244235277176,1.284618854522705
7.94184684753418,-0.1970321238040924,-0.7932783961296082,0.43240252137184143,-1.7454413175582886,-0.2157244235277176,1.284618854522705
7.961973428726196,-0.1970321238040924,-0.7928969264030457,0.43240252137184143,-1.7454413175582886,-0.2157244235277176,1.284618854522705
7.982040882110596,-0.1970321238040924,-0.7928969264030457,0.43240252137184143,-1.745059847831726,-0.2157244235277176,1.284618854522705
8.002082586288452,-0.1970321238040924,-0.7928969264030457,0.43240252137184143,-1.745059847831726,-0.2157244235277176,1.284618854522705
8.022146940231323,-0.1970321238040924,-0.7928969264030457,0.43240252137184143,-1.7454413175582886,-0.2157244235277176,1.284618854522705
8.042217254638672,-0.1970321238040924,-0.7928969264030457,0.43240252137184143,-1.7454413175582886,-0.2157244235277176,1.284618854522705
8.062282800674438,-0.1970321238040924,-0.7928969264030457,0.43240252137184143,-1.7454413175582886,-0.2157244235277176,1.284618854522705
8.082371711730957,-0.1970321238040924,-0.7928969264030457,0.43240252137184143,-1.745059847831726,-0.2157244235277176,1.284618854522705
8.10250186920166,-0.1970321238040924,-0.7928969264030457,0.43240252137184143,-1.745059847831726,-0.2157244235277176,1.284618854522705
8.122703790664673,-0.1970321238040924,-0.7928969264030457,0.43240252137184143,-1.745059847831726,-0.2157244235277176,1.284618854522705
8.142877101898193,-0.1970321238040924,-0.7928969264030457,0.43240252137184143,-1.7454413175582886,-0.2157244235277176,1.284618854522705
8.162932395935059,-0.1970321238040924,-0.7928969264030457,0.43240252137184143,-1.745059847831726,-0.2157244235277176,1.284618854522705
8.182955741882324,-0.1970321238040924,-0.7928969264030457,0.43240252137184143,-1.7454413175582886,-0.2157244235277176,1.284618854522705
8.2030029296875,-0.1970321238040924,-0.7928969264030457,0.43240252137184143,-1.745059847831726,-0.2157244235277176,1.284618854522705
8.223178386688232,-0.1970321238040924,-0.7928969264030457,0.43240252137184143,-1.7454413175582886,-0.2157244235277176,1.284618854522705
8.243207454681396,-0.1970321238040924,-0.7928969264030457,0.43240252137184143,-1.7454413175582886,-0.2157244235277176,1.284618854522705
8.263378143310547,-0.1970321238040924,-0.7928969264030457,0.43240252137184143,-1.745059847831726,-0.2157244235277176,1.284618854522705
8.283422231674194,-0.1970321238040924,-0.7928969264030457,0.43240252137184143,-1.745059847831726,-0.2157244235277176,1.284618854522705
8.3035147190094,-0.1970321238040924,-0.7928969264030457,0.43240252137184143,-1.745059847831726,-0.2157244235277176,1.284618854522705
8.323577404022217,-0.1970321238040924,-0.7928969264030457,0.43240252137184143,-1.745059847831726,-0.2157244235277176,1.284618854522705
8.343659400939941,-0.1970321238040924,-0.7932783961296082,0.43240252137184143,-1.7454413175582886,-0.2157244235277176,1.284618854522705
8.363714694976807,-0.1970321238040924,-0.7928969264030457,0.43240252137184143,-1.7454413175582886,-0.2157244235277176,1.284618854522705
8.38378381729126,-0.1970321238040924,-0.7928969264030457,0.43240252137184143,-1.7454413175582886,-0.2157244235277176,1.284618854522705
8.40390682220459,-0.1970321238040924,-0.7928969264030457,0.43240252137184143,-1.7454413175582886,-0.2157244235277176,1.284618854522705
8.423930883407593,-0.1970321238040924,-0.7928969264030457,0.43240252137184143,-1.7454413175582886,-0.2157244235277176,1.284618854522705
8.444076538085938,-0.1970321238040924,-0.7928969264030457,0.43240252137184143,-1.745059847831726,-0.2157244235277176,1.284618854522705
8.464115619659424,-0.1970321238040924,-0.7928969264030457,0.43240252137184143,-1.745059847831726,-0.2157244235277176,1.284618854522705
8.484266757965088,-0.1970321238040924,-0.7928969264030457,0.43240252137184143,-1.745059847831726,-0.2157244235277176,1.284618854522705
8.504266023635864,-0.1970321238040924,-0.7928969264030457,0.43240252137184143,-1.7454413175582886,-0.2157244235277176,1.284618854522705
8.524377822875977,-0.1970321238040924,-0.7928969264030457,0.43240252137184143,-1.7454413175582886,-0.2157244235277176,1.284618854522705
8.544440746307373,-0.1970321238040924,-0.7928969264030457,0.43240252137184143,-1.745059847831726,-0.2157244235277176,1.284618854522705
8.564550638198853,-0.1970321238040924,-0.7928969264030457,0.43240252137184143,-1.745059847831726,-0.2157244235277176,1.284618854522705
8.584578037261963,-0.1970321238040924,-0.7928969264030457,0.43240252137184143,-1.745059847831726,-0.2157244235277176,1.284618854522705
8.604658603668213,-0.1970321238040924,-0.7928969264030457,0.43240252137184143,-1.745059847831726,-0.2157244235277176,1.284618854522705
8.624926090240479,-0.1970321238040924,-0.7928969264030457,0.43240252137184143,-1.745059847831726,-0.2157244235277176,1.284618854522705
8.644875526428223,-0.1970321238040924,-0.7928969264030457,0.43240252137184143,-1.745059847831726,-0.2157244235277176,1.284618854522705
8.665642976760864,-0.1970321238040924,-0.7928969264030457,0.43240252137184143,-1.745059847831726,-0.2157244235277176,1.284618854522705
8.68569278717041,-0.1970321238040924,-0.7928969264030457,0.43240252137184143,-1.7454413175582886,-0.2157244235277176,1.284618854522705
8.705825090408325,-0.1970321238040924,-0.7928969264030457,0.43240252137184143,-1.745059847831726,-0.2157244235277176,1.284618854522705
8.725842952728271,-0.1970321238040924,-0.7932783961296082,0.43240252137184143,-1.745059847831726,-0.2157244235277176,1.284618854522705
8.745917558670044,-0.1970321238040924,-0.7928969264030457,0.43240252137184143,-1.745059847831726,-0.2157244235277176,1.284618854522705
8.76598596572876,-0.1970321238040924,-0.7928969264030457,0.43240252137184143,-1.745059847831726,-0.2157244235277176,1.284618854522705
8.786057233810425,-0.1970321238040924,-0.7928969264030457,0.43240252137184143,-1.745059847831726,-0.2157244235277176,1.284618854522705
8.806100368499756,-0.1970321238040924,-0.7928969264030457,0.43240252137184143,-1.7454413175582886,-0.2157244235277176,1.284618854522705
8.8262197971344,-0.1970321238040924,-0.7928969264030457,0.43240252137184143,-1.745059847831726,-0.2157244235277176,1.284618854522705
8.84627079963684,-0.1970321238040924,-0.7928969264030457,0.43240252137184143,-1.745059847831726,-0.2157244235277176,1.284618854522705
8.866374731063843,-0.1970321238040924,-0.7928969264030457,0.43240252137184143,-1.7454413175582886,-0.2157244235277176,1.284618854522705
8.886433601379395,-0.1970321238040924,-0.7928969264030457,0.43240252137184143,-1.7454413175582886,-0.2157244235277176,1.284618854522705
8.906529903411865,-0.1970321238040924,-0.7928969264030457,0.43240252137184143,-1.745059847831726,-0.2157244235277176,1.284618854522705
8.926562309265137,-0.1970321238040924,-0.7932783961296082,0.43240252137184143,-1.7454413175582886,-0.2157244235277176,1.284618854522705
8.9467134475708,-0.1970321238040924,-0.7928969264030457,0.43240252137184143,-1.745059847831726,-0.2157244235277176,1.284618854522705
8.966799974441528,-0.1970321238040924,-0.7928969264030457,0.43240252137184143,-1.745059847831726,-0.2157244235277176,1.284618854522705
8.98686957359314,-0.1970321238040924,-0.7928969264030457,0.43240252137184143,-1.7454413175582886,-0.2157244235277176,1.284618854522705
9.007001399993896,-0.1970321238040924,-0.7928969264030457,0.43240252137184143,-1.7454413175582886,-0.2157244235277176,1.284618854522705
9.027133226394653,-0.1970321238040924,-0.7928969264030457,0.43240252137184143,-1.745059847831726,-0.2157244235277176,1.284618854522705
9.04726505279541,-0.1970321238040924,-0.7928969264030457,0.43240252137184143,-1.7454413175582886,-0.2157244235277176,1.284618854522705
9.06767749786377,-0.1970321238040924,-0.7932783961296082,0.43240252137184143,-1.745059847831726,-0.2157244235277176,1.284618854522705
9.087847232818604,-0.1970321238040924,-0.7928969264030457,0.43240252137184143,-1.7454413175582886,-0.2157244235277176,1.284618854522705
9.107951879501343,-0.1970321238040924,-0.7928969264030457,0.43240252137184143,-1.7454413175582886,-0.2157244235277176,1.284618854522705
9.128032684326172,-0.1970321238040924,-0.7928969264030457,0.43240252137184143,-1.745059847831726,-0.2157244235277176,1.284618854522705
9.14807653427124,-0.1970321238040924,-0.7928969264030457,0.43240252137184143,-1.745059847831726,-0.2157244235277176,1.284618854522705
9.168138980865479,-0.1970321238040924,-0.7928969264030457,0.43240252137184143,-1.7454413175582886,-0.2157244235277176,1.284618854522705
9.188244581222534,-0.1970321238040924,-0.7928969264030457,0.43240252137184143,-1.7454413175582886,-0.2157244235277176,1.284618854522705
9.208284139633179,-0.1970321238040924,-0.7928969264030457,0.43240252137184143,-1.7454413175582886,-0.2157244235277176,1.284618854522705
9.228446245193481,-0.1970321238040924,-0.7928969264030457,0.43240252137184143,-1.7454413175582886,-0.2157244235277176,1.284618854522705
9.248646974563599,-0.1970321238040924,-0.7928969264030457,0.43240252137184143,-1.745059847831726,-0.2157244235277176,1.284618854522705
9.26865291595459,-0.1970321238040924,-0.7928969264030457,0.43240252137184143,-1.7454413175582886,-0.2157244235277176,1.284618854522705
9.288748264312744,-0.1970321238040924,-0.7928969264030457,0.43240252137184143,-1.7454413175582886,-0.2157244235277176,1.284618854522705
9.308805704116821,-0.1970321238040924,-0.7928969264030457,0.43240252137184143,-1.745059847831726,-0.2157244235277176,1.284618854522705
9.328943729400635,-0.1970321238040924,-0.7932783961296082,0.43240252137184143,-1.745059847831726,-0.2157244235277176,1.284618854522705
9.349029302597046,-0.1970321238040924,-0.7932783961296082,0.43240252137184143,-1.745059847831726,-0.2157244235277176,1.284618854522705
9.369152545928955,-0.1970321238040924,-0.7928969264030457,0.43240252137184143,-1.7454413175582886,-0.2157244235277176,1.284618854522705
9.38923978805542,-0.1970321238040924,-0.7932783961296082,0.43240252137184143,-1.745059847831726,-0.2157244235277176,1.284618854522705
9.409408569335938,-0.1970321238040924,-0.7928969264030457,0.43240252137184143,-1.745059847831726,-0.2157244235277176,1.284618854522705
9.429405212402344,-0.1970321238040924,-0.7928969264030457,0.43240252137184143,-1.7454413175582886,-0.2157244235277176,1.284618854522705
9.449459552764893,-0.1970321238040924,-0.7928969264030457,0.43240252137184143,-1.7454413175582886,-0.2157244235277176,1.284618854522705
9.469553470611572,-0.1970321238040924,-0.7928969264030457,0.43240252137184143,-1.745059847831726,-0.2157244235277176,1.284618854522705
9.489685535430908,-0.1970321238040924,-0.7928969264030457,0.43240252137184143,-1.745059847831726,-0.2157244235277176,1.284618854522705
9.509826421737671,-0.1970321238040924,-0.7928969264030457,0.43240252137184143,-1.745059847831726,-0.2157244235277176,1.284618854522705
9.529835224151611,-0.1970321238040924,-0.7932783961296082,0.43240252137184143,-1.745059847831726,-0.2157244235277176,1.284618854522705
9.549901723861694,-0.1970321238040924,-0.7928969264030457,0.43240252137184143,-1.745059847831726,-0.2157244235277176,1.284618854522705
9.569953680038452,-0.1970321238040924,-0.7928969264030457,0.43240252137184143,-1.745059847831726,-0.2157244235277176,1.284618854522705
9.590075969696045,-0.1970321238040924,-0.7928969264030457,0.43240252137184143,-1.7454413175582886,-0.2157244235277176,1.284618854522705
9.6101553440094,-0.1970321238040924,-0.7928969264030457,0.43240252137184143,-1.745059847831726,-0.2157244235277176,1.284618854522705
9.630266904830933,-0.1970321238040924,-0.7928969264030457,0.43240252137184143,-1.745059847831726,-0.2157244235277176,1.284618854522705
9.650330543518066,-0.1970321238040924,-0.7928969264030457,0.43240252137184143,-1.745059847831726,-0.2157244235277176,1.284618854522705
9.670485973358154,-0.1970321238040924,-0.7928969264030457,0.43240252137184143,-1.745059847831726,-0.2157244235277176,1.284618854522705
9.69049882888794,-0.1970321238040924,-0.7928969264030457,0.43240252137184143,-1.745059847831726,-0.2157244235277176,1.284618854522705
9.710628747940063,-0.1970321238040924,-0.7928969264030457,0.43240252137184143,-1.745059847831726,-0.2157244235277176,1.284618854522705
9.730721950531006,-0.1970321238040924,-0.7928969264030457,0.43240252137184143,-1.745059847831726,-0.2157244235277176,1.284618854522705
9.750794410705566,-0.1970321238040924,-0.7928969264030457,0.43240252137184143,-1.7454413175582886,-0.2157244235277176,1.284618854522705
9.770908832550049,-0.1970321238040924,-0.7928969264030457,0.43240252137184143,-1.7454413175582886,-0.2157244235277176,1.284618854522705
9.79099702835083,-0.1970321238040924,-0.7928969264030457,0.43240252137184143,-1.745059847831726,-0.2157244235277176,1.284618854522705
9.811100959777832,-0.1970321238040924,-0.7928969264030457,0.43240252137184143,-1.745059847831726,-0.2157244235277176,1.284618854522705
9.831202983856201,-0.1970321238040924,-0.7928969264030457,0.43240252137184143,-1.745059847831726,-0.2157244235277176,1.284618854522705
9.85124921798706,-0.1970321238040924,-0.7928969264030457,0.43240252137184143,-1.745059847831726,-0.2157244235277176,1.284618854522705
9.871411800384521,-0.1970321238040924,-0.7928969264030457,0.43240252137184143,-1.745059847831726,-0.2157244235277176,1.284618854522705
9.891464710235596,-0.1970321238040924,-0.7928969264030457,0.43240252137184143,-1.745059847831726,-0.2157244235277176,1.284618854522705
9.911588668823242,-0.1970321238040924,-0.7928969264030457,0.43240252137184143,-1.745059847831726,-0.2157244235277176,1.284618854522705
9.931725025177002,-0.1970321238040924,-0.7928969264030457,0.43240252137184143,-1.745059847831726,-0.2157244235277176,1.284618854522705
9.951850414276123,-0.1970321238040924,-0.7928969264030457,0.43240252137184143,-1.745059847831726,-0.2157244235277176,1.284618854522705
9.971901655197144,-0.1970321238040924,-0.7928969264030457,0.43240252137184143,-1.745059847831726,-0.2157244235277176,1.284618854522705
9.991935968399048,-0.1970321238040924,-0.7928969264030457,0.43240252137184143,-1.745059847831726,-0.2157244235277176,1.284618854522705
10.01224970817566,-0.1970321238040924,-0.7928969264030457,0.43240252137184143,-1.745059847831726,-0.2157244235277176,1.284618854522705
10.032291173934937,-0.1970321238040924,-0.7928969264030457,0.43240252137184143,-1.745059847831726,-0.2157244235277176,1.284618854522705
10.05232858657837,-0.1970321238040924,-0.7928969264030457,0.43240252137184143,-1.745059847831726,-0.2157244235277176,1.284618854522705
10.072510957717896,-0.1970321238040924,-0.7928969264030457,0.43240252137184143,-1.745059847831726,-0.2157244235277176,1.284618854522705
10.09253478050232,-0.1970321238040924,-0.7928969264030457,0.43240252137184143,-1.745059847831726,-0.2157244235277176,1.284618854522705
10.112585306167603,-0.1970321238040924,-0.7928969264030457,0.43240252137184143,-1.745059847831726,-0.2157244235277176,1.284618854522705
10.132647514343262,-0.1970321238040924,-0.7928969264030457,0.43240252137184143,-1.745059847831726,-0.2157244235277176,1.284618854522705
10.152783155441284,-0.1970321238040924,-0.7928969264030457,0.43240252137184143,-1.7454413175582886,-0.2157244235277176,1.284618854522705
10.172815799713135,-0.1970321238040924,-0.7928969264030457,0.43240252137184143,-1.745059847831726,-0.2157244235277176,1.284618854522705
10.192915916442871,-0.1970321238040924,-0.7928969264030457,0.43240252137184143,-1.7454413175582886,-0.2157244235277176,1.284618854522705
10.213490962982178,-0.1970321238040924,-0.7928969264030457,0.43240252137184143,-1.745059847831726,-0.2157244235277176,1.284618854522705
10.23361086845398,-0.1970321238040924,-0.7928969264030457,0.43240252137184143,-1.7454413175582886,-0.2157244235277176,1.284618854522705
10.25364899635315,-0.1970321238040924,-0.7928969264030457,0.43240252137184143,-1.745059847831726,-0.2157244235277176,1.284618854522705
10.273794889450073,-0.1970321238040924,-0.7928969264030457,0.43240252137184143,-1.745059847831726,-0.2157244235277176,1.284618854522705
10.293822765350342,-0.1970321238040924,-0.7928969264030457,0.43240252137184143,-1.7454413175582886,-0.2157244235277176,1.284618854522705
10.313930988311768,-0.1970321238040924,-0.7932783961296082,0.43240252137184143,-1.745059847831726,-0.2157244235277176,1.284618854522705
10.334005117416382,-0.1970321238040924,-0.7928969264030457,0.43240252137184143,-1.745059847831726,-0.2157244235277176,1.284618854522705
10.354055404663086,-0.1970321238040924,-0.7928969264030457,0.43240252137184143,-1.745059847831726,-0.2157244235277176,1.284618854522705
10.374123334884644,-0.1970321238040924,-0.7928969264030457,0.43240252137184143,-1.7454413175582886,-0.2157244235277176,1.284618854522705
10.394267797470093,-0.1970321238040924,-0.7928969264030457,0.43240252137184143,-1.745059847831726,-0.2157244235277176,1.284618854522705
10.414531946182251,-0.1970321238040924,-0.7928969264030457,0.43240252137184143,-1.745059847831726,-0.2157244235277176,1.284618854522705
10.434448957443237,-0.1970321238040924,-0.7928969264030457,0.43240252137184143,-1.745059847831726,-0.2157244235277176,1.284618854522705
10.454545021057129,-0.1970321238040924,-0.7932783961296082,0.43240252137184143,-1.745059847831726,-0.2157244235277176,1.284618854522705
10.474684000015259,-0.1970321238040924,-0.7928969264030457,0.43240252137184143,-1.7454413175582886,-0.2157244235277176,1.284618854522705
10.494692087173462,-0.1970321238040924,-0.7928969264030457,0.43240252137184143,-1.745059847831726,-0.2157244235277176,1.284618854522705
10.515042066574097,-0.1970321238040924,-0.7928969264030457,0.43240252137184143,-1.745059847831726,-0.2157244235277176,1.284618854522705
10.535181283950806,-0.1970321238040924,-0.7928969264030457,0.43240252137184143,-1.745059847831726,-0.2157244235277176,1.284618854522705
10.555217742919922,-0.1970321238040924,-0.7928969264030457,0.43240252137184143,-1.745059847831726,-0.2157244235277176,1.284618854522705
10.575359344482422,-0.1970321238040924,-0.7928969264030457,0.43240252137184143,-1.745059847831726,-0.2157244235277176,1.284618854522705
10.595385551452637,-0.1970321238040924,-0.7928969264030457,0.43240252137184143,-1.745059847831726,-0.2157244235277176,1.284618854522705
10.61557388305664,-0.1970321238040924,-0.7928969264030457,0.43240252137184143,-1.745059847831726,-0.2157244235277176,1.284618854522705
10.635580778121948,-0.1970321238040924,-0.7928969264030457,0.43240252137184143,-1.745059847831726,-0.2157244235277176,1.284618854522705
10.655632495880127,-0.1970321238040924,-0.7928969264030457,0.43240252137184143,-1.745059847831726,-0.2157244235277176,1.284618854522705
10.675718069076538,-0.1970321238040924,-0.7928969264030457,0.43240252137184143,-1.745059847831726,-0.2157244235277176,1.284618854522705
10.695780992507935,-0.1970321238040924,-0.7928969264030457,0.43240252137184143,-1.745059847831726,-0.2157244235277176,1.284618854522705
10.715856313705444,-0.1970321238040924,-0.7928969264030457,0.43240252137184143,-1.7454413175582886,-0.2157244235277176,1.284618854522705
10.736117839813232,-0.1970321238040924,-0.7928969264030457,0.43240252137184143,-1.745059847831726,-0.2157244235277176,1.284618854522705
10.756256103515625,-0.1970321238040924,-0.7928969264030457,0.43240252137184143,-1.745059847831726,-0.2157244235277176,1.284618854522705
10.776276350021362,-0.1970321238040924,-0.7928969264030457,0.43240252137184143,-1.745059847831726,-0.2157244235277176,1.284618854522705
10.79634714126587,-0.1970321238040924,-0.7928969264030457,0.43240252137184143,-1.745059847831726,-0.2157244235277176,1.284618854522705
10.816429376602173,-0.1970321238040924,-0.7928969264030457,0.43240252137184143,-1.745059847831726,-0.2157244235277176,1.284618854522705
10.836505651473999,-0.1970321238040924,-0.7928969264030457,0.43240252137184143,-1.745059847831726,-0.2157244235277176,1.284618854522705
10.856561422348022,-0.1970321238040924,-0.7928969264030457,0.43240252137184143,-1.745059847831726,-0.2157244235277176,1.284618854522705
10.876640319824219,-0.1970321238040924,-0.7928969264030457,0.43240252137184143,-1.745059847831726,-0.2157244235277176,1.284618854522705
10.896862506866455,-0.1970321238040924,-0.7928969264030457,0.43240252137184143,-1.745059847831726,-0.2161058932542801,1.284618854522705
10.916894674301147,-0.1970321238040924,-0.7932783961296082,0.43240252137184143,-1.7454413175582886,-0.2157244235277176,1.284618854522705
10.937087774276733,-0.1970321238040924,-0.7928969264030457,0.43240252137184143,-1.745059847831726,-0.2157244235277176,1.284618854522705
10.957226037979126,-0.1970321238040924,-0.7928969264030457,0.43240252137184143,-1.745059847831726,-0.2157244235277176,1.284618854522705
10.97734808921814,-0.1970321238040924,-0.7928969264030457,0.43240252137184143,-1.745059847831726,-0.2157244235277176,1.284618854522705
10.997349977493286,-0.1970321238040924,-0.7928969264030457,0.43240252137184143,-1.745059847831726,-0.2157244235277176,1.284618854522705
11.017549276351929,-0.1970321238040924,-0.7928969264030457,0.43240252137184143,-1.745059847831726,-0.2157244235277176,1.284618854522705
11.037652254104614,-0.1970321238040924,-0.7928969264030457,0.43240252137184143,-1.745059847831726,-0.2157244235277176,1.284618854522705
11.057640552520752,-0.1970321238040924,-0.7928969264030457,0.43240252137184143,-1.745059847831726,-0.2157244235277176,1.284618854522705
11.07780385017395,-0.1970321238040924,-0.7928969264030457,0.43240252137184143,-1.745059847831726,-0.2157244235277176,1.284618854522705
11.097889423370361,-0.1970321238040924,-0.7928969264030457,0.43240252137184143,-1.745059847831726,-0.2157244235277176,1.284618854522705
11.11815881729126,-0.1970321238040924,-0.7928969264030457,0.43240252137184143,-1.745059847831726,-0.2157244235277176,1.284618854522705
11.13815426826477,-0.1970321238040924,-0.7928969264030457,0.43240252137184143,-1.745059847831726,-0.2157244235277176,1.284618854522705
11.158369779586792,-0.1970321238040924,-0.7928969264030457,0.43240252137184143,-1.745059847831726,-0.2157244235277176,1.284618854522705
11.178548574447632,-0.1970321238040924,-0.7928969264030457,0.43240252137184143,-1.745059847831726,-0.2157244235277176,1.284618854522705
11.198601007461548,-0.1970321238040924,-0.7928969264030457,0.43240252137184143,-1.745059847831726,-0.2157244235277176,1.284618854522705
11.218637228012085,-0.1970321238040924,-0.7928969264030457,0.43240252137184143,-1.745059847831726,-0.2157244235277176,1.284618854522705
11.23872184753418,-0.1970321238040924,-0.7928969264030457,0.43240252137184143,-1.745059847831726,-0.2157244235277176,1.284618854522705
11.258869171142578,-0.1970321238040924,-0.7928969264030457,0.43240252137184143,-1.745059847831726,-0.2157244235277176,1.284618854522705
11.278882265090942,-0.1970321238040924,-0.7928969264030457,0.43240252137184143,-1.745059847831726,-0.2157244235277176,1.284618854522705
11.299067258834839,-0.1970321238040924,-0.7928969264030457,0.43240252137184143,-1.745059847831726,-0.2157244235277176,1.284618854522705
11.319117546081543,-0.1970321238040924,-0.7928969264030457,0.43240252137184143,-1.745059847831726,-0.2157244235277176,1.284618854522705
11.339282989501953,-0.1970321238040924,-0.7928969264030457,0.43240252137184143,-1.745059847831726,-0.2157244235277176,1.284618854522705
11.359447717666626,-0.1970321238040924,-0.7928969264030457,0.43240252137184143,-1.745059847831726,-0.2157244235277176,1.284618854522705
11.379426956176758,-0.1970321238040924,-0.7928969264030457,0.43240252137184143,-1.745059847831726,-0.2157244235277176,1.284618854522705
11.399631023406982,-0.1970321238040924,-0.7928969264030457,0.43240252137184143,-1.745059847831726,-0.2157244235277176,1.284618854522705
11.419759511947632,-0.1970321238040924,-0.7928969264030457,0.43240252137184143,-1.745059847831726,-0.2157244235277176,1.284618854522705
11.439757347106934,-0.1970321238040924,-0.7928969264030457,0.43240252137184143,-1.745059847831726,-0.2157244235277176,1.284618854522705
11.459980010986328,-0.1970321238040924,-0.7932783961296082,0.43240252137184143,-1.745059847831726,-0.2157244235277176,1.284618854522705
11.480000495910645,-0.1970321238040924,-0.7928969264030457,0.43240252137184143,-1.745059847831726,-0.2157244235277176,1.284618854522705
11.500095129013062,-0.1970321238040924,-0.7928969264030457,0.43240252137184143,-1.745059847831726,-0.2157244235277176,1.284618854522705
11.520180940628052,-0.1970321238040924,-0.7932783961296082,0.43240252137184143,-1.745059847831726,-0.2157244235277176,1.284618854522705
11.540246963500977,-0.1970321238040924,-0.7928969264030457,0.43240252137184143,-1.745059847831726,-0.2157244235277176,1.284618854522705
11.560303449630737,-0.1970321238040924,-0.7928969264030457,0.43240252137184143,-1.745059847831726,-0.2157244235277176,1.284618854522705
11.58038878440857,-0.1970321238040924,-0.7928969264030457,0.43240252137184143,-1.745059847831726,-0.2157244235277176,1.284618854522705
11.600450038909912,-0.1970321238040924,-0.7928969264030457,0.43240252137184143,-1.745059847831726,-0.2157244235277176,1.284618854522705
11.6205415725708,-0.1970321238040924,-0.7928969264030457,0.43240252137184143,-1.745059847831726,-0.2157244235277176,1.284618854522705
11.640644788742065,-0.1970321238040924,-0.7928969264030457,0.43240252137184143,-1.745059847831726,-0.2157244235277176,1.284618854522705
11.660698175430298,-0.1970321238040924,-0.7928969264030457,0.43240252137184143,-1.745059847831726,-0.2157244235277176,1.284618854522705
11.680782556533813,-0.1970321238040924,-0.7928969264030457,0.43240252137184143,-1.745059847831726,-0.2157244235277176,1.284618854522705
11.70078992843628,-0.1970321238040924,-0.7932783961296082,0.43240252137184143,-1.745059847831726,-0.2157244235277176,1.284618854522705
11.720929145812988,-0.1970321238040924,-0.7928969264030457,0.43240252137184143,-1.745059847831726,-0.2157244235277176,1.284618854522705
11.741008281707764,-0.1970321238040924,-0.7928969264030457,0.43240252137184143,-1.745059847831726,-0.2157244235277176,1.284618854522705
11.761088371276855,-0.1970321238040924,-0.7928969264030457,0.43240252137184143,-1.745059847831726,-0.2157244235277176,1.284618854522705
11.781158447265625,-0.1970321238040924,-0.7928969264030457,0.43240252137184143,-1.7454413175582886,-0.2157244235277176,1.284618854522705
11.801230192184448,-0.1970321238040924,-0.7928969264030457,0.43240252137184143,-1.745059847831726,-0.2157244235277176,1.284618854522705
11.82136344909668,-0.1970321238040924,-0.7928969264030457,0.43240252137184143,-1.745059847831726,-0.2157244235277176,1.284618854522705
11.841395378112793,-0.1966506391763687,-0.7940413355827332,0.4331654906272888,-1.745059847831726,-0.2145799994468689,1.284618854522705
11.861539840698242,-0.1966506391763687,-0.7944228053092957,0.4339284300804138,-1.745059847831726,-0.2153429538011551,1.284618854522705
11.881761074066162,-0.1966506391763687,-0.7948042750358582,0.4339284300804138,-1.745059847831726,-0.2149614691734314,1.284618854522705
11.901750087738037,-0.1966506391763687,-0.7948042750358582,0.4343098998069763,-1.7446783781051636,-0.2145799994468689,1.284618854522705
11.921856880187988,-0.1966506391763687,-0.7948042750358582,0.4343098998069763,-1.7446783781051636,-0.2149614691734314,1.284618854522705
11.941912412643433,-0.1966506391763687,-0.7951858043670654,0.4350728690624237,-1.7446783781051636,-0.2141985148191452,1.284618854522705
11.96208667755127,-0.1966506391763687,-0.7951858043670654,0.4354543387889862,-1.744296908378601,-0.2145799994468689,1.284618854522705
11.982080936431885,-0.1966506391763687,-0.7951858043670654,0.4362172782421112,-1.7439154386520386,-0.2138170450925827,1.284618854522705
12.002159833908081,-0.1962691694498062,-0.7951858043670654,0.4365987777709961,-1.743533968925476,-0.2145799994468689,1.284618854522705
12.022217988967896,-0.19550621509552002,-0.7955672740936279,0.4369802474975586,-1.743533968925476,-0.2141985148191452,1.284618854522705
12.042336225509644,-0.19512474536895752,-0.7959487438201904,0.4373617172241211,-1.7431524991989136,-0.2149614691734314,1.2850003242492676
12.06240200996399,-0.19436179101467133,-0.7963302135467529,0.4381246566772461,-1.742771029472351,-0.2138170450925827,1.2850003242492676
12.082521915435791,-0.19321736693382263,-0.7963302135467529,0.438506156206131,-1.742008090019226,-0.212672621011734,1.2850003242492676
12.102644205093384,-0.19245441257953644,-0.7967116832733154,0.4388876259326935,-1.7408636808395386,-0.21229113638401031,1.2853819131851196
12.122760534286499,-0.19207294285297394,-0.7970931529998779,0.4396505653858185,-1.739719271659851,-0.2138170450925827,1.2853819131851196
12.142837285995483,-0.19130998849868774,-0.7970931529998779,0.440032035112381,-1.7393378019332886,-0.2138170450925827,1.2853819131851196
12.163029909133911,-0.19092851877212524,-0.7970931529998779,0.4404135048389435,-1.738956332206726,-0.2134355753660202,1.2857633829116821
12.183105230331421,-0.19016556441783905,-0.7970931529998779,0.44079500436782837,-1.7381932735443115,-0.2134355753660202,1.2857633829116821
12.203187465667725,-0.18940261006355286,-0.7970931529998779,0.44117647409439087,-1.737811803817749,-0.212672621011734,1.2861448526382446
12.223259210586548,-0.18940261006355286,-0.7970931529998779,0.44117647409439087,-1.7359044551849365,-0.212672621011734,1.2861448526382446
12.243319272994995,-0.18902114033699036,-0.7974746227264404,0.44155794382095337,-1.7359044551849365,-0.2130540907382965,1.2861448526382446
12.263450384140015,-0.18863965570926666,-0.7974746227264404,0.44232088327407837,-1.735522985458374,-0.212672621011734,1.2861448526382446
12.28349256515503,-0.18863965570926666,-0.7982375621795654,0.44270238280296326,-1.7351415157318115,-0.212672621011734,1.2861448526382446
12.303659915924072,-0.18825818598270416,-0.7986190319061279,0.44346532225608826,-1.7343785762786865,-0.212672621011734,1.2865263223648071
12.323684453964233,-0.18787670135498047,-0.7990005612373352,0.44346532225608826,-1.733234167098999,-0.212672621011734,1.2865263223648071
12.343784809112549,-0.18711376190185547,-0.7990005612373352,0.44384679198265076,-1.7320897579193115,-0.21229113638401031,1.2865263223648071
12.363925218582153,-0.18635080754756927,-0.7993820309638977,0.44460976123809814,-1.731708288192749,-0.21152819693088531,1.2869077920913696
12.383931636810303,-0.18558785319328308,-0.7993820309638977,0.44499123096466064,-1.7313268184661865,-0.21114671230316162,1.2869077920913696
12.403996467590332,-0.1844434291124344,-0.7993820309638977,0.44537270069122314,-1.730945348739624,-0.21114671230316162,1.2869077920913696
12.42424988746643,-0.1840619444847107,-0.7993820309638977,0.44575417041778564,-1.7301822900772095,-0.21152819693088531,1.2869077920913696
12.444367170333862,-0.1836804747581482,-0.7993820309638977,0.44651713967323303,-1.729800820350647,-0.21076524257659912,1.2869077920913696
12.464545488357544,-0.1825360506772995,-0.7997635006904602,0.44689860939979553,-1.729037880897522,-0.21114671230316162,1.2869077920913696
12.484620571136475,-0.182154580950737,-0.8005264401435852,0.44728007912635803,-1.7278934717178345,-0.21152819693088531,1.2872892618179321
12.504674434661865,-0.1817730963230133,-0.8005264401435852,0.44766154885292053,-1.7278934717178345,-0.21114671230316162,1.2872892618179321
12.524742126464844,-0.1817730963230133,-0.8009079098701477,0.44766154885292053,-1.727512001991272,-0.21076524257659912,1.2872892618179321
12.544859409332275,-0.1810101419687271,-0.8009079098701477,0.4484245181083679,-1.7271305322647095,-0.21038375794887543,1.2872892618179321
12.56494402885437,-0.1802472025156021,-0.8012893795967102,0.4491874575614929,-1.725986123085022,-0.21114671230316162,1.2872892618179321
12.585027694702148,-0.17948424816131592,-0.8012893795967102,0.4495689272880554,-1.725223183631897,-0.21076524257659912,1.2876707315444946
12.605103731155396,-0.17948424816131592,-0.8012893795967102,0.4499503970146179,-1.724460244178772,-0.21076524257659912,1.2876707315444946
12.62522006034851,-0.17872129380702972,-0.8016708493232727,0.4507133662700653,-1.7240787744522095,-0.21038375794887543,1.2876707315444946
12.645408630371094,-0.17833982408046722,-0.8016708493232727,0.4510948359966278,-1.7240787744522095,-0.21076524257659912,1.2876707315444946
12.665433645248413,-0.17795833945274353,-0.8020523190498352,0.4514763057231903,-1.723697304725647,-0.21076524257659912,1.2876707315444946
12.685651779174805,-0.17681391537189484,-0.8024337887763977,0.4518577754497528,-1.722934365272522,-0.21076524257659912,1.2876707315444946
12.705777168273926,-0.17605096101760864,-0.802815318107605,0.4530022144317627,-1.7214083671569824,-0.21000228822231293,1.2876707315444946
12.72581148147583,-0.17528800666332245,-0.8031967878341675,0.4533836841583252,-1.7206454277038574,-0.20962081849575043,1.2880522012710571
12.745882272720337,-0.17452506721019745,-0.80357825756073,0.4537651538848877,-1.7206454277038574,-0.21000228822231293,1.2880522012710571
12.766045093536377,-0.17452506721019745,-0.80357825756073,0.4537651538848877,-1.720263957977295,-0.21076524257659912,1.2880522012710571
12.786059856414795,-0.17376211285591125,-0.80357825756073,0.4549095928668976,-1.7198824882507324,-0.21038375794887543,1.2884336709976196
12.806131601333618,-0.17376211285591125,-0.80357825756073,0.4549095928668976,-1.718738079071045,-0.21000228822231293,1.2884336709976196
12.826188087463379,-0.17376211285591125,-0.804341197013855,0.4552910625934601,-1.7175936698913574,-0.21000228822231293,1.2884336709976196
12.846283674240112,-0.17299915850162506,-0.804341197013855,0.4556725323200226,-1.7168307304382324,-0.21000228822231293,1.2884336709976196
12.866340398788452,-0.17261768877506256,-0.8047226667404175,0.4560540020465851,-1.71644926071167,-0.21038375794887543,1.2888151407241821
12.886428117752075,-0.17223620414733887,-0.8047226667404175,0.4560540020465851,-1.715686321258545,-0.20962081849575043,1.2888151407241821
12.906492948532104,-0.17185473442077637,-0.8047226667404175,0.4560540020465851,-1.71492338180542,-0.20962081849575043,1.2888151407241821
12.92658805847168,-0.17109178006649017,-0.80510413646698,0.45681697130203247,-1.7141603231430054,-0.20923933386802673,1.2891966104507446
12.946699857711792,-0.16994735598564148,-0.8054856061935425,0.45719844102859497,-1.7133973836898804,-0.21000228822231293,1.2891966104507446
12.966721534729004,-0.16956588625907898,-0.805867075920105,0.45796138048171997,-1.7130159139633179,-0.21000228822231293,1.2895780801773071
12.987118005752563,-0.1680399775505066,-0.805867075920105,0.45872434973716736,-1.7122529745101929,-0.20923933386802673,1.2903410196304321
13.007161617279053,-0.1676585078239441,-0.80663001537323,0.45910581946372986,-1.7107270956039429,-0.21000228822231293,1.2907224893569946
13.027239084243774,-0.1676585078239441,-0.80663001537323,0.45986875891685486,-1.7103456258773804,-0.20923933386802673,1.2907224893569946
13.047279119491577,-0.1672770231962204,-0.80663001537323,0.45986875891685486,-1.7099641561508179,-0.20923933386802673,1.2907224893569946
13.067442417144775,-0.1665140837430954,-0.8070115447044373,0.46063172817230225,-1.7095826864242554,-0.20962081849575043,1.2911039590835571
13.087498426437378,-0.1661325991153717,-0.8073930144309998,0.46139466762542725,-1.7088197469711304,-0.20923933386802673,1.2911039590835571
13.107583999633789,-0.1657511293888092,-0.8073930144309998,0.46177613735198975,-1.7084382772445679,-0.20962081849575043,1.2914854288101196
13.127667665481567,-0.1653696447610855,-0.8077744841575623,0.46215763688087463,-1.7072938680648804,-0.20962081849575043,1.2914854288101196
13.147754669189453,-0.1646067053079605,-0.8077744841575623,0.46292057633399963,-1.7065308094024658,-0.20885786414146423,1.2914854288101196
13.16778826713562,-0.16346226632595062,-0.8085374236106873,0.46330204606056213,-1.7061493396759033,-0.20962081849575043,1.2914854288101196
13.187939405441284,-0.16269932687282562,-0.8089188933372498,0.46368351578712463,-1.7057678699493408,-0.20962081849575043,1.2918668985366821
13.208092212677002,-0.16193637251853943,-0.8089188933372498,0.4640650153160095,-1.7053864002227783,-0.20885786414146423,1.2918668985366821
13.228140354156494,-0.16231784224510193,-0.8089188933372498,0.464446485042572,-1.7050049304962158,-0.20885786414146423,1.2918668985366821
13.248192548751831,-0.16155488789081573,-0.8096818327903748,0.465209424495697,-1.7042419910430908,-0.20885786414146423,1.2918668985366821
13.268263578414917,-0.16079194843769073,-0.8096818327903748,0.4659723937511444,-1.7027161121368408,-0.20962081849575043,1.2918668985366821
13.288347482681274,-0.16041046380996704,-0.8096818327903748,0.4663538634777069,-1.7023346424102783,-0.20923933386802673,1.2918668985366821
13.308391094207764,-0.16041046380996704,-0.8096818327903748,0.4663538634777069,-1.7023346424102783,-0.20923933386802673,1.2918668985366821
13.328596115112305,-0.16041046380996704,-0.8096818327903748,0.4667353332042694,-1.7019531726837158,-0.20923933386802673,1.2922483682632446
13.348673582077026,-0.15964750945568085,-0.810826301574707,0.4674982726573944,-1.7015717029571533,-0.20847637951374054,1.2922483682632446
13.368762969970703,-0.15926603972911835,-0.810826301574707,0.4678797721862793,-1.7011902332305908,-0.20885786414146423,1.2922483682632446
13.388885736465454,-0.15926603972911835,-0.8112077713012695,0.4682612419128418,-1.7004272937774658,-0.20885786414146423,1.2926298379898071
13.40899133682251,-0.15812161564826965,-0.811589241027832,0.4686427116394043,-1.6992828845977783,-0.20885786414146423,1.2926298379898071
13.429064273834229,-0.15735866129398346,-0.811589241027832,0.4690241813659668,-1.6981383562088013,-0.20885786414146423,1.2937743663787842
13.449127674102783,-0.15735866129398346,-0.8119707107543945,0.4694056510925293,-1.6977568864822388,-0.20771344006061554,1.2941558361053467
13.469429969787598,-0.15659570693969727,-0.8119707107543945,0.4697871506214142,-1.6973754167556763,-0.20809490978717804,1.2941558361053467
13.489574193954468,-0.15583276748657227,-0.8119707107543945,0.4705500900745392,-1.6966124773025513,-0.20885786414146423,1.2941558361053467
13.509622812271118,-0.15506981313228607,-0.8119707107543945,0.4709315598011017,-1.6947051286697388,-0.20885786414146423,1.2941558361053467
13.529671430587769,-0.15506981313228607,-0.8127336502075195,0.4713130295276642,-1.6947051286697388,-0.20847637951374054,1.2945373058319092
13.549773693084717,-0.15430685877799988,-0.8134965896606445,0.4716945290565491,-1.6943236589431763,-0.20885786414146423,1.2945373058319092
13.569831609725952,-0.15316243469715118,-0.813878059387207,0.4724574685096741,-1.6939421892166138,-0.20733195543289185,1.2945373058319092
13.589944839477539,-0.15316243469715118,-0.813878059387207,0.4724574685096741,-1.6935607194900513,-0.20771344006061554,1.2945373058319092
13.610231637954712,-0.1527809500694275,-0.813878059387207,0.4724574685096741,-1.6935607194900513,-0.20771344006061554,1.2949187755584717
13.630367994308472,-0.1520180106163025,-0.813878059387207,0.4732204079627991,-1.6927977800369263,-0.20809490978717804,1.2945373058319092
13.650537014007568,-0.1512550562620163,-0.813878059387207,0.4736018776893616,-1.6920348405838013,-0.20771344006061554,1.2949187755584717
13.670550107955933,-0.1508735716342926,-0.8142595291137695,0.47398337721824646,-1.6905088424682617,-0.20771344006061554,1.2953002452850342
13.69061541557312,-0.1501106321811676,-0.8146410584449768,0.47436484694480896,-1.6901273727416992,-0.20847637951374054,1.2953002452850342
13.71078896522522,-0.1493476778268814,-0.8150225281715393,0.47550925612449646,-1.6893644332885742,-0.20847637951374054,1.2953002452850342
13.730808734893799,-0.1489662081003189,-0.8154039978981018,0.47589075565338135,-1.6882200241088867,-0.20733195543289185,1.2953002452850342
13.75098729133606,-0.14782176911830902,-0.8157854676246643,0.47589075565338135,-1.6874570846557617,-0.20809490978717804,1.2953002452850342
13.771073341369629,-0.14744029939174652,-0.8157854676246643,0.47627222537994385,-1.6866941452026367,-0.20771344006061554,1.2956817150115967
13.791221380233765,-0.14629587531089783,-0.8157854676246643,0.47665369510650635,-1.6863126754760742,-0.20771344006061554,1.2953002452850342
13.811238288879395,-0.14591439068317413,-0.8161669373512268,0.47741663455963135,-1.6863126754760742,-0.20695048570632935,1.2956817150115967
13.831303834915161,-0.14591439068317413,-0.8161669373512268,0.47779813408851624,-1.6859312057495117,-0.20809490978717804,1.2956817150115967
13.851439476013184,-0.14553292095661163,-0.8161669373512268,0.47856107354164124,-1.6851682662963867,-0.20771344006061554,1.2960631847381592
13.87160873413086,-0.14515145123004913,-0.8169298768043518,0.47894254326820374,-1.6836423873901367,-0.20847637951374054,1.2956817150115967
13.89168906211853,-0.14476996660232544,-0.8173113465309143,0.47932401299476624,-1.6828793287277222,-0.20695048570632935,1.2960631847381592
13.911681890487671,-0.14438849687576294,-0.8173113465309143,0.4797055125236511,-1.6828793287277222,-0.20656901597976685,1.2960631847381592
13.931770086288452,-0.14362554252147675,-0.8176928162574768,0.4804684519767761,-1.6821163892745972,-0.20656901597976685,1.2964446544647217
13.951916694641113,-0.14286258816719055,-0.8180742859840393,0.4808499217033386,-1.6805905103683472,-0.20771344006061554,1.2964446544647217
13.972080707550049,-0.14209964871406555,-0.8180742859840393,0.4812313914299011,-1.6802090406417847,-0.20733195543289185,1.2968261241912842
13.992172241210938,-0.14133669435977936,-0.8180742859840393,0.4819943606853485,-1.6802090406417847,-0.20656901597976685,1.2968261241912842
14.012281656265259,-0.14095520973205566,-0.8184558153152466,0.4819943606853485,-1.6794461011886597,-0.20656901597976685,1.2968261241912842
14.032396793365479,-0.14057374000549316,-0.8188372850418091,0.482375830411911,-1.6790646314620972,-0.20695048570632935,1.2972075939178467
14.052514553070068,-0.14057374000549316,-0.8192187547683716,0.4827573001384735,-1.6786831617355347,-0.20771344006061554,1.2975890636444092
14.072673082351685,-0.14019227027893066,-0.8192187547683716,0.483138769865036,-1.6779202222824097,-0.20656901597976685,1.2979705333709717
14.092817544937134,-0.13942931592464447,-0.8192187547683716,0.4835202693939209,-1.6763943433761597,-0.20618753135204315,1.2979705333709717
14.112835884094238,-0.13866636157035828,-0.8196002244949341,0.4839017391204834,-1.6756312847137451,-0.20618753135204315,1.2983520030975342
14.132908344268799,-0.13828489184379578,-0.8199816942214966,0.4846646785736084,-1.6752498149871826,-0.20656901597976685,1.2983520030975342
14.153002738952637,-0.13752193748950958,-0.8203631639480591,0.4846646785736084,-1.6748683452606201,-0.20733195543289185,1.2983520030975342
14.173038482666016,-0.1359960287809372,-0.8207446336746216,0.4850461483001709,-1.6744868755340576,-0.20695048570632935,1.2987334728240967
14.193116664886475,-0.1356145590543747,-0.8215075731277466,0.4858091175556183,-1.6729609966278076,-0.20656901597976685,1.2987334728240967
14.213244915008545,-0.135233074426651,-0.8215075731277466,0.4861905872821808,-1.6721980571746826,-0.20542457699775696,1.2987334728240967
14.23327350616455,-0.134470134973526,-0.8215075731277466,0.4865720570087433,-1.6718165874481201,-0.20542457699775696,1.2991149425506592
14.25345778465271,-0.1340886503458023,-0.8218890428543091,0.4869535267353058,-1.6710536479949951,-0.20695048570632935,1.2991149425506592
14.273630380630493,-0.1333257108926773,-0.8218890428543091,0.4877164959907532,-1.6706721782684326,-0.20618753135204315,1.2991149425506592
14.293589115142822,-0.1325627565383911,-0.8222705721855164,0.4880979657173157,-1.6695277690887451,-0.20580606162548065,1.2991149425506592
14.313677072525024,-0.13141833245754242,-0.8222705721855164,0.4880979657173157,-1.6687648296356201,-0.20580606162548065,1.2991149425506592
14.33378529548645,-0.13103684782981873,-0.8226520419120789,0.4884794354438782,-1.6680018901824951,-0.20580606162548065,1.2994964122772217
14.353882074356079,-0.13065537810325623,-0.8234149813652039,0.4892423748970032,-1.6680018901824951,-0.20656901597976685,1.2994964122772217
14.37397813796997,-0.13027389347553253,-0.8237964510917664,0.48962387442588806,-1.667620301246643,-0.20542457699775696,1.2994964122772217
14.394032716751099,-0.12989242374897003,-0.8241779208183289,0.49038681387901306,-1.6664758920669556,-0.20542457699775696,1.2994964122772217
14.414150953292847,-0.12912946939468384,-0.8241779208183289,0.49076828360557556,-1.6649500131607056,-0.20466163754463196,1.2998778820037842
14.434209823608398,-0.12874799966812134,-0.8241779208183289,0.49114975333213806,-1.6641870737075806,-0.20504310727119446,1.2998778820037842
14.454349279403687,-0.12798504531383514,-0.8249408602714539,0.49229419231414795,-1.663805603981018,-0.20466163754463196,1.2998778820037842
14.474406719207764,-0.12798504531383514,-0.8253223299980164,0.49229419231414795,-1.663042664527893,-0.20618753135204315,1.3002593517303467
14.4945228099823,-0.12645913660526276,-0.8260852694511414,0.49305713176727295,-1.662279725074768,-0.20542457699775696,1.3006408214569092
14.514635801315308,-0.12569619715213776,-0.8260852694511414,0.49305713176727295,-1.660753846168518,-0.20466163754463196,1.3010224103927612
14.534662961959839,-0.12569619715213776,-0.8260852694511414,0.49382010102272034,-1.6603723764419556,-0.20351719856262207,1.3014038801193237
