liuyurong129/humanoid-gym/humanoid/data/actual_q_20250522-013130.csv
timestamp,joint_1,joint_2,joint_3,joint_4,joint_5,joint_6
0.00013947486877441406,-0.00019073777366429567,0.15583276748657227,-0.07953765243291855,0.05092698708176613,-0.02727550081908703,-0.021171892061829567
0.0202333927154541,-0.00019073777366429567,0.1325627565383911,-0.06847485899925232,0.04596780240535736,-0.022697795182466507,-0.020027466118335724
0.04030656814575195,-0.00019073777366429567,0.11501488089561462,-0.06160829961299896,0.040627144277095795,-0.021553369238972664,-0.01735713705420494
0.060366153717041016,-0.00019073777366429567,0.1035706102848053,-0.054741740226745605,0.03643091395497322,-0.020027466118335724,-0.013542382046580315
0.08043551445007324,-0.00019073777366429567,0.09174486994743347,-0.04787518084049225,0.03299763426184654,-0.018120087683200836,-0.013542382046580315
0.1005094051361084,-0.00019073777366429567,0.08258945494890213,-0.042153049260377884,0.028038453310728073,-0.015449759550392628,-0.013160906732082367
0.12061119079589844,-0.00019073777366429567,0.07801175117492676,-0.03681239113211632,0.026131074875593185,-0.01506828423589468,-0.013160906732082367
0.14068150520324707,-0.00019073777366429567,0.07763027399778366,-0.03452353551983833,0.025749599561095238,-0.01506828423589468,-0.012779430486261845
0.16082525253295898,-0.00019073777366429567,0.07534141838550568,-0.032616160809993744,0.025749599561095238,-0.01506828423589468,-0.01201647985726595
0.18091773986816406,-0.00019073777366429567,0.07457847148180008,-0.02994582988321781,0.02536812424659729,-0.014686808921396732,-0.01125352829694748
0.20099353790283203,-0.00019073777366429567,0.07343403995037079,-0.02727550081908703,0.02536812424659729,-0.014686808921396732,-0.010490577667951584
0.2213139533996582,-0.00019073777366429567,0.07381551712751389,-0.024223696440458298,0.024605173617601395,-0.01506828423589468,-0.010109102353453636
0.2414107322692871,-0.00019073777366429567,0.07343403995037079,-0.019645990803837776,0.02384222112596035,-0.01506828423589468,-0.009727626107633114
0.261486291885376,-0.00019073777366429567,0.07305257022380829,-0.016594186425209045,0.02231631986796856,-0.01506828423589468,-0.009346150793135166
0.28154778480529785,-0.00019073777366429567,0.0722896158695221,-0.013923857361078262,0.02193484455347061,-0.015449759550392628,-0.00858320016413927
0.30169105529785156,-0.00019073777366429567,0.0711451917886734,-0.010490577667951584,0.021171892061829567,-0.01506828423589468,-0.007057297509163618
0.3217136859893799,-0.00019073777366429567,0.07038223743438721,-0.007057297509163618,0.02040894143283367,-0.01506828423589468,-0.00667582219466567
0.34175658226013184,-0.00019073777366429567,0.06961929053068161,-0.0036240178160369396,0.019645990803837776,-0.01506828423589468,-0.00667582219466567
0.3618507385253906,-0.00019073777366429567,0.06809338182210922,0.000572213320992887,0.018501564860343933,-0.01506828423589468,-0.006294346414506435
0.38193178176879883,-0.00019073777366429567,0.06771191209554672,0.004005493130534887,0.018120087683200836,-0.014686808921396732,-0.005912871100008488
0.4020063877105713,-0.00019073777366429567,0.06694895774126053,0.007057297509163618,0.01735713705420494,-0.01506828423589468,-0.005149920005351305
0.42207932472229004,-0.00019073777366429567,0.06580453366041183,0.011635004542768002,0.016212711110711098,-0.015449759550392628,-0.00476844422519207
0.4421563148498535,-0.00019073777366429567,0.06466010212898254,0.014686808921396732,0.01506828423589468,-0.01506828423589468,-0.0032425422687083483
0.4622199535369873,-0.00019073777366429567,0.06427863240242004,0.01888304017484188,0.01430533267557621,-0.01506828423589468,-0.002861066721379757
0.4823031425476074,-0.00019073777366429567,0.06198977679014206,0.023460745811462402,0.013542382046580315,-0.014686808921396732,-0.0024795911740511656
0.5024025440216064,-0.00019073777366429567,0.06084534898400307,0.02727550081908703,0.012779430486261845,-0.014686808921396732,-0.001716639962978661
0.5224483013153076,-0.00019073777366429567,0.06046387553215027,0.030708782374858856,0.010490577667951584,-0.014686808921396732,0.00019073777366429567
0.5425276756286621,-0.00019073777366429567,0.05855649709701538,0.03643091395497322,0.010109102353453636,-0.014686808921396732,0.0013351644156500697
0.5625956058502197,-0.000572213320992887,0.05664911866188049,0.04100862145423889,0.00858320016413927,-0.014686808921396732,0.0020981156267225742
0.5826544761657715,-0.000572213320992887,0.05397878959774971,0.04711223021149635,0.007438773289322853,-0.014686808921396732,0.0036240178160369396
0.602869987487793,-0.000572213320992887,0.05092698708176613,0.05359731614589691,0.00667582219466567,-0.014686808921396732,0.004386968910694122
0.6229610443115234,-0.000572213320992887,0.048256658017635345,0.06008239835500717,0.006294346414506435,-0.01430533267557621,0.005149920005351305
0.6430611610412598,-0.000572213320992887,0.046730753034353256,0.06504157930612564,0.005149920005351305,-0.014686808921396732,0.005912871100008488
0.6633303165435791,-0.000572213320992887,0.04444190114736557,0.071908138692379,0.0032425422687083483,-0.01430533267557621,0.007438773289322853
0.6834182739257812,-0.000572213320992887,0.04100862145423889,0.07877469807863235,0.0024795911740511656,-0.014686808921396732,0.008964675478637218
0.7034873962402344,-0.0009536888683214784,0.03757534176111221,0.086785688996315,0.00019073777366429567,-0.01430533267557621,0.010490577667951584
0.7235672473907471,-0.0009536888683214784,0.03337911143898964,0.09708552807569504,-0.000572213320992887,-0.013923857361078262,0.012397955171763897
0.7436563968658447,-0.0013351644156500697,0.027656977996230125,0.11043716967105865,-0.0020981156267225742,-0.013923857361078262,0.013542382046580315
0.7637767791748047,-0.001716639962978661,0.01926451548933983,0.12645913660526276,-0.00476844422519207,-0.013160906732082367,0.01583123579621315
0.7838010787963867,-0.001716639962978661,0.005149920005351305,0.14705882966518402,-0.008201723918318748,-0.012397955171763897,0.018501564860343933
0.8038840293884277,-0.001716639962978661,-0.010872052982449532,0.17452506721019745,-0.01125352829694748,-0.010872052982449532,0.022697795182466507
0.8239536285400391,-0.001716639962978661,-0.02880140393972397,0.20428015291690826,-0.016212711110711098,-0.010109102353453636,0.029564354568719864
0.844085693359375,-0.0024795911740511656,-0.05207141116261482,0.23594263195991516,-0.020027466118335724,-0.008201723918318748,0.03337911143898964
0.8641080856323242,-0.0013351644156500697,-0.07839322835206985,0.27065691351890564,-0.022697795182466507,-0.007057297509163618,0.0398641936480999
0.8842513561248779,0.0009536888683214784,-0.11120012402534485,0.3084229826927185,-0.02536812424659729,-0.007438773289322853,0.046730753034353256
0.9042682647705078,0.004386968910694122,-0.14553292095661163,0.34504464268684387,-0.027656977996230125,-0.006294346414506435,0.051689937710762024
0.9253318309783936,0.009727626107633114,-0.1832990050315857,0.38357365131378174,-0.030708782374858856,-0.005912871100008488,0.057793546468019485
0.9454941749572754,0.01506828423589468,-0.22106507420539856,0.4236285984516144,-0.03337911143898964,-0.006294346414506435,0.06466010212898254
0.9655420780181885,0.02040894143283367,-0.2626459002494812,0.4694056510925293,-0.037193864583969116,-0.005149920005351305,0.07267109304666519
0.9855914115905762,0.025749599561095238,-0.30193790793418884,0.5102235674858093,-0.0394827201962471,-0.001716639962978661,0.07839322835206985
1.0056707859039307,0.030708782374858856,-0.3400854468345642,0.5529488325119019,-0.043678950518369675,0.0009536888683214784,0.08487831056118011
1.0257947444915771,0.03452353551983833,-0.3747997283935547,0.5903334021568298,-0.046730753034353256,0.0020981156267225742,0.09136339277029037
1.0458319187164307,0.03681239113211632,-0.4064621925354004,0.6261920928955078,-0.04940108209848404,0.005149920005351305,0.09670405089855194
1.0659105777740479,0.039101243019104004,-0.4377431869506836,0.6589990258216858,-0.05207141116261482,0.0078202486038208,0.10204470902681351
1.0859851837158203,0.04139009863138199,-0.4682612419128418,0.6868467330932617,-0.05436026677489281,0.008201723918318748,0.10929274559020996
1.1060633659362793,0.04482337832450867,-0.49458304047584534,0.7104982137680054,-0.058175019919872284,0.005912871100008488,0.1184481605887413
1.1261272430419922,0.04940108209848404,-0.5144197940826416,0.7280460596084595,-0.06313420087099075,0.004005493130534887,0.13027389347553253
1.1462154388427734,0.05130846053361893,-0.5239566564559937,0.734912633895874,-0.07267109304666519,0.0020981156267225742,0.14782176911830902
1.1662867069244385,0.050164032727479935,-0.5254825949668884,0.7360570430755615,-0.07724879682064056,0.0032425422687083483,0.15926603972911835
1.1863787174224854,0.04711223021149635,-0.5243381261825562,0.7360570430755615,-0.08106355369091034,0.005531395319849253,0.17032882571220398
1.206531286239624,0.0394827201962471,-0.5212863087654114,0.7372015118598938,-0.08487831056118011,0.00858320016413927,0.17795833945274353
1.2265996932983398,0.02689402550458908,-0.5140383243560791,0.7364385724067688,-0.09212634712457657,0.015449759550392628,0.18596932291984558
1.2466931343078613,0.01735713705420494,-0.507553219795227,0.734149694442749,-0.10776684433221817,0.01735713705420494,0.20733195543289185
1.2668333053588867,0.007057297509163618,-0.5014495849609375,0.7318608164787292,-0.11768520623445511,0.018120087683200836,0.2283131182193756
1.28688645362854,-0.002861066721379757,-0.4976348578929901,0.7307164072990417,-0.12760357558727264,0.013160906732082367,0.25120165944099426
1.3069467544555664,-0.005912871100008488,-0.4964904189109802,0.7307164072990417,-0.134470134973526,0.008201723918318748,0.27180132269859314
1.3270320892333984,-0.00858320016413927,-0.4964904189109802,0.7307164072990417,-0.14133669435977936,0.007057297509163618,0.28896772861480713
1.347154140472412,-0.010109102353453636,-0.49458304047584534,0.7307164072990417,-0.1493476778268814,0.008201723918318748,0.3072785437107086
1.367194414138794,-0.01125352829694748,-0.49114975333213806,0.7291905283927917,-0.15926603972911835,0.012779430486261845,0.3271152675151825
1.3873140811920166,-0.024605173617601395,-0.4835202693939209,0.726901650428772,-0.16880293190479279,0.03223468363285065,0.34733349084854126
1.4074101448059082,-0.034142062067985535,-0.47627222537994385,0.7230868935585022,-0.17948424816131592,0.037193864583969116,0.36488136649131775
1.4275696277618408,-0.03833829239010811,-0.4713130295276642,0.7223239541053772,-0.18749523162841797,0.04253452271223068,0.3778515160083771
1.4475936889648438,-0.04100862145423889,-0.4663538634777069,0.7211795449256897,-0.19169145822525024,0.040627144277095795,0.3919661343097687
1.4677693843841553,-0.04177157208323479,-0.46368351578712463,0.7207980751991272,-0.1958876997232437,0.03604944050312042,0.4037918746471405
1.487776279449463,-0.04100862145423889,-0.46368351578712463,0.7196536064147949,-0.20084688067436218,0.029564354568719864,0.4179064631462097
1.5078401565551758,-0.03681239113211632,-0.4640650153160095,0.7192721366882324,-0.20504310727119446,0.027656977996230125,0.43011367321014404
1.5279242992401123,-0.03795681521296501,-0.46215763688087463,0.7196536064147949,-0.21190966665744781,0.031090257689356804,0.44575417041778564
1.5480265617370605,-0.04253452271223068,-0.46063172817230225,0.7173647880554199,-0.22030213475227356,0.04406042397022247,0.46215763688087463
1.5680675506591797,-0.04406042397022247,-0.4545281231403351,0.7139315009117126,-0.22793163359165192,0.05359731614589691,0.47627222537994385
1.5881824493408203,-0.04444190114736557,-0.4514763057231903,0.7131685614585876,-0.23517967760562897,0.058175019919872284,0.49343863129615784
1.6082267761230469,-0.04444190114736557,-0.4488059878349304,0.7108796834945679,-0.23937590420246124,0.05893797054886818,0.5098420977592468
1.6282944679260254,-0.04406042397022247,-0.44766154885292053,0.7089722752571106,-0.2454795092344284,0.0551232174038887,0.5262455344200134
1.6484076976776123,-0.04100862145423889,-0.44804301857948303,0.7078278660774231,-0.25196459889411926,0.05207141116261482,0.54264897108078
1.668532133102417,-0.040627144277095795,-0.4503318965435028,0.7089722752571106,-0.2588311731815338,0.05054550990462303,0.5590524077415466
1.6885645389556885,-0.04444190114736557,-0.4549095928668976,0.7089722752571106,-0.2641718089580536,0.05397878959774971,0.5754558444023132
1.7086410522460938,-0.04253452271223068,-0.45834288001060486,0.7089722752571106,-0.26836803555488586,0.05436026677489281,0.5853742361068726
1.7287118434906006,-0.03604944050312042,-0.45948728919029236,0.7124055624008179,-0.273708701133728,0.05436026677489281,0.5971999764442444
1.748781681060791,-0.03299763426184654,-0.46025025844573975,0.7139315009117126,-0.2779049277305603,0.05855649709701538,0.6078813076019287
1.7689080238342285,-0.03757534176111221,-0.45872434973716736,0.7146944403648376,-0.2813382148742676,0.06008239835500717,0.6174181699752808
1.788959264755249,-0.03681239113211632,-0.45757991075515747,0.7143129706382751,-0.28667888045310974,0.05893797054886818,0.6261920928955078
1.8090167045593262,-0.03376058489084244,-0.45796138048171997,0.7146944403648376,-0.2920195460319519,0.059319447726011276,0.6364919543266296
1.8290982246398926,-0.037193864583969116,-0.45834288001060486,0.7146944403648376,-0.2954528033733368,0.05741206929087639,0.6490806341171265
1.8491756916046143,-0.03604944050312042,-0.46101319789886475,0.7146944403648376,-0.29888609051704407,0.05245288833975792,0.6601434350013733
1.8692409992218018,-0.03376058489084244,-0.4648279547691345,0.7196536064147949,-0.30308231711387634,0.05283436179161072,0.6712062358856201
1.8894059658050537,-0.03299763426184654,-0.4697871506214142,0.7181277275085449,-0.3084229826927185,0.05092698708176613,0.6822690367698669
1.909484624862671,-0.02689402550458908,-0.4724574685096741,0.7177462577819824,-0.3133821487426758,0.04634927958250046,0.690280020236969
1.929560899734497,-0.024986648932099342,-0.4720759987831116,0.7173647880554199,-0.31643396615982056,0.05283436179161072,0.699816882610321
1.9498522281646729,-0.029564354568719864,-0.4736018776893616,0.7177462577819824,-0.32024872303009033,0.05397878959774971,0.7055390477180481
1.9699652194976807,-0.029182879254221916,-0.47627222537994385,0.7192721366882324,-0.3255893886089325,0.054741740226745605,0.7127870321273804
1.9900615215301514,-0.02841992862522602,-0.47741663455963135,0.7215610146522522,-0.3286411762237549,0.05359731614589691,0.7196536064147949
2.0101230144500732,-0.03452353551983833,-0.47932401299476624,0.7230868935585022,-0.33131152391433716,0.05245288833975792,0.7291905283927917
2.030242681503296,-0.03604944050312042,-0.4812313914299011,0.7234683632850647,-0.33360037207603455,0.04749370738863945,0.7337682247161865
2.0503013134002686,-0.03223468363285065,-0.4842832088470459,0.725375771522522,-0.33512628078460693,0.04558632895350456,0.7394903302192688
2.0707924365997314,-0.03223468363285065,-0.4880979657173157,0.728427529335022,-0.3381780683994293,0.03833829239010811,0.7475013136863708
2.0909345149993896,-0.03299763426184654,-0.49343863129615784,0.7318608164787292,-0.3408484160900116,0.0398641936480999,0.7532234787940979
2.1109530925750732,-0.029182879254221916,-0.4957274794578552,0.7345311641693115,-0.3435187339782715,0.04634927958250046,0.7566567659378052
2.131743907928467,-0.02880140393972397,-0.4964904189109802,0.7360570430755615,-0.34618905186653137,0.0551232174038887,0.7612344622612
2.151839017868042,-0.02841992862522602,-0.4964904189109802,0.7337682247161865,-0.34847790002822876,0.05664911866188049,0.7661936283111572
2.171919822692871,-0.024223696440458298,-0.4972533881664276,0.7368200421333313,-0.3530556261539459,0.05703059583902359,0.7730602025985718
2.1921427249908447,-0.024986648932099342,-0.4976348578929901,0.7379644513130188,-0.3557259440422058,0.05741206929087639,0.7791637778282166
2.212233781814575,-0.02536812424659729,-0.499542236328125,0.7375829815864563,-0.3576333224773407,0.0551232174038887,0.7841230034828186
2.2323110103607178,-0.024605173617601395,-0.5018310546875,0.7402533292770386,-0.3599221706390381,0.05397878959774971,0.7890821695327759
2.252366781234741,-0.02841992862522602,-0.5029755234718323,0.7413977384567261,-0.361829549074173,0.05283436179161072,0.7955672740936279
2.2724757194519043,-0.02994582988321781,-0.506790280342102,0.7417792081832886,-0.36373692750930786,0.049782559275627136,0.8012893795967102
2.2925446033477783,-0.02689402550458908,-0.5102235674858093,0.7448310256004333,-0.36526283621788025,0.05092698708176613,0.8054856061935425
2.3125879764556885,-0.022697795182466507,-0.5148012638092041,0.7486457824707031,-0.36755168437957764,0.050164032727479935,0.810826301574707
2.332681179046631,-0.02384222112596035,-0.5163271427154541,0.7497901916503906,-0.36793315410614014,0.050164032727479935,0.8157854676246643
2.3527462482452393,-0.02079041674733162,-0.5174715518951416,0.7501716613769531,-0.3717479109764099,0.05436026677489281,0.8207446336746216
2.372814893722534,-0.02079041674733162,-0.5170900821685791,0.7497901916503906,-0.3744182586669922,0.0558861680328846,0.8249408602714539
2.392899990081787,-0.027656977996230125,-0.5174715518951416,0.7497901916503906,-0.3755626678466797,0.05397878959774971,0.8283741474151611
2.4129655361175537,-0.029182879254221916,-0.5182345509529114,0.7501716613769531,-0.3767071068286896,0.05207141116261482,0.8306630253791809
2.4330501556396484,-0.026131074875593185,-0.5216678380966187,0.7516975402832031,-0.37823301553726196,0.050164032727479935,0.8333333134651184
2.453110456466675,-0.024986648932099342,-0.5262455344200134,0.7562752962112427,-0.37937742471694946,0.04329747334122658,0.839436948299408
2.473182439804077,-0.023460745811462402,-0.5296788215637207,0.7570382356643677,-0.38014039397239685,0.04139009863138199,0.8440146446228027
2.493238687515259,-0.018501564860343933,-0.5315861701965332,0.7585641145706177,-0.38357365131378174,0.03643091395497322,0.8463035225868225
2.513331174850464,-0.024605173617601395,-0.5331120491027832,0.760471522808075,-0.3854810297489166,0.048638131469488144,0.8508812189102173
2.5334012508392334,-0.024605173617601395,-0.535400927066803,0.7589455842971802,-0.387006938457489,0.046730753034353256,0.8516441583633423
2.5534679889678955,-0.02079041674733162,-0.5365453362464905,0.7631418108940125,-0.3896772861480713,0.05359731614589691,0.8543145060539246
2.5737197399139404,-0.02727550081908703,-0.5384527444839478,0.7661936283111572,-0.3896772861480713,0.0551232174038887,0.8588922023773193
2.5938024520874023,-0.02880140393972397,-0.54112309217453,0.7688639760017395,-0.3904402256011963,0.04940108209848404,0.8588922023773193
2.613840103149414,-0.024986648932099342,-0.54112309217453,0.7703898549079895,-0.3908216953277588,0.04596780240535736,0.8596551418304443
2.634289264678955,-0.02994582988321781,-0.5430304408073425,0.770771324634552,-0.3912031650543213,0.0394827201962471,0.8627069592475891
2.654371738433838,-0.03833829239010811,-0.5445563197135925,0.7715343236923218,-0.3934920132160187,0.04177157208323479,0.8653773069381714
2.6744537353515625,-0.03795681521296501,-0.5464637279510498,0.7715343236923218,-0.39425498247146606,0.04444190114736557,0.8657587766647339
2.6945059299468994,-0.035667963325977325,-0.5491340756416321,0.7738231420516968,-0.39501792192459106,0.048638131469488144,0.8672846555709839
2.7145934104919434,-0.03452353551983833,-0.5514228940010071,0.7745860815048218,-0.39501792192459106,0.04749370738863945,0.8691920638084412
2.734668254852295,-0.031090257689356804,-0.5506599545478821,0.7745860815048218,-0.39616236090660095,0.048256658017635345,0.8707179427146912
2.7547473907470703,-0.02880140393972397,-0.5491340756416321,0.7745860815048218,-0.39692530035972595,0.051689937710762024,0.8737697601318359
2.774871826171875,-0.034142062067985535,-0.5479896068572998,0.7749675512313843,-0.39730677008628845,0.0558861680328846,0.8764400482177734
2.7949140071868896,-0.03337911143898964,-0.5479896068572998,0.7730602025985718,-0.39806973934173584,0.05436026677489281,0.8764400482177734
2.814985513687134,-0.035667963325977325,-0.5472266674041748,0.7738231420516968,-0.39806973934173584,0.05741206929087639,0.8772030472755432
2.8352243900299072,-0.038719769567251205,-0.5479896068572998,0.7730602025985718,-0.39806973934173584,0.05397878959774971,0.8794918656349182
2.855315923690796,-0.035667963325977325,-0.5506599545478821,0.7734416723251343,-0.39806973934173584,0.05092698708176613,0.8806362748146057
2.8753809928894043,-0.03337911143898964,-0.5529488325119019,0.776493489742279,-0.39845120906829834,0.05054550990462303,0.8844510316848755
2.8956267833709717,-0.03223468363285065,-0.5544747114181519,0.7761120200157166,-0.39845120906829834,0.04901960864663124,0.8848325610160828
2.9157536029815674,-0.024223696440458298,-0.5537117719650269,0.778019368648529,-0.3999771177768707,0.045204851776361465,0.8848325610160828
2.935851812362671,-0.02193484455347061,-0.5518043637275696,0.778019368648529,-0.4007400572299957,0.0551232174038887,0.8863584399223328
2.955895185470581,-0.024605173617601395,-0.5495155453681946,0.7753490209579468,-0.4011215269565582,0.0551232174038887,0.8863584399223328
2.9760026931762695,-0.026131074875593185,-0.5491340756416321,0.7745860815048218,-0.4022659659385681,0.06313420087099075,0.8863584399223328
2.9960975646972656,-0.029182879254221916,-0.5495155453681946,0.7742046117782593,-0.404173344373703,0.06351567804813385,0.8875028491020203
3.0163533687591553,-0.03032730519771576,-0.5518043637275696,0.7761120200157166,-0.404173344373703,0.05436026677489281,0.8894102573394775
3.0364627838134766,-0.026131074875593185,-0.5579079985618591,0.7776378989219666,-0.404173344373703,0.04406042397022247,0.8916990756988525
3.0565249919891357,-0.02231631986796856,-0.5613412857055664,0.7833600640296936,-0.404173344373703,0.03795681521296501,0.8951323628425598
3.0765812397003174,-0.02727550081908703,-0.5628671646118164,0.7818341255187988,-0.404173344373703,0.040627144277095795,0.8985656499862671
3.0966718196868896,-0.024605173617601395,-0.5617227554321289,0.7810711860656738,-0.4045548141002655,0.04139009863138199,0.8985656499862671
3.116741418838501,-0.02727550081908703,-0.5590524077415466,0.7799267768859863,-0.4045548141002655,0.05130846053361893,0.8993285894393921
3.136800765991211,-0.02994582988321781,-0.5590524077415466,0.7784008383750916,-0.4045548141002655,0.051689937710762024,0.8989471197128296
3.156925916671753,-0.02841992862522602,-0.5594338774681091,0.7814526557922363,-0.4053177833557129,0.054741740226745605,0.8989471197128296
3.176971435546875,-0.029564354568719864,-0.5605783462524414,0.7795453071594238,-0.404936283826828,0.053215838968753815,0.9000915288925171
3.197044849395752,-0.02727550081908703,-0.5621042251586914,0.778019368648529,-0.404936283826828,0.04253452271223068,0.9019989371299744
3.217129945755005,-0.02536812424659729,-0.5636301040649414,0.7803082466125488,-0.404936283826828,0.04749370738863945,0.9035248160362244
3.2372119426727295,-0.031090257689356804,-0.5647745728492737,0.7799267768859863,-0.404936283826828,0.05283436179161072,0.9039062857627869
3.2572624683380127,-0.034142062067985535,-0.5655375123023987,0.7799267768859863,-0.4053177833557129,0.05054550990462303,0.9039062857627869
3.277364492416382,-0.030708782374858856,-0.5655375123023987,0.7799267768859863,-0.4056992530822754,0.054741740226745605,0.9039062857627869
3.297417640686035,-0.03032730519771576,-0.5655375123023987,0.7803082466125488,-0.4053177833557129,0.05397878959774971,0.9046692848205566
3.3174819946289062,-0.027656977996230125,-0.5663004517555237,0.7806897163391113,-0.4053177833557129,0.04901960864663124,0.9050507545471191
3.337568521499634,-0.024986648932099342,-0.5655375123023987,0.7806897163391113,-0.4053177833557129,0.049782559275627136,0.9054322242736816
3.3576414585113525,-0.026131074875593185,-0.5651560425758362,0.778782308101654,-0.4053177833557129,0.05092698708176613,0.9061951637268066
3.377703905105591,-0.020027466118335724,-0.5659189820289612,0.7810711860656738,-0.4060807228088379,0.051689937710762024,0.9061951637268066
3.397822141647339,-0.01888304017484188,-0.5659189820289612,0.7818341255187988,-0.4056992530822754,0.05855649709701538,0.9069581031799316
3.4180009365081787,-0.02193484455347061,-0.5659189820289612,0.7818341255187988,-0.4060807228088379,0.0555046908557415,0.9073395729064941
3.4379897117614746,-0.02079041674733162,-0.5655375123023987,0.7818341255187988,-0.4060807228088379,0.05703059583902359,0.9069581031799316
3.4580750465393066,-0.020027466118335724,-0.5655375123023987,0.7818341255187988,-0.4068436622619629,0.0551232174038887,0.9073395729064941
3.4781341552734375,-0.024605173617601395,-0.5674448609352112,0.7818341255187988,-0.4068436622619629,0.054741740226745605,0.9088655114173889
3.498276948928833,-0.01926451548933983,-0.5685893297195435,0.7814526557922363,-0.4083695709705353,0.04787518084049225,0.9088655114173889
3.5183537006378174,-0.021553369238972664,-0.5685893297195435,0.7829785346984863,-0.4083695709705353,0.053215838968753815,0.9096284508705139
3.538407564163208,-0.02880140393972397,-0.570496678352356,0.7825970649719238,-0.4087510406970978,0.0551232174038887,0.9103913903236389
3.558497190475464,-0.02880140393972397,-0.570496678352356,0.7829785346984863,-0.40951400995254517,0.054741740226745605,0.9096284508705139
3.5785629749298096,-0.02536812424659729,-0.5716410875320435,0.7848859429359436,-0.4091325104236603,0.05092698708176613,0.9103913903236389
3.5986411571502686,-0.029182879254221916,-0.5727855563163757,0.7860303521156311,-0.4083695709705353,0.050164032727479935,0.9107728600502014
3.6187427043914795,-0.030708782374858856,-0.5739299654960632,0.7860303521156311,-0.4091325104236603,0.045204851776361465,0.9107728600502014
3.638836622238159,-0.025749599561095238,-0.5750743746757507,0.7867932915687561,-0.4091325104236603,0.04253452271223068,0.9107728600502014
3.6588973999023438,-0.029182879254221916,-0.5746929049491882,0.7879377603530884,-0.4083695709705353,0.04444190114736557,0.9119172692298889
3.6790072917938232,-0.032616160809993744,-0.5758373141288757,0.7879377603530884,-0.4091325104236603,0.04749370738863945,0.9119172692298889
3.6991400718688965,-0.028038453310728073,-0.5758373141288757,0.7871748208999634,-0.4091325104236603,0.045204851776361465,0.9115357995033264
3.719155788421631,-0.029182879254221916,-0.5758373141288757,0.7890821695327759,-0.4091325104236603,0.04901960864663124,0.9126802682876587
3.7392611503601074,-0.031090257689356804,-0.5746929049491882,0.7864118218421936,-0.4087510406970978,0.05283436179161072,0.9126802682876587
3.759350061416626,-0.03299763426184654,-0.5739299654960632,0.7867932915687561,-0.40951400995254517,0.05130846053361893,0.9126802682876587
3.779397964477539,-0.03490501269698143,-0.5739299654960632,0.7871748208999634,-0.40951400995254517,0.050164032727479935,0.9126802682876587
3.7994914054870605,-0.034142062067985535,-0.5739299654960632,0.7879377603530884,-0.4091325104236603,0.049782559275627136,0.9126802682876587
3.8195645809173584,-0.03337911143898964,-0.5724040865898132,0.7871748208999634,-0.4091325104236603,0.05283436179161072,0.9126802682876587
3.8396334648132324,-0.026131074875593185,-0.5708781480789185,0.7860303521156311,-0.4091325104236603,0.04787518084049225,0.9126802682876587
3.859741687774658,-0.02727550081908703,-0.5693522691726685,0.7848859429359436,-0.4091325104236603,0.05245288833975792,0.9126802682876587
3.879817485809326,-0.027656977996230125,-0.568970799446106,0.7845044732093811,-0.4091325104236603,0.054741740226745605,0.9122987985610962
3.8998754024505615,-0.026512550190091133,-0.568970799446106,0.7841230034828186,-0.40951400995254517,0.0558861680328846,0.9122987985610962
3.91999888420105,-0.02880140393972397,-0.568970799446106,0.7841230034828186,-0.4091325104236603,0.05664911866188049,0.9122987985610962
3.940049648284912,-0.027656977996230125,-0.569733738899231,0.7848859429359436,-0.40951400995254517,0.0551232174038887,0.9126802682876587
3.9601340293884277,-0.024223696440458298,-0.5701152086257935,0.7860303521156311,-0.4091325104236603,0.04711223021149635,0.9130617380142212
3.980727434158325,-0.029182879254221916,-0.5708781480789185,0.7871748208999634,-0.4091325104236603,0.04787518084049225,0.9142061471939087
4.000827789306641,-0.02880140393972397,-0.572022557258606,0.7871748208999634,-0.4091325104236603,0.04444190114736557,0.9134432077407837
4.020901441574097,-0.026131074875593185,-0.5716410875320435,0.7883192300796509,-0.4091325104236603,0.04444190114736557,0.9134432077407837
4.04096531867981,-0.029564354568719864,-0.5708781480789185,0.7871748208999634,-0.40951400995254517,0.048638131469488144,0.9138246774673462
4.0610511302948,-0.02841992862522602,-0.570496678352356,0.7860303521156311,-0.40951400995254517,0.05207141116261482,0.9134432077407837
4.081128835678101,-0.029564354568719864,-0.570496678352356,0.7864118218421936,-0.40951400995254517,0.05397878959774971,0.9138246774673462
4.101187229156494,-0.03147173300385475,-0.5701152086257935,0.7852674126625061,-0.40951400995254517,0.050164032727479935,0.9134432077407837
4.121286153793335,-0.028038453310728073,-0.569733738899231,0.7852674126625061,-0.40951400995254517,0.04787518084049225,0.9134432077407837
4.141361474990845,-0.03299763426184654,-0.5693522691726685,0.7860303521156311,-0.4087510406970978,0.05245288833975792,0.9138246774673462
4.161421775817871,-0.035667963325977325,-0.5701152086257935,0.7860303521156311,-0.40951400995254517,0.048638131469488144,0.9134432077407837
4.18151593208313,-0.03337911143898964,-0.5701152086257935,0.7860303521156311,-0.40951400995254517,0.05130846053361893,0.9134432077407837
4.201579570770264,-0.034142062067985535,-0.5701152086257935,0.7860303521156311,-0.4091325104236603,0.04901960864663124,0.9142061471939087
4.221632957458496,-0.03299763426184654,-0.5716410875320435,0.7860303521156311,-0.40989547967910767,0.04787518084049225,0.9138246774673462
4.241936922073364,-0.035667963325977325,-0.570496678352356,0.7860303521156311,-0.40951400995254517,0.05397878959774971,0.9138246774673462
4.262035608291626,-0.040627144277095795,-0.569733738899231,0.7860303521156311,-0.40951400995254517,0.058175019919872284,0.9134432077407837
4.2821409702301025,-0.03490501269698143,-0.569733738899231,0.7860303521156311,-0.41027694940567017,0.0555046908557415,0.9130617380142212
4.302183389663696,-0.03032730519771576,-0.5693522691726685,0.7860303521156311,-0.40951400995254517,0.054741740226745605,0.9134432077407837
4.32227349281311,-0.03757534176111221,-0.5685893297195435,0.7856488823890686,-0.4087510406970978,0.057793546468019485,0.9138246774673462
4.342349052429199,-0.040245670825242996,-0.5685893297195435,0.7852674126625061,-0.40989547967910767,0.05664911866188049,0.9130617380142212
4.362412452697754,-0.03757534176111221,-0.568970799446106,0.7852674126625061,-0.40951400995254517,0.0558861680328846,0.9130617380142212
4.382509469985962,-0.03643091395497322,-0.5685893297195435,0.7856488823890686,-0.4087510406970978,0.054741740226745605,0.9138246774673462
4.402592897415161,-0.03528648987412453,-0.5678263306617737,0.7848859429359436,-0.4091325104236603,0.05664911866188049,0.9134432077407837
4.422653913497925,-0.03452353551983833,-0.5674448609352112,0.7845044732093811,-0.4091325104236603,0.06008239835500717,0.9130617380142212
4.442718744277954,-0.035667963325977325,-0.5663004517555237,0.7841230034828186,-0.4091325104236603,0.06084534898400307,0.9130617380142212
4.462810039520264,-0.031090257689356804,-0.5663004517555237,0.7845044732093811,-0.4091325104236603,0.06237125024199486,0.9130617380142212
4.482877016067505,-0.02841992862522602,-0.5663004517555237,0.7837415337562561,-0.4087510406970978,0.06046387553215027,0.9130617380142212
4.503003358840942,-0.03337911143898964,-0.5659189820289612,0.7833600640296936,-0.4087510406970978,0.059319447726011276,0.9130617380142212
4.523099184036255,-0.02880140393972397,-0.5666819214820862,0.7829785346984863,-0.4091325104236603,0.05359731614589691,0.9126802682876587
4.5431718826293945,-0.03147173300385475,-0.5674448609352112,0.7845044732093811,-0.4083695709705353,0.06237125024199486,0.9130617380142212
4.563228607177734,-0.03643091395497322,-0.5678263306617737,0.7845044732093811,-0.4083695709705353,0.057793546468019485,0.9130617380142212
4.583325386047363,-0.03337911143898964,-0.568970799446106,0.7871748208999634,-0.4087510406970978,0.06046387553215027,0.9130617380142212
4.603394985198975,-0.03337911143898964,-0.5693522691726685,0.7852674126625061,-0.4083695709705353,0.0551232174038887,0.9130617380142212
4.623459100723267,-0.037193864583969116,-0.5708781480789185,0.7860303521156311,-0.4076066315174103,0.05245288833975792,0.9134432077407837
4.643572568893433,-0.03223468363285065,-0.5716410875320435,0.7864118218421936,-0.4079881012439728,0.05397878959774971,0.9126802682876587
4.663741111755371,-0.02841992862522602,-0.5724040865898132,0.7867932915687561,-0.4076066315174103,0.053215838968753815,0.9130617380142212
4.683733701705933,-0.02994582988321781,-0.5727855563163757,0.7867932915687561,-0.4060807228088379,0.050164032727479935,0.9134432077407837
4.703820466995239,-0.021171892061829567,-0.5724040865898132,0.7860303521156311,-0.4064621925354004,0.05207141116261482,0.9126802682876587
4.723914623260498,-0.01926451548933983,-0.5716410875320435,0.7860303521156311,-0.4056992530822754,0.05436026677489281,0.9134432077407837
4.743985891342163,-0.025749599561095238,-0.5701152086257935,0.7856488823890686,-0.4056992530822754,0.056267641484737396,0.9130617380142212
4.7640416622161865,-0.02841992862522602,-0.569733738899231,0.7852674126625061,-0.4064621925354004,0.05855649709701538,0.9122987985610962
4.784134387969971,-0.026512550190091133,-0.5708781480789185,0.7852674126625061,-0.4064621925354004,0.0551232174038887,0.9122987985610962
4.8042144775390625,-0.026512550190091133,-0.5716410875320435,0.7864118218421936,-0.4056992530822754,0.05397878959774971,0.9130617380142212
4.824341535568237,-0.024986648932099342,-0.5731670260429382,0.7867932915687561,-0.4060807228088379,0.04711223021149635,0.9130617380142212
4.844432592391968,-0.021553369238972664,-0.5743114352226257,0.7902265787124634,-0.4060807228088379,0.04711223021149635,0.9134432077407837
4.8644959926605225,-0.02841992862522602,-0.5735484957695007,0.7879377603530884,-0.4056992530822754,0.05283436179161072,0.9134432077407837
4.884565114974976,-0.03376058489084244,-0.5727855563163757,0.7879377603530884,-0.4064621925354004,0.0551232174038887,0.9130617380142212
4.904784679412842,-0.029564354568719864,-0.5724040865898132,0.7867932915687561,-0.4079881012439728,0.05741206929087639,0.9126802682876587
4.924875020980835,-0.02841992862522602,-0.5727855563163757,0.7867932915687561,-0.4079881012439728,0.053215838968753815,0.9130617380142212
4.944947242736816,-0.029182879254221916,-0.5727855563163757,0.7864118218421936,-0.4079881012439728,0.053215838968753815,0.9134432077407837
4.965002536773682,-0.02689402550458908,-0.5727855563163757,0.7867932915687561,-0.4079881012439728,0.05359731614589691,0.9134432077407837
4.985089540481567,-0.02880140393972397,-0.5727855563163757,0.7887006998062134,-0.4079881012439728,0.05397878959774971,0.9134432077407837
5.00519323348999,-0.031090257689356804,-0.5727855563163757,0.7883192300796509,-0.4079881012439728,0.056267641484737396,0.9130617380142212
5.025259017944336,-0.02727550081908703,-0.5724040865898132,0.7887006998062134,-0.4079881012439728,0.05970092490315437,0.9130617380142212
5.045344591140747,-0.02841992862522602,-0.572022557258606,0.7887006998062134,-0.4079881012439728,0.05893797054886818,0.9130617380142212
5.0654072761535645,-0.03452353551983833,-0.5724040865898132,0.7879377603530884,-0.4079881012439728,0.061226826161146164,0.9130617380142212
5.085465908050537,-0.03223468363285065,-0.5743114352226257,0.7883192300796509,-0.4083695709705353,0.05970092490315437,0.9130617380142212
5.105715990066528,-0.029182879254221916,-0.5754558444023132,0.7898451089859009,-0.4083695709705353,0.05397878959774971,0.9138246774673462
5.125738143920898,-0.032616160809993744,-0.5746929049491882,0.7902265787124634,-0.4079881012439728,0.05397878959774971,0.9138246774673462
5.146175146102905,-0.02841992862522602,-0.5735484957695007,0.7898451089859009,-0.4083695709705353,0.05359731614589691,0.9134432077407837
5.166268587112427,-0.024223696440458298,-0.572022557258606,0.7902265787124634,-0.4083695709705353,0.05245288833975792,0.9138246774673462
5.186352968215942,-0.026512550190091133,-0.570496678352356,0.7890821695327759,-0.4083695709705353,0.05283436179161072,0.9134432077407837
5.206397294998169,-0.032616160809993744,-0.5693522691726685,0.7867932915687561,-0.4083695709705353,0.059319447726011276,0.9130617380142212
5.226519823074341,-0.032616160809993744,-0.569733738899231,0.7864118218421936,-0.4087510406970978,0.06313420087099075,0.9126802682876587
5.246587038040161,-0.028038453310728073,-0.5716410875320435,0.7864118218421936,-0.4083695709705353,0.056267641484737396,0.9126802682876587
5.266641616821289,-0.02994582988321781,-0.5724040865898132,0.7887006998062134,-0.4079881012439728,0.053215838968753815,0.9138246774673462
5.28673529624939,-0.031090257689356804,-0.5727855563163757,0.7894636392593384,-0.4079881012439728,0.05130846053361893,0.9134432077407837
5.306805849075317,-0.025749599561095238,-0.5724040865898132,0.7898451089859009,-0.4083695709705353,0.04749370738863945,0.9134432077407837
5.326857089996338,-0.021171892061829567,-0.5716410875320435,0.7902265787124634,-0.4079881012439728,0.045204851776361465,0.9138246774673462
5.34695291519165,-0.02689402550458908,-0.5701152086257935,0.7887006998062134,-0.4079881012439728,0.048256658017635345,0.9130617380142212
5.367019891738892,-0.030708782374858856,-0.569733738899231,0.7856488823890686,-0.4083695709705353,0.0551232174038887,0.9130617380142212
5.387131452560425,-0.026512550190091133,-0.569733738899231,0.7860303521156311,-0.4087510406970978,0.05970092490315437,0.9130617380142212
5.40717887878418,-0.02689402550458908,-0.5727855563163757,0.7864118218421936,-0.4079881012439728,0.05855649709701538,0.9134432077407837
5.427258491516113,-0.024223696440458298,-0.5731670260429382,0.7887006998062134,-0.4079881012439728,0.05397878959774971,0.9134432077407837
5.447321891784668,-0.01888304017484188,-0.5724040865898132,0.7883192300796509,-0.4079881012439728,0.046730753034353256,0.9134432077407837
5.467392921447754,-0.026512550190091133,-0.571259617805481,0.7890821695327759,-0.4079881012439728,0.04558632895350456,0.9142061471939087
5.487491130828857,-0.03299763426184654,-0.569733738899231,0.7890821695327759,-0.4087510406970978,0.048638131469488144,0.9134432077407837
5.507547378540039,-0.03299763426184654,-0.569733738899231,0.7887006998062134,-0.4087510406970978,0.053215838968753815,0.9126802682876587
5.527760982513428,-0.02841992862522602,-0.569733738899231,0.7890821695327759,-0.4083695709705353,0.05092698708176613,0.9130617380142212
5.547852039337158,-0.029564354568719864,-0.570496678352356,0.7890821695327759,-0.4083695709705353,0.04749370738863945,0.9134432077407837
5.567945957183838,-0.03376058489084244,-0.572022557258606,0.7894636392593384,-0.4083695709705353,0.04787518084049225,0.9134432077407837
5.587995529174805,-0.031090257689356804,-0.5727855563163757,0.7894636392593384,-0.4087510406970978,0.05207141116261482,0.9134432077407837
5.608084678649902,-0.03147173300385475,-0.5731670260429382,0.7898451089859009,-0.4083695709705353,0.04787518084049225,0.9134432077407837
5.628199338912964,-0.03376058489084244,-0.5731670260429382,0.7898451089859009,-0.4087510406970978,0.05092698708176613,0.9134432077407837
5.648842096328735,-0.02880140393972397,-0.5727855563163757,0.7894636392593384,-0.4087510406970978,0.05092698708176613,0.9130617380142212
5.668923854827881,-0.02994582988321781,-0.5724040865898132,0.7894636392593384,-0.4087510406970978,0.05397878959774971,0.9134432077407837
5.6889684200286865,-0.03223468363285065,-0.5716410875320435,0.7887006998062134,-0.4087510406970978,0.05245288833975792,0.9138246774673462
5.7092814445495605,-0.032616160809993744,-0.572022557258606,0.7883192300796509,-0.4087510406970978,0.05207141116261482,0.9134432077407837
5.729361534118652,-0.032616160809993744,-0.5727855563163757,0.7894636392593384,-0.4087510406970978,0.049782559275627136,0.9138246774673462
5.749462127685547,-0.02841992862522602,-0.5739299654960632,0.7894636392593384,-0.4087510406970978,0.04596780240535736,0.9138246774673462
5.77019739151001,-0.02880140393972397,-0.5731670260429382,0.7906080484390259,-0.4087510406970978,0.04711223021149635,0.9138246774673462
5.790292263031006,-0.03185320645570755,-0.5724040865898132,0.7902265787124634,-0.4087510406970978,0.04749370738863945,0.9134432077407837
5.81037163734436,-0.02841992862522602,-0.5727855563163757,0.7906080484390259,-0.4087510406970978,0.05130846053361893,0.9134432077407837
5.830709218978882,-0.023460745811462402,-0.5731670260429382,0.7902265787124634,-0.4087510406970978,0.05245288833975792,0.9134432077407837
5.850823163986206,-0.02536812424659729,-0.5735484957695007,0.7902265787124634,-0.4083695709705353,0.051689937710762024,0.9145876169204712
5.870930433273315,-0.022697795182466507,-0.5739299654960632,0.7898451089859009,-0.4091325104236603,0.050164032727479935,0.9134432077407837
5.890988349914551,-0.023460745811462402,-0.5739299654960632,0.7898451089859009,-0.4083695709705353,0.05092698708176613,0.9138246774673462
5.911084890365601,-0.025749599561095238,-0.5739299654960632,0.7894636392593384,-0.4091325104236603,0.049782559275627136,0.9145876169204712
5.931136846542358,-0.018120087683200836,-0.5739299654960632,0.7898451089859009,-0.40951400995254517,0.049782559275627136,0.9138246774673462
5.951333045959473,-0.013923857361078262,-0.5743114352226257,0.7902265787124634,-0.4087510406970978,0.05054550990462303,0.9149690866470337
5.971418380737305,-0.01735713705420494,-0.5735484957695007,0.7894636392593384,-0.4087510406970978,0.046730753034353256,0.9164950251579285
5.9914915561676025,-0.023079270496964455,-0.5735484957695007,0.7883192300796509,-0.4091325104236603,0.0551232174038887,0.9164950251579285
6.011555194854736,-0.019645990803837776,-0.5735484957695007,0.7879377603530884,-0.40951400995254517,0.0551232174038887,0.916113555431366
6.031658887863159,-0.02231631986796856,-0.5739299654960632,0.7887006998062134,-0.4091325104236603,0.054741740226745605,0.916876494884491
6.05173397064209,-0.02079041674733162,-0.5750743746757507,0.7887006998062134,-0.40951400995254517,0.04901960864663124,0.916876494884491
6.071799278259277,-0.016594186425209045,-0.5758373141288757,0.7898451089859009,-0.4091325104236603,0.04749370738863945,0.917639434337616
6.091889381408691,-0.02040894143283367,-0.5766003131866455,0.7902265787124634,-0.4087510406970978,0.046730753034353256,0.9180209040641785
6.111971139907837,-0.01926451548933983,-0.576981782913208,0.7906080484390259,-0.40951400995254517,0.04749370738863945,0.9172579646110535
6.13204026222229,-0.021171892061829567,-0.576218843460083,0.7902265787124634,-0.40951400995254517,0.05703059583902359,0.917639434337616
6.152101278305054,-0.022697795182466507,-0.5750743746757507,0.7883192300796509,-0.40951400995254517,0.05130846053361893,0.9172579646110535
6.172212362289429,-0.021171892061829567,-0.5750743746757507,0.7890821695327759,-0.40989547967910767,0.05397878959774971,0.9172579646110535
6.192233562469482,-0.024605173617601395,-0.5746929049491882,0.7871748208999634,-0.40951400995254517,0.05283436179161072,0.917639434337616
6.212384223937988,-0.023460745811462402,-0.5750743746757507,0.7871748208999634,-0.40951400995254517,0.04749370738863945,0.917639434337616
6.232468366622925,-0.024605173617601395,-0.5746929049491882,0.7871748208999634,-0.40951400995254517,0.04711223021149635,0.917639434337616
6.2525506019592285,-0.029182879254221916,-0.5746929049491882,0.7871748208999634,-0.40951400995254517,0.04940108209848404,0.9187838435173035
6.272609710693359,-0.024223696440458298,-0.5758373141288757,0.7871748208999634,-0.40989547967910767,0.045204851776361465,0.9180209040641785
6.292691946029663,-0.027656977996230125,-0.576218843460083,0.7879377603530884,-0.40989547967910767,0.04901960864663124,0.918402373790741
6.31276535987854,-0.03452353551983833,-0.576218843460083,0.7879377603530884,-0.41027694940567017,0.05207141116261482,0.9187838435173035
6.332827806472778,-0.03376058489084244,-0.5766003131866455,0.7883192300796509,-0.41142138838768005,0.0555046908557415,0.917639434337616
6.352917432785034,-0.031090257689356804,-0.576981782913208,0.7883192300796509,-0.41180285811424255,0.05436026677489281,0.9180209040641785
6.373020172119141,-0.030708782374858856,-0.576981782913208,0.7883192300796509,-0.41142138838768005,0.04940108209848404,0.919165313243866
6.3930816650390625,-0.026131074875593185,-0.576981782913208,0.7887006998062134,-0.41142138838768005,0.046730753034353256,0.919165313243866
6.413153648376465,-0.02231631986796856,-0.576981782913208,0.7890821695327759,-0.41142138838768005,0.04749370738863945,0.9195467829704285
6.433222055435181,-0.024986648932099342,-0.5750743746757507,0.7887006998062134,-0.41142138838768005,0.050164032727479935,0.9187838435173035
6.453356027603149,-0.026512550190091133,-0.5735484957695007,0.7867932915687561,-0.41142138838768005,0.05741206929087639,0.9187838435173035
6.473445415496826,-0.02231631986796856,-0.5727855563163757,0.7864118218421936,-0.41142138838768005,0.05893797054886818,0.9180209040641785
6.493524789810181,-0.025749599561095238,-0.5727855563163757,0.7860303521156311,-0.41142138838768005,0.059319447726011276,0.918402373790741
6.513786315917969,-0.02880140393972397,-0.5739299654960632,0.7860303521156311,-0.41142138838768005,0.054741740226745605,0.918402373790741
6.533915996551514,-0.02384222112596035,-0.5750743746757507,0.7867932915687561,-0.41142138838768005,0.050164032727479935,0.918402373790741
6.55395245552063,-0.023079270496964455,-0.576218843460083,0.7887006998062134,-0.41103988885879517,0.04787518084049225,0.9195467829704285
6.574224472045898,-0.026512550190091133,-0.5758373141288757,0.7890821695327759,-0.41142138838768005,0.04596780240535736,0.9199283123016357
6.594313383102417,-0.02384222112596035,-0.5750743746757507,0.7890821695327759,-0.41142138838768005,0.04901960864663124,0.9195467829704285
6.614391326904297,-0.026131074875593185,-0.5731670260429382,0.7883192300796509,-0.41103988885879517,0.05245288833975792,0.9195467829704285
6.6344475746154785,-0.032616160809993744,-0.572022557258606,0.7875562906265259,-0.41142138838768005,0.05397878959774971,0.919165313243866
6.6545326709747314,-0.03147173300385475,-0.572022557258606,0.7867932915687561,-0.41142138838768005,0.054741740226745605,0.918402373790741
6.674616098403931,-0.028038453310728073,-0.5731670260429382,0.7871748208999634,-0.41142138838768005,0.048638131469488144,0.9180209040641785
6.6946656703948975,-0.03299763426184654,-0.5743114352226257,0.7875562906265259,-0.41027694940567017,0.04940108209848404,0.9195467829704285
6.71476411819458,-0.031090257689356804,-0.5750743746757507,0.7871748208999634,-0.41065841913223267,0.04482337832450867,0.919165313243866
6.734837770462036,-0.02841992862522602,-0.5746929049491882,0.7875562906265259,-0.41065841913223267,0.04482337832450867,0.9195467829704285
6.7549073696136475,-0.03643091395497322,-0.5739299654960632,0.7871748208999634,-0.41027694940567017,0.05054550990462303,0.9195467829704285
6.775105714797974,-0.03452353551983833,-0.5739299654960632,0.7875562906265259,-0.41103988885879517,0.05092698708176613,0.918402373790741
6.795108079910278,-0.03223468363285065,-0.5739299654960632,0.7879377603530884,-0.41065841913223267,0.05283436179161072,0.9180209040641785
6.815176725387573,-0.03337911143898964,-0.5731670260429382,0.7871748208999634,-0.41065841913223267,0.05245288833975792,0.9180209040641785
6.83525013923645,-0.02727550081908703,-0.5727855563163757,0.7867932915687561,-0.41065841913223267,0.05283436179161072,0.9180209040641785
6.855344295501709,-0.024986648932099342,-0.5727855563163757,0.7864118218421936,-0.41027694940567017,0.05245288833975792,0.9180209040641785
6.8753955364227295,-0.029182879254221916,-0.571259617805481,0.7860303521156311,-0.40951400995254517,0.05245288833975792,0.918402373790741
6.895758152008057,-0.029564354568719864,-0.5701152086257935,0.7852674126625061,-0.40989547967910767,0.058175019919872284,0.9180209040641785
6.915836572647095,-0.02841992862522602,-0.568970799446106,0.7852674126625061,-0.40989547967910767,0.058175019919872284,0.9172579646110535
6.935911178588867,-0.03376058489084244,-0.5685893297195435,0.7845044732093811,-0.40951400995254517,0.05855649709701538,0.917639434337616
6.956110000610352,-0.029564354568719864,-0.5685893297195435,0.7833600640296936,-0.40989547967910767,0.05245288833975792,0.9172579646110535
6.976206541061401,-0.029182879254221916,-0.568970799446106,0.7856488823890686,-0.40951400995254517,0.056267641484737396,0.917639434337616
6.996280193328857,-0.027656977996230125,-0.5708781480789185,0.7856488823890686,-0.4091325104236603,0.05207141116261482,0.917639434337616
7.017146348953247,-0.021171892061829567,-0.5708781480789185,0.7841230034828186,-0.4091325104236603,0.05245288833975792,0.917639434337616
7.037244558334351,-0.021553369238972664,-0.569733738899231,0.7829785346984863,-0.4091325104236603,0.054741740226745605,0.917639434337616
7.057311058044434,-0.023079270496964455,-0.5701152086257935,0.7825970649719238,-0.4091325104236603,0.06198977679014206,0.917639434337616
7.0773773193359375,-0.020027466118335724,-0.570496678352356,0.7829785346984863,-0.4091325104236603,0.06084534898400307,0.916876494884491
7.097450256347656,-0.023460745811462402,-0.5708781480789185,0.7841230034828186,-0.4087510406970978,0.06237125024199486,0.917639434337616
7.117518424987793,-0.026512550190091133,-0.571259617805481,0.7818341255187988,-0.4087510406970978,0.05741206929087639,0.9172579646110535
7.137571573257446,-0.024223696440458298,-0.5708781480789185,0.7822155952453613,-0.4087510406970978,0.05436026677489281,0.917639434337616
7.157662391662598,-0.026512550190091133,-0.5731670260429382,0.7841230034828186,-0.4087510406970978,0.04596780240535736,0.917639434337616
7.177745580673218,-0.03337911143898964,-0.5766003131866455,0.7860303521156311,-0.4083695709705353,0.045204851776361465,0.917639434337616
7.197809219360352,-0.031090257689356804,-0.576981782913208,0.7860303521156311,-0.4083695709705353,0.04749370738863945,0.917639434337616
7.217888593673706,-0.03185320645570755,-0.5781261920928955,0.7871748208999634,-0.4079881012439728,0.05207141116261482,0.9180209040641785
7.237977981567383,-0.030708782374858856,-0.577744722366333,0.7871748208999634,-0.4079881012439728,0.049782559275627136,0.917639434337616
7.258033752441406,-0.025749599561095238,-0.5773632526397705,0.7887006998062134,-0.4079881012439728,0.04940108209848404,0.917639434337616
7.278506517410278,-0.024605173617601395,-0.576218843460083,0.7890821695327759,-0.4079881012439728,0.05245288833975792,0.917639434337616
7.29861307144165,-0.029182879254221916,-0.5731670260429382,0.7867932915687561,-0.4079881012439728,0.0551232174038887,0.9172579646110535
7.318697452545166,-0.029564354568719864,-0.571259617805481,0.7852674126625061,-0.4079881012439728,0.056267641484737396,0.916876494884491
7.3389060497283936,-0.025749599561095238,-0.5727855563163757,0.7852674126625061,-0.4083695709705353,0.05397878959774971,0.9172579646110535
7.3590004444122314,-0.02841992862522602,-0.5743114352226257,0.7852674126625061,-0.4076066315174103,0.051689937710762024,0.917639434337616
7.3791162967681885,-0.02536812424659729,-0.5773632526397705,0.7864118218421936,-0.4083695709705353,0.049782559275627136,0.9172579646110535
7.399261951446533,-0.021553369238972664,-0.577744722366333,0.7867932915687561,-0.4079881012439728,0.05397878959774971,0.917639434337616
7.41938853263855,-0.024223696440458298,-0.5773632526397705,0.7871748208999634,-0.4079881012439728,0.05436026677489281,0.917639434337616
7.439429759979248,-0.02384222112596035,-0.5766003131866455,0.7879377603530884,-0.4083695709705353,0.06046387553215027,0.9172579646110535
7.459704637527466,-0.02040894143283367,-0.5750743746757507,0.7867932915687561,-0.4079881012439728,0.05970092490315437,0.9172579646110535
7.479791879653931,-0.021171892061829567,-0.5731670260429382,0.7875562906265259,-0.4079881012439728,0.05741206929087639,0.9172579646110535
7.4998695850372314,-0.023460745811462402,-0.5724040865898132,0.7841230034828186,-0.4083695709705353,0.056267641484737396,0.9172579646110535
7.51992654800415,-0.023079270496964455,-0.5727855563163757,0.7829785346984863,-0.4083695709705353,0.0551232174038887,0.9172579646110535
7.540016412734985,-0.023460745811462402,-0.5754558444023132,0.7867932915687561,-0.4083695709705353,0.05436026677489281,0.9180209040641785
7.560084104537964,-0.02384222112596035,-0.5796520709991455,0.7875562906265259,-0.4079881012439728,0.05436026677489281,0.9180209040641785
7.580168962478638,-0.02079041674733162,-0.5796520709991455,0.7879377603530884,-0.4083695709705353,0.05207141116261482,0.917639434337616
7.600322484970093,-0.02079041674733162,-0.578507661819458,0.7883192300796509,-0.4083695709705353,0.06008239835500717,0.918402373790741
7.6203320026397705,-0.02231631986796856,-0.577744722366333,0.7879377603530884,-0.4083695709705353,0.05893797054886818,0.9180209040641785
7.64040732383728,-0.024223696440458298,-0.5766003131866455,0.7879377603530884,-0.4083695709705353,0.06275273114442825,0.917639434337616
7.6604931354522705,-0.02079041674733162,-0.5758373141288757,0.7856488823890686,-0.4087510406970978,0.0558861680328846,0.917639434337616
7.680576324462891,-0.02040894143283367,-0.5746929049491882,0.7875562906265259,-0.4083695709705353,0.05741206929087639,0.9180209040641785
7.7006354331970215,-0.024986648932099342,-0.5750743746757507,0.7864118218421936,-0.4083695709705353,0.059319447726011276,0.9180209040641785
7.720776319503784,-0.02689402550458908,-0.5750743746757507,0.7860303521156311,-0.4087510406970978,0.058175019919872284,0.9180209040641785
7.740889549255371,-0.02231631986796856,-0.5758373141288757,0.7871748208999634,-0.4087510406970978,0.05436026677489281,0.9180209040641785
7.760938405990601,-0.023460745811462402,-0.576981782913208,0.7883192300796509,-0.4083695709705353,0.05245288833975792,0.918402373790741
7.7810516357421875,-0.023079270496964455,-0.577744722366333,0.7898451089859009,-0.4083695709705353,0.05436026677489281,0.9187838435173035
7.801126718521118,-0.01926451548933983,-0.5773632526397705,0.7894636392593384,-0.4087510406970978,0.054741740226745605,0.918402373790741
7.821182012557983,-0.023079270496964455,-0.5766003131866455,0.7887006998062134,-0.4083695709705353,0.05855649709701538,0.9195467829704285
7.841273546218872,-0.01888304017484188,-0.576981782913208,0.7875562906265259,-0.4087510406970978,0.06008239835500717,0.9187838435173035
7.861374855041504,-0.016212711110711098,-0.576981782913208,0.7879377603530884,-0.4087510406970978,0.06198977679014206,0.9195467829704285
7.881421804428101,-0.01926451548933983,-0.576981782913208,0.7883192300796509,-0.4087510406970978,0.06008239835500717,0.9195467829704285
7.901522636413574,-0.01888304017484188,-0.576218843460083,0.7879377603530884,-0.4087510406970978,0.06389715522527695,0.9195467829704285
7.921581506729126,-0.018501564860343933,-0.5758373141288757,0.7879377603530884,-0.4091325104236603,0.06275273114442825,0.919165313243866
7.941643714904785,-0.024986648932099342,-0.5766003131866455,0.7883192300796509,-0.4087510406970978,0.058175019919872284,0.9203097820281982
7.96172833442688,-0.022697795182466507,-0.576981782913208,0.7883192300796509,-0.4091325104236603,0.05359731614589691,0.9195467829704285
7.981804370880127,-0.023079270496964455,-0.5788891315460205,0.7898451089859009,-0.4087510406970978,0.05207141116261482,0.9203097820281982
8.001888751983643,-0.03147173300385475,-0.5804150700569153,0.7902265787124634,-0.4091325104236603,0.05436026677489281,0.9206912517547607
8.021983623504639,-0.031090257689356804,-0.5811780095100403,0.7902265787124634,-0.40951400995254517,0.05245288833975792,0.9199283123016357
8.042076349258423,-0.024605173617601395,-0.5815594792366028,0.7925154566764832,-0.4091325104236603,0.05207141116261482,0.9203097820281982
8.062141180038452,-0.02231631986796856,-0.5819409489631653,0.7925154566764832,-0.4087510406970978,0.050164032727479935,0.9210727214813232
8.082242488861084,-0.02193484455347061,-0.5804150700569153,0.7921339869499207,-0.4087510406970978,0.051689937710762024,0.9206912517547607
8.102303266525269,-0.02384222112596035,-0.578507661819458,0.7917525172233582,-0.4091325104236603,0.0555046908557415,0.9206912517547607
8.122398853302002,-0.029182879254221916,-0.577744722366333,0.7898451089859009,-0.4091325104236603,0.06084534898400307,0.9206912517547607
8.14256238937378,-0.029564354568719864,-0.5773632526397705,0.7894636392593384,-0.4091325104236603,0.06046387553215027,0.9203097820281982
8.162666320800781,-0.025749599561095238,-0.5788891315460205,0.7902265787124634,-0.4091325104236603,0.054741740226745605,0.9203097820281982
8.182741403579712,-0.02536812424659729,-0.580033540725708,0.7906080484390259,-0.4087510406970978,0.05130846053361893,0.9214541912078857
8.202948331832886,-0.023079270496964455,-0.5804150700569153,0.7913710474967957,-0.4087510406970978,0.04749370738863945,0.9210727214813232
8.22307562828064,-0.025749599561095238,-0.5796520709991455,0.7921339869499207,-0.4087510406970978,0.05207141116261482,0.9210727214813232
8.243132829666138,-0.026131074875593185,-0.5781261920928955,0.7909895181655884,-0.4091325104236603,0.053215838968753815,0.9206912517547607
8.263290643692017,-0.01926451548933983,-0.577744722366333,0.7902265787124634,-0.4091325104236603,0.05436026677489281,0.9206912517547607
8.283373832702637,-0.019645990803837776,-0.5766003131866455,0.7902265787124634,-0.4091325104236603,0.058175019919872284,0.9206912517547607
8.303445816040039,-0.024223696440458298,-0.576218843460083,0.7879377603530884,-0.4091325104236603,0.06046387553215027,0.9206912517547607
8.324126482009888,-0.024605173617601395,-0.576218843460083,0.7875562906265259,-0.40989547967910767,0.06198977679014206,0.9203097820281982
8.344324111938477,-0.02231631986796856,-0.5788891315460205,0.7902265787124634,-0.40951400995254517,0.05703059583902359,0.9210727214813232
8.364338397979736,-0.024605173617601395,-0.5804150700569153,0.7921339869499207,-0.4087510406970978,0.053215838968753815,0.9210727214813232
8.384414434432983,-0.02384222112596035,-0.5807965397834778,0.7925154566764832,-0.40951400995254517,0.054741740226745605,0.9206912517547607
8.40451455116272,-0.018501564860343933,-0.5807965397834778,0.7925154566764832,-0.4091325104236603,0.05207141116261482,0.9210727214813232
8.42457365989685,-0.02384222112596035,-0.5807965397834778,0.7925154566764832,-0.4083695709705353,0.06046387553215027,0.9214541912078857
8.44463849067688,-0.02727550081908703,-0.5811780095100403,0.7925154566764832,-0.40989547967910767,0.06160829961299896,0.9206912517547607
8.464725971221924,-0.019645990803837776,-0.5811780095100403,0.7921339869499207,-0.41103988885879517,0.05893797054886818,0.9206912517547607
8.484796285629272,-0.019645990803837776,-0.5819409489631653,0.7925154566764832,-0.40951400995254517,0.06046387553215027,0.9214541912078857
8.504932641983032,-0.021171892061829567,-0.5811780095100403,0.7921339869499207,-0.41027694940567017,0.05855649709701538,0.9206912517547607
8.525200843811035,-0.016212711110711098,-0.5807965397834778,0.7921339869499207,-0.41065841913223267,0.057793546468019485,0.9206912517547607
8.545285701751709,-0.02231631986796856,-0.5807965397834778,0.7925154566764832,-0.40951400995254517,0.06084534898400307,0.9214541912078857
8.565349578857422,-0.024223696440458298,-0.5811780095100403,0.7921339869499207,-0.41065841913223267,0.0558861680328846,0.9206912517547607
8.585407495498657,-0.016975661739706993,-0.5811780095100403,0.7921339869499207,-0.41103988885879517,0.053215838968753815,0.9206912517547607
8.605494022369385,-0.016975661739706993,-0.5823224186897278,0.7921339869499207,-0.40951400995254517,0.05207141116261482,0.9222171306610107
8.625686407089233,-0.018120087683200836,-0.5827038884162903,0.7925154566764832,-0.41065841913223267,0.05092698708176613,0.9214541912078857
8.645671606063843,-0.012397955171763897,-0.5830853581428528,0.7928969264030457,-0.41065841913223267,0.05397878959774971,0.9214541912078857
8.665761232376099,-0.008964675478637218,-0.5830853581428528,0.7936598658561707,-0.41065841913223267,0.0551232174038887,0.9214541912078857
8.685848474502563,-0.013542382046580315,-0.5823224186897278,0.7932783961296082,-0.41065841913223267,0.0551232174038887,0.9214541912078857
8.705909490585327,-0.016212711110711098,-0.5819409489631653,0.7921339869499207,-0.41103988885879517,0.06008239835500717,0.9210727214813232
8.726000785827637,-0.01430533267557621,-0.5823224186897278,0.7932783961296082,-0.41103988885879517,0.0558861680328846,0.9210727214813232
8.746119499206543,-0.021171892061829567,-0.5827038884162903,0.7932783961296082,-0.41065841913223267,0.056267641484737396,0.9214541912078857
8.766147136688232,-0.018501564860343933,-0.5834668278694153,0.7932783961296082,-0.41103988885879517,0.05092698708176613,0.9214541912078857
8.786236763000488,-0.01583123579621315,-0.5842298269271851,0.7928969264030457,-0.41103988885879517,0.04634927958250046,0.9222171306610107
8.806307792663574,-0.016975661739706993,-0.5842298269271851,0.7936598658561707,-0.41103988885879517,0.042153049260377884,0.9245060086250305
8.826428174972534,-0.016594186425209045,-0.5842298269271851,0.7936598658561707,-0.41103988885879517,0.04749370738863945,0.9245060086250305
8.846475839614868,-0.021171892061829567,-0.5827038884162903,0.7932783961296082,-0.41103988885879517,0.053215838968753815,0.9245060086250305
8.86664366722107,-0.027656977996230125,-0.5811780095100403,0.7917525172233582,-0.41142138838768005,0.06198977679014206,0.924124538898468
8.886646509170532,-0.02689402550458908,-0.5811780095100403,0.7913710474967957,-0.41180285811424255,0.06580453366041183,0.9237430095672607
8.906742095947266,-0.026512550190091133,-0.5811780095100403,0.7913710474967957,-0.41180285811424255,0.06198977679014206,0.9237430095672607
8.926803588867188,-0.024986648932099342,-0.5819409489631653,0.7917525172233582,-0.41142138838768005,0.0551232174038887,0.9245060086250305
8.946860551834106,-0.021171892061829567,-0.5819409489631653,0.7925154566764832,-0.41180285811424255,0.05207141116261482,0.9245060086250305
8.966968774795532,-0.019645990803837776,-0.5819409489631653,0.7925154566764832,-0.41142138838768005,0.05283436179161072,0.924887478351593
8.987040996551514,-0.02231631986796856,-0.5804150700569153,0.7921339869499207,-0.41142138838768005,0.05397878959774971,0.9245060086250305
9.007088899612427,-0.023460745811462402,-0.5788891315460205,0.7898451089859009,-0.41180285811424255,0.06160829961299896,0.924124538898468
9.027302026748657,-0.02231631986796856,-0.5788891315460205,0.7902265787124634,-0.41180285811424255,0.061226826161146164,0.924124538898468
9.047395706176758,-0.026131074875593185,-0.5788891315460205,0.7902265787124634,-0.41180285811424255,0.06046387553215027,0.9237430095672607
9.067477226257324,-0.026512550190091133,-0.579270601272583,0.7902265787124634,-0.41180285811424255,0.05664911866188049,0.924124538898468
9.087571620941162,-0.02231631986796856,-0.579270601272583,0.7906080484390259,-0.41142138838768005,0.05245288833975792,0.9245060086250305
9.107709169387817,-0.025749599561095238,-0.5796520709991455,0.7913710474967957,-0.41103988885879517,0.048638131469488144,0.924887478351593
9.127840280532837,-0.029182879254221916,-0.580033540725708,0.7925154566764832,-0.41142138838768005,0.04749370738863945,0.924124538898468
9.148116827011108,-0.025749599561095238,-0.580033540725708,0.7925154566764832,-0.41142138838768005,0.050164032727479935,0.924124538898468
9.168217897415161,-0.02536812424659729,-0.580033540725708,0.7925154566764832,-0.41142138838768005,0.05054550990462303,0.924124538898468
9.188321113586426,-0.024605173617601395,-0.5781261920928955,0.7902265787124634,-0.41142138838768005,0.05397878959774971,0.9237430095672607
9.208633661270142,-0.024223696440458298,-0.5766003131866455,0.7875562906265259,-0.41142138838768005,0.057793546468019485,0.9222171306610107
9.228744268417358,-0.029182879254221916,-0.5758373141288757,0.7890821695327759,-0.41142138838768005,0.06008239835500717,0.9222171306610107
9.248821258544922,-0.028038453310728073,-0.5766003131866455,0.7898451089859009,-0.41142138838768005,0.05359731614589691,0.9206912517547607
9.268913984298706,-0.024223696440458298,-0.576981782913208,0.7906080484390259,-0.41142138838768005,0.04634927958250046,0.9206912517547607
9.288997888565063,-0.029182879254221916,-0.5758373141288757,0.7906080484390259,-0.40989547967910767,0.045204851776361465,0.9218356609344482
9.309094667434692,-0.029564354568719864,-0.5758373141288757,0.7902265787124634,-0.41103988885879517,0.04329747334122658,0.9206912517547607
9.329161882400513,-0.026131074875593185,-0.576218843460083,0.7902265787124634,-0.41065841913223267,0.04787518084049225,0.9210727214813232
9.34927487373352,-0.029182879254221916,-0.576218843460083,0.7902265787124634,-0.41027694940567017,0.05283436179161072,0.9210727214813232
9.369363784790039,-0.023079270496964455,-0.5758373141288757,0.7890821695327759,-0.41103988885879517,0.05245288833975792,0.9203097820281982
9.389413118362427,-0.02040894143283367,-0.5758373141288757,0.7890821695327759,-0.41065841913223267,0.057793546468019485,0.9206912517547607
9.409473180770874,-0.023079270496964455,-0.5750743746757507,0.7890821695327759,-0.41027694940567017,0.05741206929087639,0.9206912517547607
9.429551601409912,-0.021171892061829567,-0.5746929049491882,0.7879377603530884,-0.41027694940567017,0.05970092490315437,0.9203097820281982
9.449621677398682,-0.018501564860343933,-0.5746929049491882,0.7883192300796509,-0.40989547967910767,0.056267641484737396,0.9206912517547607
9.469841480255127,-0.021553369238972664,-0.5750743746757507,0.7879377603530884,-0.40951400995254517,0.05245288833975792,0.9210727214813232
9.490023136138916,-0.01773861236870289,-0.5758373141288757,0.7883192300796509,-0.40989547967910767,0.050164032727479935,0.9206912517547607
9.510067462921143,-0.013923857361078262,-0.5766003131866455,0.7887006998062134,-0.40951400995254517,0.051689937710762024,0.9210727214813232
9.530114889144897,-0.01506828423589468,-0.576981782913208,0.7890821695327759,-0.4087510406970978,0.051689937710762024,0.9210727214813232
9.55019736289978,-0.01773861236870289,-0.576218843460083,0.7883192300796509,-0.4091325104236603,0.06008239835500717,0.9206912517547607
9.57028079032898,-0.020027466118335724,-0.5758373141288757,0.7875562906265259,-0.4091325104236603,0.06046387553215027,0.9206912517547607
9.590319156646729,-0.024223696440458298,-0.576218843460083,0.7871748208999634,-0.4091325104236603,0.06046387553215027,0.9210727214813232
9.610455751419067,-0.024223696440458298,-0.5773632526397705,0.7875562906265259,-0.4091325104236603,0.05664911866188049,0.9206912517547607
9.630543231964111,-0.028038453310728073,-0.577744722366333,0.7879377603530884,-0.4091325104236603,0.05207141116261482,0.9214541912078857
9.650838136672974,-0.02727550081908703,-0.579270601272583,0.7883192300796509,-0.4091325104236603,0.04749370738863945,0.9210727214813232
9.670930862426758,-0.02689402550458908,-0.580033540725708,0.7890821695327759,-0.4091325104236603,0.04711223021149635,0.9214541912078857
9.691012144088745,-0.02536812424659729,-0.5804150700569153,0.7902265787124634,-0.4091325104236603,0.04558632895350456,0.9210727214813232
9.711071491241455,-0.024223696440458298,-0.5796520709991455,0.7902265787124634,-0.40951400995254517,0.05207141116261482,0.9210727214813232
9.731159448623657,-0.03032730519771576,-0.5766003131866455,0.7879377603530884,-0.40951400995254517,0.06237125024199486,0.9206912517547607
9.751224040985107,-0.03147173300385475,-0.576218843460083,0.7879377603530884,-0.40989547967910767,0.06084534898400307,0.9206912517547607
9.77132797241211,-0.02880140393972397,-0.576218843460083,0.7883192300796509,-0.40989547967910767,0.05970092490315437,0.9206912517547607
9.791412353515625,-0.03376058489084244,-0.5766003131866455,0.7883192300796509,-0.4091325104236603,0.05855649709701538,0.9206912517547607
9.811474323272705,-0.035667963325977325,-0.577744722366333,0.7879377603530884,-0.40989547967910767,0.05207141116261482,0.9206912517547607
9.831567287445068,-0.03147173300385475,-0.5788891315460205,0.7890821695327759,-0.40951400995254517,0.04901960864663124,0.9210727214813232
9.8516526222229,-0.026512550190091133,-0.580033540725708,0.7898451089859009,-0.4091325104236603,0.040245670825242996,0.9210727214813232
9.871806621551514,-0.03032730519771576,-0.5804150700569153,0.7909895181655884,-0.40951400995254517,0.04329747334122658,0.9206912517547607
9.891931295394897,-0.02536812424659729,-0.580033540725708,0.7898451089859009,-0.40989547967910767,0.04444190114736557,0.9203097820281982
9.911998987197876,-0.02231631986796856,-0.5788891315460205,0.7898451089859009,-0.40951400995254517,0.05245288833975792,0.9206912517547607
9.932075500488281,-0.02841992862522602,-0.5766003131866455,0.7879377603530884,-0.40951400995254517,0.054741740226745605,0.9203097820281982
9.952150106430054,-0.03032730519771576,-0.5758373141288757,0.7860303521156311,-0.41027694940567017,0.058175019919872284,0.9199283123016357
9.972223997116089,-0.026131074875593185,-0.5754558444023132,0.7860303521156311,-0.41027694940567017,0.05703059583902359,0.9199283123016357
9.992318630218506,-0.03185320645570755,-0.576218843460083,0.7871748208999634,-0.40951400995254517,0.05283436179161072,0.9206912517547607
10.012428283691406,-0.03147173300385475,-0.5773632526397705,0.7875562906265259,-0.40989547967910767,0.04596780240535736,0.9203097820281982
10.03251576423645,-0.02880140393972397,-0.576981782913208,0.7898451089859009,-0.40989547967910767,0.046730753034353256,0.9203097820281982
10.05261754989624,-0.026512550190091133,-0.5766003131866455,0.7890821695327759,-0.40951400995254517,0.04177157208323479,0.9203097820281982
10.072684526443481,-0.02841992862522602,-0.5754558444023132,0.7902265787124634,-0.40989547967910767,0.04940108209848404,0.9199283123016357
10.092737197875977,-0.02841992862522602,-0.5743114352226257,0.7879377603530884,-0.40989547967910767,0.05245288833975792,0.9195467829704285
10.112833261489868,-0.02841992862522602,-0.5735484957695007,0.7871748208999634,-0.41027694940567017,0.0555046908557415,0.9195467829704285
10.13291597366333,-0.028038453310728073,-0.5735484957695007,0.7867932915687561,-0.40989547967910767,0.056267641484737396,0.9195467829704285
10.152965545654297,-0.02841992862522602,-0.5739299654960632,0.7871748208999634,-0.40989547967910767,0.05664911866188049,0.9199283123016357
10.173067808151245,-0.02689402550458908,-0.5739299654960632,0.7871748208999634,-0.40989547967910767,0.05245288833975792,0.9199283123016357
10.193140745162964,-0.024223696440458298,-0.5739299654960632,0.7883192300796509,-0.40989547967910767,0.04940108209848404,0.9199283123016357
10.2131986618042,-0.024986648932099342,-0.5727855563163757,0.7883192300796509,-0.40951400995254517,0.04940108209848404,0.9199283123016357
10.233360767364502,-0.02193484455347061,-0.5716410875320435,0.7875562906265259,-0.40989547967910767,0.050164032727479935,0.9195467829704285
10.253447771072388,-0.02231631986796856,-0.571259617805481,0.7871748208999634,-0.40989547967910767,0.0555046908557415,0.9195467829704285
10.273514986038208,-0.026131074875593185,-0.5716410875320435,0.7856488823890686,-0.40989547967910767,0.057793546468019485,0.9195467829704285
10.293730735778809,-0.026512550190091133,-0.5716410875320435,0.7852674126625061,-0.40989547967910767,0.05741206929087639,0.919165313243866
10.313830614089966,-0.020027466118335724,-0.5750743746757507,0.7887006998062134,-0.40989547967910767,0.054741740226745605,0.9199283123016357
10.333900213241577,-0.019645990803837776,-0.576218843460083,0.7906080484390259,-0.4091325104236603,0.051689937710762024,0.9203097820281982
10.353955268859863,-0.023079270496964455,-0.5746929049491882,0.7917525172233582,-0.40989547967910767,0.05207141116261482,0.9199283123016357
10.374051094055176,-0.02231631986796856,-0.5727855563163757,0.7894636392593384,-0.40989547967910767,0.05436026677489281,0.9195467829704285
10.394120216369629,-0.02536812424659729,-0.5716410875320435,0.7887006998062134,-0.40989547967910767,0.05245288833975792,0.9195467829704285
10.414221048355103,-0.03185320645570755,-0.5716410875320435,0.7883192300796509,-0.40989547967910767,0.05741206929087639,0.9195467829704285
10.434285879135132,-0.03032730519771576,-0.5735484957695007,0.7879377603530884,-0.40989547967910767,0.05664911866188049,0.919165313243866
10.454394340515137,-0.029182879254221916,-0.5758373141288757,0.7894636392593384,-0.40989547967910767,0.05207141116261482,0.9199283123016357
10.474422693252563,-0.034142062067985535,-0.577744722366333,0.7925154566764832,-0.4091325104236603,0.05283436179161072,0.9203097820281982
10.494521141052246,-0.03376058489084244,-0.577744722366333,0.7928969264030457,-0.40989547967910767,0.05092698708176613,0.9195467829704285
10.51459264755249,-0.027656977996230125,-0.576218843460083,0.7932783961296082,-0.40951400995254517,0.04787518084049225,0.9199283123016357
10.534667253494263,-0.027656977996230125,-0.5735484957695007,0.7917525172233582,-0.40951400995254517,0.05092698708176613,0.9203097820281982
10.554814338684082,-0.03337911143898964,-0.570496678352356,0.7883192300796509,-0.40951400995254517,0.0555046908557415,0.9195467829704285
10.574972867965698,-0.03299763426184654,-0.570496678352356,0.7852674126625061,-0.41065841913223267,0.05741206929087639,0.918402373790741
10.595010042190552,-0.032616160809993744,-0.5708781480789185,0.7879377603530884,-0.40989547967910767,0.059319447726011276,0.9187838435173035
10.615066766738892,-0.03681239113211632,-0.5731670260429382,0.7864118218421936,-0.4091325104236603,0.05397878959774971,0.918402373790741
10.635165214538574,-0.03643091395497322,-0.5746929049491882,0.7864118218421936,-0.40951400995254517,0.05054550990462303,0.918402373790741
10.655237913131714,-0.03337911143898964,-0.5746929049491882,0.7871748208999634,-0.40951400995254517,0.05130846053361893,0.9187838435173035
10.675291299819946,-0.026131074875593185,-0.5758373141288757,0.7879377603530884,-0.4091325104236603,0.04749370738863945,0.9187838435173035
10.695375919342041,-0.02536812424659729,-0.5750743746757507,0.7883192300796509,-0.4087510406970978,0.04787518084049225,0.918402373790741
10.715447187423706,-0.029182879254221916,-0.572022557258606,0.7860303521156311,-0.4091325104236603,0.054741740226745605,0.9172579646110535
10.7356116771698,-0.02880140393972397,-0.570496678352356,0.7848859429359436,-0.4091325104236603,0.059319447726011276,0.916876494884491
10.75561785697937,-0.02841992862522602,-0.569733738899231,0.7841230034828186,-0.4087510406970978,0.06160829961299896,0.9164950251579285
10.77568793296814,-0.03147173300385475,-0.570496678352356,0.7852674126625061,-0.4091325104236603,0.06008239835500717,0.916876494884491
10.795758962631226,-0.02880140393972397,-0.572022557258606,0.7848859429359436,-0.4087510406970978,0.051689937710762024,0.916876494884491
10.816004276275635,-0.02994582988321781,-0.5727855563163757,0.7871748208999634,-0.4087510406970978,0.04749370738863945,0.9172579646110535
10.836071968078613,-0.035667963325977325,-0.5735484957695007,0.7879377603530884,-0.4083695709705353,0.04901960864663124,0.916876494884491
10.85613751411438,-0.03528648987412453,-0.5727855563163757,0.7883192300796509,-0.4087510406970978,0.046730753034353256,0.916876494884491
10.876331329345703,-0.03185320645570755,-0.5724040865898132,0.7883192300796509,-0.4083695709705353,0.04482337832450867,0.9172579646110535
10.8964204788208,-0.03757534176111221,-0.571259617805481,0.7883192300796509,-0.4083695709705353,0.049782559275627136,0.9172579646110535
10.916499137878418,-0.0398641936480999,-0.5716410875320435,0.7879377603530884,-0.4091325104236603,0.048256658017635345,0.9164950251579285
10.936558246612549,-0.03681239113211632,-0.5716410875320435,0.7879377603530884,-0.4087510406970978,0.05207141116261482,0.9164950251579285
10.956648588180542,-0.03643091395497322,-0.5708781480789185,0.7875562906265259,-0.4083695709705353,0.05092698708176613,0.9164950251579285
10.976724624633789,-0.03528648987412453,-0.5693522691726685,0.7864118218421936,-0.4083695709705353,0.05054550990462303,0.916113555431366
10.996812582015991,-0.030708782374858856,-0.5685893297195435,0.7864118218421936,-0.4083695709705353,0.05054550990462303,0.9153505563735962
11.01686406135559,-0.02727550081908703,-0.568970799446106,0.7871748208999634,-0.4083695709705353,0.050164032727479935,0.9153505563735962
11.036949872970581,-0.03185320645570755,-0.5666819214820862,0.7860303521156311,-0.4083695709705353,0.0558861680328846,0.9145876169204712
11.057031631469727,-0.029564354568719864,-0.5655375123023987,0.7841230034828186,-0.4091325104236603,0.05703059583902359,0.9126802682876587
11.0772705078125,-0.027656977996230125,-0.5647745728492737,0.7829785346984863,-0.4083695709705353,0.06008239835500717,0.9122987985610962
11.09738540649414,-0.03299763426184654,-0.5643930435180664,0.7829785346984863,-0.4083695709705353,0.06084534898400307,0.9126802682876587
11.117466449737549,-0.030708782374858856,-0.5643930435180664,0.7825970649719238,-0.4083695709705353,0.0558861680328846,0.9126802682876587
11.13776159286499,-0.03032730519771576,-0.5647745728492737,0.7829785346984863,-0.4079881012439728,0.05283436179161072,0.9126802682876587
11.15789008140564,-0.027656977996230125,-0.5647745728492737,0.7829785346984863,-0.4079881012439728,0.051689937710762024,0.9126802682876587
11.177960634231567,-0.026512550190091133,-0.5663004517555237,0.7841230034828186,-0.4079881012439728,0.05245288833975792,0.9126802682876587
11.198018789291382,-0.03147173300385475,-0.5670633912086487,0.7841230034828186,-0.4079881012439728,0.0558861680328846,0.9126802682876587
11.218108415603638,-0.030708782374858856,-0.5682078003883362,0.7837415337562561,-0.4083695709705353,0.05855649709701538,0.9122987985610962
11.238176822662354,-0.029564354568719864,-0.5685893297195435,0.7860303521156311,-0.4079881012439728,0.059319447726011276,0.9122987985610962
11.258270978927612,-0.032616160809993744,-0.569733738899231,0.7852674126625061,-0.4076066315174103,0.057793546468019485,0.9126802682876587
11.27841830253601,-0.03147173300385475,-0.569733738899231,0.7852674126625061,-0.4079881012439728,0.05207141116261482,0.9122987985610962
11.29850149154663,-0.02841992862522602,-0.5701152086257935,0.7867932915687561,-0.4076066315174103,0.05397878959774971,0.9126802682876587
11.318573236465454,-0.02689402550458908,-0.5701152086257935,0.7871748208999634,-0.4076066315174103,0.05130846053361893,0.9126802682876587
11.339072704315186,-0.031090257689356804,-0.5693522691726685,0.7871748208999634,-0.4076066315174103,0.051689937710762024,0.9126802682876587
11.359165668487549,-0.03185320645570755,-0.5693522691726685,0.7860303521156311,-0.4079881012439728,0.0551232174038887,0.9126802682876587
11.37923812866211,-0.03032730519771576,-0.5693522691726685,0.7864118218421936,-0.4079881012439728,0.05741206929087639,0.9122987985610962
11.399301528930664,-0.031090257689356804,-0.568970799446106,0.7860303521156311,-0.4076066315174103,0.05741206929087639,0.9126802682876587
11.419447183609009,-0.028038453310728073,-0.568970799446106,0.7871748208999634,-0.4076066315174103,0.054741740226745605,0.9126802682876587
11.43949294090271,-0.026512550190091133,-0.5693522691726685,0.7871748208999634,-0.4076066315174103,0.05092698708176613,0.9130617380142212
11.459846258163452,-0.03032730519771576,-0.5693522691726685,0.7871748208999634,-0.4076066315174103,0.051689937710762024,0.9130617380142212
11.479934453964233,-0.029182879254221916,-0.569733738899231,0.7871748208999634,-0.4076066315174103,0.05283436179161072,0.9126802682876587
11.500007629394531,-0.029182879254221916,-0.569733738899231,0.7871748208999634,-0.4076066315174103,0.053215838968753815,0.9130617380142212
11.520156860351562,-0.029182879254221916,-0.569733738899231,0.7871748208999634,-0.4076066315174103,0.05359731614589691,0.9130617380142212
11.54022765159607,-0.02841992862522602,-0.569733738899231,0.7867932915687561,-0.4076066315174103,0.05436026677489281,0.9126802682876587
11.560309886932373,-0.028038453310728073,-0.569733738899231,0.7871748208999634,-0.4076066315174103,0.05397878959774971,0.9130617380142212
11.580362796783447,-0.02727550081908703,-0.569733738899231,0.7871748208999634,-0.4076066315174103,0.053215838968753815,0.9130617380142212
11.60048508644104,-0.025749599561095238,-0.569733738899231,0.7871748208999634,-0.4076066315174103,0.05359731614589691,0.9130617380142212
11.620540857315063,-0.026131074875593185,-0.569733738899231,0.7871748208999634,-0.4076066315174103,0.0551232174038887,0.9134432077407837
11.640644788742065,-0.026131074875593185,-0.5693522691726685,0.7860303521156311,-0.4076066315174103,0.054741740226745605,0.9134432077407837
11.660707473754883,-0.026131074875593185,-0.569733738899231,0.7860303521156311,-0.4076066315174103,0.056267641484737396,0.9134432077407837
11.680786848068237,-0.026131074875593185,-0.569733738899231,0.7860303521156311,-0.4076066315174103,0.05664911866188049,0.9134432077407837
11.700828790664673,-0.026131074875593185,-0.569733738899231,0.7860303521156311,-0.4076066315174103,0.0558861680328846,0.9134432077407837
11.720915079116821,-0.024605173617601395,-0.5701152086257935,0.7864118218421936,-0.4076066315174103,0.0555046908557415,0.9134432077407837
11.74098515510559,-0.02536812424659729,-0.570496678352356,0.7864118218421936,-0.4076066315174103,0.054741740226745605,0.9138246774673462
11.761084079742432,-0.02384222112596035,-0.570496678352356,0.7864118218421936,-0.4079881012439728,0.0558861680328846,0.9138246774673462
11.781319618225098,-0.023079270496964455,-0.5708781480789185,0.7864118218421936,-0.4076066315174103,0.05664911866188049,0.9142061471939087
11.801465511322021,-0.028038453310728073,-0.570496678352356,0.7871748208999634,-0.4079881012439728,0.05893797054886818,0.9153505563735962
11.821513414382935,-0.02727550081908703,-0.5708781480789185,0.7860303521156311,-0.4079881012439728,0.0558861680328846,0.9157320261001587
11.842462062835693,-0.026131074875593185,-0.5716410875320435,0.7871748208999634,-0.4079881012439728,0.05741206929087639,0.9172579646110535
11.862560033798218,-0.027656977996230125,-0.5716410875320435,0.7860303521156311,-0.4079881012439728,0.05703059583902359,0.917639434337616
11.882642984390259,-0.026512550190091133,-0.5731670260429382,0.7875562906265259,-0.4079881012439728,0.05436026677489281,0.917639434337616
11.902702569961548,-0.02384222112596035,-0.5750743746757507,0.7887006998062134,-0.4079881012439728,0.05397878959774971,0.917639434337616
11.922790050506592,-0.02727550081908703,-0.5743114352226257,0.7890821695327759,-0.4079881012439728,0.0555046908557415,0.9180209040641785
11.942888736724854,-0.026512550190091133,-0.5743114352226257,0.7883192300796509,-0.4083695709705353,0.0555046908557415,0.917639434337616
11.962933778762817,-0.029182879254221916,-0.5735484957695007,0.7883192300796509,-0.4079881012439728,0.06046387553215027,0.917639434337616
11.983020305633545,-0.03147173300385475,-0.5735484957695007,0.7879377603530884,-0.4079881012439728,0.06008239835500717,0.9180209040641785
12.003090381622314,-0.03032730519771576,-0.5743114352226257,0.7883192300796509,-0.4079881012439728,0.058175019919872284,0.917639434337616
12.023171663284302,-0.027656977996230125,-0.5750743746757507,0.7883192300796509,-0.4079881012439728,0.05207141116261482,0.9180209040641785
12.043251991271973,-0.026512550190091133,-0.5750743746757507,0.7890821695327759,-0.4079881012439728,0.05245288833975792,0.9187838435173035
12.06331181526184,-0.02689402550458908,-0.5758373141288757,0.7890821695327759,-0.4079881012439728,0.05245288833975792,0.9187838435173035
12.083427667617798,-0.028038453310728073,-0.5758373141288757,0.7890821695327759,-0.4079881012439728,0.058175019919872284,0.9187838435173035
12.103520631790161,-0.02880140393972397,-0.5758373141288757,0.7890821695327759,-0.4079881012439728,0.06084534898400307,0.918402373790741
12.123597621917725,-0.029182879254221916,-0.576218843460083,0.7890821695327759,-0.4079881012439728,0.06084534898400307,0.918402373790741
12.14367961883545,-0.029564354568719864,-0.576218843460083,0.7890821695327759,-0.4079881012439728,0.05741206929087639,0.9187838435173035
12.163965940475464,-0.030708782374858856,-0.576218843460083,0.7890821695327759,-0.4079881012439728,0.053215838968753815,0.9187838435173035
12.184075593948364,-0.03223468363285065,-0.576218843460083,0.7890821695327759,-0.4079881012439728,0.05245288833975792,0.919165313243866
12.204103231430054,-0.03376058489084244,-0.576981782913208,0.7890821695327759,-0.4079881012439728,0.05245288833975792,0.919165313243866
12.224181175231934,-0.03452353551983833,-0.576981782913208,0.7890821695327759,-0.4079881012439728,0.053215838968753815,0.919165313243866
12.24422311782837,-0.03490501269698143,-0.576981782913208,0.7890821695327759,-0.4079881012439728,0.05436026677489281,0.919165313243866
12.264276266098022,-0.03604944050312042,-0.5781261920928955,0.7890821695327759,-0.4079881012439728,0.0551232174038887,0.919165313243866
12.284394979476929,-0.037193864583969116,-0.5781261920928955,0.7890821695327759,-0.4079881012439728,0.05436026677489281,0.919165313243866
12.304449081420898,-0.03757534176111221,-0.5781261920928955,0.7890821695327759,-0.4079881012439728,0.05359731614589691,0.919165313243866
12.324504375457764,-0.038719769567251205,-0.5788891315460205,0.7890821695327759,-0.4079881012439728,0.05283436179161072,0.9195467829704285
12.344624519348145,-0.040245670825242996,-0.5788891315460205,0.7890821695327759,-0.4079881012439728,0.05245288833975792,0.9199283123016357
12.364713430404663,-0.04139009863138199,-0.579270601272583,0.7890821695327759,-0.4079881012439728,0.05245288833975792,0.9199283123016357
12.385062456130981,-0.04177157208323479,-0.5788891315460205,0.7890821695327759,-0.4079881012439728,0.05283436179161072,0.9199283123016357
12.40514850616455,-0.04291599988937378,-0.579270601272583,0.7890821695327759,-0.4079881012439728,0.05283436179161072,0.9199283123016357
12.425225973129272,-0.043678950518369675,-0.579270601272583,0.7890821695327759,-0.4079881012439728,0.053215838968753815,0.9199283123016357
12.446326971054077,-0.04406042397022247,-0.5788891315460205,0.7890821695327759,-0.4079881012439728,0.05283436179161072,0.9199283123016357
12.466420650482178,-0.04558632895350456,-0.579270601272583,0.7890821695327759,-0.4079881012439728,0.05245288833975792,0.9203097820281982
12.486470699310303,-0.04634927958250046,-0.579270601272583,0.7890821695327759,-0.4079881012439728,0.05245288833975792,0.9203097820281982
12.50654673576355,-0.04711223021149635,-0.579270601272583,0.7890821695327759,-0.4079881012439728,0.05245288833975792,0.9203097820281982
12.52664566040039,-0.048638131469488144,-0.579270601272583,0.7890821695327759,-0.4079881012439728,0.05245288833975792,0.9203097820281982
12.546771764755249,-0.04940108209848404,-0.579270601272583,0.7890821695327759,-0.4079881012439728,0.05245288833975792,0.9203097820281982
12.566831111907959,-0.050164032727479935,-0.579270601272583,0.7890821695327759,-0.4079881012439728,0.05245288833975792,0.9203097820281982
12.586894750595093,-0.05130846053361893,-0.5796520709991455,0.7890821695327759,-0.4079881012439728,0.05245288833975792,0.9203097820281982
12.606956720352173,-0.05207141116261482,-0.5811780095100403,0.7890821695327759,-0.4079881012439728,0.05207141116261482,0.9203097820281982
12.62702465057373,-0.053215838968753815,-0.5815594792366028,0.7890821695327759,-0.4079881012439728,0.051689937710762024,0.9203097820281982
12.647116661071777,-0.05436026677489281,-0.5830853581428528,0.7890821695327759,-0.4079881012439728,0.051689937710762024,0.9203097820281982
12.667192459106445,-0.0555046908557415,-0.5842298269271851,0.7890821695327759,-0.4079881012439728,0.05207141116261482,0.9206912517547607
12.687268257141113,-0.056267641484737396,-0.5846112966537476,0.7887006998062134,-0.4079881012439728,0.05207141116261482,0.9203097820281982
12.707430839538574,-0.057793546468019485,-0.5849927663803101,0.7890821695327759,-0.4079881012439728,0.051689937710762024,0.9206912517547607
12.727533102035522,-0.05893797054886818,-0.5849927663803101,0.7890821695327759,-0.4079881012439728,0.05130846053361893,0.9206912517547607
12.747666120529175,-0.06008239835500717,-0.5853742361068726,0.7890821695327759,-0.4079881012439728,0.051689937710762024,0.9206912517547607
12.768107414245605,-0.06160829961299896,-0.5849927663803101,0.7890821695327759,-0.4079881012439728,0.05092698708176613,0.9206912517547607
12.788220405578613,-0.06313420087099075,-0.5853742361068726,0.7890821695327759,-0.4079881012439728,0.05092698708176613,0.9206912517547607
12.808323621749878,-0.06427863240242004,-0.5853742361068726,0.7890821695327759,-0.4079881012439728,0.05054550990462303,0.9206912517547607
12.828352212905884,-0.06580453366041183,-0.5861371755599976,0.7890821695327759,-0.4079881012439728,0.05054550990462303,0.9206912517547607
12.8484468460083,-0.06733043491840363,-0.5861371755599976,0.7890821695327759,-0.4079881012439728,0.04940108209848404,0.9206912517547607
12.86851191520691,-0.06885633617639542,-0.5865186452865601,0.7890821695327759,-0.4079881012439728,0.04940108209848404,0.9210727214813232
12.88857913017273,-0.07000076025724411,-0.5872815847396851,0.7890821695327759,-0.4079881012439728,0.04901960864663124,0.9210727214813232
12.909386157989502,-0.071908138692379,-0.5880445837974548,0.7890821695327759,-0.4076066315174103,0.04787518084049225,0.9210727214813232
12.92948293685913,-0.07343403995037079,-0.5884260535240173,0.7890821695327759,-0.4079881012439728,0.04711223021149635,0.9210727214813232
12.9495530128479,-0.07381551712751389,-0.5884260535240173,0.7890821695327759,-0.4079881012439728,0.04711223021149635,0.9210727214813232
12.96961784362793,-0.07495994865894318,-0.5888075232505798,0.7890821695327759,-0.4079881012439728,0.04634927958250046,0.9210727214813232
12.989704132080078,-0.07686731964349747,-0.5891889929771423,0.7890821695327759,-0.4079881012439728,0.04558632895350456,0.9214541912078857
13.00981330871582,-0.07801175117492676,-0.5891889929771423,0.7890821695327759,-0.4079881012439728,0.04596780240535736,0.9214541912078857
13.029910564422607,-0.07915617525577545,-0.5891889929771423,0.7890821695327759,-0.4076066315174103,0.04596780240535736,0.9214541912078857
13.049992561340332,-0.08106355369091034,-0.5895704627037048,0.7890821695327759,-0.4079881012439728,0.04596780240535736,0.9214541912078857
13.07006549835205,-0.08220797777175903,-0.5895704627037048,0.7890821695327759,-0.4079881012439728,0.04596780240535736,0.9214541912078857
13.090121984481812,-0.08373387902975082,-0.5903334021568298,0.7890821695327759,-0.4079881012439728,0.04482337832450867,0.9218356609344482
13.11022138595581,-0.08602273464202881,-0.5907148718833923,0.7890821695327759,-0.4079881012439728,0.04482337832450867,0.9218356609344482
13.13032579421997,-0.0875486359000206,-0.5907148718833923,0.7890821695327759,-0.4079881012439728,0.045204851776361465,0.9222171306610107
13.15042757987976,-0.08907453715801239,-0.5914778113365173,0.7890821695327759,-0.4079881012439728,0.045204851776361465,0.9225986003875732
13.1704843044281,-0.09174486994743347,-0.5918593406677246,0.7890821695327759,-0.4079881012439728,0.04444190114736557,0.9233615398406982
13.1905677318573,-0.09403372555971146,-0.5918593406677246,0.7890821695327759,-0.4079881012439728,0.04444190114736557,0.924887478351593
13.210730791091919,-0.09479667246341705,-0.5930037498474121,0.7890821695327759,-0.4076066315174103,0.04444190114736557,0.9252689480781555
13.230885028839111,-0.09746700525283813,-0.5933852195739746,0.7890821695327759,-0.4076066315174103,0.043678950518369675,0.9252689480781555
13.250999927520752,-0.09975585341453552,-0.5937666893005371,0.7890821695327759,-0.4076066315174103,0.043678950518369675,0.925650417804718
13.271054983139038,-0.10204470902681351,-0.5949110984802246,0.7890821695327759,-0.4076066315174103,0.04444190114736557,0.9260318875312805
13.291134119033813,-0.10433356463909149,-0.5956740379333496,0.7890821695327759,-0.4076066315174103,0.04329747334122658,0.9267948269844055
13.311250686645508,-0.10624094307422638,-0.5968185067176819,0.7890821695327759,-0.4076066315174103,0.04406042397022247,0.9275577664375305
13.331366539001465,-0.10852979123592377,-0.5971999764442444,0.7890821695327759,-0.4076066315174103,0.04482337832450867,0.9279392957687378
13.351559162139893,-0.11120012402534485,-0.5975814461708069,0.7890821695327759,-0.4076066315174103,0.04406042397022247,0.9279392957687378
13.371649265289307,-0.11425192654132843,-0.5979629158973694,0.7890821695327759,-0.4076066315174103,0.043678950518369675,0.9279392957687378
13.391749382019043,-0.11654078215360641,-0.5991073250770569,0.7894636392593384,-0.4072251319885254,0.04291599988937378,0.9283207654953003
13.411797761917114,-0.1199740618467331,-0.5998703241348267,0.7894636392593384,-0.4072251319885254,0.04253452271223068,0.9283207654953003
13.431878089904785,-0.12340734153985977,-0.6006332635879517,0.7894636392593384,-0.4068436622619629,0.04253452271223068,0.9283207654953003
13.451951026916504,-0.12607766687870026,-0.6013962030410767,0.7894636392593384,-0.4064621925354004,0.04177157208323479,0.9283207654953003
13.472009181976318,-0.12951095402240753,-0.6029220819473267,0.7894636392593384,-0.4056992530822754,0.04253452271223068,0.9287022352218628
13.492103099822998,-0.1337071806192398,-0.6048294901847839,0.7898451089859009,-0.404936283826828,0.04253452271223068,0.9290837049484253
13.512214660644531,-0.13866636157035828,-0.6071183085441589,0.7902265787124634,-0.4045548141002655,0.04253452271223068,0.9290837049484253
13.53221869468689,-0.14362554252147675,-0.6094071865081787,0.7902265787124634,-0.4045548141002655,0.0394827201962471,0.9294651746749878
13.552301168441772,-0.1489662081003189,-0.6116960644721985,0.7902265787124634,-0.4045548141002655,0.038719769567251205,0.9298466444015503
13.572377920150757,-0.15468832850456238,-0.6147478222846985,0.7906080484390259,-0.4045548141002655,0.039101243019104004,0.9302281141281128
13.592437028884888,-0.16079194843769073,-0.6170367002487183,0.7909895181655884,-0.404173344373703,0.038719769567251205,0.9313725233078003
13.612881422042847,-0.1680399775505066,-0.6219958662986755,0.7921339869499207,-0.4037918746471405,0.03833829239010811,0.9325169920921326
13.63296627998352,-0.17605096101760864,-0.6315327882766724,0.7948042750358582,-0.4030289053916931,0.039101243019104004,0.9328984618186951
13.653090715408325,-0.1836804747581482,-0.6433585286140442,0.7974746227264404,-0.4007400572299957,0.037193864583969116,0.9340428709983826
13.673224449157715,-0.19092851877212524,-0.657473087310791,0.8005264401435852,-0.39921414852142334,0.037193864583969116,0.9355688095092773
13.693320274353027,-0.1977950781583786,-0.6738765835762024,0.8047226667404175,-0.39654383063316345,0.03643091395497322,0.9370946884155273
13.713399410247803,-0.20313572883605957,-0.6876096725463867,0.8085374236106873,-0.39578089118003845,0.03681239113211632,0.9382390975952148
13.7334566116333,-0.20656901597976685,-0.7021057605743408,0.813115119934082,-0.3931105434894562,0.03528648987412453,0.9397650361061096
13.753590822219849,-0.20962081849575043,-0.7234683632850647,0.8199816942214966,-0.3923476040363312,0.035667963325977325,0.9412909150123596
13.773624658584595,-0.21114671230316162,-0.7436865568161011,0.8279926776885986,-0.3919661343097687,0.03833829239010811,0.9439612627029419
13.793695211410522,-0.21190966665744781,-0.7600900530815125,0.8352407217025757,-0.3904402256011963,0.042153049260377884,0.9458686113357544
13.8138427734375,-0.2134355753660202,-0.7784008383750916,0.8463035225868225,-0.3889143168926239,0.04558632895350456,0.9473945498466492
13.833964347839355,-0.2138170450925827,-0.7928969264030457,0.8554589152336121,-0.3881513774394989,0.04634927958250046,0.9481574892997742
13.854003667831421,-0.2141985148191452,-0.8100633025169373,0.8676661252975464,-0.3858625292778015,0.046730753034353256,0.9500648379325867
13.874093055725098,-0.2141985148191452,-0.8241779208183289,0.8802548050880432,-0.3847180902957916,0.045204851776361465,0.9531166553497314
13.894173622131348,-0.2145799994468689,-0.8413442969322205,0.8924620151519775,-0.38281071186065674,0.04711223021149635,0.9554055333137512
13.914214134216309,-0.2157244235277176,-0.8562218546867371,0.9027618765830994,-0.38128480315208435,0.04787518084049225,0.9565499424934387
13.934300184249878,-0.21648737788200378,-0.8703364729881287,0.9138246774673462,-0.37937742471694946,0.05054550990462303,0.9588387608528137
13.95438551902771,-0.21686884760856628,-0.8821622133255005,0.9233615398406982,-0.3774700462818146,0.05436026677489281,0.960746169090271
13.974451065063477,-0.21763180196285248,-0.8909361362457275,0.9321355223655701,-0.3751811981201172,0.057793546468019485,0.9626535177230835
13.994996547698975,-0.21839475631713867,-0.8981841802597046,0.9397650361061096,-0.3728923499584198,0.06046387553215027,0.9641794562339783
14.015087604522705,-0.22068360447883606,-0.9035248160362244,0.9477760195732117,-0.3694590628147125,0.06237125024199486,0.9668498039245605
14.03515076637268,-0.22373540699481964,-0.9065766334533691,0.9531166553497314,-0.36602577567100525,0.06580453366041183,0.9699015617370605
14.055214881896973,-0.2283131182193756,-0.9065766334533691,0.9561684727668762,-0.361829549074173,0.07038223743438721,0.9733348488807678
14.075301170349121,-0.23327229917049408,-0.9050507545471191,0.9576943516731262,-0.3583962619304657,0.07534141838550568,0.9763866662979126
14.095371007919312,-0.23899443447589874,-0.9035248160362244,0.9580758213996887,-0.3545815348625183,0.07991912961006165,0.9794384837150574
14.115427255630493,-0.2439536154270172,-0.9027618765830994,0.9580758213996887,-0.34924086928367615,0.08030059933662415,0.9821087718009949
14.135523796081543,-0.2481498420238495,-0.9023804068565369,0.9580758213996887,-0.34657052159309387,0.08182650804519653,0.9859235286712646
14.155663013458252,-0.248531311750412,-0.9019989371299744,0.9580758213996887,-0.3427557647228241,0.08144503086805344,0.9866865277290344
14.175714492797852,-0.2500572204589844,-0.9012359976768494,0.9588387608528137,-0.3381780683994293,0.08335240930318832,0.9893568158149719
14.195788145065308,-0.2504386901855469,-0.9000915288925171,0.9588387608528137,-0.33512628078460693,0.08525978773832321,0.9897382855415344
14.215903997421265,-0.25196459889411926,-0.8989471197128296,0.959983229637146,-0.33131152391433716,0.09250781685113907,0.9920271635055542
14.23593282699585,-0.25501641631126404,-0.8970397710800171,0.959983229637146,-0.32520791888237,0.10128175467252731,0.9931715726852417
14.25600528717041,-0.2588311731815338,-0.8939879536628723,0.9596017599105835,-0.32024872303009033,0.11081864684820175,0.9962233901023865
14.276071310043335,-0.2618829607963562,-0.8901731967926025,0.959220290184021,-0.31528952717781067,0.11615930497646332,0.9988937377929688
14.296218872070312,-0.2645532786846161,-0.8871213793754578,0.9584572911262512,-0.3091859221458435,0.11768520623445511,1.0008010864257812
14.317204713821411,-0.26684215664863586,-0.884069561958313,0.9576943516731262,-0.30384528636932373,0.11654078215360641,1.0034713745117188
14.337299108505249,-0.26913100481033325,-0.8813992738723755,0.9573128819465637,-0.29812315106391907,0.1180666834115982,1.0084306001663208
14.35739254951477,-0.26951247453689575,-0.8794918656349182,0.9569314122200012,-0.2920195460319519,0.11730372905731201,1.0103379487991333
