liuyurong129/humanoid-gym/humanoid/data/actual_q_20250523-001429.csv
timestamp,joint_1,joint_2,joint_3,joint_4,joint_5,joint_6
6.794929504394531e-05,0.000572213320992887,0.164988175034523,-0.08258945494890213,-0.00019073777366429567,0.00019073777366429567,-0.00019073777366429567
0.02016282081604004,0.000572213320992887,0.14286258816719055,-0.07343403995037079,-0.00019073777366429567,0.00019073777366429567,-0.00019073777366429567
0.04025101661682129,-0.00019073777366429567,0.12149996310472488,-0.06427863240242004,-0.00019073777366429567,0.002861066721379757,-0.00019073777366429567
0.060317039489746094,0.00019073777366429567,0.10776684433221817,-0.058175019919872284,-0.00019073777366429567,0.0013351644156500697,-0.00019073777366429567
0.08039045333862305,-0.00019073777366429567,0.09670405089855194,-0.05092698708176613,-0.00019073777366429567,-0.000572213320992887,-0.00019073777366429567
0.10052251815795898,-0.00019073777366429567,0.0883115902543068,-0.04596780240535736,-0.00019073777366429567,-0.00019073777366429567,-0.00019073777366429567
0.12074708938598633,0.00019073777366429567,0.08487831056118011,-0.04253452271223068,-0.00019073777366429567,-0.00019073777366429567,-0.00019073777366429567
0.1408238410949707,0.000572213320992887,0.0871671661734581,-0.04291599988937378,-0.00019073777366429567,-0.0009536888683214784,-0.00019073777366429567
0.16085004806518555,0.000572213320992887,0.086785688996315,-0.043678950518369675,-0.00019073777366429567,-0.000572213320992887,-0.00019073777366429567
0.18101000785827637,0.000572213320992887,0.08564125746488571,-0.04329747334122658,-0.00019073777366429567,-0.00019073777366429567,-0.00019073777366429567
0.20106077194213867,0.000572213320992887,0.08487831056118011,-0.04291599988937378,-0.000572213320992887,0.000572213320992887,-0.00019073777366429567
0.22111845016479492,0.000572213320992887,0.08487831056118011,-0.04253452271223068,-0.000572213320992887,0.00019073777366429567,-0.00019073777366429567
0.24119353294372559,0.000572213320992887,0.08602273464202881,-0.04139009863138199,-0.000572213320992887,0.00019073777366429567,-0.00019073777366429567
0.2612483501434326,0.0009536888683214784,0.08602273464202881,-0.04100862145423889,-0.000572213320992887,0.00019073777366429567,-0.00019073777366429567
0.2813403606414795,0.0009536888683214784,0.08564125746488571,-0.040245670825242996,-0.000572213320992887,-0.00019073777366429567,-0.00019073777366429567
0.3014554977416992,0.001716639962978661,0.08564125746488571,-0.0398641936480999,-0.000572213320992887,-0.00019073777366429567,-0.00019073777366429567
0.3216254711151123,0.001716639962978661,0.08487831056118011,-0.0394827201962471,-0.000572213320992887,-0.00019073777366429567,-0.00019073777366429567
0.34171628952026367,0.0020981156267225742,0.08487831056118011,-0.038719769567251205,-0.0009536888683214784,-0.00019073777366429567,0.00019073777366429567
0.361783504486084,0.0020981156267225742,0.08487831056118011,-0.038719769567251205,-0.0009536888683214784,-0.00019073777366429567,0.00019073777366429567
0.38187146186828613,0.0024795911740511656,0.08487831056118011,-0.03795681521296501,-0.0009536888683214784,-0.00019073777366429567,0.00019073777366429567
0.40193963050842285,0.0024795911740511656,0.08411535620689392,-0.037193864583969116,-0.0009536888683214784,-0.00019073777366429567,0.00019073777366429567
0.42198944091796875,0.002861066721379757,0.08373387902975082,-0.03681239113211632,-0.0013351644156500697,-0.00019073777366429567,0.00019073777366429567
0.4420802593231201,0.002861066721379757,0.08373387902975082,-0.03604944050312042,-0.0020981156267225742,0.00019073777366429567,0.00019073777366429567
0.46218395233154297,0.002861066721379757,0.08373387902975082,-0.03528648987412453,-0.0024795911740511656,0.00019073777366429567,0.00019073777366429567
0.48223447799682617,0.002861066721379757,0.08335240930318832,-0.03490501269698143,-0.002861066721379757,-0.00019073777366429567,0.00019073777366429567
0.5023181438446045,0.002861066721379757,0.08297093212604523,-0.03452353551983833,-0.0032425422687083483,-0.00019073777366429567,0.000572213320992887
0.5223853588104248,0.0032425422687083483,0.08258945494890213,-0.03376058489084244,-0.0032425422687083483,-0.00019073777366429567,0.000572213320992887
0.5424444675445557,0.004005493130534887,0.08258945494890213,-0.03337911143898964,-0.0036240178160369396,-0.00019073777366429567,0.000572213320992887
0.5625402927398682,0.004386968910694122,0.08258945494890213,-0.03299763426184654,-0.004005493130534887,-0.00019073777366429567,0.000572213320992887
0.5826137065887451,0.00476844422519207,0.08220797777175903,-0.032616160809993744,-0.004005493130534887,-0.00019073777366429567,0.0009536888683214784
0.6026904582977295,0.00476844422519207,0.08182650804519653,-0.03185320645570755,-0.004386968910694122,-0.00019073777366429567,0.0009536888683214784
0.6227724552154541,0.00476844422519207,0.08106355369091034,-0.03147173300385475,-0.00476844422519207,0.00019073777366429567,0.0009536888683214784
0.6428112983703613,0.00476844422519207,0.08068207651376724,-0.031090257689356804,-0.005149920005351305,-0.00019073777366429567,0.0009536888683214784
0.6629035472869873,0.00476844422519207,0.08068207651376724,-0.030708782374858856,-0.005912871100008488,-0.00019073777366429567,0.0013351644156500697
0.6829822063446045,0.00476844422519207,0.08068207651376724,-0.02994582988321781,-0.006294346414506435,-0.000572213320992887,0.0013351644156500697
0.7030408382415771,0.00476844422519207,0.08068207651376724,-0.029182879254221916,-0.007057297509163618,-0.00019073777366429567,0.0013351644156500697
0.7231218814849854,0.00476844422519207,0.08068207651376724,-0.02880140393972397,-0.007057297509163618,-0.00019073777366429567,0.0013351644156500697
0.7432155609130859,0.005149920005351305,0.08030059933662415,-0.02841992862522602,-0.007057297509163618,-0.00019073777366429567,0.001716639962978661
0.7632856369018555,0.005149920005351305,0.07991912961006165,-0.027656977996230125,-0.007438773289322853,-0.00019073777366429567,0.001716639962978661
0.7833716869354248,0.006294346414506435,0.07953765243291855,-0.02727550081908703,-0.007438773289322853,-0.00019073777366429567,0.001716639962978661
0.8034589290618896,0.007057297509163618,0.07915617525577545,-0.026512550190091133,-0.0078202486038208,-0.000572213320992887,0.0020981156267225742
0.8235228061676025,0.00667582219466567,0.07877469807863235,-0.026512550190091133,-0.0078202486038208,-0.000572213320992887,0.0024795911740511656
0.8436038494110107,0.007057297509163618,0.07839322835206985,-0.02536812424659729,-0.008201723918318748,0.00019073777366429567,0.002861066721379757
0.8636744022369385,0.007057297509163618,0.07839322835206985,-0.024605173617601395,-0.008201723918318748,-0.00019073777366429567,0.0032425422687083483
0.8837361335754395,0.007057297509163618,0.07839322835206985,-0.024223696440458298,-0.00858320016413927,-0.00019073777366429567,0.0036240178160369396
0.9038233757019043,0.007057297509163618,0.07801175117492676,-0.023460745811462402,-0.008964675478637218,-0.00019073777366429567,0.004005493130534887
0.9239013195037842,0.007057297509163618,0.07763027399778366,-0.023079270496964455,-0.009346150793135166,-0.000572213320992887,0.004005493130534887
0.9441523551940918,0.007057297509163618,0.07724879682064056,-0.02231631986796856,-0.010109102353453636,-0.00019073777366429567,0.004386968910694122
0.9642574787139893,0.007438773289322853,0.07724879682064056,-0.02193484455347061,-0.010872052982449532,-0.000572213320992887,0.004386968910694122
0.9843189716339111,0.0078202486038208,0.07724879682064056,-0.021553369238972664,-0.01125352829694748,-0.000572213320992887,0.004386968910694122
1.004422664642334,0.0078202486038208,0.07648584991693497,-0.021171892061829567,-0.01125352829694748,-0.00019073777366429567,0.004386968910694122
1.024536371231079,0.008201723918318748,0.07610437273979187,-0.02040894143283367,-0.011635004542768002,-0.00019073777366429567,0.00476844422519207
1.0446171760559082,0.008201723918318748,0.07648584991693497,-0.020027466118335724,-0.01201647985726595,-0.000572213320992887,0.004386968910694122
1.0646743774414062,0.008201723918318748,0.07610437273979187,-0.01926451548933983,-0.012397955171763897,-0.000572213320992887,0.00476844422519207
1.0847644805908203,0.008964675478637218,0.07534141838550568,-0.01888304017484188,-0.012779430486261845,-0.000572213320992887,0.00476844422519207
1.1048481464385986,0.008964675478637218,0.07572289556264877,-0.018120087683200836,-0.013542382046580315,-0.000572213320992887,0.00476844422519207
1.124929666519165,0.008964675478637218,0.07534141838550568,-0.01773861236870289,-0.014686808921396732,-0.000572213320992887,0.00476844422519207
1.144998550415039,0.008964675478637218,0.07534141838550568,-0.016975661739706993,-0.01506828423589468,-0.000572213320992887,0.00476844422519207
1.1651482582092285,0.009346150793135166,0.07534141838550568,-0.016212711110711098,-0.015449759550392628,-0.000572213320992887,0.005149920005351305
1.1854054927825928,0.009727626107633114,0.07457847148180008,-0.01583123579621315,-0.015449759550392628,-0.000572213320992887,0.005149920005351305
1.2053959369659424,0.010109102353453636,0.07419699430465698,-0.014686808921396732,-0.015449759550392628,-0.000572213320992887,0.005149920005351305
1.2255043983459473,0.009727626107633114,0.07343403995037079,-0.013923857361078262,-0.01583123579621315,-0.0009536888683214784,0.005531395319849253
1.2455995082855225,0.010109102353453636,0.07343403995037079,-0.012397955171763897,-0.016212711110711098,-0.000572213320992887,0.005531395319849253
1.2656631469726562,0.010109102353453636,0.07343403995037079,-0.01201647985726595,-0.016212711110711098,-0.000572213320992887,0.005531395319849253
1.285731554031372,0.010109102353453636,0.07343403995037079,-0.011635004542768002,-0.016975661739706993,-0.000572213320992887,0.005912871100008488
1.3058805465698242,0.010490577667951584,0.07305257022380829,-0.010490577667951584,-0.01773861236870289,-0.000572213320992887,0.006294346414506435
1.3259079456329346,0.010872052982449532,0.07267109304666519,-0.010109102353453636,-0.018501564860343933,-0.0009536888683214784,0.00667582219466567
1.3460056781768799,0.01125352829694748,0.0722896158695221,-0.009727626107633114,-0.018501564860343933,-0.0009536888683214784,0.007438773289322853
1.3661181926727295,0.01125352829694748,0.071908138692379,-0.008964675478637218,-0.01888304017484188,-0.000572213320992887,0.008201723918318748
1.3862168788909912,0.01201647985726595,0.071908138692379,-0.00858320016413927,-0.01888304017484188,-0.000572213320992887,0.008201723918318748
1.4063472747802734,0.012397955171763897,0.0711451917886734,-0.0078202486038208,-0.01926451548933983,-0.000572213320992887,0.008201723918318748
1.4263975620269775,0.012397955171763897,0.0711451917886734,-0.007057297509163618,-0.01926451548933983,-0.0009536888683214784,0.00858320016413927
1.4464924335479736,0.012397955171763897,0.0711451917886734,-0.006294346414506435,-0.019645990803837776,-0.000572213320992887,0.00858320016413927
1.4666249752044678,0.012397955171763897,0.0707637146115303,-0.005531395319849253,-0.020027466118335724,-0.000572213320992887,0.00858320016413927
1.486652135848999,0.013160906732082367,0.07038223743438721,-0.005531395319849253,-0.02040894143283367,-0.0009536888683214784,0.008964675478637218
1.5067517757415771,0.013160906732082367,0.07000076025724411,-0.00476844422519207,-0.021171892061829567,-0.0009536888683214784,0.008964675478637218
1.526829719543457,0.013542382046580315,0.07000076025724411,-0.004005493130534887,-0.02193484455347061,-0.0009536888683214784,0.009346150793135166
1.5469324588775635,0.01430533267557621,0.06923781335353851,-0.0036240178160369396,-0.02231631986796856,-0.0009536888683214784,0.009346150793135166
1.5670177936553955,0.01430533267557621,0.06923781335353851,-0.0024795911740511656,-0.02231631986796856,-0.000572213320992887,0.009727626107633114
1.5870938301086426,0.01430533267557621,0.06885633617639542,-0.0020981156267225742,-0.022697795182466507,-0.000572213320992887,0.010109102353453636
1.6076359748840332,0.01430533267557621,0.06885633617639542,-0.001716639962978661,-0.022697795182466507,-0.0009536888683214784,0.010872052982449532
1.6277179718017578,0.01430533267557621,0.06847485899925232,-0.000572213320992887,-0.023079270496964455,-0.0009536888683214784,0.011635004542768002
1.6479346752166748,0.01430533267557621,0.06809338182210922,0.000572213320992887,-0.023079270496964455,-0.0009536888683214784,0.011635004542768002
1.6680285930633545,0.014686808921396732,0.06809338182210922,0.0009536888683214784,-0.023460745811462402,-0.0009536888683214784,0.01201647985726595
1.6880855560302734,0.01506828423589468,0.06771191209554672,0.0020981156267225742,-0.02384222112596035,-0.0009536888683214784,0.01201647985726595
1.7083516120910645,0.01506828423589468,0.06694895774126053,0.002861066721379757,-0.024605173617601395,-0.000572213320992887,0.01201647985726595
1.7285919189453125,0.01506828423589468,0.06618601083755493,0.0036240178160369396,-0.02536812424659729,-0.000572213320992887,0.01201647985726595
1.7485783100128174,0.015449759550392628,0.06580453366041183,0.004005493130534887,-0.026131074875593185,-0.0009536888683214784,0.012397955171763897
1.7686457633972168,0.015449759550392628,0.06618601083755493,0.00476844422519207,-0.026131074875593185,-0.0009536888683214784,0.012397955171763897
1.7887122631072998,0.01583123579621315,0.06580453366041183,0.005912871100008488,-0.026131074875593185,-0.0009536888683214784,0.012397955171763897
1.808889627456665,0.016975661739706993,0.06504157930612564,0.008964675478637218,-0.026512550190091133,-0.0013351644156500697,0.012779430486261845
1.8289101123809814,0.01735713705420494,0.06389715522527695,0.01125352829694748,-0.02689402550458908,-0.0009536888683214784,0.012779430486261845
1.8489959239959717,0.01735713705420494,0.06389715522527695,0.011635004542768002,-0.02727550081908703,-0.0009536888683214784,0.012779430486261845
1.8691024780273438,0.01735713705420494,0.06389715522527695,0.01201647985726595,-0.027656977996230125,-0.000572213320992887,0.012779430486261845
1.889158010482788,0.01735713705420494,0.06389715522527695,0.012779430486261845,-0.028038453310728073,-0.0009536888683214784,0.013160906732082367
1.9092888832092285,0.01735713705420494,0.06313420087099075,0.013160906732082367,-0.02880140393972397,-0.0009536888683214784,0.013160906732082367
1.9293417930603027,0.01773861236870289,0.06275273114442825,0.013542382046580315,-0.029182879254221916,-0.0013351644156500697,0.013542382046580315
1.9494128227233887,0.01888304017484188,0.06275273114442825,0.014686808921396732,-0.029564354568719864,-0.0013351644156500697,0.013923857361078262
1.9697959423065186,0.01926451548933983,0.06275273114442825,0.015449759550392628,-0.02994582988321781,-0.0013351644156500697,0.014686808921396732
1.9898912906646729,0.01926451548933983,0.06198977679014206,0.016594186425209045,-0.03032730519771576,-0.0009536888683214784,0.014686808921396732
2.009993076324463,0.01926451548933983,0.06160829961299896,0.016975661739706993,-0.03032730519771576,-0.0009536888683214784,0.01506828423589468
2.0300440788269043,0.01926451548933983,0.06084534898400307,0.01735713705420494,-0.030708782374858856,-0.0009536888683214784,0.01506828423589468
2.0502493381500244,0.01926451548933983,0.06046387553215027,0.018120087683200836,-0.030708782374858856,-0.0009536888683214784,0.015449759550392628
2.070253849029541,0.019645990803837776,0.06084534898400307,0.01926451548933983,-0.031090257689356804,-0.001716639962978661,0.01583123579621315
2.0904204845428467,0.019645990803837776,0.06046387553215027,0.02040894143283367,-0.03185320645570755,-0.001716639962978661,0.01583123579621315
2.1104588508605957,0.02040894143283367,0.05970092490315437,0.021553369238972664,-0.032616160809993744,-0.001716639962978661,0.016212711110711098
2.130510091781616,0.021171892061829567,0.05893797054886818,0.02193484455347061,-0.03337911143898964,-0.001716639962978661,0.016212711110711098
2.150630235671997,0.021171892061829567,0.05893797054886818,0.022697795182466507,-0.03376058489084244,-0.0013351644156500697,0.016594186425209045
2.1707100868225098,0.021171892061829567,0.05855649709701538,0.023079270496964455,-0.034142062067985535,-0.0009536888683214784,0.016594186425209045
2.1907896995544434,0.021171892061829567,0.05855649709701538,0.023460745811462402,-0.03452353551983833,-0.0013351644156500697,0.016594186425209045
2.2109603881835938,0.021171892061829567,0.05855649709701538,0.024605173617601395,-0.03452353551983833,-0.001716639962978661,0.016975661739706993
2.2310941219329834,0.021553369238972664,0.057793546468019485,0.02536812424659729,-0.03490501269698143,-0.0020981156267225742,0.01735713705420494
2.2511513233184814,0.021553369238972664,0.05741206929087639,0.026512550190091133,-0.035667963325977325,-0.0020981156267225742,0.01773861236870289
2.271214723587036,0.02193484455347061,0.05703059583902359,0.02727550081908703,-0.03681239113211632,-0.0020981156267225742,0.018501564860343933
2.291297197341919,0.02231631986796856,0.05664911866188049,0.028038453310728073,-0.037193864583969116,-0.001716639962978661,0.018501564860343933
2.3113815784454346,0.022697795182466507,0.05664911866188049,0.02880140393972397,-0.03757534176111221,-0.001716639962978661,0.01888304017484188
2.3314483165740967,0.022697795182466507,0.056267641484737396,0.029564354568719864,-0.03795681521296501,-0.001716639962978661,0.01888304017484188
2.3515591621398926,0.022697795182466507,0.0555046908557415,0.030708782374858856,-0.03795681521296501,-0.001716639962978661,0.01926451548933983
2.3716132640838623,0.023460745811462402,0.0555046908557415,0.03147173300385475,-0.03833829239010811,-0.0020981156267225742,0.01926451548933983
2.391711711883545,0.023460745811462402,0.0551232174038887,0.03223468363285065,-0.038719769567251205,-0.0020981156267225742,0.019645990803837776
2.4117825031280518,0.023460745811462402,0.054741740226745605,0.03299763426184654,-0.039101243019104004,-0.0020981156267225742,0.019645990803837776
2.432175397872925,0.02384222112596035,0.05359731614589691,0.034142062067985535,-0.040627144277095795,-0.001716639962978661,0.019645990803837776
2.4522337913513184,0.024605173617601395,0.053215838968753815,0.035667963325977325,-0.04139009863138199,-0.0020981156267225742,0.020027466118335724
2.4723124504089355,0.024605173617601395,0.05359731614589691,0.03643091395497322,-0.04177157208323479,-0.001716639962978661,0.020027466118335724
2.4924609661102295,0.024605173617601395,0.053215838968753815,0.03757534176111221,-0.042153049260377884,-0.0020981156267225742,0.02040894143283367
2.5125434398651123,0.024986648932099342,0.05245288833975792,0.038719769567251205,-0.042153049260377884,-0.0020981156267225742,0.02040894143283367
2.53261661529541,0.024986648932099342,0.051689937710762024,0.0394827201962471,-0.04253452271223068,-0.0020981156267225742,0.02040894143283367
2.552696943283081,0.025749599561095238,0.051689937710762024,0.0398641936480999,-0.04291599988937378,-0.0024795911740511656,0.02079041674733162
2.5727672576904297,0.025749599561095238,0.05130846053361893,0.040627144277095795,-0.04406042397022247,-0.002861066721379757,0.02079041674733162
2.5928280353546143,0.026131074875593185,0.05054550990462303,0.04100862145423889,-0.04482337832450867,-0.0024795911740511656,0.021171892061829567
2.612934112548828,0.026512550190091133,0.050164032727479935,0.04177157208323479,-0.04482337832450867,-0.0024795911740511656,0.021553369238972664
2.633009433746338,0.026512550190091133,0.050164032727479935,0.04291599988937378,-0.045204851776361465,-0.0024795911740511656,0.02193484455347061
2.653275489807129,0.026512550190091133,0.04940108209848404,0.043678950518369675,-0.045204851776361465,-0.0024795911740511656,0.022697795182466507
2.673365592956543,0.02689402550458908,0.048638131469488144,0.04444190114736557,-0.04558632895350456,-0.0024795911740511656,0.023079270496964455
2.6934311389923096,0.02689402550458908,0.048638131469488144,0.045204851776361465,-0.04596780240535736,-0.002861066721379757,0.023079270496964455
2.7141172885894775,0.02727550081908703,0.048256658017635345,0.04634927958250046,-0.04634927958250046,-0.0032425422687083483,0.023460745811462402
2.7342052459716797,0.028038453310728073,0.04787518084049225,0.04749370738863945,-0.046730753034353256,-0.0036240178160369396,0.023460745811462402
2.754380702972412,0.02880140393972397,0.04711223021149635,0.048256658017635345,-0.04749370738863945,-0.004005493130534887,0.024223696440458298
2.774902105331421,0.02880140393972397,0.046730753034353256,0.04940108209848404,-0.048638131469488144,-0.0036240178160369396,0.024605173617601395
2.7950961589813232,0.02880140393972397,0.04634927958250046,0.05054550990462303,-0.04901960864663124,-0.0032425422687083483,0.024605173617601395
2.8151614665985107,0.02880140393972397,0.04634927958250046,0.05092698708176613,-0.04901960864663124,-0.0036240178160369396,0.024986648932099342
2.836047887802124,0.02880140393972397,0.04634927958250046,0.05207141116261482,-0.049782559275627136,-0.0036240178160369396,0.02689402550458908
2.8561856746673584,0.029182879254221916,0.04558632895350456,0.053215838968753815,-0.049782559275627136,-0.004005493130534887,0.02727550081908703
2.8763270378112793,0.029182879254221916,0.045204851776361465,0.05436026677489281,-0.05054550990462303,-0.004386968910694122,0.02727550081908703
2.897186517715454,0.029564354568719864,0.04444190114736557,0.0551232174038887,-0.051689937710762024,-0.004386968910694122,0.027656977996230125
2.9173359870910645,0.029564354568719864,0.04406042397022247,0.0558861680328846,-0.05245288833975792,-0.004005493130534887,0.027656977996230125
2.937354564666748,0.02994582988321781,0.04329747334122658,0.05664911866188049,-0.05245288833975792,-0.0036240178160369396,0.027656977996230125
2.957571029663086,0.03032730519771576,0.04291599988937378,0.057793546468019485,-0.05283436179161072,-0.004005493130534887,0.028038453310728073
2.9777989387512207,0.031090257689356804,0.04253452271223068,0.05893797054886818,-0.053215838968753815,-0.004386968910694122,0.02841992862522602
2.997812032699585,0.03185320645570755,0.04177157208323479,0.06008239835500717,-0.053215838968753815,-0.004386968910694122,0.029564354568719864
3.0179219245910645,0.03185320645570755,0.04139009863138199,0.061226826161146164,-0.05359731614589691,-0.004005493130534887,0.02994582988321781
3.037973403930664,0.03185320645570755,0.040245670825242996,0.06198977679014206,-0.05436026677489281,-0.004005493130534887,0.03032730519771576
3.0580391883850098,0.03185320645570755,0.040245670825242996,0.06313420087099075,-0.0551232174038887,-0.004005493130534887,0.03032730519771576
3.0781679153442383,0.03185320645570755,0.0394827201962471,0.06427863240242004,-0.0558861680328846,-0.004005493130534887,0.03032730519771576
3.098252773284912,0.03223468363285065,0.039101243019104004,0.06504157930612564,-0.056267641484737396,-0.004386968910694122,0.030708782374858856
3.1183199882507324,0.032616160809993744,0.039101243019104004,0.06618601083755493,-0.05664911866188049,-0.004386968910694122,0.030708782374858856
3.1385815143585205,0.03376058489084244,0.038719769567251205,0.06771191209554672,-0.05703059583902359,-0.00476844422519207,0.031090257689356804
3.158625602722168,0.03376058489084244,0.03795681521296501,0.06885633617639542,-0.057793546468019485,-0.00476844422519207,0.031090257689356804
3.1788547039031982,0.03376058489084244,0.037193864583969116,0.06923781335353851,-0.05855649709701538,-0.004386968910694122,0.031090257689356804
3.198965072631836,0.034142062067985535,0.03681239113211632,0.07038223743438721,-0.05970092490315437,-0.004005493130534887,0.03147173300385475
3.219026565551758,0.034142062067985535,0.03643091395497322,0.0711451917886734,-0.06008239835500717,-0.004386968910694122,0.03185320645570755
3.2391445636749268,0.034142062067985535,0.03604944050312042,0.0722896158695221,-0.06046387553215027,-0.00476844422519207,0.03223468363285065
3.2592005729675293,0.03490501269698143,0.03528648987412453,0.07381551712751389,-0.06046387553215027,-0.005149920005351305,0.032616160809993744
3.279303789138794,0.03604944050312042,0.03490501269698143,0.07457847148180008,-0.06084534898400307,-0.005149920005351305,0.03337911143898964
3.2993855476379395,0.03604944050312042,0.03452353551983833,0.07534141838550568,-0.061226826161146164,-0.005149920005351305,0.03452353551983833
3.319453239440918,0.03604944050312042,0.03376058489084244,0.07648584991693497,-0.06237125024199486,-0.00476844422519207,0.03452353551983833
3.339503526687622,0.03604944050312042,0.03337911143898964,0.07724879682064056,-0.06351567804813385,-0.004386968910694122,0.03490501269698143
3.3595833778381348,0.03604944050312042,0.03299763426184654,0.07763027399778366,-0.06389715522527695,-0.004386968910694122,0.03490501269698143
3.379667282104492,0.03643091395497322,0.03223468363285065,0.07915617525577545,-0.06427863240242004,-0.005149920005351305,0.03528648987412453
3.3997550010681152,0.03643091395497322,0.03185320645570755,0.08068207651376724,-0.06466010212898254,-0.005531395319849253,0.03643091395497322
3.4198265075683594,0.037193864583969116,0.031090257689356804,0.08220797777175903,-0.06504157930612564,-0.005531395319849253,0.037193864583969116
3.439940929412842,0.03757534176111221,0.02994582988321781,0.08373387902975082,-0.06542305648326874,-0.005531395319849253,0.03795681521296501
3.4602177143096924,0.03795681521296501,0.02994582988321781,0.08487831056118011,-0.06733043491840363,-0.005149920005351305,0.03795681521296501
3.4803059101104736,0.03833829239010811,0.02880140393972397,0.08602273464202881,-0.06771191209554672,-0.00476844422519207,0.03833829239010811
3.500393867492676,0.03833829239010811,0.02841992862522602,0.0871671661734581,-0.06809338182210922,-0.005149920005351305,0.03833829239010811
3.520547866821289,0.03833829239010811,0.028038453310728073,0.0879301130771637,-0.06847485899925232,-0.005531395319849253,0.038719769567251205
3.540637731552124,0.039101243019104004,0.02689402550458908,0.08945601433515549,-0.06885633617639542,-0.005531395319849253,0.039101243019104004
3.560709238052368,0.039101243019104004,0.026512550190091133,0.09021896868944168,-0.06961929053068161,-0.005912871100008488,0.039101243019104004
3.580779552459717,0.039101243019104004,0.025749599561095238,0.09098191559314728,-0.07038223743438721,-0.005912871100008488,0.0394827201962471
3.6008903980255127,0.0398641936480999,0.024986648932099342,0.09288929402828217,-0.0711451917886734,-0.005912871100008488,0.0398641936480999
3.6209959983825684,0.040245670825242996,0.024223696440458298,0.09403372555971146,-0.0715266615152359,-0.005912871100008488,0.040627144277095795
3.6413142681121826,0.04100862145423889,0.02384222112596035,0.09555962681770325,-0.0715266615152359,-0.005912871100008488,0.04177157208323479
3.661466360092163,0.04139009863138199,0.02231631986796856,0.09784847497940063,-0.0722896158695221,-0.005912871100008488,0.042153049260377884
3.6816375255584717,0.042153049260377884,0.02193484455347061,0.09937438368797302,-0.07267109304666519,-0.005912871100008488,0.04253452271223068
3.7017195224761963,0.04291599988937378,0.02040894143283367,0.10128175467252731,-0.07381551712751389,-0.006294346414506435,0.04291599988937378
3.7218050956726074,0.043678950518369675,0.02040894143283367,0.1024261862039566,-0.07495994865894318,-0.007057297509163618,0.04329747334122658
3.7420904636383057,0.043678950518369675,0.019645990803837776,0.1035706102848053,-0.07534141838550568,-0.00667582219466567,0.04444190114736557
3.7621724605560303,0.043678950518369675,0.018120087683200836,0.10585946589708328,-0.07572289556264877,-0.00667582219466567,0.045204851776361465
3.7822699546813965,0.04406042397022247,0.01773861236870289,0.10700388997793198,-0.07648584991693497,-0.00667582219466567,0.04558632895350456
3.8024721145629883,0.04444190114736557,0.016594186425209045,0.10852979123592377,-0.07724879682064056,-0.007438773289322853,0.04596780240535736
3.8225884437561035,0.04482337832450867,0.015449759550392628,0.11043716967105865,-0.07877469807863235,-0.007438773289322853,0.04634927958250046
3.842634916305542,0.04558632895350456,0.01506828423589468,0.11234454810619354,-0.07953765243291855,-0.007438773289322853,0.046730753034353256
3.8627116680145264,0.04634927958250046,0.01430533267557621,0.11463340371847153,-0.07953765243291855,-0.007057297509163618,0.04711223021149635
3.8827877044677734,0.04634927958250046,0.013160906732082367,0.11654078215360641,-0.08068207651376724,-0.007057297509163618,0.04749370738863945
3.9032185077667236,0.04634927958250046,0.012397955171763897,0.1180666834115982,-0.08182650804519653,-0.007057297509163618,0.048638131469488144
3.9233133792877197,0.046730753034353256,0.01125352829694748,0.11959258466959,-0.08258945494890213,-0.007057297509163618,0.04901960864663124
3.943441390991211,0.046730753034353256,0.010490577667951584,0.12111848592758179,-0.08297093212604523,-0.007438773289322853,0.049782559275627136
3.963472604751587,0.04787518084049225,0.008964675478637218,0.12264438718557358,-0.08373387902975082,-0.0078202486038208,0.050164032727479935
3.9836390018463135,0.048638131469488144,0.008201723918318748,0.12417028844356537,-0.08487831056118011,-0.0078202486038208,0.05054550990462303
4.003673076629639,0.049782559275627136,0.005912871100008488,0.12607766687870026,-0.0864042118191719,-0.007438773289322853,0.05207141116261482
4.023763179779053,0.05092698708176613,0.004386968910694122,0.12874799966812134,-0.0871671661734581,-0.007057297509163618,0.053215838968753815
4.043873071670532,0.05092698708176613,0.0036240178160369396,0.13065537810325623,-0.0875486359000206,-0.00667582219466567,0.05397878959774971
4.063924074172974,0.05092698708176613,0.0024795911740511656,0.1325627565383911,-0.08945601433515549,-0.007057297509163618,0.05397878959774971
4.084011077880859,0.05130846053361893,0.000572213320992887,0.1356145590543747,-0.09021896868944168,-0.007438773289322853,0.05436026677489281
4.104073762893677,0.051689937710762024,-0.00019073777366429567,0.1367589831352234,-0.09060044586658478,-0.0078202486038208,0.0555046908557415
4.124324083328247,0.05207141116261482,-0.0013351644156500697,0.13866636157035828,-0.09098191559314728,-0.008201723918318748,0.05664911866188049
4.144497394561768,0.05283436179161072,-0.0032425422687083483,0.14133669435977936,-0.09174486994743347,-0.008201723918318748,0.05703059583902359
4.164551019668579,0.05283436179161072,-0.00476844422519207,0.14362554252147675,-0.09327077120542526,-0.007057297509163618,0.05741206929087639
4.184696912765503,0.053215838968753815,-0.00667582219466567,0.14629587531089783,-0.09441519528627396,-0.007057297509163618,0.05741206929087639
4.204814434051514,0.05397878959774971,-0.008964675478637218,0.1493476778268814,-0.09517814964056015,-0.007057297509163618,0.057793546468019485
4.224918842315674,0.05436026677489281,-0.010872052982449532,0.1508735716342926,-0.09670405089855194,-0.007438773289322853,0.05893797054886818
4.245126724243164,0.0551232174038887,-0.013160906732082367,0.15354390442371368,-0.09784847497940063,-0.0078202486038208,0.06008239835500717
4.265309572219849,0.0558861680328846,-0.014686808921396732,0.15621423721313477,-0.09822995215654373,-0.0078202486038208,0.061226826161146164
4.285303115844727,0.056267641484737396,-0.016594186425209045,0.15812161564826965,-0.09899290651082993,-0.007438773289322853,0.06198977679014206
4.305410623550415,0.05703059583902359,-0.018501564860343933,0.16155488789081573,-0.10051880776882172,-0.007438773289322853,0.06351567804813385
4.325507640838623,0.058175019919872284,-0.02079041674733162,0.1646067053079605,-0.10166323184967041,-0.007438773289322853,0.06427863240242004
4.345607280731201,0.058175019919872284,-0.02231631986796856,0.1668955534696579,-0.10204470902681351,-0.007057297509163618,0.06466010212898254
4.365678548812866,0.058175019919872284,-0.024986648932099342,0.17071031033992767,-0.1039520874619484,-0.007438773289322853,0.06504157930612564
4.385766983032227,0.058175019919872284,-0.02689402550458908,0.17261768877506256,-0.10509651154279709,-0.007438773289322853,0.06542305648326874
4.405835151672363,0.05855649709701538,-0.029182879254221916,0.17605096101760864,-0.10547798871994019,-0.0078202486038208,0.06618601083755493
4.426018714904785,0.059319447726011276,-0.03185320645570755,0.17948424816131592,-0.10624094307422638,-0.008201723918318748,0.06771191209554672
4.446352005004883,0.06008239835500717,-0.03490501269698143,0.1825360506772995,-0.10738536715507507,-0.0078202486038208,0.06885633617639542
4.4665443897247314,0.061226826161146164,-0.03833829239010811,0.18673227727413177,-0.10929274559020996,-0.008201723918318748,0.07038223743438721
4.4865593910217285,0.06237125024199486,-0.04139009863138199,0.19092851877212524,-0.11120012402534485,-0.0078202486038208,0.0722896158695221
4.506627798080444,0.06427863240242004,-0.04749370738863945,0.1977950781583786,-0.11272602528333664,-0.007438773289322853,0.07267109304666519
4.526735067367554,0.06580453366041183,-0.05130846053361893,0.20160982012748718,-0.11348897218704224,-0.007438773289322853,0.07305257022380829
4.547009229660034,0.06694895774126053,-0.0555046908557415,0.20771344006061554,-0.11463340371847153,-0.0078202486038208,0.07381551712751389
4.567165851593018,0.06809338182210922,-0.06275273114442825,0.2149614691734314,-0.11654078215360641,-0.007438773289322853,0.07534141838550568
4.587230443954468,0.06885633617639542,-0.06809338182210922,0.22030213475227356,-0.11730372905731201,-0.0078202486038208,0.07610437273979187
4.6073713302612305,0.07000076025724411,-0.07419699430465698,0.22755016386508942,-0.11959258466959,-0.008201723918318748,0.07801175117492676
4.627472639083862,0.0715266615152359,-0.08182650804519653,0.23746852576732635,-0.12226291000843048,-0.008201723918318748,0.08030059933662415
4.647585868835449,0.07305257022380829,-0.09479667246341705,0.2504386901855469,-0.12455176562070847,-0.0078202486038208,0.08182650804519653
4.667912721633911,0.07457847148180008,-0.10852979123592377,0.2637903392314911,-0.12607766687870026,-0.007438773289322853,0.08335240930318832
4.688051700592041,0.07686731964349747,-0.11730372905731201,0.2763790488243103,-0.12836651504039764,-0.008201723918318748,0.08449683338403702
4.70812463760376,0.07877469807863235,-0.12645913660526276,0.28782328963279724,-0.13065537810325623,-0.008201723918318748,0.0875486359000206
4.728238821029663,0.08030059933662415,-0.14209964871406555,0.30460822582244873,-0.13218127191066742,-0.0078202486038208,0.08945601433515549
4.748291730880737,0.08068207651376724,-0.15506981313228607,0.31872281432151794,-0.1340886503458023,-0.007438773289322853,0.09212634712457657
4.768556118011475,0.08220797777175903,-0.17147326469421387,0.33627068996429443,-0.13790340721607208,-0.008201723918318748,0.09594109654426575
4.788650274276733,0.08449683338403702,-0.19550621509552002,0.3580147922039032,-0.14171816408634186,-0.007438773289322853,0.09899290651082993
4.808716297149658,0.08602273464202881,-0.21763180196285248,0.3755626678466797,-0.14400701224803925,-0.0078202486038208,0.10051880776882172
4.828839540481567,0.0879301130771637,-0.230601966381073,0.3931105434894562,-0.14858472347259521,-0.009346150793135166,0.1028076633810997
4.8489296436309814,0.0879301130771637,-0.24128328263759613,0.4045548141002655,-0.1504921019077301,-0.00667582219466567,0.10471503436565399
4.869032859802246,0.0879301130771637,-0.25577935576438904,0.4194323718547821,-0.1520180106163025,-0.006294346414506435,0.10624094307422638
4.889151573181152,0.0879301130771637,-0.27218279242515564,0.4369802474975586,-0.15468832850456238,-0.005912871100008488,0.10891126841306686
4.909219741821289,0.08945601433515549,-0.28706035017967224,0.4552910625934601,-0.15850308537483215,-0.007438773289322853,0.11081864684820175
4.929329872131348,0.09250781685113907,-0.30537116527557373,0.47589075565338135,-0.16346226632595062,-0.009727626107633114,0.11501488089561462
4.949388265609741,0.09479667246341705,-0.3225375711917877,0.49458304047584534,-0.1661325991153717,-0.009727626107633114,0.1180666834115982
4.969484567642212,0.09517814964056015,-0.33665215969085693,0.5086976289749146,-0.16918440163135529,-0.01201647985726595,0.11959258466959
4.989525318145752,0.09517814964056015,-0.35152971744537354,0.5235751867294312,-0.17299915850162506,-0.01125352829694748,0.12149996310472488
5.009679317474365,0.09784847497940063,-0.3740367889404297,0.5476081371307373,-0.17833982408046722,-0.009346150793135166,0.12531471252441406
5.02976131439209,0.09975585341453552,-0.39883267879486084,0.5670633912086487,-0.1825360506772995,-0.010490577667951584,0.12798504531383514
5.05054783821106,0.10166323184967041,-0.4182879328727722,0.5880445837974548,-0.18635080754756927,-0.01201647985726595,0.13103684782981873
5.070611000061035,0.1024261862039566,-0.4346913993358612,0.6059738993644714,-0.18902114033699036,-0.01201647985726595,0.1340886503458023
5.090723752975464,0.1024261862039566,-0.44804301857948303,0.6197070479393005,-0.19169145822525024,-0.01125352829694748,0.1363775134086609
5.11076021194458,0.1024261862039566,-0.4667353332042694,0.6349660754203796,-0.19436179101467133,-0.01201647985726595,0.13904783129692078
5.130890607833862,0.1035706102848053,-0.4884794354438782,0.655184268951416,-0.1985580176115036,-0.015449759550392628,0.14362554252147675
5.1509435176849365,0.10700388997793198,-0.507553219795227,0.6738765835762024,-0.20733195543289185,-0.018120087683200836,0.1497291475534439
5.170956611633301,0.10929274559020996,-0.5300602912902832,0.6940947771072388,-0.21229113638401031,-0.020027466118335724,0.1527809500694275
5.191081762313843,0.11120012402534485,-0.5533303022384644,0.7173647880554199,-0.21648737788200378,-0.02040894143283367,0.15697719156742096
5.211127281188965,0.11387044936418533,-0.5739299654960632,0.7383459210395813,-0.22487983107566833,-0.021553369238972664,0.16269932687282562
5.231180191040039,0.11577782779932022,-0.5991073250770569,0.7631418108940125,-0.23327229917049408,-0.02193484455347061,0.17071031033992767
5.251274824142456,0.11692225188016891,-0.6254291534423828,0.7921339869499207,-0.24013885855674744,-0.02384222112596035,0.17643244564533234
5.271350383758545,0.11692225188016891,-0.6506065726280212,0.8199816942214966,-0.24929426610469818,-0.026131074875593185,0.1848248988389969
5.29149866104126,0.11692225188016891,-0.6788357496261597,0.8493552803993225,-0.2630273997783661,-0.03032730519771576,0.1977950781583786
5.311524391174316,0.11692225188016891,-0.7108796834945679,0.8821622133255005,-0.2775234580039978,-0.03528648987412453,0.20923933386802673
5.331590175628662,0.11692225188016891,-0.7372015118598938,0.9061951637268066,-0.2950713336467743,-0.045204851776361465,0.22564278542995453
5.3517677783966064,0.11692225188016891,-0.7646677494049072,0.9309910535812378,-0.3107118308544159,-0.053215838968753815,0.23975738883018494
5.371916770935059,0.11692225188016891,-0.7925154566764832,0.9546425342559814,-0.3233005404472351,-0.061226826161146164,0.25501641631126404
5.3919594287872314,0.11692225188016891,-0.813878059387207,0.9740977883338928,-0.3416113555431366,-0.06618601083755493,0.27141985297203064
5.412096738815308,0.11692225188016891,-0.8360036611557007,0.9924086332321167,-0.361066609621048,-0.07038223743438721,0.28667888045310974
5.432214736938477,0.11692225188016891,-0.8562218546867371,1.0088120698928833,-0.3721294105052948,-0.07495994865894318,0.29812315106391907
5.452295303344727,0.11692225188016891,-0.8710994124412537,1.0217822790145874,-0.3858625292778015,-0.07495994865894318,0.3103303611278534
5.472426652908325,0.11692225188016891,-0.8878843188285828,1.033989429473877,-0.4011215269565582,-0.07915617525577545,0.3217746317386627
5.4925408363342285,0.11692225188016891,-0.9031433463096619,1.046196699142456,-0.41142138838768005,-0.08297093212604523,0.33016708493232727
5.51260781288147,0.11692225188016891,-0.916113555431366,1.0530632734298706,-0.422102689743042,-0.08411535620689392,0.3408484160900116
5.532711982727051,0.11654078215360641,-0.9279392957687378,1.0595483779907227,-0.43163958191871643,-0.0875486359000206,0.34885939955711365
5.552774667739868,0.11654078215360641,-0.9401465058326721,1.0656518936157227,-0.4381246566772461,-0.08945601433515549,0.3542000353336334
5.572856426239014,0.11615930497646332,-0.9470130205154419,1.0679408311843872,-0.44346532225608826,-0.08869306743144989,0.3603036403656006
5.592930316925049,0.11615930497646332,-0.952735185623169,1.0694667100906372,-0.4499503970146179,-0.08945601433515549,0.36526283621788025
5.613022327423096,0.11615930497646332,-0.9573128819465637,1.0706111192703247,-0.4541466534137726,-0.09021896868944168,0.36907759308815
5.63312029838562,0.11615930497646332,-0.9584572911262512,1.0717555284500122,-0.46177613735198975,-0.09060044586658478,0.3759441375732422
5.653231620788574,0.11615930497646332,-0.959220290184021,1.0725184679031372,-0.4709315598011017,-0.09060044586658478,0.3854810297489166
5.673312664031982,0.11615930497646332,-0.959220290184021,1.0728999376296997,-0.4842832088470459,-0.09288929402828217,0.39730677008628845
5.693398475646973,0.11615930497646332,-0.9603646993637085,1.0740443468093872,-0.5018310546875,-0.09708552807569504,0.41294726729393005
5.713459014892578,0.11615930497646332,-0.9618905782699585,1.0744259357452393,-0.5220493078231812,-0.1028076633810997,0.43163958191871643
5.733508586883545,0.11615930497646332,-0.9637979865074158,1.0748074054718018,-0.5445563197135925,-0.10967422276735306,0.4522392749786377
5.753599643707275,0.11654078215360641,-0.9664682745933533,1.0748074054718018,-0.568970799446106,-0.11692225188016891,0.4736018776893616
5.773735523223877,0.11692225188016891,-0.9691386222839355,1.0748074054718018,-0.5983443856239319,-0.12455176562070847,0.4991607666015625
5.793750047683716,0.11692225188016891,-0.9718089699745178,1.0744259357452393,-0.6265735626220703,-0.12989242374897003,0.5228122472763062
5.813838958740234,0.11730372905731201,-0.9733348488807678,1.0736628770828247,-0.6548027992248535,-0.1363775134086609,0.5472266674041748
5.83396053314209,0.1184481605887413,-0.9744792580604553,1.0709925889968872,-0.6864652633666992,-0.14553292095661163,0.5766003131866455
5.8541259765625,0.11959258466959,-0.9748607873916626,1.0679408311843872,-0.7185091972351074,-0.15659570693969727,0.6082627773284912
5.874237537384033,0.12111848592758179,-0.9752422571182251,1.0641260147094727,-0.7471198439598083,-0.1653696447610855,0.6349660754203796
5.894304990768433,0.12149996310472488,-0.9756237268447876,1.0599298477172852,-0.7791637778282166,-0.17376211285591125,0.6647211313247681
5.914593696594238,0.12226291000843048,-0.9756237268447876,1.0553520917892456,-0.8085374236106873,-0.1844434291124344,0.693331778049469
5.93468713760376,0.12302586436271667,-0.9752422571182251,1.049248456954956,-0.8356221914291382,-0.19207294285297394,0.7223239541053772
5.954800367355347,0.12340734153985977,-0.9752422571182251,1.043907880783081,-0.8646143078804016,-0.1989395022392273,0.7524605393409729
5.974944591522217,0.12340734153985977,-0.9737163186073303,1.0385671854019165,-0.8939879536628723,-0.20771344006061554,0.7803082466125488
5.99496603012085,0.12340734153985977,-0.9721904397010803,1.031700611114502,-0.918402373790741,-0.2134355753660202,0.8073930144309998
6.016184568405151,0.12340734153985977,-0.969520092010498,1.0248340368270874,-0.9523537158966064,-0.22297245264053345,0.8363851308822632
6.036232233047485,0.12417028844356537,-0.9676127433776855,1.0179674625396729,-0.9813458323478699,-0.230601966381073,0.8615625500679016
6.056308746337891,0.12455176562070847,-0.9657053351402283,1.0111008882522583,-1.0053788423538208,-0.23708705604076385,0.8867399096488953
6.076592683792114,0.12493324279785156,-0.9637979865074158,1.0046159029006958,-1.030937671661377,-0.2439536154270172,0.9103913903236389
6.096688747406006,0.12531471252441406,-0.960746169090271,0.996604859828949,-1.056496500968933,-0.247768372297287,0.9328984618186951
6.116756916046143,0.12569619715213776,-0.9576943516731262,0.9889753460884094,-1.0809109210968018,-0.25234606862068176,0.9557870030403137
6.1372411251068115,0.12569619715213776,-0.954261064529419,0.9821087718009949,-1.1057069301605225,-0.2595941126346588,0.9763866662979126
6.157379865646362,0.12645913660526276,-0.9508277773857117,0.9748607873916626,-1.1297398805618286,-0.2641718089580536,0.997367799282074
6.177436828613281,0.12645913660526276,-0.9477760195732117,0.9683756828308105,-1.1533913612365723,-0.27065691351890564,1.0175859928131104
6.197888135910034,0.12684062123298645,-0.9451056718826294,0.960746169090271,-1.1758984327316284,-0.2779049277305603,1.0370413064956665
6.218034982681274,0.12722209095954895,-0.9405279755592346,0.9531166553497314,-1.19611656665802,-0.2798123061656952,1.0545891523361206
6.238056421279907,0.12722209095954895,-0.9370946884155273,0.9473945498466492,-1.2144273519515991,-0.28362706303596497,1.0725184679031372
6.25814414024353,0.12760357558727264,-0.9332799315452576,0.9393835067749023,-1.2331197261810303,-0.290112167596817,1.0900664329528809
6.278228998184204,0.12760357558727264,-0.9283207654953003,0.9317540526390076,-1.2510490417480469,-0.28896772861480713,1.1072328090667725
6.298377275466919,0.12836651504039764,-0.9252689480781555,0.9252689480781555,-1.268596887588501,-0.2950713336467743,1.1240177154541016
6.318407773971558,0.12874799966812134,-0.9210727214813232,0.9195467829704285,-1.2842373847961426,-0.29964902997016907,1.1385138034820557
6.338490962982178,0.12874799966812134,-0.9172579646110535,0.9126802682876587,-1.2983520030975342,-0.29850462079048157,1.1526284217834473
6.358693361282349,0.12874799966812134,-0.9142061471939087,0.9065766334533691,-1.3147554397583008,-0.3076600432395935,1.1671243906021118
6.378798484802246,0.12874799966812134,-0.9092469811439514,0.9000915288925171,-1.3300144672393799,-0.3107118308544159,1.1812390089035034
6.398900508880615,0.12912946939468384,-0.9058136940002441,0.8943694233894348,-1.3410773277282715,-0.3126192092895508,1.193827748298645
6.419098615646362,0.12951095402240753,-0.9023804068565369,0.8878843188285828,-1.354810357093811,-0.31681543588638306,1.205653429031372
6.439107418060303,0.12989242374897003,-0.8978027105331421,0.8813992738723755,-1.3693064451217651,-0.31795987486839294,1.2170977592468262
6.459252595901489,0.13065537810325623,-0.8951323628425598,0.8756771087646484,-1.3818951845169067,-0.3217746317386627,1.2281605005264282
6.479366779327393,0.13065537810325623,-0.890554666519165,0.8703364729881287,-1.3952468633651733,-0.3229190409183502,1.2388418912887573
6.499380588531494,0.13103684782981873,-0.8859769701957703,0.8638513684272766,-1.408216953277588,-0.3225375711917877,1.2495231628417969
6.519604682922363,0.13141833245754242,-0.8829251527786255,0.8585107326507568,-1.418898344039917,-0.3263523280620575,1.2586785554885864
6.539699554443359,0.13141833245754242,-0.8791103959083557,0.8539330363273621,-1.4295796155929565,-0.33016708493232727,1.2689783573150635
6.559897184371948,0.13141833245754242,-0.8752956390380859,0.8485923409461975,-1.440260887145996,-0.33093002438545227,1.2769893407821655
6.57996678352356,0.13179980218410492,-0.8714808821678162,0.8436331748962402,-1.4486533403396606,-0.33207446336746216,1.284618854522705
6.600083589553833,0.13179980218410492,-0.8672846555709839,0.838674008846283,-1.4581903219223022,-0.33131152391433716,1.2933928966522217
6.620202302932739,0.1325627565383911,-0.8646143078804016,0.8352407217025757,-1.4669642448425293,-0.33436331152915955,1.3014038801193237
6.640422821044922,0.1329442262649536,-0.8611810207366943,0.8295185565948486,-1.4761196374893188,-0.33588922023773193,1.3082703351974487
6.660489082336426,0.1329442262649536,-0.8573662638664246,0.8249408602714539,-1.4845120906829834,-0.33588922023773193,1.3151369094848633
6.680960416793823,0.1333257108926773,-0.8543145060539246,0.8207446336746216,-1.4932860136032104,-0.33588922023773193,1.3216220140457153
6.700789213180542,0.1337071806192398,-0.8504997491836548,0.8161669373512268,-1.500152587890625,-0.33588922023773193,1.3277256488800049
6.720844268798828,0.1337071806192398,-0.8478294014930725,0.8127336502075195,-1.506637692451477,-0.33474478125572205,1.332684874534607
6.7409586906433105,0.1337071806192398,-0.8455405235290527,0.8100633025169373,-1.513122797012329,-0.33627068996429443,1.3391698598861694
6.76103401184082,0.1337071806192398,-0.841725766658783,0.8062485456466675,-1.519226312637329,-0.33588922023773193,1.344510555267334
6.781092405319214,0.1337071806192398,-0.8390554785728455,0.802815318107605,-1.5245670080184937,-0.3370336592197418,1.349469780921936
6.801180362701416,0.1337071806192398,-0.8360036611557007,0.7993820309638977,-1.5302891731262207,-0.3377965986728668,1.3544288873672485
6.821294546127319,0.1337071806192398,-0.8333333134651184,0.7959487438201904,-1.5363928079605103,-0.3374151289463043,1.358243703842163
6.841712474822998,0.1337071806192398,-0.8314259648323059,0.7928969264030457,-1.5421148538589478,-0.3381780683994293,1.362058401107788
6.8618223667144775,0.1337071806192398,-0.8287556171417236,0.7906080484390259,-1.5463111400604248,-0.3374151289463043,1.3662546873092651
6.882186651229858,0.1337071806192398,-0.8260852694511414,0.7875562906265259,-1.5505073070526123,-0.3381780683994293,1.3689249753952026
6.9022533893585205,0.1337071806192398,-0.8234149813652039,0.7848859429359436,-1.5550850629806519,-0.3385595381259918,1.3738842010498047
6.922407627105713,0.1337071806192398,-0.8207446336746216,0.7818341255187988,-1.5585182905197144,-0.3389410376548767,1.3765544891357422
6.942446231842041,0.1337071806192398,-0.8184558153152466,0.7791637778282166,-1.563096046447754,-0.3397039771080017,1.3799878358840942
6.962527513504028,0.1337071806192398,-0.8146410584449768,0.775730550289154,-1.5676738023757935,-0.3412298858165741,1.3826581239700317
6.982582092285156,0.1337071806192398,-0.812352180480957,0.7730602025985718,-1.5722514390945435,-0.3389410376548767,1.3853284120559692
7.002681255340576,0.1337071806192398,-0.810826301574707,0.770771324634552,-1.5749218463897705,-0.3416113555431366,1.3883802890777588
7.02276086807251,0.1337071806192398,-0.8085374236106873,0.7681010365486145,-1.578355073928833,-0.3419928252696991,1.3910505771636963
7.0429368019104,0.1337071806192398,-0.80663001537323,0.7658121585845947,-1.581406831741333,-0.3419928252696991,1.3937208652496338
7.063133478164673,0.1337071806192398,-0.804341197013855,0.7639048099517822,-1.584840178489685,-0.3419928252696991,1.3971542119979858
7.083112001419067,0.1337071806192398,-0.802815318107605,0.7616159319877625,-1.5875104665756226,-0.3427557647228241,1.4002059698104858
7.103221893310547,0.1337071806192398,-0.8001449704170227,0.7593270540237427,-1.590562343597412,-0.343900203704834,1.4021133184432983
7.12328839302063,0.1337071806192398,-0.7978560924530029,0.7574197053909302,-1.593614101409912,-0.344663143157959,1.404402256011963
7.143343687057495,0.1337071806192398,-0.7955672740936279,0.7547493577003479,-1.5955214500427246,-0.344663143157959,1.405165195465088
7.163437366485596,0.1337071806192398,-0.7940413355827332,0.7528420090675354,-1.5981918573379517,-0.34504464268684387,1.407454013824463
7.183514595031738,0.1337071806192398,-0.7928969264030457,0.7516975402832031,-1.6004806756973267,-0.34542611241340637,1.4093613624572754
7.20361852645874,0.1340886503458023,-0.7917525172233582,0.7501716613769531,-1.6020065546035767,-0.34504464268684387,1.4105058908462524
7.223690748214722,0.1340886503458023,-0.7898451089859009,0.7490272521972656,-1.6023880243301392,-0.34580758213996887,1.4120317697525024
7.2437663078308105,0.1348516047000885,-0.7883192300796509,0.7482643127441406,-1.6042953729629517,-0.34580758213996887,1.41317617893219
7.263817071914673,0.1356145590543747,-0.7860303521156311,0.7459754347801208,-1.6058213710784912,-0.34809643030166626,1.415464997291565
7.283924102783203,0.1359960287809372,-0.7845044732093811,0.7448310256004333,-1.6073472499847412,-0.34885939955711365,1.41622793674469
7.303982496261597,0.1359960287809372,-0.7833600640296936,0.7436865568161011,-1.6096360683441162,-0.34847790002822876,1.4173723459243774
7.324099063873291,0.1359960287809372,-0.7825970649719238,0.7421606779098511,-1.6115434169769287,-0.34885939955711365,1.418898344039917
7.344192028045654,0.1359960287809372,-0.7822155952453613,0.7410162687301636,-1.6134508848190308,-0.34809643030166626,1.4192798137664795
7.3642566204071045,0.1356145590543747,-0.7818341255187988,0.7394903302192688,-1.6142138242721558,-0.34885939955711365,1.4208056926727295
7.3852198123931885,0.1356145590543747,-0.7810711860656738,0.7387273907661438,-1.6153582334518433,-0.34733349084854126,1.421950101852417
7.405344724655151,0.1356145590543747,-0.7803082466125488,0.7379644513130188,-1.6161211729049683,-0.34695202112197876,1.4230945110321045
7.425429344177246,0.1356145590543747,-0.7795453071594238,0.7372015118598938,-1.6165026426315308,-0.34657052159309387,1.423475980758667
7.445494174957275,0.1356145590543747,-0.7791637778282166,0.7372015118598938,-1.6168841123580933,-0.34733349084854126,1.4238574504852295
7.465638875961304,0.1356145590543747,-0.778019368648529,0.7368200421333313,-1.6176470518112183,-0.34771496057510376,1.4246203899383545
7.48567008972168,0.1356145590543747,-0.777256429195404,0.735675573348999,-1.6187914609909058,-0.34733349084854126,1.425001859664917
7.505800485610962,0.1356145590543747,-0.7761120200157166,0.7352941036224365,-1.6195544004440308,-0.34733349084854126,1.4253833293914795
7.525837659835815,0.1356145590543747,-0.7753490209579468,0.734912633895874,-1.6199358701705933,-0.34695202112197876,1.425764799118042
7.546058893203735,0.1356145590543747,-0.7749675512313843,0.734149694442749,-1.6203173398971558,-0.34733349084854126,1.425764799118042
7.566197872161865,0.1356145590543747,-0.7742046117782593,0.7337682247161865,-1.6206988096237183,-0.34733349084854126,1.426146388053894
7.586329460144043,0.1356145590543747,-0.7742046117782593,0.733386754989624,-1.6214618682861328,-0.34733349084854126,1.426146388053894
7.606362342834473,0.1356145590543747,-0.7734416723251343,0.7330052852630615,-1.6218433380126953,-0.34733349084854126,1.4265278577804565
7.626789093017578,0.1356145590543747,-0.7730602025985718,0.7330052852630615,-1.6226062774658203,-0.34657052159309387,1.4265278577804565
7.646809101104736,0.1356145590543747,-0.7726787328720093,0.7322422862052917,-1.6229877471923828,-0.34657052159309387,1.4265278577804565
7.666888236999512,0.1356145590543747,-0.7719157934188843,0.7318608164787292,-1.6233692169189453,-0.34580758213996887,1.426909327507019
7.687164783477783,0.1356145590543747,-0.7719157934188843,0.7318608164787292,-1.6233692169189453,-0.34542611241340637,1.426909327507019
7.707123041152954,0.1356145590543747,-0.7719157934188843,0.7314793467521667,-1.6233692169189453,-0.34542611241340637,1.426909327507019
7.727243423461914,0.1356145590543747,-0.7711527943611145,0.7310978770256042,-1.6237506866455078,-0.34542611241340637,1.4272907972335815
7.74729061126709,0.1356145590543747,-0.7711527943611145,0.7307164072990417,-1.6237506866455078,-0.344663143157959,1.427672266960144
7.767393589019775,0.1356145590543747,-0.770771324634552,0.7307164072990417,-1.6237506866455078,-0.34504464268684387,1.427672266960144
7.7874767780303955,0.1356145590543747,-0.770771324634552,0.7303349375724792,-1.6241321563720703,-0.344663143157959,1.4280537366867065
7.80754542350769,0.1356145590543747,-0.770008385181427,0.7299534678459167,-1.6241321563720703,-0.344663143157959,1.428435206413269
7.827781677246094,0.135233074426651,-0.7696269154548645,0.7299534678459167,-1.6241321563720703,-0.3442816734313965,1.4288166761398315
7.847954511642456,0.1348516047000885,-0.7696269154548645,0.7299534678459167,-1.6241321563720703,-0.34504464268684387,1.4288166761398315
7.868050813674927,0.1348516047000885,-0.7696269154548645,0.7299534678459167,-1.6245136260986328,-0.344663143157959,1.429198145866394
7.888208866119385,0.1348516047000885,-0.769245445728302,0.7295719981193542,-1.6245136260986328,-0.344663143157959,1.429198145866394
7.90826940536499,0.1348516047000885,-0.7688639760017395,0.7295719981193542,-1.6245136260986328,-0.344663143157959,1.4295796155929565
7.928361415863037,0.1348516047000885,-0.7688639760017395,0.7295719981193542,-1.6245136260986328,-0.344663143157959,1.4295796155929565
7.94879937171936,0.1348516047000885,-0.7688639760017395,0.7291905283927917,-1.6248950958251953,-0.344663143157959,1.4295796155929565
7.968907594680786,0.1348516047000885,-0.7688639760017395,0.7288090586662292,-1.6248950958251953,-0.344663143157959,1.4295796155929565
7.989004135131836,0.1348516047000885,-0.7688639760017395,0.7288090586662292,-1.6248950958251953,-0.3442816734313965,1.4295796155929565
8.009350538253784,0.1348516047000885,-0.768482506275177,0.7288090586662292,-1.6248950958251953,-0.3442816734313965,1.4295796155929565
8.029472589492798,0.134470134973526,-0.7681010365486145,0.7288090586662292,-1.6252765655517578,-0.343900203704834,1.4295796155929565
8.049567461013794,0.134470134973526,-0.767719566822052,0.728427529335022,-1.6252765655517578,-0.3442816734313965,1.429961085319519
8.069603204727173,0.134470134973526,-0.767719566822052,0.728427529335022,-1.6252765655517578,-0.344663143157959,1.429961085319519
8.089679956436157,0.1348516047000885,-0.767719566822052,0.7280460596084595,-1.6256580352783203,-0.344663143157959,1.429961085319519
8.10976767539978,0.1348516047000885,-0.767719566822052,0.7280460596084595,-1.6260395050048828,-0.343900203704834,1.429961085319519
8.129842281341553,0.134470134973526,-0.767719566822052,0.727664589881897,-1.6260395050048828,-0.343137264251709,1.429961085319519
8.150063753128052,0.134470134973526,-0.767719566822052,0.727664589881897,-1.6260395050048828,-0.343137264251709,1.429961085319519
8.170125722885132,0.134470134973526,-0.7673380374908447,0.727664589881897,-1.6260395050048828,-0.3435187339782715,1.429961085319519
8.19023847579956,0.134470134973526,-0.7669565677642822,0.727664589881897,-1.6260395050048828,-0.3435187339782715,1.429961085319519
8.210422992706299,0.134470134973526,-0.7669565677642822,0.727664589881897,-1.6264209747314453,-0.343900203704834,1.429961085319519
8.230412244796753,0.134470134973526,-0.7669565677642822,0.727664589881897,-1.6264209747314453,-0.343900203704834,1.429961085319519
8.250494718551636,0.134470134973526,-0.7669565677642822,0.727664589881897,-1.6268024444580078,-0.3435187339782715,1.429961085319519
8.270578384399414,0.134470134973526,-0.7669565677642822,0.727664589881897,-1.6268024444580078,-0.3435187339782715,1.4303425550460815
8.290673017501831,0.134470134973526,-0.7669565677642822,0.727664589881897,-1.6268024444580078,-0.3435187339782715,1.429961085319519
8.3107328414917,0.1340886503458023,-0.7669565677642822,0.727664589881897,-1.6268024444580078,-0.3435187339782715,1.4303425550460815
8.330899477005005,0.1333257108926773,-0.7669565677642822,0.727664589881897,-1.6268024444580078,-0.3435187339782715,1.4303425550460815
8.3509521484375,0.1333257108926773,-0.7669565677642822,0.727664589881897,-1.6268024444580078,-0.3435187339782715,1.4303425550460815
8.371097803115845,0.1333257108926773,-0.7669565677642822,0.727664589881897,-1.6268024444580078,-0.3435187339782715,1.4303425550460815
8.391107559204102,0.1333257108926773,-0.7669565677642822,0.727664589881897,-1.6271839141845703,-0.3435187339782715,1.430724024772644
8.411206007003784,0.1333257108926773,-0.7669565677642822,0.727664589881897,-1.6268024444580078,-0.3435187339782715,1.430724024772644
8.43130087852478,0.1333257108926773,-0.7665750980377197,0.727664589881897,-1.6268024444580078,-0.3435187339782715,1.430724024772644
8.451359987258911,0.1333257108926773,-0.7665750980377197,0.727664589881897,-1.6271839141845703,-0.3435187339782715,1.4303425550460815
8.47147011756897,0.1333257108926773,-0.7665750980377197,0.727664589881897,-1.6271839141845703,-0.3435187339782715,1.430724024772644
8.491521835327148,0.1333257108926773,-0.7665750980377197,0.7272831201553345,-1.6268024444580078,-0.3435187339782715,1.430724024772644
8.511773824691772,0.1333257108926773,-0.7665750980377197,0.7272831201553345,-1.6271839141845703,-0.343137264251709,1.430724024772644
8.531888008117676,0.1333257108926773,-0.7658121585845947,0.7272831201553345,-1.6271839141845703,-0.3423742949962616,1.430724024772644
8.551981925964355,0.1333257108926773,-0.7658121585845947,0.726901650428772,-1.6271839141845703,-0.3423742949962616,1.430724024772644
8.572235822677612,0.1333257108926773,-0.7658121585845947,0.726901650428772,-1.6271839141845703,-0.3427557647228241,1.430724024772644
8.592321872711182,0.1333257108926773,-0.7658121585845947,0.726901650428772,-1.6271839141845703,-0.3423742949962616,1.430724024772644
8.612377882003784,0.1337071806192398,-0.7658121585845947,0.726901650428772,-1.6271839141845703,-0.3423742949962616,1.430724024772644
8.632624626159668,0.1333257108926773,-0.7658121585845947,0.726901650428772,-1.6271839141845703,-0.3423742949962616,1.430724024772644
8.652717113494873,0.1333257108926773,-0.7658121585845947,0.726901650428772,-1.6271839141845703,-0.3423742949962616,1.430724024772644
8.672786712646484,0.1333257108926773,-0.7658121585845947,0.726901650428772,-1.6271839141845703,-0.3423742949962616,1.4303425550460815
8.693028926849365,0.1333257108926773,-0.7658121585845947,0.726901650428772,-1.6271839141845703,-0.3423742949962616,1.430724024772644
8.713148593902588,0.1333257108926773,-0.7658121585845947,0.726901650428772,-1.6271839141845703,-0.3423742949962616,1.430724024772644
8.733189105987549,0.1333257108926773,-0.7658121585845947,0.726901650428772,-1.6271839141845703,-0.3423742949962616,1.4303425550460815
8.753270149230957,0.1333257108926773,-0.7658121585845947,0.726901650428772,-1.6271839141845703,-0.3423742949962616,1.4303425550460815
8.77333950996399,0.1333257108926773,-0.7658121585845947,0.726901650428772,-1.6271839141845703,-0.3423742949962616,1.4303425550460815
8.793559551239014,0.1333257108926773,-0.7658121585845947,0.726901650428772,-1.6271839141845703,-0.3423742949962616,1.4303425550460815
8.813557863235474,0.1333257108926773,-0.7658121585845947,0.726901650428772,-1.6271839141845703,-0.3423742949962616,1.430724024772644
8.833616733551025,0.1337071806192398,-0.7658121585845947,0.726901650428772,-1.6271839141845703,-0.3423742949962616,1.4303425550460815
8.853713035583496,0.1337071806192398,-0.7658121585845947,0.726901650428772,-1.6271839141845703,-0.3423742949962616,1.4303425550460815
8.873772859573364,0.1337071806192398,-0.7658121585845947,0.726901650428772,-1.6271839141845703,-0.3423742949962616,1.4303425550460815
8.893857479095459,0.1337071806192398,-0.7658121585845947,0.726901650428772,-1.6271839141845703,-0.3423742949962616,1.4303425550460815
8.913925409317017,0.1337071806192398,-0.7658121585845947,0.726901650428772,-1.6271839141845703,-0.3423742949962616,1.4303425550460815
8.934006690979004,0.1337071806192398,-0.7658121585845947,0.726901650428772,-1.6271839141845703,-0.3423742949962616,1.4303425550460815
8.9540855884552,0.1337071806192398,-0.7658121585845947,0.726901650428772,-1.6271839141845703,-0.3423742949962616,1.430724024772644
8.974337577819824,0.1337071806192398,-0.7658121585845947,0.726901650428772,-1.6271839141845703,-0.3423742949962616,1.4303425550460815
8.994432926177979,0.1337071806192398,-0.7658121585845947,0.726901650428772,-1.6271839141845703,-0.3423742949962616,1.430724024772644
9.0146005153656,0.1337071806192398,-0.7658121585845947,0.726901650428772,-1.6271839141845703,-0.3423742949962616,1.4303425550460815
9.034618139266968,0.1337071806192398,-0.7658121585845947,0.726901650428772,-1.6271839141845703,-0.3423742949962616,1.430724024772644
9.054904222488403,0.1337071806192398,-0.7658121585845947,0.726901650428772,-1.6271839141845703,-0.3423742949962616,1.4303425550460815
9.074995994567871,0.1337071806192398,-0.7658121585845947,0.726901650428772,-1.6271839141845703,-0.3423742949962616,1.430724024772644
9.095137357711792,0.1337071806192398,-0.7658121585845947,0.726901650428772,-1.6271839141845703,-0.3423742949962616,1.4303425550460815
9.1152024269104,0.1337071806192398,-0.7658121585845947,0.726901650428772,-1.6271839141845703,-0.3423742949962616,1.4303425550460815
9.135368585586548,0.1337071806192398,-0.7658121585845947,0.726901650428772,-1.6271839141845703,-0.3423742949962616,1.430724024772644
9.155385971069336,0.1337071806192398,-0.7658121585845947,0.726901650428772,-1.6271839141845703,-0.3423742949962616,1.4303425550460815
9.175498723983765,0.1337071806192398,-0.7658121585845947,0.726901650428772,-1.6271839141845703,-0.3423742949962616,1.4303425550460815
9.195551872253418,0.1337071806192398,-0.7658121585845947,0.726901650428772,-1.6271839141845703,-0.3423742949962616,1.4303425550460815
9.215704917907715,0.1337071806192398,-0.7658121585845947,0.726901650428772,-1.6271839141845703,-0.3423742949962616,1.4303425550460815
9.235803127288818,0.1337071806192398,-0.7658121585845947,0.726901650428772,-1.6271839141845703,-0.3423742949962616,1.430724024772644
9.255927085876465,0.1337071806192398,-0.7658121585845947,0.726901650428772,-1.6271839141845703,-0.3423742949962616,1.4303425550460815
9.276031255722046,0.1337071806192398,-0.7658121585845947,0.726901650428772,-1.6271839141845703,-0.3423742949962616,1.4303425550460815
9.29609751701355,0.1337071806192398,-0.7658121585845947,0.726901650428772,-1.6271839141845703,-0.3423742949962616,1.4303425550460815
9.316346406936646,0.1337071806192398,-0.7658121585845947,0.726901650428772,-1.6271839141845703,-0.3423742949962616,1.430724024772644
9.336458921432495,0.1337071806192398,-0.7658121585845947,0.726901650428772,-1.6271839141845703,-0.3423742949962616,1.4303425550460815
9.356503963470459,0.1337071806192398,-0.7658121585845947,0.726901650428772,-1.6271839141845703,-0.3423742949962616,1.4303425550460815
9.376822471618652,0.1337071806192398,-0.7658121585845947,0.726901650428772,-1.6271839141845703,-0.3423742949962616,1.4303425550460815
9.396934986114502,0.1337071806192398,-0.7658121585845947,0.726901650428772,-1.6271839141845703,-0.3423742949962616,1.4303425550460815
9.416999816894531,0.1337071806192398,-0.7658121585845947,0.726901650428772,-1.6271839141845703,-0.3423742949962616,1.430724024772644
9.437185287475586,0.1337071806192398,-0.7658121585845947,0.726901650428772,-1.6271839141845703,-0.3423742949962616,1.4303425550460815
9.45734453201294,0.1337071806192398,-0.7658121585845947,0.726901650428772,-1.6271839141845703,-0.3423742949962616,1.4303425550460815
9.477428913116455,0.1337071806192398,-0.7658121585845947,0.726901650428772,-1.6271839141845703,-0.3427557647228241,1.430724024772644
9.49747610092163,0.1337071806192398,-0.7658121585845947,0.726901650428772,-1.6271839141845703,-0.3423742949962616,1.4303425550460815
9.51759672164917,0.1337071806192398,-0.7658121585845947,0.726901650428772,-1.6271839141845703,-0.3423742949962616,1.4303425550460815
9.537689447402954,0.1337071806192398,-0.7658121585845947,0.726901650428772,-1.6271839141845703,-0.3423742949962616,1.4303425550460815
9.55779242515564,0.1337071806192398,-0.7658121585845947,0.726901650428772,-1.6271839141845703,-0.3423742949962616,1.4303425550460815
9.577892303466797,0.1337071806192398,-0.7658121585845947,0.726901650428772,-1.6271839141845703,-0.3423742949962616,1.4303425550460815
9.597971677780151,0.1337071806192398,-0.7658121585845947,0.726901650428772,-1.6271839141845703,-0.3423742949962616,1.430724024772644
9.618127346038818,0.1337071806192398,-0.7658121585845947,0.726901650428772,-1.6271839141845703,-0.3423742949962616,1.4303425550460815
9.638205766677856,0.1337071806192398,-0.7658121585845947,0.726901650428772,-1.6271839141845703,-0.3423742949962616,1.4303425550460815
9.658255338668823,0.1337071806192398,-0.7658121585845947,0.726901650428772,-1.6271839141845703,-0.3423742949962616,1.4303425550460815
9.678336381912231,0.1337071806192398,-0.7658121585845947,0.726901650428772,-1.6271839141845703,-0.3423742949962616,1.430724024772644
9.69839096069336,0.1337071806192398,-0.7658121585845947,0.726901650428772,-1.6271839141845703,-0.3423742949962616,1.430724024772644
9.718585729598999,0.1337071806192398,-0.7658121585845947,0.726901650428772,-1.6271839141845703,-0.3423742949962616,1.4303425550460815
9.738637685775757,0.1337071806192398,-0.7658121585845947,0.726901650428772,-1.6271839141845703,-0.3423742949962616,1.4303425550460815
9.758974313735962,0.1337071806192398,-0.7658121585845947,0.726901650428772,-1.6271839141845703,-0.3423742949962616,1.4303425550460815
9.779140949249268,0.1337071806192398,-0.7658121585845947,0.726901650428772,-1.6271839141845703,-0.3423742949962616,1.430724024772644
9.799250602722168,0.1337071806192398,-0.7658121585845947,0.726901650428772,-1.6271839141845703,-0.3423742949962616,1.430724024772644
9.819536685943604,0.1337071806192398,-0.7658121585845947,0.726901650428772,-1.6271839141845703,-0.3423742949962616,1.430724024772644
9.839632034301758,0.1337071806192398,-0.7658121585845947,0.726901650428772,-1.6271839141845703,-0.3423742949962616,1.4303425550460815
9.85970401763916,0.1337071806192398,-0.7658121585845947,0.726901650428772,-1.6271839141845703,-0.3423742949962616,1.430724024772644
9.879760026931763,0.1337071806192398,-0.7658121585845947,0.726901650428772,-1.6271839141845703,-0.3423742949962616,1.4303425550460815
9.899816036224365,0.1337071806192398,-0.7658121585845947,0.726901650428772,-1.6271839141845703,-0.3423742949962616,1.4303425550460815
9.91990613937378,0.1337071806192398,-0.7658121585845947,0.726901650428772,-1.6271839141845703,-0.3423742949962616,1.430724024772644
9.940211296081543,0.1337071806192398,-0.7658121585845947,0.726901650428772,-1.6271839141845703,-0.3423742949962616,1.430724024772644
9.960384845733643,0.1340886503458023,-0.7658121585845947,0.726901650428772,-1.6271839141845703,-0.3423742949962616,1.430724024772644
9.98047661781311,0.1337071806192398,-0.7658121585845947,0.726901650428772,-1.6271839141845703,-0.3423742949962616,1.430724024772644
10.000574350357056,0.1337071806192398,-0.7658121585845947,0.726901650428772,-1.6271839141845703,-0.3423742949962616,1.4303425550460815
10.020722389221191,0.1337071806192398,-0.7658121585845947,0.726901650428772,-1.6271839141845703,-0.3423742949962616,1.430724024772644
10.040786743164062,0.1337071806192398,-0.7658121585845947,0.726901650428772,-1.6271839141845703,-0.3423742949962616,1.4303425550460815
10.060867071151733,0.1337071806192398,-0.7658121585845947,0.726901650428772,-1.6271839141845703,-0.3423742949962616,1.430724024772644
10.080980777740479,0.1340886503458023,-0.7658121585845947,0.726901650428772,-1.6271839141845703,-0.3423742949962616,1.4303425550460815
10.101054191589355,0.1337071806192398,-0.7658121585845947,0.726901650428772,-1.6271839141845703,-0.3423742949962616,1.4303425550460815
10.121130228042603,0.1337071806192398,-0.7658121585845947,0.726901650428772,-1.6271839141845703,-0.3423742949962616,1.4303425550460815
10.141236782073975,0.1337071806192398,-0.7658121585845947,0.726901650428772,-1.6271839141845703,-0.3423742949962616,1.4303425550460815
10.161282539367676,0.1337071806192398,-0.7658121585845947,0.726901650428772,-1.6271839141845703,-0.3423742949962616,1.430724024772644
10.18138074874878,0.1337071806192398,-0.7658121585845947,0.726901650428772,-1.6271839141845703,-0.3423742949962616,1.430724024772644
10.201449394226074,0.1337071806192398,-0.7658121585845947,0.726901650428772,-1.6271839141845703,-0.3423742949962616,1.430724024772644
10.221541166305542,0.1337071806192398,-0.7658121585845947,0.726901650428772,-1.6271839141845703,-0.3423742949962616,1.4303425550460815
10.241607904434204,0.1337071806192398,-0.7658121585845947,0.726901650428772,-1.6271839141845703,-0.3423742949962616,1.4303425550460815
10.261691808700562,0.1340886503458023,-0.7658121585845947,0.726901650428772,-1.6271839141845703,-0.3423742949962616,1.4303425550460815
10.281881093978882,0.1337071806192398,-0.7658121585845947,0.726901650428772,-1.6271839141845703,-0.3423742949962616,1.4303425550460815
10.3020179271698,0.1337071806192398,-0.7658121585845947,0.726901650428772,-1.6271839141845703,-0.3423742949962616,1.4303425550460815
10.32208514213562,0.1337071806192398,-0.7658121585845947,0.726901650428772,-1.6271839141845703,-0.3423742949962616,1.4303425550460815
10.342160940170288,0.1337071806192398,-0.7658121585845947,0.726901650428772,-1.6271839141845703,-0.3423742949962616,1.4303425550460815
10.362256050109863,0.1337071806192398,-0.7658121585845947,0.726901650428772,-1.6271839141845703,-0.3423742949962616,1.430724024772644
10.382411003112793,0.1337071806192398,-0.7658121585845947,0.726901650428772,-1.6271839141845703,-0.3423742949962616,1.430724024772644
10.402589082717896,0.1337071806192398,-0.7658121585845947,0.726901650428772,-1.6271839141845703,-0.3423742949962616,1.430724024772644
10.422685146331787,0.1340886503458023,-0.7658121585845947,0.726901650428772,-1.6271839141845703,-0.3423742949962616,1.430724024772644
10.442755699157715,0.1340886503458023,-0.7658121585845947,0.726901650428772,-1.6271839141845703,-0.3423742949962616,1.430724024772644
10.462839126586914,0.1337071806192398,-0.7658121585845947,0.726901650428772,-1.6271839141845703,-0.3423742949962616,1.430724024772644
10.482985019683838,0.1340886503458023,-0.7658121585845947,0.726901650428772,-1.6271839141845703,-0.3423742949962616,1.430724024772644
10.50308609008789,0.1337071806192398,-0.7658121585845947,0.726901650428772,-1.6271839141845703,-0.3423742949962616,1.430724024772644
10.523176670074463,0.1337071806192398,-0.7658121585845947,0.726901650428772,-1.6271839141845703,-0.3423742949962616,1.430724024772644
10.543250560760498,0.1337071806192398,-0.7658121585845947,0.726901650428772,-1.6271839141845703,-0.3423742949962616,1.430724024772644
10.563520431518555,0.1337071806192398,-0.7658121585845947,0.726901650428772,-1.6271839141845703,-0.3423742949962616,1.430724024772644
10.583612442016602,0.1337071806192398,-0.7658121585845947,0.726901650428772,-1.6271839141845703,-0.3423742949962616,1.430724024772644
10.603712558746338,0.1337071806192398,-0.7658121585845947,0.726901650428772,-1.6271839141845703,-0.3423742949962616,1.430724024772644
10.623772382736206,0.1337071806192398,-0.7658121585845947,0.726901650428772,-1.6271839141845703,-0.3423742949962616,1.430724024772644
10.64385461807251,0.1337071806192398,-0.7658121585845947,0.726901650428772,-1.6271839141845703,-0.3423742949962616,1.430724024772644
10.663933753967285,0.1337071806192398,-0.7658121585845947,0.726901650428772,-1.6271839141845703,-0.3423742949962616,1.430724024772644
10.684004306793213,0.1340886503458023,-0.7658121585845947,0.726901650428772,-1.6271839141845703,-0.3423742949962616,1.430724024772644
10.704085350036621,0.1337071806192398,-0.7658121585845947,0.726901650428772,-1.6271839141845703,-0.3423742949962616,1.430724024772644
10.724139928817749,0.1340886503458023,-0.7658121585845947,0.726901650428772,-1.6271839141845703,-0.3423742949962616,1.430724024772644
10.744233846664429,0.1337071806192398,-0.7658121585845947,0.726901650428772,-1.6271839141845703,-0.3423742949962616,1.430724024772644
10.764317274093628,0.1340886503458023,-0.7658121585845947,0.726901650428772,-1.6271839141845703,-0.3423742949962616,1.430724024772644
10.784372568130493,0.1337071806192398,-0.7658121585845947,0.726901650428772,-1.6271839141845703,-0.3423742949962616,1.430724024772644
10.804440975189209,0.1337071806192398,-0.7658121585845947,0.726901650428772,-1.6271839141845703,-0.3423742949962616,1.430724024772644
10.824503421783447,0.1340886503458023,-0.7658121585845947,0.726901650428772,-1.6271839141845703,-0.3423742949962616,1.430724024772644
10.844600677490234,0.1337071806192398,-0.7658121585845947,0.726901650428772,-1.6271839141845703,-0.3423742949962616,1.430724024772644
10.864687204360962,0.1337071806192398,-0.7658121585845947,0.726901650428772,-1.6271839141845703,-0.3423742949962616,1.430724024772644
10.88474726676941,0.1340886503458023,-0.7658121585845947,0.726901650428772,-1.6271839141845703,-0.3423742949962616,1.430724024772644
10.904836416244507,0.1337071806192398,-0.7658121585845947,0.726901650428772,-1.6271839141845703,-0.3423742949962616,1.430724024772644
10.92503046989441,0.1337071806192398,-0.7658121585845947,0.726901650428772,-1.6271839141845703,-0.3423742949962616,1.430724024772644
10.946584224700928,0.1337071806192398,-0.7658121585845947,0.726901650428772,-1.6271839141845703,-0.3423742949962616,1.430724024772644
10.966710329055786,0.1340886503458023,-0.7658121585845947,0.726901650428772,-1.6271839141845703,-0.3423742949962616,1.430724024772644
10.98674201965332,0.1337071806192398,-0.7658121585845947,0.726901650428772,-1.6271839141845703,-0.3423742949962616,1.430724024772644
11.006907224655151,0.1340886503458023,-0.7658121585845947,0.726901650428772,-1.6271839141845703,-0.3423742949962616,1.430724024772644
11.027015924453735,0.1337071806192398,-0.7658121585845947,0.726901650428772,-1.6271839141845703,-0.3423742949962616,1.430724024772644
11.047128915786743,0.1337071806192398,-0.7658121585845947,0.726901650428772,-1.6271839141845703,-0.3423742949962616,1.430724024772644
11.067357063293457,0.1337071806192398,-0.7658121585845947,0.726901650428772,-1.6271839141845703,-0.3423742949962616,1.430724024772644
11.087438344955444,0.1337071806192398,-0.7658121585845947,0.726901650428772,-1.6271839141845703,-0.3423742949962616,1.430724024772644
11.107497215270996,0.1337071806192398,-0.7658121585845947,0.726901650428772,-1.6271839141845703,-0.3423742949962616,1.430724024772644
11.127781867980957,0.1340886503458023,-0.7658121585845947,0.726901650428772,-1.6271839141845703,-0.3423742949962616,1.430724024772644
11.147878646850586,0.1337071806192398,-0.7658121585845947,0.726901650428772,-1.6271839141845703,-0.3423742949962616,1.430724024772644
11.168121576309204,0.1337071806192398,-0.7661936283111572,0.726901650428772,-1.6271839141845703,-0.3423742949962616,1.430724024772644
11.18825364112854,0.1337071806192398,-0.7658121585845947,0.726901650428772,-1.6271839141845703,-0.3423742949962616,1.430724024772644
11.2083740234375,0.1337071806192398,-0.7658121585845947,0.726901650428772,-1.6271839141845703,-0.3423742949962616,1.430724024772644
11.228972673416138,0.1337071806192398,-0.7658121585845947,0.726901650428772,-1.6271839141845703,-0.3423742949962616,1.430724024772644
11.249063491821289,0.1337071806192398,-0.7658121585845947,0.726901650428772,-1.6271839141845703,-0.3423742949962616,1.430724024772644
11.26912546157837,0.1337071806192398,-0.7658121585845947,0.726901650428772,-1.6271839141845703,-0.3423742949962616,1.430724024772644
11.289259910583496,0.1340886503458023,-0.7658121585845947,0.726901650428772,-1.6271839141845703,-0.3423742949962616,1.430724024772644
11.309419393539429,0.1340886503458023,-0.7658121585845947,0.726901650428772,-1.6271839141845703,-0.3423742949962616,1.430724024772644
11.32945704460144,0.1337071806192398,-0.7658121585845947,0.726901650428772,-1.6271839141845703,-0.3423742949962616,1.430724024772644
11.349737644195557,0.1337071806192398,-0.7658121585845947,0.726901650428772,-1.6271839141845703,-0.3423742949962616,1.430724024772644
11.369838953018188,0.1337071806192398,-0.7658121585845947,0.726901650428772,-1.6271839141845703,-0.3423742949962616,1.430724024772644
11.389923095703125,0.1337071806192398,-0.7661936283111572,0.726901650428772,-1.6271839141845703,-0.3423742949962616,1.430724024772644
11.410070657730103,0.1337071806192398,-0.7658121585845947,0.726901650428772,-1.6271839141845703,-0.3423742949962616,1.430724024772644
11.430135726928711,0.1337071806192398,-0.7658121585845947,0.726901650428772,-1.6271839141845703,-0.3423742949962616,1.430724024772644
11.450225114822388,0.1337071806192398,-0.7658121585845947,0.726901650428772,-1.6271839141845703,-0.3423742949962616,1.430724024772644
11.470367908477783,0.1337071806192398,-0.7658121585845947,0.726901650428772,-1.6271839141845703,-0.3423742949962616,1.430724024772644
11.490478038787842,0.1337071806192398,-0.7658121585845947,0.726901650428772,-1.6271839141845703,-0.3423742949962616,1.430724024772644
11.510567903518677,0.1337071806192398,-0.7658121585845947,0.726901650428772,-1.6271839141845703,-0.3423742949962616,1.430724024772644
11.530656576156616,0.1337071806192398,-0.7661936283111572,0.726901650428772,-1.6271839141845703,-0.3423742949962616,1.430724024772644
11.550770998001099,0.1337071806192398,-0.7658121585845947,0.726901650428772,-1.6271839141845703,-0.3423742949962616,1.430724024772644
11.5708909034729,0.1337071806192398,-0.7658121585845947,0.726901650428772,-1.6271839141845703,-0.3423742949962616,1.430724024772644
11.591099739074707,0.1337071806192398,-0.7658121585845947,0.726901650428772,-1.6271839141845703,-0.3423742949962616,1.430724024772644
11.611154794692993,0.1337071806192398,-0.7661936283111572,0.726901650428772,-1.6271839141845703,-0.3423742949962616,1.430724024772644
11.631257057189941,0.1340886503458023,-0.7658121585845947,0.726901650428772,-1.6271839141845703,-0.3423742949962616,1.430724024772644
11.651324272155762,0.1337071806192398,-0.7658121585845947,0.726901650428772,-1.6271839141845703,-0.3423742949962616,1.430724024772644
11.671396970748901,0.1337071806192398,-0.7658121585845947,0.726901650428772,-1.6271839141845703,-0.3423742949962616,1.430724024772644
11.691467761993408,0.1340886503458023,-0.7658121585845947,0.726901650428772,-1.6271839141845703,-0.3423742949962616,1.430724024772644
11.71155595779419,0.1337071806192398,-0.7658121585845947,0.726901650428772,-1.6271839141845703,-0.3423742949962616,1.430724024772644
11.731646299362183,0.1337071806192398,-0.7658121585845947,0.726901650428772,-1.6271839141845703,-0.3423742949962616,1.430724024772644
11.752222061157227,0.1337071806192398,-0.7658121585845947,0.726901650428772,-1.6271839141845703,-0.3423742949962616,1.430724024772644
11.772371292114258,0.1337071806192398,-0.7658121585845947,0.726901650428772,-1.6271839141845703,-0.3423742949962616,1.430724024772644
11.79241418838501,0.1337071806192398,-0.7658121585845947,0.726901650428772,-1.6271839141845703,-0.3423742949962616,1.430724024772644
11.812926292419434,0.1337071806192398,-0.7658121585845947,0.726901650428772,-1.6271839141845703,-0.3423742949962616,1.430724024772644
11.833035945892334,0.1337071806192398,-0.7658121585845947,0.726901650428772,-1.6271839141845703,-0.3423742949962616,1.430724024772644
11.853093385696411,0.1337071806192398,-0.7658121585845947,0.726901650428772,-1.6271839141845703,-0.3423742949962616,1.430724024772644
11.873839378356934,0.1337071806192398,-0.7658121585845947,0.726901650428772,-1.6271839141845703,-0.3423742949962616,1.430724024772644
11.893940687179565,0.1340886503458023,-0.7658121585845947,0.726901650428772,-1.6271839141845703,-0.3423742949962616,1.430724024772644
11.913997173309326,0.1337071806192398,-0.7658121585845947,0.726901650428772,-1.6271839141845703,-0.3423742949962616,1.430724024772644
11.93416428565979,0.1337071806192398,-0.7658121585845947,0.726901650428772,-1.6271839141845703,-0.3423742949962616,1.430724024772644
11.954191207885742,0.1337071806192398,-0.7658121585845947,0.726901650428772,-1.6271839141845703,-0.3427557647228241,1.430724024772644
11.97437572479248,0.1337071806192398,-0.7658121585845947,0.726901650428772,-1.6271839141845703,-0.3423742949962616,1.430724024772644
11.994475364685059,0.1340886503458023,-0.7658121585845947,0.726901650428772,-1.6271839141845703,-0.3423742949962616,1.430724024772644
12.0146324634552,0.1340886503458023,-0.7658121585845947,0.726901650428772,-1.6271839141845703,-0.3423742949962616,1.430724024772644
12.034859895706177,0.1337071806192398,-0.7658121585845947,0.726901650428772,-1.6271839141845703,-0.3423742949962616,1.4303425550460815
12.05495309829712,0.1337071806192398,-0.7658121585845947,0.726901650428772,-1.6271839141845703,-0.3423742949962616,1.430724024772644
12.07501220703125,0.1337071806192398,-0.7658121585845947,0.726901650428772,-1.6271839141845703,-0.3423742949962616,1.430724024772644
12.095277309417725,0.1337071806192398,-0.7658121585845947,0.726901650428772,-1.6271839141845703,-0.3423742949962616,1.430724024772644
12.115463256835938,0.1337071806192398,-0.7658121585845947,0.726901650428772,-1.6271839141845703,-0.3423742949962616,1.430724024772644
12.135563611984253,0.1337071806192398,-0.7658121585845947,0.726901650428772,-1.6271839141845703,-0.3423742949962616,1.430724024772644
12.155640602111816,0.1337071806192398,-0.7658121585845947,0.726901650428772,-1.6271839141845703,-0.3423742949962616,1.430724024772644
12.175766229629517,0.1337071806192398,-0.7658121585845947,0.726901650428772,-1.6271839141845703,-0.3427557647228241,1.430724024772644
12.195939302444458,0.1337071806192398,-0.7658121585845947,0.726901650428772,-1.6271839141845703,-0.3427557647228241,1.430724024772644
12.216125726699829,0.1337071806192398,-0.7658121585845947,0.726901650428772,-1.6271839141845703,-0.3423742949962616,1.430724024772644
12.236109018325806,0.1337071806192398,-0.7658121585845947,0.726901650428772,-1.6271839141845703,-0.3423742949962616,1.430724024772644
12.256207704544067,0.1337071806192398,-0.7658121585845947,0.726901650428772,-1.6271839141845703,-0.3423742949962616,1.430724024772644
12.276330709457397,0.1337071806192398,-0.7661936283111572,0.726901650428772,-1.6271839141845703,-0.3423742949962616,1.430724024772644
12.296379804611206,0.1337071806192398,-0.7658121585845947,0.726901650428772,-1.6271839141845703,-0.3423742949962616,1.430724024772644
12.316511869430542,0.1340886503458023,-0.7658121585845947,0.726901650428772,-1.6271839141845703,-0.3423742949962616,1.430724024772644
12.336618185043335,0.1337071806192398,-0.7658121585845947,0.726901650428772,-1.6271839141845703,-0.3423742949962616,1.430724024772644
12.356689929962158,0.1337071806192398,-0.7658121585845947,0.726901650428772,-1.6271839141845703,-0.3423742949962616,1.430724024772644
12.376736879348755,0.1340886503458023,-0.7658121585845947,0.726901650428772,-1.6271839141845703,-0.3423742949962616,1.430724024772644
12.396845579147339,0.1337071806192398,-0.7661936283111572,0.726901650428772,-1.6271839141845703,-0.3423742949962616,1.430724024772644
12.416891098022461,0.1337071806192398,-0.7661936283111572,0.726901650428772,-1.6271839141845703,-0.3427557647228241,1.430724024772644
12.43698525428772,0.1337071806192398,-0.7669565677642822,0.726901650428772,-1.6271839141845703,-0.3435187339782715,1.4303425550460815
12.457078695297241,0.1337071806192398,-0.7673380374908447,0.726901650428772,-1.6275653839111328,-0.343137264251709,1.4303425550460815
12.477135181427002,0.1337071806192398,-0.767719566822052,0.7265201807022095,-1.6275653839111328,-0.343137264251709,1.4303425550460815
12.497274160385132,0.1337071806192398,-0.7681010365486145,0.7265201807022095,-1.6283283233642578,-0.343137264251709,1.429961085319519
12.517367124557495,0.1337071806192398,-0.7681010365486145,0.7265201807022095,-1.6290913820266724,-0.343137264251709,1.429961085319519
12.537476778030396,0.1337071806192398,-0.7681010365486145,0.7265201807022095,-1.6302357912063599,-0.3435187339782715,1.429961085319519
12.557573080062866,0.1337071806192398,-0.7681010365486145,0.7265201807022095,-1.6309987306594849,-0.3442816734313965,1.4295796155929565
12.57763147354126,0.1337071806192398,-0.768482506275177,0.7265201807022095,-1.6313802003860474,-0.3442816734313965,1.4295796155929565
12.597705841064453,0.1337071806192398,-0.769245445728302,0.7257572412490845,-1.6317616701126099,-0.34542611241340637,1.4295796155929565
12.617863416671753,0.1333257108926773,-0.7696269154548645,0.725375771522522,-1.6325246095657349,-0.34504464268684387,1.429198145866394
12.63860535621643,0.1333257108926773,-0.770008385181427,0.7249943017959595,-1.6332875490188599,-0.344663143157959,1.429198145866394
12.658748388290405,0.1325627565383911,-0.770771324634552,0.724612832069397,-1.6348134279251099,-0.344663143157959,1.4288166761398315
12.678780317306519,0.1325627565383911,-0.7711527943611145,0.724612832069397,-1.6351948976516724,-0.34504464268684387,1.427672266960144
12.69895601272583,0.13179980218410492,-0.7715343236923218,0.724612832069397,-1.6363393068313599,-0.34542611241340637,1.4272907972335815
12.718995094299316,0.13103684782981873,-0.7715343236923218,0.724612832069397,-1.637483835220337,-0.34542611241340637,1.4265278577804565
12.73910641670227,0.13065537810325623,-0.7719157934188843,0.724612832069397,-1.6386282444000244,-0.34580758213996887,1.426146388053894
12.759195804595947,0.13065537810325623,-0.7722972631454468,0.724612832069397,-1.639009714126587,-0.34580758213996887,1.425764799118042
12.779286861419678,0.13027389347553253,-0.7722972631454468,0.724612832069397,-1.6393911838531494,-0.34580758213996887,1.425764799118042
12.799335718154907,0.13027389347553253,-0.7730602025985718,0.724612832069397,-1.639772653579712,-0.34580758213996887,1.4253833293914795
12.819443702697754,0.12989242374897003,-0.7734416723251343,0.724612832069397,-1.6409170627593994,-0.34733349084854126,1.425764799118042
12.839584112167358,0.12912946939468384,-0.7738231420516968,0.724612832069397,-1.6424429416656494,-0.34733349084854126,1.425001859664917
12.859641313552856,0.12836651504039764,-0.7742046117782593,0.7242313027381897,-1.642824411392212,-0.34771496057510376,1.425001859664917
12.879712581634521,0.12798504531383514,-0.7745860815048218,0.7242313027381897,-1.643587350845337,-0.34771496057510376,1.424238920211792
12.899794578552246,0.12722209095954895,-0.7745860815048218,0.7234683632850647,-1.6439688205718994,-0.34809643030166626,1.424238920211792
12.919939279556274,0.12607766687870026,-0.7753490209579468,0.7234683632850647,-1.644731879234314,-0.34847790002822876,1.422713041305542
12.94004774093628,0.12531471252441406,-0.775730550289154,0.7234683632850647,-1.6458762884140015,-0.34885939955711365,1.421187162399292
12.960200071334839,0.12493324279785156,-0.7761120200157166,0.7234683632850647,-1.6466392278671265,-0.34847790002822876,1.4208056926727295
12.9802565574646,0.12493324279785156,-0.776493489742279,0.7230868935585022,-1.647020697593689,-0.34885939955711365,1.420424222946167
13.000326871871948,0.12417028844356537,-0.777256429195404,0.7230868935585022,-1.648546576499939,-0.34885939955711365,1.418898344039917
13.020403623580933,0.12378881871700287,-0.7776378989219666,0.7230868935585022,-1.6504539251327515,-0.34962233901023865,1.418135404586792
13.040465116500854,0.12302586436271667,-0.7776378989219666,0.7227054238319397,-1.6512168645858765,-0.34962233901023865,1.41775381565094
13.060545921325684,0.12302586436271667,-0.7784008383750916,0.7227054238319397,-1.6519798040390015,-0.35000380873680115,1.41775381565094
13.080854415893555,0.12302586436271667,-0.7784008383750916,0.7227054238319397,-1.6531243324279785,-0.35000380873680115,1.41775381565094
13.100804328918457,0.12226291000843048,-0.7784008383750916,0.7227054238319397,-1.653505802154541,-0.35000380873680115,1.4173723459243774
13.1209077835083,0.12188144028186798,-0.778782308101654,0.7227054238319397,-1.654268741607666,-0.35038527846336365,1.416990876197815
13.14098048210144,0.12149996310472488,-0.7791637778282166,0.7227054238319397,-1.655031681060791,-0.35076677799224854,1.41622793674469
13.161853075027466,0.12073700875043869,-0.7795453071594238,0.7227054238319397,-1.656557559967041,-0.35191118717193604,1.4150835275650024
13.18195652961731,0.1199740618467331,-0.7799267768859863,0.7227054238319397,-1.6577019691467285,-0.35191118717193604,1.4143205881118774
13.202075481414795,0.1199740618467331,-0.7803082466125488,0.7227054238319397,-1.6584649085998535,-0.35191118717193604,1.4135576486587524
13.222989320755005,0.1188296303153038,-0.7806897163391113,0.7227054238319397,-1.6592278480529785,-0.35191118717193604,1.4135576486587524
13.24313497543335,0.1180666834115982,-0.7806897163391113,0.7227054238319397,-1.6603723764419556,-0.35191118717193604,1.412413239479065
13.263193130493164,0.1180666834115982,-0.7810711860656738,0.7223239541053772,-1.6611353158950806,-0.35229265689849854,1.4105058908462524
13.283277034759521,0.11768520623445511,-0.7814526557922363,0.7223239541053772,-1.6618982553482056,-0.3530556261539459,1.4101243019104004
13.303389549255371,0.11730372905731201,-0.7818341255187988,0.7223239541053772,-1.6626611948013306,-0.3534370958805084,1.4101243019104004
13.323453903198242,0.11654078215360641,-0.7822155952453613,0.7219424843788147,-1.664568543434143,-0.3534370958805084,1.409742832183838
13.34361457824707,0.11577782779932022,-0.7822155952453613,0.7215610146522522,-1.666094422340393,-0.3538185656070709,1.408216953277588
13.363701343536377,0.11577782779932022,-0.7825970649719238,0.7211795449256897,-1.6664758920669556,-0.3538185656070709,1.407454013824463
13.38375973701477,0.11577782779932022,-0.7825970649719238,0.7211795449256897,-1.6672388315200806,-0.3538185656070709,1.407454013824463
13.403848648071289,0.11539635062217712,-0.7825970649719238,0.7207980751991272,-1.6680018901824951,-0.3545815348625183,1.4070725440979004
13.424069166183472,0.11463340371847153,-0.7829785346984863,0.7207980751991272,-1.6687648296356201,-0.3561074137687683,1.4070725440979004
13.444044828414917,0.11425192654132843,-0.7837415337562561,0.7207980751991272,-1.6695277690887451,-0.3572518527507782,1.406691074371338
13.464150428771973,0.11387044936418533,-0.7845044732093811,0.7207980751991272,-1.6706721782684326,-0.3576333224773407,1.4063096046447754
13.484262943267822,0.11310750246047974,-0.7848859429359436,0.7207980751991272,-1.6721980571746826,-0.3568703830242157,1.405928134918213
13.504446268081665,0.11272602528333664,-0.7848859429359436,0.7207980751991272,-1.6729609966278076,-0.3568703830242157,1.4055466651916504
13.524518251419067,0.11158160120248795,-0.7848859429359436,0.7207980751991272,-1.6737239360809326,-0.3572518527507782,1.405165195465088
13.544595956802368,0.11043716967105865,-0.7848859429359436,0.7207980751991272,-1.6744868755340576,-0.3580147922039032,1.403639316558838
13.56475281715393,0.10967422276735306,-0.7856488823890686,0.7204165458679199,-1.6763943433761597,-0.3587777614593506,1.4024949073791504
13.585023641586304,0.10929274559020996,-0.7864118218421936,0.7207980751991272,-1.6771572828292847,-0.3595407009124756,1.4021133184432983
13.605019569396973,0.10852979123592377,-0.7867932915687561,0.7204165458679199,-1.6775387525558472,-0.3587777614593506,1.4017318487167358
13.625108480453491,0.10852979123592377,-0.7871748208999634,0.7204165458679199,-1.6798275709152222,-0.3583962619304657,1.4005874395370483
13.645276069641113,0.10852979123592377,-0.7879377603530884,0.7204165458679199,-1.6805905103683472,-0.3587777614593506,1.4002059698104858
13.665459871292114,0.10852979123592377,-0.7879377603530884,0.7204165458679199,-1.6817349195480347,-0.3591592311859131,1.3998245000839233
13.685571670532227,0.10776684433221817,-0.7883192300796509,0.7200350761413574,-1.6836423873901367,-0.3591592311859131,1.3994430303573608
13.705670833587646,0.10776684433221817,-0.7887006998062134,0.7200350761413574,-1.6844053268432617,-0.3599221706390381,1.3990615606307983
13.725963354110718,0.10662241280078888,-0.7890821695327759,0.7196536064147949,-1.6855497360229492,-0.3603036403656006,1.3990615606307983
13.746081352233887,0.10624094307422638,-0.7894636392593384,0.7192721366882324,-1.6878385543823242,-0.3595407009124756,1.3986800909042358
13.766174554824829,0.10585946589708328,-0.7898451089859009,0.7192721366882324,-1.6882200241088867,-0.3595407009124756,1.3982986211776733
13.786563158035278,0.10547798871994019,-0.7902265787124634,0.7192721366882324,-1.6889829635620117,-0.3595407009124756,1.3979171514511108
13.80666470527649,0.1039520874619484,-0.7906080484390259,0.7192721366882324,-1.6901273727416992,-0.3599221706390381,1.3971542119979858
13.82671856880188,0.1035706102848053,-0.7909895181655884,0.7192721366882324,-1.6916533708572388,-0.361066609621048,1.3948653936386108
13.846811532974243,0.1031891331076622,-0.7913710474967957,0.7192721366882324,-1.6924163103103638,-0.3606851398944855,1.3941023349761963
13.866905689239502,0.1028076633810997,-0.7921339869499207,0.7192721366882324,-1.6927977800369263,-0.3606851398944855,1.3925764560699463
13.88694453239441,0.10204470902681351,-0.7921339869499207,0.7192721366882324,-1.6947051286697388,-0.3606851398944855,1.3918135166168213
13.907153367996216,0.10128175467252731,-0.7925154566764832,0.7188906669616699,-1.6950865983963013,-0.3603036403656006,1.3910505771636963
13.927128791809082,0.10128175467252731,-0.7932783961296082,0.7185091972351074,-1.6958495378494263,-0.3606851398944855,1.3906691074371338
13.947407484054565,0.10128175467252731,-0.7936598658561707,0.7185091972351074,-1.6966124773025513,-0.3606851398944855,1.3902876377105713
13.967511892318726,0.10090028494596481,-0.7944228053092957,0.7185091972351074,-1.6973754167556763,-0.361066609621048,1.3895246982574463
13.987645387649536,0.10051880776882172,-0.7944228053092957,0.7185091972351074,-1.6989012956619263,-0.361066609621048,1.3883802890777588
14.007719993591309,0.10013733059167862,-0.7948042750358582,0.7185091972351074,-1.6996643543243408,-0.361066609621048,1.3879988193511963
14.027738571166992,0.09937438368797302,-0.7951858043670654,0.7185091972351074,-1.7011902332305908,-0.361829549074173,1.3879988193511963
14.047913312911987,0.09899290651082993,-0.7951858043670654,0.7185091972351074,-1.7023346424102783,-0.36259251832962036,1.3868544101715088
14.067928791046143,0.09861142933368683,-0.7951858043670654,0.7185091972351074,-1.7027161121368408,-0.36259251832962036,1.3860913515090942
14.08806562423706,0.09784847497940063,-0.7955672740936279,0.7185091972351074,-1.7030975818634033,-0.36373692750930786,1.3845654726028442
14.108082294464111,0.09708552807569504,-0.7963302135467529,0.7185091972351074,-1.7050049304962158,-0.36526283621788025,1.3838025331497192
14.12819528579712,0.09594109654426575,-0.7970931529998779,0.7181277275085449,-1.7065308094024658,-0.36526283621788025,1.3826581239700317
14.148335933685303,0.09517814964056015,-0.7970931529998779,0.7181277275085449,-1.7076753377914429,-0.36526283621788025,1.3815137147903442
14.168380498886108,0.09479667246341705,-0.7970931529998779,0.7173647880554199,-1.7092012166976929,-0.36526283621788025,1.3807507753372192
14.18848443031311,0.09403372555971146,-0.7970931529998779,0.7173647880554199,-1.7099641561508179,-0.36488136649131775,1.3807507753372192
14.208560466766357,0.09403372555971146,-0.7974746227264404,0.7173647880554199,-1.7107270956039429,-0.36564430594444275,1.3803693056106567
14.228660821914673,0.09403372555971146,-0.7974746227264404,0.7173647880554199,-1.7122529745101929,-0.36602577567100525,1.3799878358840942
14.24873161315918,0.09327077120542526,-0.7982375621795654,0.7173647880554199,-1.7141603231430054,-0.36717021465301514,1.3799878358840942
14.268840789794922,0.09327077120542526,-0.7990005612373352,0.7173647880554199,-1.71492338180542,-0.36717021465301514,1.3799878358840942
14.28897738456726,0.09288929402828217,-0.7990005612373352,0.7173647880554199,-1.717212200164795,-0.36678874492645264,1.3792248964309692
14.309075355529785,0.09212634712457657,-0.7993820309638977,0.7173647880554199,-1.7183566093444824,-0.36640727519989014,1.3776988983154297
14.32918095588684,0.09174486994743347,-0.7993820309638977,0.7173647880554199,-1.71950101852417,-0.36678874492645264,1.3765544891357422
14.349634885787964,0.09098191559314728,-0.7993820309638977,0.7173647880554199,-1.7206454277038574,-0.36717021465301514,1.3761730194091797
14.369722127914429,0.08945601433515549,-0.8001449704170227,0.7173647880554199,-1.72102689743042,-0.36793315410614014,1.3757915496826172
14.389808654785156,0.08907453715801239,-0.8005264401435852,0.7173647880554199,-1.721789836883545,-0.368314653635025,1.3746471405029297
14.409969806671143,0.08869306743144989,-0.8012893795967102,0.7173647880554199,-1.72255277633667,-0.36793315410614014,1.3735027313232422
14.430081129074097,0.0883115902543068,-0.8016708493232727,0.7173647880554199,-1.722934365272522,-0.36717021465301514,1.3735027313232422
