liuyurong129/humanoid-gym/humanoid/data/actual_q_20250521-000657.csv
timestamp,joint_1,joint_2,joint_3,joint_4,joint_5,joint_6
3.552436828613281e-05,0.00019073777366429567,0.17452506721019745,-0.0871671661734581,-0.00019073777366429567,-0.00019073777366429567,-0.00019073777366429567
0.020113706588745117,0.00019073777366429567,0.15697719156742096,-0.07991912961006165,-0.00019073777366429567,-0.00019073777366429567,-0.00019073777366429567
0.040177345275878906,0.00019073777366429567,0.1333257108926773,-0.06961929053068161,-0.00019073777366429567,0.00019073777366429567,-0.00019073777366429567
0.0603947639465332,-0.00019073777366429567,0.11463340371847153,-0.06084534898400307,-0.00019073777366429567,0.0024795911740511656,-0.00019073777366429567
0.08048892021179199,-0.00019073777366429567,0.10852979123592377,-0.05703059583902359,-0.00019073777366429567,-0.000572213320992887,-0.00019073777366429567
0.10060286521911621,-0.00019073777366429567,0.10547798871994019,-0.05664911866188049,-0.00019073777366429567,-0.00019073777366429567,-0.00019073777366429567
0.12063169479370117,-0.00019073777366429567,0.10509651154279709,-0.0551232174038887,-0.00019073777366429567,-0.000572213320992887,-0.00019073777366429567
0.14071917533874512,-0.00019073777366429567,0.1035706102848053,-0.05359731614589691,-0.00019073777366429567,-0.000572213320992887,-0.00019073777366429567
0.16077971458435059,-0.000572213320992887,0.10166323184967041,-0.05207141116261482,-0.00019073777366429567,-0.00019073777366429567,-0.00019073777366429567
0.18088150024414062,-0.000572213320992887,0.10013733059167862,-0.05207141116261482,-0.00019073777366429567,-0.00019073777366429567,-0.00019073777366429567
0.20092439651489258,-0.000572213320992887,0.09746700525283813,-0.05207141116261482,-0.00019073777366429567,-0.00019073777366429567,-0.00019073777366429567
0.22105145454406738,-0.0013351644156500697,0.09517814964056015,-0.05054550990462303,-0.00019073777366429567,0.00019073777366429567,-0.000572213320992887
0.2412252426147461,-0.0020981156267225742,0.09365224838256836,-0.04940108209848404,-0.00019073777366429567,0.00019073777366429567,-0.000572213320992887
0.26137852668762207,-0.0024795911740511656,0.09288929402828217,-0.048638131469488144,-0.00019073777366429567,0.00019073777366429567,-0.000572213320992887
0.2813851833343506,-0.002861066721379757,0.09136339277029037,-0.04787518084049225,-0.00019073777366429567,-0.00019073777366429567,-0.00019073777366429567
0.30147647857666016,-0.004005493130534887,0.08907453715801239,-0.04711223021149635,-0.00019073777366429567,-0.00019073777366429567,-0.000572213320992887
0.3215184211730957,-0.005149920005351305,0.0864042118191719,-0.04596780240535736,-0.00019073777366429567,-0.00019073777366429567,-0.000572213320992887
0.3415486812591553,-0.005912871100008488,0.08411535620689392,-0.04482337832450867,-0.00019073777366429567,-0.00019073777366429567,-0.000572213320992887
0.3615875244140625,-0.005912871100008488,0.08258945494890213,-0.04406042397022247,-0.00019073777366429567,-0.00019073777366429567,-0.000572213320992887
0.3816854953765869,-0.006294346414506435,0.08068207651376724,-0.04291599988937378,-0.00019073777366429567,-0.00019073777366429567,-0.000572213320992887
0.4018263816833496,-0.007438773289322853,0.07915617525577545,-0.04177157208323479,-0.00019073777366429567,-0.00019073777366429567,-0.000572213320992887
0.42182016372680664,-0.0078202486038208,0.07724879682064056,-0.04100862145423889,-0.00019073777366429567,-0.00019073777366429567,-0.000572213320992887
0.4418795108795166,-0.007438773289322853,0.07534141838550568,-0.0398641936480999,-0.00019073777366429567,-0.00019073777366429567,-0.000572213320992887
0.46199488639831543,-0.008201723918318748,0.07305257022380829,-0.039101243019104004,-0.00019073777366429567,-0.000572213320992887,-0.000572213320992887
0.48212337493896484,-0.008964675478637218,0.0707637146115303,-0.03833829239010811,-0.00019073777366429567,-0.00019073777366429567,-0.000572213320992887
0.5022084712982178,-0.009727626107633114,0.06885633617639542,-0.037193864583969116,-0.00019073777366429567,-0.00019073777366429567,-0.000572213320992887
0.5222113132476807,-0.010109102353453636,0.06656748056411743,-0.03643091395497322,0.00019073777366429567,-0.000572213320992887,-0.000572213320992887
0.5423891544342041,-0.010872052982449532,0.06389715522527695,-0.03490501269698143,0.00019073777366429567,-0.000572213320992887,-0.000572213320992887
0.5624358654022217,-0.01201647985726595,0.06160829961299896,-0.03337911143898964,0.00019073777366429567,-0.000572213320992887,-0.000572213320992887
0.582512378692627,-0.012779430486261845,0.05970092490315437,-0.032616160809993744,0.00019073777366429567,-0.000572213320992887,-0.000572213320992887
0.6025912761688232,-0.012779430486261845,0.057793546468019485,-0.03223468363285065,0.000572213320992887,-0.000572213320992887,-0.000572213320992887
0.622821569442749,-0.013160906732082367,0.0555046908557415,-0.030708782374858856,0.000572213320992887,-0.000572213320992887,-0.000572213320992887
0.6429409980773926,-0.01430533267557621,0.053215838968753815,-0.029564354568719864,0.000572213320992887,-0.000572213320992887,-0.000572213320992887
0.6630170345306396,-0.014686808921396732,0.05130846053361893,-0.02841992862522602,0.000572213320992887,-0.000572213320992887,-0.0009536888683214784
0.6830990314483643,-0.014686808921396732,0.04901960864663124,-0.027656977996230125,0.000572213320992887,-0.000572213320992887,-0.0009536888683214784
0.7031519412994385,-0.01506828423589468,0.04711223021149635,-0.026131074875593185,0.0009536888683214784,-0.000572213320992887,-0.0009536888683214784
0.7233128547668457,-0.015449759550392628,0.04444190114736557,-0.024986648932099342,0.0009536888683214784,-0.0009536888683214784,-0.0009536888683214784
0.7433412075042725,-0.016594186425209045,0.042153049260377884,-0.02384222112596035,0.0009536888683214784,-0.000572213320992887,-0.0009536888683214784
0.7634091377258301,-0.016975661739706993,0.040245670825242996,-0.022697795182466507,0.0013351644156500697,-0.000572213320992887,-0.0009536888683214784
0.7834727764129639,-0.01735713705420494,0.03833829239010811,-0.02193484455347061,0.0013351644156500697,-0.0009536888683214784,-0.0009536888683214784
0.8038699626922607,-0.018120087683200836,0.03643091395497322,-0.02040894143283367,0.001716639962978661,-0.0009536888683214784,-0.0009536888683214784
0.823960542678833,-0.01926451548933983,0.03376058489084244,-0.01926451548933983,0.0020981156267225742,-0.0009536888683214784,-0.0013351644156500697
0.8441040515899658,-0.020027466118335724,0.03223468363285065,-0.018120087683200836,0.0020981156267225742,-0.0009536888683214784,-0.0013351644156500697
0.864149808883667,-0.020027466118335724,0.029564354568719864,-0.01773861236870289,0.0024795911740511656,-0.0009536888683214784,-0.0013351644156500697
0.8845183849334717,-0.02040894143283367,0.02689402550458908,-0.016594186425209045,0.002861066721379757,-0.0013351644156500697,-0.0013351644156500697
0.9046874046325684,-0.021171892061829567,0.024605173617601395,-0.01506828423589468,0.0032425422687083483,-0.0013351644156500697,-0.0013351644156500697
0.924675703048706,-0.02193484455347061,0.023079270496964455,-0.013542382046580315,0.0032425422687083483,-0.0013351644156500697,-0.001716639962978661
0.9448332786560059,-0.02193484455347061,0.021553369238972664,-0.01201647985726595,0.0036240178160369396,-0.0013351644156500697,-0.0020981156267225742
0.9649679660797119,-0.02231631986796856,0.019645990803837776,-0.010872052982449532,0.0036240178160369396,-0.0013351644156500697,-0.0020981156267225742
0.9850506782531738,-0.023079270496964455,0.01735713705420494,-0.009346150793135166,0.0036240178160369396,-0.0013351644156500697,-0.0020981156267225742
1.0051109790802002,-0.023460745811462402,0.01583123579621315,-0.00858320016413927,0.0036240178160369396,-0.0013351644156500697,-0.0020981156267225742
1.025174856185913,-0.024223696440458298,0.013542382046580315,-0.0078202486038208,0.004005493130534887,-0.0013351644156500697,-0.0020981156267225742
1.045325517654419,-0.024986648932099342,0.010109102353453636,-0.006294346414506435,0.004005493130534887,-0.0013351644156500697,-0.0024795911740511656
1.065420150756836,-0.025749599561095238,0.0078202486038208,-0.00476844422519207,0.004005493130534887,-0.0013351644156500697,-0.0020981156267225742
1.0855293273925781,-0.026512550190091133,0.006294346414506435,-0.0036240178160369396,0.004386968910694122,-0.001716639962978661,-0.0024795911740511656
1.105564832687378,-0.02727550081908703,0.004386968910694122,-0.0024795911740511656,0.004386968910694122,-0.001716639962978661,-0.0024795911740511656
1.1256160736083984,-0.02727550081908703,0.0020981156267225742,-0.0009536888683214784,0.004386968910694122,-0.0020981156267225742,-0.0024795911740511656
1.1456983089447021,-0.027656977996230125,-0.000572213320992887,0.000572213320992887,0.00476844422519207,-0.0020981156267225742,-0.0024795911740511656
1.165769338607788,-0.02841992862522602,-0.0024795911740511656,0.001716639962978661,0.00476844422519207,-0.0020981156267225742,-0.0024795911740511656
1.185845136642456,-0.029182879254221916,-0.004386968910694122,0.0032425422687083483,0.005149920005351305,-0.0020981156267225742,-0.0024795911740511656
1.2059071063995361,-0.029182879254221916,-0.007438773289322853,0.004386968910694122,0.005149920005351305,-0.0024795911740511656,-0.0024795911740511656
1.2260677814483643,-0.029564354568719864,-0.010109102353453636,0.005912871100008488,0.005912871100008488,-0.002861066721379757,-0.0024795911740511656
1.246150016784668,-0.02994582988321781,-0.012397955171763897,0.007438773289322853,0.00667582219466567,-0.0032425422687083483,-0.002861066721379757
1.2662343978881836,-0.030708782374858856,-0.013923857361078262,0.008201723918318748,0.007057297509163618,-0.0032425422687083483,-0.002861066721379757
1.2863028049468994,-0.03147173300385475,-0.01735713705420494,0.009727626107633114,0.007057297509163618,-0.002861066721379757,-0.002861066721379757
1.306394100189209,-0.03185320645570755,-0.019645990803837776,0.010872052982449532,0.007438773289322853,-0.0036240178160369396,-0.0024795911740511656
1.3264732360839844,-0.032616160809993744,-0.02231631986796856,0.012397955171763897,0.007438773289322853,-0.004005493130534887,-0.002861066721379757
1.346557378768921,-0.03376058489084244,-0.024223696440458298,0.013542382046580315,0.007438773289322853,-0.004005493130534887,-0.002861066721379757
1.3666083812713623,-0.03528648987412453,-0.02727550081908703,0.01506828423589468,0.0078202486038208,-0.004386968910694122,-0.002861066721379757
1.386817216873169,-0.03643091395497322,-0.03032730519771576,0.016212711110711098,0.0078202486038208,-0.004386968910694122,-0.002861066721379757
1.4069240093231201,-0.03681239113211632,-0.03299763426184654,0.01735713705420494,0.008201723918318748,-0.004386968910694122,-0.002861066721379757
1.4269754886627197,-0.03681239113211632,-0.035667963325977325,0.01926451548933983,0.008201723918318748,-0.00476844422519207,-0.002861066721379757
1.447021484375,-0.03681239113211632,-0.03795681521296501,0.02079041674733162,0.00858320016413927,-0.005149920005351305,-0.002861066721379757
1.4670863151550293,-0.03681239113211632,-0.040627144277095795,0.02231631986796856,0.008964675478637218,-0.005149920005351305,-0.002861066721379757
1.487180471420288,-0.03681239113211632,-0.043678950518369675,0.02384222112596035,0.009346150793135166,-0.005149920005351305,-0.002861066721379757
1.5072414875030518,-0.037193864583969116,-0.04596780240535736,0.024986648932099342,0.009727626107633114,-0.005149920005351305,-0.002861066721379757
1.52730393409729,-0.03757534176111221,-0.048256658017635345,0.02536812424659729,0.010109102353453636,-0.005149920005351305,-0.0032425422687083483
1.5473506450653076,-0.038719769567251205,-0.05054550990462303,0.026512550190091133,0.010490577667951584,-0.005149920005351305,-0.002861066721379757
1.5674381256103516,-0.039101243019104004,-0.053215838968753815,0.027656977996230125,0.010872052982449532,-0.005149920005351305,-0.0032425422687083483
1.5875236988067627,-0.0398641936480999,-0.0555046908557415,0.029564354568719864,0.010872052982449532,-0.005149920005351305,-0.0032425422687083483
1.6075835227966309,-0.040627144277095795,-0.057793546468019485,0.030708782374858856,0.01125352829694748,-0.005531395319849253,-0.0032425422687083483
1.6276392936706543,-0.04139009863138199,-0.061226826161146164,0.03223468363285065,0.011635004542768002,-0.005531395319849253,-0.0032425422687083483
1.6476984024047852,-0.04177157208323479,-0.06504157930612564,0.03376058489084244,0.011635004542768002,-0.005531395319849253,-0.0032425422687083483
1.667917013168335,-0.042153049260377884,-0.06771191209554672,0.035667963325977325,0.011635004542768002,-0.005531395319849253,-0.0032425422687083483
1.687898874282837,-0.04291599988937378,-0.07038223743438721,0.037193864583969116,0.01201647985726595,-0.005912871100008488,-0.0032425422687083483
1.70798921585083,-0.04406042397022247,-0.07305257022380829,0.03833829239010811,0.01201647985726595,-0.005912871100008488,-0.0032425422687083483
1.7280158996582031,-0.043678950518369675,-0.07648584991693497,0.0398641936480999,0.01201647985726595,-0.006294346414506435,-0.0032425422687083483
1.7481203079223633,-0.04406042397022247,-0.07953765243291855,0.04177157208323479,0.012397955171763897,-0.0078202486038208,-0.0032425422687083483
1.7682292461395264,-0.04444190114736557,-0.08220797777175903,0.04291599988937378,0.012779430486261845,-0.0078202486038208,-0.0032425422687083483
1.788292646408081,-0.045204851776361465,-0.08487831056118011,0.04444190114736557,0.013542382046580315,-0.0078202486038208,-0.0032425422687083483
1.8083689212799072,-0.04634927958250046,-0.0879301130771637,0.04558632895350456,0.013923857361078262,-0.0078202486038208,-0.0032425422687083483
1.8284430503845215,-0.04711223021149635,-0.09098191559314728,0.04749370738863945,0.014686808921396732,-0.0078202486038208,-0.0036240178160369396
1.848501443862915,-0.04749370738863945,-0.09403372555971146,0.04940108209848404,0.014686808921396732,-0.0078202486038208,-0.0036240178160369396
1.8685810565948486,-0.048256658017635345,-0.09632257372140884,0.05092698708176613,0.01506828423589468,-0.0078202486038208,-0.0036240178160369396
1.888624906539917,-0.04901960864663124,-0.09975585341453552,0.05245288833975792,0.01506828423589468,-0.0078202486038208,-0.0036240178160369396
1.9087085723876953,-0.04940108209848404,-0.1031891331076622,0.05397878959774971,0.01506828423589468,-0.0078202486038208,-0.0036240178160369396
1.9288196563720703,-0.049782559275627136,-0.10547798871994019,0.0551232174038887,0.015449759550392628,-0.008201723918318748,-0.0036240178160369396
1.9488625526428223,-0.05054550990462303,-0.10852979123592377,0.05703059583902359,0.015449759550392628,-0.008201723918318748,-0.0036240178160369396
1.968912124633789,-0.05130846053361893,-0.11158160120248795,0.05855649709701538,0.015449759550392628,-0.008201723918318748,-0.0036240178160369396
1.9889779090881348,-0.05130846053361893,-0.11577782779932022,0.06084534898400307,0.01583123579621315,-0.008201723918318748,-0.004005493130534887
2.0091161727905273,-0.05207141116261482,-0.1203555315732956,0.06351567804813385,0.016212711110711098,-0.008201723918318748,-0.004005493130534887
2.0291731357574463,-0.05283436179161072,-0.12302586436271667,0.06542305648326874,0.016594186425209045,-0.008201723918318748,-0.004005493130534887
2.049224853515625,-0.05359731614589691,-0.12722209095954895,0.06694895774126053,0.016975661739706993,-0.008201723918318748,-0.004005493130534887
2.069533586502075,-0.05397878959774971,-0.13065537810325623,0.06885633617639542,0.01735713705420494,-0.008201723918318748,-0.004005493130534887
2.089616298675537,-0.054741740226745605,-0.1333257108926773,0.0711451917886734,0.018120087683200836,-0.008201723918318748,-0.004386968910694122
2.1097052097320557,-0.0551232174038887,-0.1359960287809372,0.07305257022380829,0.018501564860343933,-0.00858320016413927,-0.00476844422519207
2.1297597885131836,-0.0558861680328846,-0.13790340721607208,0.07419699430465698,0.01888304017484188,-0.008201723918318748,-0.005149920005351305
2.1498682498931885,-0.056267641484737396,-0.14095520973205566,0.07572289556264877,0.01888304017484188,-0.008201723918318748,-0.005531395319849253
2.1699228286743164,-0.05703059583902359,-0.14515145123004913,0.07839322835206985,0.01888304017484188,-0.00858320016413927,-0.005912871100008488
2.189997911453247,-0.05741206929087639,-0.1493476778268814,0.08106355369091034,0.01926451548933983,-0.008201723918318748,-0.005912871100008488
2.2100491523742676,-0.05855649709701538,-0.1520180106163025,0.08258945494890213,0.01926451548933983,-0.008201723918318748,-0.005912871100008488
2.230119466781616,-0.05855649709701538,-0.15468832850456238,0.08411535620689392,0.01926451548933983,-0.00858320016413927,-0.005912871100008488
2.2502753734588623,-0.05893797054886818,-0.15850308537483215,0.08602273464202881,0.019645990803837776,-0.00858320016413927,-0.006294346414506435
2.270310401916504,-0.059319447726011276,-0.16155488789081573,0.08869306743144989,0.020027466118335724,-0.00858320016413927,-0.006294346414506435
2.2903683185577393,-0.05970092490315437,-0.1646067053079605,0.09021896868944168,0.02040894143283367,-0.00858320016413927,-0.006294346414506435
2.310445547103882,-0.06084534898400307,-0.16880293190479279,0.09288929402828217,0.02079041674733162,-0.00858320016413927,-0.006294346414506435
2.3305180072784424,-0.06160829961299896,-0.17299915850162506,0.09555962681770325,0.021553369238972664,-0.00858320016413927,-0.006294346414506435
2.3508362770080566,-0.06237125024199486,-0.17681391537189484,0.09861142933368683,0.02231631986796856,-0.00858320016413927,-0.006294346414506435
2.370885133743286,-0.06275273114442825,-0.1806286722421646,0.10051880776882172,0.02231631986796856,-0.00858320016413927,-0.006294346414506435
2.3908982276916504,-0.06389715522527695,-0.18520638346672058,0.1024261862039566,0.022697795182466507,-0.00858320016413927,-0.006294346414506435
2.410973072052002,-0.06504157930612564,-0.18940261006355286,0.10509651154279709,0.022697795182466507,-0.008964675478637218,-0.006294346414506435
2.4310925006866455,-0.06542305648326874,-0.19321736693382263,0.10776684433221817,0.023079270496964455,-0.008964675478637218,-0.006294346414506435
2.4511287212371826,-0.06580453366041183,-0.1977950781583786,0.11005569249391556,0.023460745811462402,-0.00858320016413927,-0.006294346414506435
2.471186637878418,-0.06580453366041183,-0.20122835040092468,0.11272602528333664,0.023460745811462402,-0.009346150793135166,-0.00667582219466567
2.4912657737731934,-0.06694895774126053,-0.20656901597976685,0.11654078215360641,0.024223696440458298,-0.009346150793135166,-0.00667582219466567
2.511352062225342,-0.06733043491840363,-0.21000228822231293,0.1188296303153038,0.024986648932099342,-0.009346150793135166,-0.00667582219466567
2.531423807144165,-0.06809338182210922,-0.2141985148191452,0.12073700875043869,0.025749599561095238,-0.009346150793135166,-0.00667582219466567
2.5515003204345703,-0.06885633617639542,-0.21877622604370117,0.12264438718557358,0.026131074875593185,-0.009346150793135166,-0.00667582219466567
2.571976900100708,-0.06923781335353851,-0.22335393726825714,0.12569619715213776,0.026512550190091133,-0.009727626107633114,-0.00667582219466567
2.5921075344085693,-0.07038223743438721,-0.22793163359165192,0.12874799966812134,0.026512550190091133,-0.009727626107633114,-0.00667582219466567
2.612131357192993,-0.0715266615152359,-0.2313649207353592,0.13179980218410492,0.02689402550458908,-0.009727626107633114,-0.00667582219466567
2.632197856903076,-0.07267109304666519,-0.23517967760562897,0.1340886503458023,0.02689402550458908,-0.009727626107633114,-0.007057297509163618
2.65250563621521,-0.07305257022380829,-0.23975738883018494,0.1371404528617859,0.02689402550458908,-0.010490577667951584,-0.007057297509163618
2.6726160049438477,-0.07343403995037079,-0.2450980395078659,0.14133669435977936,0.02727550081908703,-0.011635004542768002,-0.007057297509163618
2.692683458328247,-0.07343403995037079,-0.24967575073242188,0.14438849687576294,0.028038453310728073,-0.012397955171763897,-0.007057297509163618
2.7128047943115234,-0.07381551712751389,-0.25577935576438904,0.14820325374603271,0.02880140393972397,-0.012397955171763897,-0.007057297509163618
2.732935667037964,-0.07457847148180008,-0.2611200213432312,0.1520180106163025,0.029564354568719864,-0.01201647985726595,-0.007057297509163618
2.7530364990234375,-0.07534141838550568,-0.265697717666626,0.15583276748657227,0.02994582988321781,-0.01201647985726595,-0.007057297509163618
2.773219347000122,-0.07610437273979187,-0.27141985297203064,0.15850308537483215,0.03032730519771576,-0.01201647985726595,-0.007438773289322853
2.793200969696045,-0.07763027399778366,-0.2763790488243103,0.16231784224510193,0.03032730519771576,-0.01201647985726595,-0.007438773289322853
2.813274621963501,-0.07801175117492676,-0.2821011543273926,0.1668955534696579,0.030708782374858856,-0.012397955171763897,-0.007438773289322853
2.833339214324951,-0.07839322835206985,-0.28629741072654724,0.17109178006649017,0.03147173300385475,-0.012779430486261845,-0.007438773289322853
2.853405475616455,-0.07915617525577545,-0.2912565767765045,0.17414358258247375,0.03185320645570755,-0.01430533267557621,-0.0078202486038208
2.8734302520751953,-0.07953765243291855,-0.2965972423553467,0.17872129380702972,0.03299763426184654,-0.01506828423589468,-0.0078202486038208
2.8934953212738037,-0.08030059933662415,-0.30308231711387634,0.1832990050315857,0.03376058489084244,-0.015449759550392628,-0.0078202486038208
2.9136250019073486,-0.08068207651376724,-0.3091859221458435,0.18787670135498047,0.03376058489084244,-0.015449759550392628,-0.0078202486038208
2.9336795806884766,-0.08144503086805344,-0.31528952717781067,0.19169145822525024,0.034142062067985535,-0.01506828423589468,-0.008201723918318748
2.9537882804870605,-0.08258945494890213,-0.3221561014652252,0.1966506391763687,0.034142062067985535,-0.01583123579621315,-0.008201723918318748
2.9738991260528564,-0.08373387902975082,-0.32940414547920227,0.20275425910949707,0.03490501269698143,-0.015449759550392628,-0.00858320016413927
2.9939799308776855,-0.08487831056118011,-0.33550775051116943,0.20695048570632935,0.03528648987412453,-0.015449759550392628,-0.00858320016413927
3.0140464305877686,-0.08564125746488571,-0.3416113555431366,0.21152819693088531,0.03604944050312042,-0.015449759550392628,-0.008964675478637218
3.034109354019165,-0.08564125746488571,-0.34809643030166626,0.2161058932542801,0.03757534176111221,-0.016212711110711098,-0.009727626107633114
3.0541648864746094,-0.0871671661734581,-0.3561074137687683,0.22144655883312225,0.03795681521296501,-0.016212711110711098,-0.010109102353453636
3.0742359161376953,-0.0875486359000206,-0.36335545778274536,0.22716869413852692,0.038719769567251205,-0.01583123579621315,-0.010109102353453636
3.094306230545044,-0.0875486359000206,-0.36907759308815,0.2317463904619217,0.039101243019104004,-0.016212711110711098,-0.010490577667951584
3.114403247833252,-0.0883115902543068,-0.3763256371021271,0.23708705604076385,0.04100862145423889,-0.016212711110711098,-0.010490577667951584
3.134479522705078,-0.08907453715801239,-0.3850995600223541,0.2447165697813034,0.04139009863138199,-0.01583123579621315,-0.010872052982449532
3.154603958129883,-0.09021896868944168,-0.39463645219802856,0.25234606862068176,0.042153049260377884,-0.015449759550392628,-0.010872052982449532
3.174828290939331,-0.09098191559314728,-0.4022659659385681,0.2592126429080963,0.04253452271223068,-0.015449759550392628,-0.01125352829694748
3.1947576999664307,-0.09174486994743347,-0.41218432784080505,0.26760509610176086,0.04444190114736557,-0.015449759550392628,-0.01125352829694748
3.214837074279785,-0.09288929402828217,-0.421339750289917,0.2771419882774353,0.045204851776361465,-0.01583123579621315,-0.011635004542768002
3.2349016666412354,-0.09365224838256836,-0.43049514293670654,0.28515297174453735,0.04596780240535736,-0.016212711110711098,-0.011635004542768002
3.2549781799316406,-0.09479667246341705,-0.4404135048389435,0.2935454249382019,0.046730753034353256,-0.016212711110711098,-0.01201647985726595
3.275052070617676,-0.09479667246341705,-0.4488059878349304,0.30155640840530396,0.04787518084049225,-0.016975661739706993,-0.012779430486261845
3.29546856880188,-0.09555962681770325,-0.45948728919029236,0.3126192092895508,0.04940108209848404,-0.016975661739706993,-0.013160906732082367
3.3155481815338135,-0.09670405089855194,-0.4709315598011017,0.3236820101737976,0.04940108209848404,-0.016212711110711098,-0.013542382046580315
3.3356709480285645,-0.09746700525283813,-0.4812313914299011,0.33169299364089966,0.050164032727479935,-0.01583123579621315,-0.013923857361078262
3.3557651042938232,-0.09784847497940063,-0.49267566204071045,0.3412298858165741,0.051689937710762024,-0.01583123579621315,-0.013923857361078262
3.375776767730713,-0.09899290651082993,-0.5033569931983948,0.3526741564273834,0.05283436179161072,-0.01583123579621315,-0.013923857361078262
3.395874261856079,-0.09975585341453552,-0.5151827335357666,0.36411839723587036,0.05359731614589691,-0.016212711110711098,-0.01430533267557621
3.4159224033355713,-0.10128175467252731,-0.5266270041465759,0.3763256371021271,0.0551232174038887,-0.016594186425209045,-0.01430533267557621
3.4359984397888184,-0.10166323184967041,-0.536926805973053,0.3866254687309265,0.05664911866188049,-0.01735713705420494,-0.01430533267557621
3.456098794937134,-0.10204470902681351,-0.5502784848213196,0.4007400572299957,0.05741206929087639,-0.018120087683200836,-0.014686808921396732
3.476184606552124,-0.1024261862039566,-0.5636301040649414,0.41523614525794983,0.05970092490315437,-0.016975661739706993,-0.01506828423589468
3.4962568283081055,-0.1024261862039566,-0.5750743746757507,0.42668038606643677,0.06008239835500717,-0.016975661739706993,-0.015449759550392628
3.5163283348083496,-0.1035706102848053,-0.5891889929771423,0.4396505653858185,0.061226826161146164,-0.015449759550392628,-0.015449759550392628
3.536381721496582,-0.1039520874619484,-0.6040665507316589,0.4533836841583252,0.06275273114442825,-0.015449759550392628,-0.016594186425209045
3.556464910507202,-0.10509651154279709,-0.6170367002487183,0.4655908942222595,0.06427863240242004,-0.01506828423589468,-0.018120087683200836
3.5765302181243896,-0.10624094307422638,-0.6311513185501099,0.47779813408851624,0.06504157930612564,-0.01506828423589468,-0.018501564860343933
3.596614122390747,-0.10624094307422638,-0.6456473469734192,0.49076828360557556,0.06771191209554672,-0.01583123579621315,-0.01888304017484188
3.6166586875915527,-0.10738536715507507,-0.6639581918716431,0.509079098701477,0.07000076025724411,-0.016594186425209045,-0.01926451548933983
3.636751651763916,-0.10776684433221817,-0.6815060377120972,0.5285343527793884,0.071908138692379,-0.01583123579621315,-0.02079041674733162
3.6568186283111572,-0.10852979123592377,-0.6971465349197388,0.5457007884979248,0.07305257022380829,-0.01506828423589468,-0.02231631986796856
3.676906108856201,-0.10852979123592377,-0.7135500311851501,0.5632486343383789,0.07534141838550568,-0.014686808921396732,-0.02231631986796856
3.6969499588012695,-0.10852979123592377,-0.7280460596084595,0.5815594792366028,0.07724879682064056,-0.01430533267557621,-0.022697795182466507
3.7170188426971436,-0.10852979123592377,-0.7436865568161011,0.6017776727676392,0.07915617525577545,-0.01430533267557621,-0.02384222112596035
3.7371089458465576,-0.10891126841306686,-0.7612344622612,0.6204699873924255,0.08182650804519653,-0.01430533267557621,-0.025749599561095238
3.7571709156036377,-0.10929274559020996,-0.7768749594688416,0.6391623020172119,0.08335240930318832,-0.01201647985726595,-0.026512550190091133
3.777254343032837,-0.10929274559020996,-0.7928969264030457,0.6586175560951233,0.0864042118191719,-0.01125352829694748,-0.028038453310728073
3.7972848415374756,-0.10929274559020996,-0.8077744841575623,0.6780728101730347,0.0883115902543068,-0.011635004542768002,-0.029182879254221916
3.817375421524048,-0.10929274559020996,-0.8218890428543091,0.6960021257400513,0.09021896868944168,-0.010109102353453636,-0.03032730519771576
3.837439775466919,-0.10929274559020996,-0.8356221914291382,0.7146944403648376,0.09212634712457657,-0.010109102353453636,-0.03147173300385475
3.8575077056884766,-0.10929274559020996,-0.8493552803993225,0.7322422862052917,0.09479667246341705,-0.008201723918318748,-0.032616160809993744
3.8775739669799805,-0.10929274559020996,-0.8669031858444214,0.7532234787940979,0.09784847497940063,-0.007438773289322853,-0.03337911143898964
3.8978497982025146,-0.10929274559020996,-0.8829251527786255,0.767719566822052,0.10013733059167862,-0.005531395319849253,-0.034142062067985535
3.9179728031158447,-0.10929274559020996,-0.9000915288925171,0.7837415337562561,0.1031891331076622,-0.0032425422687083483,-0.035667963325977325
3.9380133152008057,-0.10929274559020996,-0.916113555431366,0.7967116832733154,0.10547798871994019,-0.0024795911740511656,-0.037193864583969116
3.9580726623535156,-0.10891126841306686,-0.9355688095092773,0.8142595291137695,0.10891126841306686,-0.0032425422687083483,-0.038719769567251205
3.978239059448242,-0.10929274559020996,-0.955024003982544,0.8310444951057434,0.11043716967105865,-0.0009536888683214784,-0.040245670825242996
3.9983279705047607,-0.10891126841306686,-0.9725719094276428,0.8497368097305298,0.11310750246047974,-0.0013351644156500697,-0.04139009863138199
4.0184667110443115,-0.10891126841306686,-0.9866865277290344,0.8646143078804016,0.11501488089561462,-0.000572213320992887,-0.042153049260377884
4.038482189178467,-0.10891126841306686,-1.0019454956054688,0.8836880922317505,0.11692225188016891,0.00019073777366429567,-0.04329747334122658
4.058545351028442,-0.10814831405878067,-1.0156786441802979,0.9008545279502869,0.1199740618467331,0.0009536888683214784,-0.04558632895350456
4.0786452293396,-0.10738536715507507,-1.0290303230285645,0.9172579646110535,0.12226291000843048,0.0020981156267225742,-0.04634927958250046
4.098731279373169,-0.10662241280078888,-1.041237473487854,0.9317540526390076,0.12417028844356537,0.0032425422687083483,-0.048638131469488144
4.118793249130249,-0.10585946589708328,-1.054207682609558,0.9451056718826294,0.12684062123298645,0.0036240178160369396,-0.049782559275627136
4.138842582702637,-0.10433356463909149,-1.0660333633422852,0.9584572911262512,0.12951095402240753,0.006294346414506435,-0.05130846053361893
4.15891170501709,-0.1035706102848053,-1.0786221027374268,0.9729533791542053,0.13141833245754242,0.007438773289322853,-0.05245288833975792
4.178992986679077,-0.10128175467252731,-1.0893033742904663,0.9870679974555969,0.1325627565383911,0.0078202486038208,-0.053215838968753815
4.1990556716918945,-0.10090028494596481,-1.0973143577575684,0.9981307983398438,0.1348516047000885,0.010490577667951584,-0.0558861680328846
4.219134092330933,-0.10051880776882172,-1.10685133934021,1.0118639469146729,0.1363775134086609,0.012397955171763897,-0.05741206929087639
4.239182472229004,-0.09975585341453552,-1.116388201713562,1.0267413854599,0.13904783129692078,0.012779430486261845,-0.059319447726011276
4.259279489517212,-0.09899290651082993,-1.1263065338134766,1.0423818826675415,0.14171816408634186,0.013542382046580315,-0.06046387553215027
4.27935791015625,-0.09899290651082993,-1.1354619264602661,1.0576409101486206,0.14400701224803925,0.013923857361078262,-0.061226826161146164
4.299420118331909,-0.09746700525283813,-1.1491950750350952,1.0759518146514893,0.14744029939174652,0.018120087683200836,-0.06351567804813385
4.319572687149048,-0.09517814964056015,-1.1636911630630493,1.0954070091247559,0.1512550562620163,0.02040894143283367,-0.06580453366041183
4.339690446853638,-0.09365224838256836,-1.1766613721847534,1.1144808530807495,0.15468832850456238,0.02040894143283367,-0.06809338182210922
4.359753847122192,-0.09136339277029037,-1.1942092180252075,1.1388952732086182,0.15964750945568085,0.02384222112596035,-0.07267109304666519
4.379910230636597,-0.0871671661734581,-1.2148088216781616,1.1655985116958618,0.1653696447610855,0.028038453310728073,-0.07724879682064056
4.39989447593689,-0.08220797777175903,-1.2407492399215698,1.19764244556427,0.17566949129104614,0.03337911143898964,-0.08449683338403702
4.419989824295044,-0.07763027399778366,-1.267833948135376,1.2266346216201782,0.18863965570926666,0.03833829239010811,-0.09365224838256836
4.440113306045532,-0.07305257022380829,-1.2998778820037842,1.2644007205963135,0.20962081849575043,0.045204851776361465,-0.10967422276735306
4.46015477180481,-0.0722896158695221,-1.3323034048080444,1.3006408214569092,0.23937590420246124,0.0555046908557415,-0.1367589831352234
4.480309963226318,-0.07801175117492676,-1.3544288873672485,1.3212405443191528,0.2801937758922577,0.07343403995037079,-0.17223620414733887
4.500411033630371,-0.0864042118191719,-1.3700693845748901,1.3353551626205444,0.3244449496269226,0.09403372555971146,-0.21686884760856628
4.520465612411499,-0.09136339277029037,-1.3776988983154297,1.3410773277282715,0.36526283621788025,0.10624094307422638,-0.2607385218143463
4.5405356884002686,-0.09479667246341705,-1.3792248964309692,1.347562313079834,0.4087510406970978,0.10662241280078888,-0.30460822582244873
4.5610527992248535,-0.09784847497940063,-1.3761730194091797,1.353284478187561,0.44651713967323303,0.1035706102848053,-0.3435187339782715
4.581146001815796,-0.09670405089855194,-1.3704508543014526,1.358243703842163,0.4839017391204834,0.10166323184967041,-0.38281071186065674
4.601223707199097,-0.09021896868944168,-1.3632028102874756,1.3578622341156006,0.5228122472763062,0.10090028494596481,-0.42668038606643677
4.621272087097168,-0.08449683338403702,-1.359006643295288,1.3506141901016235,0.5601968169212341,0.1031891331076622,-0.4694056510925293
4.641335964202881,-0.08373387902975082,-1.3555734157562256,1.3376439809799194,0.5899519324302673,0.10967422276735306,-0.5086976289749146
4.6614556312561035,-0.08373387902975082,-1.354047417640686,1.3216220140457153,0.6101701259613037,0.1188296303153038,-0.5468451976776123
4.681581258773804,-0.08602273464202881,-1.356717824935913,1.3090333938598633,0.6315327882766724,0.13103684782981873,-0.5849927663803101
4.7015907764434814,-0.0883115902543068,-1.3639658689498901,1.3067444562911987,0.6578545570373535,0.12874799966812134,-0.6235218048095703
4.721643447875977,-0.08602273464202881,-1.3761730194091797,1.3136110305786133,0.6849393248558044,0.11120012402534485,-0.655947208404541
4.7417075634002686,-0.08411535620689392,-1.3864728212356567,1.3254368305206299,0.7101167440414429,0.09708552807569504,-0.6803616285324097
4.761774301528931,-0.08564125746488571,-1.3914320468902588,1.3376439809799194,0.7288090586662292,0.08068207651376724,-0.700579822063446
4.781849384307861,-0.0875486359000206,-1.3910505771636963,1.354810357093811,0.7459754347801208,0.07763027399778366,-0.7146944403648376
4.801946640014648,-0.09098191559314728,-1.3868544101715088,1.3742656707763672,0.7600900530815125,0.08144503086805344,-0.726138710975647
4.822141647338867,-0.08983749151229858,-1.3815137147903442,1.3830395936965942,0.7795453071594238,0.09403372555971146,-0.7448310256004333
4.842259645462036,-0.08945601433515549,-1.3750286102294922,1.3868544101715088,0.7982375621795654,0.11158160120248795,-0.761997401714325
4.862314939498901,-0.08983749151229858,-1.3689249753952026,1.3845654726028442,0.8119707107543945,0.1203555315732956,-0.7734416723251343
4.882381916046143,-0.08945601433515549,-1.3662546873092651,1.3834210634231567,0.8154039978981018,0.12531471252441406,-0.7799267768859863
4.902428150177002,-0.0875486359000206,-1.3670176267623901,1.3799878358840942,0.8157854676246643,0.13103684782981873,-0.7829785346984863
4.9225077629089355,-0.08525978773832321,-1.3700693845748901,1.3746471405029297,0.8154039978981018,0.1340886503458023,-0.7864118218421936
4.942582130432129,-0.08411535620689392,-1.3769359588623047,1.3693064451217651,0.8150225281715393,0.13065537810325623,-0.7879377603530884
4.96264386177063,-0.08411535620689392,-1.3822766542434692,1.3632028102874756,0.8146410584449768,0.11615930497646332,-0.7902265787124634
4.982703924179077,-0.08525978773832321,-1.3891432285308838,1.3521400690078735,0.8150225281715393,0.10547798871994019,-0.7925154566764832
5.002835035324097,-0.09098191559314728,-1.3899061679840088,1.3448920249938965,0.8249408602714539,0.1031891331076622,-0.8001449704170227
5.0229270458221436,-0.09517814964056015,-1.3906691074371338,1.342221736907959,0.8382925391197205,0.08907453715801239,-0.8134965896606445
5.042993545532227,-0.09746700525283813,-1.3891432285308838,1.345273494720459,0.8508812189102173,0.0722896158695221,-0.8253223299980164
5.063034534454346,-0.10013733059167862,-1.3864728212356567,1.348706841468811,0.8592736721038818,0.071908138692379,-0.8318074345588684
5.083114385604858,-0.10090028494596481,-1.3830395936965942,1.3551918268203735,0.8642328381538391,0.07763027399778366,-0.8371480703353882
5.103176832199097,-0.09899290651082993,-1.3788433074951172,1.3632028102874756,0.8684290647506714,0.08220797777175903,-0.841725766658783
5.123238563537598,-0.09212634712457657,-1.3754100799560547,1.3693064451217651,0.8730067610740662,0.0864042118191719,-0.84744793176651
5.143310785293579,-0.08182650804519653,-1.3735027313232422,1.3696879148483276,0.8829251527786255,0.09708552807569504,-0.8600366115570068
5.163437843322754,-0.07763027399778366,-1.3731212615966797,1.3662546873092651,0.8909361362457275,0.10929274559020996,-0.8695735335350037
5.183534622192383,-0.0722896158695221,-1.3735027313232422,1.3601510524749756,0.89131760597229,0.11692225188016891,-0.8749141693115234
5.203714370727539,-0.06771191209554672,-1.3750286102294922,1.354047417640686,0.89131760597229,0.12531471252441406,-0.881780743598938
5.2237160205841064,-0.06580453366041183,-1.3780803680419922,1.347562313079834,0.89131760597229,0.12073700875043869,-0.884069561958313
5.244066476821899,-0.06504157930612564,-1.3799878358840942,1.340695858001709,0.89131760597229,0.11272602528333664,-0.8871213793754578
5.264196872711182,-0.06885633617639542,-1.3822766542434692,1.3330663442611694,0.8916990756988525,0.10738536715507507,-0.8886472582817078
5.284235239028931,-0.07724879682064056,-1.3830395936965942,1.3273441791534424,0.8943694233894348,0.10509651154279709,-0.8901731967926025
5.304303884506226,-0.09441519528627396,-1.3826581239700317,1.3250553607940674,0.8993285894393921,0.09899290651082993,-0.8928435444831848
5.324373960494995,-0.10738536715507507,-1.3826581239700317,1.3269627094268799,0.9061951637268066,0.09174486994743347,-0.8966583013534546
5.344549894332886,-0.11692225188016891,-1.3822766542434692,1.3315403461456299,0.9119172692298889,0.08602273464202881,-0.8981841802597046
5.364582777023315,-0.12226291000843048,-1.3815137147903442,1.334210753440857,0.916876494884491,0.08411535620689392,-0.8981841802597046
5.384698390960693,-0.12417028844356537,-1.3807507753372192,1.337262511253357,0.9180209040641785,0.08144503086805344,-0.8981841802597046
5.40474534034729,-0.12417028844356537,-1.3796063661575317,1.339932918548584,0.9214541912078857,0.08030059933662415,-0.8981841802597046
5.424960136413574,-0.12226291000843048,-1.3788433074951172,1.3426032066345215,0.9233615398406982,0.08068207651376724,-0.8985656499862671
5.445014476776123,-0.1184481605887413,-1.3788433074951172,1.3433661460876465,0.9233615398406982,0.08220797777175903,-0.8993285894393921
5.465097427368164,-0.11348897218704224,-1.3788433074951172,1.3441290855407715,0.9222171306610107,0.0864042118191719,-0.9008545279502869
5.485142230987549,-0.1039520874619484,-1.3792248964309692,1.346036434173584,0.9218356609344482,0.08907453715801239,-0.9035248160362244
5.5052289962768555,-0.09098191559314728,-1.3799878358840942,1.3498512506484985,0.9214541912078857,0.09060044586658478,-0.9058136940002441
5.525325059890747,-0.07915617525577545,-1.3799878358840942,1.355954885482788,0.9233615398406982,0.09136339277029037,-0.9092469811439514
5.545378684997559,-0.08030059933662415,-1.3799878358840942,1.3570992946624756,0.9317540526390076,0.10166323184967041,-0.924124538898468
5.5655388832092285,-0.086785688996315,-1.3788433074951172,1.3544288873672485,0.9382390975952148,0.11348897218704224,-0.9374761581420898
5.585646390914917,-0.09174486994743347,-1.3776988983154297,1.3483253717422485,0.9462500810623169,0.12607766687870026,-0.9504463076591492
5.605715751647949,-0.09594109654426575,-1.3780803680419922,1.340695858001709,0.9557870030403137,0.13027389347553253,-0.9618905782699585
5.625765562057495,-0.09517814964056015,-1.3796063661575317,1.3376439809799194,0.9710460305213928,0.12455176562070847,-0.9725719094276428
5.64582371711731,-0.09250781685113907,-1.3834210634231567,1.3384069204330444,0.9866865277290344,0.09708552807569504,-0.9802014231681824
5.6659111976623535,-0.09060044586658478,-1.3864728212356567,1.3441290855407715,0.9985122680664062,0.07534141838550568,-0.9885938763618469
5.685977935791016,-0.08945601433515549,-1.3899061679840088,1.3521400690078735,1.0080491304397583,0.050164032727479935,-0.996604859828949
5.706048965454102,-0.0883115902543068,-1.3914320468902588,1.3624398708343506,1.0149157047271729,0.03757534176111221,-1.0023269653320312
5.726114749908447,-0.0871671661734581,-1.3899061679840088,1.3746471405029297,1.0183489322662354,0.03833829239010811,-1.0065232515335083
5.746201515197754,-0.08525978773832321,-1.3860913515090942,1.3891432285308838,1.0210193395614624,0.04901960864663124,-1.0114823579788208
5.766252040863037,-0.08449683338403702,-1.3815137147903442,1.3887617588043213,1.0255969762802124,0.08220797777175903,-1.02216374874115
5.786316156387329,-0.08449683338403702,-1.3750286102294922,1.3818951845169067,1.029411792755127,0.10776684433221817,-1.030937671661377
5.806396961212158,-0.08449683338403702,-1.3712139129638672,1.3742656707763672,1.0305562019348145,0.12111848592758179,-1.0355154275894165
5.826451539993286,-0.08449683338403702,-1.3696879148483276,1.3654917478561401,1.031700611114502,0.12226291000843048,-1.0378042459487915
5.8465423583984375,-0.08449683338403702,-1.3696879148483276,1.3570992946624756,1.032463550567627,0.12149996310472488,-1.0378042459487915
5.866637468338013,-0.08564125746488571,-1.3735027313232422,1.348706841468811,1.0328450202941895,0.11272602528333664,-1.0385671854019165
5.886720895767212,-0.0875486359000206,-1.3807507753372192,1.337262511253357,1.0336079597473145,0.1028076633810997,-1.039711594581604
5.906766653060913,-0.09365224838256836,-1.3879988193511963,1.3315403461456299,1.038948655128479,0.07610437273979187,-1.0435264110565186
5.9268434047698975,-0.09670405089855194,-1.3944838047027588,1.3323034048080444,1.042000412940979,0.05130846053361893,-1.0465781688690186
5.946920156478882,-0.09784847497940063,-1.3975356817245483,1.3345922231674194,1.0442893505096436,0.039101243019104004,-1.047722578048706
5.9670023918151855,-0.10051880776882172,-1.3960098028182983,1.3361181020736694,1.046196699142456,0.03795681521296501,-1.0481040477752686
5.987041711807251,-0.10090028494596481,-1.3921949863433838,1.3391698598861694,1.046959638595581,0.04558632895350456,-1.0481040477752686
6.00718879699707,-0.10090028494596481,-1.3879988193511963,1.342984676361084,1.047722578048706,0.06389715522527695,-1.048485517501831
6.027266025543213,-0.09937438368797302,-1.3838025331497192,1.3483253717422485,1.0481040477752686,0.07343403995037079,-1.0488669872283936
6.047333002090454,-0.09632257372140884,-1.3807507753372192,1.3544288873672485,1.0481040477752686,0.08182650804519653,-1.050774335861206
6.0674028396606445,-0.08907453715801239,-1.3796063661575317,1.362058401107788,1.048485517501831,0.08411535620689392,-1.0538262128829956
6.087516784667969,-0.08487831056118011,-1.3803693056106567,1.3624398708343506,1.054207682609558,0.08945601433515549,-1.0610742568969727
6.107609272003174,-0.08335240930318832,-1.3803693056106567,1.3586251735687256,1.0606927871704102,0.10013733059167862,-1.0671778917312622
6.127814531326294,-0.08564125746488571,-1.3807507753372192,1.3506141901016235,1.0656518936157227,0.1035706102848053,-1.0740443468093872
6.14777946472168,-0.09136339277029037,-1.3818951845169067,1.3441290855407715,1.0713740587234497,0.10433356463909149,-1.0812923908233643
6.167832136154175,-0.09403372555971146,-1.3849469423294067,1.3456549644470215,1.0786221027374268,0.08602273464202881,-1.0862516164779663
6.187912702560425,-0.09479667246341705,-1.3887617588043213,1.353284478187561,1.0862516164779663,0.06580453366041183,-1.0889219045639038
6.207986354827881,-0.09441519528627396,-1.3914320468902588,1.3639658689498901,1.0942625999450684,0.04749370738863945,-1.0900664329528809
6.228056907653809,-0.09479667246341705,-1.3914320468902588,1.3738842010498047,1.0992218255996704,0.03833829239010811,-1.0923552513122559
6.248111248016357,-0.09365224838256836,-1.3899061679840088,1.3887617588043213,1.1030365228652954,0.035667963325977325,-1.0938811302185059
6.2681968212127686,-0.08983749151229858,-1.3853284120559692,1.4009689092636108,1.106088399887085,0.04444190114736557,-1.0976959466934204
6.288322448730469,-0.0864042118191719,-1.3807507753372192,1.4024949073791504,1.109140157699585,0.07305257022380829,-1.103417992591858
6.308358907699585,-0.0864042118191719,-1.3773174285888672,1.4002059698104858,1.110666036605835,0.08449683338403702,-1.1079957485198975
6.328429698944092,-0.08335240930318832,-1.3742656707763672,1.3952468633651733,1.110666036605835,0.10051880776882172,-1.11142897605896
6.34852409362793,-0.08106355369091034,-1.3742656707763672,1.3899061679840088,1.110666036605835,0.1039520874619484,-1.113336443901062
6.368610382080078,-0.08068207651376724,-1.3757915496826172,1.3841840028762817,1.1102845668792725,0.10433356463909149,-1.1144808530807495
6.388682842254639,-0.08030059933662415,-1.3811322450637817,1.3784618377685547,1.1102845668792725,0.10051880776882172,-1.114862322807312
6.408766746520996,-0.08144503086805344,-1.3849469423294067,1.3704508543014526,1.1102845668792725,0.08449683338403702,-1.114862322807312
6.428892135620117,-0.0875486359000206,-1.3910505771636963,1.3578622341156006,1.1102845668792725,0.0715266615152359,-1.1152437925338745
6.449009418487549,-0.09670405089855194,-1.3937208652496338,1.352521538734436,1.11142897605896,0.05741206929087639,-1.1160067319869995
6.4690775871276855,-0.1028076633810997,-1.3956283330917358,1.3529030084609985,1.1125733852386475,0.040245670825242996,-1.117914080619812
6.489172458648682,-0.10814831405878067,-1.3960098028182983,1.354047417640686,1.114862322807312,0.03299763426184654,-1.117914080619812
6.509282350540161,-0.11120012402534485,-1.3944838047027588,1.356717824935913,1.115625262260437,0.03490501269698143,-1.117914080619812
6.529383659362793,-0.11158160120248795,-1.3914320468902588,1.3601510524749756,1.1167696714401245,0.04329747334122658,-1.117914080619812
6.549479722976685,-0.11120012402534485,-1.3887617588043213,1.3639658689498901,1.117914080619812,0.05397878959774971,-1.117914080619812
6.569505929946899,-0.10929274559020996,-1.3872358798980713,1.3670176267623901,1.1182955503463745,0.06008239835500717,-1.1182955503463745
6.589590549468994,-0.1035706102848053,-1.3868544101715088,1.3715953826904297,1.117914080619812,0.06504157930612564,-1.119439959526062
6.609659910202026,-0.09403372555971146,-1.3868544101715088,1.3769359588623047,1.117914080619812,0.06733043491840363,-1.1205843687057495
6.629741191864014,-0.08411535620689392,-1.3876173496246338,1.3796063661575317,1.117914080619812,0.06466010212898254,-1.1224918365478516
6.6498332023620605,-0.08258945494890213,-1.3883802890777588,1.3784618377685547,1.118677020072937,0.071908138692379,-1.126688003540039
6.669939279556274,-0.0879301130771637,-1.3868544101715088,1.3704508543014526,1.1190584897994995,0.0883115902543068,-1.1331731081008911
6.690004825592041,-0.09212634712457657,-1.3864728212356567,1.3635843992233276,1.1205843687057495,0.09479667246341705,-1.1373693943023682
6.710124254226685,-0.09174486994743347,-1.3872358798980713,1.3632028102874756,1.1263065338134766,0.086785688996315,-1.1400396823883057
6.730138540267944,-0.09174486994743347,-1.3883802890777588,1.3643473386764526,1.1327916383743286,0.07419699430465698,-1.1408026218414307
6.75020956993103,-0.09365224838256836,-1.3895246982574463,1.3673990964889526,1.1377508640289307,0.06237125024199486,-1.1411840915679932
6.770275354385376,-0.09479667246341705,-1.3895246982574463,1.3746471405029297,1.1415655612945557,0.053215838968753815,-1.1427099704742432
6.790338039398193,-0.09365224838256836,-1.3876173496246338,1.3830395936965942,1.1446174383163452,0.04787518084049225,-1.1446174383163452
6.810430526733398,-0.09060044586658478,-1.3849469423294067,1.3876173496246338,1.1469062566757202,0.05130846053361893,-1.1476691961288452
6.830500602722168,-0.08945601433515549,-1.3807507753372192,1.3864728212356567,1.1491950750350952,0.0715266615152359,-1.1514838933944702
6.850622653961182,-0.08869306743144989,-1.3776988983154297,1.3811322450637817,1.1514838933944702,0.0864042118191719,-1.1549172401428223
6.8706958293914795,-0.086785688996315,-1.3773174285888672,1.3708323240280151,1.1518653631210327,0.09937438368797302,-1.1583504676818848
6.890855312347412,-0.08487831056118011,-1.3773174285888672,1.3570992946624756,1.1518653631210327,0.11272602528333664,-1.1598763465881348
6.910861492156982,-0.08449683338403702,-1.3780803680419922,1.340695858001709,1.1518653631210327,0.11310750246047974,-1.1617838144302368
6.931070804595947,-0.08983749151229858,-1.3834210634231567,1.3273441791534424,1.1518653631210327,0.11043716967105865,-1.1633096933364868
6.951148986816406,-0.09594109654426575,-1.3914320468902588,1.3296329975128174,1.1518653631210327,0.07801175117492676,-1.1652170419692993
6.97123122215271,-0.09937438368797302,-1.3982986211776733,1.3353551626205444,1.1526284217834473,0.05054550990462303,-1.1671243906021118
6.991297245025635,-0.10204470902681351,-1.3998245000839233,1.338025450706482,1.1541543006896973,0.03528648987412453,-1.1667429208755493
7.011347055435181,-0.10547798871994019,-1.3979171514511108,1.341458797454834,1.1556801795959473,0.03299763426184654,-1.1659799814224243
7.031527280807495,-0.10662241280078888,-1.3941023349761963,1.3464179039001465,1.1564431190490723,0.04596780240535736,-1.1659799814224243
7.051592588424683,-0.10738536715507507,-1.3902876377105713,1.350232720375061,1.1572060585021973,0.06198977679014206,-1.1659799814224243
7.071638345718384,-0.10700388997793198,-1.3872358798980713,1.3551918268203735,1.1598763465881348,0.06885633617639542,-1.1655985116958618
7.091728210449219,-0.10509651154279709,-1.3857098817825317,1.3593881130218506,1.1594948768615723,0.07457847148180008,-1.1659799814224243
7.111851215362549,-0.09784847497940063,-1.3849469423294067,1.3670176267623901,1.1591134071350098,0.07534141838550568,-1.1667429208755493
7.131866455078125,-0.0875486359000206,-1.3864728212356567,1.3750286102294922,1.1591134071350098,0.0711451917886734,-1.1667429208755493
7.1519410610198975,-0.08220797777175903,-1.3876173496246338,1.3757915496826172,1.1587319374084473,0.071908138692379,-1.1671243906021118
7.172013282775879,-0.08869306743144989,-1.3868544101715088,1.3723583221435547,1.1579689979553223,0.08068207651376724,-1.1682689189910889
7.192137718200684,-0.09212634712457657,-1.3857098817825317,1.3677805662155151,1.1575875282287598,0.08907453715801239,-1.1728465557098389
7.212202072143555,-0.09327077120542526,-1.3864728212356567,1.3643473386764526,1.1583504676818848,0.08983749151229858,-1.1758984327316284
7.232308387756348,-0.09327077120542526,-1.3872358798980713,1.3643473386764526,1.1614023447036743,0.08220797777175903,-1.1758984327316284
7.252392530441284,-0.09403372555971146,-1.3906691074371338,1.3673990964889526,1.1648355722427368,0.06694895774126053,-1.1758984327316284
7.272433519363403,-0.09403372555971146,-1.3914320468902588,1.3727397918701172,1.1686503887176514,0.05207141116261482,-1.1755168437957764
7.292532205581665,-0.09327077120542526,-1.3921949863433838,1.3796063661575317,1.1709392070770264,0.045204851776361465,-1.1755168437957764
7.31258749961853,-0.09250781685113907,-1.3918135166168213,1.3876173496246338,1.1720836162567139,0.040245670825242996,-1.1755168437957764
7.332647323608398,-0.09060044586658478,-1.3887617588043213,1.3948653936386108,1.1724650859832764,0.043678950518369675,-1.1766613721847534
7.352725028991699,-0.0883115902543068,-1.3838025331497192,1.3899061679840088,1.1736094951629639,0.06618601083755493,-1.179331660270691
7.372830152511597,-0.0871671661734581,-1.3788433074951172,1.3818951845169067,1.1739909648895264,0.0879301130771637,-1.1827648878097534
7.392926454544067,-0.0864042118191719,-1.3780803680419922,1.3696879148483276,1.1739909648895264,0.10738536715507507,-1.185053825378418
7.413050174713135,-0.08602273464202881,-1.3780803680419922,1.357480764389038,1.1739909648895264,0.11692225188016891,-1.186579704284668
7.433821439743042,-0.0871671661734581,-1.3784618377685547,1.339932918548584,1.1736094951629639,0.1203555315732956,-1.1869611740112305
7.45392370223999,-0.09288929402828217,-1.3834210634231567,1.3273441791534424,1.1739909648895264,0.11730372905731201,-1.187342643737793
7.473960876464844,-0.09784847497940063,-1.3914320468902588,1.3227664232254028,1.1739909648895264,0.09136339277029037,-1.188105583190918
7.4940197467803955,-0.10013733059167862,-1.3967727422714233,1.3235293626785278,1.1743724346160889,0.059319447726011276,-1.188868522644043
7.514482736587524,-0.1028076633810997,-1.3994430303573608,1.3235293626785278,1.1751353740692139,0.04634927958250046,-1.188105583190918
7.534600257873535,-0.10471503436565399,-1.3982986211776733,1.3254368305206299,1.176279902458191,0.04444190114736557,-1.187342643737793
7.554667234420776,-0.10547798871994019,-1.3948653936386108,1.3284885883331299,1.1774243116378784,0.057793546468019485,-1.1869611740112305
7.574745416641235,-0.10547798871994019,-1.3918135166168213,1.3315403461456299,1.178568720817566,0.0711451917886734,-1.1869611740112305
7.595128059387207,-0.10471503436565399,-1.3879988193511963,1.335736632347107,1.178568720817566,0.08564125746488571,-1.1869611740112305
7.615211725234985,-0.10166323184967041,-1.3849469423294067,1.341458797454834,1.178568720817566,0.09212634712457657,-1.1869611740112305
7.63532567024231,-0.09746700525283813,-1.3845654726028442,1.344510555267334,1.177805781364441,0.09250781685113907,-1.1877241134643555
7.6557557582855225,-0.09021896868944168,-1.3860913515090942,1.352521538734436,1.177805781364441,0.08945601433515549,-1.188105583190918
7.675899267196655,-0.08525978773832321,-1.3876173496246338,1.3647288084030151,1.177042841911316,0.07839322835206985,-1.1884870529174805
7.695948600769043,-0.08983749151229858,-1.3876173496246338,1.3685435056686401,1.1766613721847534,0.07953765243291855,-1.1892499923706055
7.716107130050659,-0.09212634712457657,-1.3849469423294067,1.3696879148483276,1.176279902458191,0.086785688996315,-1.1907758712768555
7.736188650131226,-0.09250781685113907,-1.3834210634231567,1.3700693845748901,1.177042841911316,0.0875486359000206,-1.1907758712768555
7.7562620639801025,-0.09517814964056015,-1.3818951845169067,1.3681620359420776,1.1789501905441284,0.09060044586658478,-1.190394401550293
7.776306629180908,-0.09517814964056015,-1.3841840028762817,1.3651102781295776,1.1820019483566284,0.0879301130771637,-1.1900129318237305
7.796393394470215,-0.09479667246341705,-1.3872358798980713,1.3647288084030151,1.185816764831543,0.07495994865894318,-1.1892499923706055
7.816617250442505,-0.09288929402828217,-1.3910505771636963,1.3689249753952026,1.1861982345581055,0.06084534898400307,-1.189631462097168
7.8366711139678955,-0.09136339277029037,-1.3944838047027588,1.3723583221435547,1.185816764831543,0.04329747334122658,-1.1900129318237305
7.856764316558838,-0.08945601433515549,-1.3952468633651733,1.3784618377685547,1.1854352951049805,0.03490501269698143,-1.190394401550293
7.876840591430664,-0.08564125746488571,-1.3944838047027588,1.3864728212356567,1.1854352951049805,0.03147173300385475,-1.1907758712768555
7.896892309188843,-0.08373387902975082,-1.3918135166168213,1.3967727422714233,1.185053825378418,0.03757534176111221,-1.1919203996658325
7.91697883605957,-0.0879301130771637,-1.3860913515090942,1.3956283330917358,1.1846723556518555,0.059319447726011276,-1.1934462785720825
7.937044382095337,-0.09327077120542526,-1.3792248964309692,1.3883802890777588,1.184290885925293,0.08106355369091034,-1.19459068775177
7.957105875015259,-0.09632257372140884,-1.3776988983154297,1.3769359588623047,1.184290885925293,0.09708552807569504,-1.19611656665802
7.977184295654297,-0.09937438368797302,-1.3750286102294922,1.3632028102874756,1.1846723556518555,0.10547798871994019,-1.196879506111145
7.99725341796875,-0.10128175467252731,-1.3754100799560547,1.348706841468811,1.1854352951049805,0.10776684433221817,-1.196879506111145
8.017305612564087,-0.09517814964056015,-1.3799878358840942,1.342221736907959,1.1869611740112305,0.09937438368797302,-1.1964980363845825
8.037429809570312,-0.08983749151229858,-1.3883802890777588,1.350232720375061,1.1869611740112305,0.06198977679014206,-1.19611656665802
8.05752158164978,-0.0871671661734581,-1.4005874395370483,1.359006643295288,1.186579704284668,0.037193864583969116,-1.196879506111145
8.077569484710693,-0.08335240930318832,-1.406691074371338,1.3677805662155151,1.1861982345581055,0.013542382046580315,-1.196879506111145
8.097622156143188,-0.07953765243291855,-1.407454013824463,1.3780803680419922,1.1861982345581055,0.012779430486261845,-1.1972609758377075
8.117713928222656,-0.07724879682064056,-1.4047837257385254,1.3914320468902588,1.1861982345581055,0.02880140393972397,-1.19764244556427
8.13777470588684,-0.07877469807863235,-1.3986800909042358,1.403639316558838,1.185816764831543,0.04329747334122658,-1.1980239152908325
8.157821416854858,-0.09021896868944168,-1.3914320468902588,1.408216953277588,1.1854352951049805,0.07343403995037079,-1.1999313831329346
8.178037405014038,-0.10204470902681351,-1.3849469423294067,1.405165195465088,1.1854352951049805,0.1024261862039566,-1.2014572620391846
8.198054790496826,-0.10776684433221817,-1.3792248964309692,1.4013503789901733,1.185816764831543,0.11310750246047974,-1.2022202014923096
8.218207359313965,-0.11272602528333664,-1.3765544891357422,1.3963912725448608,1.185816764831543,0.1180666834115982,-1.201838731765747
8.238363027572632,-0.1180666834115982,-1.3773174285888672,1.3895246982574463,1.1869611740112305,0.11730372905731201,-1.2006943225860596
8.258379936218262,-0.12149996310472488,-1.3803693056106567,1.3792248964309692,1.1869611740112305,0.11310750246047974,-1.201075792312622
8.27842926979065,-0.1192111074924469,-1.3876173496246338,1.3677805662155151,1.187342643737793,0.09784847497940063,-1.201075792312622
8.298932552337646,-0.11158160120248795,-1.3952468633651733,1.358243703842163,1.188105583190918,0.07724879682064056,-1.200312852859497
8.31902289390564,-0.10128175467252731,-1.403639316558838,1.351758599281311,1.188105583190918,0.051689937710762024,-1.2006943225860596
8.339110136032104,-0.09174486994743347,-1.4093613624572754,1.3498512506484985,1.1869611740112305,0.034142062067985535,-1.2014572620391846
8.35921335220337,-0.08297093212604523,-1.4105058908462524,1.350232720375061,1.1861982345581055,0.032616160809993744,-1.2014572620391846
8.379276275634766,-0.07763027399778366,-1.4085984230041504,1.3521400690078735,1.185816764831543,0.042153049260377884,-1.201838731765747
8.39943265914917,-0.07267109304666519,-1.4040207862854004,1.3570992946624756,1.185816764831543,0.06160829961299896,-1.2014572620391846
8.41952133178711,-0.0707637146115303,-1.3979171514511108,1.3632028102874756,1.1854352951049805,0.07953765243291855,-1.202601671218872
8.439557790756226,-0.07534141838550568,-1.3918135166168213,1.3719768524169922,1.185053825378418,0.0871671661734581,-1.202601671218872
8.459633350372314,-0.08449683338403702,-1.3864728212356567,1.3773174285888672,1.184290885925293,0.09670405089855194,-1.203364610671997
8.47978925704956,-0.09708552807569504,-1.3822766542434692,1.3784618377685547,1.1839094161987305,0.10662241280078888,-1.204127550125122
8.499844789505005,-0.10852979123592377,-1.3796063661575317,1.3761730194091797,1.1846723556518555,0.11043716967105865,-1.2037460803985596
8.5199294090271,-0.11730372905731201,-1.3799878358840942,1.3738842010498047,1.185816764831543,0.11310750246047974,-1.203364610671997
8.540026426315308,-0.12073700875043869,-1.3811322450637817,1.3696879148483276,1.1877241134643555,0.10662241280078888,-1.201838731765747
8.56007981300354,-0.11730372905731201,-1.3838025331497192,1.3662546873092651,1.1900129318237305,0.09517814964056015,-1.2006943225860596
8.580173254013062,-0.10967422276735306,-1.3879988193511963,1.3647288084030151,1.1907758712768555,0.07495994865894318,-1.1999313831329346
8.600297212600708,-0.09861142933368683,-1.3914320468902588,1.3643473386764526,1.1919203996658325,0.05664911866188049,-1.199549913406372
8.620324850082397,-0.086785688996315,-1.3925764560699463,1.3654917478561401,1.193827748298645,0.04787518084049225,-1.198405385017395
8.64051103591919,-0.07267109304666519,-1.3925764560699463,1.3696879148483276,1.1934462785720825,0.04749370738863945,-1.1999313831329346
8.660575866699219,-0.06351567804813385,-1.3910505771636963,1.3757915496826172,1.191157341003418,0.05664911866188049,-1.2014572620391846
8.680659055709839,-0.0558861680328846,-1.3887617588043213,1.3792248964309692,1.1884870529174805,0.06923781335353851,-1.2022202014923096
8.700716972351074,-0.049782559275627136,-1.3864728212356567,1.3799878358840942,1.186579704284668,0.09098191559314728,-1.2037460803985596
8.720801591873169,-0.049782559275627136,-1.3845654726028442,1.3799878358840942,1.1846723556518555,0.10509651154279709,-1.2045090198516846
8.740952491760254,-0.05359731614589691,-1.3845654726028442,1.3796063661575317,1.184290885925293,0.11158160120248795,-1.2045090198516846
8.760998487472534,-0.06160829961299896,-1.3849469423294067,1.3788433074951172,1.185053825378418,0.11005569249391556,-1.2060348987579346
8.781172752380371,-0.06885633617639542,-1.3860913515090942,1.3776988983154297,1.186579704284668,0.09784847497940063,-1.206416368484497
8.80128788948059,-0.07686731964349747,-1.3879988193511963,1.3746471405029297,1.1869611740112305,0.08068207651376724,-1.2045090198516846
8.821357727050781,-0.0879301130771637,-1.3910505771636963,1.3696879148483276,1.1869611740112305,0.0715266615152359,-1.2029831409454346
8.841426849365234,-0.10166323184967041,-1.3921949863433838,1.3651102781295776,1.188868522644043,0.06809338182210922,-1.201838731765747
8.861463785171509,-0.10700388997793198,-1.3921949863433838,1.3666361570358276,1.1900129318237305,0.05130846053361893,-1.2006943225860596
8.881581544876099,-0.10967422276735306,-1.3925764560699463,1.3704508543014526,1.192301869392395,0.042153049260377884,-1.200312852859497
8.90166711807251,-0.10929274559020996,-1.3918135166168213,1.3754100799560547,1.193827748298645,0.040627144277095795,-1.199549913406372
8.921710729598999,-0.10814831405878067,-1.3899061679840088,1.3799878358840942,1.193827748298645,0.048256658017635345,-1.1999313831329346
8.941785097122192,-0.1031891331076622,-1.3868544101715088,1.3872358798980713,1.193827748298645,0.05970092490315437,-1.200312852859497
8.961943626403809,-0.09021896868944168,-1.3845654726028442,1.3948653936386108,1.1934462785720825,0.06694895774126053,-1.200312852859497
8.982000827789307,-0.08068207651376724,-1.3834210634231567,1.3933393955230713,1.1934462785720825,0.08411535620689392,-1.2006943225860596
9.002162218093872,-0.07724879682064056,-1.3822766542434692,1.3872358798980713,1.19306480884552,0.09365224838256836,-1.201075792312622
9.022164821624756,-0.07267109304666519,-1.3826581239700317,1.3792248964309692,1.192301869392395,0.1039520874619484,-1.201838731765747
9.04225778579712,-0.07000076025724411,-1.3838025331497192,1.3723583221435547,1.19153892993927,0.10471503436565399,-1.204127550125122
9.062324523925781,-0.06923781335353851,-1.3860913515090942,1.3654917478561401,1.1892499923706055,0.09632257372140884,-1.204127550125122
9.082355260848999,-0.0707637146115303,-1.3887617588043213,1.359006643295288,1.188868522644043,0.08411535620689392,-1.204890489578247
9.102491617202759,-0.07915617525577545,-1.3914320468902588,1.350995659828186,1.1892499923706055,0.07686731964349747,-1.204890489578247
9.122578859329224,-0.09327077120542526,-1.3925764560699463,1.347562313079834,1.1892499923706055,0.06733043491840363,-1.204890489578247
9.142667055130005,-0.10547798871994019,-1.3933393955230713,1.347562313079834,1.1892499923706055,0.05397878959774971,-1.2045090198516846
9.16281795501709,-0.11577782779932022,-1.3929579257965088,1.3498512506484985,1.189631462097168,0.04940108209848404,-1.204127550125122
9.182940244674683,-0.12188144028186798,-1.3921949863433838,1.353284478187561,1.1907758712768555,0.05207141116261482,-1.202601671218872
9.203042984008789,-0.12378881871700287,-1.3906691074371338,1.3551918268203735,1.19153892993927,0.0551232174038887,-1.202601671218872
9.223066568374634,-0.12417028844356537,-1.3891432285308838,1.357480764389038,1.19459068775177,0.05741206929087639,-1.201075792312622
9.243162631988525,-0.12378881871700287,-1.3879988193511963,1.3593881130218506,1.1949721574783325,0.06198977679014206,-1.2006943225860596
9.263222455978394,-0.12073700875043869,-1.3879988193511963,1.361295461654663,1.1942092180252075,0.06427863240242004,-1.2014572620391846
9.283296823501587,-0.11654078215360641,-1.3883802890777588,1.3616769313812256,1.1934462785720825,0.06504157930612564,-1.201838731765747
9.303513050079346,-0.11005569249391556,-1.3891432285308838,1.362821340560913,1.1926833391189575,0.06351567804813385,-1.2022202014923096
9.323577404022217,-0.1024261862039566,-1.3895246982574463,1.3647288084030151,1.192301869392395,0.06427863240242004,-1.202601671218872
9.34385895729065,-0.09479667246341705,-1.3891432285308838,1.3673990964889526,1.19153892993927,0.06237125024199486,-1.203364610671997
9.36384630203247,-0.08411535620689392,-1.3887617588043213,1.3742656707763672,1.189631462097168,0.061226826161146164,-1.2045090198516846
9.383901357650757,-0.08411535620689392,-1.3879988193511963,1.3803693056106567,1.1892499923706055,0.06313420087099075,-1.2045090198516846
9.403939962387085,-0.09098191559314728,-1.3876173496246338,1.3807507753372192,1.1884870529174805,0.08182650804519653,-1.204890489578247
9.4239981174469,-0.09479667246341705,-1.3845654726028442,1.3746471405029297,1.1884870529174805,0.09288929402828217,-1.2052719593048096
9.4440598487854,-0.09403372555971146,-1.3845654726028442,1.3712139129638672,1.189631462097168,0.09212634712457657,-1.204890489578247
9.46415090560913,-0.09517814964056015,-1.3864728212356567,1.3670176267623901,1.1919203996658325,0.08335240930318832,-1.204127550125122
9.484320878982544,-0.09403372555971146,-1.3891432285308838,1.3670176267623901,1.193827748298645,0.06923781335353851,-1.203364610671997
9.504319667816162,-0.09365224838256836,-1.3944838047027588,1.3673990964889526,1.193827748298645,0.04940108209848404,-1.203364610671997
9.525033473968506,-0.09174486994743347,-1.3979171514511108,1.3715953826904297,1.193827748298645,0.03185320645570755,-1.2029831409454346
9.545188665390015,-0.09021896868944168,-1.3994430303573608,1.3776988983154297,1.1934462785720825,0.023079270496964455,-1.2037460803985596
9.565256357192993,-0.0879301130771637,-1.3982986211776733,1.3845654726028442,1.1934462785720825,0.02040894143283367,-1.2037460803985596
9.585285663604736,-0.08602273464202881,-1.3960098028182983,1.3937208652496338,1.1934462785720825,0.027656977996230125,-1.204127550125122
9.605494737625122,-0.08525978773832321,-1.3910505771636963,1.403639316558838,1.1934462785720825,0.039101243019104004,-1.204127550125122
9.625589847564697,-0.08907453715801239,-1.3857098817825317,1.4013503789901733,1.19306480884552,0.06542305648326874,-1.2045090198516846
9.645658016204834,-0.09327077120542526,-1.3815137147903442,1.3944838047027588,1.1926833391189575,0.0864042118191719,-1.204890489578247
9.665711402893066,-0.09594109654426575,-1.3780803680419922,1.3841840028762817,1.19306480884552,0.10013733059167862,-1.204890489578247
9.685856819152832,-0.09937438368797302,-1.3754100799560547,1.3693064451217651,1.1934462785720825,0.10700388997793198,-1.204890489578247
9.706007242202759,-0.1024261862039566,-1.3761730194091797,1.351758599281311,1.1934462785720825,0.10585946589708328,-1.204890489578247
9.726065397262573,-0.09784847497940063,-1.3799878358840942,1.3410773277282715,1.193827748298645,0.09212634712457657,-1.2045090198516846
9.746577262878418,-0.08945601433515549,-1.3883802890777588,1.3410773277282715,1.195353627204895,0.06504157930612564,-1.203364610671997
9.766703605651855,-0.08258945494890213,-1.3998245000839233,1.343747615814209,1.1957350969314575,0.0398641936480999,-1.204127550125122
9.786783933639526,-0.07953765243291855,-1.4047837257385254,1.345273494720459,1.1957350969314575,0.02040894143283367,-1.204127550125122
9.806827783584595,-0.07610437273979187,-1.4047837257385254,1.347943902015686,1.1957350969314575,0.018501564860343933,-1.2045090198516846
9.826923608779907,-0.07419699430465698,-1.4017318487167358,1.352521538734436,1.195353627204895,0.031090257689356804,-1.2045090198516846
9.846994876861572,-0.07343403995037079,-1.3967727422714233,1.3586251735687256,1.195353627204895,0.04749370738863945,-1.2045090198516846
9.867071390151978,-0.07457847148180008,-1.3914320468902588,1.3654917478561401,1.1949721574783325,0.06198977679014206,-1.204890489578247
9.887122392654419,-0.08144503086805344,-1.3864728212356567,1.3746471405029297,1.193827748298645,0.0711451917886734,-1.204890489578247
9.907273530960083,-0.09479667246341705,-1.3838025331497192,1.3776988983154297,1.1926833391189575,0.08564125746488571,-1.204890489578247
9.927330017089844,-0.1039520874619484,-1.3826581239700317,1.3742656707763672,1.19306480884552,0.09899290651082993,-1.204890489578247
9.947386264801025,-0.10585946589708328,-1.3826581239700317,1.3696879148483276,1.193827748298645,0.10090028494596481,-1.2045090198516846
9.967453956604004,-0.09746700525283813,-1.3830395936965942,1.3658732175827026,1.198405385017395,0.09479667246341705,-1.2037460803985596
9.98753023147583,-0.09250781685113907,-1.3883802890777588,1.3666361570358276,1.2006943225860596,0.06923781335353851,-1.202601671218872
10.007616758346558,-0.08907453715801239,-1.3941023349761963,1.3704508543014526,1.200312852859497,0.05359731614589691,-1.201838731765747
10.027718782424927,-0.08869306743144989,-1.3982986211776733,1.3731212615966797,1.199549913406372,0.04177157208323479,-1.2022202014923096
10.04776382446289,-0.08564125746488571,-1.3994430303573608,1.3796063661575317,1.1949721574783325,0.032616160809993744,-1.203364610671997
10.06785249710083,-0.08220797777175903,-1.3982986211776733,1.3895246982574463,1.1919203996658325,0.03299763426184654,-1.2045090198516846
10.087909460067749,-0.08373387902975082,-1.3941023349761963,1.3994430303573608,1.1892499923706055,0.04787518084049225,-1.204890489578247
10.10798716545105,-0.09212634712457657,-1.3868544101715088,1.3975356817245483,1.1869611740112305,0.07419699430465698,-1.2071794271469116
10.128496885299683,-0.10051880776882172,-1.3796063661575317,1.3891432285308838,1.1854352951049805,0.1028076633810997,-1.2090867757797241
10.14859414100647,-0.10814831405878067,-1.3735027313232422,1.3818951845169067,1.1861982345581055,0.11272602528333664,-1.2102311849594116
10.168667793273926,-0.11272602528333664,-1.3693064451217651,1.3738842010498047,1.1861982345581055,0.11501488089561462,-1.2102311849594116
10.188745737075806,-0.11615930497646332,-1.3693064451217651,1.3635843992233276,1.186579704284668,0.11501488089561462,-1.2094682455062866
10.208783149719238,-0.11463340371847153,-1.3712139129638672,1.350232720375061,1.189631462097168,0.10547798871994019,-1.2079423666000366
10.228865623474121,-0.10433356463909149,-1.3769359588623047,1.341458797454834,1.191157341003418,0.0875486359000206,-1.2075608968734741
10.248931646347046,-0.09441519528627396,-1.3849469423294067,1.337262511253357,1.1934462785720825,0.06466010212898254,-1.2071794271469116
10.269085884094238,-0.0864042118191719,-1.3918135166168213,1.3353551626205444,1.193827748298645,0.040627144277095795,-1.205653429031372
10.289122104644775,-0.07763027399778366,-1.3948653936386108,1.335736632347107,1.193827748298645,0.028038453310728073,-1.205653429031372
10.309184074401855,-0.06885633617639542,-1.3944838047027588,1.3376439809799194,1.19306480884552,0.02994582988321781,-1.2067978382110596
10.329262971878052,-0.06198977679014206,-1.3918135166168213,1.342221736907959,1.192301869392395,0.04596780240535736,-1.2079423666000366
10.349385738372803,-0.05664911866188049,-1.3883802890777588,1.346799373626709,1.191157341003418,0.06427863240242004,-1.2090867757797241
10.369476079940796,-0.0551232174038887,-1.3845654726028442,1.3529030084609985,1.1892499923706055,0.08030059933662415,-1.2094682455062866
10.389540672302246,-0.06160829961299896,-1.3815137147903442,1.357480764389038,1.187342643737793,0.09288929402828217,-1.2117570638656616
10.409624099731445,-0.0707637146115303,-1.3803693056106567,1.359006643295288,1.185816764831543,0.10929274559020996,-1.2121385335922241
10.42969274520874,-0.08449683338403702,-1.3803693056106567,1.359006643295288,1.1861982345581055,0.11501488089561462,-1.2113755941390991
10.449766397476196,-0.10509651154279709,-1.3807507753372192,1.3570992946624756,1.1869611740112305,0.10967422276735306,-1.2117570638656616
10.469818830490112,-0.11692225188016891,-1.3834210634231567,1.354047417640686,1.1884870529174805,0.09632257372140884,-1.2121385335922241
10.489904165267944,-0.11501488089561462,-1.3864728212356567,1.3544288873672485,1.19153892993927,0.0715266615152359,-1.2090867757797241
10.51003122329712,-0.10814831405878067,-1.3899061679840088,1.3555734157562256,1.19611656665802,0.050164032727479935,-1.2067978382110596
10.530161619186401,-0.10128175467252731,-1.3918135166168213,1.3570992946624756,1.1987868547439575,0.03681239113211632,-1.2045090198516846
10.550174713134766,-0.09365224838256836,-1.3921949863433838,1.3593881130218506,1.2006943225860596,0.03337911143898964,-1.2037460803985596
10.570242166519165,-0.08525978773832321,-1.3902876377105713,1.362821340560913,1.2014572620391846,0.03757534176111221,-1.203364610671997
10.590323209762573,-0.07572289556264877,-1.3872358798980713,1.3689249753952026,1.201075792312622,0.04482337832450867,-1.2037460803985596
10.610378742218018,-0.06809338182210922,-1.3849469423294067,1.3769359588623047,1.199549913406372,0.05703059583902359,-1.205653429031372
10.630509853363037,-0.07343403995037079,-1.3841840028762817,1.3815137147903442,1.195353627204895,0.06618601083755493,-1.206416368484497
10.650554180145264,-0.07801175117492676,-1.3826581239700317,1.3826581239700317,1.1907758712768555,0.08487831056118011,-1.2113755941390991
10.670639753341675,-0.07991912961006165,-1.3815137147903442,1.3807507753372192,1.1877241134643555,0.10013733059167862,-1.2140458822250366
10.690707445144653,-0.08564125746488571,-1.3811322450637817,1.3792248964309692,1.1846723556518555,0.10967422276735306,-1.2155718803405762
