liuyurong129/humanoid-gym/humanoid/data/actual_q_20250521-050520.csv
timestamp,joint_1,joint_2,joint_3,joint_4,joint_5,joint_6
0.00012493133544921875,-0.00019073777366429567,0.0020981156267225742,-0.001716639962978661,-0.00019073777366429567,-0.00019073777366429567,-0.00019073777366429567
0.02023005485534668,-0.00019073777366429567,0.001716639962978661,-0.0013351644156500697,0.00019073777366429567,0.00019073777366429567,-0.00019073777366429567
0.040300607681274414,-0.00019073777366429567,0.001716639962978661,-0.0013351644156500697,-0.00019073777366429567,-0.00019073777366429567,-0.00019073777366429567
0.06035757064819336,-0.00019073777366429567,0.001716639962978661,-0.0009536888683214784,-0.00019073777366429567,-0.00019073777366429567,-0.00019073777366429567
0.0804135799407959,-0.00019073777366429567,0.0009536888683214784,-0.000572213320992887,0.00019073777366429567,-0.00019073777366429567,-0.00019073777366429567
0.1004951000213623,-0.00019073777366429567,0.00019073777366429567,0.00019073777366429567,-0.00019073777366429567,0.00019073777366429567,-0.00019073777366429567
0.12058138847351074,-0.00019073777366429567,-0.00858320016413927,0.010109102353453636,-0.00019073777366429567,-0.00019073777366429567,0.00019073777366429567
0.1406567096710205,-0.000572213320992887,-0.021171892061829567,0.024223696440458298,-0.00019073777366429567,-0.00019073777366429567,0.00019073777366429567
0.16071820259094238,-0.0013351644156500697,-0.040245670825242996,0.04558632895350456,-0.00019073777366429567,0.00019073777366429567,0.000572213320992887
0.18080759048461914,-0.002861066721379757,-0.06351567804813385,0.07534141838550568,-0.0009536888683214784,0.00019073777366429567,0.002861066721379757
0.20090150833129883,-0.004386968910694122,-0.09136339277029037,0.10852979123592377,-0.0020981156267225742,0.0020981156267225742,0.005149920005351305
0.22094202041625977,-0.005531395319849253,-0.12798504531383514,0.1501106321811676,-0.00476844422519207,0.001716639962978661,0.010490577667951584
0.24103665351867676,-0.005912871100008488,-0.16956588625907898,0.1962691694498062,-0.007438773289322853,0.0032425422687083483,0.014686808921396732
0.26109814643859863,-0.005531395319849253,-0.21076524257659912,0.24280919134616852,-0.009346150793135166,0.002861066721379757,0.019645990803837776
0.28115224838256836,-0.005531395319849253,-0.2508201599121094,0.2912565767765045,-0.011635004542768002,0.002861066721379757,0.024223696440458298
0.30130767822265625,-0.005912871100008488,-0.2931639552116394,0.3408484160900116,-0.013923857361078262,0.0032425422687083483,0.02994582988321781
0.3213779926300049,-0.005531395319849253,-0.33588922023773193,0.3866254687309265,-0.016212711110711098,0.004005493130534887,0.03452353551983833
0.34142565727233887,-0.005531395319849253,-0.3850995600223541,0.44117647409439087,-0.018120087683200836,0.005531395319849253,0.040627144277095795
0.3615128993988037,-0.005531395319849253,-0.42973220348358154,0.4884794354438782,-0.020027466118335724,0.008201723918318748,0.04634927958250046
0.3816101551055908,-0.005531395319849253,-0.4732204079627991,0.5342565178871155,-0.02193484455347061,0.010109102353453636,0.05054550990462303
0.4016575813293457,-0.005149920005351305,-0.5178530812263489,0.580033540725708,-0.02384222112596035,0.01125352829694748,0.056267641484737396
0.4217557907104492,-0.00476844422519207,-0.5651560425758362,0.6307697892189026,-0.026131074875593185,0.012779430486261845,0.06160829961299896
0.44182896614074707,-0.004005493130534887,-0.6071183085441589,0.6754024624824524,-0.02727550081908703,0.016212711110711098,0.06618601083755493
0.46188879013061523,-0.0024795911740511656,-0.648699164390564,0.7211795449256897,-0.029182879254221916,0.01888304017484188,0.0722896158695221
0.4819948673248291,-0.00019073777366429567,-0.6864652633666992,0.761997401714325,-0.03032730519771576,0.020027466118335724,0.07610437273979187
0.5020601749420166,0.000572213320992887,-0.7204165458679199,0.7955672740936279,-0.03147173300385475,0.021171892061829567,0.08068207651376724
0.5221378803253174,0.001716639962978661,-0.7578011751174927,0.8283741474151611,-0.03337911143898964,0.02536812424659729,0.0864042118191719
0.5422616004943848,0.005912871100008488,-0.7967116832733154,0.8611810207366943,-0.037193864583969116,0.026131074875593185,0.09365224838256836
0.5622982978820801,0.012397955171763897,-0.8333333134651184,0.8867399096488953,-0.04329747334122658,0.025749599561095238,0.10891126841306686
0.5823578834533691,0.013160906732082367,-0.8535515666007996,0.8974212408065796,-0.05283436179161072,0.02994582988321781,0.12912946939468384
0.6024742126464844,0.010490577667951584,-0.8646143078804016,0.9046692848205566,-0.06084534898400307,0.0398641936480999,0.14705882966518402
0.6225409507751465,0.004005493130534887,-0.8726252913475037,0.9103913903236389,-0.07038223743438721,0.04940108209848404,0.16117341816425323
0.6426031589508057,-0.005531395319849253,-0.8752956390380859,0.9195467829704285,-0.07763027399778366,0.05970092490315437,0.17452506721019745
0.662752628326416,-0.01201647985726595,-0.8730067610740662,0.9233615398406982,-0.08068207651376724,0.057793546468019485,0.18940261006355286
0.6828420162200928,-0.020027466118335724,-0.8649957776069641,0.9267948269844055,-0.08335240930318832,0.06008239835500717,0.20428015291690826
0.702995777130127,-0.02689402550458908,-0.8604180812835693,0.927176296710968,-0.0871671661734581,0.05283436179161072,0.21801327168941498
0.7230172157287598,-0.03681239113211632,-0.8577477931976318,0.926413357257843,-0.09174486994743347,0.051689937710762024,0.23250934481620789
0.7430992126464844,-0.0394827201962471,-0.8581292629241943,0.925650417804718,-0.09670405089855194,0.045204851776361465,0.24242770671844482
0.763155460357666,-0.042153049260377884,-0.8615625500679016,0.9275577664375305,-0.10013733059167862,0.04482337832450867,0.25463491678237915
0.7832448482513428,-0.04406042397022247,-0.8653773069381714,0.9306095838546753,-0.10700388997793198,0.051689937710762024,0.26684215664863586
0.8033344745635986,-0.04406042397022247,-0.8653773069381714,0.9321355223655701,-0.11310750246047974,0.05970092490315437,0.2779049277305603
0.8234105110168457,-0.04940108209848404,-0.8634698987007141,0.9336614012718201,-0.1184481605887413,0.0715266615152359,0.290112167596817
0.8436076641082764,-0.0551232174038887,-0.8573662638664246,0.9332799315452576,-0.12531471252441406,0.0875486359000206,0.30346378684043884
0.8636946678161621,-0.06160829961299896,-0.8508812189102173,0.9313725233078003,-0.12722209095954895,0.09403372555971146,0.31452658772468567
0.883774995803833,-0.0707637146115303,-0.8470664620399475,0.9298466444015503,-0.12912946939468384,0.09937438368797302,0.32520791888237
0.9038615226745605,-0.07000076025724411,-0.84592205286026,0.9279392957687378,-0.13218127191066742,0.09899290651082993,0.33474478125572205
0.9239404201507568,-0.07000076025724411,-0.8470664620399475,0.9321355223655701,-0.1333257108926773,0.09212634712457657,0.34504464268684387
0.9440228939056396,-0.06733043491840363,-0.8535515666007996,0.9340428709983826,-0.1367589831352234,0.08258945494890213,0.3603036403656006
0.9640853404998779,-0.06198977679014206,-0.8569847941398621,0.9378576278686523,-0.14057374000549316,0.08487831056118011,0.3706035017967224
0.9841852188110352,-0.06694895774126053,-0.8550774455070496,0.9401465058326721,-0.1489662081003189,0.09708552807569504,0.3839551508426666
1.0042095184326172,-0.07000076025724411,-0.8508812189102173,0.9382390975952148,-0.15468832850456238,0.10967422276735306,0.3896772861480713
1.0242664813995361,-0.06771191209554672,-0.84744793176651,0.9382390975952148,-0.15735866129398346,0.11768520623445511,0.39806973934173584
1.0443520545959473,-0.07457847148180008,-0.8440146446228027,0.9382390975952148,-0.15774014592170715,0.12798504531383514,0.4068436622619629
1.0649769306182861,-0.07267109304666519,-0.8436331748962402,0.9321355223655701,-0.15774014592170715,0.12340734153985977,0.41523614525794983
1.0850489139556885,-0.07038223743438721,-0.8436331748962402,0.9313725233078003,-0.15888457000255585,0.1188296303153038,0.4243915379047394
1.1051363945007324,-0.07610437273979187,-0.84897381067276,0.9367132186889648,-0.1653696447610855,0.11539635062217712,0.4373617172241211
1.125211477279663,-0.07648584991693497,-0.8569847941398621,0.9405279755592346,-0.1657511293888092,0.11081864684820175,0.44079500436782837
1.1452767848968506,-0.0711451917886734,-0.8623254895210266,0.9439612627029419,-0.1680399775505066,0.10929274559020996,0.4488059878349304
1.1653680801391602,-0.06733043491840363,-0.8646143078804016,0.9458686113357544,-0.16994735598564148,0.09861142933368683,0.45643550157546997
1.1854562759399414,-0.06313420087099075,-0.8642328381538391,0.9481574892997742,-0.17376211285591125,0.10051880776882172,0.465209424495697
1.205543041229248,-0.06084534898400307,-0.8623254895210266,0.9458686113357544,-0.17757686972618103,0.1039520874619484,0.4694056510925293
1.2257487773895264,-0.06618601083755493,-0.8592736721038818,0.9447242021560669,-0.1810101419687271,0.11463340371847153,0.47550925612449646
1.2458579540252686,-0.06885633617639542,-0.8558403849601746,0.9412909150123596,-0.1848248988389969,0.12149996310472488,0.4800869822502136
1.2659354209899902,-0.06618601083755493,-0.8562218546867371,0.9416723847389221,-0.1848248988389969,0.1199740618467331,0.4884794354438782
1.2860252857208252,-0.0707637146115303,-0.8581292629241943,0.9428167939186096,-0.18558785319328308,0.11501488089561462,0.4964904189109802
1.3061130046844482,-0.07343403995037079,-0.8604180812835693,0.9428167939186096,-0.18749523162841797,0.10662241280078888,0.5037384629249573
1.3263027667999268,-0.06618601083755493,-0.8630884289741516,0.9435797929763794,-0.18978407979011536,0.1039520874619484,0.5109865069389343
1.3463363647460938,-0.06275273114442825,-0.8657587766647339,0.9451056718826294,-0.19092851877212524,0.09403372555971146,0.5197604298591614
1.3664295673370361,-0.06237125024199486,-0.8653773069381714,0.9462500810623169,-0.19474326074123383,0.09632257372140884,0.5251010656356812
1.3865268230438232,-0.06466010212898254,-0.8661402463912964,0.9462500810623169,-0.1997024416923523,0.1028076633810997,0.5292973518371582
1.4066162109375,-0.07305257022380829,-0.8653773069381714,0.9470130205154419,-0.20237277448177338,0.11425192654132843,0.5334935784339905
1.4267010688781738,-0.07381551712751389,-0.8649957776069641,0.9454871416091919,-0.20466163754463196,0.12378881871700287,0.5357823967933655
1.4467716217041016,-0.07267109304666519,-0.8661402463912964,0.9481574892997742,-0.20733195543289185,0.12188144028186798,0.5407415628433228
1.4668633937835693,-0.07305257022380829,-0.8680475950241089,0.9470130205154419,-0.20695048570632935,0.11615930497646332,0.5457007884979248
1.4869532585144043,-0.06466010212898254,-0.8699550032615662,0.9481574892997742,-0.20962081849575043,0.10662241280078888,0.5525673031806946
1.5251073837280273,-0.06694895774126053,-0.8699550032615662,0.9485389590263367,-0.21000228822231293,0.10166323184967041,0.5601968169212341
1.54518723487854,-0.05855649709701538,-0.8691920638084412,0.9500648379325867,-0.2149614691734314,0.10624094307422638,0.568970799446106
1.5652515888214111,-0.06466010212898254,-0.8684290647506714,0.9504463076591492,-0.21763180196285248,0.11081864684820175,0.5735484957695007
1.5861868858337402,-0.06656748056411743,-0.8680475950241089,0.9493018984794617,-0.22030213475227356,0.11692225188016891,0.5746929049491882
1.6063380241394043,-0.06237125024199486,-0.8691920638084412,0.9493018984794617,-0.22526131570339203,0.1184481605887413,0.580033540725708
1.6263854503631592,-0.06733043491840363,-0.8710994124412537,0.9493018984794617,-0.22526131570339203,0.11959258466959,0.5849927663803101
1.646665334701538,-0.0715266615152359,-0.8730067610740662,0.9493018984794617,-0.22755016386508942,0.1192111074924469,0.5891889929771423
1.6667675971984863,-0.06694895774126053,-0.8768215179443359,0.9508277773857117,-0.2298390120267868,0.11615930497646332,0.5922408103942871
1.6868815422058105,-0.06656748056411743,-0.8794918656349182,0.9554055333137512,-0.2298390120267868,0.10128175467252731,0.5983443856239319
1.7069261074066162,-0.06847485899925232,-0.8813992738723755,0.9573128819465637,-0.2302204966545105,0.10090028494596481,0.6025406122207642
1.7270398139953613,-0.06771191209554672,-0.883306622505188,0.9565499424934387,-0.2317463904619217,0.1028076633810997,0.6048294901847839
1.7471027374267578,-0.06809338182210922,-0.884069561958313,0.9573128819465637,-0.23250934481620789,0.09746700525283813,0.6078813076019287
1.767160177230835,-0.07343403995037079,-0.8844510316848755,0.9569314122200012,-0.23403525352478027,0.10547798871994019,0.6113145351409912
1.7873010635375977,-0.0722896158695221,-0.8848325610160828,0.9561684727668762,-0.23708705604076385,0.10891126841306686,0.612077534198761
1.807399034500122,-0.0707637146115303,-0.8852140307426453,0.9569314122200012,-0.23670557141304016,0.11387044936418533,0.6147478222846985
1.8274481296539307,-0.06618601083755493,-0.8863584399223328,0.9573128819465637,-0.23708705604076385,0.10624094307422638,0.6166552305221558
1.8478097915649414,-0.06275273114442825,-0.8852140307426453,0.9580758213996887,-0.23746852576732635,0.1039520874619484,0.620851457118988
1.8678927421569824,-0.06504157930612564,-0.8836880922317505,0.9576943516731262,-0.23785001039505005,0.1031891331076622,0.6239032745361328
1.8879735469818115,-0.06275273114442825,-0.8844510316848755,0.9565499424934387,-0.24013885855674744,0.10471503436565399,0.6242847442626953
1.9080655574798584,-0.06313420087099075,-0.884069561958313,0.9569314122200012,-0.24013885855674744,0.10700388997793198,0.6265735626220703
1.928213357925415,-0.05970092490315437,-0.8844510316848755,0.9565499424934387,-0.24128328263759613,0.10929274559020996,0.6280995011329651
1.9482216835021973,-0.0551232174038887,-0.8855955004692078,0.9554055333137512,-0.2443350851535797,0.10891126841306686,0.6311513185501099
1.9682817459106445,-0.056267641484737396,-0.8848325610160828,0.955024003982544,-0.2443350851535797,0.10891126841306686,0.6342030763626099
1.9883685111999512,-0.0558861680328846,-0.8836880922317505,0.9557870030403137,-0.2458609938621521,0.11158160120248795,0.6364919543266296
2.008504629135132,-0.061226826161146164,-0.8836880922317505,0.9557870030403137,-0.2470054179430008,0.11425192654132843,0.6410696506500244
2.0285654067993164,-0.05703059583902359,-0.883306622505188,0.9554055333137512,-0.247768372297287,0.10738536715507507,0.6422140598297119
2.048724889755249,-0.054741740226745605,-0.883306622505188,0.9554055333137512,-0.247768372297287,0.10204470902681351,0.6460288166999817
2.0688114166259766,-0.056267641484737396,-0.8844510316848755,0.9554055333137512,-0.248531311750412,0.09899290651082993,0.648699164390564
2.0888888835906982,-0.051689937710762024,-0.8871213793754578,0.9565499424934387,-0.25310903787612915,0.09822995215654373,0.6513695120811462
2.1094374656677246,-0.05245288833975792,-0.889028787612915,0.9569314122200012,-0.25463491678237915,0.10166323184967041,0.6555657386779785
2.1295580863952637,-0.058175019919872284,-0.8886472582817078,0.9573128819465637,-0.2573052644729614,0.11348897218704224,0.6578545570373535
2.1496357917785645,-0.05893797054886818,-0.889028787612915,0.9565499424934387,-0.2599755823612213,0.11425192654132843,0.6589990258216858
2.1696937084198,-0.059319447726011276,-0.8909361362457275,0.9584572911262512,-0.2599755823612213,0.11158160120248795,0.6605249047279358
2.1898083686828613,-0.058175019919872284,-0.8928435444831848,0.9596017599105835,-0.2599755823612213,0.10929274559020996,0.6643396615982056
2.209869146347046,-0.0551232174038887,-0.8951323628425598,0.9611276388168335,-0.2603570520877838,0.1035706102848053,0.6685358881950378
2.2299246788024902,-0.06198977679014206,-0.8970397710800171,0.9618905782699585,-0.2626459002494812,0.10128175467252731,0.6734950542449951
2.250023365020752,-0.06466010212898254,-0.8989471197128296,0.962272047996521,-0.2645532786846161,0.10433356463909149,0.6742580533027649
2.2701151371002197,-0.06084534898400307,-0.8989471197128296,0.9626535177230835,-0.2660791873931885,0.11348897218704224,0.6754024624824524
2.290172815322876,-0.05245288833975792,-0.9000915288925171,0.9626535177230835,-0.266460657119751,0.1028076633810997,0.6761654019355774
2.31026029586792,-0.051689937710762024,-0.9000915288925171,0.9634165167808533,-0.26684215664863586,0.1028076633810997,0.6788357496261597
2.3303334712982178,-0.05893797054886818,-0.8989471197128296,0.9626535177230835,-0.26722362637519836,0.11272602528333664,0.6792172193527222
2.3503878116607666,-0.06160829961299896,-0.8981841802597046,0.962272047996521,-0.26836803555488586,0.1180666834115982,0.6795986890792847
2.3704826831817627,-0.06313420087099075,-0.8985656499862671,0.960746169090271,-0.26989394426345825,0.1184481605887413,0.6807430982589722
2.3905587196350098,-0.0551232174038887,-0.9004730582237244,0.962272047996521,-0.26951247453689575,0.10852979123592377,0.6826505064964294
2.4106178283691406,-0.053215838968753815,-0.9004730582237244,0.9618905782699585,-0.26951247453689575,0.09975585341453552,0.6876096725463867
2.4307215213775635,-0.05741206929087639,-0.9012359976768494,0.9634165167808533,-0.27027541399002075,0.09784847497940063,0.689517080783844
2.450789213180542,-0.05359731614589691,-0.9019989371299744,0.9641794562339783,-0.27218279242515564,0.1039520874619484,0.6906614899635315
2.470845937728882,-0.05207141116261482,-0.9008545279502869,0.9649423956871033,-0.27180132269859314,0.10738536715507507,0.6929503083229065
2.4909353256225586,-0.06008239835500717,-0.8989471197128296,0.9641794562339783,-0.2725642919540405,0.11615930497646332,0.6929503083229065
2.510998010635376,-0.057793546468019485,-0.8989471197128296,0.9611276388168335,-0.2752346098423004,0.12226291000843048,0.692568838596344
2.5310585498809814,-0.05893797054886818,-0.9004730582237244,0.9603646993637085,-0.2748531401157379,0.1192111074924469,0.693331778049469
2.5511362552642822,-0.0551232174038887,-0.9031433463096619,0.962272047996521,-0.2752346098423004,0.11043716967105865,0.693331778049469
2.5712714195251465,-0.05092698708176613,-0.9069581031799316,0.9653238654136658,-0.2752346098423004,0.10624094307422638,0.6967650651931763
2.5912845134735107,-0.05283436179161072,-0.9065766334533691,0.9653238654136658,-0.2748531401157379,0.1031891331076622,0.698291003704071
2.6115217208862305,-0.05397878959774971,-0.9054322242736816,0.967231273651123,-0.2775234580039978,0.10700388997793198,0.700579822063446
2.631626844406128,-0.05397878959774971,-0.9054322242736816,0.9626535177230835,-0.2775234580039978,0.10700388997793198,0.7001983523368835
2.651691198348999,-0.05397878959774971,-0.9042877554893494,0.9630350470542908,-0.2775234580039978,0.10929274559020996,0.700579822063446
2.6718575954437256,-0.053215838968753815,-0.9046692848205566,0.962272047996521,-0.2782863974571228,0.11463340371847153,0.7009612917900085
2.691948175430298,-0.06008239835500717,-0.9065766334533691,0.9626535177230835,-0.2786678969860077,0.1203555315732956,0.7009612917900085
2.7120161056518555,-0.06237125024199486,-0.9100099205970764,0.9626535177230835,-0.2790493667125702,0.1203555315732956,0.7009612917900085
2.732071876525879,-0.05436026677489281,-0.9130617380142212,0.9664682745933533,-0.2805752754211426,0.11120012402534485,0.7024872303009033
2.7521872520446777,-0.05741206929087639,-0.9153505563735962,0.9691386222839355,-0.2801937758922577,0.10471503436565399,0.7051575779914856
2.7722675800323486,-0.054741740226745605,-0.9164950251579285,0.9710460305213928,-0.2809567451477051,0.09670405089855194,0.7051575779914856
2.7925586700439453,-0.053215838968753815,-0.9149690866470337,0.9706645011901855,-0.2809567451477051,0.09784847497940063,0.7074463963508606
2.812671184539795,-0.05970092490315437,-0.9134432077407837,0.970283031463623,-0.2809567451477051,0.10471503436565399,0.7074463963508606
2.8328311443328857,-0.059319447726011276,-0.9134432077407837,0.9691386222839355,-0.2813382148742676,0.11081864684820175,0.7074463963508606
2.8528900146484375,-0.06198977679014206,-0.9126802682876587,0.968757152557373,-0.2813382148742676,0.11158160120248795,0.7074463963508606
2.8729867935180664,-0.06198977679014206,-0.9126802682876587,0.968757152557373,-0.2813382148742676,0.10852979123592377,0.7078278660774231
2.8931162357330322,-0.05664911866188049,-0.9134432077407837,0.9706645011901855,-0.2813382148742676,0.10166323184967041,0.7085908055305481
2.913361072540283,-0.0558861680328846,-0.9134432077407837,0.9710460305213928,-0.2813382148742676,0.09746700525283813,0.7104982137680054
2.933471441268921,-0.054741740226745605,-0.9119172692298889,0.970283031463623,-0.2813382148742676,0.09288929402828217,0.7108796834945679
2.9535322189331055,-0.0551232174038887,-0.9096284508705139,0.9699015617370605,-0.2817196846008301,0.10166323184967041,0.7112611532211304
2.973620653152466,-0.06504157930612564,-0.9088655114173889,0.967994213104248,-0.2813382148742676,0.11348897218704224,0.7112611532211304
2.993685245513916,-0.06504157930612564,-0.9092469811439514,0.9664682745933533,-0.28324559330940247,0.11615930497646332,0.7104982137680054
3.0137457847595215,-0.06809338182210922,-0.9096284508705139,0.9676127433776855,-0.28439003229141235,0.12111848592758179,0.7112611532211304
3.0340559482574463,-0.0707637146115303,-0.9119172692298889,0.968757152557373,-0.28477150201797485,0.1188296303153038,0.7112611532211304
3.0541422367095947,-0.06542305648326874,-0.9142061471939087,0.9714275002479553,-0.28477150201797485,0.11425192654132843,0.7120240926742554
3.074213743209839,-0.06008239835500717,-0.916113555431366,0.9721904397010803,-0.28439003229141235,0.09975585341453552,0.7124055624008179
3.0943825244903564,-0.06885633617639542,-0.916113555431366,0.9740977883338928,-0.28439003229141235,0.09822995215654373,0.7135500311851501
3.1144771575927734,-0.06847485899925232,-0.916113555431366,0.9737163186073303,-0.28553444147109985,0.1031891331076622,0.7127870321273804
3.1345479488372803,-0.06961929053068161,-0.9145876169204712,0.9737163186073303,-0.28477150201797485,0.11196307092905045,0.7139315009117126
3.154813051223755,-0.06847485899925232,-0.9138246774673462,0.9721904397010803,-0.28515297174453735,0.11081864684820175,0.7127870321273804
3.1749207973480225,-0.07038223743438721,-0.9142061471939087,0.9725719094276428,-0.28515297174453735,0.11463340371847153,0.7127870321273804
3.194951057434082,-0.06771191209554672,-0.9149690866470337,0.9721904397010803,-0.28515297174453735,0.10929274559020996,0.7127870321273804
3.2150111198425293,-0.06046387553215027,-0.9157320261001587,0.9725719094276428,-0.28477150201797485,0.10051880776882172,0.7135500311851501
3.2350966930389404,-0.06351567804813385,-0.9145876169204712,0.9725719094276428,-0.28515297174453735,0.09822995215654373,0.7146944403648376
3.255181074142456,-0.06847485899925232,-0.9134432077407837,0.9721904397010803,-0.28515297174453735,0.10585946589708328,0.7143129706382751
3.2752325534820557,-0.06580453366041183,-0.9122987985610962,0.9718089699745178,-0.28515297174453735,0.10547798871994019,0.7139315009117126
3.2953290939331055,-0.06504157930612564,-0.9122987985610962,0.970283031463623,-0.28477150201797485,0.10090028494596481,0.7143129706382751
3.315396785736084,-0.06313420087099075,-0.9115357995033264,0.9699015617370605,-0.28439003229141235,0.10128175467252731,0.7139315009117126
3.335454225540161,-0.06466010212898254,-0.9111543297767639,0.9691386222839355,-0.28477150201797485,0.10776684433221817,0.7143129706382751
3.3555350303649902,-0.06313420087099075,-0.9111543297767639,0.9683756828308105,-0.28477150201797485,0.11158160120248795,0.7135500311851501
3.3756895065307617,-0.061226826161146164,-0.9111543297767639,0.967994213104248,-0.28439003229141235,0.10852979123592377,0.7143129706382751
3.3956964015960693,-0.06046387553215027,-0.9111543297767639,0.9683756828308105,-0.28477150201797485,0.1024261862039566,0.7139315009117126
3.4159252643585205,-0.06466010212898254,-0.9107728600502014,0.968757152557373,-0.28439003229141235,0.10013733059167862,0.7143129706382751
3.4360127449035645,-0.06542305648326874,-0.9103913903236389,0.968757152557373,-0.28477150201797485,0.10433356463909149,0.7131685614585876
3.4560718536376953,-0.06275273114442825,-0.9107728600502014,0.969520092010498,-0.28477150201797485,0.10585946589708328,0.7135500311851501
3.4763290882110596,-0.06275273114442825,-0.9115357995033264,0.9691386222839355,-0.28439003229141235,0.10433356463909149,0.7135500311851501
3.4964165687561035,-0.06084534898400307,-0.9115357995033264,0.9699015617370605,-0.28477150201797485,0.10585946589708328,0.7139315009117126
3.516486883163452,-0.06275273114442825,-0.9115357995033264,0.9699015617370605,-0.28477150201797485,0.10509651154279709,0.7146944403648376
3.536564350128174,-0.06542305648326874,-0.9115357995033264,0.9699015617370605,-0.28477150201797485,0.10852979123592377,0.7146944403648376
3.5566511154174805,-0.06275273114442825,-0.9119172692298889,0.970283031463623,-0.28477150201797485,0.10738536715507507,0.7146944403648376
3.5767276287078857,-0.06809338182210922,-0.9115357995033264,0.970283031463623,-0.28439003229141235,0.10814831405878067,0.7154573798179626
3.596790075302124,-0.06656748056411743,-0.9115357995033264,0.9699015617370605,-0.28477150201797485,0.10433356463909149,0.7150759100914001
3.616900682449341,-0.06351567804813385,-0.9126802682876587,0.970283031463623,-0.28477150201797485,0.1024261862039566,0.7162203192710876
3.6369528770446777,-0.06160829961299896,-0.9119172692298889,0.9706645011901855,-0.28477150201797485,0.10204470902681351,0.7158388495445251
3.657048463821411,-0.061226826161146164,-0.9111543297767639,0.970283031463623,-0.28477150201797485,0.10738536715507507,0.7162203192710876
3.677119016647339,-0.06160829961299896,-0.9100099205970764,0.9699015617370605,-0.28477150201797485,0.11387044936418533,0.7162203192710876
3.697221279144287,-0.06656748056411743,-0.9081025123596191,0.9683756828308105,-0.28477150201797485,0.1188296303153038,0.7158388495445251
3.7172491550445557,-0.06618601083755493,-0.9084840416908264,0.9683756828308105,-0.28477150201797485,0.1184481605887413,0.7150759100914001
3.7373390197753906,-0.06694895774126053,-0.9096284508705139,0.9699015617370605,-0.28439003229141235,0.10929274559020996,0.7154573798179626
3.7574265003204346,-0.06656748056411743,-0.9115357995033264,0.9699015617370605,-0.28439003229141235,0.10471503436565399,0.7154573798179626
3.7774760723114014,-0.06046387553215027,-0.9130617380142212,0.970283031463623,-0.28439003229141235,0.09517814964056015,0.7166017889976501
3.7979562282562256,-0.05664911866188049,-0.9142061471939087,0.9706645011901855,-0.28439003229141235,0.09136339277029037,0.7181277275085449
3.81807017326355,-0.058175019919872284,-0.9149690866470337,0.9714275002479553,-0.28439003229141235,0.09021896868944168,0.7192721366882324
3.8381309509277344,-0.05970092490315437,-0.9134432077407837,0.9714275002479553,-0.28477150201797485,0.10013733059167862,0.7185091972351074
3.8582053184509277,-0.06427863240242004,-0.9115357995033264,0.9710460305213928,-0.28439003229141235,0.10852979123592377,0.7188906669616699
3.878296375274658,-0.06656748056411743,-0.9096284508705139,0.9683756828308105,-0.28477150201797485,0.11425192654132843,0.7181277275085449
3.8983798027038574,-0.06580453366041183,-0.9092469811439514,0.9683756828308105,-0.28477150201797485,0.11387044936418533,0.7173647880554199
3.9186017513275146,-0.07038223743438721,-0.9096284508705139,0.9699015617370605,-0.28477150201797485,0.11158160120248795,0.7185091972351074
3.938694477081299,-0.06847485899925232,-0.9126802682876587,0.9714275002479553,-0.28477150201797485,0.10624094307422638,0.7185091972351074
3.958772897720337,-0.06618601083755493,-0.9142061471939087,0.9729533791542053,-0.28439003229141235,0.09670405089855194,0.7192721366882324
3.9789927005767822,-0.06313420087099075,-0.9153505563735962,0.9740977883338928,-0.28477150201797485,0.09021896868944168,0.7188906669616699
3.9990792274475098,-0.06084534898400307,-0.9149690866470337,0.9744792580604553,-0.28439003229141235,0.08945601433515549,0.7192721366882324
4.019152641296387,-0.06389715522527695,-0.9122987985610962,0.9721904397010803,-0.28477150201797485,0.10624094307422638,0.7188906669616699
4.039206266403198,-0.06008239835500717,-0.9107728600502014,0.9706645011901855,-0.28515297174453735,0.11081864684820175,0.7177462577819824
4.059293270111084,-0.06504157930612564,-0.9088655114173889,0.970283031463623,-0.28515297174453735,0.1188296303153038,0.7185091972351074
4.079363584518433,-0.06237125024199486,-0.9096284508705139,0.967994213104248,-0.28477150201797485,0.1188296303153038,0.7158388495445251
4.099438905715942,-0.06237125024199486,-0.9088655114173889,0.9683756828308105,-0.28439003229141235,0.11654078215360641,0.7162203192710876
4.119513034820557,-0.059319447726011276,-0.9092469811439514,0.9657053351402283,-0.28439003229141235,0.11120012402534485,0.7158388495445251
4.139627933502197,-0.05436026677489281,-0.9103913903236389,0.967231273651123,-0.28400853276252747,0.10204470902681351,0.7169833183288574
4.1596832275390625,-0.0558861680328846,-0.9103913903236389,0.9668498039245605,-0.28439003229141235,0.1028076633810997,0.7166017889976501
4.180023908615112,-0.05359731614589691,-0.9107728600502014,0.9668498039245605,-0.28439003229141235,0.10662241280078888,0.7169833183288574
4.200103998184204,-0.05664911866188049,-0.9107728600502014,0.967231273651123,-0.28439003229141235,0.10929274559020996,0.7169833183288574
4.220178604125977,-0.06504157930612564,-0.9107728600502014,0.9676127433776855,-0.28477150201797485,0.11768520623445511,0.7166017889976501
4.240218877792358,-0.06466010212898254,-0.9111543297767639,0.9676127433776855,-0.28477150201797485,0.11959258466959,0.7158388495445251
4.260295867919922,-0.06427863240242004,-0.9122987985610962,0.9691386222839355,-0.28477150201797485,0.11387044936418533,0.7166017889976501
4.2803754806518555,-0.06160829961299896,-0.9149690866470337,0.969520092010498,-0.28439003229141235,0.10509651154279709,0.7166017889976501
4.300459623336792,-0.058175019919872284,-0.916113555431366,0.9721904397010803,-0.28477150201797485,0.09670405089855194,0.7185091972351074
4.320543050765991,-0.05970092490315437,-0.916113555431366,0.9714275002479553,-0.28477150201797485,0.10090028494596481,0.7192721366882324
4.340625524520874,-0.06160829961299896,-0.9164950251579285,0.9721904397010803,-0.28477150201797485,0.11120012402534485,0.7192721366882324
4.360876798629761,-0.061226826161146164,-0.9145876169204712,0.970283031463623,-0.28477150201797485,0.11310750246047974,0.7192721366882324
4.38096809387207,-0.06504157930612564,-0.9134432077407837,0.970283031463623,-0.28477150201797485,0.11959258466959,0.7192721366882324
4.401050090789795,-0.058175019919872284,-0.9138246774673462,0.968757152557373,-0.28515297174453735,0.1180666834115982,0.7185091972351074
4.421097040176392,-0.058175019919872284,-0.9134432077407837,0.9691386222839355,-0.28400853276252747,0.11387044936418533,0.7196536064147949
4.441186904907227,-0.06466010212898254,-0.9134432077407837,0.969520092010498,-0.28515297174453735,0.11348897218704224,0.7192721366882324
4.46126914024353,-0.06389715522527695,-0.9145876169204712,0.969520092010498,-0.28515297174453735,0.11387044936418533,0.7192721366882324
4.48132586479187,-0.06237125024199486,-0.9149690866470337,0.970283031463623,-0.28477150201797485,0.10547798871994019,0.7196536064147949
4.501408100128174,-0.061226826161146164,-0.9149690866470337,0.9710460305213928,-0.28515297174453735,0.10891126841306686,0.7192721366882324
4.521517753601074,-0.06046387553215027,-0.9157320261001587,0.9706645011901855,-0.28477150201797485,0.10814831405878067,0.7196536064147949
4.541553020477295,-0.057793546468019485,-0.9157320261001587,0.9706645011901855,-0.28553444147109985,0.10585946589708328,0.7192721366882324
4.561637878417969,-0.058175019919872284,-0.9149690866470337,0.970283031463623,-0.28477150201797485,0.10891126841306686,0.7196536064147949
4.581695318222046,-0.06160829961299896,-0.9134432077407837,0.969520092010498,-0.28515297174453735,0.11196307092905045,0.7192721366882324
4.601787328720093,-0.06427863240242004,-0.9119172692298889,0.968757152557373,-0.28515297174453735,0.11692225188016891,0.7192721366882324
4.6218554973602295,-0.0555046908557415,-0.9119172692298889,0.968757152557373,-0.28477150201797485,0.10891126841306686,0.7188906669616699
4.641935110092163,-0.0558861680328846,-0.9103913903236389,0.970283031463623,-0.28477150201797485,0.1039520874619484,0.7196536064147949
4.6619956493377686,-0.06313420087099075,-0.9107728600502014,0.9699015617370605,-0.28515297174453735,0.10738536715507507,0.7192721366882324
4.682084560394287,-0.06351567804813385,-0.9111543297767639,0.968757152557373,-0.28477150201797485,0.11005569249391556,0.7192721366882324
4.7021644115448,-0.059319447726011276,-0.9119172692298889,0.970283031463623,-0.28477150201797485,0.1039520874619484,0.7196536064147949
4.72223973274231,-0.058175019919872284,-0.9134432077407837,0.9710460305213928,-0.28477150201797485,0.10090028494596481,0.7196536064147949
4.742603778839111,-0.056267641484737396,-0.9134432077407837,0.9718089699745178,-0.28477150201797485,0.09937438368797302,0.7196536064147949
4.762688875198364,-0.059319447726011276,-0.9126802682876587,0.9721904397010803,-0.28477150201797485,0.10662241280078888,0.7196536064147949
4.782761096954346,-0.06084534898400307,-0.9111543297767639,0.970283031463623,-0.28477150201797485,0.11425192654132843,0.7192721366882324
4.8028175830841064,-0.054741740226745605,-0.9100099205970764,0.9691386222839355,-0.28553444147109985,0.11081864684820175,0.7192721366882324
4.822914123535156,-0.058175019919872284,-0.9084840416908264,0.968757152557373,-0.28515297174453735,0.11043716967105865,0.7196536064147949
4.843007564544678,-0.06198977679014206,-0.9084840416908264,0.9676127433776855,-0.28553444147109985,0.11501488089561462,0.7192721366882324
4.8630735874176025,-0.05855649709701538,-0.9100099205970764,0.967994213104248,-0.28553444147109985,0.11387044936418533,0.7192721366882324
4.883163213729858,-0.056267641484737396,-0.9126802682876587,0.9699015617370605,-0.28515297174453735,0.10585946589708328,0.7196536064147949
4.903231620788574,-0.053215838968753815,-0.9145876169204712,0.9710460305213928,-0.28515297174453735,0.10166323184967041,0.7192721366882324
4.923284292221069,-0.048638131469488144,-0.9149690866470337,0.9710460305213928,-0.28515297174453735,0.09670405089855194,0.7200350761413574
4.943495512008667,-0.051689937710762024,-0.9138246774673462,0.9714275002479553,-0.28553444147109985,0.1024261862039566,0.7204165458679199
4.963593244552612,-0.05893797054886818,-0.9119172692298889,0.970283031463623,-0.28553444147109985,0.11196307092905045,0.7200350761413574
4.983667612075806,-0.06008239835500717,-0.9130617380142212,0.9699015617370605,-0.28591591119766235,0.11730372905731201,0.7200350761413574
5.003846645355225,-0.054741740226745605,-0.9134432077407837,0.970283031463623,-0.28553444147109985,0.10967422276735306,0.7200350761413574
5.023945331573486,-0.053215838968753815,-0.9149690866470337,0.9706645011901855,-0.28515297174453735,0.10090028494596481,0.7207980751991272
5.044023036956787,-0.053215838968753815,-0.9153505563735962,0.9710460305213928,-0.28591591119766235,0.09594109654426575,0.7207980751991272
5.064424514770508,-0.05397878959774971,-0.9153505563735962,0.9721904397010803,-0.28591591119766235,0.09937438368797302,0.7227054238319397
5.084515571594238,-0.054741740226745605,-0.9149690866470337,0.9710460305213928,-0.28591591119766235,0.10662241280078888,0.7227054238319397
5.104595899581909,-0.05741206929087639,-0.9134432077407837,0.9710460305213928,-0.28629741072654724,0.11043716967105865,0.7227054238319397
5.124648332595825,-0.06008239835500717,-0.9119172692298889,0.968757152557373,-0.28629741072654724,0.11463340371847153,0.7223239541053772
5.144734621047974,-0.0555046908557415,-0.9126802682876587,0.9691386222839355,-0.28706035017967224,0.11310750246047974,0.7227054238319397
5.164825677871704,-0.0555046908557415,-0.9134432077407837,0.968757152557373,-0.28706035017967224,0.10967422276735306,0.7230868935585022
5.1848719120025635,-0.051689937710762024,-0.9145876169204712,0.9691386222839355,-0.28744181990623474,0.10433356463909149,0.7230868935585022
5.204965829849243,-0.05054550990462303,-0.9149690866470337,0.9691386222839355,-0.28744181990623474,0.10128175467252731,0.724612832069397
5.225043058395386,-0.05703059583902359,-0.9142061471939087,0.9699015617370605,-0.28782328963279724,0.10624094307422638,0.724612832069397
5.245093822479248,-0.05741206929087639,-0.9134432077407837,0.968757152557373,-0.28820478916168213,0.11120012402534485,0.7242313027381897
5.265185832977295,-0.06084534898400307,-0.9122987985610962,0.968757152557373,-0.28820478916168213,0.11196307092905045,0.7242313027381897
5.285240650177002,-0.05970092490315437,-0.9126802682876587,0.967994213104248,-0.28820478916168213,0.11196307092905045,0.7242313027381897
5.305304050445557,-0.05245288833975792,-0.9134432077407837,0.967994213104248,-0.28858625888824463,0.10433356463909149,0.7242313027381897
5.325395345687866,-0.05397878959774971,-0.9142061471939087,0.967994213104248,-0.28820478916168213,0.10128175467252731,0.7265201807022095
5.345477104187012,-0.05436026677489281,-0.9142061471939087,0.9683756828308105,-0.28858625888824463,0.10738536715507507,0.726138710975647
5.3655455112457275,-0.04901960864663124,-0.9138246774673462,0.968757152557373,-0.28858625888824463,0.10509651154279709,0.7265201807022095
5.385845899581909,-0.05130846053361893,-0.9134432077407837,0.969520092010498,-0.28858625888824463,0.1035706102848053,0.7265201807022095
5.405935049057007,-0.04940108209848404,-0.9122987985610962,0.9676127433776855,-0.28896772861480713,0.11158160120248795,0.7249943017959595
5.426078796386719,-0.04444190114736557,-0.9126802682876587,0.967994213104248,-0.28896772861480713,0.10814831405878067,0.726138710975647
5.44654655456543,-0.045204851776361465,-0.9138246774673462,0.967994213104248,-0.28858625888824463,0.10471503436565399,0.7265201807022095
5.466647386550903,-0.05130846053361893,-0.9145876169204712,0.967994213104248,-0.28896772861480713,0.11387044936418533,0.726138710975647
5.486725091934204,-0.05245288833975792,-0.9149690866470337,0.967994213104248,-0.28973066806793213,0.11310750246047974,0.7265201807022095
5.5067832469940186,-0.05397878959774971,-0.916113555431366,0.968757152557373,-0.28973066806793213,0.1035706102848053,0.7265201807022095
5.5268778800964355,-0.04901960864663124,-0.916876494884491,0.970283031463623,-0.28973066806793213,0.09975585341453552,0.726901650428772
5.5470147132873535,-0.04482337832450867,-0.917639434337616,0.9714275002479553,-0.28973066806793213,0.09327077120542526,0.7272831201553345
5.5670530796051025,-0.051689937710762024,-0.9164950251579285,0.9714275002479553,-0.28973066806793213,0.09365224838256836,0.7272831201553345
5.587163686752319,-0.05283436179161072,-0.9153505563735962,0.9699015617370605,-0.290112167596817,0.10929274559020996,0.7272831201553345
5.607214689254761,-0.05207141116261482,-0.9145876169204712,0.9699015617370605,-0.290112167596817,0.11234454810619354,0.7272831201553345
5.627304315567017,-0.06008239835500717,-0.9153505563735962,0.9691386222839355,-0.290112167596817,0.11348897218704224,0.726901650428772
5.647436141967773,-0.054741740226745605,-0.9157320261001587,0.967994213104248,-0.2920195460319519,0.10662241280078888,0.726901650428772
5.66750431060791,-0.05397878959774971,-0.9149690866470337,0.9683756828308105,-0.291638046503067,0.1035706102848053,0.728427529335022
5.687879800796509,-0.051689937710762024,-0.916113555431366,0.9683756828308105,-0.2920195460319519,0.1028076633810997,0.727664589881897
5.707960605621338,-0.05397878959774971,-0.9164950251579285,0.9691386222839355,-0.291638046503067,0.09975585341453552,0.728427529335022
5.728025197982788,-0.05893797054886818,-0.9153505563735962,0.968757152557373,-0.2920195460319519,0.10433356463909149,0.727664589881897
5.748660326004028,-0.05436026677489281,-0.9153505563735962,0.968757152557373,-0.2920195460319519,0.10433356463909149,0.727664589881897
5.768811464309692,-0.058175019919872284,-0.9153505563735962,0.968757152557373,-0.291638046503067,0.10471503436565399,0.728427529335022
5.788850545883179,-0.06313420087099075,-0.9153505563735962,0.968757152557373,-0.2920195460319519,0.10891126841306686,0.727664589881897
5.809035778045654,-0.05855649709701538,-0.9157320261001587,0.9691386222839355,-0.2924010157585144,0.10662241280078888,0.7272831201553345
5.82918381690979,-0.061226826161146164,-0.916113555431366,0.970283031463623,-0.291638046503067,0.10509651154279709,0.728427529335022
5.849225759506226,-0.06542305648326874,-0.9157320261001587,0.9699015617370605,-0.2920195460319519,0.10471503436565399,0.7272831201553345
5.869359970092773,-0.05855649709701538,-0.9153505563735962,0.9699015617370605,-0.2920195460319519,0.10624094307422638,0.727664589881897
5.889439582824707,-0.054741740226745605,-0.916876494884491,0.970283031463623,-0.291638046503067,0.09784847497940063,0.7280460596084595
5.909532070159912,-0.05855649709701538,-0.9164950251579285,0.9729533791542053,-0.2924010157585144,0.09784847497940063,0.7272831201553345
5.929623365402222,-0.06084534898400307,-0.9153505563735962,0.969520092010498,-0.2920195460319519,0.11234454810619354,0.7272831201553345
5.9497551918029785,-0.06160829961299896,-0.9142061471939087,0.9699015617370605,-0.2920195460319519,0.11234454810619354,0.7272831201553345
5.969803333282471,-0.06351567804813385,-0.9142061471939087,0.9683756828308105,-0.2924010157585144,0.11501488089561462,0.726901650428772
5.990101099014282,-0.05893797054886818,-0.9145876169204712,0.9664682745933533,-0.2924010157585144,0.11120012402534485,0.726901650428772
6.010188817977905,-0.06351567804813385,-0.9145876169204712,0.969520092010498,-0.2920195460319519,0.10776684433221817,0.7280460596084595
6.030275821685791,-0.06351567804813385,-0.916113555431366,0.9706645011901855,-0.2931639552116394,0.10585946589708328,0.726901650428772
6.050318241119385,-0.06847485899925232,-0.916876494884491,0.9718089699745178,-0.2920195460319519,0.10967422276735306,0.727664589881897
6.070414781570435,-0.06694895774126053,-0.917639434337616,0.9721904397010803,-0.2931639552116394,0.10471503436565399,0.7265201807022095
6.090545654296875,-0.06427863240242004,-0.917639434337616,0.9729533791542053,-0.2920195460319519,0.10929274559020996,0.7272831201553345
6.11055588722229,-0.06008239835500717,-0.918402373790741,0.9729533791542053,-0.2924010157585144,0.10013733059167862,0.726901650428772
6.130660772323608,-0.059319447726011276,-0.9180209040641785,0.9737163186073303,-0.2924010157585144,0.1024261862039566,0.726901650428772
6.150724649429321,-0.06694895774126053,-0.916113555431366,0.9714275002479553,-0.2920195460319519,0.11463340371847153,0.7272831201553345
6.170788526535034,-0.06656748056411743,-0.9153505563735962,0.9710460305213928,-0.2924010157585144,0.11501488089561462,0.7265201807022095
6.190873146057129,-0.06618601083755493,-0.9153505563735962,0.9718089699745178,-0.2920195460319519,0.10662241280078888,0.7265201807022095
6.210943937301636,-0.06504157930612564,-0.9145876169204712,0.9714275002479553,-0.290875107049942,0.10624094307422638,0.7265201807022095
6.231124401092529,-0.056267641484737396,-0.9145876169204712,0.9710460305213928,-0.2912565767765045,0.10204470902681351,0.7265201807022095
6.251294851303101,-0.057793546468019485,-0.9138246774673462,0.9710460305213928,-0.2912565767765045,0.10090028494596481,0.726901650428772
6.271334171295166,-0.06046387553215027,-0.9134432077407837,0.970283031463623,-0.2912565767765045,0.10776684433221817,0.7265201807022095
6.29139518737793,-0.05092698708176613,-0.9130617380142212,0.9699015617370605,-0.2912565767765045,0.1039520874619484,0.7265201807022095
6.3114988803863525,-0.05130846053361893,-0.9130617380142212,0.9699015617370605,-0.2904936373233795,0.10624094307422638,0.726138710975647
6.331575393676758,-0.0558861680328846,-0.9122987985610962,0.969520092010498,-0.2904936373233795,0.10929274559020996,0.7257572412490845
6.351646900177002,-0.05664911866188049,-0.9122987985610962,0.968757152557373,-0.290875107049942,0.11425192654132843,0.725375771522522
6.371702194213867,-0.05970092490315437,-0.9130617380142212,0.969520092010498,-0.2904936373233795,0.10929274559020996,0.725375771522522
6.391752004623413,-0.06084534898400307,-0.9145876169204712,0.9699015617370605,-0.28973066806793213,0.10509651154279709,0.7257572412490845
6.4119439125061035,-0.0551232174038887,-0.916876494884491,0.9710460305213928,-0.28934919834136963,0.1035706102848053,0.726138710975647
6.4319798946380615,-0.05130846053361893,-0.9195467829704285,0.9733348488807678,-0.28896772861480713,0.09060044586658478,0.7265201807022095
6.452037572860718,-0.05436026677489281,-0.918402373790741,0.9744792580604553,-0.28896772861480713,0.0883115902543068,0.7265201807022095
6.472198486328125,-0.0551232174038887,-0.9149690866470337,0.9737163186073303,-0.28973066806793213,0.1031891331076622,0.726138710975647
6.4922401905059814,-0.06237125024199486,-0.9111543297767639,0.9714275002479553,-0.28934919834136963,0.11425192654132843,0.726138710975647
6.512298583984375,-0.06389715522527695,-0.9103913903236389,0.9699015617370605,-0.28973066806793213,0.11615930497646332,0.7242313027381897
6.532385587692261,-0.05855649709701538,-0.9107728600502014,0.9699015617370605,-0.28934919834136963,0.11196307092905045,0.7242313027381897
6.552468776702881,-0.06847485899925232,-0.9115357995033264,0.9718089699745178,-0.28858625888824463,0.11615930497646332,0.724612832069397
6.572544574737549,-0.06809338182210922,-0.9142061471939087,0.9718089699745178,-0.28896772861480713,0.11425192654132843,0.7215610146522522
6.592720985412598,-0.06198977679014206,-0.916876494884491,0.9733348488807678,-0.28858625888824463,0.11425192654132843,0.7230868935585022
6.612863063812256,-0.06008239835500717,-0.9187838435173035,0.9763866662979126,-0.28858625888824463,0.10662241280078888,0.7230868935585022
6.632988929748535,-0.0551232174038887,-0.9187838435173035,0.9767681360244751,-0.28858625888824463,0.09975585341453552,0.7223239541053772
6.653650999069214,-0.05359731614589691,-0.916876494884491,0.9771496057510376,-0.28858625888824463,0.10738536715507507,0.7227054238319397
6.673757076263428,-0.05970092490315437,-0.9138246774673462,0.9752422571182251,-0.28858625888824463,0.11615930497646332,0.7223239541053772
6.693845748901367,-0.06237125024199486,-0.9119172692298889,0.9718089699745178,-0.28896772861480713,0.12378881871700287,0.7211795449256897
6.714143514633179,-0.056267641484737396,-0.9122987985610962,0.9721904397010803,-0.28858625888824463,0.12645913660526276,0.7196536064147949
6.734240293502808,-0.06084534898400307,-0.9134432077407837,0.9721904397010803,-0.28782328963279724,0.12111848592758179,0.7200350761413574
6.754325866699219,-0.06198977679014206,-0.9145876169204712,0.9725719094276428,-0.28820478916168213,0.11730372905731201,0.7196536064147949
6.774387836456299,-0.059319447726011276,-0.9164950251579285,0.9737163186073303,-0.28782328963279724,0.11425192654132843,0.7204165458679199
6.794482469558716,-0.06046387553215027,-0.9180209040641785,0.9763866662979126,-0.28782328963279724,0.10433356463909149,0.7204165458679199
6.814552068710327,-0.05359731614589691,-0.9199283123016357,0.9771496057510376,-0.28782328963279724,0.09555962681770325,0.7200350761413574
6.83461594581604,-0.05397878959774971,-0.919165313243866,0.9775310754776001,-0.28744181990623474,0.09784847497940063,0.7219424843788147
6.854722023010254,-0.05130846053361893,-0.916876494884491,0.9748607873916626,-0.28782328963279724,0.1024261862039566,0.7207980751991272
6.874799489974976,-0.054741740226745605,-0.9157320261001587,0.9737163186073303,-0.28744181990623474,0.1180666834115982,0.7215610146522522
6.894882440567017,-0.05703059583902359,-0.9145876169204712,0.9710460305213928,-0.28820478916168213,0.12111848592758179,0.7196536064147949
6.914963722229004,-0.05893797054886818,-0.9126802682876587,0.9721904397010803,-0.28782328963279724,0.12378881871700287,0.7196536064147949
6.935041904449463,-0.05855649709701538,-0.9138246774673462,0.969520092010498,-0.28820478916168213,0.1192111074924469,0.7196536064147949
6.955105304718018,-0.06198977679014206,-0.9134432077407837,0.9710460305213928,-0.28706035017967224,0.11196307092905045,0.7207980751991272
6.975197076797485,-0.06046387553215027,-0.9145876169204712,0.9706645011901855,-0.28706035017967224,0.10471503436565399,0.7200350761413574
6.9952967166900635,-0.061226826161146164,-0.9157320261001587,0.9733348488807678,-0.28667888045310974,0.09975585341453552,0.7215610146522522
7.0153398513793945,-0.06198977679014206,-0.918402373790741,0.9744792580604553,-0.28744181990623474,0.09861142933368683,0.7219424843788147
7.035644054412842,-0.05283436179161072,-0.919165313243866,0.9740977883338928,-0.28706035017967224,0.09441519528627396,0.7230868935585022
7.0557403564453125,-0.05283436179161072,-0.917639434337616,0.9740977883338928,-0.28744181990623474,0.09670405089855194,0.7230868935585022
7.0758068561553955,-0.054741740226745605,-0.916876494884491,0.9729533791542053,-0.28744181990623474,0.10738536715507507,0.7227054238319397
7.0960423946380615,-0.05092698708176613,-0.9149690866470337,0.970283031463623,-0.28744181990623474,0.10776684433221817,0.7223239541053772
7.116136789321899,-0.0551232174038887,-0.9119172692298889,0.9691386222839355,-0.28744181990623474,0.10852979123592377,0.7223239541053772
7.136225461959839,-0.06008239835500717,-0.9111543297767639,0.9676127433776855,-0.28744181990623474,0.11348897218704224,0.7223239541053772
7.156288146972656,-0.054741740226745605,-0.9111543297767639,0.9676127433776855,-0.28782328963279724,0.10433356463909149,0.7219424843788147
7.176381349563599,-0.05436026677489281,-0.9111543297767639,0.967994213104248,-0.28706035017967224,0.09784847497940063,0.7238498330116272
7.196460008621216,-0.05054550990462303,-0.9130617380142212,0.9683756828308105,-0.28782328963279724,0.08907453715801239,0.7234683632850647
7.216541051864624,-0.049782559275627136,-0.9138246774673462,0.9699015617370605,-0.28782328963279724,0.09060044586658478,0.7238498330116272
7.23663067817688,-0.05970092490315437,-0.9134432077407837,0.9699015617370605,-0.28782328963279724,0.1039520874619484,0.7238498330116272
7.2567033767700195,-0.05970092490315437,-0.9134432077407837,0.967994213104248,-0.28896772861480713,0.11501488089561462,0.7230868935585022
7.276757478713989,-0.06160829961299896,-0.9122987985610962,0.9676127433776855,-0.28858625888824463,0.12340734153985977,0.7234683632850647
7.29686427116394,-0.059319447726011276,-0.9126802682876587,0.9668498039245605,-0.28858625888824463,0.12340734153985977,0.7230868935585022
7.316965579986572,-0.05855649709701538,-0.9134432077407837,0.9683756828308105,-0.28858625888824463,0.11577782779932022,0.7238498330116272
7.3370521068573,-0.06160829961299896,-0.9142061471939087,0.9710460305213928,-0.28896772861480713,0.1180666834115982,0.7242313027381897
7.357212543487549,-0.061226826161146164,-0.9153505563735962,0.9710460305213928,-0.28858625888824463,0.11654078215360641,0.7234683632850647
7.37731671333313,-0.05855649709701538,-0.916113555431366,0.9721904397010803,-0.28858625888824463,0.10662241280078888,0.7238498330116272
7.397381067276001,-0.06351567804813385,-0.916876494884491,0.9733348488807678,-0.28858625888824463,0.10662241280078888,0.7238498330116272
7.4178547859191895,-0.06466010212898254,-0.9180209040641785,0.9733348488807678,-0.28896772861480713,0.10509651154279709,0.7234683632850647
7.43794846534729,-0.061226826161146164,-0.9187838435173035,0.9740977883338928,-0.28858625888824463,0.10967422276735306,0.7242313027381897
7.458025217056274,-0.057793546468019485,-0.9199283123016357,0.9740977883338928,-0.28820478916168213,0.10090028494596481,0.7242313027381897
7.478090286254883,-0.0551232174038887,-0.918402373790741,0.9748607873916626,-0.28858625888824463,0.10051880776882172,0.7238498330116272
7.498182535171509,-0.06466010212898254,-0.916876494884491,0.9740977883338928,-0.28820478916168213,0.11463340371847153,0.7242313027381897
7.518265724182129,-0.06466010212898254,-0.916113555431366,0.9729533791542053,-0.28896772861480713,0.11272602528333664,0.7227054238319397
7.538344860076904,-0.06504157930612564,-0.9149690866470337,0.9721904397010803,-0.28858625888824463,0.11387044936418533,0.7227054238319397
7.558432340621948,-0.05893797054886818,-0.916113555431366,0.9721904397010803,-0.28858625888824463,0.10585946589708328,0.7227054238319397
7.578501462936401,-0.058175019919872284,-0.9172579646110535,0.9725719094276428,-0.28820478916168213,0.10013733059167862,0.7234683632850647
7.59858250617981,-0.0558861680328846,-0.9180209040641785,0.9729533791542053,-0.28858625888824463,0.1028076633810997,0.7227054238319397
7.618664741516113,-0.051689937710762024,-0.9187838435173035,0.9729533791542053,-0.28820478916168213,0.1035706102848053,0.7238498330116272
7.6387364864349365,-0.05436026677489281,-0.9187838435173035,0.9737163186073303,-0.28858625888824463,0.1035706102848053,0.7227054238319397
7.658849716186523,-0.05397878959774971,-0.9172579646110535,0.9721904397010803,-0.28858625888824463,0.11615930497646332,0.7227054238319397
7.678941011428833,-0.05092698708176613,-0.9157320261001587,0.9718089699745178,-0.28858625888824463,0.11577782779932022,0.7227054238319397
7.6990065574646,-0.05855649709701538,-0.9145876169204712,0.9714275002479553,-0.28820478916168213,0.11158160120248795,0.7230868935585022
7.719072341918945,-0.06046387553215027,-0.9126802682876587,0.9699015617370605,-0.28858625888824463,0.11158160120248795,0.7227054238319397
7.739189147949219,-0.06084534898400307,-0.9126802682876587,0.9699015617370605,-0.28820478916168213,0.10662241280078888,0.7234683632850647
7.759229898452759,-0.06084534898400307,-0.9130617380142212,0.9699015617370605,-0.28820478916168213,0.09784847497940063,0.7230868935585022
7.779311418533325,-0.05703059583902359,-0.9149690866470337,0.9714275002479553,-0.28820478916168213,0.08907453715801239,0.7242313027381897
7.799396514892578,-0.05970092490315437,-0.9142061471939087,0.9721904397010803,-0.28858625888824463,0.09403372555971146,0.7242313027381897
7.819472312927246,-0.06046387553215027,-0.9142061471939087,0.9721904397010803,-0.28858625888824463,0.10166323184967041,0.7238498330116272
7.839587688446045,-0.06389715522527695,-0.9134432077407837,0.9718089699745178,-0.28858625888824463,0.11577782779932022,0.7234683632850647
7.859647989273071,-0.06046387553215027,-0.9134432077407837,0.970283031463623,-0.28858625888824463,0.11615930497646332,0.7227054238319397
7.879721403121948,-0.06160829961299896,-0.9134432077407837,0.9710460305213928,-0.28820478916168213,0.11692225188016891,0.7234683632850647
7.899801015853882,-0.06466010212898254,-0.9134432077407837,0.970283031463623,-0.28858625888824463,0.11615930497646332,0.7227054238319397
7.919896364212036,-0.06427863240242004,-0.9149690866470337,0.970283031463623,-0.28858625888824463,0.1180666834115982,0.7227054238319397
7.9400763511657715,-0.06504157930612564,-0.916876494884491,0.9714275002479553,-0.28820478916168213,0.1039520874619484,0.7227054238319397
7.960190773010254,-0.06847485899925232,-0.9180209040641785,0.9729533791542053,-0.28820478916168213,0.10814831405878067,0.7227054238319397
7.980209589004517,-0.06847485899925232,-0.918402373790741,0.9729533791542053,-0.28820478916168213,0.10891126841306686,0.7223239541053772
8.000345468521118,-0.06389715522527695,-0.9187838435173035,0.9733348488807678,-0.28858625888824463,0.1028076633810997,0.7223239541053772
8.020432949066162,-0.06198977679014206,-0.9195467829704285,0.9748607873916626,-0.28782328963279724,0.10166323184967041,0.7230868935585022
8.0405113697052,-0.06694895774126053,-0.9187838435173035,0.9748607873916626,-0.28820478916168213,0.11043716967105865,0.7223239541053772
8.060965538024902,-0.059319447726011276,-0.9172579646110535,0.9737163186073303,-0.28820478916168213,0.11120012402534485,0.7215610146522522
8.081062078475952,-0.06198977679014206,-0.9164950251579285,0.9740977883338928,-0.28782328963279724,0.11501488089561462,0.7219424843788147
8.101136684417725,-0.05741206929087639,-0.9153505563735962,0.9706645011901855,-0.28820478916168213,0.11158160120248795,0.7188906669616699
8.121232986450195,-0.05397878959774971,-0.9145876169204712,0.970283031463623,-0.28782328963279724,0.11005569249391556,0.7200350761413574
8.141330242156982,-0.0555046908557415,-0.9138246774673462,0.9691386222839355,-0.28820478916168213,0.11120012402534485,0.7192721366882324
8.161417007446289,-0.054741740226745605,-0.9138246774673462,0.970283031463623,-0.28820478916168213,0.11310750246047974,0.7196536064147949
8.181482553482056,-0.054741740226745605,-0.9138246774673462,0.970283031463623,-0.28820478916168213,0.11348897218704224,0.7196536064147949
8.201586246490479,-0.06008239835500717,-0.9134432077407837,0.9710460305213928,-0.28782328963279724,0.11577782779932022,0.7196536064147949
8.221659183502197,-0.06084534898400307,-0.9138246774673462,0.9706645011901855,-0.28820478916168213,0.11310750246047974,0.7196536064147949
8.24172067642212,-0.05283436179161072,-0.9164950251579285,0.9710460305213928,-0.28744181990623474,0.09861142933368683,0.7204165458679199
8.261831998825073,-0.054741740226745605,-0.917639434337616,0.9740977883338928,-0.28744181990623474,0.09403372555971146,0.7219424843788147
8.281893014907837,-0.0551232174038887,-0.9195467829704285,0.9740977883338928,-0.28820478916168213,0.09861142933368683,0.7215610146522522
8.301961898803711,-0.054741740226745605,-0.918402373790741,0.9748607873916626,-0.28820478916168213,0.10967422276735306,0.7227054238319397
8.322059392929077,-0.06084534898400307,-0.9172579646110535,0.9744792580604553,-0.28858625888824463,0.11234454810619354,0.7223239541053772
8.342191696166992,-0.06237125024199486,-0.9164950251579285,0.9740977883338928,-0.28858625888824463,0.11501488089561462,0.7219424843788147
8.362221479415894,-0.06198977679014206,-0.916113555431366,0.9744792580604553,-0.28858625888824463,0.1180666834115982,0.7215610146522522
8.382323265075684,-0.06542305648326874,-0.9164950251579285,0.9737163186073303,-0.28820478916168213,0.11425192654132843,0.7215610146522522
8.402407884597778,-0.06275273114442825,-0.9187838435173035,0.9733348488807678,-0.28820478916168213,0.10967422276735306,0.7219424843788147
8.42245101928711,-0.05855649709701538,-0.9203097820281982,0.9744792580604553,-0.28820478916168213,0.10013733059167862,0.7227054238319397
8.442559003829956,-0.05893797054886818,-0.9203097820281982,0.9752422571182251,-0.28820478916168213,0.09861142933368683,0.7227054238319397
8.462634801864624,-0.05359731614589691,-0.9195467829704285,0.9763866662979126,-0.28858625888824463,0.09937438368797302,0.7234683632850647
8.482702732086182,-0.05245288833975792,-0.9164950251579285,0.9763866662979126,-0.28820478916168213,0.11081864684820175,0.7230868935585022
8.502918481826782,-0.05893797054886818,-0.9130617380142212,0.9752422571182251,-0.28858625888824463,0.12340734153985977,0.7227054238319397
8.523154497146606,-0.05741206929087639,-0.9103913903236389,0.968757152557373,-0.28858625888824463,0.1329442262649536,0.7204165458679199
8.543232440948486,-0.05855649709701538,-0.9084840416908264,0.967231273651123,-0.28858625888824463,0.1340886503458023,0.7204165458679199
8.563503503799438,-0.06313420087099075,-0.9096284508705139,0.9645609259605408,-0.28820478916168213,0.13065537810325623,0.7196536064147949
8.583615064620972,-0.0555046908557415,-0.9134432077407837,0.9664682745933533,-0.28820478916168213,0.1192111074924469,0.7200350761413574
8.60365915298462,-0.05436026677489281,-0.9149690866470337,0.967231273651123,-0.28782328963279724,0.11196307092905045,0.7227054238319397
8.623772621154785,-0.05436026677489281,-0.9172579646110535,0.9706645011901855,-0.28858625888824463,0.10585946589708328,0.7223239541053772
8.6438627243042,-0.05855649709701538,-0.917639434337616,0.9718089699745178,-0.28820478916168213,0.10852979123592377,0.7230868935585022
8.663940191268921,-0.058175019919872284,-0.916113555431366,0.9718089699745178,-0.28820478916168213,0.11196307092905045,0.7227054238319397
8.684086561203003,-0.05397878959774971,-0.9149690866470337,0.9660868048667908,-0.28820478916168213,0.11005569249391556,0.7219424843788147
8.704192876815796,-0.057793546468019485,-0.9145876169204712,0.9657053351402283,-0.28820478916168213,0.11348897218704224,0.7227054238319397
8.724372386932373,-0.06351567804813385,-0.916876494884491,0.9653238654136658,-0.28858625888824463,0.12188144028186798,0.7219424843788147
8.744515180587769,-0.06198977679014206,-0.9195467829704285,0.9649423956871033,-0.28858625888824463,0.12340734153985977,0.7219424843788147
8.764514207839966,-0.06008239835500717,-0.9206912517547607,0.9725719094276428,-0.28858625888824463,0.11654078215360641,0.7234683632850647
8.784567594528198,-0.06198977679014206,-0.9214541912078857,0.9714275002479553,-0.28782328963279724,0.10891126841306686,0.7227054238319397
8.804693937301636,-0.0551232174038887,-0.9195467829704285,0.9725719094276428,-0.28782328963279724,0.09403372555971146,0.7234683632850647
8.82476282119751,-0.054741740226745605,-0.916113555431366,0.9706645011901855,-0.28820478916168213,0.09479667246341705,0.7230868935585022
8.84484052658081,-0.05741206929087639,-0.916113555431366,0.9706645011901855,-0.28820478916168213,0.10204470902681351,0.7230868935585022
8.864934206008911,-0.053215838968753815,-0.916113555431366,0.9683756828308105,-0.28820478916168213,0.11272602528333664,0.7227054238319397
8.885019540786743,-0.05436026677489281,-0.9164950251579285,0.967994213104248,-0.28820478916168213,0.1180666834115982,0.7238498330116272
8.905076742172241,-0.05397878959774971,-0.916876494884491,0.968757152557373,-0.28858625888824463,0.11463340371847153,0.7230868935585022
8.925173997879028,-0.057793546468019485,-0.9164950251579285,0.9706645011901855,-0.28858625888824463,0.10852979123592377,0.7230868935585022
8.94525671005249,-0.06275273114442825,-0.9153505563735962,0.9710460305213928,-0.28820478916168213,0.11120012402534485,0.7230868935585022
8.965311765670776,-0.06198977679014206,-0.9142061471939087,0.9714275002479553,-0.28820478916168213,0.10662241280078888,0.7230868935585022
8.985401391983032,-0.05855649709701538,-0.9157320261001587,0.9721904397010803,-0.28782328963279724,0.09746700525283813,0.7234683632850647
9.005472183227539,-0.05741206929087639,-0.9164950251579285,0.9733348488807678,-0.28820478916168213,0.09212634712457657,0.7238498330116272
9.025545835494995,-0.0555046908557415,-0.9187838435173035,0.9744792580604553,-0.28820478916168213,0.09479667246341705,0.7238498330116272
9.045609712600708,-0.061226826161146164,-0.9195467829704285,0.9744792580604553,-0.28820478916168213,0.1031891331076622,0.724612832069397
9.06570315361023,-0.06313420087099075,-0.9180209040641785,0.9744792580604553,-0.28896772861480713,0.11692225188016891,0.7242313027381897
9.085758924484253,-0.06351567804813385,-0.9138246774673462,0.969520092010498,-0.28858625888824463,0.1180666834115982,0.7234683632850647
9.105838060379028,-0.06771191209554672,-0.9134432077407837,0.9676127433776855,-0.28858625888824463,0.12111848592758179,0.7234683632850647
9.125930070877075,-0.06466010212898254,-0.9153505563735962,0.9664682745933533,-0.28858625888824463,0.1192111074924469,0.7230868935585022
9.146106243133545,-0.06466010212898254,-0.9180209040641785,0.9718089699745178,-0.28744181990623474,0.10967422276735306,0.7242313027381897
9.166152715682983,-0.05893797054886818,-0.9225986003875732,0.9744792580604553,-0.28820478916168213,0.10433356463909149,0.7238498330116272
9.186261653900146,-0.0558861680328846,-0.924124538898468,0.9763866662979126,-0.28744181990623474,0.09937438368797302,0.7257572412490845
9.206331729888916,-0.059319447726011276,-0.9222171306610107,0.9748607873916626,-0.28858625888824463,0.09784847497940063,0.7249943017959595
9.226393222808838,-0.06084534898400307,-0.9180209040641785,0.9737163186073303,-0.28858625888824463,0.11043716967105865,0.7249943017959595
9.246616840362549,-0.06084534898400307,-0.9164950251579285,0.9718089699745178,-0.28782328963279724,0.11348897218704224,0.7249943017959595
9.266722679138184,-0.05970092490315437,-0.9145876169204712,0.970283031463623,-0.28782328963279724,0.11654078215360641,0.724612832069397
9.286797285079956,-0.057793546468019485,-0.9157320261001587,0.9699015617370605,-0.28820478916168213,0.11654078215360641,0.7234683632850647
9.307388305664062,-0.059319447726011276,-0.916113555431366,0.9699015617370605,-0.28820478916168213,0.11577782779932022,0.7242313027381897
9.327492713928223,-0.05664911866188049,-0.916876494884491,0.9718089699745178,-0.28820478916168213,0.11348897218704224,0.7242313027381897
9.347599506378174,-0.05741206929087639,-0.9180209040641785,0.9729533791542053,-0.28820478916168213,0.10814831405878067,0.724612832069397
9.367642164230347,-0.06237125024199486,-0.9164950251579285,0.9729533791542053,-0.28820478916168213,0.11158160120248795,0.724612832069397
9.387739181518555,-0.061226826161146164,-0.9164950251579285,0.9718089699745178,-0.28782328963279724,0.11272602528333664,0.7242313027381897
9.407824277877808,-0.06313420087099075,-0.9164950251579285,0.9721904397010803,-0.28744181990623474,0.11120012402534485,0.724612832069397
9.42787790298462,-0.06656748056411743,-0.916876494884491,0.9721904397010803,-0.28782328963279724,0.11310750246047974,0.7242313027381897
9.447979211807251,-0.06275273114442825,-0.9187838435173035,0.9737163186073303,-0.28782328963279724,0.11577782779932022,0.7238498330116272
9.468099355697632,-0.06389715522527695,-0.9199283123016357,0.9748607873916626,-0.28744181990623474,0.10852979123592377,0.724612832069397
9.488165616989136,-0.06847485899925232,-0.9203097820281982,0.9760051965713501,-0.28744181990623474,0.11196307092905045,0.7242313027381897
9.508254289627075,-0.06427863240242004,-0.9199283123016357,0.9752422571182251,-0.28706035017967224,0.11730372905731201,0.7234683632850647
9.528352499008179,-0.06313420087099075,-0.9195467829704285,0.9752422571182251,-0.28591591119766235,0.11081864684820175,0.7242313027381897
9.548442602157593,-0.06275273114442825,-0.919165313243866,0.9748607873916626,-0.28591591119766235,0.11081864684820175,0.7230868935585022
9.568602085113525,-0.06275273114442825,-0.9187838435173035,0.9744792580604553,-0.28553444147109985,0.11730372905731201,0.7234683632850647
9.588683128356934,-0.06275273114442825,-0.919165313243866,0.9744792580604553,-0.28553444147109985,0.11577782779932022,0.7230868935585022
9.608758211135864,-0.059319447726011276,-0.9187838435173035,0.9752422571182251,-0.28553444147109985,0.11387044936418533,0.7227054238319397
9.628859281539917,-0.06542305648326874,-0.918402373790741,0.9752422571182251,-0.28515297174453735,0.11577782779932022,0.7230868935585022
9.648948907852173,-0.07000076025724411,-0.917639434337616,0.9748607873916626,-0.28553444147109985,0.1184481605887413,0.7227054238319397
9.669025659561157,-0.06733043491840363,-0.917639434337616,0.9748607873916626,-0.28553444147109985,0.11768520623445511,0.7223239541053772
9.689118146896362,-0.06809338182210922,-0.919165313243866,0.9756237268447876,-0.28477150201797485,0.10509651154279709,0.7227054238319397
9.709198236465454,-0.07267109304666519,-0.9206912517547607,0.9771496057510376,-0.28477150201797485,0.10700388997793198,0.7223239541053772
9.72927474975586,-0.06542305648326874,-0.9222171306610107,0.9771496057510376,-0.28477150201797485,0.10967422276735306,0.7223239541053772
9.749348878860474,-0.06008239835500717,-0.9229800701141357,0.9775310754776001,-0.28400853276252747,0.10051880776882172,0.7227054238319397
9.769536972045898,-0.06313420087099075,-0.9214541912078857,0.9782940149307251,-0.28439003229141235,0.10128175467252731,0.7219424843788147
9.789611101150513,-0.06504157930612564,-0.9180209040641785,0.9737163186073303,-0.28439003229141235,0.12073700875043869,0.7219424843788147
9.809669017791748,-0.06275273114442825,-0.9138246774673462,0.970283031463623,-0.28439003229141235,0.12417028844356537,0.7207980751991272
9.829829454421997,-0.06847485899925232,-0.9115357995033264,0.9691386222839355,-0.28439003229141235,0.12836651504039764,0.7196536064147949
9.84985613822937,-0.06771191209554672,-0.9115357995033264,0.9664682745933533,-0.28400853276252747,0.12569619715213776,0.7192721366882324
9.869924783706665,-0.06618601083755493,-0.9130617380142212,0.968757152557373,-0.28324559330940247,0.12188144028186798,0.7192721366882324
9.89000654220581,-0.06389715522527695,-0.9145876169204712,0.968757152557373,-0.28286412358283997,0.12111848592758179,0.7192721366882324
9.910087585449219,-0.06008239835500717,-0.9157320261001587,0.9691386222839355,-0.2817196846008301,0.10967422276735306,0.7204165458679199
9.93014669418335,-0.06466010212898254,-0.9157320261001587,0.970283031463623,-0.2821011543273926,0.10662241280078888,0.7196536064147949
9.950250625610352,-0.05970092490315437,-0.9149690866470337,0.970283031463623,-0.2817196846008301,0.11158160120248795,0.7196536064147949
9.970339059829712,-0.05703059583902359,-0.9142061471939087,0.9710460305213928,-0.2817196846008301,0.11158160120248795,0.7196536064147949
9.991075277328491,-0.06504157930612564,-0.9115357995033264,0.970283031463623,-0.2817196846008301,0.11463340371847153,0.7192721366882324
10.011196851730347,-0.07038223743438721,-0.9092469811439514,0.9676127433776855,-0.28286412358283997,0.12798504531383514,0.7185091972351074
10.031272649765015,-0.06618601083755493,-0.9092469811439514,0.9676127433776855,-0.28248265385627747,0.12874799966812134,0.7181277275085449
10.051359415054321,-0.06618601083755493,-0.9107728600502014,0.9683756828308105,-0.2817196846008301,0.12149996310472488,0.7185091972351074
10.071477890014648,-0.061226826161146164,-0.9119172692298889,0.968757152557373,-0.2817196846008301,0.11348897218704224,0.7185091972351074
10.091536521911621,-0.0551232174038887,-0.9130617380142212,0.970283031463623,-0.2817196846008301,0.10624094307422638,0.7188906669616699
10.112502813339233,-0.057793546468019485,-0.9134432077407837,0.9710460305213928,-0.2817196846008301,0.1039520874619484,0.7188906669616699
10.132589340209961,-0.053215838968753815,-0.9130617380142212,0.970283031463623,-0.28248265385627747,0.11310750246047974,0.7188906669616699
10.152677297592163,-0.048638131469488144,-0.9122987985610962,0.970283031463623,-0.2817196846008301,0.11577782779932022,0.7192721366882324
10.17272400856018,-0.054741740226745605,-0.9115357995033264,0.9699015617370605,-0.2821011543273926,0.11654078215360641,0.7188906669616699
10.192817687988281,-0.0555046908557415,-0.9092469811439514,0.9664682745933533,-0.28362706303596497,0.12874799966812134,0.7181277275085449
10.21293044090271,-0.05207141116261482,-0.9081025123596191,0.9634165167808533,-0.28362706303596497,0.12569619715213776,0.7185091972351074
10.233091354370117,-0.05664911866188049,-0.9092469811439514,0.9649423956871033,-0.28286412358283997,0.12188144028186798,0.7192721366882324
10.253190755844116,-0.053215838968753815,-0.9111543297767639,0.9668498039245605,-0.28400853276252747,0.1192111074924469,0.7188906669616699
10.273263931274414,-0.05207141116261482,-0.9138246774673462,0.968757152557373,-0.28286412358283997,0.11120012402534485,0.7196536064147949
10.293586730957031,-0.05855649709701538,-0.9138246774673462,0.9706645011901855,-0.28362706303596497,0.10967422276735306,0.7196536064147949
10.313696384429932,-0.05397878959774971,-0.9142061471939087,0.9699015617370605,-0.28400853276252747,0.11120012402534485,0.7192721366882324
10.333798885345459,-0.0551232174038887,-0.9134432077407837,0.970283031463623,-0.28324559330940247,0.11425192654132843,0.7211795449256897
10.353845834732056,-0.056267641484737396,-0.9134432077407837,0.968757152557373,-0.28439003229141235,0.11387044936418533,0.7196536064147949
10.373972654342651,-0.051689937710762024,-0.9142061471939087,0.9706645011901855,-0.28515297174453735,0.11272602528333664,0.7196536064147949
10.394033193588257,-0.04901960864663124,-0.9142061471939087,0.9683756828308105,-0.28477150201797485,0.11272602528333664,0.7215610146522522
10.414095401763916,-0.048638131469488144,-0.9142061471939087,0.9683756828308105,-0.28515297174453735,0.11463340371847153,0.7215610146522522
10.43417739868164,-0.050164032727479935,-0.9145876169204712,0.9691386222839355,-0.28591591119766235,0.11730372905731201,0.7215610146522522
10.454276084899902,-0.05092698708176613,-0.9145876169204712,0.9699015617370605,-0.28553444147109985,0.1184481605887413,0.7215610146522522
10.474330425262451,-0.04787518084049225,-0.9153505563735962,0.970283031463623,-0.28591591119766235,0.11577782779932022,0.7215610146522522
10.494423866271973,-0.05054550990462303,-0.9157320261001587,0.9706645011901855,-0.28515297174453735,0.11425192654132843,0.7234683632850647
10.514493703842163,-0.05207141116261482,-0.916876494884491,0.9699015617370605,-0.28591591119766235,0.11387044936418533,0.7230868935585022
10.534560680389404,-0.04406042397022247,-0.917639434337616,0.9699015617370605,-0.28667888045310974,0.10547798871994019,0.7238498330116272
10.554672956466675,-0.04634927958250046,-0.9180209040641785,0.970283031463623,-0.28629741072654724,0.1039520874619484,0.726138710975647
10.574738502502441,-0.04558632895350456,-0.917639434337616,0.970283031463623,-0.28706035017967224,0.10700388997793198,0.726138710975647
10.59479308128357,-0.04100862145423889,-0.9180209040641785,0.9699015617370605,-0.28782328963279724,0.11196307092905045,0.7265201807022095
10.614890098571777,-0.04139009863138199,-0.917639434337616,0.970283031463623,-0.28782328963279724,0.11234454810619354,0.7265201807022095
10.634964227676392,-0.050164032727479935,-0.916113555431366,0.9699015617370605,-0.28858625888824463,0.12073700875043869,0.7265201807022095
10.655105829238892,-0.05054550990462303,-0.9164950251579285,0.9683756828308105,-0.28934919834136963,0.1203555315732956,0.726138710975647
10.675146579742432,-0.054741740226745605,-0.9180209040641785,0.9691386222839355,-0.28858625888824463,0.11615930497646332,0.7265201807022095
10.695231914520264,-0.05970092490315437,-0.9199283123016357,0.9721904397010803,-0.28973066806793213,0.11272602528333664,0.726901650428772
10.715282440185547,-0.05703059583902359,-0.9218356609344482,0.9729533791542053,-0.28934919834136963,0.10967422276735306,0.726901650428772
10.735405445098877,-0.05855649709701538,-0.9245060086250305,0.9775310754776001,-0.28858625888824463,0.09670405089855194,0.7288090586662292
10.755478620529175,-0.06160829961299896,-0.9260318875312805,0.9805828928947449,-0.28934919834136963,0.10013733059167862,0.727664589881897
10.775554180145264,-0.05283436179161072,-0.925650417804718,0.9809643626213074,-0.28896772861480713,0.10433356463909149,0.728427529335022
10.796261072158813,-0.048256658017635345,-0.9245060086250305,0.9805828928947449,-0.28896772861480713,0.10090028494596481,0.7288090586662292
10.81636357307434,-0.05207141116261482,-0.9222171306610107,0.9798199534416199,-0.28896772861480713,0.11005569249391556,0.727664589881897
10.836413383483887,-0.05283436179161072,-0.9172579646110535,0.9729533791542053,-0.28896772861480713,0.11768520623445511,0.7272831201553345
10.856493473052979,-0.0551232174038887,-0.9145876169204712,0.9691386222839355,-0.28934919834136963,0.12722209095954895,0.726901650428772
10.87666368484497,-0.06008239835500717,-0.9145876169204712,0.968757152557373,-0.28896772861480713,0.12607766687870026,0.726901650428772
10.89674186706543,-0.06427863240242004,-0.9157320261001587,0.968757152557373,-0.28896772861480713,0.12531471252441406,0.7265201807022095
10.916764974594116,-0.06504157930612564,-0.9172579646110535,0.970283031463623,-0.28896772861480713,0.12111848592758179,0.7272831201553345
10.936854839324951,-0.06046387553215027,-0.9195467829704285,0.9718089699745178,-0.28896772861480713,0.11081864684820175,0.7272831201553345
10.95692253112793,-0.05664911866188049,-0.9218356609344482,0.9737163186073303,-0.28858625888824463,0.09746700525283813,0.7280460596084595
10.97697114944458,-0.06008239835500717,-0.9222171306610107,0.9760051965713501,-0.28896772861480713,0.10090028494596481,0.7280460596084595
10.99706482887268,-0.05741206929087639,-0.9210727214813232,0.9718089699745178,-0.28896772861480713,0.10624094307422638,0.726901650428772
11.017141580581665,-0.06313420087099075,-0.916876494884491,0.9718089699745178,-0.28858625888824463,0.1180666834115982,0.7272831201553345
11.037192821502686,-0.06351567804813385,-0.916113555431366,0.9676127433776855,-0.28934919834136963,0.12607766687870026,0.725375771522522
11.057310342788696,-0.06504157930612564,-0.9157320261001587,0.9668498039245605,-0.28858625888824463,0.12455176562070847,0.725375771522522
11.077409744262695,-0.06237125024199486,-0.916876494884491,0.968757152557373,-0.28896772861480713,0.12378881871700287,0.7249943017959595
11.097500085830688,-0.05741206929087639,-0.918402373790741,0.9691386222839355,-0.28820478916168213,0.11196307092905045,0.7257572412490845
11.117728233337402,-0.05893797054886818,-0.9187838435173035,0.9710460305213928,-0.28858625888824463,0.10738536715507507,0.7265201807022095
11.13782000541687,-0.053215838968753815,-0.918402373790741,0.9706645011901855,-0.28858625888824463,0.10662241280078888,0.726138710975647
11.157881259918213,-0.050164032727479935,-0.917639434337616,0.9714275002479553,-0.28820478916168213,0.10509651154279709,0.726901650428772
11.17806339263916,-0.0551232174038887,-0.9149690866470337,0.9699015617370605,-0.28820478916168213,0.10700388997793198,0.7265201807022095
11.198145627975464,-0.0551232174038887,-0.9126802682876587,0.9676127433776855,-0.28858625888824463,0.12149996310472488,0.726138710975647
11.218231916427612,-0.054741740226745605,-0.9119172692298889,0.9660868048667908,-0.28858625888824463,0.12378881871700287,0.7265201807022095
11.23830509185791,-0.05970092490315437,-0.9130617380142212,0.9664682745933533,-0.28858625888824463,0.1203555315732956,0.726138710975647
11.2583909034729,-0.05741206929087639,-0.9134432077407837,0.9668498039245605,-0.28896772861480713,0.1188296303153038,0.726138710975647
11.278518199920654,-0.06389715522527695,-0.9145876169204712,0.968757152557373,-0.28858625888824463,0.1199740618467331,0.726901650428772
11.298535585403442,-0.06504157930612564,-0.916876494884491,0.9691386222839355,-0.28896772861480713,0.11425192654132843,0.726138710975647
11.318643569946289,-0.058175019919872284,-0.9187838435173035,0.970283031463623,-0.28858625888824463,0.10814831405878067,0.726901650428772
11.338724136352539,-0.059319447726011276,-0.9187838435173035,0.9710460305213928,-0.28858625888824463,0.1035706102848053,0.726901650428772
11.358787536621094,-0.06198977679014206,-0.9187838435173035,0.9710460305213928,-0.28896772861480713,0.11120012402534485,0.7265201807022095
11.378875732421875,-0.06351567804813385,-0.917639434337616,0.970283031463623,-0.28858625888824463,0.1199740618467331,0.726901650428772
11.398951053619385,-0.06084534898400307,-0.9164950251579285,0.9699015617370605,-0.28896772861480713,0.11272602528333664,0.7265201807022095
11.419003963470459,-0.06160829961299896,-0.9157320261001587,0.9699015617370605,-0.28858625888824463,0.11692225188016891,0.726901650428772
11.439114809036255,-0.06427863240242004,-0.9153505563735962,0.9699015617370605,-0.28858625888824463,0.11501488089561462,0.7265201807022095
11.459208726882935,-0.06427863240242004,-0.9153505563735962,0.969520092010498,-0.28896772861480713,0.11272602528333664,0.726138710975647
11.479267358779907,-0.05703059583902359,-0.9164950251579285,0.9699015617370605,-0.28858625888824463,0.10624094307422638,0.7265201807022095
11.499333381652832,-0.06008239835500717,-0.916113555431366,0.9699015617370605,-0.28858625888824463,0.10585946589708328,0.726901650428772
11.548528909683228,-0.0555046908557415,-0.9164950251579285,0.969520092010498,-0.28858625888824463,0.10738536715507507,0.726138710975647
11.568600416183472,-0.04901960864663124,-0.9199283123016357,0.9752422571182251,-0.28858625888824463,0.11196307092905045,0.726138710975647
11.588671922683716,-0.05207141116261482,-0.9195467829704285,0.9748607873916626,-0.28858625888824463,0.1203555315732956,0.726138710975647
11.60877776145935,-0.054741740226745605,-0.9187838435173035,0.9729533791542053,-0.28896772861480713,0.11959258466959,0.7257572412490845
11.62886095046997,-0.05054550990462303,-0.9195467829704285,0.9725719094276428,-0.28896772861480713,0.10929274559020996,0.726138710975647
11.64894437789917,-0.04749370738863945,-0.919165313243866,0.9729533791542053,-0.28858625888824463,0.10585946589708328,0.726901650428772
11.66928505897522,-0.05397878959774971,-0.9195467829704285,0.9733348488807678,-0.28858625888824463,0.10166323184967041,0.726901650428772
11.689414024353027,-0.05893797054886818,-0.9187838435173035,0.9740977883338928,-0.28973066806793213,0.10776684433221817,0.7265201807022095
11.709529876708984,-0.057793546468019485,-0.9199283123016357,0.9744792580604553,-0.28858625888824463,0.10624094307422638,0.726901650428772
11.729693412780762,-0.05397878959774971,-0.9203097820281982,0.9748607873916626,-0.28858625888824463,0.09975585341453552,0.726901650428772
11.74977421760559,-0.05664911866188049,-0.9206912517547607,0.9748607873916626,-0.28896772861480713,0.10509651154279709,0.726901650428772
11.769837379455566,-0.054741740226745605,-0.9214541912078857,0.9744792580604553,-0.28934919834136963,0.10585946589708328,0.726901650428772
11.789864540100098,-0.05436026677489281,-0.9214541912078857,0.9740977883338928,-0.28934919834136963,0.10662241280078888,0.7272831201553345
11.809960126876831,-0.05245288833975792,-0.9206912517547607,0.9744792580604553,-0.28896772861480713,0.10738536715507507,0.726901650428772
11.830090284347534,-0.05855649709701538,-0.919165313243866,0.9748607873916626,-0.28896772861480713,0.11654078215360641,0.7272831201553345
11.850110530853271,-0.05397878959774971,-0.918402373790741,0.9725719094276428,-0.28934919834136963,0.11654078215360641,0.726138710975647
11.87020230293274,-0.04940108209848404,-0.9172579646110535,0.9706645011901855,-0.28858625888824463,0.11081864684820175,0.7272831201553345
11.890358686447144,-0.056267641484737396,-0.9153505563735962,0.9699015617370605,-0.28858625888824463,0.11387044936418533,0.7272831201553345
11.91036081314087,-0.05397878959774971,-0.9153505563735962,0.967994213104248,-0.28934919834136963,0.11539635062217712,0.726901650428772
11.93043828010559,-0.05092698708176613,-0.9157320261001587,0.9683756828308105,-0.28896772861480713,0.11005569249391556,0.7280460596084595
11.95051884651184,-0.05436026677489281,-0.9149690866470337,0.9691386222839355,-0.28896772861480713,0.11043716967105865,0.726901650428772
11.970571279525757,-0.05283436179161072,-0.9145876169204712,0.967994213104248,-0.28896772861480713,0.11615930497646332,0.726901650428772
11.990660667419434,-0.0558861680328846,-0.9138246774673462,0.967994213104248,-0.28858625888824463,0.11615930497646332,0.7272831201553345
12.0107262134552,-0.06046387553215027,-0.9134432077407837,0.967231273651123,-0.28896772861480713,0.1184481605887413,0.7265201807022095
12.030797243118286,-0.0555046908557415,-0.9142061471939087,0.9664682745933533,-0.28896772861480713,0.1188296303153038,0.726901650428772
12.050873041152954,-0.06008239835500717,-0.9157320261001587,0.9699015617370605,-0.28858625888824463,0.11654078215360641,0.728427529335022
12.07094669342041,-0.06046387553215027,-0.918402373790741,0.970283031463623,-0.28896772861480713,0.11005569249391556,0.726901650428772
12.091044664382935,-0.05741206929087639,-0.9195467829704285,0.9744792580604553,-0.28896772861480713,0.10891126841306686,0.7288090586662292
12.111307382583618,-0.059319447726011276,-0.9206912517547607,0.9740977883338928,-0.28896772861480713,0.10700388997793198,0.7280460596084595
12.131401300430298,-0.05703059583902359,-0.9206912517547607,0.9744792580604553,-0.28896772861480713,0.10891126841306686,0.727664589881897
12.15147614479065,-0.05130846053361893,-0.9206912517547607,0.9740977883338928,-0.28858625888824463,0.10967422276735306,0.728427529335022
12.171569585800171,-0.049782559275627136,-0.9210727214813232,0.9740977883338928,-0.28896772861480713,0.11463340371847153,0.7288090586662292
12.191636800765991,-0.04634927958250046,-0.9210727214813232,0.9725719094276428,-0.28934919834136963,0.11768520623445511,0.727664589881897
12.211702823638916,-0.045204851776361465,-0.9210727214813232,0.9718089699745178,-0.28934919834136963,0.12149996310472488,0.7280460596084595
12.231799125671387,-0.043678950518369675,-0.9210727214813232,0.9718089699745178,-0.28934919834136963,0.12073700875043869,0.7272831201553345
12.251882314682007,-0.04329747334122658,-0.9206912517547607,0.9710460305213928,-0.28934919834136963,0.1199740618467331,0.7272831201553345
12.271966218948364,-0.04291599988937378,-0.9206912517547607,0.9706645011901855,-0.28934919834136963,0.1184481605887413,0.7272831201553345
12.292049646377563,-0.04253452271223068,-0.9206912517547607,0.970283031463623,-0.28934919834136963,0.11387044936418533,0.7272831201553345
12.312209844589233,-0.04139009863138199,-0.9206912517547607,0.9699015617370605,-0.28934919834136963,0.11234454810619354,0.7272831201553345
12.332201480865479,-0.040627144277095795,-0.9206912517547607,0.969520092010498,-0.28934919834136963,0.11272602528333664,0.7272831201553345
12.35234808921814,-0.038719769567251205,-0.9206912517547607,0.968757152557373,-0.28934919834136963,0.11348897218704224,0.726901650428772
12.372435092926025,-0.03643091395497322,-0.9203097820281982,0.9683756828308105,-0.28934919834136963,0.11615930497646332,0.7265201807022095
12.392493724822998,-0.03528648987412453,-0.9203097820281982,0.967994213104248,-0.28934919834136963,0.11654078215360641,0.726138710975647
12.412574529647827,-0.034142062067985535,-0.9203097820281982,0.9676127433776855,-0.28934919834136963,0.1180666834115982,0.7257572412490845
12.432705163955688,-0.03299763426184654,-0.9203097820281982,0.967231273651123,-0.28934919834136963,0.1192111074924469,0.7257572412490845
12.452764749526978,-0.03147173300385475,-0.9203097820281982,0.9664682745933533,-0.28934919834136963,0.1184481605887413,0.725375771522522
12.473336219787598,-0.02994582988321781,-0.9203097820281982,0.9657053351402283,-0.28934919834136963,0.11615930497646332,0.725375771522522
12.493455648422241,-0.02880140393972397,-0.9199283123016357,0.9649423956871033,-0.28934919834136963,0.11425192654132843,0.724612832069397
12.51353907585144,-0.02841992862522602,-0.9195467829704285,0.9645609259605408,-0.28934919834136963,0.11387044936418533,0.7238498330116272
12.533577919006348,-0.02727550081908703,-0.9195467829704285,0.9641794562339783,-0.28934919834136963,0.11425192654132843,0.7227054238319397
12.553670406341553,-0.024986648932099342,-0.9195467829704285,0.9634165167808533,-0.28934919834136963,0.11539635062217712,0.7223239541053772
12.573755979537964,-0.02231631986796856,-0.9195467829704285,0.9626535177230835,-0.28934919834136963,0.11577782779932022,0.7219424843788147
12.593797206878662,-0.021553369238972664,-0.9195467829704285,0.9618905782699585,-0.28934919834136963,0.11692225188016891,0.7215610146522522
12.613885164260864,-0.020027466118335724,-0.9195467829704285,0.961509108543396,-0.28934919834136963,0.11730372905731201,0.7200350761413574
12.633962154388428,-0.018501564860343933,-0.919165313243866,0.9603646993637085,-0.28934919834136963,0.11768520623445511,0.7200350761413574
12.65403151512146,-0.01773861236870289,-0.919165313243866,0.9603646993637085,-0.28973066806793213,0.11692225188016891,0.7192721366882324
12.674086093902588,-0.016594186425209045,-0.9187838435173035,0.9596017599105835,-0.28934919834136963,0.11615930497646332,0.7192721366882324
12.694205522537231,-0.015449759550392628,-0.9187838435173035,0.959220290184021,-0.28973066806793213,0.11539635062217712,0.7188906669616699
12.714259147644043,-0.01430533267557621,-0.9187838435173035,0.959220290184021,-0.28934919834136963,0.11501488089561462,0.7188906669616699
12.734312772750854,-0.013542382046580315,-0.9187838435173035,0.9584572911262512,-0.28934919834136963,0.11539635062217712,0.7181277275085449
12.754400253295898,-0.011635004542768002,-0.9187838435173035,0.9573128819465637,-0.28973066806793213,0.11501488089561462,0.7181277275085449
12.774475812911987,-0.009727626107633114,-0.9187838435173035,0.9573128819465637,-0.28973066806793213,0.11654078215360641,0.7173647880554199
12.794527530670166,-0.007438773289322853,-0.9187838435173035,0.9565499424934387,-0.28973066806793213,0.11730372905731201,0.7166017889976501
12.814615726470947,-0.006294346414506435,-0.918402373790741,0.9554055333137512,-0.28973066806793213,0.11692225188016891,0.7154573798179626
12.834685802459717,-0.005149920005351305,-0.918402373790741,0.9554055333137512,-0.28973066806793213,0.11615930497646332,0.7146944403648376
12.854735612869263,-0.004386968910694122,-0.918402373790741,0.9554055333137512,-0.28973066806793213,0.11615930497646332,0.7143129706382751
12.874828100204468,-0.0024795911740511656,-0.918402373790741,0.9546425342559814,-0.28973066806793213,0.11615930497646332,0.7135500311851501
12.894909858703613,-0.001716639962978661,-0.917639434337616,0.9538795948028564,-0.28973066806793213,0.11654078215360641,0.7127870321273804
12.915077924728394,-0.00019073777366429567,-0.917639434337616,0.953498125076294,-0.290112167596817,0.11539635062217712,0.7120240926742554
12.935200452804565,0.0009536888683214784,-0.917639434337616,0.9531166553497314,-0.290112167596817,0.11615930497646332,0.7112611532211304
12.955273866653442,0.002861066721379757,-0.917639434337616,0.9523537158966064,-0.290112167596817,0.11577782779932022,0.7108796834945679
12.975326299667358,0.005149920005351305,-0.9172579646110535,0.951972246170044,-0.290112167596817,0.11692225188016891,0.7108796834945679
12.995418548583984,0.007057297509163618,-0.9172579646110535,0.9508277773857117,-0.2904936373233795,0.11654078215360641,0.7104982137680054
13.015653610229492,0.00858320016413927,-0.9172579646110535,0.9496833682060242,-0.290875107049942,0.11615930497646332,0.7101167440414429
13.035692930221558,0.010109102353453636,-0.916876494884491,0.9493018984794617,-0.2912565767765045,0.11615930497646332,0.7097352743148804
13.055754899978638,0.011635004542768002,-0.916876494884491,0.9485389590263367,-0.291638046503067,0.11730372905731201,0.7089722752571106
13.076086044311523,0.013923857361078262,-0.9164950251579285,0.9477760195732117,-0.2920195460319519,0.11692225188016891,0.7078278660774231
13.096112251281738,0.01506828423589468,-0.9164950251579285,0.9473945498466492,-0.2920195460319519,0.11730372905731201,0.7074463963508606
13.116209983825684,0.016594186425209045,-0.9164950251579285,0.9470130205154419,-0.2920195460319519,0.11768520623445511,0.7070649266242981
13.136282682418823,0.01773861236870289,-0.9164950251579285,0.9454871416091919,-0.2920195460319519,0.11654078215360641,0.7070649266242981
13.156343460083008,0.01926451548933983,-0.9164950251579285,0.9451056718826294,-0.2924010157585144,0.11577782779932022,0.7063019871711731
13.17644715309143,0.021171892061829567,-0.9164950251579285,0.9447242021560669,-0.2924010157585144,0.11654078215360641,0.7059205174446106
13.19651198387146,0.02231631986796856,-0.9164950251579285,0.9435797929763794,-0.2924010157585144,0.11577782779932022,0.7047760486602783
13.21660852432251,0.02384222112596035,-0.916113555431366,0.9431982636451721,-0.2924010157585144,0.11501488089561462,0.7032501697540283
13.236672639846802,0.02689402550458908,-0.9157320261001587,0.9424353241920471,-0.2927824854850769,0.11501488089561462,0.7028687000274658
13.256739854812622,0.02880140393972397,-0.9153505563735962,0.9416723847389221,-0.2927824854850769,0.11654078215360641,0.7024872303009033
13.2767972946167,0.031090257689356804,-0.9153505563735962,0.9412909150123596,-0.2927824854850769,0.1180666834115982,0.7017242908477783
13.296907901763916,0.03299763426184654,-0.9153505563735962,0.9409094452857971,-0.2927824854850769,0.1192111074924469,0.7009612917900085
13.316958665847778,0.034142062067985535,-0.9153505563735962,0.9401465058326721,-0.2927824854850769,0.1184481605887413,0.7001983523368835
13.337033987045288,0.035667963325977325,-0.9153505563735962,0.9390020370483398,-0.2931639552116394,0.11692225188016891,0.699816882610321
13.357161045074463,0.03681239113211632,-0.9149690866470337,0.9386205673217773,-0.2927824854850769,0.11615930497646332,0.6994354128837585
13.377254247665405,0.039101243019104004,-0.9145876169204712,0.9374761581420898,-0.2931639552116394,0.11577782779932022,0.6994354128837585
13.39730715751648,0.04100862145423889,-0.9145876169204712,0.9370946884155273,-0.2931639552116394,0.11692225188016891,0.699053943157196
13.417485475540161,0.043678950518369675,-0.9145876169204712,0.9363317489624023,-0.2931639552116394,0.11692225188016891,0.698291003704071
13.437613725662231,0.04558632895350456,-0.9142061471939087,0.9351872801780701,-0.2931639552116394,0.11768520623445511,0.697528064250946
13.457669734954834,0.04749370738863945,-0.9142061471939087,0.9344243407249451,-0.2931639552116394,0.11768520623445511,0.6960021257400513
13.478103637695312,0.050164032727479935,-0.9138246774673462,0.9336614012718201,-0.2935454249382019,0.11692225188016891,0.6956206560134888
13.498220920562744,0.05207141116261482,-0.9134432077407837,0.9325169920921326,-0.2935454249382019,0.1184481605887413,0.6952391862869263
13.518283128738403,0.05397878959774971,-0.9134432077407837,0.9317540526390076,-0.2939268946647644,0.1184481605887413,0.6940947771072388
13.53834319114685,0.05664911866188049,-0.9130617380142212,0.9309910535812378,-0.2939268946647644,0.1192111074924469,0.6929503083229065
13.558473825454712,0.059319447726011276,-0.9126802682876587,0.9298466444015503,-0.2939268946647644,0.11692225188016891,0.692568838596344
13.5785391330719,0.05970092490315437,-0.9126802682876587,0.9290837049484253,-0.2946898639202118,0.11654078215360641,0.6921873688697815
13.598593950271606,0.061226826161146164,-0.9126802682876587,0.9283207654953003,-0.2954528033733368,0.11654078215360641,0.691805899143219
13.61868953704834,0.06351567804813385,-0.9126802682876587,0.9275577664375305,-0.2962157726287842,0.11692225188016891,0.691042959690094
13.63875961303711,0.06656748056411743,-0.9126802682876587,0.926413357257843,-0.2962157726287842,0.11615930497646332,0.690280020236969
13.65881896018982,0.06961929053068161,-0.9122987985610962,0.9260318875312805,-0.2962157726287842,0.1188296303153038,0.689517080783844
13.67890477180481,0.07267109304666519,-0.9122987985610962,0.924887478351593,-0.2962157726287842,0.1188296303153038,0.6883726119995117
13.699038743972778,0.07457847148180008,-0.9119172692298889,0.9233615398406982,-0.2965972423553467,0.11730372905731201,0.6876096725463867
13.719062805175781,0.07724879682064056,-0.9115357995033264,0.9225986003875732,-0.2965972423553467,0.11768520623445511,0.6864652633666992
13.739155292510986,0.08068207651376724,-0.9107728600502014,0.9210727214813232,-0.2965972423553467,0.11692225188016891,0.6849393248558044
13.75925326347351,0.08487831056118011,-0.9103913903236389,0.9195467829704285,-0.2965972423553467,0.1184481605887413,0.6845578551292419
13.779286861419678,0.08907453715801239,-0.9103913903236389,0.918402373790741,-0.2965972423553467,0.1192111074924469,0.6841763854026794
13.79939889907837,0.09327077120542526,-0.9100099205970764,0.9164950251579285,-0.2965972423553467,0.11959258466959,0.6834134459495544
13.819489479064941,0.09632257372140884,-0.9096284508705139,0.9145876169204712,-0.2969787120819092,0.11692225188016891,0.6826505064964294
13.839545726776123,0.10013733059167862,-0.9092469811439514,0.9126802682876587,-0.2973601818084717,0.11577782779932022,0.6811245679855347
13.859656810760498,0.1035706102848053,-0.9084840416908264,0.9115357995033264,-0.2973601818084717,0.11730372905731201,0.6803616285324097
13.87972903251648,0.10852979123592377,-0.9084840416908264,0.9096284508705139,-0.2977416515350342,0.11692225188016891,0.6799801588058472
13.899795770645142,0.11348897218704224,-0.9081025123596191,0.9077210426330566,-0.29812315106391907,0.1180666834115982,0.6788357496261597
13.91985821723938,0.1184481605887413,-0.9073395729064941,0.9058136940002441,-0.29850462079048157,0.1180666834115982,0.6769283413887024
13.939955949783325,0.12188144028186798,-0.9069581031799316,0.9035248160362244,-0.29964902997016907,0.11768520623445511,0.6761654019355774
13.960120677947998,0.12455176562070847,-0.9069581031799316,0.9019989371299744,-0.30003052949905396,0.1180666834115982,0.6750209927558899
13.980178356170654,0.12760357558727264,-0.9065766334533691,0.9004730582237244,-0.30041199922561646,0.11730372905731201,0.6734950542449951
14.000229835510254,0.13179980218410492,-0.9058136940002441,0.8974212408065796,-0.30041199922561646,0.11692225188016891,0.6731135845184326
14.02031922340393,0.1371404528617859,-0.9054322242736816,0.8958953022956848,-0.30041199922561646,0.11692225188016891,0.6727321147918701
14.0404531955719,0.14248111844062805,-0.9046692848205566,0.8932250142097473,-0.30079346895217896,0.11692225188016891,0.6715877056121826
14.060538053512573,0.14705882966518402,-0.9035248160362244,0.88979172706604,-0.30117493867874146,0.11577782779932022,0.6696802973747253
14.080610036849976,0.1508735716342926,-0.9027618765830994,0.8875028491020203,-0.30155640840530396,0.11577782779932022,0.6685358881950378
14.10073208808899,0.15545128285884857,-0.9023804068565369,0.8852140307426453,-0.30231937766075134,0.11615930497646332,0.6670100092887878
14.120816946029663,0.16041046380996704,-0.9016174674034119,0.881780743598938,-0.30384528636932373,0.11577782779932022,0.6658655405044556
14.140873908996582,0.1657511293888092,-0.9008545279502869,0.8791103959083557,-0.30422675609588623,0.11615930497646332,0.6651026010513306
14.161177158355713,0.17261768877506256,-0.8997100591659546,0.8749141693115234,-0.30422675609588623,0.11654078215360641,0.6639581918716431
14.181315183639526,0.17872129380702972,-0.8978027105331421,0.8691920638084412,-0.30537116527557373,0.11463340371847153,0.6616693139076233
14.201435089111328,0.1844434291124344,-0.8966583013534546,0.8646143078804016,-0.3061341345310211,0.11234454810619354,0.6597619652748108
14.22145128250122,0.19207294285297394,-0.8947508931159973,0.8573662638664246,-0.3076600432395935,0.10814831405878067,0.656710147857666
14.24153470993042,0.20275425910949707,-0.8901731967926025,0.8463035225868225,-0.308041512966156,0.10624094307422638,0.6540398001670837
14.261610984802246,0.2130540907382965,-0.884069561958313,0.8360036611557007,-0.3084229826927185,0.10929274559020996,0.6525139212608337
14.281661033630371,0.22259098291397095,-0.8768215179443359,0.8230335116386414,-0.3091859221458435,0.11272602528333664,0.6490806341171265
14.301748991012573,0.2302204966545105,-0.8669031858444214,0.8081559538841248,-0.3110933005809784,0.11768520623445511,0.6460288166999817
14.321828842163086,0.23594263195991516,-0.8573662638664246,0.7963302135467529,-0.3126192092895508,0.12111848592758179,0.6414511203765869
14.34189748764038,0.23975738883018494,-0.8470664620399475,0.7799267768859863,-0.31376364827156067,0.1203555315732956,0.6387808322906494
14.361980438232422,0.24204623699188232,-0.8348592519760132,0.7631418108940125,-0.31528952717781067,0.12149996310472488,0.6364919543266296
14.382068395614624,0.2450980395078659,-0.8211261034011841,0.7448310256004333,-0.31567102670669556,0.11577782779932022,0.6330586671829224
14.40213656425476,0.248531311750412,-0.8073930144309998,0.7265201807022095,-0.31605249643325806,0.11234454810619354,0.6292439103126526
14.422593593597412,0.25196459889411926,-0.7913710474967957,0.7059205174446106,-0.31757840514183044,0.11043716967105865,0.6242847442626953
14.442682981491089,0.25387197732925415,-0.776493489742279,0.6860837936401367,-0.31872281432151794,0.10776684433221817,0.619325578212738
14.462774515151978,0.25616082549095154,-0.7616159319877625,0.6647211313247681,-0.31986725330352783,0.10662241280078888,0.6139848828315735
14.482834815979004,0.2576867341995239,-0.7467383742332458,0.6456473469734192,-0.3229190409183502,0.10776684433221817,0.6097886562347412
