liuyurong129/humanoid-gym/humanoid/data/actual_q_20250522-041410.csv
timestamp,joint_1,joint_2,joint_3,joint_4,joint_5,joint_6
0.00028967857360839844,0.000572213320992887,0.16269932687282562,-0.08220797777175903,-0.00019073777366429567,0.00019073777366429567,-0.00019073777366429567
0.020444393157958984,0.000572213320992887,0.14019227027893066,-0.0722896158695221,-0.00019073777366429567,0.00019073777366429567,-0.00019073777366429567
0.040463924407958984,-0.00019073777366429567,0.11959258466959,-0.06313420087099075,-0.00019073777366429567,0.002861066721379757,-0.00019073777366429567
0.06054353713989258,0.00019073777366429567,0.10624094307422638,-0.05703059583902359,-0.00019073777366429567,0.000572213320992887,-0.00019073777366429567
0.08062887191772461,0.00019073777366429567,0.09517814964056015,-0.050164032727479935,0.00019073777366429567,0.000572213320992887,-0.00019073777366429567
0.10068106651306152,0.00019073777366429567,0.08525978773832321,-0.04406042397022247,-0.00019073777366429567,0.000572213320992887,-0.00019073777366429567
0.12077498435974121,0.000572213320992887,0.07915617525577545,-0.038719769567251205,0.00019073777366429567,0.000572213320992887,-0.00019073777366429567
0.14082908630371094,0.0009536888683214784,0.07686731964349747,-0.03757534176111221,0.00019073777366429567,0.00019073777366429567,-0.00019073777366429567
0.1609179973602295,0.001716639962978661,0.07457847148180008,-0.037193864583969116,0.000572213320992887,-0.00019073777366429567,0.00019073777366429567
0.18104243278503418,0.0020981156267225742,0.07305257022380829,-0.037193864583969116,0.000572213320992887,-0.00019073777366429567,-0.00019073777366429567
0.20113468170166016,0.002861066721379757,0.07038223743438721,-0.037193864583969116,0.0009536888683214784,0.00019073777366429567,0.00019073777366429567
0.2212831974029541,0.002861066721379757,0.06885633617639542,-0.03643091395497322,0.001716639962978661,0.00019073777366429567,0.00019073777366429567
0.24137449264526367,0.0032425422687083483,0.06809338182210922,-0.03528648987412453,0.002861066721379757,0.00019073777366429567,0.00019073777366429567
0.26149797439575195,0.004005493130534887,0.06694895774126053,-0.03376058489084244,0.0036240178160369396,0.00019073777366429567,0.000572213320992887
0.28160738945007324,0.00476844422519207,0.06618601083755493,-0.03337911143898964,0.004386968910694122,0.00019073777366429567,0.0009536888683214784
0.301699161529541,0.005149920005351305,0.06466010212898254,-0.03299763426184654,0.005149920005351305,0.00019073777366429567,0.0013351644156500697
0.32176685333251953,0.005149920005351305,0.06427863240242004,-0.032616160809993744,0.00667582219466567,0.00019073777366429567,0.0013351644156500697
0.3425111770629883,0.005531395319849253,0.06275273114442825,-0.03185320645570755,0.007438773289322853,0.00019073777366429567,0.001716639962978661
0.3627352714538574,0.007057297509163618,0.06160829961299896,-0.031090257689356804,0.0078202486038208,0.00019073777366429567,0.0020981156267225742
0.3836057186126709,0.007438773289322853,0.06046387553215027,-0.03032730519771576,0.009346150793135166,0.00019073777366429567,0.002861066721379757
0.40370965003967285,0.007438773289322853,0.05893797054886818,-0.02880140393972397,0.010490577667951584,-0.00019073777366429567,0.0036240178160369396
0.42377376556396484,0.0078202486038208,0.058175019919872284,-0.02841992862522602,0.01125352829694748,0.00019073777366429567,0.004386968910694122
0.44391751289367676,0.008201723918318748,0.05664911866188049,-0.027656977996230125,0.01201647985726595,0.00019073777366429567,0.00476844422519207
0.46402502059936523,0.00858320016413927,0.0555046908557415,-0.02727550081908703,0.013542382046580315,-0.00019073777366429567,0.00476844422519207
0.4841163158416748,0.008964675478637218,0.054741740226745605,-0.026512550190091133,0.014686808921396732,-0.00019073777366429567,0.005149920005351305
0.504218578338623,0.009346150793135166,0.05397878959774971,-0.025749599561095238,0.01583123579621315,-0.00019073777366429567,0.005149920005351305
0.5245206356048584,0.009727626107633114,0.05359731614589691,-0.024605173617601395,0.016975661739706993,-0.00019073777366429567,0.005531395319849253
0.5446178913116455,0.010109102353453636,0.05207141116261482,-0.023460745811462402,0.01888304017484188,-0.00019073777366429567,0.005912871100008488
0.5646638870239258,0.010490577667951584,0.05054550990462303,-0.02231631986796856,0.019645990803837776,-0.00019073777366429567,0.007057297509163618
0.5847527980804443,0.010872052982449532,0.04901960864663124,-0.021553369238972664,0.02040894143283367,-0.00019073777366429567,0.008201723918318748
0.6048264503479004,0.01201647985726595,0.04749370738863945,-0.02040894143283367,0.02231631986796856,-0.00019073777366429567,0.00858320016413927
0.6249220371246338,0.012397955171763897,0.04558632895350456,-0.019645990803837776,0.023460745811462402,-0.00019073777366429567,0.009346150793135166
0.6449902057647705,0.012779430486261845,0.04406042397022247,-0.01888304017484188,0.024605173617601395,-0.000572213320992887,0.010109102353453636
0.6650369167327881,0.013542382046580315,0.04253452271223068,-0.018501564860343933,0.025749599561095238,-0.00019073777366429567,0.01125352829694748
0.6851348876953125,0.01430533267557621,0.04100862145423889,-0.01773861236870289,0.026512550190091133,-0.000572213320992887,0.01201647985726595
0.7052102088928223,0.01430533267557621,0.0398641936480999,-0.016975661739706993,0.02689402550458908,-0.00019073777366429567,0.01201647985726595
0.7252969741821289,0.01430533267557621,0.03795681521296501,-0.016594186425209045,0.027656977996230125,-0.00019073777366429567,0.012397955171763897
0.7453792095184326,0.014686808921396732,0.037193864583969116,-0.01583123579621315,0.029182879254221916,-0.000572213320992887,0.012397955171763897
0.7654926776885986,0.01506828423589468,0.03681239113211632,-0.014686808921396732,0.03032730519771576,-0.000572213320992887,0.012779430486261845
0.785646915435791,0.01506828423589468,0.03528648987412453,-0.013542382046580315,0.031090257689356804,-0.00019073777366429567,0.012779430486261845
0.8057351112365723,0.015449759550392628,0.03452353551983833,-0.012397955171763897,0.03223468363285065,-0.000572213320992887,0.013160906732082367
0.8257362842559814,0.01506828423589468,0.034142062067985535,-0.01201647985726595,0.03337911143898964,-0.000572213320992887,0.013542382046580315
0.8458268642425537,0.015449759550392628,0.03299763426184654,-0.01125352829694748,0.034142062067985535,-0.00019073777366429567,0.013923857361078262
0.8658978939056396,0.016212711110711098,0.03147173300385475,-0.010490577667951584,0.03452353551983833,-0.000572213320992887,0.014686808921396732
0.8860893249511719,0.016975661739706993,0.029564354568719864,-0.010109102353453636,0.035667963325977325,-0.000572213320992887,0.015449759550392628
0.9061930179595947,0.01735713705420494,0.02880140393972397,-0.009346150793135166,0.03681239113211632,-0.000572213320992887,0.015449759550392628
0.9263279438018799,0.01735713705420494,0.02689402550458908,-0.008964675478637218,0.03757534176111221,-0.000572213320992887,0.016212711110711098
0.9463982582092285,0.01735713705420494,0.02536812424659729,-0.0078202486038208,0.03833829239010811,-0.00019073777366429567,0.016212711110711098
0.9666459560394287,0.01735713705420494,0.024605173617601395,-0.007438773289322853,0.0394827201962471,-0.000572213320992887,0.016975661739706993
0.9868013858795166,0.01773861236870289,0.022697795182466507,-0.006294346414506435,0.04100862145423889,-0.000572213320992887,0.01735713705420494
1.0068600177764893,0.018501564860343933,0.021553369238972664,-0.005912871100008488,0.04139009863138199,-0.000572213320992887,0.018501564860343933
1.02699613571167,0.01926451548933983,0.020027466118335724,-0.005149920005351305,0.04253452271223068,-0.0009536888683214784,0.01926451548933983
1.0472493171691895,0.019645990803837776,0.01888304017484188,-0.004005493130534887,0.04444190114736557,-0.000572213320992887,0.01926451548933983
1.0672833919525146,0.019645990803837776,0.01735713705420494,-0.0032425422687083483,0.04558632895350456,-0.00019073777366429567,0.019645990803837776
1.087369441986084,0.02040894143283367,0.015449759550392628,-0.0020981156267225742,0.046730753034353256,-0.00019073777366429567,0.020027466118335724
1.1077311038970947,0.021171892061829567,0.013923857361078262,-0.0013351644156500697,0.048638131469488144,-0.000572213320992887,0.02040894143283367
1.127880334854126,0.021553369238972664,0.01201647985726595,0.00019073777366429567,0.04940108209848404,-0.000572213320992887,0.02079041674733162
1.1480472087860107,0.021171892061829567,0.01125352829694748,0.0009536888683214784,0.050164032727479935,-0.000572213320992887,0.021553369238972664
1.168163537979126,0.021553369238972664,0.009346150793135166,0.0024795911740511656,0.05207141116261482,-0.000572213320992887,0.02193484455347061
1.1881003379821777,0.021553369238972664,0.0078202486038208,0.0032425422687083483,0.05283436179161072,-0.000572213320992887,0.022697795182466507
1.2084674835205078,0.021553369238972664,0.005912871100008488,0.004386968910694122,0.05359731614589691,-0.000572213320992887,0.023079270496964455
1.2285988330841064,0.02193484455347061,0.004005493130534887,0.005149920005351305,0.0551232174038887,-0.000572213320992887,0.02384222112596035
1.2487132549285889,0.022697795182466507,0.002861066721379757,0.005912871100008488,0.056267641484737396,-0.0009536888683214784,0.024223696440458298
1.2687575817108154,0.022697795182466507,0.0013351644156500697,0.00667582219466567,0.05664911866188049,-0.0009536888683214784,0.024986648932099342
1.2889142036437988,0.023079270496964455,-0.000572213320992887,0.007438773289322853,0.057793546468019485,-0.000572213320992887,0.026131074875593185
1.308990240097046,0.023460745811462402,-0.0013351644156500697,0.0078202486038208,0.059319447726011276,-0.000572213320992887,0.02727550081908703
1.3291301727294922,0.02384222112596035,-0.002861066721379757,0.008964675478637218,0.06008239835500717,-0.0009536888683214784,0.027656977996230125
1.3492112159729004,0.024223696440458298,-0.004386968910694122,0.009346150793135166,0.06084534898400307,-0.000572213320992887,0.028038453310728073
1.369335412979126,0.024605173617601395,-0.005912871100008488,0.010109102353453636,0.06160829961299896,-0.000572213320992887,0.02841992862522602
1.3894455432891846,0.024605173617601395,-0.007438773289322853,0.010872052982449532,0.06313420087099075,-0.000572213320992887,0.02880140393972397
1.4095633029937744,0.024605173617601395,-0.00858320016413927,0.01125352829694748,0.06389715522527695,-0.000572213320992887,0.029564354568719864
1.4296386241912842,0.024986648932099342,-0.01125352829694748,0.012779430486261845,0.06466010212898254,-0.000572213320992887,0.03032730519771576
1.4497671127319336,0.02536812424659729,-0.012397955171763897,0.013160906732082367,0.06618601083755493,-0.000572213320992887,0.030708782374858856
1.469862937927246,0.026131074875593185,-0.013923857361078262,0.014686808921396732,0.06771191209554672,-0.0009536888683214784,0.031090257689356804
1.4899394512176514,0.026512550190091133,-0.016212711110711098,0.015449759550392628,0.06847485899925232,-0.0009536888683214784,0.031090257689356804
1.5100185871124268,0.026512550190091133,-0.018120087683200836,0.016594186425209045,0.07000076025724411,-0.000572213320992887,0.03147173300385475
1.5301182270050049,0.02689402550458908,-0.02079041674733162,0.01773861236870289,0.0715266615152359,-0.00019073777366429567,0.03185320645570755
1.5501928329467773,0.02689402550458908,-0.022697795182466507,0.01926451548933983,0.071908138692379,-0.000572213320992887,0.03223468363285065
1.5712170600891113,0.02689402550458908,-0.024223696440458298,0.020027466118335724,0.07305257022380829,-0.000572213320992887,0.03299763426184654
1.5913941860198975,0.027656977996230125,-0.02689402550458908,0.02193484455347061,0.07495994865894318,-0.0013351644156500697,0.03452353551983833
1.6114413738250732,0.02880140393972397,-0.029564354568719864,0.022697795182466507,0.07610437273979187,-0.0013351644156500697,0.035667963325977325
1.6315548419952393,0.02880140393972397,-0.03223468363285065,0.023460745811462402,0.07763027399778366,-0.0013351644156500697,0.03681239113211632
1.6516284942626953,0.02880140393972397,-0.032616160809993744,0.024605173617601395,0.07877469807863235,-0.0009536888683214784,0.03795681521296501
1.6717166900634766,0.02880140393972397,-0.034142062067985535,0.02536812424659729,0.07915617525577545,-0.000572213320992887,0.03795681521296501
1.6917989253997803,0.029182879254221916,-0.03528648987412453,0.026512550190091133,0.08030059933662415,-0.0009536888683214784,0.03833829239010811
1.711850643157959,0.029182879254221916,-0.03681239113211632,0.02727550081908703,0.08182650804519653,-0.0013351644156500697,0.03833829239010811
1.7319583892822266,0.029564354568719864,-0.038719769567251205,0.02880140393972397,0.08297093212604523,-0.001716639962978661,0.039101243019104004
1.7520241737365723,0.029564354568719864,-0.040245670825242996,0.02994582988321781,0.08411535620689392,-0.0013351644156500697,0.039101243019104004
1.7724308967590332,0.02994582988321781,-0.04100862145423889,0.030708782374858856,0.08564125746488571,-0.0013351644156500697,0.0394827201962471
1.7926139831542969,0.02994582988321781,-0.04291599988937378,0.03223468363285065,0.0864042118191719,-0.0009536888683214784,0.0398641936480999
1.8127975463867188,0.02994582988321781,-0.045204851776361465,0.03299763426184654,0.086785688996315,-0.0009536888683214784,0.040627144277095795
1.8328959941864014,0.030708782374858856,-0.04711223021149635,0.034142062067985535,0.0875486359000206,-0.0013351644156500697,0.04139009863138199
1.852961778640747,0.03147173300385475,-0.04787518084049225,0.03490501269698143,0.08907453715801239,-0.0013351644156500697,0.04177157208323479
1.8730697631835938,0.03185320645570755,-0.04940108209848404,0.03643091395497322,0.09021896868944168,-0.0013351644156500697,0.042153049260377884
1.8931512832641602,0.03185320645570755,-0.05130846053361893,0.03757534176111221,0.09098191559314728,-0.0009536888683214784,0.04253452271223068
1.9132485389709473,0.03185320645570755,-0.05397878959774971,0.03833829239010811,0.09250781685113907,-0.000572213320992887,0.04291599988937378
1.9333646297454834,0.03185320645570755,-0.0555046908557415,0.0394827201962471,0.09403372555971146,-0.0009536888683214784,0.043678950518369675
1.9534835815429688,0.03185320645570755,-0.05664911866188049,0.040627144277095795,0.09517814964056015,-0.0009536888683214784,0.04482337832450867
1.9735665321350098,0.03223468363285065,-0.059319447726011276,0.042153049260377884,0.09784847497940063,-0.0009536888683214784,0.04558632895350456
1.9936096668243408,0.032616160809993744,-0.06237125024199486,0.04291599988937378,0.09937438368797302,-0.0013351644156500697,0.04634927958250046
2.013701915740967,0.03337911143898964,-0.06389715522527695,0.04444190114736557,0.10128175467252731,-0.0013351644156500697,0.04634927958250046
2.033769369125366,0.034142062067985535,-0.06504157930612564,0.04558632895350456,0.10204470902681351,-0.0013351644156500697,0.046730753034353256
2.053903102874756,0.03376058489084244,-0.06694895774126053,0.046730753034353256,0.1035706102848053,-0.0009536888683214784,0.04711223021149635
2.0739643573760986,0.03376058489084244,-0.06961929053068161,0.04787518084049225,0.10471503436565399,-0.000572213320992887,0.04749370738863945
2.094040632247925,0.034142062067985535,-0.071908138692379,0.04940108209848404,0.10624094307422638,-0.000572213320992887,0.048638131469488144
2.114168643951416,0.034142062067985535,-0.07343403995037079,0.05092698708176613,0.10852979123592377,-0.0013351644156500697,0.04940108209848404
2.1346395015716553,0.03452353551983833,-0.07534141838550568,0.05245288833975792,0.10967422276735306,-0.001716639962978661,0.05054550990462303
2.154736280441284,0.035667963325977325,-0.07839322835206985,0.05436026677489281,0.11196307092905045,-0.001716639962978661,0.05092698708176613
2.1747984886169434,0.03604944050312042,-0.08144503086805344,0.0555046908557415,0.11272602528333664,-0.0013351644156500697,0.05283436179161072
2.194896936416626,0.03643091395497322,-0.08449683338403702,0.05741206929087639,0.11425192654132843,-0.000572213320992887,0.05359731614589691
2.2150139808654785,0.03643091395497322,-0.08525978773832321,0.058175019919872284,0.11539635062217712,-0.00019073777366429567,0.05397878959774971
2.2352185249328613,0.03681239113211632,-0.0875486359000206,0.059319447726011276,0.11654078215360641,-0.000572213320992887,0.05436026677489281
2.2553725242614746,0.037193864583969116,-0.09098191559314728,0.06084534898400307,0.11730372905731201,-0.000572213320992887,0.0551232174038887
2.2756567001342773,0.037193864583969116,-0.09479667246341705,0.06160829961299896,0.11959258466959,-0.0009536888683214784,0.056267641484737396
2.2957496643066406,0.03757534176111221,-0.09708552807569504,0.06313420087099075,0.12073700875043869,-0.0009536888683214784,0.05703059583902359
2.3158605098724365,0.03795681521296501,-0.09822995215654373,0.06427863240242004,0.12226291000843048,-0.0013351644156500697,0.05703059583902359
2.3359241485595703,0.03833829239010811,-0.10051880776882172,0.06618601083755493,0.12378881871700287,-0.000572213320992887,0.05741206929087639
2.3560292720794678,0.03833829239010811,-0.1031891331076622,0.06771191209554672,0.12493324279785156,-0.000572213320992887,0.058175019919872284
2.3761351108551025,0.038719769567251205,-0.10585946589708328,0.06923781335353851,0.12722209095954895,-0.00019073777366429567,0.05855649709701538
2.3962066173553467,0.039101243019104004,-0.10700388997793198,0.0707637146115303,0.12836651504039764,-0.000572213320992887,0.05970092490315437
2.4163267612457275,0.039101243019104004,-0.10852979123592377,0.0715266615152359,0.12989242374897003,-0.000572213320992887,0.06084534898400307
2.436539649963379,0.0394827201962471,-0.11081864684820175,0.07267109304666519,0.13103684782981873,-0.000572213320992887,0.06160829961299896
2.456793785095215,0.0394827201962471,-0.11348897218704224,0.07305257022380829,0.13141833245754242,-0.00019073777366429567,0.06237125024199486
2.476949453353882,0.0398641936480999,-0.11539635062217712,0.07457847148180008,0.13179980218410492,0.00019073777366429567,0.06351567804813385
2.4970059394836426,0.040245670825242996,-0.11615930497646332,0.07495994865894318,0.1329442262649536,-0.00019073777366429567,0.06427863240242004
2.517075538635254,0.040245670825242996,-0.11768520623445511,0.07572289556264877,0.134470134973526,-0.00019073777366429567,0.06427863240242004
2.537282943725586,0.040627144277095795,-0.12073700875043869,0.07686731964349747,0.135233074426651,0.00019073777366429567,0.06466010212898254
2.5573513507843018,0.04100862145423889,-0.12340734153985977,0.07801175117492676,0.1371404528617859,-0.00019073777366429567,0.06466010212898254
2.577425003051758,0.04139009863138199,-0.12531471252441406,0.07991912961006165,0.13828489184379578,0.00019073777366429567,0.06504157930612564
2.5979294776916504,0.04139009863138199,-0.12607766687870026,0.08068207651376724,0.13904783129692078,0.00019073777366429567,0.06542305648326874
2.618016481399536,0.04177157208323479,-0.12912946939468384,0.08297093212604523,0.13981078565120697,0.00019073777366429567,0.06580453366041183
2.6382014751434326,0.042153049260377884,-0.13218127191066742,0.08487831056118011,0.14171816408634186,0.00019073777366429567,0.06656748056411743
2.658298969268799,0.04329747334122658,-0.1359960287809372,0.0883115902543068,0.14286258816719055,0.000572213320992887,0.06847485899925232
2.6783599853515625,0.043678950518369675,-0.1371404528617859,0.08983749151229858,0.14553292095661163,0.000572213320992887,0.06923781335353851
2.6984260082244873,0.04406042397022247,-0.14019227027893066,0.09136339277029037,0.14705882966518402,0.0009536888683214784,0.07000076025724411
2.718496084213257,0.04406042397022247,-0.14324407279491425,0.09288929402828217,0.1489662081003189,0.0020981156267225742,0.0715266615152359
2.7385551929473877,0.04406042397022247,-0.14705882966518402,0.09365224838256836,0.1504921019077301,0.001716639962978661,0.071908138692379
2.758665084838867,0.04444190114736557,-0.1501106321811676,0.09517814964056015,0.1520180106163025,0.001716639962978661,0.0722896158695221
2.778751850128174,0.04444190114736557,-0.1512550562620163,0.09708552807569504,0.15354390442371368,0.0013351644156500697,0.0722896158695221
2.7988181114196777,0.04444190114736557,-0.1527809500694275,0.09822995215654373,0.15468832850456238,0.0009536888683214784,0.07305257022380829
2.818897247314453,0.045204851776361465,-0.15583276748657227,0.10051880776882172,0.15659570693969727,0.0009536888683214784,0.07305257022380829
2.839045286178589,0.04596780240535736,-0.15888457000255585,0.10166323184967041,0.15735866129398346,0.001716639962978661,0.07381551712751389
2.859177350997925,0.04634927958250046,-0.16117341816425323,0.1031891331076622,0.15850308537483215,0.001716639962978661,0.07495994865894318
2.8793320655822754,0.04634927958250046,-0.16193637251853943,0.10433356463909149,0.15964750945568085,0.0024795911740511656,0.07534141838550568
2.899445056915283,0.04634927958250046,-0.16346226632595062,0.10547798871994019,0.16117341816425323,0.0024795911740511656,0.07572289556264877
2.919532537460327,0.046730753034353256,-0.1665140837430954,0.10700388997793198,0.16231784224510193,0.0024795911740511656,0.07610437273979187
2.9396634101867676,0.046730753034353256,-0.16880293190479279,0.10776684433221817,0.16422522068023682,0.0024795911740511656,0.07648584991693497
2.9597513675689697,0.04749370738863945,-0.16956588625907898,0.10967422276735306,0.1653696447610855,0.001716639962978661,0.07763027399778366
2.9799797534942627,0.048638131469488144,-0.17147326469421387,0.11081864684820175,0.1665140837430954,0.001716639962978661,0.07953765243291855
3.000056743621826,0.04901960864663124,-0.17376211285591125,0.11310750246047974,0.16880293190479279,0.0024795911740511656,0.08030059933662415
3.0201218128204346,0.048638131469488144,-0.17605096101760864,0.11463340371847153,0.16956588625907898,0.0032425422687083483,0.08068207651376724
3.040208101272583,0.048638131469488144,-0.17757686972618103,0.11615930497646332,0.17147326469421387,0.0036240178160369396,0.08068207651376724
3.06040096282959,0.04901960864663124,-0.17833982408046722,0.1180666834115982,0.17299915850162506,0.0032425422687083483,0.08182650804519653
3.080437183380127,0.050164032727479935,-0.17910276353359222,0.1192111074924469,0.17490653693675995,0.002861066721379757,0.08297093212604523
3.1005141735076904,0.05092698708176613,-0.182154580950737,0.12111848592758179,0.17643244564533234,0.0024795911740511656,0.08335240930318832
3.1205854415893555,0.05092698708176613,-0.1840619444847107,0.12264438718557358,0.17795833945274353,0.002861066721379757,0.08373387902975082
3.1406662464141846,0.05092698708176613,-0.18711376190185547,0.12417028844356537,0.17986571788787842,0.004386968910694122,0.08411535620689392
3.160738229751587,0.05130846053361893,-0.18825818598270416,0.12607766687870026,0.1813916265964508,0.004386968910694122,0.08449683338403702
3.180795192718506,0.051689937710762024,-0.19054703414440155,0.12760357558727264,0.182917520403862,0.004005493130534887,0.08564125746488571
3.200899124145508,0.05245288833975792,-0.19245441257953644,0.12989242374897003,0.1836804747581482,0.0036240178160369396,0.0875486359000206
3.220966339111328,0.05245288833975792,-0.19474326074123383,0.13141833245754242,0.1848248988389969,0.0036240178160369396,0.0883115902543068
3.241060733795166,0.05283436179161072,-0.1966506391763687,0.1333257108926773,0.18711376190185547,0.0036240178160369396,0.08869306743144989
3.2612106800079346,0.05283436179161072,-0.1977950781583786,0.135233074426651,0.18825818598270416,0.004005493130534887,0.09060044586658478
3.281512498855591,0.053215838968753815,-0.1989395022392273,0.1359960287809372,0.19016556441783905,0.00476844422519207,0.09098191559314728
3.3016042709350586,0.05397878959774971,-0.200083926320076,0.13790340721607208,0.19130998849868774,0.005149920005351305,0.09136339277029037
3.3216476440429688,0.05397878959774971,-0.20237277448177338,0.13904783129692078,0.19169145822525024,0.00476844422519207,0.09174486994743347
3.342132806777954,0.05436026677489281,-0.20428015291690826,0.14057374000549316,0.19283588230609894,0.00476844422519207,0.09212634712457657
3.3622279167175293,0.054741740226745605,-0.20542457699775696,0.14248111844062805,0.19474326074123383,0.004386968910694122,0.09250781685113907
3.382296323776245,0.0558861680328846,-0.20733195543289185,0.14362554252147675,0.1966506391763687,0.00476844422519207,0.09403372555971146
3.402379035949707,0.05664911866188049,-0.20923933386802673,0.14591439068317413,0.1989395022392273,0.005531395319849253,0.09517814964056015
3.4224748611450195,0.05741206929087639,-0.21114671230316162,0.14782176911830902,0.200083926320076,0.005531395319849253,0.09594109654426575
3.4426989555358887,0.058175019919872284,-0.2130540907382965,0.1489662081003189,0.20199130475521088,0.006294346414506435,0.09670405089855194
3.46279239654541,0.05855649709701538,-0.2145799994468689,0.1512550562620163,0.20351719856262207,0.007057297509163618,0.09822995215654373
3.482853412628174,0.05855649709701538,-0.2157244235277176,0.152399480342865,0.20580606162548065,0.0078202486038208,0.09861142933368683
3.5029335021972656,0.05893797054886818,-0.21725031733512878,0.15430685877799988,0.20733195543289185,0.007438773289322853,0.09899290651082993
3.5230143070220947,0.059319447726011276,-0.22068360447883606,0.15583276748657227,0.20923933386802673,0.008201723918318748,0.09937438368797302
3.543268918991089,0.059319447726011276,-0.22297245264053345,0.15697719156742096,0.21038375794887543,0.00858320016413927,0.09975585341453552
3.5633814334869385,0.06008239835500717,-0.22487983107566833,0.15926603972911835,0.21190966665744781,0.008201723918318748,0.10051880776882172
3.5834500789642334,0.06046387553215027,-0.22602425515651703,0.16117341816425323,0.2138170450925827,0.0078202486038208,0.10128175467252731
3.6035263538360596,0.06160829961299896,-0.2290760725736618,0.1646067053079605,0.21648737788200378,0.008201723918318748,0.1024261862039566
3.6236603260040283,0.06198977679014206,-0.23212787508964539,0.1665140837430954,0.21763180196285248,0.009346150793135166,0.1031891331076622
3.643887996673584,0.06351567804813385,-0.23479819297790527,0.16918440163135529,0.22030213475227356,0.009727626107633114,0.1039520874619484
3.6639957427978516,0.06389715522527695,-0.23632410168647766,0.17147326469421387,0.22182802855968475,0.010490577667951584,0.10624094307422638
3.6841113567352295,0.06504157930612564,-0.23823148012161255,0.17376211285591125,0.22449836134910583,0.010872052982449532,0.10700388997793198
3.7041983604431152,0.06580453366041183,-0.24204623699188232,0.17681391537189484,0.22602425515651703,0.01125352829694748,0.10814831405878067
3.7242701053619385,0.06580453366041183,-0.2458609938621521,0.17872129380702972,0.2283131182193756,0.01125352829694748,0.10929274559020996
3.744389057159424,0.06656748056411743,-0.24967575073242188,0.1806286722421646,0.2302204966545105,0.011635004542768002,0.10967422276735306
3.764477491378784,0.06733043491840363,-0.25234606862068176,0.1836804747581482,0.23289081454277039,0.01125352829694748,0.11005569249391556
3.784525156021118,0.06847485899925232,-0.25463491678237915,0.18520638346672058,0.23517967760562897,0.01125352829694748,0.11043716967105865
3.8046839237213135,0.06923781335353851,-0.2569237947463989,0.18711376190185547,0.23632410168647766,0.011635004542768002,0.11158160120248795
3.824714422225952,0.07000076025724411,-0.2603570520877838,0.18940261006355286,0.23746852576732635,0.011635004542768002,0.11310750246047974
3.844844341278076,0.0707637146115303,-0.2630273997783661,0.19092851877212524,0.23975738883018494,0.01201647985726595,0.11425192654132843
3.8650145530700684,0.071908138692379,-0.2645532786846161,0.19359883666038513,0.24166475236415863,0.01201647985726595,0.11692225188016891
3.8850934505462646,0.07305257022380829,-0.265697717666626,0.1958876997232437,0.24357213079929352,0.012397955171763897,0.11768520623445511
3.9051899909973145,0.07381551712751389,-0.26722362637519836,0.1985580176115036,0.2450980395078659,0.013160906732082367,0.1184481605887413
3.9252331256866455,0.07419699430465698,-0.26951247453689575,0.20084688067436218,0.247768372297287,0.01430533267557621,0.1184481605887413
3.945390224456787,0.07572289556264877,-0.27141985297203064,0.20313572883605957,0.2508201599121094,0.01583123579621315,0.11959258466959
3.96541166305542,0.07610437273979187,-0.2725642919540405,0.20542457699775696,0.25272753834724426,0.01583123579621315,0.12149996310472488
3.985501289367676,0.07763027399778366,-0.273708701133728,0.20695048570632935,0.25501641631126404,0.01735713705420494,0.12226291000843048
4.0057053565979,0.07877469807863235,-0.2756160795688629,0.20923933386802673,0.2569237947463989,0.018120087683200836,0.12417028844356537
4.025938510894775,0.08030059933662415,-0.2782863974571228,0.21076524257659912,0.2595941126346588,0.018501564860343933,0.12493324279785156
4.0460288524627686,0.08220797777175903,-0.2801937758922577,0.2141985148191452,0.2626459002494812,0.018501564860343933,0.12531471252441406
4.0661301612854,0.08411535620689392,-0.2813382148742676,0.2157244235277176,0.2653162479400635,0.01926451548933983,0.12569619715213776
4.0862603187561035,0.08564125746488571,-0.28400853276252747,0.21763180196285248,0.26760509610176086,0.020027466118335724,0.12722209095954895
4.106283664703369,0.0871671661734581,-0.28820478916168213,0.22068360447883606,0.27065691351890564,0.01926451548933983,0.12836651504039764
4.126415014266968,0.08907453715801239,-0.291638046503067,0.22373540699481964,0.2740901708602905,0.02040894143283367,0.12912946939468384
4.146580696105957,0.09060044586658478,-0.2935454249382019,0.22716869413852692,0.2775234580039978,0.02040894143283367,0.13065537810325623
4.166610240936279,0.09250781685113907,-0.2954528033733368,0.2298390120267868,0.2813382148742676,0.02040894143283367,0.1333257108926773
4.186688423156738,0.09479667246341705,-0.2973601818084717,0.23365376889705658,0.28400853276252747,0.021171892061829567,0.134470134973526
4.206769704818726,0.09670405089855194,-0.29964902997016907,0.23556114733219147,0.28782328963279724,0.021553369238972664,0.1359960287809372
4.227273941040039,0.09899290651082993,-0.30193790793418884,0.23785001039505005,0.2924010157585144,0.023460745811462402,0.1367589831352234
4.247425079345703,0.10166323184967041,-0.30308231711387634,0.24166475236415863,0.2962157726287842,0.02384222112596035,0.13828489184379578
4.267865419387817,0.1031891331076622,-0.30460822582244873,0.24319066107273102,0.29926756024360657,0.02536812424659729,0.14171816408634186
4.287958860397339,0.10471503436565399,-0.3065156042575836,0.2454795092344284,0.30308231711387634,0.025749599561095238,0.14362554252147675
4.308123350143433,0.10624094307422638,-0.3068970739841461,0.2473868876695633,0.3061341345310211,0.025749599561095238,0.14476996660232544
4.32827615737915,0.10814831405878067,-0.3068970739841461,0.24891279637813568,0.3091859221458435,0.026131074875593185,0.14591439068317413
4.348417520523071,0.11005569249391556,-0.3068970739841461,0.25196459889411926,0.3133821487426758,0.02536812424659729,0.14782176911830902
4.3684704303741455,0.11120012402534485,-0.3068970739841461,0.25425344705581665,0.31643396615982056,0.026131074875593185,0.1501106321811676
4.388556241989136,0.11310750246047974,-0.3068970739841461,0.2584496736526489,0.3213931620121002,0.026131074875593185,0.1508735716342926
4.408759117126465,0.11577782779932022,-0.3068970739841461,0.2615014910697937,0.325970858335495,0.026512550190091133,0.152399480342865
4.428781032562256,0.1180666834115982,-0.3068970739841461,0.264934778213501,0.33283740282058716,0.02727550081908703,0.15430685877799988
4.448955774307251,0.1199740618467331,-0.3068970739841461,0.26836803555488586,0.3408484160900116,0.02727550081908703,0.15659570693969727
4.469773530960083,0.12302586436271667,-0.3076600432395935,0.27103838324546814,0.34962233901023865,0.027656977996230125,0.16079194843769073
4.489936113357544,0.12569619715213776,-0.3084229826927185,0.2744716703891754,0.3572518527507782,0.028038453310728073,0.1653696447610855
4.509958505630493,0.12798504531383514,-0.3099488914012909,0.2767605185508728,0.36488136649131775,0.02841992862522602,0.16994735598564148
4.530045032501221,0.12951095402240753,-0.3110933005809784,0.2790493667125702,0.3725108802318573,0.029564354568719864,0.17338064312934875
4.550115585327148,0.13141833245754242,-0.3130006790161133,0.2821011543273926,0.38052186369895935,0.02994582988321781,0.17605096101760864
4.570176362991333,0.13179980218410492,-0.31528952717781067,0.28324559330940247,0.3892957866191864,0.032616160809993744,0.17872129380702972
4.59028959274292,0.1329442262649536,-0.31567102670669556,0.28553444147109985,0.39654383063316345,0.03337911143898964,0.182917520403862
4.610395193099976,0.1337071806192398,-0.31681543588638306,0.28629741072654724,0.4056992530822754,0.034142062067985535,0.18787670135498047
4.630547523498535,0.1340886503458023,-0.31681543588638306,0.28744181990623474,0.41409170627593994,0.03528648987412453,0.19054703414440155
4.65065598487854,0.1348516047000885,-0.31681543588638306,0.28782328963279724,0.4217212200164795,0.03528648987412453,0.1958876997232437
4.670699834823608,0.1359960287809372,-0.31719690561294556,0.28858625888824463,0.42896926403045654,0.03528648987412453,0.1993209719657898
4.690849781036377,0.13752193748950958,-0.31719690561294556,0.28896772861480713,0.4350728690624237,0.03681239113211632,0.20275425910949707
4.710964679718018,0.13828489184379578,-0.31719690561294556,0.28896772861480713,0.439269095659256,0.03833829239010811,0.20389868319034576
4.730983257293701,0.13790340721607208,-0.31757840514183044,0.28896772861480713,0.44308385252952576,0.040245670825242996,0.20542457699775696
4.751111268997192,0.13828489184379578,-0.31910428404808044,0.28896772861480713,0.44651713967323303,0.04253452271223068,0.20733195543289185
4.771171569824219,0.13904783129692078,-0.32063019275665283,0.28858625888824463,0.4491874575614929,0.04329747334122658,0.20923933386802673
4.791252851486206,0.13904783129692078,-0.3213931620121002,0.28820478916168213,0.4526207447052002,0.04329747334122658,0.21152819693088531
4.811445713043213,0.13942931592464447,-0.3229190409183502,0.28667888045310974,0.4533836841583252,0.04291599988937378,0.2138170450925827
4.832016706466675,0.14019227027893066,-0.3233005404472351,0.28591591119766235,0.4552910625934601,0.042153049260377884,0.2141985148191452
4.852124452590942,0.14019227027893066,-0.3233005404472351,0.28400853276252747,0.45719844102859497,0.042153049260377884,0.2145799994468689
4.872176170349121,0.14057374000549316,-0.3233005404472351,0.2809567451477051,0.45872434973716736,0.04253452271223068,0.2145799994468689
4.89230751991272,0.14095520973205566,-0.3233005404472351,0.2794308364391327,0.46063172817230225,0.04100862145423889,0.2149614691734314
4.912369251251221,0.14133669435977936,-0.3233005404472351,0.2782863974571228,0.46063172817230225,0.040627144277095795,0.2149614691734314
4.9325408935546875,0.14133669435977936,-0.3240634799003601,0.2771419882774353,0.46101319789886475,0.0398641936480999,0.2149614691734314
4.952545881271362,0.14209964871406555,-0.3244449496269226,0.2763790488243103,0.46139466762542725,0.038719769567251205,0.2149614691734314
4.972855806350708,0.14209964871406555,-0.3244449496269226,0.2759975492954254,0.46139466762542725,0.03795681521296501,0.2145799994468689
4.9929468631744385,0.14248111844062805,-0.3244449496269226,0.2744716703891754,0.46139466762542725,0.037193864583969116,0.2145799994468689
5.013040781021118,0.14248111844062805,-0.3244449496269226,0.2725642919540405,0.46139466762542725,0.03643091395497322,0.2145799994468689
5.033121347427368,0.14324407279491425,-0.3248264193534851,0.27141985297203064,0.46139466762542725,0.03528648987412453,0.2145799994468689
5.053197860717773,0.14324407279491425,-0.32673379778862,0.26989394426345825,0.46139466762542725,0.034142062067985535,0.2145799994468689
5.073403596878052,0.14324407279491425,-0.3290226459503174,0.26951247453689575,0.46101319789886475,0.03337911143898964,0.2141985148191452
5.093500852584839,0.14324407279491425,-0.32978561520576477,0.26798656582832336,0.46101319789886475,0.03337911143898964,0.2141985148191452
5.1135783195495605,0.14324407279491425,-0.32940414547920227,0.265697717666626,0.46101319789886475,0.032616160809993744,0.2141985148191452
5.133809328079224,0.14324407279491425,-0.32940414547920227,0.2645532786846161,0.46063172817230225,0.02994582988321781,0.2138170450925827
5.153896808624268,0.14324407279491425,-0.32940414547920227,0.2637903392314911,0.46063172817230225,0.02880140393972397,0.2134355753660202
5.173975467681885,0.14324407279491425,-0.32940414547920227,0.2630273997783661,0.46025025844573975,0.028038453310728073,0.212672621011734
5.1940600872039795,0.14324407279491425,-0.32940414547920227,0.2618829607963562,0.46025025844573975,0.028038453310728073,0.21114671230316162
5.214141130447388,0.14324407279491425,-0.32940414547920227,0.2615014910697937,0.45986875891685486,0.02727550081908703,0.21038375794887543
5.234198808670044,0.14324407279491425,-0.32940414547920227,0.2603570520877838,0.45910581946372986,0.026131074875593185,0.20962081849575043
5.254289388656616,0.14324407279491425,-0.32940414547920227,0.2592126429080963,0.45719844102859497,0.025749599561095238,0.20847637951374054
5.274374485015869,0.14324407279491425,-0.32940414547920227,0.2580682039260864,0.4552910625934601,0.025749599561095238,0.20656901597976685
5.294690132141113,0.14324407279491425,-0.32940414547920227,0.2569237947463989,0.4530022144317627,0.02536812424659729,0.20542457699775696
5.314783573150635,0.14362554252147675,-0.32940414547920227,0.25577935576438904,0.4522392749786377,0.024986648932099342,0.20389868319034576
5.334836721420288,0.14438849687576294,-0.33016708493232727,0.25539788603782654,0.4510948359966278,0.023460745811462402,0.20313572883605957
5.355238437652588,0.14553292095661163,-0.33169299364089966,0.25425344705581665,0.4503318965435028,0.02193484455347061,0.20237277448177338
5.375380992889404,0.14515145123004913,-0.33169299364089966,0.25349050760269165,0.4484245181083679,0.02193484455347061,0.20160982012748718
5.395419120788574,0.14515145123004913,-0.33169299364089966,0.25158312916755676,0.4484245181083679,0.019645990803837776,0.20084688067436218
5.415510177612305,0.14515145123004913,-0.33169299364089966,0.2500572204589844,0.44766154885292053,0.018501564860343933,0.1993209719657898
5.435539484024048,0.14515145123004913,-0.33169299364089966,0.2500572204589844,0.44613564014434814,0.01773861236870289,0.1981765478849411
5.4557414054870605,0.14515145123004913,-0.33169299364089966,0.24967575073242188,0.44537270069122314,0.016212711110711098,0.1977950781583786
5.475873231887817,0.14515145123004913,-0.33169299364089966,0.24967575073242188,0.44499123096466064,0.015449759550392628,0.1962691694498062
5.49592399597168,0.14515145123004913,-0.33169299364089966,0.24891279637813568,0.44422826170921326,0.01583123579621315,0.19550621509552002
5.516520023345947,0.14515145123004913,-0.33169299364089966,0.248531311750412,0.44384679198265076,0.01583123579621315,0.19512474536895752
5.536684513092041,0.14515145123004913,-0.33169299364089966,0.2470054179430008,0.44346532225608826,0.015449759550392628,0.19474326074123383
5.556710958480835,0.14515145123004913,-0.33321890234947205,0.2462424635887146,0.44270238280296326,0.013923857361078262,0.19436179101467133
5.576848745346069,0.14515145123004913,-0.33398184180259705,0.2454795092344284,0.44117647409439087,0.013923857361078262,0.19359883666038513
5.596959114074707,0.14515145123004913,-0.33588922023773193,0.2450980395078659,0.44117647409439087,0.012779430486261845,0.19283588230609894
5.617094993591309,0.14515145123004913,-0.33588922023773193,0.2443350851535797,0.44079500436782837,0.01125352829694748,0.19130998849868774
5.637198209762573,0.14515145123004913,-0.33588922023773193,0.24357213079929352,0.4404135048389435,0.010109102353453636,0.19092851877212524
5.657335996627808,0.14515145123004913,-0.33588922023773193,0.24357213079929352,0.4404135048389435,0.009727626107633114,0.18978407979011536
5.677459239959717,0.14515145123004913,-0.33588922023773193,0.24319066107273102,0.4396505653858185,0.010109102353453636,0.18825818598270416
5.697584867477417,0.14515145123004913,-0.33588922023773193,0.24280919134616852,0.439269095659256,0.010109102353453636,0.18787670135498047
5.717640399932861,0.14515145123004913,-0.33588922023773193,0.24280919134616852,0.438506156206131,0.010109102353453636,0.18749523162841797
5.737712621688843,0.14515145123004913,-0.33588922023773193,0.24204623699188232,0.4377431869506836,0.009727626107633114,0.18711376190185547
5.7577965259552,0.14515145123004913,-0.33588922023773193,0.24090181291103363,0.4369802474975586,0.010109102353453636,0.18635080754756927
5.777845621109009,0.14515145123004913,-0.33550775051116943,0.24052032828330994,0.4369802474975586,0.008964675478637218,0.18596932291984558
5.797941207885742,0.14515145123004913,-0.33550775051116943,0.23937590420246124,0.4365987777709961,0.008201723918318748,0.1848248988389969
5.818002462387085,0.14515145123004913,-0.33550775051116943,0.23785001039505005,0.4362172782421112,0.007438773289322853,0.1840619444847107
5.838175535202026,0.14515145123004913,-0.33550775051116943,0.23670557141304016,0.4358358085155487,0.007057297509163618,0.1832990050315857
5.85834527015686,0.14515145123004913,-0.33588922023773193,0.23594263195991516,0.4343098998069763,0.006294346414506435,0.1817730963230133
5.878576278686523,0.14515145123004913,-0.33550775051116943,0.23517967760562897,0.4331654906272888,0.005912871100008488,0.17948424816131592
5.8986756801605225,0.14515145123004913,-0.33550775051116943,0.23479819297790527,0.4331654906272888,0.00476844422519207,0.17910276353359222
5.918740510940552,0.14515145123004913,-0.33550775051116943,0.23479819297790527,0.4331654906272888,0.005149920005351305,0.17910276353359222
5.938818454742432,0.14515145123004913,-0.33474478125572205,0.23441672325134277,0.4331654906272888,0.005149920005351305,0.17872129380702972
5.958918809890747,0.14515145123004913,-0.33436331152915955,0.23403525352478027,0.4327840209007263,0.00476844422519207,0.17833982408046722
5.9789698123931885,0.14515145123004913,-0.33436331152915955,0.23403525352478027,0.4327840209007263,0.00476844422519207,0.17757686972618103
5.999047517776489,0.14515145123004913,-0.33360037207603455,0.23327229917049408,0.43240252137184143,0.005149920005351305,0.17719538509845734
6.019137382507324,0.14515145123004913,-0.33321890234947205,0.23289081454277039,0.43202105164527893,0.004005493130534887,0.17719538509845734
6.039222478866577,0.14515145123004913,-0.33321890234947205,0.23250934481620789,0.43163958191871643,0.005149920005351305,0.17681391537189484
6.0593345165252686,0.14515145123004913,-0.33321890234947205,0.23212787508964539,0.43125811219215393,0.00476844422519207,0.17643244564533234
6.079418420791626,0.14515145123004913,-0.33245593309402466,0.23212787508964539,0.43087664246559143,0.004386968910694122,0.17643244564533234
6.099711656570435,0.14515145123004913,-0.33245593309402466,0.2313649207353592,0.43087664246559143,0.004386968910694122,0.17605096101760864
6.119822263717651,0.14515145123004913,-0.33245593309402466,0.230601966381073,0.43049514293670654,0.00476844422519207,0.17605096101760864
6.139878511428833,0.14515145123004913,-0.33245593309402466,0.2302204966545105,0.43011367321014404,0.004386968910694122,0.17566949129104614
6.160224676132202,0.14515145123004913,-0.33245593309402466,0.2298390120267868,0.43011367321014404,0.0036240178160369396,0.17528800666332245
6.180352210998535,0.14515145123004913,-0.33245593309402466,0.2290760725736618,0.43011367321014404,0.0036240178160369396,0.17490653693675995
6.200508117675781,0.14515145123004913,-0.33245593309402466,0.2286945879459381,0.42973220348358154,0.0036240178160369396,0.17376211285591125
6.220674991607666,0.14515145123004913,-0.33207446336746216,0.2283131182193756,0.42973220348358154,0.0036240178160369396,0.17338064312934875
6.240691661834717,0.14515145123004913,-0.33207446336746216,0.22793163359165192,0.42973220348358154,0.0032425422687083483,0.17299915850162506
6.260787010192871,0.14515145123004913,-0.33131152391433716,0.22793163359165192,0.42973220348358154,0.0032425422687083483,0.17299915850162506
6.280867099761963,0.14515145123004913,-0.33131152391433716,0.22755016386508942,0.42973220348358154,0.0032425422687083483,0.17261768877506256
6.3009960651397705,0.14515145123004913,-0.33131152391433716,0.22716869413852692,0.42935073375701904,0.0036240178160369396,0.17185473442077637
6.321082830429077,0.14515145123004913,-0.33131152391433716,0.22678720951080322,0.42935073375701904,0.0036240178160369396,0.17147326469421387
6.34122633934021,0.14515145123004913,-0.33131152391433716,0.22602425515651703,0.42935073375701904,0.0032425422687083483,0.17071031033992767
6.361313819885254,0.14515145123004913,-0.33131152391433716,0.22564278542995453,0.42935073375701904,0.0024795911740511656,0.17032882571220398
6.381402492523193,0.14515145123004913,-0.33131152391433716,0.22526131570339203,0.42935073375701904,0.002861066721379757,0.16956588625907898
6.401491403579712,0.14515145123004913,-0.33093002438545227,0.22487983107566833,0.42896926403045654,0.0032425422687083483,0.16918440163135529
6.42156457901001,0.14515145123004913,-0.33054855465888977,0.22487983107566833,0.42896926403045654,0.0032425422687083483,0.16918440163135529
6.441626310348511,0.14515145123004913,-0.33054855465888977,0.22449836134910583,0.42896926403045654,0.0024795911740511656,0.16880293190479279
6.4617533683776855,0.14515145123004913,-0.33054855465888977,0.22373540699481964,0.42896926403045654,0.002861066721379757,0.16880293190479279
6.481833457946777,0.14515145123004913,-0.33054855465888977,0.22297245264053345,0.42896926403045654,0.002861066721379757,0.1684214472770691
6.501906633377075,0.14515145123004913,-0.33054855465888977,0.22297245264053345,0.42896926403045654,0.0020981156267225742,0.1684214472770691
6.522028684616089,0.14515145123004913,-0.33054855465888977,0.22259098291397095,0.42896926403045654,0.001716639962978661,0.1680399775505066
6.542130947113037,0.14515145123004913,-0.33054855465888977,0.22259098291397095,0.42896926403045654,0.001716639962978661,0.1680399775505066
6.56222939491272,0.14515145123004913,-0.33054855465888977,0.22220951318740845,0.42896926403045654,0.001716639962978661,0.1676585078239441
6.582324028015137,0.14515145123004913,-0.33054855465888977,0.22182802855968475,0.42896926403045654,0.001716639962978661,0.1668955534696579
6.602436065673828,0.14515145123004913,-0.33016708493232727,0.22144655883312225,0.42896926403045654,0.0013351644156500697,0.1665140837430954
6.62251353263855,0.14515145123004913,-0.33016708493232727,0.22068360447883606,0.42896926403045654,0.0013351644156500697,0.1661325991153717
6.642889976501465,0.14515145123004913,-0.33016708493232727,0.22068360447883606,0.42896926403045654,0.000572213320992887,0.1657511293888092
6.662999153137207,0.14515145123004913,-0.33016708493232727,0.22068360447883606,0.42896926403045654,0.000572213320992887,0.1653696447610855
6.683087348937988,0.14515145123004913,-0.32940414547920227,0.22030213475227356,0.42896926403045654,0.000572213320992887,0.1653696447610855
6.703159332275391,0.14515145123004913,-0.3290226459503174,0.21992065012454987,0.42896926403045654,0.000572213320992887,0.164988175034523
6.723308801651001,0.14515145123004913,-0.3290226459503174,0.21992065012454987,0.42896926403045654,0.000572213320992887,0.164988175034523
6.743453741073608,0.14515145123004913,-0.3290226459503174,0.21953918039798737,0.42896926403045654,0.000572213320992887,0.1646067053079605
6.76354455947876,0.14515145123004913,-0.3290226459503174,0.21877622604370117,0.42896926403045654,0.000572213320992887,0.16422522068023682
6.78361964225769,0.14515145123004913,-0.3290226459503174,0.21877622604370117,0.42896926403045654,-0.00019073777366429567,0.16422522068023682
6.803711414337158,0.14515145123004913,-0.3290226459503174,0.21877622604370117,0.42896926403045654,0.00019073777366429567,0.16384375095367432
6.823798894882202,0.14515145123004913,-0.3286411762237549,0.21839475631713867,0.42896926403045654,0.00019073777366429567,0.16308079659938812
6.843851327896118,0.14515145123004913,-0.3286411762237549,0.21839475631713867,0.42896926403045654,0.00019073777366429567,0.16193637251853943
6.864033460617065,0.14515145123004913,-0.3286411762237549,0.21801327168941498,0.42896926403045654,0.00019073777366429567,0.16193637251853943
6.884024143218994,0.14515145123004913,-0.3286411762237549,0.21763180196285248,0.42896926403045654,0.00019073777366429567,0.16193637251853943
6.904218673706055,0.14515145123004913,-0.3286411762237549,0.21763180196285248,0.42896926403045654,-0.00019073777366429567,0.16193637251853943
6.924201965332031,0.14515145123004913,-0.3282597064971924,0.21725031733512878,0.42896926403045654,-0.00019073777366429567,0.16155488789081573
6.94430136680603,0.14515145123004913,-0.3282597064971924,0.21725031733512878,0.42896926403045654,-0.00019073777366429567,0.16155488789081573
6.964362621307373,0.14515145123004913,-0.3282597064971924,0.21648737788200378,0.42896926403045654,0.00019073777366429567,0.16117341816425323
6.984608888626099,0.14515145123004913,-0.3282597064971924,0.21648737788200378,0.42896926403045654,-0.0009536888683214784,0.16117341816425323
7.004798412322998,0.14515145123004913,-0.3282597064971924,0.2157244235277176,0.42896926403045654,-0.000572213320992887,0.16117341816425323
7.0247979164123535,0.14515145123004913,-0.3282597064971924,0.2157244235277176,0.42896926403045654,-0.0009536888683214784,0.16117341816425323
7.044885158538818,0.14515145123004913,-0.3282597064971924,0.2157244235277176,0.42896926403045654,-0.000572213320992887,0.16079194843769073
7.064978361129761,0.14515145123004913,-0.3282597064971924,0.2157244235277176,0.42896926403045654,-0.000572213320992887,0.16079194843769073
7.085214376449585,0.14515145123004913,-0.3282597064971924,0.2157244235277176,0.42896926403045654,-0.000572213320992887,0.16041046380996704
7.105306625366211,0.14515145123004913,-0.3278782367706299,0.2153429538011551,0.42896926403045654,-0.0009536888683214784,0.16041046380996704
7.12536883354187,0.14515145123004913,-0.3278782367706299,0.2153429538011551,0.42896926403045654,-0.0009536888683214784,0.16002899408340454
7.145457983016968,0.14515145123004913,-0.3274967670440674,0.2145799994468689,0.42896926403045654,-0.000572213320992887,0.15964750945568085
7.165560722351074,0.14515145123004913,-0.3271152675151825,0.2145799994468689,0.42896926403045654,-0.0009536888683214784,0.15926603972911835
7.186219930648804,0.14515145123004913,-0.3271152675151825,0.2145799994468689,0.42896926403045654,-0.000572213320992887,0.15888457000255585
7.206319808959961,0.14515145123004913,-0.3271152675151825,0.2141985148191452,0.42935073375701904,-0.0009536888683214784,0.15888457000255585
7.22636866569519,0.14515145123004913,-0.3271152675151825,0.2138170450925827,0.42935073375701904,-0.0013351644156500697,0.15850308537483215
7.246501922607422,0.14515145123004913,-0.3271152675151825,0.2138170450925827,0.42935073375701904,-0.0013351644156500697,0.15850308537483215
7.2665321826934814,0.14515145123004913,-0.3271152675151825,0.2138170450925827,0.42935073375701904,-0.0009536888683214784,0.15812161564826965
7.286651134490967,0.14515145123004913,-0.3271152675151825,0.2138170450925827,0.42935073375701904,-0.0013351644156500697,0.15812161564826965
7.306771993637085,0.14515145123004913,-0.3271152675151825,0.2134355753660202,0.42935073375701904,-0.0013351644156500697,0.15812161564826965
7.326857089996338,0.14515145123004913,-0.32673379778862,0.2134355753660202,0.42935073375701904,-0.0013351644156500697,0.15812161564826965
7.3469085693359375,0.14515145123004913,-0.3263523280620575,0.2134355753660202,0.42935073375701904,-0.0013351644156500697,0.15774014592170715
7.367116212844849,0.14515145123004913,-0.3263523280620575,0.2134355753660202,0.42935073375701904,-0.0013351644156500697,0.15774014592170715
7.387164115905762,0.14515145123004913,-0.3263523280620575,0.2130540907382965,0.42935073375701904,-0.0013351644156500697,0.15735866129398346
7.407262325286865,0.14515145123004913,-0.3263523280620575,0.212672621011734,0.42935073375701904,-0.0009536888683214784,0.15735866129398346
7.427312850952148,0.14515145123004913,-0.3263523280620575,0.21229113638401031,0.42973220348358154,-0.001716639962978661,0.15735866129398346
7.447413921356201,0.14515145123004913,-0.3263523280620575,0.21229113638401031,0.42973220348358154,-0.0024795911740511656,0.15697719156742096
7.467516660690308,0.14515145123004913,-0.3263523280620575,0.21190966665744781,0.42973220348358154,-0.0024795911740511656,0.15697719156742096
7.48758339881897,0.14515145123004913,-0.3263523280620575,0.21190966665744781,0.42973220348358154,-0.0020981156267225742,0.15659570693969727
7.507714509963989,0.14515145123004913,-0.3263523280620575,0.21190966665744781,0.42973220348358154,-0.001716639962978661,0.15659570693969727
7.527774810791016,0.14515145123004913,-0.3263523280620575,0.21152819693088531,0.42973220348358154,-0.001716639962978661,0.15621423721313477
7.548307418823242,0.14515145123004913,-0.3263523280620575,0.21152819693088531,0.42973220348358154,-0.0020981156267225742,0.15583276748657227
7.568467140197754,0.14515145123004913,-0.325970858335495,0.21152819693088531,0.42973220348358154,-0.0020981156267225742,0.15506981313228607
7.589179277420044,0.14515145123004913,-0.325970858335495,0.21152819693088531,0.42973220348358154,-0.0020981156267225742,0.15430685877799988
7.6093621253967285,0.14515145123004913,-0.325970858335495,0.21152819693088531,0.43011367321014404,-0.001716639962978661,0.15392538905143738
7.629438877105713,0.14515145123004913,-0.32520791888237,0.21152819693088531,0.43011367321014404,-0.0020981156267225742,0.15430685877799988
7.649490594863892,0.14515145123004913,-0.32520791888237,0.21114671230316162,0.43011367321014404,-0.0024795911740511656,0.15430685877799988
7.669574499130249,0.14515145123004913,-0.32520791888237,0.21076524257659912,0.43011367321014404,-0.001716639962978661,0.15392538905143738
7.6897125244140625,0.14515145123004913,-0.32520791888237,0.21038375794887543,0.43011367321014404,-0.0020981156267225742,0.15392538905143738
7.709852457046509,0.14515145123004913,-0.32520791888237,0.21038375794887543,0.43049514293670654,-0.0020981156267225742,0.15392538905143738
7.7299370765686035,0.14515145123004913,-0.32520791888237,0.21038375794887543,0.43049514293670654,-0.0020981156267225742,0.15392538905143738
7.7500901222229,0.14515145123004913,-0.32520791888237,0.21038375794887543,0.43049514293670654,-0.0020981156267225742,0.15392538905143738
7.770110607147217,0.14515145123004913,-0.32520791888237,0.21038375794887543,0.43049514293670654,-0.0020981156267225742,0.15392538905143738
7.790506362915039,0.14553292095661163,-0.32520791888237,0.21038375794887543,0.43049514293670654,-0.0020981156267225742,0.15392538905143738
7.810594081878662,0.14553292095661163,-0.32520791888237,0.21000228822231293,0.43087664246559143,-0.0020981156267225742,0.15392538905143738
7.830729246139526,0.14553292095661163,-0.32520791888237,0.20962081849575043,0.43087664246559143,-0.0020981156267225742,0.15392538905143738
7.851314306259155,0.14553292095661163,-0.32520791888237,0.20962081849575043,0.43125811219215393,-0.0024795911740511656,0.15354390442371368
7.871424913406372,0.14553292095661163,-0.3248264193534851,0.20962081849575043,0.43202105164527893,-0.0024795911740511656,0.15354390442371368
7.8916826248168945,0.14553292095661163,-0.3248264193534851,0.20962081849575043,0.4327840209007263,-0.0020981156267225742,0.15354390442371368
7.911774158477783,0.14553292095661163,-0.3244449496269226,0.20923933386802673,0.4335469603538513,-0.0020981156267225742,0.15354390442371368
7.931848764419556,0.14591439068317413,-0.3240634799003601,0.20923933386802673,0.4335469603538513,-0.0020981156267225742,0.15354390442371368
7.951932668685913,0.14591439068317413,-0.3240634799003601,0.20923933386802673,0.4335469603538513,-0.0020981156267225742,0.15316243469715118
7.972063064575195,0.14591439068317413,-0.3240634799003601,0.20885786414146423,0.4335469603538513,-0.0020981156267225742,0.15316243469715118
7.992326259613037,0.14591439068317413,-0.3240634799003601,0.20847637951374054,0.4335469603538513,-0.0020981156267225742,0.1527809500694275
8.012443780899048,0.14591439068317413,-0.3240634799003601,0.20847637951374054,0.4335469603538513,-0.0024795911740511656,0.1527809500694275
8.032531023025513,0.14591439068317413,-0.3240634799003601,0.20847637951374054,0.4335469603538513,-0.002861066721379757,0.1527809500694275
8.052592039108276,0.14591439068317413,-0.3240634799003601,0.20847637951374054,0.4335469603538513,-0.002861066721379757,0.1527809500694275
8.072667360305786,0.14591439068317413,-0.3240634799003601,0.20847637951374054,0.4335469603538513,-0.0024795911740511656,0.152399480342865
8.092766761779785,0.14591439068317413,-0.3240634799003601,0.20847637951374054,0.4335469603538513,-0.0024795911740511656,0.152399480342865
8.112843990325928,0.14591439068317413,-0.3240634799003601,0.20847637951374054,0.4335469603538513,-0.002861066721379757,0.1520180106163025
8.132912635803223,0.14591439068317413,-0.3240634799003601,0.20847637951374054,0.4335469603538513,-0.002861066721379757,0.1520180106163025
8.153046369552612,0.14591439068317413,-0.3240634799003601,0.20847637951374054,0.4335469603538513,-0.0024795911740511656,0.1520180106163025
8.17331075668335,0.14591439068317413,-0.3240634799003601,0.20809490978717804,0.4335469603538513,-0.0024795911740511656,0.1516365259885788
8.193398475646973,0.14591439068317413,-0.3240634799003601,0.20809490978717804,0.4339284300804138,-0.0024795911740511656,0.1516365259885788
8.213463068008423,0.14591439068317413,-0.3240634799003601,0.20809490978717804,0.4339284300804138,-0.002861066721379757,0.1512550562620163
8.233541011810303,0.14591439068317413,-0.3240634799003601,0.20809490978717804,0.4339284300804138,-0.002861066721379757,0.1512550562620163
8.25363540649414,0.14591439068317413,-0.3240634799003601,0.20771344006061554,0.4339284300804138,-0.002861066721379757,0.1512550562620163
8.273756504058838,0.14591439068317413,-0.3236820101737976,0.20771344006061554,0.4339284300804138,-0.0024795911740511656,0.1512550562620163
8.29386043548584,0.14591439068317413,-0.3233005404472351,0.20771344006061554,0.4339284300804138,-0.002861066721379757,0.1508735716342926
8.313937664031982,0.14591439068317413,-0.3233005404472351,0.20733195543289185,0.4339284300804138,-0.002861066721379757,0.1508735716342926
8.33401870727539,0.14591439068317413,-0.3233005404472351,0.20733195543289185,0.4343098998069763,-0.0024795911740511656,0.1508735716342926
8.354092597961426,0.14591439068317413,-0.3233005404472351,0.20733195543289185,0.4343098998069763,-0.0024795911740511656,0.1508735716342926
8.374184131622314,0.14591439068317413,-0.3233005404472351,0.20733195543289185,0.4343098998069763,-0.002861066721379757,0.1508735716342926
8.39426040649414,0.14629587531089783,-0.3233005404472351,0.20733195543289185,0.4343098998069763,-0.0024795911740511656,0.1504921019077301
8.414320230484009,0.14629587531089783,-0.3233005404472351,0.20733195543289185,0.4343098998069763,-0.002861066721379757,0.1504921019077301
8.434409856796265,0.14629587531089783,-0.3233005404472351,0.20733195543289185,0.4343098998069763,-0.0024795911740511656,0.1508735716342926
8.45449948310852,0.14629587531089783,-0.3233005404472351,0.20695048570632935,0.4346913993358612,-0.002861066721379757,0.1504921019077301
8.474573373794556,0.14629587531089783,-0.3233005404472351,0.20656901597976685,0.4343098998069763,-0.0024795911740511656,0.1504921019077301
8.494689464569092,0.14629587531089783,-0.3233005404472351,0.20656901597976685,0.4346913993358612,-0.0024795911740511656,0.1504921019077301
8.514737606048584,0.14629587531089783,-0.3233005404472351,0.20618753135204315,0.4346913993358612,-0.002861066721379757,0.1504921019077301
8.534851789474487,0.14629587531089783,-0.3233005404472351,0.20618753135204315,0.4350728690624237,-0.002861066721379757,0.1504921019077301
8.554905891418457,0.14629587531089783,-0.3229190409183502,0.20618753135204315,0.4350728690624237,-0.002861066721379757,0.1501106321811676
8.575108528137207,0.14629587531089783,-0.3229190409183502,0.20618753135204315,0.4350728690624237,-0.0024795911740511656,0.1501106321811676
8.595206260681152,0.14629587531089783,-0.3229190409183502,0.20618753135204315,0.4354543387889862,-0.002861066721379757,0.1501106321811676
8.615262031555176,0.14629587531089783,-0.3229190409183502,0.20618753135204315,0.4354543387889862,-0.002861066721379757,0.1501106321811676
8.635367155075073,0.14629587531089783,-0.3229190409183502,0.20618753135204315,0.4358358085155487,-0.002861066721379757,0.1501106321811676
8.65558910369873,0.14629587531089783,-0.3229190409183502,0.20618753135204315,0.4362172782421112,-0.002861066721379757,0.1497291475534439
8.67560863494873,0.14629587531089783,-0.3229190409183502,0.20618753135204315,0.4369802474975586,-0.002861066721379757,0.1497291475534439
8.69573450088501,0.14629587531089783,-0.3229190409183502,0.20618753135204315,0.4369802474975586,-0.002861066721379757,0.1497291475534439
8.716147661209106,0.14629587531089783,-0.3229190409183502,0.20618753135204315,0.4369802474975586,-0.002861066721379757,0.1497291475534439
8.736253023147583,0.14629587531089783,-0.3229190409183502,0.20618753135204315,0.4369802474975586,-0.002861066721379757,0.1497291475534439
8.756400346755981,0.14629587531089783,-0.3225375711917877,0.20618753135204315,0.4369802474975586,-0.002861066721379757,0.1493476778268814
8.776466608047485,0.14629587531089783,-0.3221561014652252,0.20618753135204315,0.4373617172241211,-0.002861066721379757,0.1493476778268814
8.796531438827515,0.14629587531089783,-0.3221561014652252,0.20618753135204315,0.4369802474975586,-0.002861066721379757,0.1493476778268814
8.8166663646698,0.14629587531089783,-0.3221561014652252,0.20618753135204315,0.4369802474975586,-0.002861066721379757,0.1493476778268814
8.83673620223999,0.14629587531089783,-0.3221561014652252,0.20580606162548065,0.4369802474975586,-0.002861066721379757,0.1493476778268814
8.856823921203613,0.14629587531089783,-0.3221561014652252,0.20542457699775696,0.4369802474975586,-0.002861066721379757,0.1489662081003189
8.87693738937378,0.14629587531089783,-0.3221561014652252,0.20542457699775696,0.4369802474975586,-0.002861066721379757,0.1489662081003189
8.897035121917725,0.14629587531089783,-0.3221561014652252,0.20542457699775696,0.4369802474975586,-0.002861066721379757,0.1489662081003189
8.91711139678955,0.14629587531089783,-0.3221561014652252,0.20542457699775696,0.4369802474975586,-0.002861066721379757,0.1489662081003189
8.93845534324646,0.14629587531089783,-0.3221561014652252,0.20542457699775696,0.4369802474975586,-0.002861066721379757,0.14858472347259521
8.958556413650513,0.14629587531089783,-0.3221561014652252,0.20542457699775696,0.4369802474975586,-0.0032425422687083483,0.14858472347259521
8.978657960891724,0.14629587531089783,-0.3221561014652252,0.20542457699775696,0.4369802474975586,-0.0032425422687083483,0.14858472347259521
8.99871301651001,0.14629587531089783,-0.3221561014652252,0.20542457699775696,0.4369802474975586,-0.002861066721379757,0.14820325374603271
9.018784761428833,0.14629587531089783,-0.3221561014652252,0.20504310727119446,0.4369802474975586,-0.002861066721379757,0.14820325374603271
9.038841962814331,0.14629587531089783,-0.3221561014652252,0.20504310727119446,0.4369802474975586,-0.002861066721379757,0.14782176911830902
9.058932304382324,0.14629587531089783,-0.3221561014652252,0.20504310727119446,0.4369802474975586,-0.002861066721379757,0.14782176911830902
9.079025745391846,0.14629587531089783,-0.3221561014652252,0.20504310727119446,0.4369802474975586,-0.002861066721379757,0.14744029939174652
9.099087715148926,0.14629587531089783,-0.3221561014652252,0.20504310727119446,0.4369802474975586,-0.0032425422687083483,0.14744029939174652
9.119422435760498,0.14629587531089783,-0.3221561014652252,0.20504310727119446,0.4369802474975586,-0.002861066721379757,0.14744029939174652
9.139666557312012,0.14629587531089783,-0.3221561014652252,0.20504310727119446,0.4369802474975586,-0.002861066721379757,0.14744029939174652
9.159793615341187,0.14629587531089783,-0.3221561014652252,0.20428015291690826,0.4369802474975586,-0.002861066721379757,0.14705882966518402
9.179931640625,0.14629587531089783,-0.3221561014652252,0.20428015291690826,0.4369802474975586,-0.0032425422687083483,0.14705882966518402
9.20004153251648,0.14629587531089783,-0.3221561014652252,0.20428015291690826,0.4369802474975586,-0.0036240178160369396,0.14705882966518402
9.220075130462646,0.14629587531089783,-0.3221561014652252,0.20428015291690826,0.4369802474975586,-0.0032425422687083483,0.14705882966518402
9.240193843841553,0.14629587531089783,-0.3221561014652252,0.20428015291690826,0.4369802474975586,-0.0032425422687083483,0.14705882966518402
9.260291576385498,0.14629587531089783,-0.3217746317386627,0.20428015291690826,0.4369802474975586,-0.0032425422687083483,0.14705882966518402
9.28034257888794,0.14667734503746033,-0.3217746317386627,0.20428015291690826,0.4369802474975586,-0.0032425422687083483,0.14705882966518402
9.300461530685425,0.14629587531089783,-0.3217746317386627,0.20428015291690826,0.4369802474975586,-0.0032425422687083483,0.14705882966518402
9.32057237625122,0.14667734503746033,-0.3217746317386627,0.20428015291690826,0.4373617172241211,-0.0032425422687083483,0.14705882966518402
9.340897560119629,0.14629587531089783,-0.3217746317386627,0.20428015291690826,0.4369802474975586,-0.0032425422687083483,0.14667734503746033
9.361010074615479,0.14667734503746033,-0.32101166248321533,0.20428015291690826,0.4373617172241211,-0.0032425422687083483,0.14667734503746033
9.381130695343018,0.14667734503746033,-0.3213931620121002,0.20428015291690826,0.4373617172241211,-0.0032425422687083483,0.14705882966518402
9.401453256607056,0.14667734503746033,-0.32101166248321533,0.20428015291690826,0.4373617172241211,-0.0032425422687083483,0.14667734503746033
9.421557188034058,0.14667734503746033,-0.32101166248321533,0.20428015291690826,0.4373617172241211,-0.0032425422687083483,0.14667734503746033
9.44164752960205,0.14667734503746033,-0.32101166248321533,0.20428015291690826,0.4373617172241211,-0.0032425422687083483,0.14667734503746033
9.461703538894653,0.14667734503746033,-0.32101166248321533,0.20428015291690826,0.4373617172241211,-0.0032425422687083483,0.14667734503746033
9.481773376464844,0.14667734503746033,-0.32101166248321533,0.20428015291690826,0.4373617172241211,-0.0032425422687083483,0.14667734503746033
9.501843690872192,0.14667734503746033,-0.32101166248321533,0.20428015291690826,0.4377431869506836,-0.0032425422687083483,0.14667734503746033
9.521959781646729,0.14667734503746033,-0.32101166248321533,0.20428015291690826,0.4373617172241211,-0.0032425422687083483,0.14667734503746033
9.542358875274658,0.14667734503746033,-0.32101166248321533,0.20428015291690826,0.4377431869506836,-0.0032425422687083483,0.14629587531089783
9.56247878074646,0.14667734503746033,-0.32101166248321533,0.20428015291690826,0.4377431869506836,-0.0032425422687083483,0.14667734503746033
9.582555532455444,0.14667734503746033,-0.32101166248321533,0.20428015291690826,0.4377431869506836,-0.0032425422687083483,0.14629587531089783
9.602789163589478,0.14667734503746033,-0.32101166248321533,0.20428015291690826,0.4377431869506836,-0.0032425422687083483,0.14629587531089783
9.622881412506104,0.14667734503746033,-0.32101166248321533,0.20428015291690826,0.4377431869506836,-0.0032425422687083483,0.14629587531089783
9.642932891845703,0.14667734503746033,-0.32101166248321533,0.20428015291690826,0.4377431869506836,-0.0032425422687083483,0.14629587531089783
9.663022518157959,0.14667734503746033,-0.32101166248321533,0.20428015291690826,0.4377431869506836,-0.0032425422687083483,0.14629587531089783
9.683108568191528,0.14667734503746033,-0.32101166248321533,0.20428015291690826,0.4377431869506836,-0.0032425422687083483,0.14629587531089783
9.703674077987671,0.14667734503746033,-0.32101166248321533,0.20389868319034576,0.4381246566772461,-0.0032425422687083483,0.14629587531089783
9.723768472671509,0.14667734503746033,-0.32101166248321533,0.20389868319034576,0.4381246566772461,-0.0032425422687083483,0.14629587531089783
9.743848323822021,0.14667734503746033,-0.32101166248321533,0.20389868319034576,0.4381246566772461,-0.0032425422687083483,0.14629587531089783
9.763936758041382,0.14667734503746033,-0.32101166248321533,0.20389868319034576,0.4381246566772461,-0.0032425422687083483,0.14629587531089783
9.784133195877075,0.14667734503746033,-0.32101166248321533,0.20389868319034576,0.4381246566772461,-0.0032425422687083483,0.14629587531089783
9.804129838943481,0.14667734503746033,-0.32101166248321533,0.20351719856262207,0.438506156206131,-0.0032425422687083483,0.14591439068317413
9.824226140975952,0.14667734503746033,-0.32101166248321533,0.20351719856262207,0.438506156206131,-0.0032425422687083483,0.14591439068317413
9.844300270080566,0.14667734503746033,-0.32101166248321533,0.20351719856262207,0.438506156206131,-0.0032425422687083483,0.14591439068317413
9.864467859268188,0.14667734503746033,-0.32101166248321533,0.20351719856262207,0.4388876259326935,-0.0032425422687083483,0.14591439068317413
9.884606122970581,0.14667734503746033,-0.32101166248321533,0.20351719856262207,0.4388876259326935,-0.0032425422687083483,0.14591439068317413
9.904638290405273,0.14667734503746033,-0.32101166248321533,0.20351719856262207,0.4388876259326935,-0.0032425422687083483,0.14591439068317413
9.924712657928467,0.14667734503746033,-0.32101166248321533,0.20351719856262207,0.439269095659256,-0.0032425422687083483,0.14591439068317413
9.944798707962036,0.14667734503746033,-0.32101166248321533,0.20351719856262207,0.4396505653858185,-0.0032425422687083483,0.14591439068317413
9.965175151824951,0.14667734503746033,-0.32101166248321533,0.20351719856262207,0.440032035112381,-0.0036240178160369396,0.14591439068317413
9.985337257385254,0.14667734503746033,-0.32101166248321533,0.20351719856262207,0.4404135048389435,-0.0032425422687083483,0.14553292095661163
10.005395650863647,0.14667734503746033,-0.32101166248321533,0.20351719856262207,0.4404135048389435,-0.0032425422687083483,0.14553292095661163
10.025627374649048,0.14667734503746033,-0.32101166248321533,0.20351719856262207,0.4404135048389435,-0.0032425422687083483,0.14553292095661163
10.04564905166626,0.14667734503746033,-0.32101166248321533,0.20313572883605957,0.4404135048389435,-0.0032425422687083483,0.14553292095661163
10.065702438354492,0.14667734503746033,-0.32101166248321533,0.20351719856262207,0.4404135048389435,-0.0032425422687083483,0.14553292095661163
10.08579397201538,0.14667734503746033,-0.32101166248321533,0.20313572883605957,0.4404135048389435,-0.0032425422687083483,0.14553292095661163
10.105877876281738,0.14667734503746033,-0.32101166248321533,0.20313572883605957,0.4404135048389435,-0.0032425422687083483,0.14553292095661163
10.125940322875977,0.14667734503746033,-0.32101166248321533,0.20313572883605957,0.4404135048389435,-0.0032425422687083483,0.14553292095661163
10.146039485931396,0.14667734503746033,-0.32101166248321533,0.20313572883605957,0.4404135048389435,-0.0032425422687083483,0.14553292095661163
10.1661376953125,0.14667734503746033,-0.32101166248321533,0.20313572883605957,0.4404135048389435,-0.0032425422687083483,0.14553292095661163
10.186229944229126,0.14667734503746033,-0.32101166248321533,0.20313572883605957,0.4404135048389435,-0.0036240178160369396,0.14515145123004913
10.206326007843018,0.14667734503746033,-0.32101166248321533,0.20313572883605957,0.4404135048389435,-0.0032425422687083483,0.14515145123004913
10.226864576339722,0.14667734503746033,-0.32101166248321533,0.20313572883605957,0.4404135048389435,-0.0036240178160369396,0.14515145123004913
10.2469482421875,0.14667734503746033,-0.32101166248321533,0.20313572883605957,0.4404135048389435,-0.0036240178160369396,0.14515145123004913
10.266998052597046,0.14705882966518402,-0.32101166248321533,0.20313572883605957,0.4404135048389435,-0.0036240178160369396,0.14515145123004913
10.287090063095093,0.14744029939174652,-0.32101166248321533,0.20313572883605957,0.4404135048389435,-0.0036240178160369396,0.14515145123004913
10.307233572006226,0.14705882966518402,-0.32101166248321533,0.20313572883605957,0.4404135048389435,-0.0036240178160369396,0.14476996660232544
10.327364683151245,0.14705882966518402,-0.32101166248321533,0.20313572883605957,0.4404135048389435,-0.0032425422687083483,0.14476996660232544
10.347460985183716,0.14744029939174652,-0.32101166248321533,0.20313572883605957,0.4404135048389435,-0.0032425422687083483,0.14476996660232544
10.367505550384521,0.14705882966518402,-0.32101166248321533,0.20313572883605957,0.4404135048389435,-0.0036240178160369396,0.14476996660232544
10.387600898742676,0.14705882966518402,-0.32101166248321533,0.20313572883605957,0.4404135048389435,-0.0036240178160369396,0.14476996660232544
10.407667875289917,0.14705882966518402,-0.32101166248321533,0.20313572883605957,0.4404135048389435,-0.0036240178160369396,0.14476996660232544
10.428403615951538,0.14705882966518402,-0.32063019275665283,0.20313572883605957,0.4404135048389435,-0.0036240178160369396,0.14476996660232544
10.448512554168701,0.14744029939174652,-0.32063019275665283,0.20313572883605957,0.4404135048389435,-0.0036240178160369396,0.14476996660232544
10.468608617782593,0.14705882966518402,-0.32063019275665283,0.20313572883605957,0.4404135048389435,-0.0036240178160369396,0.14476996660232544
10.488728523254395,0.14705882966518402,-0.32063019275665283,0.20313572883605957,0.4404135048389435,-0.0036240178160369396,0.14438849687576294
10.508768320083618,0.14705882966518402,-0.32024872303009033,0.20275425910949707,0.4404135048389435,-0.0036240178160369396,0.14438849687576294
10.529101371765137,0.14705882966518402,-0.32024872303009033,0.20275425910949707,0.4404135048389435,-0.0036240178160369396,0.14438849687576294
10.54924464225769,0.14705882966518402,-0.32024872303009033,0.20275425910949707,0.4404135048389435,-0.0036240178160369396,0.14438849687576294
10.569302082061768,0.14705882966518402,-0.32024872303009033,0.20237277448177338,0.4404135048389435,-0.0032425422687083483,0.14438849687576294
10.589452505111694,0.14744029939174652,-0.32024872303009033,0.20199130475521088,0.4404135048389435,-0.0036240178160369396,0.14438849687576294
10.6095712184906,0.14705882966518402,-0.32024872303009033,0.20199130475521088,0.4404135048389435,-0.0036240178160369396,0.14438849687576294
10.629593849182129,0.14705882966518402,-0.32024872303009033,0.20199130475521088,0.4404135048389435,-0.0036240178160369396,0.14438849687576294
10.649770021438599,0.14705882966518402,-0.32024872303009033,0.20199130475521088,0.4404135048389435,-0.0036240178160369396,0.14438849687576294
10.6697518825531,0.14705882966518402,-0.32024872303009033,0.20199130475521088,0.4404135048389435,-0.0036240178160369396,0.14438849687576294
10.689807415008545,0.14705882966518402,-0.32024872303009033,0.20199130475521088,0.4404135048389435,-0.0036240178160369396,0.14438849687576294
10.709930658340454,0.14705882966518402,-0.32024872303009033,0.20237277448177338,0.4404135048389435,-0.0036240178160369396,0.14438849687576294
10.730003833770752,0.14705882966518402,-0.32024872303009033,0.20237277448177338,0.4404135048389435,-0.0036240178160369396,0.14438849687576294
10.75013279914856,0.14705882966518402,-0.32024872303009033,0.20237277448177338,0.4404135048389435,-0.0036240178160369396,0.14438849687576294
10.770273208618164,0.14705882966518402,-0.32024872303009033,0.20237277448177338,0.4404135048389435,-0.0036240178160369396,0.14438849687576294
10.79040002822876,0.14705882966518402,-0.32024872303009033,0.20237277448177338,0.4404135048389435,-0.0036240178160369396,0.14438849687576294
10.810590267181396,0.14705882966518402,-0.32024872303009033,0.20237277448177338,0.4404135048389435,-0.0036240178160369396,0.14400701224803925
10.830652952194214,0.14705882966518402,-0.32024872303009033,0.20237277448177338,0.4404135048389435,-0.0036240178160369396,0.14438849687576294
10.850760221481323,0.14667734503746033,-0.32024872303009033,0.20237277448177338,0.4404135048389435,-0.0036240178160369396,0.14400701224803925
10.870823621749878,0.14591439068317413,-0.32024872303009033,0.20237277448177338,0.4404135048389435,-0.0032425422687083483,0.14400701224803925
10.890932559967041,0.14553292095661163,-0.32024872303009033,0.20237277448177338,0.4404135048389435,-0.0036240178160369396,0.14400701224803925
10.91099238395691,0.14515145123004913,-0.32024872303009033,0.20237277448177338,0.44079500436782837,-0.004005493130534887,0.14400701224803925
10.931219816207886,0.14553292095661163,-0.32024872303009033,0.20237277448177338,0.44079500436782837,-0.004005493130534887,0.14400701224803925
10.951331615447998,0.14515145123004913,-0.32024872303009033,0.20237277448177338,0.44079500436782837,-0.004005493130534887,0.14400701224803925
10.971421241760254,0.14553292095661163,-0.32024872303009033,0.20237277448177338,0.44079500436782837,-0.004005493130534887,0.14400701224803925
10.991500854492188,0.14515145123004913,-0.32024872303009033,0.20237277448177338,0.44079500436782837,-0.0036240178160369396,0.14400701224803925
11.01161527633667,0.14553292095661163,-0.32024872303009033,0.20237277448177338,0.44079500436782837,-0.0036240178160369396,0.14400701224803925
11.03164529800415,0.14553292095661163,-0.32024872303009033,0.20237277448177338,0.44079500436782837,-0.004005493130534887,0.14362554252147675
11.05174469947815,0.14553292095661163,-0.32024872303009033,0.20237277448177338,0.44079500436782837,-0.004005493130534887,0.14362554252147675
11.07183027267456,0.14553292095661163,-0.32024872303009033,0.20237277448177338,0.44079500436782837,-0.004005493130534887,0.14362554252147675
11.091879844665527,0.14591439068317413,-0.32024872303009033,0.20237277448177338,0.44079500436782837,-0.0036240178160369396,0.14362554252147675
11.11206841468811,0.14591439068317413,-0.32024872303009033,0.20237277448177338,0.44079500436782837,-0.0036240178160369396,0.14362554252147675
11.132172584533691,0.14591439068317413,-0.32024872303009033,0.20237277448177338,0.44079500436782837,-0.0036240178160369396,0.14362554252147675
11.152361869812012,0.14629587531089783,-0.32024872303009033,0.20237277448177338,0.44079500436782837,-0.0036240178160369396,0.14362554252147675
11.172492504119873,0.14629587531089783,-0.32024872303009033,0.20237277448177338,0.44117647409439087,-0.0036240178160369396,0.14362554252147675
11.192526817321777,0.14629587531089783,-0.32024872303009033,0.20237277448177338,0.44117647409439087,-0.0036240178160369396,0.14362554252147675
11.212604522705078,0.14629587531089783,-0.32024872303009033,0.20237277448177338,0.44117647409439087,-0.004005493130534887,0.14362554252147675
11.232686758041382,0.14629587531089783,-0.32024872303009033,0.20237277448177338,0.44117647409439087,-0.0036240178160369396,0.14362554252147675
11.252763271331787,0.14629587531089783,-0.32024872303009033,0.20237277448177338,0.44117647409439087,-0.0036240178160369396,0.14362554252147675
11.272852420806885,0.14629587531089783,-0.32024872303009033,0.20237277448177338,0.44117647409439087,-0.0036240178160369396,0.14362554252147675
11.29291844367981,0.14629587531089783,-0.32024872303009033,0.20237277448177338,0.44117647409439087,-0.0036240178160369396,0.14362554252147675
11.313002347946167,0.14667734503746033,-0.32024872303009033,0.20237277448177338,0.44117647409439087,-0.0036240178160369396,0.14362554252147675
11.333216428756714,0.14667734503746033,-0.32024872303009033,0.20237277448177338,0.44117647409439087,-0.0036240178160369396,0.14362554252147675
11.35339903831482,0.14744029939174652,-0.32024872303009033,0.20237277448177338,0.44117647409439087,-0.004005493130534887,0.14362554252147675
11.373496532440186,0.14744029939174652,-0.32024872303009033,0.20237277448177338,0.44117647409439087,-0.0036240178160369396,0.14362554252147675
11.393638610839844,0.14744029939174652,-0.32024872303009033,0.20237277448177338,0.44117647409439087,-0.0032425422687083483,0.14362554252147675
11.413980484008789,0.14744029939174652,-0.32024872303009033,0.20237277448177338,0.44117647409439087,-0.0032425422687083483,0.14362554252147675
11.434089422225952,0.14744029939174652,-0.32024872303009033,0.20237277448177338,0.44117647409439087,-0.0036240178160369396,0.14362554252147675
11.454127073287964,0.14744029939174652,-0.32024872303009033,0.20237277448177338,0.44117647409439087,-0.0036240178160369396,0.14362554252147675
11.47421669960022,0.14744029939174652,-0.32024872303009033,0.20237277448177338,0.44155794382095337,-0.004005493130534887,0.14362554252147675
11.494293451309204,0.14705882966518402,-0.32024872303009033,0.20237277448177338,0.44155794382095337,-0.0036240178160369396,0.14324407279491425
11.514352798461914,0.14744029939174652,-0.32024872303009033,0.20237277448177338,0.44155794382095337,-0.0036240178160369396,0.14362554252147675
11.534485340118408,0.14705882966518402,-0.32024872303009033,0.20237277448177338,0.44117647409439087,-0.0036240178160369396,0.14362554252147675
11.55452847480774,0.14744029939174652,-0.32024872303009033,0.20237277448177338,0.44155794382095337,-0.0036240178160369396,0.14362554252147675
11.575522184371948,0.14744029939174652,-0.32024872303009033,0.20237277448177338,0.44155794382095337,-0.0036240178160369396,0.14324407279491425
11.595612525939941,0.14744029939174652,-0.32024872303009033,0.20237277448177338,0.44155794382095337,-0.0036240178160369396,0.14362554252147675
11.615722417831421,0.14744029939174652,-0.32024872303009033,0.20237277448177338,0.44155794382095337,-0.0036240178160369396,0.14324407279491425
11.635802030563354,0.14705882966518402,-0.32024872303009033,0.20237277448177338,0.44155794382095337,-0.0036240178160369396,0.14324407279491425
11.656004905700684,0.14744029939174652,-0.32024872303009033,0.20237277448177338,0.44155794382095337,-0.0036240178160369396,0.14324407279491425
11.676585912704468,0.14744029939174652,-0.32024872303009033,0.20237277448177338,0.44155794382095337,-0.0036240178160369396,0.14324407279491425
11.696690559387207,0.14744029939174652,-0.32024872303009033,0.20237277448177338,0.44155794382095337,-0.0036240178160369396,0.14324407279491425
11.716767311096191,0.14744029939174652,-0.32024872303009033,0.20237277448177338,0.44155794382095337,-0.0036240178160369396,0.14324407279491425
11.736799716949463,0.14744029939174652,-0.32024872303009033,0.20237277448177338,0.44155794382095337,-0.0036240178160369396,0.14324407279491425
11.756901502609253,0.14744029939174652,-0.32024872303009033,0.20237277448177338,0.44155794382095337,-0.0036240178160369396,0.14324407279491425
11.776976108551025,0.14705882966518402,-0.32024872303009033,0.20237277448177338,0.44155794382095337,-0.0036240178160369396,0.14324407279491425
11.797093152999878,0.14744029939174652,-0.32024872303009033,0.20237277448177338,0.44193941354751587,-0.0036240178160369396,0.14324407279491425
11.81714153289795,0.14705882966518402,-0.32024872303009033,0.20199130475521088,0.44193941354751587,-0.0036240178160369396,0.14324407279491425
11.837331056594849,0.14705882966518402,-0.32024872303009033,0.20199130475521088,0.44193941354751587,-0.0036240178160369396,0.14324407279491425
11.857475757598877,0.14705882966518402,-0.32024872303009033,0.20199130475521088,0.44193941354751587,-0.0036240178160369396,0.14324407279491425
11.877524852752686,0.14705882966518402,-0.32024872303009033,0.20199130475521088,0.44193941354751587,-0.0036240178160369396,0.14324407279491425
11.89792275428772,0.14705882966518402,-0.32024872303009033,0.20199130475521088,0.44193941354751587,-0.0036240178160369396,0.14324407279491425
11.918017625808716,0.14705882966518402,-0.32024872303009033,0.20199130475521088,0.44193941354751587,-0.0036240178160369396,0.14324407279491425
11.938094139099121,0.14705882966518402,-0.32024872303009033,0.20199130475521088,0.44193941354751587,-0.0036240178160369396,0.14324407279491425
11.958162546157837,0.14705882966518402,-0.32024872303009033,0.20199130475521088,0.44193941354751587,-0.0036240178160369396,0.14324407279491425
11.978249073028564,0.14705882966518402,-0.32024872303009033,0.20199130475521088,0.44193941354751587,-0.0036240178160369396,0.14324407279491425
11.99841594696045,0.14705882966518402,-0.32024872303009033,0.20199130475521088,0.44232088327407837,-0.0036240178160369396,0.14324407279491425
12.018613815307617,0.14705882966518402,-0.32024872303009033,0.20199130475521088,0.44193941354751587,-0.0036240178160369396,0.14324407279491425
12.03863000869751,0.14705882966518402,-0.31986725330352783,0.20199130475521088,0.44232088327407837,-0.0036240178160369396,0.14324407279491425
12.058780670166016,0.14629587531089783,-0.32024872303009033,0.20199130475521088,0.44232088327407837,-0.0036240178160369396,0.14324407279491425
12.078869342803955,0.14553292095661163,-0.31986725330352783,0.20199130475521088,0.44232088327407837,-0.0036240178160369396,0.14324407279491425
12.099289894104004,0.14553292095661163,-0.31986725330352783,0.20199130475521088,0.44232088327407837,-0.0036240178160369396,0.14324407279491425
12.11940312385559,0.14553292095661163,-0.31986725330352783,0.20199130475521088,0.44270238280296326,-0.004005493130534887,0.14286258816719055
12.13948941230774,0.14515145123004913,-0.31986725330352783,0.20199130475521088,0.44270238280296326,-0.004005493130534887,0.14324407279491425
12.159562826156616,0.14515145123004913,-0.31986725330352783,0.20199130475521088,0.44270238280296326,-0.004005493130534887,0.14286258816719055
12.179662704467773,0.14553292095661163,-0.31986725330352783,0.20199130475521088,0.44270238280296326,-0.0036240178160369396,0.14324407279491425
12.199838161468506,0.14553292095661163,-0.31986725330352783,0.20199130475521088,0.44270238280296326,-0.0036240178160369396,0.14286258816719055
12.219918727874756,0.14553292095661163,-0.31986725330352783,0.20199130475521088,0.44270238280296326,-0.0036240178160369396,0.14286258816719055
12.240002393722534,0.14553292095661163,-0.31986725330352783,0.20199130475521088,0.44270238280296326,-0.004005493130534887,0.14286258816719055
12.260108709335327,0.14553292095661163,-0.31986725330352783,0.20199130475521088,0.44270238280296326,-0.004005493130534887,0.14286258816719055
12.280181407928467,0.14591439068317413,-0.31986725330352783,0.20199130475521088,0.44270238280296326,-0.004005493130534887,0.14286258816719055
12.300245761871338,0.14591439068317413,-0.31986725330352783,0.20199130475521088,0.44270238280296326,-0.0036240178160369396,0.14286258816719055
12.320327758789062,0.14629587531089783,-0.31986725330352783,0.20199130475521088,0.44270238280296326,-0.0036240178160369396,0.14286258816719055
12.340473175048828,0.14629587531089783,-0.31986725330352783,0.20199130475521088,0.44270238280296326,-0.0032425422687083483,0.14286258816719055
12.360528945922852,0.14629587531089783,-0.32024872303009033,0.20199130475521088,0.44270238280296326,-0.0036240178160369396,0.14286258816719055
12.380615711212158,0.14629587531089783,-0.31986725330352783,0.20199130475521088,0.44270238280296326,-0.004005493130534887,0.14286258816719055
12.400763273239136,0.14629587531089783,-0.31986725330352783,0.20199130475521088,0.44270238280296326,-0.004005493130534887,0.14286258816719055
12.420758247375488,0.14629587531089783,-0.31986725330352783,0.20199130475521088,0.44270238280296326,-0.0036240178160369396,0.14286258816719055
12.440946340560913,0.14667734503746033,-0.31986725330352783,0.20199130475521088,0.44270238280296326,-0.0036240178160369396,0.14286258816719055
12.46103310585022,0.14744029939174652,-0.31986725330352783,0.20199130475521088,0.44270238280296326,-0.0036240178160369396,0.14286258816719055
12.481922388076782,0.14744029939174652,-0.31986725330352783,0.20199130475521088,0.44308385252952576,-0.0036240178160369396,0.14286258816719055
12.501999616622925,0.14744029939174652,-0.31986725330352783,0.20199130475521088,0.44308385252952576,-0.0036240178160369396,0.14286258816719055
12.522071123123169,0.14744029939174652,-0.31986725330352783,0.20199130475521088,0.44308385252952576,-0.0036240178160369396,0.14286258816719055
12.542153596878052,0.14744029939174652,-0.31986725330352783,0.20199130475521088,0.44308385252952576,-0.0036240178160369396,0.14286258816719055
12.562247514724731,0.14744029939174652,-0.31986725330352783,0.20199130475521088,0.44308385252952576,-0.004005493130534887,0.14286258816719055
12.582292795181274,0.14744029939174652,-0.31986725330352783,0.20199130475521088,0.44308385252952576,-0.0036240178160369396,0.14286258816719055
12.602370738983154,0.14744029939174652,-0.31986725330352783,0.20199130475521088,0.44308385252952576,-0.0036240178160369396,0.14286258816719055
12.622468709945679,0.14744029939174652,-0.31986725330352783,0.20199130475521088,0.44308385252952576,-0.0036240178160369396,0.14286258816719055
12.642528295516968,0.14744029939174652,-0.31986725330352783,0.20199130475521088,0.44308385252952576,-0.0036240178160369396,0.14286258816719055
12.662764072418213,0.14744029939174652,-0.31986725330352783,0.20199130475521088,0.44308385252952576,-0.0036240178160369396,0.14286258816719055
12.682875394821167,0.14744029939174652,-0.31986725330352783,0.20199130475521088,0.44308385252952576,-0.0036240178160369396,0.14286258816719055
12.702955722808838,0.14744029939174652,-0.31986725330352783,0.20199130475521088,0.44308385252952576,-0.0036240178160369396,0.14286258816719055
12.723015069961548,0.14744029939174652,-0.32024872303009033,0.20199130475521088,0.44308385252952576,-0.0036240178160369396,0.14248111844062805
12.743119239807129,0.14744029939174652,-0.32024872303009033,0.20237277448177338,0.44308385252952576,-0.0036240178160369396,0.14248111844062805
12.763192653656006,0.14820325374603271,-0.3213931620121002,0.20389868319034576,0.44308385252952576,-0.004005493130534887,0.14171816408634186
12.783588171005249,0.1501106321811676,-0.3225375711917877,0.20580606162548065,0.44270238280296326,-0.004005493130534887,0.14019227027893066
12.803690671920776,0.152399480342865,-0.3236820101737976,0.20847637951374054,0.44193941354751587,-0.0032425422687083483,0.1371404528617859
12.823767185211182,0.15392538905143738,-0.3248264193534851,0.21076524257659912,0.440032035112381,-0.0032425422687083483,0.1340886503458023
12.844023704528809,0.15621423721313477,-0.3278782367706299,0.212672621011734,0.4373617172241211,-0.0024795911740511656,0.13141833245754242
12.863976955413818,0.15888457000255585,-0.33054855465888977,0.2157244235277176,0.4331654906272888,-0.00019073777366429567,0.12874799966812134
12.88432765007019,0.16079194843769073,-0.33398184180259705,0.21763180196285248,0.42858776450157166,-0.00019073777366429567,0.12569619715213776
12.904441833496094,0.16346226632595062,-0.3381780683994293,0.22068360447883606,0.4247730076313019,0.00019073777366429567,0.12226291000843048
12.924458265304565,0.1661325991153717,-0.3412298858165741,0.22373540699481964,0.421339750289917,-0.000572213320992887,0.1192111074924469
12.94455075263977,0.1684214472770691,-0.343900203704834,0.22716869413852692,0.4182879328727722,-0.000572213320992887,0.11615930497646332
12.964635848999023,0.17109178006649017,-0.34618905186653137,0.2313649207353592,0.41485464572906494,-0.00019073777366429567,0.11310750246047974
12.984724283218384,0.17414358258247375,-0.34695202112197876,0.23479819297790527,0.41065841913223267,0.0013351644156500697,0.10852979123592377
13.004811525344849,0.17681391537189484,-0.34962233901023865,0.23861294984817505,0.4068436622619629,0.002861066721379757,0.10471503436565399
13.024867057800293,0.17833982408046722,-0.3530556261539459,0.24204623699188232,0.4030289053916931,0.004005493130534887,0.10051880776882172
13.044962644577026,0.1817730963230133,-0.3561074137687683,0.2454795092344284,0.39921414852142334,0.005149920005351305,0.09670405089855194
13.065129280090332,0.18520638346672058,-0.3599221706390381,0.24929426610469818,0.39692530035972595,0.00667582219466567,0.09365224838256836
13.085248470306396,0.18787670135498047,-0.36449989676475525,0.25158312916755676,0.3934920132160187,0.005531395319849253,0.08945601433515549
13.105388402938843,0.18978407979011536,-0.3686961233615875,0.25539788603782654,0.3900587558746338,0.005912871100008488,0.08602273464202881
13.125544786453247,0.19092851877212524,-0.3706035017967224,0.2584496736526489,0.3858625292778015,0.005912871100008488,0.08144503086805344
13.145629644393921,0.19436179101467133,-0.3721294105052948,0.2622644305229187,0.38204777240753174,0.007057297509163618,0.07763027399778366
13.165762662887573,0.1970321238040924,-0.3736552894115448,0.26722362637519836,0.3770885765552521,0.007438773289322853,0.07343403995037079
13.185858488082886,0.1989395022392273,-0.3759441375732422,0.26951247453689575,0.3725108802318573,0.008964675478637218,0.06923781335353851
13.20596957206726,0.20160982012748718,-0.37899595499038696,0.2733272314071655,0.3686961233615875,0.010490577667951584,0.06580453366041183
13.22602128982544,0.20466163754463196,-0.38242924213409424,0.2756160795688629,0.36449989676475525,0.010872052982449532,0.06160829961299896
13.246240139007568,0.20656901597976685,-0.3866254687309265,0.2790493667125702,0.3606851398944855,0.012397955171763897,0.05664911866188049
13.266278505325317,0.20847637951374054,-0.3908216953277588,0.28248265385627747,0.3576333224773407,0.013923857361078262,0.05359731614589691
13.286694765090942,0.21076524257659912,-0.39387351274490356,0.28477150201797485,0.3534370958805084,0.013160906732082367,0.049782559275627136
13.306807279586792,0.212672621011734,-0.39616236090660095,0.28820478916168213,0.34924086928367615,0.01201647985726595,0.04482337832450867
13.326934814453125,0.2149614691734314,-0.39768826961517334,0.2920195460319519,0.34618905186653137,0.01201647985726595,0.042153049260377884
13.347059488296509,0.21686884760856628,-0.39921414852142334,0.2946898639202118,0.343137264251709,0.012397955171763897,0.038719769567251205
13.367157936096191,0.21953918039798737,-0.4003585875034332,0.29888609051704407,0.3393225073814392,0.013923857361078262,0.03452353551983833
13.38719129562378,0.22106507420539856,-0.4026474356651306,0.30193790793418884,0.33665215969085693,0.01583123579621315,0.03032730519771576
13.407273054122925,0.22335393726825714,-0.4053177833557129,0.3057526648044586,0.33283740282058716,0.018501564860343933,0.025749599561095238
13.427364587783813,0.22526131570339203,-0.4091325104236603,0.3072785437107086,0.32978561520576477,0.01926451548933983,0.022697795182466507
13.447544574737549,0.22678720951080322,-0.41180285811424255,0.3099488914012909,0.32673379778862,0.020027466118335724,0.018501564860343933
13.467576503753662,0.2286945879459381,-0.41447317600250244,0.3114747703075409,0.3229190409183502,0.018501564860343933,0.016594186425209045
13.487671613693237,0.230601966381073,-0.41638055443763733,0.31414511799812317,0.32024872303009033,0.018120087683200836,0.013160906732082367
13.50774073600769,0.23289081454277039,-0.4186694025993347,0.31681543588638306,0.31719690561294556,0.01735713705420494,0.010109102353453636
13.527853965759277,0.23441672325134277,-0.4190509021282196,0.31910428404808044,0.31452658772468567,0.018501564860343933,0.006294346414506435
13.54799199104309,0.23594263195991516,-0.4194323718547821,0.3217746317386627,0.3122377395629883,0.018120087683200836,0.0024795911740511656
13.568002939224243,0.23785001039505005,-0.421339750289917,0.3244449496269226,0.3091859221458435,0.01888304017484188,-0.0013351644156500697
13.588181495666504,0.23975738883018494,-0.4240100681781769,0.3274967670440674,0.3057526648044586,0.020027466118335724,-0.005149920005351305
13.608191728591919,0.24090181291103363,-0.42782482504844666,0.33016708493232727,0.30308231711387634,0.02040894143283367,-0.008964675478637218
13.628466606140137,0.24204623699188232,-0.43163958191871643,0.33169299364089966,0.30079346895217896,0.01888304017484188,-0.011635004542768002
13.648539304733276,0.24319066107273102,-0.4335469603538513,0.33283740282058716,0.2977416515350342,0.018120087683200836,-0.01430533267557621
13.668621301651001,0.2450980395078659,-0.4346913993358612,0.33436331152915955,0.2950713336467743,0.016594186425209045,-0.016212711110711098
13.688691854476929,0.2470054179430008,-0.4358358085155487,0.33665215969085693,0.2935454249382019,0.01583123579621315,-0.01888304017484188
13.708761930465698,0.2481498420238495,-0.4358358085155487,0.3397039771080017,0.2904936373233795,0.01735713705420494,-0.022697795182466507
13.729127883911133,0.24967575073242188,-0.4358358085155487,0.343137264251709,0.28744181990623474,0.01773861236870289,-0.025749599561095238
13.749297142028809,0.25120165944099426,-0.4377431869506836,0.34542611241340637,0.28591591119766235,0.018120087683200836,-0.02880140393972397
13.769352912902832,0.25272753834724426,-0.44079500436782837,0.34809643030166626,0.28362706303596497,0.018501564860343933,-0.03185320645570755
13.789457321166992,0.25425344705581665,-0.44422826170921326,0.34924086928367615,0.2821011543273926,0.018120087683200836,-0.03452353551983833
13.80963134765625,0.25463491678237915,-0.44689860939979553,0.35000380873680115,0.2794308364391327,0.018120087683200836,-0.035667963325977325
13.830159187316895,0.25539788603782654,-0.4495689272880554,0.35076677799224854,0.2775234580039978,0.016212711110711098,-0.038719769567251205
13.85023546218872,0.25654229521751404,-0.4507133662700653,0.35191118717193604,0.2752346098423004,0.013923857361078262,-0.04139009863138199
13.870304584503174,0.2576867341995239,-0.4518577754497528,0.3542000353336334,0.272945761680603,0.01201647985726595,-0.04329747334122658
13.890424728393555,0.2584496736526489,-0.4522392749786377,0.3564889132976532,0.27103838324546814,0.01201647985726595,-0.04596780240535736
13.910529851913452,0.2599755823612213,-0.4522392749786377,0.3591592311859131,0.26874953508377075,0.011635004542768002,-0.04940108209848404
13.930600881576538,0.2615014910697937,-0.4522392749786377,0.3599221706390381,0.26760509610176086,0.01201647985726595,-0.051689937710762024
13.950687170028687,0.2626459002494812,-0.4530022144317627,0.361066609621048,0.2660791873931885,0.013160906732082367,-0.05359731614589691
13.970766544342041,0.2630273997783661,-0.4556725323200226,0.3622110188007355,0.2641718089580536,0.013160906732082367,-0.056267641484737396
13.991408824920654,0.2641718089580536,-0.45910581946372986,0.36373692750930786,0.2615014910697937,0.013160906732082367,-0.059319447726011276
14.011530876159668,0.2645532786846161,-0.46101319789886475,0.36488136649131775,0.2607385218143463,0.012397955171763897,-0.06046387553215027
14.031563997268677,0.265697717666626,-0.46177613735198975,0.36602577567100525,0.2599755823612213,0.010109102353453636,-0.061226826161146164
14.051663160324097,0.26684215664863586,-0.46253910660743713,0.36678874492645264,0.2588311731815338,0.008964675478637218,-0.06275273114442825
14.07173776626587,0.26836803555488586,-0.46368351578712463,0.36907759308815,0.2569237947463989,0.0078202486038208,-0.06504157930612564
14.091862916946411,0.26913100481033325,-0.4640650153160095,0.3709849715232849,0.25539788603782654,0.00858320016413927,-0.06771191209554672
14.111997127532959,0.26989394426345825,-0.4648279547691345,0.3721294105052948,0.25272753834724426,0.008964675478637218,-0.07000076025724411
14.131998777389526,0.27065691351890564,-0.4659723937511444,0.3732738196849823,0.25120165944099426,0.009727626107633114,-0.0722896158695221
14.152069091796875,0.27141985297203064,-0.4671168029308319,0.3740367889404297,0.24929426610469818,0.008201723918318748,-0.07457847148180008
