liuyurong129/humanoid-gym/humanoid/data/actual_q_20250523-025823.csv
timestamp,joint_1,joint_2,joint_3,joint_4,joint_5,joint_6
0.00010418891906738281,-0.0013351644156500697,0.17338064312934875,-0.0864042118191719,-0.00019073777366429567,0.00019073777366429567,-0.00019073777366429567
0.020189285278320312,-0.001716639962978661,0.152399480342865,-0.07801175117492676,-0.00019073777366429567,-0.00019073777366429567,-0.00019073777366429567
0.04022836685180664,-0.0024795911740511656,0.12874799966812134,-0.06694895774126053,-0.00019073777366429567,0.00019073777366429567,-0.00019073777366429567
0.060390472412109375,-0.0020981156267225742,0.11196307092905045,-0.06008239835500717,0.00019073777366429567,0.001716639962978661,-0.00019073777366429567
0.08041191101074219,-0.0024795911740511656,0.1024261862039566,-0.056267641484737396,-0.00019073777366429567,0.00019073777366429567,0.00019073777366429567
0.10094714164733887,-0.002861066721379757,0.09784847497940063,-0.05283436179161072,0.00019073777366429567,-0.00019073777366429567,0.00019073777366429567
0.12108063697814941,-0.002861066721379757,0.09479667246341705,-0.04901960864663124,0.00019073777366429567,0.00019073777366429567,0.00019073777366429567
0.14123773574829102,-0.002861066721379757,0.09288929402828217,-0.045204851776361465,0.00019073777366429567,0.00019073777366429567,0.0013351644156500697
0.1612842082977295,-0.0032425422687083483,0.09174486994743347,-0.042153049260377884,0.000572213320992887,0.00019073777366429567,0.0020981156267225742
0.18134570121765137,-0.0032425422687083483,0.08983749151229858,-0.040245670825242996,0.000572213320992887,0.000572213320992887,0.002861066721379757
0.201493501663208,-0.0032425422687083483,0.0879301130771637,-0.038719769567251205,0.0009536888683214784,0.000572213320992887,0.0032425422687083483
0.22150635719299316,-0.0036240178160369396,0.08602273464202881,-0.037193864583969116,0.0013351644156500697,0.001716639962978661,0.004386968910694122
0.24155235290527344,-0.004005493130534887,0.08297093212604523,-0.03643091395497322,0.001716639962978661,0.0013351644156500697,0.006294346414506435
0.26171875,-0.00476844422519207,0.08106355369091034,-0.03490501269698143,0.0024795911740511656,0.0036240178160369396,0.007057297509163618
0.2818481922149658,-0.005149920005351305,0.07877469807863235,-0.03337911143898964,0.004005493130534887,0.0036240178160369396,0.008201723918318748
0.30184459686279297,-0.005531395319849253,0.07686731964349747,-0.03223468363285065,0.004386968910694122,0.004005493130534887,0.010490577667951584
0.32192254066467285,-0.005912871100008488,0.07419699430465698,-0.03032730519771576,0.00476844422519207,0.004386968910694122,0.01125352829694748
0.34202098846435547,-0.007057297509163618,0.0722896158695221,-0.028038453310728073,0.005912871100008488,0.00476844422519207,0.012779430486261845
0.36208367347717285,-0.0078202486038208,0.0715266615152359,-0.02727550081908703,0.007057297509163618,0.005149920005351305,0.014686808921396732
0.3821260929107666,-0.008201723918318748,0.06961929053068161,-0.026131074875593185,0.007438773289322853,0.005149920005351305,0.015449759550392628
0.4022536277770996,-0.008964675478637218,0.06694895774126053,-0.024223696440458298,0.007438773289322853,0.005149920005351305,0.01773861236870289
0.42237162590026855,-0.009727626107633114,0.06504157930612564,-0.02193484455347061,0.008201723918318748,0.005149920005351305,0.018501564860343933
0.4424111843109131,-0.010109102353453636,0.06313420087099075,-0.02040894143283367,0.008201723918318748,0.005531395319849253,0.019645990803837776
0.46251630783081055,-0.010872052982449532,0.06008239835500717,-0.01888304017484188,0.00858320016413927,0.007057297509163618,0.02193484455347061
0.4825911521911621,-0.011635004542768002,0.057793546468019485,-0.016594186425209045,0.009727626107633114,0.008201723918318748,0.02231631986796856
0.5026862621307373,-0.01201647985726595,0.0558861680328846,-0.015449759550392628,0.010490577667951584,0.00858320016413927,0.02384222112596035
0.5227451324462891,-0.012779430486261845,0.05436026677489281,-0.013923857361078262,0.01125352829694748,0.008964675478637218,0.025749599561095238
0.5428817272186279,-0.013923857361078262,0.05130846053361893,-0.01201647985726595,0.01201647985726595,0.009727626107633114,0.026512550190091133
0.5630075931549072,-0.01506828423589468,0.048256658017635345,-0.010490577667951584,0.012779430486261845,0.01201647985726595,0.027656977996230125
0.5830004215240479,-0.01506828423589468,0.04558632895350456,-0.009346150793135166,0.013923857361078262,0.01201647985726595,0.02880140393972397
0.6030807495117188,-0.01506828423589468,0.04329747334122658,-0.0078202486038208,0.01506828423589468,0.012397955171763897,0.029564354568719864
0.623180627822876,-0.015449759550392628,0.04177157208323479,-0.005912871100008488,0.015449759550392628,0.012397955171763897,0.03032730519771576
0.6433455944061279,-0.016212711110711098,0.040245670825242996,-0.004005493130534887,0.01583123579621315,0.012779430486261845,0.03185320645570755
0.6634097099304199,-0.01735713705420494,0.038719769567251205,-0.002861066721379757,0.016212711110711098,0.013923857361078262,0.03376058489084244
0.6834471225738525,-0.018120087683200836,0.03604944050312042,-0.0009536888683214784,0.016975661739706993,0.01583123579621315,0.03490501269698143
0.70353102684021,-0.01888304017484188,0.034142062067985535,0.0009536888683214784,0.018120087683200836,0.016212711110711098,0.03681239113211632
0.7235970497131348,-0.019645990803837776,0.031090257689356804,0.002861066721379757,0.01888304017484188,0.016975661739706993,0.03795681521296501
0.7437479496002197,-0.020027466118335724,0.028038453310728073,0.0036240178160369396,0.01926451548933983,0.016975661739706993,0.0398641936480999
0.7638099193572998,-0.020027466118335724,0.024605173617601395,0.005149920005351305,0.019645990803837776,0.01773861236870289,0.04100862145423889
0.7839126586914062,-0.02040894143283367,0.022697795182466507,0.007438773289322853,0.021171892061829567,0.018501564860343933,0.042153049260377884
0.8039679527282715,-0.02079041674733162,0.021553369238972664,0.009346150793135166,0.022697795182466507,0.01888304017484188,0.04406042397022247
0.8240976333618164,-0.02193484455347061,0.01926451548933983,0.01125352829694748,0.023460745811462402,0.01926451548933983,0.04558632895350456
0.8441252708435059,-0.023079270496964455,0.01735713705420494,0.013160906732082367,0.024223696440458298,0.01926451548933983,0.046730753034353256
0.8642399311065674,-0.02384222112596035,0.01506828423589468,0.015449759550392628,0.024986648932099342,0.019645990803837776,0.048256658017635345
0.8842642307281494,-0.024605173617601395,0.012397955171763897,0.016594186425209045,0.026131074875593185,0.020027466118335724,0.04901960864663124
0.9043703079223633,-0.02536812424659729,0.008964675478637218,0.01773861236870289,0.026512550190091133,0.020027466118335724,0.05092698708176613
0.9245009422302246,-0.025749599561095238,0.007438773289322853,0.019645990803837776,0.02689402550458908,0.02040894143283367,0.05207141116261482
0.9445126056671143,-0.026131074875593185,0.006294346414506435,0.02040894143283367,0.02727550081908703,0.02040894143283367,0.05283436179161072
0.9646341800689697,-0.026512550190091133,0.004386968910694122,0.022697795182466507,0.027656977996230125,0.02040894143283367,0.05359731614589691
0.9847192764282227,-0.02727550081908703,0.0013351644156500697,0.02536812424659729,0.02880140393972397,0.02079041674733162,0.0551232174038887
1.0048465728759766,-0.028038453310728073,-0.0013351644156500697,0.02727550081908703,0.03032730519771576,0.02193484455347061,0.056267641484737396
1.0250027179718018,-0.02841992862522602,-0.004005493130534887,0.029182879254221916,0.031090257689356804,0.023079270496964455,0.057793546468019485
1.0450067520141602,-0.029564354568719864,-0.005912871100008488,0.031090257689356804,0.03147173300385475,0.02384222112596035,0.059319447726011276
1.0650737285614014,-0.03032730519771576,-0.007438773289322853,0.032616160809993744,0.03223468363285065,0.024986648932099342,0.06046387553215027
1.0851161479949951,-0.030708782374858856,-0.008964675478637218,0.03376058489084244,0.03299763426184654,0.026131074875593185,0.06160829961299896
1.1052298545837402,-0.03185320645570755,-0.011635004542768002,0.03490501269698143,0.03376058489084244,0.026512550190091133,0.06351567804813385
1.1254277229309082,-0.032616160809993744,-0.01506828423589468,0.03681239113211632,0.034142062067985535,0.02689402550458908,0.06466010212898254
1.145423412322998,-0.03337911143898964,-0.01926451548933983,0.03833829239010811,0.034142062067985535,0.02727550081908703,0.06618601083755493
1.1655974388122559,-0.034142062067985535,-0.023079270496964455,0.04139009863138199,0.03490501269698143,0.027656977996230125,0.06771191209554672
1.1856045722961426,-0.03490501269698143,-0.025749599561095238,0.04406042397022247,0.035667963325977325,0.027656977996230125,0.06961929053068161
1.2057769298553467,-0.03490501269698143,-0.028038453310728073,0.04596780240535736,0.037193864583969116,0.028038453310728073,0.0711451917886734
1.2258868217468262,-0.035667963325977325,-0.03032730519771576,0.04787518084049225,0.03795681521296501,0.028038453310728073,0.07267109304666519
1.246159553527832,-0.03681239113211632,-0.034142062067985535,0.05092698708176613,0.03833829239010811,0.029564354568719864,0.07495994865894318
1.266099214553833,-0.03757534176111221,-0.03795681521296501,0.05207141116261482,0.039101243019104004,0.031090257689356804,0.07572289556264877
1.2861659526824951,-0.038719769567251205,-0.04100862145423889,0.054741740226745605,0.040627144277095795,0.03223468363285065,0.07839322835206985
1.3062787055969238,-0.0394827201962471,-0.04291599988937378,0.05741206929087639,0.04177157208323479,0.034142062067985535,0.07991912961006165
1.326373815536499,-0.040245670825242996,-0.04482337832450867,0.05970092490315437,0.042153049260377884,0.035667963325977325,0.08182650804519653
1.3464300632476807,-0.040627144277095795,-0.046730753034353256,0.06198977679014206,0.04291599988937378,0.03681239113211632,0.08258945494890213
1.3665242195129395,-0.04139009863138199,-0.049782559275627136,0.06504157930612564,0.04406042397022247,0.03795681521296501,0.08335240930318832
1.3866136074066162,-0.04177157208323479,-0.05245288833975792,0.06733043491840363,0.04482337832450867,0.03833829239010811,0.08564125746488571
1.4067165851593018,-0.042153049260377884,-0.056267641484737396,0.06885633617639542,0.04558632895350456,0.039101243019104004,0.0871671661734581
1.4267966747283936,-0.04291599988937378,-0.05970092490315437,0.0711451917886734,0.04596780240535736,0.0398641936480999,0.08907453715801239
1.4468703269958496,-0.043678950518369675,-0.06237125024199486,0.07381551712751389,0.046730753034353256,0.040245670825242996,0.08983749151229858
1.466928243637085,-0.04482337832450867,-0.06389715522527695,0.07572289556264877,0.04787518084049225,0.04139009863138199,0.09060044586658478
1.4869720935821533,-0.04558632895350456,-0.06656748056411743,0.07763027399778366,0.04901960864663124,0.04139009863138199,0.09288929402828217
1.5070946216583252,-0.04634927958250046,-0.06961929053068161,0.08030059933662415,0.050164032727479935,0.04253452271223068,0.09441519528627396
1.5271539688110352,-0.04711223021149635,-0.07343403995037079,0.08258945494890213,0.051689937710762024,0.04253452271223068,0.09594109654426575
1.547290563583374,-0.04749370738863945,-0.07763027399778366,0.08411535620689392,0.05245288833975792,0.04291599988937378,0.09746700525283813
1.5673353672027588,-0.048256658017635345,-0.08182650804519653,0.08602273464202881,0.053215838968753815,0.043678950518369675,0.09937438368797302
1.5874042510986328,-0.04901960864663124,-0.08564125746488571,0.08869306743144989,0.053215838968753815,0.043678950518369675,0.10090028494596481
1.6074767112731934,-0.04901960864663124,-0.08907453715801239,0.09060044586658478,0.05397878959774971,0.04444190114736557,0.10204470902681351
1.6275300979614258,-0.050164032727479935,-0.09212634712457657,0.09250781685113907,0.05397878959774971,0.04482337832450867,0.1035706102848053
1.6476914882659912,-0.05130846053361893,-0.09517814964056015,0.09517814964056015,0.0558861680328846,0.04558632895350456,0.10509651154279709
1.6677310466766357,-0.05207141116261482,-0.09861142933368683,0.09670405089855194,0.05664911866188049,0.04596780240535736,0.10585946589708328
1.6878139972686768,-0.05245288833975792,-0.10051880776882172,0.09822995215654373,0.05741206929087639,0.046730753034353256,0.10738536715507507
1.707850456237793,-0.05283436179161072,-0.1031891331076622,0.09975585341453552,0.05855649709701538,0.04711223021149635,0.10852979123592377
1.7279415130615234,-0.05359731614589691,-0.10547798871994019,0.10166323184967041,0.05970092490315437,0.04749370738863945,0.10929274559020996
1.7480456829071045,-0.05436026677489281,-0.10738536715507507,0.1039520874619484,0.06008239835500717,0.04787518084049225,0.11043716967105865
1.7680845260620117,-0.05436026677489281,-0.10891126841306686,0.10509651154279709,0.06046387553215027,0.048256658017635345,0.11234454810619354
1.7882566452026367,-0.0551232174038887,-0.11158160120248795,0.10700388997793198,0.06084534898400307,0.048638131469488144,0.11272602528333664
1.8083486557006836,-0.056267641484737396,-0.11425192654132843,0.10967422276735306,0.06160829961299896,0.04940108209848404,0.11387044936418533
1.8284111022949219,-0.05664911866188049,-0.11615930497646332,0.11196307092905045,0.06237125024199486,0.05054550990462303,0.11501488089561462
1.848475456237793,-0.05703059583902359,-0.11768520623445511,0.11348897218704224,0.06389715522527695,0.051689937710762024,0.11692225188016891
1.8688201904296875,-0.057793546468019485,-0.1199740618467331,0.11501488089561462,0.06466010212898254,0.05207141116261482,0.1184481605887413
1.8889062404632568,-0.058175019919872284,-0.12188144028186798,0.11730372905731201,0.06580453366041183,0.05245288833975792,0.1199740618467331
1.9089758396148682,-0.05893797054886818,-0.12340734153985977,0.11959258466959,0.06694895774126053,0.05283436179161072,0.12073700875043869
1.9290194511413574,-0.059319447726011276,-0.12493324279785156,0.12111848592758179,0.06771191209554672,0.05359731614589691,0.12226291000843048
1.949115514755249,-0.06008239835500717,-0.12798504531383514,0.12378881871700287,0.06809338182210922,0.05397878959774971,0.12417028844356537
1.9691925048828125,-0.061226826161146164,-0.13141833245754242,0.12684062123298645,0.06847485899925232,0.054741740226745605,0.12645913660526276
1.989255428314209,-0.06160829961299896,-0.1348516047000885,0.12874799966812134,0.06961929053068161,0.056267641484737396,0.12798504531383514
2.0094685554504395,-0.06237125024199486,-0.13828489184379578,0.13103684782981873,0.0711451917886734,0.05703059583902359,0.12951095402240753
2.02955961227417,-0.06313420087099075,-0.14095520973205566,0.1337071806192398,0.071908138692379,0.05741206929087639,0.13141833245754242
2.049654960632324,-0.06351567804813385,-0.14362554252147675,0.1359960287809372,0.07305257022380829,0.057793546468019485,0.1325627565383911
2.0697438716888428,-0.06466010212898254,-0.14591439068317413,0.13790340721607208,0.07495994865894318,0.058175019919872284,0.1340886503458023
2.089812755584717,-0.06580453366041183,-0.1501106321811676,0.14057374000549316,0.07610437273979187,0.06008239835500717,0.135233074426651
2.109893798828125,-0.06656748056411743,-0.1527809500694275,0.14324407279491425,0.07686731964349747,0.061226826161146164,0.1363775134086609
2.1299614906311035,-0.06694895774126053,-0.15545128285884857,0.14476996660232544,0.07763027399778366,0.06198977679014206,0.13790340721607208
2.1501054763793945,-0.06771191209554672,-0.15812161564826965,0.14744029939174652,0.07877469807863235,0.06313420087099075,0.13942931592464447
2.170147657394409,-0.06923781335353851,-0.16002899408340454,0.1497291475534439,0.07953765243291855,0.06466010212898254,0.14171816408634186
2.1901957988739014,-0.06961929053068161,-0.16269932687282562,0.1516365259885788,0.07991912961006165,0.06504157930612564,0.14324407279491425
2.2102901935577393,-0.07000076025724411,-0.1653696447610855,0.15468832850456238,0.08106355369091034,0.06542305648326874,0.14438849687576294
2.2304787635803223,-0.07038223743438721,-0.16880293190479279,0.15735866129398346,0.08220797777175903,0.06580453366041183,0.14667734503746033
2.2504799365997314,-0.0707637146115303,-0.17147326469421387,0.15926603972911835,0.08297093212604523,0.06694895774126053,0.14858472347259521
2.271131753921509,-0.071908138692379,-0.17376211285591125,0.16117341816425323,0.08335240930318832,0.06809338182210922,0.1501106321811676
2.291271209716797,-0.07305257022380829,-0.17566949129104614,0.16346226632595062,0.08411535620689392,0.06923781335353851,0.1508735716342926
2.3113412857055664,-0.07381551712751389,-0.17681391537189484,0.164988175034523,0.08487831056118011,0.06961929053068161,0.1516365259885788
2.3314363956451416,-0.07419699430465698,-0.17948424816131592,0.1665140837430954,0.0864042118191719,0.07000076025724411,0.15430685877799988
2.351585865020752,-0.07495994865894318,-0.182154580950737,0.16918440163135529,0.086785688996315,0.07038223743438721,0.15697719156742096
2.371713638305664,-0.07572289556264877,-0.18596932291984558,0.17223620414733887,0.0883115902543068,0.0715266615152359,0.15774014592170715
2.391763925552368,-0.07610437273979187,-0.18902114033699036,0.17376211285591125,0.08945601433515549,0.0722896158695221,0.15812161564826965
2.411776304244995,-0.07686731964349747,-0.19245441257953644,0.17681391537189484,0.08983749151229858,0.07267109304666519,0.15926603972911835
2.4319045543670654,-0.07763027399778366,-0.1958876997232437,0.17910276353359222,0.09060044586658478,0.07305257022380829,0.16079194843769073
2.4519588947296143,-0.07839322835206985,-0.1993209719657898,0.1825360506772995,0.09098191559314728,0.07305257022380829,0.16193637251853943
2.472081184387207,-0.07915617525577545,-0.20199130475521088,0.1848248988389969,0.09174486994743347,0.07343403995037079,0.16308079659938812
2.492133140563965,-0.08030059933662415,-0.20504310727119446,0.18749523162841797,0.09365224838256836,0.07457847148180008,0.164988175034523
2.512315273284912,-0.08106355369091034,-0.20695048570632935,0.19016556441783905,0.09441519528627396,0.07572289556264877,0.1665140837430954
2.532357931137085,-0.08182650804519653,-0.21038375794887543,0.19245441257953644,0.09555962681770325,0.07686731964349747,0.16880293190479279
2.552788257598877,-0.08335240930318832,-0.2130540907382965,0.19436179101467133,0.09632257372140884,0.07877469807863235,0.16994735598564148
2.572880983352661,-0.08411535620689392,-0.21648737788200378,0.1985580176115036,0.09746700525283813,0.07991912961006165,0.17223620414733887
2.5929195880889893,-0.08487831056118011,-0.21801327168941498,0.20084688067436218,0.09861142933368683,0.07991912961006165,0.17338064312934875
2.613020181655884,-0.08525978773832321,-0.22068360447883606,0.20351719856262207,0.09899290651082993,0.08030059933662415,0.17605096101760864
2.6331448554992676,-0.0864042118191719,-0.22335393726825714,0.20618753135204315,0.10090028494596481,0.08068207651376724,0.17681391537189484
2.6531758308410645,-0.0875486359000206,-0.22602425515651703,0.20847637951374054,0.10166323184967041,0.08144503086805344,0.17872129380702972
2.6732590198516846,-0.0879301130771637,-0.2286945879459381,0.21038375794887543,0.1031891331076622,0.08297093212604523,0.1806286722421646
2.6933364868164062,-0.08945601433515549,-0.2313649207353592,0.212672621011734,0.1039520874619484,0.08373387902975082,0.182154580950737
2.71341872215271,-0.09060044586658478,-0.23403525352478027,0.2161058932542801,0.10509651154279709,0.08487831056118011,0.1840619444847107
2.7335753440856934,-0.09136339277029037,-0.23785001039505005,0.21877622604370117,0.10624094307422638,0.08602273464202881,0.18558785319328308
2.7537238597869873,-0.09212634712457657,-0.24090181291103363,0.22106507420539856,0.10662241280078888,0.0871671661734581,0.18749523162841797
2.773810863494873,-0.09288929402828217,-0.2443350851535797,0.22411687672138214,0.10814831405878067,0.0879301130771637,0.18863965570926666
2.7938716411590576,-0.09403372555971146,-0.2473868876695633,0.22755016386508942,0.10929274559020996,0.08907453715801239,0.19130998849868774
2.813936710357666,-0.09479667246341705,-0.2508201599121094,0.2294575423002243,0.11120012402534485,0.09098191559314728,0.19283588230609894
2.83412504196167,-0.09555962681770325,-0.25425344705581665,0.23212787508964539,0.11272602528333664,0.09212634712457657,0.19512474536895752
2.854126214981079,-0.09670405089855194,-0.2569237947463989,0.23556114733219147,0.11310750246047974,0.09327077120542526,0.1970321238040924
2.8742728233337402,-0.09746700525283813,-0.2603570520877838,0.23746852576732635,0.11348897218704224,0.09479667246341705,0.1989395022392273
2.8943049907684326,-0.09899290651082993,-0.2630273997783661,0.24090181291103363,0.11425192654132843,0.09555962681770325,0.2004653960466385
2.914410352706909,-0.09975585341453552,-0.266460657119751,0.2439536154270172,0.11577782779932022,0.09670405089855194,0.20237277448177338
2.9345743656158447,-0.10013733059167862,-0.26913100481033325,0.2470054179430008,0.11692225188016891,0.09708552807569504,0.20389868319034576
2.9545748233795166,-0.10051880776882172,-0.27180132269859314,0.24967575073242188,0.1180666834115982,0.09708552807569504,0.20580606162548065
2.9747202396392822,-0.10128175467252731,-0.2756160795688629,0.25196459889411926,0.11959258466959,0.09784847497940063,0.20695048570632935
2.9947993755340576,-0.10204470902681351,-0.2790493667125702,0.25539788603782654,0.12073700875043869,0.09899290651082993,0.20923933386802673
3.014986991882324,-0.1031891331076622,-0.2817196846008301,0.2576867341995239,0.12149996310472488,0.10051880776882172,0.21038375794887543
3.034984827041626,-0.10433356463909149,-0.28477150201797485,0.2599755823612213,0.12264438718557358,0.10166323184967041,0.21190966665744781
3.055082321166992,-0.10585946589708328,-0.28934919834136963,0.2634088695049286,0.12340734153985977,0.1024261862039566,0.2138170450925827
3.0751442909240723,-0.10700388997793198,-0.2943083941936493,0.26684215664863586,0.12455176562070847,0.1039520874619484,0.2149614691734314
3.0952205657958984,-0.10738536715507507,-0.29850462079048157,0.26951247453689575,0.12607766687870026,0.1039520874619484,0.21763180196285248
3.115532875061035,-0.10852979123592377,-0.30270084738731384,0.27141985297203064,0.12798504531383514,0.1039520874619484,0.21915769577026367
3.1355955600738525,-0.10967422276735306,-0.3065156042575836,0.2744716703891754,0.12912946939468384,0.10471503436565399,0.22182802855968475
3.1556780338287354,-0.11043716967105865,-0.309567391872406,0.2771419882774353,0.13065537810325623,0.10547798871994019,0.22297245264053345
3.175748825073242,-0.11234454810619354,-0.3118562698364258,0.2794308364391327,0.13179980218410492,0.10662241280078888,0.22526131570339203
3.1958532333374023,-0.11387044936418533,-0.31605249643325806,0.28286412358283997,0.1325627565383911,0.10852979123592377,0.22755016386508942
3.2159957885742188,-0.11463340371847153,-0.32101166248321533,0.28629741072654724,0.1337071806192398,0.11005569249391556,0.2290760725736618
3.2359862327575684,-0.11463340371847153,-0.3255893886089325,0.28782328963279724,0.1348516047000885,0.11120012402534485,0.2309834510087967
3.256117582321167,-0.11539635062217712,-0.32978561520576477,0.290875107049942,0.1359960287809372,0.11234454810619354,0.23289081454277039
3.276160955429077,-0.11654078215360641,-0.33245593309402466,0.2935454249382019,0.1363775134086609,0.11387044936418533,0.23479819297790527
3.296250104904175,-0.11768520623445511,-0.33665215969085693,0.2962157726287842,0.13752193748950958,0.11463340371847153,0.23708705604076385
3.3162968158721924,-0.1188296303153038,-0.3393225073814392,0.29888609051704407,0.13904783129692078,0.11654078215360641,0.23823148012161255
3.3364005088806152,-0.1199740618467331,-0.3423742949962616,0.30117493867874146,0.13981078565120697,0.1180666834115982,0.24013885855674744
3.3564486503601074,-0.12073700875043869,-0.34618905186653137,0.30422675609588623,0.14095520973205566,0.1188296303153038,0.24128328263759613
3.376521587371826,-0.12111848592758179,-0.35076677799224854,0.3068970739841461,0.14209964871406555,0.11959258466959,0.24242770671844482
3.396604299545288,-0.12149996310472488,-0.3557259440422058,0.309567391872406,0.14362554252147675,0.12111848592758179,0.2447165697813034
3.4167189598083496,-0.12188144028186798,-0.3606851398944855,0.3133821487426758,0.14438849687576294,0.12149996310472488,0.2466239482164383
3.4368107318878174,-0.12226291000843048,-0.36449989676475525,0.31605249643325806,0.14515145123004913,0.12226291000843048,0.2481498420238495
3.456857442855835,-0.12302586436271667,-0.368314653635025,0.31872281432151794,0.14629587531089783,0.12378881871700287,0.24929426610469818
3.4771766662597656,-0.12378881871700287,-0.3713664412498474,0.32101166248321533,0.14705882966518402,0.12493324279785156,0.25120165944099426
3.4972641468048096,-0.12493324279785156,-0.3740367889404297,0.3240634799003601,0.14744029939174652,0.12569619715213776,0.25310903787612915
3.5173394680023193,-0.12645913660526276,-0.3763256371021271,0.3271152675151825,0.14858472347259521,0.12645913660526276,0.25501641631126404
3.537383556365967,-0.12798504531383514,-0.37823301553726196,0.32978561520576477,0.1501106321811676,0.12645913660526276,0.2569237947463989
3.5575056076049805,-0.12874799966812134,-0.37975889444351196,0.33321890234947205,0.1508735716342926,0.12645913660526276,0.2592126429080963
3.577594041824341,-0.12951095402240753,-0.38128480315208435,0.3370336592197418,0.1527809500694275,0.12722209095954895,0.2607385218143463
3.5976808071136475,-0.13103684782981873,-0.38357365131378174,0.3400854468345642,0.15468832850456238,0.12836651504039764,0.2630273997783661
3.6177587509155273,-0.13179980218410492,-0.3858625292778015,0.343137264251709,0.15697719156742096,0.12989242374897003,0.264934778213501
3.637815237045288,-0.13218127191066742,-0.3896772861480713,0.34695202112197876,0.15774014592170715,0.13103684782981873,0.26684215664863586
3.657944679260254,-0.1329442262649536,-0.39387351274490356,0.35076677799224854,0.15888457000255585,0.13218127191066742,0.26836803555488586
3.6779704093933105,-0.1337071806192398,-0.39921414852142334,0.3534370958805084,0.15964750945568085,0.1340886503458023,0.27065691351890564
3.6980977058410645,-0.1340886503458023,-0.404936283826828,0.3564889132976532,0.16117341816425323,0.1359960287809372,0.27218279242515564
3.718132734298706,-0.1348516047000885,-0.4091325104236603,0.3603036403656006,0.16308079659938812,0.13752193748950958,0.2744716703891754
3.7382044792175293,-0.1356145590543747,-0.41256579756736755,0.36373692750930786,0.1646067053079605,0.13866636157035828,0.2763790488243103
3.7582645416259766,-0.1363775134086609,-0.41523614525794983,0.36564430594444275,0.1653696447610855,0.13942931592464447,0.2782863974571228
3.778351306915283,-0.13790340721607208,-0.4201953113079071,0.3686961233615875,0.1657511293888092,0.14095520973205566,0.2801937758922577
3.7984278202056885,-0.13942931592464447,-0.42553597688674927,0.3725108802318573,0.1668955534696579,0.14324407279491425,0.2817196846008301
3.8184947967529297,-0.14133669435977936,-0.42858776450157166,0.3751811981201172,0.1684214472770691,0.14362554252147675,0.28400853276252747
3.8385748863220215,-0.14286258816719055,-0.43163958191871643,0.3774700462818146,0.16956588625907898,0.14400701224803925,0.28629741072654724
3.8586649894714355,-0.14362554252147675,-0.4343098998069763,0.38052186369895935,0.17032882571220398,0.14476996660232544,0.28896772861480713
3.8788087368011475,-0.14438849687576294,-0.4365987777709961,0.38319218158721924,0.17261768877506256,0.14591439068317413,0.290112167596817
3.8988635540008545,-0.14553292095661163,-0.440032035112381,0.3854810297489166,0.17376211285591125,0.14705882966518402,0.2927824854850769
3.918931007385254,-0.14591439068317413,-0.44232088327407837,0.3881513774394989,0.17452506721019745,0.14820325374603271,0.2943083941936493
3.939027786254883,-0.14667734503746033,-0.44384679198265076,0.3912031650543213,0.17528800666332245,0.1489662081003189,0.2962157726287842
3.9590985774993896,-0.14667734503746033,-0.44499123096466064,0.3934920132160187,0.17605096101760864,0.1501106321811676,0.2977416515350342
3.9791524410247803,-0.14667734503746033,-0.44804301857948303,0.39539939165115356,0.17719538509845734,0.1512550562620163,0.29964902997016907
3.99927020072937,-0.14744029939174652,-0.4510948359966278,0.39921414852142334,0.1802472025156021,0.15430685877799988,0.30193790793418884
4.019321441650391,-0.14858472347259521,-0.4537651538848877,0.4026474356651306,0.1817730963230133,0.15583276748657227,0.30498969554901123
4.03937292098999,-0.14858472347259521,-0.45643550157546997,0.404936283826828,0.182917520403862,0.15621423721313477,0.3072785437107086
4.059424877166748,-0.1493476778268814,-0.45872434973716736,0.4068436622619629,0.1840619444847107,0.15697719156742096,0.308804452419281
4.079567193984985,-0.1504921019077301,-0.46177613735198975,0.40989547967910767,0.1848248988389969,0.15774014592170715,0.3118562698364258
4.0996129512786865,-0.1516365259885788,-0.4648279547691345,0.41256579756736755,0.18596932291984558,0.15850308537483215,0.31452658772468567
4.119698762893677,-0.15316243469715118,-0.4671168029308319,0.41485464572906494,0.18825818598270416,0.16079194843769073,0.31605249643325806
4.139798879623413,-0.15468832850456238,-0.4690241813659668,0.4171435236930847,0.18978407979011536,0.16308079659938812,0.31872281432151794
4.159904956817627,-0.15659570693969727,-0.4709315598011017,0.4201953113079071,0.19130998849868774,0.16422522068023682,0.31986725330352783
4.1800620555877686,-0.15888457000255585,-0.47398337721824646,0.4228656589984894,0.19207294285297394,0.1657511293888092,0.3217746317386627
4.200105428695679,-0.16117341816425323,-0.47741663455963135,0.42553597688674927,0.19359883666038513,0.1672770231962204,0.3236820101737976
4.2203369140625,-0.16308079659938812,-0.4812313914299011,0.42896926403045654,0.19512474536895752,0.16956588625907898,0.32673379778862
4.240485668182373,-0.16422522068023682,-0.4854276478290558,0.4327840209007263,0.1970321238040924,0.17071031033992767,0.32940414547920227
4.260512590408325,-0.164988175034523,-0.4880979657173157,0.4354543387889862,0.1993209719657898,0.17223620414733887,0.33169299364089966
4.280550003051758,-0.164988175034523,-0.49191272258758545,0.4377431869506836,0.20084688067436218,0.17338064312934875,0.33474478125572205
4.300638675689697,-0.1653696447610855,-0.4957274794578552,0.44117647409439087,0.20275425910949707,0.17414358258247375,0.3370336592197418
4.320702314376831,-0.1665140837430954,-0.499542236328125,0.44499123096466064,0.20466163754463196,0.17528800666332245,0.3389410376548767
4.340772867202759,-0.1680399775505066,-0.5022125840187073,0.44728007912635803,0.20695048570632935,0.17757686972618103,0.3412298858165741
4.360934495925903,-0.16918440163135529,-0.5052643418312073,0.4495689272880554,0.20885786414146423,0.17872129380702972,0.3427557647228241
4.381125450134277,-0.16994735598564148,-0.508316159248352,0.4533836841583252,0.21038375794887543,0.1810101419687271,0.34504464268684387
4.401153802871704,-0.17071031033992767,-0.5109865069389343,0.4560540020465851,0.21190966665744781,0.1817730963230133,0.34618905186653137
4.42125391960144,-0.17185473442077637,-0.5132753252983093,0.45834288001060486,0.2130540907382965,0.182154580950737,0.34847790002822876
4.441288232803345,-0.17338064312934875,-0.5155642032623291,0.46101319789886475,0.2141985148191452,0.1832990050315857,0.35076677799224854
4.461377143859863,-0.17490653693675995,-0.5178530812263489,0.4640650153160095,0.2153429538011551,0.1844434291124344,0.3530556261539459
4.481458425521851,-0.17605096101760864,-0.5189974904060364,0.4655908942222595,0.21648737788200378,0.18558785319328308,0.3564889132976532
4.501544713973999,-0.17719538509845734,-0.5209048390388489,0.4674982726573944,0.21801327168941498,0.18711376190185547,0.3587777614593506
4.521751165390015,-0.17795833945274353,-0.5231937170028687,0.4701686203479767,0.21915769577026367,0.18940261006355286,0.3614480793476105
4.541740894317627,-0.17948424816131592,-0.5254825949668884,0.4732204079627991,0.22068360447883606,0.19054703414440155,0.36449989676475525
4.561843633651733,-0.1806286722421646,-0.5273899435997009,0.47550925612449646,0.22182802855968475,0.19283588230609894,0.36755168437957764
4.581966400146484,-0.1813916265964508,-0.5296788215637207,0.47779813408851624,0.22449836134910583,0.19512474536895752,0.3694590628147125
4.6021833419799805,-0.182154580950737,-0.5319676399230957,0.4808499217033386,0.22564278542995453,0.1974135935306549,0.3717479109764099
4.6222052574157715,-0.182917520403862,-0.534637987613678,0.4835202693939209,0.22678720951080322,0.1997024416923523,0.3747997283935547
4.6422340869903564,-0.1844434291124344,-0.5365453362464905,0.4850461483001709,0.2290760725736618,0.20160982012748718,0.3759441375732422
4.662416219711304,-0.18596932291984558,-0.5388342142105103,0.4880979657173157,0.2309834510087967,0.20313572883605957,0.37899595499038696
4.682486534118652,-0.18673227727413177,-0.5399786233901978,0.49038681387901306,0.23365376889705658,0.20466163754463196,0.38242924213409424
4.702499866485596,-0.18749523162841797,-0.54264897108078,0.49229419231414795,0.23594263195991516,0.20542457699775696,0.3858625292778015
4.722654342651367,-0.18863965570926666,-0.5453193187713623,0.49496451020240784,0.23785001039505005,0.20733195543289185,0.3881513774394989
4.742730379104614,-0.19016556441783905,-0.5483710765838623,0.4980163276195526,0.24013885855674744,0.20809490978717804,0.3904402256011963
4.7628655433654785,-0.19245441257953644,-0.5498970150947571,0.4999237060546875,0.24128328263759613,0.20962081849575043,0.39387351274490356
4.782957077026367,-0.19436179101467133,-0.5514228940010071,0.501068115234375,0.24357213079929352,0.21152819693088531,0.39578089118003845
4.803030490875244,-0.19512474536895752,-0.5540932416915894,0.5037384629249573,0.2450980395078659,0.21229113638401031,0.39768826961517334
4.823086500167847,-0.1958876997232437,-0.5563820600509644,0.5064088106155396,0.2454795092344284,0.2141985148191452,0.4003585875034332
4.8432457447052,-0.1966506391763687,-0.5586709380149841,0.509079098701477,0.2481498420238495,0.2153429538011551,0.4022659659385681
4.863245010375977,-0.1970321238040924,-0.5609598159790039,0.5109865069389343,0.2500572204589844,0.21801327168941498,0.4053177833557129
4.883407354354858,-0.1977950781583786,-0.5643930435180664,0.5148012638092041,0.25272753834724426,0.22030213475227356,0.4087510406970978
4.903409957885742,-0.1985580176115036,-0.5663004517555237,0.5182345509529114,0.25539788603782654,0.22259098291397095,0.41218432784080505
4.923848628997803,-0.1993209719657898,-0.5693522691726685,0.5205233693122864,0.2573052644729614,0.22564278542995453,0.41638055443763733
4.9440484046936035,-0.2004653960466385,-0.5724040865898132,0.5243381261825562,0.2599755823612213,0.2290760725736618,0.4198138415813446
4.964056968688965,-0.20122835040092468,-0.5746929049491882,0.5266270041465759,0.2626459002494812,0.230601966381073,0.4232471287250519
4.984127044677734,-0.20199130475521088,-0.576218843460083,0.5285343527793884,0.2641718089580536,0.23289081454277039,0.42591744661331177
5.004400730133057,-0.20313572883605957,-0.5788891315460205,0.5308232307434082,0.265697717666626,0.23403525352478027,0.42858776450157166
5.024414539337158,-0.20428015291690826,-0.5815594792366028,0.534637987613678,0.26798656582832336,0.23517967760562897,0.43163958191871643
5.044472694396973,-0.20618753135204315,-0.5842298269271851,0.536926805973053,0.27065691351890564,0.23746852576732635,0.4354543387889862
5.064556360244751,-0.20847637951374054,-0.5869001150131226,0.5395971536636353,0.27218279242515564,0.23899443447589874,0.4396505653858185
5.084643840789795,-0.21076524257659912,-0.5899519324302673,0.5422675013542175,0.2752346098423004,0.24166475236415863,0.44270238280296326
5.104824542999268,-0.212672621011734,-0.5933852195739746,0.5453193187713623,0.2775234580039978,0.2447165697813034,0.44766154885292053
5.124804973602295,-0.2145799994468689,-0.5960555672645569,0.5472266674041748,0.2786678969860077,0.2458609938621521,0.4503318965435028
5.144908905029297,-0.2153429538011551,-0.5994887948036194,0.5495155453681946,0.2805752754211426,0.2481498420238495,0.4537651538848877
5.165012359619141,-0.21839475631713867,-0.6040665507316589,0.5533303022384644,0.2821011543273926,0.24967575073242188,0.4556725323200226
5.185156345367432,-0.22030213475227356,-0.6074998378753662,0.5556191205978394,0.28439003229141235,0.25234606862068176,0.45796138048171997
5.2051451206207275,-0.22144655883312225,-0.6101701259613037,0.5579079985618591,0.28629741072654724,0.25387197732925415,0.46215763688087463
5.225236177444458,-0.22259098291397095,-0.6139848828315735,0.5609598159790039,0.28973066806793213,0.25577935576438904,0.4648279547691345
5.24530816078186,-0.22411687672138214,-0.6170367002487183,0.5647745728492737,0.2912565767765045,0.2592126429080963,0.4686427116394043
5.265414237976074,-0.22564278542995453,-0.6197070479393005,0.5678263306617737,0.2931639552116394,0.2626459002494812,0.4716945290565491
5.285740852355957,-0.22640573978424072,-0.6239032745361328,0.571259617805481,0.2965972423553467,0.266460657119751,0.47398337721824646
5.305830955505371,-0.22678720951080322,-0.6280995011329651,0.5754558444023132,0.29926756024360657,0.26951247453689575,0.47665369510650635
5.3259804248809814,-0.22716869413852692,-0.6319142580032349,0.579270601272583,0.30231937766075134,0.27218279242515564,0.4800869822502136
5.346060276031494,-0.22793163359165192,-0.6357290148735046,0.5830853581428528,0.30460822582244873,0.2752346098423004,0.4839017391204834
5.366171360015869,-0.2286945879459381,-0.6403067111968994,0.5865186452865601,0.3076600432395935,0.2790493667125702,0.4873350262641907
5.386291265487671,-0.2294575423002243,-0.6445029377937317,0.5914778113365173,0.3099488914012909,0.28362706303596497,0.49229419231414795
5.406395673751831,-0.230601966381073,-0.6483176946640015,0.5960555672645569,0.31490805745124817,0.28591591119766235,0.4964904189109802
5.426411390304565,-0.2317463904619217,-0.6517509818077087,0.5994887948036194,0.31757840514183044,0.28858625888824463,0.5006866455078125
5.446493864059448,-0.23289081454277039,-0.655947208404541,0.6036850810050964,0.32063019275665283,0.2904936373233795,0.5048828721046448
5.466628551483154,-0.23403525352478027,-0.6601434350013733,0.6086442470550537,0.3240634799003601,0.2920195460319519,0.508316159248352
5.48665976524353,-0.23556114733219147,-0.6631952524185181,0.6116960644721985,0.3278782367706299,0.2962157726287842,0.5128938555717468
5.506758213043213,-0.23708705604076385,-0.6673914790153503,0.6155108213424683,0.33093002438545227,0.29888609051704407,0.5182345509529114
5.526870012283325,-0.23823148012161255,-0.6719691753387451,0.620088517665863,0.33474478125572205,0.30193790793418884,0.5228122472763062
5.546903610229492,-0.24013885855674744,-0.6765468716621399,0.6242847442626953,0.3389410376548767,0.3061341345310211,0.5266270041465759
5.567005157470703,-0.24242770671844482,-0.6792172193527222,0.6269550919532776,0.3416113555431366,0.309567391872406,0.5304417610168457
5.587056636810303,-0.2447165697813034,-0.6826505064964294,0.6303883194923401,0.344663143157959,0.31452658772468567,0.534637987613678
5.607086658477783,-0.2462424635887146,-0.6857023239135742,0.6334401369094849,0.34771496057510376,0.31795987486839294,0.5399786233901978
5.627149343490601,-0.2466239482164383,-0.6887540817260742,0.6368734240531921,0.35038527846336365,0.32101166248321533,0.5445563197135925
5.647193908691406,-0.2481498420238495,-0.6914244294166565,0.6395437717437744,0.3538185656070709,0.32520791888237,0.5483710765838623
5.667303800582886,-0.2504386901855469,-0.6944762468338013,0.6429770588874817,0.3572518527507782,0.32940414547920227,0.5525673031806946
5.687374830245972,-0.25234606862068176,-0.697528064250946,0.6460288166999817,0.3606851398944855,0.33321890234947205,0.5563820600509644
5.707449436187744,-0.25349050760269165,-0.7001983523368835,0.648699164390564,0.36297398805618286,0.33550775051116943,0.5605783462524414
5.7275309562683105,-0.25463491678237915,-0.7036316394805908,0.6513695120811462,0.36793315410614014,0.3393225073814392,0.5640115737915039
5.7476184368133545,-0.25577935576438904,-0.7078278660774231,0.6548027992248535,0.3721294105052948,0.343137264251709,0.569733738899231
5.767730951309204,-0.2573052644729614,-0.7116426229476929,0.657473087310791,0.3759441375732422,0.34657052159309387,0.5746929049491882
5.787793159484863,-0.2584496736526489,-0.7143129706382751,0.6605249047279358,0.38014039397239685,0.35114824771881104,0.580033540725708
5.807920932769775,-0.2588311731815338,-0.7173647880554199,0.6635767221450806,0.3843366205692291,0.3557259440422058,0.5853742361068726
5.8279924392700195,-0.2595941126346588,-0.7207980751991272,0.6673914790153503,0.3900587558746338,0.3583962619304657,0.5899519324302673
5.848041296005249,-0.2599755823612213,-0.7227054238319397,0.6700618267059326,0.39539939165115356,0.361066609621048,0.5964370369911194
5.868127822875977,-0.2603570520877838,-0.725375771522522,0.6738765835762024,0.4018844962120056,0.36488136649131775,0.6025406122207642
5.888209104537964,-0.2611200213432312,-0.7272831201553345,0.6773098111152649,0.4076066315174103,0.368314653635025,0.6086442470550537
5.908244848251343,-0.2618829607963562,-0.7295719981193542,0.6803616285324097,0.41523614525794983,0.3740367889404297,0.6162737607955933
5.92830228805542,-0.2622644305229187,-0.7322422862052917,0.6826505064964294,0.4224841594696045,0.38090333342552185,0.6235218048095703
5.9483888149261475,-0.2626459002494812,-0.7352941036224365,0.6857023239135742,0.43049514293670654,0.3850995600223541,0.6315327882766724
5.968467712402344,-0.2630273997783661,-0.7387273907661438,0.6898985505104065,0.4369802474975586,0.3881513774394989,0.6383993029594421
5.988515853881836,-0.2630273997783661,-0.7410162687301636,0.6929503083229065,0.44308385252952576,0.3915846347808838,0.6452658772468567
6.008959770202637,-0.2634088695049286,-0.7429236173629761,0.6948577165603638,0.4499503970146179,0.39463645219802856,0.6525139212608337
6.029052257537842,-0.2641718089580536,-0.7448310256004333,0.698291003704071,0.45681697130203247,0.39730677008628845,0.6586175560951233
6.049120187759399,-0.2653162479400635,-0.7475013136863708,0.700579822063446,0.464446485042572,0.4015030264854431,0.6643396615982056
6.06916618347168,-0.265697717666626,-0.7494087219238281,0.7028687000274658,0.4728389382362366,0.404936283826828,0.6723506450653076
6.089270830154419,-0.266460657119751,-0.7513160705566406,0.7059205174446106,0.4797055125236511,0.4068436622619629,0.6795986890792847
6.109382152557373,-0.266460657119751,-0.7547493577003479,0.7085908055305481,0.4873350262641907,0.41103988885879517,0.6860837936401367
6.129439115524292,-0.266460657119751,-0.7562752962112427,0.7120240926742554,0.49496451020240784,0.41371023654937744,0.692568838596344
6.149466276168823,-0.26722362637519836,-0.7585641145706177,0.7135500311851501,0.5018310546875,0.4179064631462097,0.6979095339775085
6.169576406478882,-0.26722362637519836,-0.760471522808075,0.7158388495445251,0.5094605684280396,0.4236285984516144,0.7040131092071533
6.189624547958374,-0.26722362637519836,-0.7631418108940125,0.7204165458679199,0.5128938555717468,0.42553597688674927,0.7097352743148804
6.209705591201782,-0.26722362637519836,-0.7654306888580322,0.7219424843788147,0.5193789601325989,0.42935073375701904,0.7135500311851501
6.230020046234131,-0.26798656582832336,-0.7681010365486145,0.7238498330116272,0.5262455344200134,0.4365987777709961,0.7177462577819824
6.250146865844727,-0.26874953508377075,-0.770008385181427,0.7249943017959595,0.5300602912902832,0.439269095659256,0.7230868935585022
6.270256042480469,-0.26913100481033325,-0.7719157934188843,0.727664589881897,0.5331120491027832,0.439269095659256,0.727664589881897
6.290314435958862,-0.26913100481033325,-0.7738231420516968,0.7295719981193542,0.536926805973053,0.440032035112381,0.7307164072990417
6.310554504394531,-0.26913100481033325,-0.775730550289154,0.7307164072990417,0.5407415628433228,0.44155794382095337,0.7345311641693115
6.330758571624756,-0.26913100481033325,-0.777256429195404,0.732623815536499,0.5457007884979248,0.44308385252952576,0.7383459210395813
6.350761890411377,-0.26913100481033325,-0.778782308101654,0.734912633895874,0.5491340756416321,0.44613564014434814,0.7417792081832886
6.3708436489105225,-0.26913100481033325,-0.7810711860656738,0.7372015118598938,0.5521858334541321,0.44766154885292053,0.7444495558738708
6.390925884246826,-0.26913100481033325,-0.7825970649719238,0.7391088604927063,0.5586709380149841,0.4518577754497528,0.7467383742332458
6.410994052886963,-0.26913100481033325,-0.7845044732093811,0.7410162687301636,0.5605783462524414,0.4541466534137726,0.7501716613769531
6.431069374084473,-0.26913100481033325,-0.7860303521156311,0.7425421476364136,0.5628671646118164,0.4560540020465851,0.7532234787940979
6.451131105422974,-0.26913100481033325,-0.7875562906265259,0.7440680265426636,0.5655375123023987,0.45757991075515747,0.7562752962112427
6.47123908996582,-0.26913100481033325,-0.7883192300796509,0.7452124953269958,0.5659189820289612,0.45872434973716736,0.7597085237503052
6.491393089294434,-0.26913100481033325,-0.7894636392593384,0.7471198439598083,0.568970799446106,0.45910581946372986,0.760471522808075
6.511418342590332,-0.26913100481033325,-0.7909895181655884,0.7486457824707031,0.571259617805481,0.46063172817230225,0.7623788714408875
6.5315563678741455,-0.26874953508377075,-0.7921339869499207,0.7501716613769531,0.5754558444023132,0.46139466762542725,0.7642862796783447
6.551595211029053,-0.26874953508377075,-0.7921339869499207,0.7505531311035156,0.5788891315460205,0.46253910660743713,0.7658121585845947
6.571679592132568,-0.26836803555488586,-0.7928969264030457,0.7513160705566406,0.580033540725708,0.46292057633399963,0.767719566822052
6.591829061508179,-0.26798656582832336,-0.7948042750358582,0.7528420090675354,0.5815594792366028,0.46253910660743713,0.770008385181427
6.612091064453125,-0.26684215664863586,-0.7955672740936279,0.7543678879737854,0.5830853581428528,0.46330204606056213,0.7711527943611145
6.632150411605835,-0.2660791873931885,-0.7963302135467529,0.7562752962112427,0.5834668278694153,0.46292057633399963,0.7722972631454468
6.65240478515625,-0.2660791873931885,-0.7974746227264404,0.7570382356643677,0.5838482975959778,0.46368351578712463,0.7749675512313843
6.672578573226929,-0.2660791873931885,-0.7982375621795654,0.7578011751174927,0.5857557058334351,0.4663538634777069,0.775730550289154
6.69264030456543,-0.2660791873931885,-0.7986190319061279,0.7589455842971802,0.5876630544662476,0.4682612419128418,0.7776378989219666
6.713050127029419,-0.2660791873931885,-0.7993820309638977,0.7589455842971802,0.5899519324302673,0.4694056510925293,0.778782308101654
6.733156442642212,-0.2660791873931885,-0.7997635006904602,0.7597085237503052,0.5914778113365173,0.4690241813659668,0.7795453071594238
6.753226280212402,-0.265697717666626,-0.8005264401435852,0.7600900530815125,0.5922408103942871,0.4686427116394043,0.7818341255187988
6.773291349411011,-0.2653162479400635,-0.8016708493232727,0.7612344622612,0.5914778113365173,0.4663538634777069,0.7829785346984863
6.800268173217773,-0.2645532786846161,-0.8024337887763977,0.7608529925346375,0.5926222801208496,0.4671168029308319,0.7837415337562561
6.820357799530029,-0.2641718089580536,-0.8024337887763977,0.7608529925346375,0.5930037498474121,0.4682612419128418,0.7848859429359436
6.840423345565796,-0.2641718089580536,-0.802815318107605,0.7612344622612,0.5930037498474121,0.4686427116394043,0.7860303521156311
6.860518455505371,-0.2637903392314911,-0.8031967878341675,0.7612344622612,0.5937666893005371,0.4697871506214142,0.7864118218421936
6.880688428878784,-0.2637903392314911,-0.80357825756073,0.7623788714408875,0.5941481590270996,0.4705500900745392,0.7864118218421936
6.9007368087768555,-0.2630273997783661,-0.8047226667404175,0.7631418108940125,0.5933852195739746,0.4705500900745392,0.7864118218421936
6.920836687088013,-0.2622644305229187,-0.804341197013855,0.7639048099517822,0.5949110984802246,0.4713130295276642,0.7867932915687561
6.9414496421813965,-0.2618829607963562,-0.8047226667404175,0.7642862796783447,0.5956740379333496,0.4705500900745392,0.7875562906265259
6.961566686630249,-0.2618829607963562,-0.8047226667404175,0.7642862796783447,0.5971999764442444,0.4705500900745392,0.7890821695327759
6.981661796569824,-0.2618829607963562,-0.8047226667404175,0.7642862796783447,0.5994887948036194,0.4697871506214142,0.7894636392593384
7.001716136932373,-0.2618829607963562,-0.8047226667404175,0.7642862796783447,0.5994887948036194,0.4686427116394043,0.7902265787124634
7.021785259246826,-0.2618829607963562,-0.8047226667404175,0.7642862796783447,0.5994887948036194,0.4686427116394043,0.7909895181655884
7.0418925285339355,-0.2618829607963562,-0.8054856061935425,0.7646677494049072,0.5994887948036194,0.4678797721862793,0.7913710474967957
7.061935663223267,-0.2618829607963562,-0.8054856061935425,0.7650492191314697,0.5998703241348267,0.4674982726573944,0.7921339869499207
7.08211350440979,-0.2618829607963562,-0.8054856061935425,0.7654306888580322,0.5994887948036194,0.4671168029308319,0.7932783961296082
7.102122783660889,-0.2618829607963562,-0.805867075920105,0.7654306888580322,0.5998703241348267,0.4674982726573944,0.7932783961296082
7.122170686721802,-0.2618829607963562,-0.8062485456466675,0.7658121585845947,0.6010147333145142,0.4682612419128418,0.7932783961296082
7.1424524784088135,-0.2618829607963562,-0.80663001537323,0.7665750980377197,0.6010147333145142,0.4682612419128418,0.7932783961296082
7.162444829940796,-0.2618829607963562,-0.8070115447044373,0.7665750980377197,0.6010147333145142,0.4678797721862793,0.7936598658561707
7.182504177093506,-0.2618829607963562,-0.8073930144309998,0.7665750980377197,0.6010147333145142,0.4682612419128418,0.7936598658561707
7.202582836151123,-0.2618829607963562,-0.8077744841575623,0.7665750980377197,0.6010147333145142,0.4682612419128418,0.7936598658561707
7.222639083862305,-0.2618829607963562,-0.8081559538841248,0.7669565677642822,0.6010147333145142,0.4682612419128418,0.7936598658561707
7.242756128311157,-0.2618829607963562,-0.8085374236106873,0.767719566822052,0.6006332635879517,0.4682612419128418,0.7936598658561707
7.262892723083496,-0.2618829607963562,-0.8085374236106873,0.767719566822052,0.6010147333145142,0.4682612419128418,0.7936598658561707
7.2830376625061035,-0.2618829607963562,-0.8085374236106873,0.767719566822052,0.6006332635879517,0.4682612419128418,0.7936598658561707
7.303062915802002,-0.2618829607963562,-0.8085374236106873,0.768482506275177,0.6006332635879517,0.4682612419128418,0.7940413355827332
7.323293447494507,-0.2618829607963562,-0.8089188933372498,0.768482506275177,0.6010147333145142,0.4682612419128418,0.7940413355827332
7.34338641166687,-0.2618829607963562,-0.8093003630638123,0.7688639760017395,0.6013962030410767,0.4682612419128418,0.7940413355827332
7.363469839096069,-0.2618829607963562,-0.8093003630638123,0.7688639760017395,0.6017776727676392,0.4682612419128418,0.7944228053092957
7.383531332015991,-0.2618829607963562,-0.8093003630638123,0.7688639760017395,0.6013962030410767,0.4682612419128418,0.7944228053092957
7.403618574142456,-0.2615014910697937,-0.8093003630638123,0.7688639760017395,0.6013962030410767,0.4678797721862793,0.7948042750358582
7.423707485198975,-0.2615014910697937,-0.8093003630638123,0.7688639760017395,0.6013962030410767,0.4678797721862793,0.7951858043670654
7.443765640258789,-0.2607385218143463,-0.8093003630638123,0.7688639760017395,0.6017776727676392,0.4682612419128418,0.7963302135467529
7.464048862457275,-0.2595941126346588,-0.8093003630638123,0.770008385181427,0.6017776727676392,0.4678797721862793,0.7967116832733154
7.484147548675537,-0.2595941126346588,-0.8093003630638123,0.770008385181427,0.6021591424942017,0.4682612419128418,0.7970931529998779
7.50433611869812,-0.2595941126346588,-0.8093003630638123,0.7703898549079895,0.6021591424942017,0.4682612419128418,0.7970931529998779
7.524339437484741,-0.2595941126346588,-0.8093003630638123,0.770771324634552,0.6021591424942017,0.4682612419128418,0.7970931529998779
7.544436693191528,-0.2592126429080963,-0.8093003630638123,0.770771324634552,0.6021591424942017,0.4682612419128418,0.7970931529998779
7.56451153755188,-0.2580682039260864,-0.8093003630638123,0.770771324634552,0.6021591424942017,0.4682612419128418,0.7970931529998779
7.584563255310059,-0.2588311731815338,-0.8093003630638123,0.7703898549079895,0.6021591424942017,0.4671168029308319,0.7970931529998779
7.604609727859497,-0.2584496736526489,-0.8093003630638123,0.7703898549079895,0.6025406122207642,0.4667353332042694,0.7970931529998779
7.62473464012146,-0.2584496736526489,-0.8093003630638123,0.7703898549079895,0.6025406122207642,0.4671168029308319,0.7974746227264404
7.6448376178741455,-0.2584496736526489,-0.8093003630638123,0.770771324634552,0.6025406122207642,0.4667353332042694,0.7974746227264404
7.665160179138184,-0.2584496736526489,-0.8089188933372498,0.770771324634552,0.6029220819473267,0.4667353332042694,0.7970931529998779
7.685322523117065,-0.2588311731815338,-0.8089188933372498,0.7703898549079895,0.6029220819473267,0.4667353332042694,0.7974746227264404
7.7053985595703125,-0.2584496736526489,-0.8089188933372498,0.7703898549079895,0.6029220819473267,0.4667353332042694,0.7974746227264404
7.725449085235596,-0.2584496736526489,-0.8089188933372498,0.7703898549079895,0.6029220819473267,0.4667353332042694,0.7974746227264404
7.745526313781738,-0.2584496736526489,-0.8089188933372498,0.7703898549079895,0.6029220819473267,0.4667353332042694,0.7974746227264404
7.765615463256836,-0.2584496736526489,-0.8085374236106873,0.7703898549079895,0.6029220819473267,0.4667353332042694,0.7974746227264404
7.785680294036865,-0.2584496736526489,-0.8085374236106873,0.7703898549079895,0.6029220819473267,0.4667353332042694,0.7978560924530029
7.805807113647461,-0.2584496736526489,-0.8085374236106873,0.7703898549079895,0.6029220819473267,0.4667353332042694,0.7978560924530029
7.8260276317596436,-0.2584496736526489,-0.8085374236106873,0.7703898549079895,0.6029220819473267,0.4667353332042694,0.7978560924530029
7.846124172210693,-0.2584496736526489,-0.8085374236106873,0.7703898549079895,0.6029220819473267,0.4667353332042694,0.7982375621795654
7.866214752197266,-0.2584496736526489,-0.8085374236106873,0.7703898549079895,0.6033035516738892,0.4667353332042694,0.7982375621795654
7.886256217956543,-0.2584496736526489,-0.8085374236106873,0.770771324634552,0.6033035516738892,0.4667353332042694,0.7982375621795654
7.906352519989014,-0.2580682039260864,-0.8085374236106873,0.7703898549079895,0.6033035516738892,0.4667353332042694,0.7982375621795654
7.926406145095825,-0.2576867341995239,-0.8085374236106873,0.770771324634552,0.6033035516738892,0.4667353332042694,0.7982375621795654
7.94648003578186,-0.2576867341995239,-0.8085374236106873,0.770771324634552,0.6033035516738892,0.4667353332042694,0.7986190319061279
7.96656608581543,-0.2576867341995239,-0.8085374236106873,0.770771324634552,0.6033035516738892,0.4667353332042694,0.7990005612373352
7.986661911010742,-0.2576867341995239,-0.8085374236106873,0.770771324634552,0.6033035516738892,0.4667353332042694,0.7990005612373352
8.006826162338257,-0.2576867341995239,-0.8085374236106873,0.770771324634552,0.6033035516738892,0.4667353332042694,0.7990005612373352
8.026824474334717,-0.2576867341995239,-0.8085374236106873,0.770771324634552,0.6033035516738892,0.4667353332042694,0.7990005612373352
8.046880722045898,-0.2576867341995239,-0.8085374236106873,0.770771324634552,0.6033035516738892,0.4667353332042694,0.7993820309638977
8.066969633102417,-0.2576867341995239,-0.8081559538841248,0.770771324634552,0.6033035516738892,0.4667353332042694,0.7997635006904602
8.087044477462769,-0.2576867341995239,-0.8081559538841248,0.770771324634552,0.6033035516738892,0.4663538634777069,0.8001449704170227
8.107125282287598,-0.2576867341995239,-0.8077744841575623,0.770771324634552,0.6033035516738892,0.4663538634777069,0.8001449704170227
8.127188444137573,-0.2576867341995239,-0.8077744841575623,0.7703898549079895,0.6033035516738892,0.4659723937511444,0.8001449704170227
8.14725637435913,-0.2576867341995239,-0.8077744841575623,0.7703898549079895,0.6033035516738892,0.4659723937511444,0.8001449704170227
8.16734528541565,-0.2576867341995239,-0.8077744841575623,0.7703898549079895,0.6036850810050964,0.4659723937511444,0.8001449704170227
8.187401533126831,-0.2576867341995239,-0.8077744841575623,0.7703898549079895,0.6033035516738892,0.4659723937511444,0.8001449704170227
8.207515478134155,-0.2576867341995239,-0.8077744841575623,0.7703898549079895,0.6033035516738892,0.4655908942222595,0.8001449704170227
8.227569341659546,-0.2576867341995239,-0.8077744841575623,0.7703898549079895,0.6033035516738892,0.4655908942222595,0.8001449704170227
8.247623682022095,-0.2576867341995239,-0.8077744841575623,0.7703898549079895,0.6033035516738892,0.4655908942222595,0.8001449704170227
8.26768445968628,-0.2576867341995239,-0.8077744841575623,0.7703898549079895,0.6033035516738892,0.4655908942222595,0.8001449704170227
8.287774085998535,-0.2576867341995239,-0.8077744841575623,0.7703898549079895,0.6036850810050964,0.4659723937511444,0.8001449704170227
8.3078453540802,-0.2576867341995239,-0.8077744841575623,0.7703898549079895,0.6033035516738892,0.4655908942222595,0.8001449704170227
8.327953100204468,-0.2576867341995239,-0.8077744841575623,0.7703898549079895,0.6033035516738892,0.4659723937511444,0.8001449704170227
8.348154067993164,-0.2576867341995239,-0.8077744841575623,0.7703898549079895,0.6033035516738892,0.4655908942222595,0.8001449704170227
8.368274450302124,-0.2576867341995239,-0.8077744841575623,0.7703898549079895,0.6033035516738892,0.4659723937511444,0.8001449704170227
8.388355493545532,-0.2576867341995239,-0.8077744841575623,0.7703898549079895,0.6033035516738892,0.4659723937511444,0.8001449704170227
8.408405065536499,-0.2576867341995239,-0.8077744841575623,0.7703898549079895,0.6033035516738892,0.4659723937511444,0.8001449704170227
8.428513765335083,-0.2576867341995239,-0.8077744841575623,0.7703898549079895,0.6033035516738892,0.4659723937511444,0.8001449704170227
8.448570966720581,-0.2576867341995239,-0.8081559538841248,0.7703898549079895,0.6033035516738892,0.4659723937511444,0.8001449704170227
8.468684673309326,-0.2576867341995239,-0.8081559538841248,0.7703898549079895,0.6033035516738892,0.4659723937511444,0.8001449704170227
8.48940658569336,-0.2576867341995239,-0.8085374236106873,0.7703898549079895,0.6033035516738892,0.4663538634777069,0.8001449704170227
8.509494066238403,-0.2576867341995239,-0.8085374236106873,0.7703898549079895,0.6033035516738892,0.4659723937511444,0.8001449704170227
8.52956485748291,-0.2576867341995239,-0.8085374236106873,0.7703898549079895,0.6033035516738892,0.4659723937511444,0.8001449704170227
8.549616575241089,-0.2576867341995239,-0.8085374236106873,0.7703898549079895,0.6033035516738892,0.4659723937511444,0.8001449704170227
8.569700002670288,-0.2573052644729614,-0.8085374236106873,0.7703898549079895,0.6033035516738892,0.4663538634777069,0.8001449704170227
8.589805364608765,-0.2573052644729614,-0.8085374236106873,0.7703898549079895,0.6033035516738892,0.4663538634777069,0.8001449704170227
8.60995101928711,-0.2573052644729614,-0.8085374236106873,0.770771324634552,0.6033035516738892,0.4663538634777069,0.8001449704170227
8.629943132400513,-0.2573052644729614,-0.8085374236106873,0.770771324634552,0.6033035516738892,0.4663538634777069,0.8001449704170227
8.650036096572876,-0.2573052644729614,-0.8085374236106873,0.770771324634552,0.6033035516738892,0.4659723937511444,0.8001449704170227
8.67011570930481,-0.25654229521751404,-0.8085374236106873,0.770771324634552,0.6033035516738892,0.4659723937511444,0.8001449704170227
8.690173149108887,-0.2569237947463989,-0.8085374236106873,0.770771324634552,0.6033035516738892,0.4659723937511444,0.8001449704170227
8.71022629737854,-0.25654229521751404,-0.8085374236106873,0.770771324634552,0.6033035516738892,0.4659723937511444,0.8001449704170227
8.730399370193481,-0.25654229521751404,-0.8085374236106873,0.770771324634552,0.6033035516738892,0.4659723937511444,0.8001449704170227
8.750510215759277,-0.2569237947463989,-0.8085374236106873,0.770771324634552,0.6033035516738892,0.4659723937511444,0.8001449704170227
8.770503759384155,-0.25654229521751404,-0.8085374236106873,0.770771324634552,0.6033035516738892,0.4659723937511444,0.8001449704170227
8.790647983551025,-0.2569237947463989,-0.8085374236106873,0.770771324634552,0.6033035516738892,0.4655908942222595,0.8001449704170227
8.810749292373657,-0.25654229521751404,-0.8085374236106873,0.770771324634552,0.6033035516738892,0.4655908942222595,0.8001449704170227
8.830856323242188,-0.25654229521751404,-0.8081559538841248,0.770771324634552,0.6033035516738892,0.4655908942222595,0.8001449704170227
8.850863695144653,-0.2569237947463989,-0.8081559538841248,0.770771324634552,0.6036850810050964,0.4655908942222595,0.8001449704170227
8.870971202850342,-0.2569237947463989,-0.8081559538841248,0.770771324634552,0.6033035516738892,0.4655908942222595,0.8001449704170227
8.891185283660889,-0.25654229521751404,-0.8081559538841248,0.770771324634552,0.6036850810050964,0.4655908942222595,0.8001449704170227
8.911235332489014,-0.2569237947463989,-0.8081559538841248,0.770771324634552,0.6036850810050964,0.4655908942222595,0.8001449704170227
8.931237936019897,-0.25654229521751404,-0.8077744841575623,0.770771324634552,0.6033035516738892,0.4655908942222595,0.8001449704170227
8.951505184173584,-0.25654229521751404,-0.8077744841575623,0.770771324634552,0.6033035516738892,0.4655908942222595,0.8001449704170227
8.971601724624634,-0.25654229521751404,-0.8077744841575623,0.770771324634552,0.6036850810050964,0.4659723937511444,0.8001449704170227
8.991671085357666,-0.25654229521751404,-0.8077744841575623,0.770771324634552,0.6040665507316589,0.4655908942222595,0.8001449704170227
9.011717796325684,-0.25654229521751404,-0.8077744841575623,0.770771324634552,0.6036850810050964,0.4655908942222595,0.8001449704170227
9.031795501708984,-0.2569237947463989,-0.8077744841575623,0.770771324634552,0.6036850810050964,0.4655908942222595,0.8001449704170227
9.051902294158936,-0.2569237947463989,-0.8077744841575623,0.770771324634552,0.6036850810050964,0.465209424495697,0.8001449704170227
9.07203483581543,-0.2569237947463989,-0.8077744841575623,0.770771324634552,0.6033035516738892,0.465209424495697,0.8001449704170227
9.092076539993286,-0.2569237947463989,-0.8077744841575623,0.770771324634552,0.6036850810050964,0.4655908942222595,0.8001449704170227
9.112157821655273,-0.2569237947463989,-0.8077744841575623,0.770771324634552,0.6036850810050964,0.4655908942222595,0.8001449704170227
