liuyurong129/humanoid-gym/humanoid/data/actual_q_20250521-035116.csv
timestamp,joint_1,joint_2,joint_3,joint_4,joint_5,joint_6
4.7206878662109375e-05,-0.00019073777366429567,0.0024795911740511656,-0.0013351644156500697,-0.00019073777366429567,-0.00019073777366429567,0.00019073777366429567
0.020157814025878906,-0.00019073777366429567,0.001716639962978661,-0.0013351644156500697,-0.00019073777366429567,-0.00019073777366429567,0.00019073777366429567
0.04023313522338867,-0.00019073777366429567,0.001716639962978661,-0.0013351644156500697,-0.00019073777366429567,-0.00019073777366429567,-0.00019073777366429567
0.060300350189208984,-0.00019073777366429567,0.001716639962978661,-0.0013351644156500697,-0.00019073777366429567,-0.00019073777366429567,0.00019073777366429567
0.08039069175720215,-0.00019073777366429567,0.001716639962978661,-0.0009536888683214784,-0.00019073777366429567,-0.00019073777366429567,0.00019073777366429567
0.10070085525512695,-0.00019073777366429567,0.000572213320992887,-0.00019073777366429567,-0.00019073777366429567,-0.00019073777366429567,-0.00019073777366429567
0.12076902389526367,-0.00019073777366429567,-0.0013351644156500697,0.0009536888683214784,-0.00019073777366429567,-0.00019073777366429567,-0.00019073777366429567
0.14085030555725098,-0.000572213320992887,-0.0024795911740511656,0.001716639962978661,-0.00019073777366429567,-0.00019073777366429567,-0.00019073777366429567
0.1610240936279297,-0.000572213320992887,-0.0032425422687083483,0.0020981156267225742,-0.00019073777366429567,-0.00019073777366429567,-0.00019073777366429567
0.18119502067565918,-0.001716639962978661,-0.0036240178160369396,0.002861066721379757,-0.00019073777366429567,-0.00019073777366429567,-0.00019073777366429567
0.20121550559997559,-0.002861066721379757,-0.004386968910694122,0.0032425422687083483,-0.00019073777366429567,0.00019073777366429567,-0.00019073777366429567
0.22125768661499023,-0.0036240178160369396,-0.005149920005351305,0.0036240178160369396,-0.00019073777366429567,-0.00019073777366429567,-0.000572213320992887
0.2413487434387207,-0.00476844422519207,-0.00667582219466567,0.004386968910694122,-0.00019073777366429567,0.00019073777366429567,-0.000572213320992887
0.26142191886901855,-0.005912871100008488,-0.007438773289322853,0.005149920005351305,-0.00019073777366429567,-0.00019073777366429567,-0.0009536888683214784
0.2814760208129883,-0.00667582219466567,-0.0078202486038208,0.00476844422519207,-0.00019073777366429567,-0.00019073777366429567,-0.0009536888683214784
0.3015613555908203,-0.007438773289322853,-0.008964675478637218,0.005531395319849253,-0.00019073777366429567,-0.00019073777366429567,-0.0013351644156500697
0.32164788246154785,-0.0078202486038208,-0.009727626107633114,0.006294346414506435,-0.00019073777366429567,-0.00019073777366429567,-0.0020981156267225742
0.3416922092437744,-0.008201723918318748,-0.010872052982449532,0.00667582219466567,-0.00019073777366429567,-0.00019073777366429567,-0.0036240178160369396
0.36181020736694336,-0.009727626107633114,-0.01201647985726595,0.007438773289322853,-0.00019073777366429567,-0.00019073777366429567,-0.004386968910694122
0.3818986415863037,-0.010872052982449532,-0.012779430486261845,0.008201723918318748,-0.00019073777366429567,-0.00019073777366429567,-0.004386968910694122
0.4019639492034912,-0.01201647985726595,-0.013542382046580315,0.00858320016413927,-0.00019073777366429567,0.00019073777366429567,-0.004386968910694122
0.42205357551574707,-0.013160906732082367,-0.01506828423589468,0.008964675478637218,-0.00019073777366429567,0.00019073777366429567,-0.00476844422519207
0.44211721420288086,-0.01430533267557621,-0.016212711110711098,0.009346150793135166,-0.00019073777366429567,0.00019073777366429567,-0.005149920005351305
0.4621882438659668,-0.014686808921396732,-0.016594186425209045,0.009727626107633114,-0.00019073777366429567,0.00019073777366429567,-0.005149920005351305
0.4822685718536377,-0.015449759550392628,-0.01773861236870289,0.010490577667951584,-0.00019073777366429567,-0.00019073777366429567,-0.005912871100008488
0.5023946762084961,-0.016594186425209045,-0.018501564860343933,0.01125352829694748,-0.00019073777366429567,0.00019073777366429567,-0.006294346414506435
0.5224630832672119,-0.01735713705420494,-0.01888304017484188,0.011635004542768002,-0.00019073777366429567,0.00019073777366429567,-0.007057297509163618
0.5434091091156006,-0.01926451548933983,-0.020027466118335724,0.012397955171763897,-0.00019073777366429567,0.00019073777366429567,-0.007438773289322853
0.5635192394256592,-0.02040894143283367,-0.021553369238972664,0.012779430486261845,-0.00019073777366429567,0.00019073777366429567,-0.0078202486038208
0.5835831165313721,-0.021171892061829567,-0.02231631986796856,0.013160906732082367,-0.00019073777366429567,0.00019073777366429567,-0.0078202486038208
0.6036429405212402,-0.02193484455347061,-0.023079270496964455,0.013542382046580315,-0.00019073777366429567,0.00019073777366429567,-0.0078202486038208
0.6237473487854004,-0.02231631986796856,-0.024223696440458298,0.01430533267557621,-0.00019073777366429567,0.00019073777366429567,-0.008201723918318748
0.6438257694244385,-0.022697795182466507,-0.024605173617601395,0.01506828423589468,-0.00019073777366429567,-0.00019073777366429567,-0.008201723918318748
0.6638870239257812,-0.02384222112596035,-0.02536812424659729,0.015449759550392628,-0.00019073777366429567,0.00019073777366429567,-0.00858320016413927
0.6839749813079834,-0.024605173617601395,-0.026512550190091133,0.01583123579621315,-0.00019073777366429567,0.00019073777366429567,-0.00858320016413927
0.704059362411499,-0.02536812424659729,-0.02727550081908703,0.016594186425209045,-0.00019073777366429567,0.00019073777366429567,-0.008964675478637218
0.7241671085357666,-0.026131074875593185,-0.02841992862522602,0.016975661739706993,-0.00019073777366429567,0.00019073777366429567,-0.008964675478637218
0.7442750930786133,-0.027656977996230125,-0.029564354568719864,0.01735713705420494,-0.00019073777366429567,0.00019073777366429567,-0.009346150793135166
0.7644460201263428,-0.02841992862522602,-0.03032730519771576,0.018501564860343933,-0.00019073777366429567,0.00019073777366429567,-0.009727626107633114
0.784527063369751,-0.029182879254221916,-0.031090257689356804,0.01888304017484188,-0.00019073777366429567,0.00019073777366429567,-0.010490577667951584
0.8047819137573242,-0.029564354568719864,-0.03185320645570755,0.019645990803837776,-0.00019073777366429567,0.000572213320992887,-0.01125352829694748
0.8248786926269531,-0.030708782374858856,-0.03299763426184654,0.02040894143283367,-0.00019073777366429567,0.000572213320992887,-0.011635004542768002
0.8449640274047852,-0.03147173300385475,-0.03376058489084244,0.021171892061829567,-0.00019073777366429567,0.000572213320992887,-0.01201647985726595
0.8651931285858154,-0.03337911143898964,-0.035667963325977325,0.021553369238972664,-0.00019073777366429567,0.0009536888683214784,-0.012397955171763897
0.885286808013916,-0.03490501269698143,-0.03681239113211632,0.02231631986796856,-0.00019073777366429567,0.0009536888683214784,-0.012397955171763897
0.9053852558135986,-0.03643091395497322,-0.03757534176111221,0.022697795182466507,-0.000572213320992887,0.0009536888683214784,-0.013160906732082367
0.9256348609924316,-0.03643091395497322,-0.038719769567251205,0.023460745811462402,-0.00019073777366429567,0.0009536888683214784,-0.013542382046580315
0.9457311630249023,-0.03681239113211632,-0.0398641936480999,0.02384222112596035,-0.000572213320992887,0.0009536888683214784,-0.01430533267557621
0.9658126831054688,-0.037193864583969116,-0.040245670825242996,0.024223696440458298,-0.000572213320992887,0.0009536888683214784,-0.014686808921396732
0.9859771728515625,-0.038719769567251205,-0.04100862145423889,0.024605173617601395,-0.000572213320992887,0.0013351644156500697,-0.01506828423589468
1.0060687065124512,-0.0398641936480999,-0.04253452271223068,0.02536812424659729,-0.000572213320992887,0.001716639962978661,-0.01506828423589468
1.026134729385376,-0.04100862145423889,-0.04329747334122658,0.025749599561095238,-0.000572213320992887,0.0024795911740511656,-0.01506828423589468
1.046203851699829,-0.042153049260377884,-0.04482337832450867,0.026131074875593185,-0.000572213320992887,0.0024795911740511656,-0.015449759550392628
1.0662920475006104,-0.04329747334122658,-0.04596780240535736,0.02689402550458908,-0.000572213320992887,0.002861066721379757,-0.01583123579621315
1.086367130279541,-0.04406042397022247,-0.04749370738863945,0.027656977996230125,-0.000572213320992887,0.002861066721379757,-0.01583123579621315
1.1064319610595703,-0.04444190114736557,-0.048256658017635345,0.028038453310728073,-0.000572213320992887,0.002861066721379757,-0.016212711110711098
1.1265153884887695,-0.04558632895350456,-0.04940108209848404,0.02880140393972397,-0.0009536888683214784,0.002861066721379757,-0.016594186425209045
1.1465816497802734,-0.04711223021149635,-0.05054550990462303,0.02994582988321781,-0.0009536888683214784,0.002861066721379757,-0.016594186425209045
1.1666927337646484,-0.048256658017635345,-0.05092698708176613,0.03032730519771576,-0.0009536888683214784,0.002861066721379757,-0.01773861236870289
1.1867892742156982,-0.050164032727479935,-0.05283436179161072,0.03147173300385475,-0.0009536888683214784,0.0032425422687083483,-0.01888304017484188
1.2068440914154053,-0.05130846053361893,-0.05359731614589691,0.03223468363285065,-0.0009536888683214784,0.0032425422687083483,-0.01926451548933983
1.2269036769866943,-0.051689937710762024,-0.05436026677489281,0.032616160809993744,-0.0009536888683214784,0.0032425422687083483,-0.01926451548933983
1.2469959259033203,-0.05245288833975792,-0.0555046908557415,0.03299763426184654,-0.0009536888683214784,0.0032425422687083483,-0.019645990803837776
1.2670741081237793,-0.05359731614589691,-0.05664911866188049,0.03376058489084244,-0.0009536888683214784,0.0036240178160369396,-0.020027466118335724
1.2871317863464355,-0.054741740226745605,-0.05855649709701538,0.03452353551983833,-0.0013351644156500697,0.0036240178160369396,-0.02079041674733162
1.3072195053100586,-0.0558861680328846,-0.05970092490315437,0.035667963325977325,-0.0013351644156500697,0.0036240178160369396,-0.02231631986796856
1.3272762298583984,-0.05703059583902359,-0.06046387553215027,0.03643091395497322,-0.0013351644156500697,0.0036240178160369396,-0.022697795182466507
1.3473422527313232,-0.058175019919872284,-0.06160829961299896,0.037193864583969116,-0.0013351644156500697,0.0036240178160369396,-0.023079270496964455
1.3674302101135254,-0.059319447726011276,-0.06313420087099075,0.03795681521296501,-0.0013351644156500697,0.0036240178160369396,-0.023079270496964455
1.3875370025634766,-0.06008239835500717,-0.06389715522527695,0.03833829239010811,-0.0013351644156500697,0.004005493130534887,-0.023460745811462402
1.407557725906372,-0.06084534898400307,-0.06466010212898254,0.038719769567251205,-0.001716639962978661,0.004386968910694122,-0.023460745811462402
1.4276504516601562,-0.06237125024199486,-0.06580453366041183,0.0394827201962471,-0.001716639962978661,0.004386968910694122,-0.02384222112596035
1.4477338790893555,-0.06389715522527695,-0.06694895774126053,0.040245670825242996,-0.001716639962978661,0.00476844422519207,-0.02384222112596035
1.4677908420562744,-0.06542305648326874,-0.06771191209554672,0.040245670825242996,-0.001716639962978661,0.00476844422519207,-0.024605173617601395
1.4878737926483154,-0.06656748056411743,-0.06961929053068161,0.04100862145423889,-0.001716639962978661,0.005531395319849253,-0.025749599561095238
1.5079410076141357,-0.06733043491840363,-0.07038223743438721,0.04177157208323479,-0.001716639962978661,0.005912871100008488,-0.026131074875593185
1.5280778408050537,-0.06847485899925232,-0.0711451917886734,0.042153049260377884,-0.001716639962978661,0.006294346414506435,-0.026131074875593185
1.548142671585083,-0.07000076025724411,-0.071908138692379,0.04253452271223068,-0.0020981156267225742,0.007057297509163618,-0.026512550190091133
1.5682015419006348,-0.0722896158695221,-0.07305257022380829,0.043678950518369675,-0.0020981156267225742,0.007057297509163618,-0.02689402550458908
1.588285207748413,-0.07305257022380829,-0.07419699430465698,0.04444190114736557,-0.0024795911740511656,0.007057297509163618,-0.02727550081908703
1.6084017753601074,-0.07343403995037079,-0.07534141838550568,0.045204851776361465,-0.0024795911740511656,0.007057297509163618,-0.027656977996230125
1.6284754276275635,-0.07381551712751389,-0.07648584991693497,0.04634927958250046,-0.002861066721379757,0.007057297509163618,-0.02841992862522602
1.6485371589660645,-0.07457847148180008,-0.07801175117492676,0.046730753034353256,-0.002861066721379757,0.007438773289322853,-0.02994582988321781
1.6686458587646484,-0.07648584991693497,-0.07991912961006165,0.04749370738863945,-0.0032425422687083483,0.0078202486038208,-0.030708782374858856
1.688701868057251,-0.07763027399778366,-0.08106355369091034,0.048256658017635345,-0.0032425422687083483,0.0078202486038208,-0.030708782374858856
1.7087807655334473,-0.07915617525577545,-0.08144503086805344,0.048638131469488144,-0.0036240178160369396,0.008201723918318748,-0.031090257689356804
1.7288398742675781,-0.08068207651376724,-0.08335240930318832,0.049782559275627136,-0.0036240178160369396,0.008201723918318748,-0.03147173300385475
1.748927116394043,-0.08106355369091034,-0.08449683338403702,0.05092698708176613,-0.0036240178160369396,0.008201723918318748,-0.03147173300385475
1.768979787826538,-0.08220797777175903,-0.0864042118191719,0.05130846053361893,-0.0036240178160369396,0.008201723918318748,-0.03223468363285065
1.7890658378601074,-0.08373387902975082,-0.0875486359000206,0.05245288833975792,-0.004005493130534887,0.00858320016413927,-0.03299763426184654
1.8091633319854736,-0.08525978773832321,-0.0883115902543068,0.053215838968753815,-0.004005493130534887,0.00858320016413927,-0.03376058489084244
1.8292078971862793,-0.0871671661734581,-0.08907453715801239,0.05359731614589691,-0.004005493130534887,0.00858320016413927,-0.034142062067985535
1.849344253540039,-0.0879301130771637,-0.09060044586658478,0.05436026677489281,-0.004005493130534887,0.008964675478637218,-0.034142062067985535
1.8694024085998535,-0.08869306743144989,-0.09174486994743347,0.0555046908557415,-0.004005493130534887,0.009346150793135166,-0.034142062067985535
1.8894720077514648,-0.08983749151229858,-0.09365224838256836,0.0558861680328846,-0.004005493130534887,0.009727626107633114,-0.03452353551983833
1.9096548557281494,-0.09174486994743347,-0.09517814964056015,0.056267641484737396,-0.004005493130534887,0.009727626107633114,-0.03490501269698143
1.9296417236328125,-0.09327077120542526,-0.09670405089855194,0.05703059583902359,-0.004005493130534887,0.010490577667951584,-0.03528648987412453
1.9497034549713135,-0.09403372555971146,-0.09708552807569504,0.057793546468019485,-0.004386968910694122,0.010490577667951584,-0.035667963325977325
1.969783067703247,-0.09517814964056015,-0.09899290651082993,0.05855649709701538,-0.004386968910694122,0.010490577667951584,-0.03643091395497322
1.9898478984832764,-0.09632257372140884,-0.10051880776882172,0.05970092490315437,-0.004386968910694122,0.010872052982449532,-0.037193864583969116
2.0099263191223145,-0.09746700525283813,-0.10128175467252731,0.06008239835500717,-0.004386968910694122,0.01125352829694748,-0.03757534176111221
2.0301594734191895,-0.09899290651082993,-0.1031891331076622,0.06084534898400307,-0.004386968910694122,0.01125352829694748,-0.03795681521296501
2.050272226333618,-0.10051880776882172,-0.10433356463909149,0.06237125024199486,-0.004386968910694122,0.01125352829694748,-0.03833829239010811
2.0703048706054688,-0.10204470902681351,-0.10509651154279709,0.06313420087099075,-0.004386968910694122,0.011635004542768002,-0.038719769567251205
2.0905961990356445,-0.1035706102848053,-0.10662241280078888,0.06427863240242004,-0.004386968910694122,0.011635004542768002,-0.039101243019104004
2.1107375621795654,-0.10509651154279709,-0.10852979123592377,0.06542305648326874,-0.004386968910694122,0.011635004542768002,-0.040245670825242996
2.1308341026306152,-0.10662241280078888,-0.11005569249391556,0.06656748056411743,-0.00476844422519207,0.01201647985726595,-0.04100862145423889
2.151076555252075,-0.10814831405878067,-0.11158160120248795,0.06771191209554672,-0.00476844422519207,0.012397955171763897,-0.04139009863138199
2.1711418628692627,-0.10967422276735306,-0.11348897218704224,0.06885633617639542,-0.00476844422519207,0.012397955171763897,-0.04139009863138199
2.191250801086426,-0.11043716967105865,-0.11539635062217712,0.06923781335353851,-0.00476844422519207,0.012779430486261845,-0.04177157208323479
2.2115485668182373,-0.11196307092905045,-0.11692225188016891,0.06961929053068161,-0.005149920005351305,0.013160906732082367,-0.042153049260377884
2.23166823387146,-0.11387044936418533,-0.1180666834115982,0.0707637146115303,-0.005149920005351305,0.013923857361078262,-0.04253452271223068
2.2517685890197754,-0.11577782779932022,-0.1192111074924469,0.0715266615152359,-0.005149920005351305,0.01506828423589468,-0.04329747334122658
2.271792411804199,-0.11654078215360641,-0.12073700875043869,0.07267109304666519,-0.005531395319849253,0.015449759550392628,-0.043678950518369675
2.2919020652770996,-0.11768520623445511,-0.12188144028186798,0.07343403995037079,-0.005531395319849253,0.015449759550392628,-0.04558632895350456
2.311965227127075,-0.1188296303153038,-0.12378881871700287,0.07457847148180008,-0.005912871100008488,0.01583123579621315,-0.04558632895350456
2.3320181369781494,-0.12073700875043869,-0.12531471252441406,0.07534141838550568,-0.006294346414506435,0.016594186425209045,-0.04596780240535736
2.352114200592041,-0.12264438718557358,-0.12684062123298645,0.07572289556264877,-0.00667582219466567,0.018501564860343933,-0.046730753034353256
2.372202157974243,-0.12378881871700287,-0.12836651504039764,0.07686731964349747,-0.00667582219466567,0.018501564860343933,-0.04787518084049225
2.392259120941162,-0.12455176562070847,-0.12989242374897003,0.07763027399778366,-0.007057297509163618,0.018501564860343933,-0.04901960864663124
2.412353754043579,-0.12645913660526276,-0.13218127191066742,0.07915617525577545,-0.007438773289322853,0.01888304017484188,-0.04940108209848404
2.4324729442596436,-0.12760357558727264,-0.1340886503458023,0.07991912961006165,-0.007438773289322853,0.01888304017484188,-0.04940108209848404
2.4525539875030518,-0.12912946939468384,-0.135233074426651,0.08068207651376724,-0.007438773289322853,0.01926451548933983,-0.049782559275627136
2.4727110862731934,-0.13103684782981873,-0.1367589831352234,0.08182650804519653,-0.007438773289322853,0.01926451548933983,-0.050164032727479935
2.492746591567993,-0.13218127191066742,-0.13752193748950958,0.08335240930318832,-0.0078202486038208,0.01926451548933983,-0.05054550990462303
2.512827157974243,-0.1337071806192398,-0.13942931592464447,0.08487831056118011,-0.0078202486038208,0.019645990803837776,-0.051689937710762024
2.532909631729126,-0.1359960287809372,-0.14209964871406555,0.0864042118191719,-0.0078202486038208,0.020027466118335724,-0.05283436179161072
2.5529837608337402,-0.13790340721607208,-0.14362554252147675,0.0883115902543068,-0.0078202486038208,0.020027466118335724,-0.05283436179161072
2.573016405105591,-0.13828489184379578,-0.14476996660232544,0.0883115902543068,-0.0078202486038208,0.02040894143283367,-0.053215838968753815
2.5932376384735107,-0.14019227027893066,-0.14629587531089783,0.08945601433515549,-0.0078202486038208,0.02079041674733162,-0.05359731614589691
2.6133267879486084,-0.14171816408634186,-0.14858472347259521,0.09021896868944168,-0.0078202486038208,0.022697795182466507,-0.05397878959774971
2.6333742141723633,-0.14324407279491425,-0.1501106321811676,0.09136339277029037,-0.008201723918318748,0.023460745811462402,-0.0551232174038887
2.65344500541687,-0.14515145123004913,-0.152399480342865,0.09212634712457657,-0.008201723918318748,0.024986648932099342,-0.05664911866188049
2.673600673675537,-0.14705882966518402,-0.15354390442371368,0.09365224838256836,-0.008201723918318748,0.02536812424659729,-0.05703059583902359
2.693612813949585,-0.1489662081003189,-0.15430685877799988,0.09555962681770325,-0.008201723918318748,0.025749599561095238,-0.05741206929087639
2.7136969566345215,-0.1512550562620163,-0.15583276748657227,0.09632257372140884,-0.008201723918318748,0.025749599561095238,-0.058175019919872284
2.733762264251709,-0.15354390442371368,-0.15735866129398346,0.09822995215654373,-0.00858320016413927,0.025749599561095238,-0.05855649709701538
2.7538325786590576,-0.15430685877799988,-0.15850308537483215,0.09861142933368683,-0.00858320016413927,0.026131074875593185,-0.05970092490315437
2.773892402648926,-0.15583276748657227,-0.16041046380996704,0.10013733059167862,-0.00858320016413927,0.026512550190091133,-0.06008239835500717
2.793987989425659,-0.15850308537483215,-0.16308079659938812,0.10166323184967041,-0.00858320016413927,0.02689402550458908,-0.06046387553215027
2.8140578269958496,-0.16041046380996704,-0.1653696447610855,0.1031891331076622,-0.00858320016413927,0.026512550190091133,-0.06046387553215027
2.834150552749634,-0.16193637251853943,-0.1676585078239441,0.1039520874619484,-0.00858320016413927,0.02689402550458908,-0.06084534898400307
2.854525327682495,-0.16384375095367432,-0.16956588625907898,0.10509651154279709,-0.008964675478637218,0.02689402550458908,-0.061226826161146164
2.8747236728668213,-0.1657511293888092,-0.17071031033992767,0.10700388997793198,-0.008964675478637218,0.02689402550458908,-0.06198977679014206
2.894712209701538,-0.1676585078239441,-0.17185473442077637,0.10776684433221817,-0.008964675478637218,0.02727550081908703,-0.06275273114442825
2.914982795715332,-0.16918440163135529,-0.17376211285591125,0.10967422276735306,-0.009346150793135166,0.02727550081908703,-0.06389715522527695
2.9350764751434326,-0.17032882571220398,-0.17605096101760864,0.11120012402534485,-0.009346150793135166,0.027656977996230125,-0.06466010212898254
2.955136775970459,-0.17223620414733887,-0.17833982408046722,0.11272602528333664,-0.009727626107633114,0.02880140393972397,-0.06504157930612564
2.975243091583252,-0.17414358258247375,-0.1802472025156021,0.11425192654132843,-0.010109102353453636,0.029564354568719864,-0.06542305648326874
2.9953408241271973,-0.17643244564533234,-0.1825360506772995,0.11654078215360641,-0.010872052982449532,0.02994582988321781,-0.06694895774126053
3.0155298709869385,-0.17872129380702972,-0.1844434291124344,0.11768520623445511,-0.011635004542768002,0.03032730519771576,-0.06771191209554672
3.035621166229248,-0.1810101419687271,-0.18673227727413177,0.1188296303153038,-0.011635004542768002,0.030708782374858856,-0.06809338182210922
3.0557165145874023,-0.1832990050315857,-0.18902114033699036,0.1203555315732956,-0.011635004542768002,0.031090257689356804,-0.06847485899925232
3.0758473873138428,-0.1848248988389969,-0.19092851877212524,0.12149996310472488,-0.011635004542768002,0.03185320645570755,-0.06885633617639542
3.095889091491699,-0.18635080754756927,-0.19245441257953644,0.12226291000843048,-0.011635004542768002,0.032616160809993744,-0.07000076025724411
3.1159629821777344,-0.18787670135498047,-0.19512474536895752,0.12455176562070847,-0.011635004542768002,0.03299763426184654,-0.0711451917886734
3.1360385417938232,-0.18940261006355286,-0.1970321238040924,0.12531471252441406,-0.011635004542768002,0.03376058489084244,-0.071908138692379
3.156085968017578,-0.19054703414440155,-0.1993209719657898,0.12684062123298645,-0.011635004542768002,0.034142062067985535,-0.07267109304666519
3.176182985305786,-0.19245441257953644,-0.20084688067436218,0.12836651504039764,-0.011635004542768002,0.03452353551983833,-0.07343403995037079
3.1962530612945557,-0.19550621509552002,-0.20199130475521088,0.13027389347553253,-0.01201647985726595,0.03490501269698143,-0.07572289556264877
3.216320037841797,-0.1985580176115036,-0.20313572883605957,0.13179980218410492,-0.01201647985726595,0.035667963325977325,-0.07572289556264877
3.236406087875366,-0.20084688067436218,-0.20542457699775696,0.1337071806192398,-0.01201647985726595,0.03681239113211632,-0.07610437273979187
3.2564914226531982,-0.20275425910949707,-0.20847637951374054,0.1356145590543747,-0.012397955171763897,0.037193864583969116,-0.07648584991693497
3.2765448093414307,-0.20428015291690826,-0.21114671230316162,0.1363775134086609,-0.012397955171763897,0.03795681521296501,-0.07724879682064056
3.2966408729553223,-0.20695048570632935,-0.2130540907382965,0.13790340721607208,-0.012397955171763897,0.03757534176111221,-0.07839322835206985
3.316737413406372,-0.21000228822231293,-0.2145799994468689,0.13981078565120697,-0.012779430486261845,0.03795681521296501,-0.07915617525577545
3.336773633956909,-0.2134355753660202,-0.21686884760856628,0.14133669435977936,-0.013160906732082367,0.03833829239010811,-0.07991912961006165
3.356865167617798,-0.2161058932542801,-0.21877622604370117,0.14324407279491425,-0.013923857361078262,0.03833829239010811,-0.08030059933662415
3.3769562244415283,-0.21801327168941498,-0.22106507420539856,0.14476996660232544,-0.014686808921396732,0.0398641936480999,-0.08106355369091034
3.396996021270752,-0.21877622604370117,-0.22297245264053345,0.14591439068317413,-0.015449759550392628,0.040627144277095795,-0.08297093212604523
3.4171054363250732,-0.22068360447883606,-0.22564278542995453,0.14744029939174652,-0.015449759550392628,0.04253452271223068,-0.08335240930318832
3.437178373336792,-0.22373540699481964,-0.22755016386508942,0.1489662081003189,-0.01583123579621315,0.04253452271223068,-0.08411535620689392
3.457235097885132,-0.22602425515651703,-0.2302204966545105,0.1501106321811676,-0.01583123579621315,0.045204851776361465,-0.08525978773832321
3.4773266315460205,-0.2283131182193756,-0.23250934481620789,0.1516365259885788,-0.016212711110711098,0.045204851776361465,-0.0864042118191719
3.4973952770233154,-0.2302204966545105,-0.23441672325134277,0.15392538905143738,-0.016212711110711098,0.04711223021149635,-0.0864042118191719
3.5174496173858643,-0.2313649207353592,-0.23594263195991516,0.15468832850456238,-0.016594186425209045,0.04901960864663124,-0.0871671661734581
3.5376336574554443,-0.23327229917049408,-0.23899443447589874,0.15621423721313477,-0.016594186425209045,0.04901960864663124,-0.0875486359000206
3.557725191116333,-0.23517967760562897,-0.24013885855674744,0.15774014592170715,-0.016975661739706993,0.04901960864663124,-0.0879301130771637
3.577796459197998,-0.23746852576732635,-0.24090181291103363,0.15926603972911835,-0.01773861236870289,0.04901960864663124,-0.08945601433515549
3.598297357559204,-0.24013885855674744,-0.24242770671844482,0.16155488789081573,-0.018501564860343933,0.04940108209848404,-0.09060044586658478
3.6184520721435547,-0.24280919134616852,-0.2447165697813034,0.1646067053079605,-0.01888304017484188,0.05130846053361893,-0.09136339277029037
3.6384732723236084,-0.2443350851535797,-0.247768372297287,0.1661325991153717,-0.01888304017484188,0.05245288833975792,-0.09250781685113907
3.65854549407959,-0.2466239482164383,-0.24967575073242188,0.1672770231962204,-0.01888304017484188,0.05283436179161072,-0.09365224838256836
3.6786322593688965,-0.24891279637813568,-0.25196459889411926,0.16956588625907898,-0.01888304017484188,0.05283436179161072,-0.09403372555971146
3.69872784614563,-0.25158312916755676,-0.25425344705581665,0.17147326469421387,-0.01888304017484188,0.05283436179161072,-0.09479667246341705
3.7187774181365967,-0.25501641631126404,-0.2569237947463989,0.17338064312934875,-0.01926451548933983,0.05283436179161072,-0.09517814964056015
3.738870620727539,-0.25654229521751404,-0.2584496736526489,0.17566949129104614,-0.01926451548933983,0.053215838968753815,-0.09632257372140884
3.7589786052703857,-0.2580682039260864,-0.2595941126346588,0.17719538509845734,-0.01926451548933983,0.05359731614589691,-0.09746700525283813
3.7790398597717285,-0.2599755823612213,-0.2615014910697937,0.17872129380702972,-0.019645990803837776,0.05436026677489281,-0.09822995215654373
3.7991220951080322,-0.2622644305229187,-0.2641718089580536,0.1813916265964508,-0.01926451548933983,0.054741740226745605,-0.09975585341453552
3.819209575653076,-0.2645532786846161,-0.26684215664863586,0.182917520403862,-0.01926451548933983,0.0555046908557415,-0.10128175467252731
3.8392555713653564,-0.26760509610176086,-0.26989394426345825,0.1840619444847107,-0.019645990803837776,0.056267641484737396,-0.10204470902681351
3.8593509197235107,-0.26989394426345825,-0.27141985297203064,0.18558785319328308,-0.019645990803837776,0.05703059583902359,-0.1024261862039566
3.8794174194335938,-0.27065691351890564,-0.273708701133728,0.18673227727413177,-0.019645990803837776,0.058175019919872284,-0.1028076633810997
3.8995065689086914,-0.27180132269859314,-0.2771419882774353,0.18825818598270416,-0.019645990803837776,0.06008239835500717,-0.1039520874619484
3.9195830821990967,-0.2733272314071655,-0.2786678969860077,0.19016556441783905,-0.020027466118335724,0.06046387553215027,-0.10471503436565399
3.9396872520446777,-0.2756160795688629,-0.2794308364391327,0.19207294285297394,-0.020027466118335724,0.06046387553215027,-0.10547798871994019
3.9597582817077637,-0.2779049277305603,-0.2801937758922577,0.19359883666038513,-0.02040894143283367,0.061226826161146164,-0.10585946589708328
3.979820489883423,-0.2801937758922577,-0.2821011543273926,0.1958876997232437,-0.02040894143283367,0.06237125024199486,-0.10662241280078888
3.9999125003814697,-0.2817196846008301,-0.28515297174453735,0.1981765478849411,-0.02040894143283367,0.06389715522527695,-0.10814831405878067
4.019973039627075,-0.28324559330940247,-0.28744181990623474,0.1993209719657898,-0.02079041674733162,0.06427863240242004,-0.10929274559020996
4.040083408355713,-0.28439003229141235,-0.28896772861480713,0.20084688067436218,-0.021171892061829567,0.06427863240242004,-0.11005569249391556
4.060143709182739,-0.28667888045310974,-0.291638046503067,0.20237277448177338,-0.02193484455347061,0.06466010212898254,-0.11081864684820175
4.0802154541015625,-0.28934919834136963,-0.2927824854850769,0.20275425910949707,-0.022697795182466507,0.06504157930612564,-0.11272602528333664
4.100666046142578,-0.2912565767765045,-0.2935454249382019,0.20389868319034576,-0.023079270496964455,0.06656748056411743,-0.11272602528333664
4.12076473236084,-0.2927824854850769,-0.2950713336467743,0.20618753135204315,-0.022697795182466507,0.06771191209554672,-0.11310750246047974
4.140839576721191,-0.2935454249382019,-0.2965972423553467,0.20771344006061554,-0.023079270496964455,0.06961929053068161,-0.11348897218704224
4.160904407501221,-0.2962157726287842,-0.29888609051704407,0.21000228822231293,-0.023079270496964455,0.0715266615152359,-0.11425192654132843
4.180990695953369,-0.29850462079048157,-0.30155640840530396,0.21190966665744781,-0.023079270496964455,0.071908138692379,-0.11577782779932022
4.201046943664551,-0.29964902997016907,-0.30270084738731384,0.2130540907382965,-0.023460745811462402,0.071908138692379,-0.11692225188016891
4.22132420539856,-0.30155640840530396,-0.3061341345310211,0.2145799994468689,-0.02384222112596035,0.07267109304666519,-0.1180666834115982
4.2414281368255615,-0.30346378684043884,-0.308041512966156,0.21648737788200378,-0.02384222112596035,0.07495994865894318,-0.1192111074924469
4.2614905834198,-0.30422675609588623,-0.3099488914012909,0.21839475631713867,-0.024223696440458298,0.07648584991693497,-0.1199740618467331
4.281542062759399,-0.3057526648044586,-0.3122377395629883,0.22030213475227356,-0.024223696440458298,0.07801175117492676,-0.1203555315732956
4.301653623580933,-0.3076600432395935,-0.31414511799812317,0.22259098291397095,-0.024605173617601395,0.07877469807863235,-0.12073700875043869
4.321725368499756,-0.3099488914012909,-0.31567102670669556,0.22449836134910583,-0.024986648932099342,0.07915617525577545,-0.12111848592758179
4.341794729232788,-0.3122377395629883,-0.31719690561294556,0.22602425515651703,-0.02536812424659729,0.07991912961006165,-0.12188144028186798
4.361863851547241,-0.31414511799812317,-0.31948578357696533,0.2283131182193756,-0.026131074875593185,0.08030059933662415,-0.12340734153985977
4.381926536560059,-0.31528952717781067,-0.3221561014652252,0.2298390120267868,-0.026512550190091133,0.08106355369091034,-0.12455176562070847
4.401980638504028,-0.31605249643325806,-0.3244449496269226,0.2309834510087967,-0.026131074875593185,0.08144503086805344,-0.12531471252441406
4.422070503234863,-0.31757840514183044,-0.325970858335495,0.23250934481620789,-0.026131074875593185,0.08182650804519653,-0.12722209095954895
4.4421422481536865,-0.31948578357696533,-0.3271152675151825,0.23403525352478027,-0.026512550190091133,0.08220797777175903,-0.12760357558727264
4.462215900421143,-0.3213931620121002,-0.32940414547920227,0.23517967760562897,-0.026512550190091133,0.08258945494890213,-0.12836651504039764
4.48249363899231,-0.3225375711917877,-0.33131152391433716,0.23632410168647766,-0.026512550190091133,0.08373387902975082,-0.12874799966812134
4.502581596374512,-0.3233005404472351,-0.33245593309402466,0.23785001039505005,-0.026512550190091133,0.08449683338403702,-0.12912946939468384
4.522641181945801,-0.3248264193534851,-0.33398184180259705,0.23975738883018494,-0.026512550190091133,0.086785688996315,-0.13065537810325623
4.542702674865723,-0.3255893886089325,-0.33588922023773193,0.24128328263759613,-0.026512550190091133,0.086785688996315,-0.13141833245754242
4.56278920173645,-0.3278782367706299,-0.3389410376548767,0.2439536154270172,-0.026512550190091133,0.0871671661734581,-0.13179980218410492
4.582906246185303,-0.3286411762237549,-0.3393225073814392,0.2454795092344284,-0.026512550190091133,0.08869306743144989,-0.1325627565383911
4.602949380874634,-0.33016708493232727,-0.3412298858165741,0.2470054179430008,-0.02689402550458908,0.08907453715801239,-0.134470134973526
4.623029470443726,-0.33245593309402466,-0.343900203704834,0.24929426610469818,-0.02689402550458908,0.08983749151229858,-0.1359960287809372
4.64312744140625,-0.33360037207603455,-0.34657052159309387,0.2508201599121094,-0.02689402550458908,0.09212634712457657,-0.1367589831352234
4.6631669998168945,-0.33512628078460693,-0.34847790002822876,0.25196459889411926,-0.02689402550458908,0.09403372555971146,-0.13866636157035828
4.683252334594727,-0.33665215969085693,-0.34962233901023865,0.25349050760269165,-0.02689402550458908,0.09441519528627396,-0.13866636157035828
4.703313589096069,-0.3389410376548767,-0.35114824771881104,0.25577935576438904,-0.02727550081908703,0.09517814964056015,-0.13904783129692078
4.72338604927063,-0.3416113555431366,-0.3538185656070709,0.2573052644729614,-0.02727550081908703,0.09708552807569504,-0.13942931592464447
4.743476390838623,-0.3427557647228241,-0.3553444743156433,0.2592126429080963,-0.02727550081908703,0.09746700525283813,-0.13981078565120697
4.7635462284088135,-0.3435187339782715,-0.3557259440422058,0.2607385218143463,-0.02727550081908703,0.09784847497940063,-0.14057374000549316
4.783625841140747,-0.3442816734313965,-0.3568703830242157,0.2618829607963562,-0.02727550081908703,0.09861142933368683,-0.14248111844062805
4.8037145137786865,-0.34618905186653137,-0.3591592311859131,0.2637903392314911,-0.027656977996230125,0.09975585341453552,-0.14362554252147675
4.823802471160889,-0.34771496057510376,-0.361066609621048,0.2660791873931885,-0.027656977996230125,0.1024261862039566,-0.14400701224803925
4.843878269195557,-0.34885939955711365,-0.36297398805618286,0.26722362637519836,-0.027656977996230125,0.1039520874619484,-0.14515145123004913
4.863938331604004,-0.34962233901023865,-0.36411839723587036,0.26798656582832336,-0.028038453310728073,0.10471503436565399,-0.14591439068317413
4.884066820144653,-0.35038527846336365,-0.36717021465301514,0.26989394426345825,-0.02880140393972397,0.10471503436565399,-0.14667734503746033
4.904127597808838,-0.35191118717193604,-0.3686961233615875,0.27103838324546814,-0.029564354568719864,0.10547798871994019,-0.14705882966518402
4.92418646812439,-0.3530556261539459,-0.3702220320701599,0.2725642919540405,-0.02994582988321781,0.10700388997793198,-0.14744029939174652
4.9442830085754395,-0.3545815348625183,-0.3713664412498474,0.2744716703891754,-0.03032730519771576,0.10776684433221817,-0.14858472347259521
4.964397192001343,-0.3561074137687683,-0.3717479109764099,0.2767605185508728,-0.03032730519771576,0.10852979123592377,-0.1501106321811676
4.9844324588775635,-0.3572518527507782,-0.3725108802318573,0.2782863974571228,-0.03032730519771576,0.10852979123592377,-0.1512550562620163
5.0045552253723145,-0.3591592311859131,-0.3751811981201172,0.2801937758922577,-0.03032730519771576,0.10891126841306686,-0.1527809500694275
5.024630546569824,-0.3606851398944855,-0.3778515160083771,0.2821011543273926,-0.03032730519771576,0.10929274559020996,-0.15392538905143738
5.044682502746582,-0.361829549074173,-0.37975889444351196,0.28324559330940247,-0.03032730519771576,0.11196307092905045,-0.15430685877799988
5.0647759437561035,-0.36373692750930786,-0.38204777240753174,0.28439003229141235,-0.030708782374858856,0.11234454810619354,-0.15506981313228607
5.084855556488037,-0.36411839723587036,-0.38357365131378174,0.28591591119766235,-0.030708782374858856,0.11272602528333664,-0.15583276748657227
5.104904413223267,-0.36411839723587036,-0.3839551508426666,0.28667888045310974,-0.030708782374858856,0.11348897218704224,-0.15735866129398346
5.125017404556274,-0.36488136649131775,-0.3850995600223541,0.28820478916168213,-0.030708782374858856,0.11348897218704224,-0.15774014592170715
5.145173788070679,-0.36602577567100525,-0.3858625292778015,0.290112167596817,-0.030708782374858856,0.11577782779932022,-0.15812161564826965
5.16518497467041,-0.36717021465301514,-0.387006938457489,0.290875107049942,-0.031090257689356804,0.11654078215360641,-0.15926603972911835
5.185441970825195,-0.3686961233615875,-0.3881513774394989,0.2927824854850769,-0.031090257689356804,0.1180666834115982,-0.16193637251853943
5.205524682998657,-0.3702220320701599,-0.3900587558746338,0.2946898639202118,-0.031090257689356804,0.11959258466959,-0.16308079659938812
5.225598573684692,-0.3709849715232849,-0.3919661343097687,0.2958342730998993,-0.03147173300385475,0.12073700875043869,-0.16422522068023682
5.245758295059204,-0.3721294105052948,-0.39425498247146606,0.2965972423553467,-0.03147173300385475,0.12073700875043869,-0.164988175034523
5.265848875045776,-0.3732738196849823,-0.39616236090660095,0.29850462079048157,-0.03147173300385475,0.12111848592758179,-0.164988175034523
5.285953760147095,-0.3740367889404297,-0.39768826961517334,0.29888609051704407,-0.032616160809993744,0.12340734153985977,-0.1653696447610855
5.30600643157959,-0.3751811981201172,-0.39845120906829834,0.30041199922561646,-0.03376058489084244,0.12378881871700287,-0.1657511293888092
5.326074123382568,-0.3770885765552521,-0.3995956480503082,0.30231937766075134,-0.03376058489084244,0.12417028844356537,-0.1661325991153717
5.346150875091553,-0.37823301553726196,-0.3995956480503082,0.30346378684043884,-0.034142062067985535,0.12531471252441406,-0.1665140837430954
5.36621356010437,-0.37899595499038696,-0.3999771177768707,0.30537116527557373,-0.034142062067985535,0.12569619715213776,-0.1684214472770691
5.386303424835205,-0.38014039397239685,-0.4015030264854431,0.3068970739841461,-0.034142062067985535,0.12798504531383514,-0.16918440163135529
5.406376123428345,-0.38128480315208435,-0.4026474356651306,0.3091859221458435,-0.034142062067985535,0.12989242374897003,-0.16994735598564148
5.426440238952637,-0.38281071186065674,-0.4045548141002655,0.3103303611278534,-0.034142062067985535,0.13141833245754242,-0.17109178006649017
5.446695804595947,-0.3839551508426666,-0.4045548141002655,0.3110933005809784,-0.03452353551983833,0.13179980218410492,-0.17223620414733887
5.46680760383606,-0.3854810297489166,-0.4064621925354004,0.3130006790161133,-0.03490501269698143,0.13218127191066742,-0.17261768877506256
5.486860990524292,-0.3858625292778015,-0.4087510406970978,0.31452658772468567,-0.03490501269698143,0.1337071806192398,-0.17299915850162506
5.506908893585205,-0.3858625292778015,-0.41065841913223267,0.31643396615982056,-0.03490501269698143,0.1337071806192398,-0.17338064312934875
5.527007579803467,-0.387006938457489,-0.41294726729393005,0.31795987486839294,-0.03490501269698143,0.1340886503458023,-0.17414358258247375
5.547074317932129,-0.3881513774394989,-0.41447317600250244,0.31872281432151794,-0.03490501269698143,0.1348516047000885,-0.17605096101760864
5.567163944244385,-0.3896772861480713,-0.41599908471107483,0.31986725330352783,-0.035667963325977325,0.1359960287809372,-0.17681391537189484
5.5872414112091064,-0.3912031650543213,-0.4175249934196472,0.3213931620121002,-0.035667963325977325,0.13828489184379578,-0.17795833945274353
5.607367753982544,-0.3919661343097687,-0.4182879328727722,0.3229190409183502,-0.035667963325977325,0.13904783129692078,-0.17986571788787842
5.627570867538452,-0.3931105434894562,-0.4190509021282196,0.3244449496269226,-0.03604944050312042,0.13981078565120697,-0.1806286722421646
5.647662401199341,-0.39425498247146606,-0.4190509021282196,0.3263523280620575,-0.03643091395497322,0.14019227027893066,-0.1810101419687271
5.667720794677734,-0.39501792192459106,-0.4201953113079071,0.3274967670440674,-0.03681239113211632,0.14095520973205566,-0.1817730963230133
5.6877830028533936,-0.39768826961517334,-0.4224841594696045,0.3286411762237549,-0.03681239113211632,0.14171816408634186,-0.1836804747581482
5.707996368408203,-0.39883267879486084,-0.4236285984516144,0.33054855465888977,-0.037193864583969116,0.14400701224803925,-0.1840619444847107
5.728012800216675,-0.3995956480503082,-0.42629891633987427,0.33131152391433716,-0.037193864583969116,0.14591439068317413,-0.1844434291124344
5.74808406829834,-0.4003585875034332,-0.42820629477500916,0.33207446336746216,-0.03757534176111221,0.14629587531089783,-0.18520638346672058
5.768162488937378,-0.4011215269565582,-0.43049514293670654,0.33283740282058716,-0.03757534176111221,0.14629587531089783,-0.18711376190185547
5.788235902786255,-0.4018844962120056,-0.43163958191871643,0.33436331152915955,-0.03795681521296501,0.14820325374603271,-0.18863965570926666
5.808285236358643,-0.4026474356651306,-0.4327840209007263,0.33512628078460693,-0.03795681521296501,0.1501106321811676,-0.18863965570926666
5.828458070755005,-0.403410404920578,-0.4335469603538513,0.33665215969085693,-0.03795681521296501,0.1504921019077301,-0.18978407979011536
5.848620414733887,-0.4045548141002655,-0.4335469603538513,0.3381780683994293,-0.03795681521296501,0.1508735716342926,-0.19130998849868774
5.86876106262207,-0.4068436622619629,-0.4335469603538513,0.3393225073814392,-0.03833829239010811,0.15392538905143738,-0.19130998849868774
5.888859748840332,-0.4083695709705353,-0.4346913993358612,0.3404669165611267,-0.03833829239010811,0.15735866129398346,-0.19169145822525024
5.909069776535034,-0.4087510406970978,-0.4358358085155487,0.3419928252696991,-0.03795681521296501,0.15774014592170715,-0.19207294285297394
5.929013252258301,-0.40951400995254517,-0.4377431869506836,0.3427557647228241,-0.03833829239010811,0.15812161564826965,-0.19245441257953644
5.9491047859191895,-0.40989547967910767,-0.440032035112381,0.3435187339782715,-0.03833829239010811,0.15812161564826965,-0.19359883666038513
5.969228029251099,-0.41065841913223267,-0.44193941354751587,0.344663143157959,-0.03833829239010811,0.15812161564826965,-0.19474326074123383
5.989258527755737,-0.41180285811424255,-0.44346532225608826,0.34542611241340637,-0.038719769567251205,0.15812161564826965,-0.1958876997232437
6.009341478347778,-0.41294726729393005,-0.44499123096466064,0.34657052159309387,-0.039101243019104004,0.15888457000255585,-0.1958876997232437
6.029429912567139,-0.41409170627593994,-0.44613564014434814,0.34771496057510376,-0.0394827201962471,0.16002899408340454,-0.1966506391763687
6.049509048461914,-0.41523614525794983,-0.44728007912635803,0.34924086928367615,-0.0394827201962471,0.16117341816425323,-0.1981765478849411
6.069606304168701,-0.41523614525794983,-0.44804301857948303,0.35000380873680115,-0.0398641936480999,0.16117341816425323,-0.1985580176115036
6.089674949645996,-0.41561761498451233,-0.44804301857948303,0.35191118717193604,-0.0398641936480999,0.16193637251853943,-0.1989395022392273
6.10973858833313,-0.4171435236930847,-0.44804301857948303,0.35229265689849854,-0.040245670825242996,0.16308079659938812,-0.1997024416923523
6.129832029342651,-0.4182879328727722,-0.4484245181083679,0.3534370958805084,-0.04100862145423889,0.1653696447610855,-0.200083926320076
6.149926424026489,-0.4194323718547821,-0.4503318965435028,0.3557259440422058,-0.04100862145423889,0.1657511293888092,-0.20122835040092468
6.170012950897217,-0.4205767810344696,-0.4518577754497528,0.3572518527507782,-0.04139009863138199,0.16880293190479279,-0.20313572883605957
6.190126180648804,-0.4217212200164795,-0.4526207447052002,0.3583962619304657,-0.04139009863138199,0.16994735598564148,-0.20389868319034576
6.210186243057251,-0.422102689743042,-0.4545281231403351,0.3595407009124756,-0.04177157208323479,0.16918440163135529,-0.20618753135204315
6.230257511138916,-0.4224841594696045,-0.45681697130203247,0.361066609621048,-0.04177157208323479,0.16956588625907898,-0.20656901597976685
6.250345945358276,-0.422102689743042,-0.45872434973716736,0.361829549074173,-0.04177157208323479,0.16994735598564148,-0.20695048570632935
6.270493268966675,-0.4228656589984894,-0.46025025844573975,0.36297398805618286,-0.04177157208323479,0.17032882571220398,-0.20733195543289185
6.290527820587158,-0.4236285984516144,-0.46139466762542725,0.36411839723587036,-0.042153049260377884,0.17261768877506256,-0.20809490978717804
6.310579538345337,-0.4243915379047394,-0.46215763688087463,0.36526283621788025,-0.042153049260377884,0.17528800666332245,-0.21000228822231293
6.331778526306152,-0.42629891633987427,-0.46292057633399963,0.36678874492645264,-0.042153049260377884,0.17681391537189484,-0.21038375794887543
6.351870775222778,-0.42706188559532166,-0.4640650153160095,0.368314653635025,-0.042153049260377884,0.17872129380702972,-0.21076524257659912
6.371944189071655,-0.42782482504844666,-0.4648279547691345,0.36907759308815,-0.042153049260377884,0.1806286722421646,-0.21114671230316162
6.391995668411255,-0.42858776450157166,-0.4655908942222595,0.3702220320701599,-0.04253452271223068,0.1825360506772995,-0.21229113638401031
6.4120824337005615,-0.42935073375701904,-0.4667353332042694,0.3713664412498474,-0.04291599988937378,0.182917520403862,-0.2141985148191452
6.43215799331665,-0.43011367321014404,-0.4674982726573944,0.3725108802318573,-0.04291599988937378,0.1832990050315857,-0.2145799994468689
6.4522223472595215,-0.43163958191871643,-0.4678797721862793,0.3732738196849823,-0.04291599988937378,0.1836804747581482,-0.2153429538011551
6.472329616546631,-0.43240252137184143,-0.4690241813659668,0.3744182586669922,-0.04291599988937378,0.1848248988389969,-0.21648737788200378
6.492401361465454,-0.4331654906272888,-0.4701686203479767,0.3759441375732422,-0.04329747334122658,0.1848248988389969,-0.21725031733512878
6.512473821640015,-0.4339284300804138,-0.4720759987831116,0.3763256371021271,-0.04329747334122658,0.18596932291984558,-0.21763180196285248
6.532559633255005,-0.4358358085155487,-0.47436484694480896,0.3774700462818146,-0.04329747334122658,0.18596932291984558,-0.21801327168941498
6.552645206451416,-0.4358358085155487,-0.47627222537994385,0.37899595499038696,-0.043678950518369675,0.18635080754756927,-0.21801327168941498
6.572716236114502,-0.4365987777709961,-0.47741663455963135,0.38014039397239685,-0.04444190114736557,0.18673227727413177,-0.21839475631713867
6.593365669250488,-0.4365987777709961,-0.47856107354164124,0.38128480315208435,-0.04444190114736557,0.18711376190185547,-0.21915769577026367
6.6134843826293945,-0.4369802474975586,-0.4797055125236511,0.38319218158721924,-0.04444190114736557,0.18749523162841797,-0.22030213475227356
6.633545160293579,-0.4369802474975586,-0.4800869822502136,0.3843366205692291,-0.04482337832450867,0.18825818598270416,-0.22144655883312225
6.65361213684082,-0.4381246566772461,-0.4812313914299011,0.3858625292778015,-0.04482337832450867,0.19016556441783905,-0.22220951318740845
6.673706293106079,-0.4388876259326935,-0.4827573001384735,0.3873884081840515,-0.04482337832450867,0.19130998849868774,-0.22335393726825714
6.693777561187744,-0.4396505653858185,-0.4835202693939209,0.3885328471660614,-0.04482337832450867,0.19245441257953644,-0.22526131570339203
6.713843584060669,-0.44117647409439087,-0.4842832088470459,0.3892957866191864,-0.045204851776361465,0.19359883666038513,-0.22526131570339203
6.7339324951171875,-0.44193941354751587,-0.4842832088470459,0.3904402256011963,-0.045204851776361465,0.19474326074123383,-0.22564278542995453
6.754008769989014,-0.44270238280296326,-0.4846646785736084,0.3912031650543213,-0.045204851776361465,0.19550621509552002,-0.22602425515651703
6.775343418121338,-0.44384679198265076,-0.4854276478290558,0.3919661343097687,-0.045204851776361465,0.19550621509552002,-0.22755016386508942
6.7954301834106445,-0.44384679198265076,-0.4869535267353058,0.3931105434894562,-0.045204851776361465,0.19550621509552002,-0.2290760725736618
6.815511703491211,-0.44460976123809814,-0.4892423748970032,0.39463645219802856,-0.045204851776361465,0.19550621509552002,-0.2294575423002243
6.835568428039551,-0.44575417041778564,-0.49114975333213806,0.39539939165115356,-0.045204851776361465,0.1966506391763687,-0.2309834510087967
6.855663776397705,-0.44651713967323303,-0.49343863129615784,0.39654383063316345,-0.04558632895350456,0.1985580176115036,-0.23289081454277039
6.875744581222534,-0.44689860939979553,-0.49420157074928284,0.39692530035972595,-0.04596780240535736,0.1997024416923523,-0.23327229917049408
6.895799398422241,-0.4484245181083679,-0.49458304047584534,0.39806973934173584,-0.04596780240535736,0.20122835040092468,-0.23327229917049408
6.9158899784088135,-0.4491874575614929,-0.4957274794578552,0.3995956480503082,-0.04596780240535736,0.20275425910949707,-0.23403525352478027
6.935959577560425,-0.4495689272880554,-0.4961089491844177,0.4015030264854431,-0.04596780240535736,0.20351719856262207,-0.23556114733219147
6.956008672714233,-0.4503318965435028,-0.4968718886375427,0.4026474356651306,-0.04596780240535736,0.20580606162548065,-0.23632410168647766
6.9761106967926025,-0.4510948359966278,-0.4983977973461151,0.404173344373703,-0.04596780240535736,0.20809490978717804,-0.23670557141304016
6.996175765991211,-0.4510948359966278,-0.499542236328125,0.4056992530822754,-0.04596780240535736,0.20923933386802673,-0.23746852576732635
7.016238451004028,-0.4522392749786377,-0.501068115234375,0.4064621925354004,-0.04596780240535736,0.20962081849575043,-0.23861294984817505
7.0363359451293945,-0.4533836841583252,-0.5022125840187073,0.4076066315174103,-0.04634927958250046,0.21038375794887543,-0.24128328263759613
7.056401252746582,-0.4537651538848877,-0.5029755234718323,0.4087510406970978,-0.04634927958250046,0.21076524257659912,-0.24128328263759613
7.0764734745025635,-0.4541466534137726,-0.5037384629249573,0.40951400995254517,-0.04634927958250046,0.21152819693088531,-0.24242770671844482
7.096554756164551,-0.4552910625934601,-0.5052643418312073,0.41103988885879517,-0.04634927958250046,0.21152819693088531,-0.24319066107273102
7.116649389266968,-0.4556725323200226,-0.506790280342102,0.41218432784080505,-0.046730753034353256,0.21190966665744781,-0.24319066107273102
7.1367011070251465,-0.45643550157546997,-0.507553219795227,0.41332876682281494,-0.046730753034353256,0.2130540907382965,-0.24357213079929352
7.156779050827026,-0.45757991075515747,-0.5079346895217896,0.41447317600250244,-0.046730753034353256,0.2134355753660202,-0.2439536154270172
7.176895618438721,-0.45834288001060486,-0.5094605684280396,0.41599908471107483,-0.04749370738863945,0.2141985148191452,-0.2443350851535797
7.196973562240601,-0.45834288001060486,-0.5102235674858093,0.41676202416419983,-0.04749370738863945,0.2145799994468689,-0.2450980395078659
7.217016220092773,-0.45872434973716736,-0.5109865069389343,0.4179064631462097,-0.04787518084049225,0.2153429538011551,-0.2462424635887146
7.237118244171143,-0.45910581946372986,-0.5121309161186218,0.4194323718547821,-0.04787518084049225,0.21725031733512878,-0.2481498420238495
7.2571423053741455,-0.45948728919029236,-0.5125123858451843,0.4201953113079071,-0.048256658017635345,0.21801327168941498,-0.248531311750412
7.277219533920288,-0.46063172817230225,-0.5132753252983093,0.4209582805633545,-0.048638131469488144,0.21992065012454987,-0.2500572204589844
7.297307252883911,-0.46253910660743713,-0.5144197940826416,0.4224841594696045,-0.04901960864663124,0.22106507420539856,-0.25120165944099426
7.317365407943726,-0.46330204606056213,-0.5155642032623291,0.4228656589984894,-0.04901960864663124,0.22220951318740845,-0.25120165944099426
7.337669849395752,-0.46368351578712463,-0.5163271427154541,0.4240100681781769,-0.04901960864663124,0.22259098291397095,-0.25196459889411926
7.357782363891602,-0.4640650153160095,-0.5178530812263489,0.42553597688674927,-0.04901960864663124,0.22259098291397095,-0.25234606862068176
7.377857208251953,-0.4655908942222595,-0.5189974904060364,0.42668038606643677,-0.04901960864663124,0.22449836134910583,-0.25349050760269165
7.39806604385376,-0.4655908942222595,-0.5201418995857239,0.42782482504844666,-0.04940108209848404,0.22564278542995453,-0.25539788603782654
7.418148994445801,-0.4655908942222595,-0.5216678380966187,0.42935073375701904,-0.04940108209848404,0.22602425515651703,-0.25539788603782654
7.438255548477173,-0.4659723937511444,-0.5228122472763062,0.43049514293670654,-0.04940108209848404,0.2283131182193756,-0.2573052644729614
7.458340644836426,-0.4667353332042694,-0.5239566564559937,0.43163958191871643,-0.04940108209848404,0.2294575423002243,-0.2592126429080963
7.4784324169158936,-0.4678797721862793,-0.5251010656356812,0.4335469603538513,-0.04940108209848404,0.23250934481620789,-0.2595941126346588
7.4985339641571045,-0.4682612419128418,-0.5258640646934509,0.4346913993358612,-0.049782559275627136,0.23632410168647766,-0.2599755823612213
7.518578052520752,-0.4686427116394043,-0.5266270041465759,0.4354543387889862,-0.04940108209848404,0.23670557141304016,-0.2611200213432312
7.538667440414429,-0.4697871506214142,-0.5281528830528259,0.4369802474975586,-0.049782559275627136,0.23746852576732635,-0.2626459002494812
7.558742046356201,-0.4701686203479767,-0.5292973518371582,0.4381246566772461,-0.049782559275627136,0.23746852576732635,-0.2626459002494812
7.578794240951538,-0.4709315598011017,-0.5300602912902832,0.4388876259326935,-0.049782559275627136,0.23823148012161255,-0.2630273997783661
7.59888482093811,-0.4713130295276642,-0.5312047004699707,0.4396505653858185,-0.050164032727479935,0.23785001039505005,-0.2637903392314911
7.6190431118011475,-0.4720759987831116,-0.5327305793762207,0.44117647409439087,-0.050164032727479935,0.23785001039505005,-0.2653162479400635
7.639103412628174,-0.4728389382362366,-0.5331120491027832,0.44155794382095337,-0.050164032727479935,0.23861294984817505,-0.26722362637519836
7.659256458282471,-0.4732204079627991,-0.5342565178871155,0.44270238280296326,-0.050164032727479935,0.23937590420246124,-0.26722362637519836
7.679340839385986,-0.4732204079627991,-0.5357823967933655,0.44384679198265076,-0.050164032727479935,0.24013885855674744,-0.26874953508377075
7.6994147300720215,-0.4736018776893616,-0.5365453362464905,0.44537270069122314,-0.05054550990462303,0.24090181291103363,-0.26989394426345825
7.719609022140503,-0.47474631667137146,-0.5373083353042603,0.44651713967323303,-0.05054550990462303,0.2439536154270172,-0.26989394426345825
7.739704608917236,-0.47550925612449646,-0.5388342142105103,0.44766154885292053,-0.05054550990462303,0.2450980395078659,-0.27027541399002075
7.759763479232788,-0.47589075565338135,-0.5399786233901978,0.4488059878349304,-0.05092698708176613,0.2462424635887146,-0.27065691351890564
7.779855728149414,-0.47627222537994385,-0.5407415628433228,0.4495689272880554,-0.05092698708176613,0.2473868876695633,-0.27141985297203064
7.799935579299927,-0.47741663455963135,-0.541886031627655,0.4510948359966278,-0.05130846053361893,0.247768372297287,-0.27218279242515564
7.820021390914917,-0.47817960381507874,-0.5430304408073425,0.4522392749786377,-0.05130846053361893,0.2481498420238495,-0.2744716703891754
7.840096712112427,-0.4797055125236511,-0.5437933802604675,0.4530022144317627,-0.051689937710762024,0.248531311750412,-0.2744716703891754
7.860586881637573,-0.4804684519767761,-0.5449378490447998,0.4541466534137726,-0.051689937710762024,0.25120165944099426,-0.2756160795688629
7.880676984786987,-0.4804684519767761,-0.5468451976776123,0.4552910625934601,-0.051689937710762024,0.25120165944099426,-0.2771419882774353
7.900753498077393,-0.4804684519767761,-0.5476081371307373,0.4560540020465851,-0.05207141116261482,0.25196459889411926,-0.2771419882774353
7.920837640762329,-0.4804684519767761,-0.5483710765838623,0.4560540020465851,-0.05207141116261482,0.25349050760269165,-0.2775234580039978
7.940907716751099,-0.4812313914299011,-0.5495155453681946,0.45719844102859497,-0.05245288833975792,0.25539788603782654,-0.2775234580039978
7.961086988449097,-0.482375830411911,-0.5514228940010071,0.45834288001060486,-0.05245288833975792,0.2573052644729614,-0.2782863974571228
7.981133937835693,-0.482375830411911,-0.5521858334541321,0.45948728919029236,-0.05245288833975792,0.2611200213432312,-0.2790493667125702
8.001210927963257,-0.4827573001384735,-0.5529488325119019,0.46101319789886475,-0.05245288833975792,0.2626459002494812,-0.2798123061656952
8.02128267288208,-0.4835202693939209,-0.5540932416915894,0.46215763688087463,-0.05245288833975792,0.2630273997783661,-0.2817196846008301
8.041337251663208,-0.4846646785736084,-0.5548561811447144,0.46330204606056213,-0.05245288833975792,0.2630273997783661,-0.2821011543273926
8.061821460723877,-0.4854276478290558,-0.5556191205978394,0.46368351578712463,-0.05245288833975792,0.2637903392314911,-0.28400853276252747
8.08193063735962,-0.4858091175556183,-0.5567635893821716,0.465209424495697,-0.05283436179161072,0.2634088695049286,-0.28515297174453735
8.10200810432434,-0.4865720570087433,-0.5575265288352966,0.4663538634777069,-0.05283436179161072,0.2637903392314911,-0.28515297174453735
8.122051477432251,-0.4869535267353058,-0.5582894682884216,0.4671168029308319,-0.05283436179161072,0.2637903392314911,-0.28553444147109985
8.142141819000244,-0.4877164959907532,-0.5594338774681091,0.4678797721862793,-0.05283436179161072,0.2645532786846161,-0.28591591119766235
8.16225290298462,-0.4877164959907532,-0.5601968169212341,0.4690241813659668,-0.05283436179161072,0.264934778213501,-0.28667888045310974
8.182304859161377,-0.4877164959907532,-0.5605783462524414,0.4697871506214142,-0.05283436179161072,0.266460657119751,-0.28820478916168213
8.20260214805603,-0.4884794354438782,-0.5617227554321289,0.4705500900745392,-0.05283436179161072,0.26722362637519836,-0.28896772861480713
8.222710132598877,-0.4892423748970032,-0.5628671646118164,0.4720759987831116,-0.05283436179161072,0.26989394426345825,-0.28934919834136963
8.242767572402954,-0.49038681387901306,-0.5636301040649414,0.4724574685096741,-0.05283436179161072,0.27180132269859314,-0.290112167596817
8.262998819351196,-0.49076828360557556,-0.5643930435180664,0.4736018776893616,-0.053215838968753815,0.272945761680603,-0.2924010157585144
8.283148050308228,-0.49191272258758545,-0.5651560425758362,0.47474631667137146,-0.053215838968753815,0.2733272314071655,-0.2943083941936493
8.30318570137024,-0.49229419231414795,-0.5659189820289612,0.47589075565338135,-0.053215838968753815,0.273708701133728,-0.2954528033733368
8.32323431968689,-0.49267566204071045,-0.5670633912086487,0.47703516483306885,-0.053215838968753815,0.273708701133728,-0.2958342730998993
8.343318462371826,-0.49305713176727295,-0.5682078003883362,0.47856107354164124,-0.053215838968753815,0.2740901708602905,-0.2962157726287842
8.363386392593384,-0.49305713176727295,-0.5693522691726685,0.4797055125236511,-0.053215838968753815,0.2740901708602905,-0.2965972423553467
8.383500576019287,-0.49420157074928284,-0.5701152086257935,0.4804684519767761,-0.053215838968753815,0.2756160795688629,-0.2965972423553467
8.403806686401367,-0.49496451020240784,-0.570496678352356,0.4812313914299011,-0.053215838968753815,0.2779049277305603,-0.2969787120819092
8.423908233642578,-0.49496451020240784,-0.572022557258606,0.4827573001384735,-0.05359731614589691,0.2786678969860077,-0.2973601818084717
8.443985939025879,-0.49496451020240784,-0.572022557258606,0.483138769865036,-0.05359731614589691,0.2805752754211426,-0.29888609051704407
8.464140176773071,-0.49496451020240784,-0.5727855563163757,0.4842832088470459,-0.05359731614589691,0.2809567451477051,-0.30003052949905396
8.484265089035034,-0.4957274794578552,-0.5739299654960632,0.4854276478290558,-0.05359731614589691,0.28248265385627747,-0.30079346895217896
8.504314422607422,-0.4968718886375427,-0.5750743746757507,0.4865720570087433,-0.05359731614589691,0.28553444147109985,-0.30155640840530396
8.524369478225708,-0.4968718886375427,-0.5758373141288757,0.4869535267353058,-0.05397878959774971,0.28820478916168213,-0.30270084738731384
8.544461965560913,-0.4972533881664276,-0.5766003131866455,0.4880979657173157,-0.05436026677489281,0.28896772861480713,-0.30346378684043884
8.564560890197754,-0.4980163276195526,-0.578507661819458,0.4892423748970032,-0.05436026677489281,0.28896772861480713,-0.30384528636932373
8.584658861160278,-0.4991607666015625,-0.5788891315460205,0.49038681387901306,-0.05436026677489281,0.2904936373233795,-0.30422675609588623
8.604756116867065,-0.50030517578125,-0.580033540725708,0.49191272258758545,-0.054741740226745605,0.2912565767765045,-0.30537116527557373
8.624838590621948,-0.5006866455078125,-0.5811780095100403,0.49343863129615784,-0.054741740226745605,0.291638046503067,-0.3068970739841461
8.644891500473022,-0.5014495849609375,-0.5819409489631653,0.49420157074928284,-0.054741740226745605,0.2920195460319519,-0.3076600432395935
8.6649911403656,-0.5022125840187073,-0.5827038884162903,0.49496451020240784,-0.054741740226745605,0.2924010157585144,-0.3084229826927185
8.685053825378418,-0.5022125840187073,-0.5838482975959778,0.4964904189109802,-0.054741740226745605,0.2924010157585144,-0.309567391872406
8.705115795135498,-0.5022125840187073,-0.5849927663803101,0.4972533881664276,-0.0551232174038887,0.2935454249382019,-0.3114747703075409
8.725421667098999,-0.5025940537452698,-0.5861371755599976,0.4983977973461151,-0.0551232174038887,0.2946898639202118,-0.3114747703075409
8.745513439178467,-0.5029755234718323,-0.5869001150131226,0.499542236328125,-0.0551232174038887,0.2965972423553467,-0.3122377395629883
8.765583992004395,-0.5033569931983948,-0.5876630544662476,0.5006866455078125,-0.0551232174038887,0.2977416515350342,-0.31376364827156067
8.785833835601807,-0.5045014023780823,-0.5884260535240173,0.5014495849609375,-0.0555046908557415,0.29964902997016907,-0.31528952717781067
8.805921077728271,-0.5048828721046448,-0.5895704627037048,0.5029755234718323,-0.0555046908557415,0.30041199922561646,-0.31567102670669556
8.825974225997925,-0.5052643418312073,-0.5907148718833923,0.5037384629249573,-0.0555046908557415,0.30117493867874146,-0.31757840514183044
8.84603762626648,-0.506027340888977,-0.5914778113365173,0.5045014023780823,-0.0558861680328846,0.30193790793418884,-0.31948578357696533
8.866148233413696,-0.506790280342102,-0.5926222801208496,0.5052643418312073,-0.0558861680328846,0.30346378684043884,-0.31986725330352783
8.88628625869751,-0.507553219795227,-0.5941481590270996,0.506027340888977,-0.0558861680328846,0.30422675609588623,-0.3213931620121002
8.90633773803711,-0.507553219795227,-0.5952925682067871,0.506790280342102,-0.0558861680328846,0.30498969554901123,-0.3221561014652252
8.926448822021484,-0.5079346895217896,-0.5964370369911194,0.508316159248352,-0.056267641484737396,0.3061341345310211,-0.3221561014652252
8.946521759033203,-0.5086976289749146,-0.5975814461708069,0.5098420977592468,-0.056267641484737396,0.308041512966156,-0.3225375711917877
8.966580629348755,-0.509079098701477,-0.5979629158973694,0.5106050372123718,-0.056267641484737396,0.3084229826927185,-0.3229190409183502
8.986664295196533,-0.5094605684280396,-0.5987258553504944,0.5121309161186218,-0.056267641484737396,0.3110933005809784,-0.3236820101737976
9.006747245788574,-0.5094605684280396,-0.5998703241348267,0.5136567950248718,-0.056267641484737396,0.3122377395629883,-0.3248264193534851
9.026796817779541,-0.5098420977592468,-0.6010147333145142,0.5144197940826416,-0.056267641484737396,0.31452658772468567,-0.3263523280620575
9.04690146446228,-0.5102235674858093,-0.6025406122207642,0.5159456729888916,-0.05664911866188049,0.31490805745124817,-0.32673379778862
9.066967010498047,-0.5109865069389343,-0.6036850810050964,0.5170900821685791,-0.05664911866188049,0.31643396615982056,-0.3286411762237549
9.087026596069336,-0.5117494463920593,-0.6040665507316589,0.5178530812263489,-0.05664911866188049,0.31757840514183044,-0.32978561520576477
9.107128620147705,-0.5125123858451843,-0.6052109599113464,0.5189974904060364,-0.056267641484737396,0.31872281432151794,-0.32978561520576477
9.12719440460205,-0.5136567950248718,-0.6063553690910339,0.5201418995857239,-0.05664911866188049,0.31834134459495544,-0.33016708493232727
9.147268533706665,-0.5148012638092041,-0.6071183085441589,0.5201418995857239,-0.05664911866188049,0.31834134459495544,-0.33093002438545227
9.16753101348877,-0.5148012638092041,-0.6082627773284912,0.5209048390388489,-0.05664911866188049,0.31872281432151794,-0.33093002438545227
9.187638998031616,-0.5151827335357666,-0.6094071865081787,0.5220493078231812,-0.05664911866188049,0.31872281432151794,-0.33283740282058716
9.207706928253174,-0.5159456729888916,-0.6101701259613037,0.5231937170028687,-0.05664911866188049,0.32024872303009033,-0.33360037207603455
9.227973699569702,-0.5163271427154541,-0.6109330654144287,0.5243381261825562,-0.05703059583902359,0.32101166248321533,-0.33436331152915955
9.248061895370483,-0.5167086124420166,-0.612077534198761,0.5262455344200134,-0.05703059583902359,0.3233005404472351,-0.33627068996429443
9.268128633499146,-0.5167086124420166,-0.6124590039253235,0.5273899435997009,-0.05703059583902359,0.3244449496269226,-0.3381780683994293
9.288182973861694,-0.5167086124420166,-0.6132219433784485,0.5285343527793884,-0.05664911866188049,0.3255893886089325,-0.3381780683994293
9.308302164077759,-0.5167086124420166,-0.6147478222846985,0.5300602912902832,-0.05703059583902359,0.3263523280620575,-0.3393225073814392
9.328346252441406,-0.5170900821685791,-0.6158922910690308,0.5315861701965332,-0.05703059583902359,0.3271152675151825,-0.3408484160900116
9.348417282104492,-0.5174715518951416,-0.6170367002487183,0.5323491096496582,-0.05703059583902359,0.3278782367706299,-0.3412298858165741
9.368518114089966,-0.5178530812263489,-0.6181811094284058,0.5334935784339905,-0.05703059583902359,0.33054855465888977,-0.3419928252696991
9.388644456863403,-0.5189974904060364,-0.6197070479393005,0.5350194573402405,-0.05741206929087639,0.33283740282058716,-0.343137264251709
9.408644437789917,-0.5197604298591614,-0.6204699873924255,0.5357823967933655,-0.05741206929087639,0.33360037207603455,-0.34542611241340637
9.428731918334961,-0.5209048390388489,-0.621614396572113,0.5365453362464905,-0.05741206929087639,0.33398184180259705,-0.34580758213996887
9.448809146881104,-0.5212863087654114,-0.6219958662986755,0.5376898050308228,-0.05741206929087639,0.33665215969085693,-0.34618905186653137
9.468862771987915,-0.5216678380966187,-0.622377336025238,0.5388342142105103,-0.05741206929087639,0.3374151289463043,-0.34771496057510376
9.48895525932312,-0.5220493078231812,-0.6235218048095703,0.5399786233901978,-0.05741206929087639,0.3381780683994293,-0.34809643030166626
9.508982419967651,-0.5231937170028687,-0.6246662139892578,0.5415045619010925,-0.057793546468019485,0.3397039771080017,-0.34847790002822876
9.52936601638794,-0.5239566564559937,-0.6250476837158203,0.5422675013542175,-0.05741206929087639,0.3412298858165741,-0.34885939955711365
9.549445152282715,-0.5239566564559937,-0.6258106231689453,0.5437933802604675,-0.057793546468019485,0.3416113555431366,-0.34962233901023865
9.56952691078186,-0.5239566564559937,-0.6265735626220703,0.5445563197135925,-0.057793546468019485,0.3427557647228241,-0.35000380873680115
9.58970046043396,-0.5239566564559937,-0.6280995011329651,0.5453193187713623,-0.057793546468019485,0.3427557647228241,-0.35191118717193604
9.609716415405273,-0.5243381261825562,-0.6292439103126526,0.5468451976776123,-0.057793546468019485,0.344663143157959,-0.3526741564273834
9.629807472229004,-0.5243381261825562,-0.6300068497657776,0.5472266674041748,-0.057793546468019485,0.34504464268684387,-0.3534370958805084
9.649898290634155,-0.5243381261825562,-0.6311513185501099,0.5483710765838623,-0.057793546468019485,0.34580758213996887,-0.3549630045890808
9.669972658157349,-0.5251010656356812,-0.6322957277297974,0.5491340756416321,-0.057793546468019485,0.34809643030166626,-0.3561074137687683
9.6901216506958,-0.5262455344200134,-0.6338216066360474,0.5502784848213196,-0.057793546468019485,0.34924086928367615,-0.3561074137687683
9.710216045379639,-0.5270084738731384,-0.6353475451469421,0.5510414242744446,-0.057793546468019485,0.35000380873680115,-0.3564889132976532
9.730270147323608,-0.5277714133262634,-0.6353475451469421,0.5514228940010071,-0.058175019919872284,0.35229265689849854,-0.3572518527507782
9.750656604766846,-0.5289158225059509,-0.6364919543266296,0.5525673031806946,-0.05855649709701538,0.3526741564273834,-0.3591592311859131
9.770767450332642,-0.5292973518371582,-0.6376363635063171,0.5540932416915894,-0.05855649709701538,0.3526741564273834,-0.3606851398944855
9.79079008102417,-0.5292973518371582,-0.6376363635063171,0.5552376508712769,-0.05855649709701538,0.3530556261539459,-0.3622110188007355
9.810873746871948,-0.5296788215637207,-0.6387808322906494,0.5567635893821716,-0.05855649709701538,0.3545815348625183,-0.36411839723587036
9.830944776535034,-0.5304417610168457,-0.6403067111968994,0.5582894682884216,-0.05855649709701538,0.3564889132976532,-0.36449989676475525
9.8510103225708,-0.5312047004699707,-0.6406881809234619,0.5590524077415466,-0.05855649709701538,0.3583962619304657,-0.36488136649131775
9.871100902557373,-0.5312047004699707,-0.6414511203765869,0.5605783462524414,-0.05855649709701538,0.361066609621048,-0.36678874492645264
9.891180038452148,-0.5312047004699707,-0.6425955891609192,0.5617227554321289,-0.059319447726011276,0.36335545778274536,-0.36755168437957764
9.911423683166504,-0.5312047004699707,-0.6437399983406067,0.5628671646118164,-0.059319447726011276,0.36526283621788025,-0.36793315410614014
9.931529998779297,-0.5315861701965332,-0.6448844075202942,0.5643930435180664,-0.059319447726011276,0.36717021465301514,-0.3694590628147125
9.951592922210693,-0.5319676399230957,-0.6456473469734192,0.5651560425758362,-0.059319447726011276,0.36755168437957764,-0.3717479109764099
9.971704244613647,-0.5327305793762207,-0.6467918157577515,0.5659189820289612,-0.05970092490315437,0.3694590628147125,-0.3725108802318573
9.991783380508423,-0.5334935784339905,-0.648699164390564,0.5670633912086487,-0.05970092490315437,0.3709849715232849,-0.3740367889404297
10.01186728477478,-0.5334935784339905,-0.650225043296814,0.5678263306617737,-0.05970092490315437,0.3706035017967224,-0.3744182586669922
10.031954526901245,-0.533875048160553,-0.6517509818077087,0.5685893297195435,-0.06008239835500717,0.3709849715232849,-0.3747997283935547
10.052059173583984,-0.534637987613678,-0.6525139212608337,0.569733738899231,-0.06008239835500717,0.3713664412498474,-0.3751811981201172
10.072115421295166,-0.5357823967933655,-0.6532768607139587,0.5701152086257935,-0.06008239835500717,0.3717479109764099,-0.3755626678466797
10.092235803604126,-0.536163866519928,-0.654421329498291,0.5716410875320435,-0.06008239835500717,0.3732738196849823,-0.3759441375732422
10.112390518188477,-0.5365453362464905,-0.655184268951416,0.5735484957695007,-0.06008239835500717,0.3747997283935547,-0.3778515160083771
10.132733821868896,-0.5365453362464905,-0.655947208404541,0.5750743746757507,-0.06046387553215027,0.3747997283935547,-0.37899595499038696
10.152835845947266,-0.5376898050308228,-0.656710147857666,0.5766003131866455,-0.06008239835500717,0.3763256371021271,-0.37975889444351196
10.172903299331665,-0.5384527444839478,-0.657473087310791,0.577744722366333,-0.06008239835500717,0.37823301553726196,-0.38166627287864685
10.192999362945557,-0.5384527444839478,-0.6586175560951233,0.5788891315460205,-0.06008239835500717,0.37899595499038696,-0.38242924213409424
10.213069438934326,-0.5384527444839478,-0.6597619652748108,0.5804150700569153,-0.06008239835500717,0.37975889444351196,-0.38281071186065674
10.23313593864441,-0.5384527444839478,-0.6609063744544983,0.5811780095100403,-0.06008239835500717,0.38204777240753174,-0.38357365131378174
10.25322413444519,-0.5384527444839478,-0.6628137826919556,0.5823224186897278,-0.06046387553215027,0.3843366205692291,-0.3854810297489166
10.273300886154175,-0.5388342142105103,-0.6643396615982056,0.5834668278694153,-0.06008239835500717,0.3858625292778015,-0.387006938457489
10.293356657028198,-0.5395971536636353,-0.6651026010513306,0.5842298269271851,-0.06046387553215027,0.387006938457489,-0.3889143168926239
10.313449621200562,-0.5403600931167603,-0.6666285395622253,0.5846112966537476,-0.06046387553215027,0.3896772861480713,-0.3904402256011963
10.333512783050537,-0.5407415628433228,-0.6673914790153503,0.5853742361068726,-0.06046387553215027,0.3923476040363312,-0.3904402256011963
10.354707717895508,-0.5407415628433228,-0.6681544184684753,0.5865186452865601,-0.06046387553215027,0.3931105434894562,-0.3915846347808838
10.374855279922485,-0.5415045619010925,-0.6696802973747253,0.5884260535240173,-0.06046387553215027,0.3934920132160187,-0.3931105434894562
10.394852876663208,-0.541886031627655,-0.6704432964324951,0.5899519324302673,-0.06084534898400307,0.39425498247146606,-0.39387351274490356
10.41562819480896,-0.54264897108078,-0.6712062358856201,0.5918593406677246,-0.06084534898400307,0.39578089118003845,-0.39425498247146606
10.435714960098267,-0.543411910533905,-0.6723506450653076,0.5937666893005371,-0.06046387553215027,0.39616236090660095,-0.39616236090660095
10.455795288085938,-0.5437933802604675,-0.6731135845184326,0.5945296287536621,-0.06084534898400307,0.39692530035972595,-0.39768826961517334
10.475857257843018,-0.54417484998703,-0.6734950542449951,0.5956740379333496,-0.06084534898400307,0.39768826961517334,-0.39845120906829834
10.495948076248169,-0.5449378490447998,-0.6746395230293274,0.5968185067176819,-0.06084534898400307,0.39883267879486084,-0.4003585875034332
10.516016006469727,-0.5453193187713623,-0.6757839322090149,0.5971999764442444,-0.06084534898400307,0.3999771177768707,-0.4003585875034332
10.536075592041016,-0.5457007884979248,-0.6761654019355774,0.5979629158973694,-0.06084534898400307,0.4015030264854431,-0.4007400572299957
10.55617070198059,-0.5457007884979248,-0.6776912808418274,0.5991073250770569,-0.06084534898400307,0.4015030264854431,-0.4011215269565582
10.576248168945312,-0.5457007884979248,-0.6784542798995972,0.5994887948036194,-0.06046387553215027,0.4026474356651306,-0.4015030264854431
10.596769332885742,-0.5457007884979248,-0.6795986890792847,0.6006332635879517,-0.06084534898400307,0.404173344373703,-0.4026474356651306
10.616886854171753,-0.5460822582244873,-0.6807430982589722,0.6013962030410767,-0.06046387553215027,0.404936283826828,-0.4045548141002655
10.6369309425354,-0.5460822582244873,-0.6818875670433044,0.6021591424942017,-0.06046387553215027,0.4060807228088379,-0.4053177833557129
10.657023668289185,-0.5468451976776123,-0.6830319762229919,0.6033035516738892,-0.06084534898400307,0.4091325104236603,-0.4064621925354004
10.677096605300903,-0.5476081371307373,-0.6845578551292419,0.6052109599113464,-0.06084534898400307,0.41180285811424255,-0.4083695709705353
10.697160959243774,-0.5476081371307373,-0.6849393248558044,0.6063553690910339,-0.06084534898400307,0.41218432784080505,-0.4087510406970978
10.717234373092651,-0.5479896068572998,-0.6860837936401367,0.6082627773284912,-0.06084534898400307,0.41294726729393005,-0.4091325104236603
10.737312078475952,-0.5479896068572998,-0.6872282028198242,0.6101701259613037,-0.06084534898400307,0.41371023654937744,-0.40989547967910767
10.757446050643921,-0.5483710765838623,-0.6879911422729492,0.6109330654144287,-0.06084534898400307,0.41561761498451233,-0.41103988885879517
10.77754807472229,-0.5495155453681946,-0.689517080783844,0.612077534198761,-0.06084534898400307,0.4179064631462097,-0.41256579756736755
10.797592401504517,-0.5498970150947571,-0.690280020236969,0.612840473651886,-0.06084534898400307,0.4198138415813446,-0.41409170627593994
10.818107604980469,-0.5506599545478821,-0.691042959690094,0.6132219433784485,-0.06084534898400307,0.4198138415813446,-0.41638055443763733
10.838199138641357,-0.5506599545478821,-0.692568838596344,0.614366352558136,-0.06084534898400307,0.4201953113079071,-0.41676202416419983
10.858263731002808,-0.5510414242744446,-0.693331778049469,0.6155108213424683,-0.06084534898400307,0.421339750289917,-0.4171435236930847
10.878392219543457,-0.5521858334541321,-0.6944762468338013,0.6162737607955933,-0.06084534898400307,0.4228656589984894,-0.4190509021282196
10.898486375808716,-0.5525673031806946,-0.6956206560134888,0.6177996397018433,-0.06084534898400307,0.4240100681781769,-0.4194323718547821
10.918559074401855,-0.5529488325119019,-0.6963835954666138,0.6181811094284058,-0.06084534898400307,0.42629891633987427,-0.4201953113079071
10.938722133636475,-0.5529488325119019,-0.6971465349197388,0.619325578212738,-0.06084534898400307,0.42706188559532166,-0.421339750289917
10.958728551864624,-0.5529488325119019,-0.6986724734306335,0.620851457118988,-0.06084534898400307,0.42744335532188416,-0.4232471287250519
10.978837966918945,-0.5529488325119019,-0.6994354128837585,0.6219958662986755,-0.06084534898400307,0.42896926403045654,-0.42515450716018677
10.998888492584229,-0.5533303022384644,-0.7009612917900085,0.6231403350830078,-0.06084534898400307,0.43049514293670654,-0.42668038606643677
11.018962144851685,-0.5533303022384644,-0.7021057605743408,0.6242847442626953,-0.06084534898400307,0.43125811219215393,-0.42706188559532166
11.0390305519104,-0.5540932416915894,-0.7028687000274658,0.6254291534423828,-0.061226826161146164,0.4343098998069763,-0.42744335532188416
11.059092283248901,-0.5548561811447144,-0.7043945789337158,0.6269550919532776,-0.06084534898400307,0.4358358085155487,-0.42782482504844666
11.079174041748047,-0.5552376508712769,-0.7051575779914856,0.6280995011329651,-0.06084534898400307,0.438506156206131,-0.42896926403045654
11.099228382110596,-0.5552376508712769,-0.7063019871711731,0.6292439103126526,-0.06084534898400307,0.4388876259326935,-0.43087664246559143
11.11931562423706,-0.5556191205978394,-0.7078278660774231,0.6307697892189026,-0.06084534898400307,0.4396505653858185,-0.43240252137184143
11.139386177062988,-0.5560005903244019,-0.7085908055305481,0.6319142580032349,-0.061226826161146164,0.44193941354751587,-0.4331654906272888
11.159892320632935,-0.5567635893821716,-0.7093538045883179,0.6326771974563599,-0.061226826161146164,0.44460976123809814,-0.4346913993358612
11.180037021636963,-0.5575265288352966,-0.7101167440414429,0.6342030763626099,-0.061226826161146164,0.44575417041778564,-0.4346913993358612
11.2000572681427,-0.5575265288352966,-0.7112611532211304,0.6357290148735046,-0.061226826161146164,0.44613564014434814,-0.4354543387889862
11.220280170440674,-0.5582894682884216,-0.7120240926742554,0.6364919543266296,-0.06084534898400307,0.44728007912635803,-0.4362172782421112
11.240371227264404,-0.5582894682884216,-0.7135500311851501,0.6380178332328796,-0.06084534898400307,0.4488059878349304,-0.4373617172241211
11.260520219802856,-0.5582894682884216,-0.7154573798179626,0.6391623020172119,-0.06084534898400307,0.4491874575614929,-0.438506156206131
11.280622959136963,-0.5594338774681091,-0.7162203192710876,0.6399252414703369,-0.06084534898400307,0.4495689272880554,-0.440032035112381
11.300695419311523,-0.5598153471946716,-0.7173647880554199,0.6406881809234619,-0.06160829961299896,0.4510948359966278,-0.44232088327407837
11.320778131484985,-0.5601968169212341,-0.7185091972351074,0.6418325901031494,-0.06160829961299896,0.4533836841583252,-0.44232088327407837
11.34086561203003,-0.5601968169212341,-0.7192721366882324,0.6429770588874817,-0.06160829961299896,0.4537651538848877,-0.44346532225608826
11.361036539077759,-0.5601968169212341,-0.7204165458679199,0.6445029377937317,-0.061226826161146164,0.4537651538848877,-0.44384679198265076
11.381031036376953,-0.5605783462524414,-0.7215610146522522,0.6467918157577515,-0.06160829961299896,0.4549095928668976,-0.44499123096466064
11.401062488555908,-0.5605783462524414,-0.7223239541053772,0.647936224937439,-0.06160829961299896,0.45643550157546997,-0.44575417041778564
11.42115068435669,-0.5605783462524414,-0.7242313027381897,0.6498435735702515,-0.06160829961299896,0.45719844102859497,-0.44651713967323303
11.441221952438354,-0.5613412857055664,-0.7257572412490845,0.6509880423545837,-0.061226826161146164,0.45872434973716736,-0.4488059878349304
11.461288452148438,-0.5617227554321289,-0.7265201807022095,0.6517509818077087,-0.06160829961299896,0.46177613735198975,-0.4514763057231903
11.481383562088013,-0.5624856948852539,-0.7280460596084595,0.6528953909873962,-0.06160829961299896,0.464446485042572,-0.4522392749786377
11.501453638076782,-0.5624856948852539,-0.7291905283927917,0.654421329498291,-0.06198977679014206,0.464446485042572,-0.4526207447052002
11.521528482437134,-0.5624856948852539,-0.7299534678459167,0.655184268951416,-0.06160829961299896,0.465209424495697,-0.4530022144317627
11.541762590408325,-0.5632486343383789,-0.7310978770256042,0.6563286781311035,-0.061226826161146164,0.4659723937511444,-0.4533836841583252
11.561851739883423,-0.5636301040649414,-0.7322422862052917,0.6570916175842285,-0.06160829961299896,0.4694056510925293,-0.4545281231403351
11.581941604614258,-0.5647745728492737,-0.7337682247161865,0.6582360863685608,-0.06160829961299896,0.4713130295276642,-0.4545281231403351
11.6024751663208,-0.5655375123023987,-0.7345311641693115,0.6589990258216858,-0.06160829961299896,0.4716945290565491,-0.45719844102859497
11.622557878494263,-0.5655375123023987,-0.7360570430755615,0.6605249047279358,-0.06160829961299896,0.4720759987831116,-0.45719844102859497
11.642631530761719,-0.5655375123023987,-0.7368200421333313,0.6616693139076233,-0.06160829961299896,0.4724574685096741,-0.45834288001060486
11.662689924240112,-0.5655375123023987,-0.7379644513130188,0.6628137826919556,-0.06160829961299896,0.4728389382362366,-0.45986875891685486
11.682782649993896,-0.5655375123023987,-0.7391088604927063,0.6647211313247681,-0.06160829961299896,0.47398337721824646,-0.45986875891685486
11.702858924865723,-0.5659189820289612,-0.7402533292770386,0.6658655405044556,-0.061226826161146164,0.47474631667137146,-0.46025025844573975
11.722920656204224,-0.5666819214820862,-0.7410162687301636,0.6670100092887878,-0.061226826161146164,0.47589075565338135,-0.46101319789886475
11.743020296096802,-0.5670633912086487,-0.7421606779098511,0.6689173579216003,-0.06160829961299896,0.47779813408851624,-0.46177613735198975
11.763109683990479,-0.5674448609352112,-0.7433050870895386,0.6700618267059326,-0.061226826161146164,0.47932401299476624,-0.46292057633399963
11.783156871795654,-0.5674448609352112,-0.7440680265426636,0.6715877056121826,-0.061226826161146164,0.4800869822502136,-0.4648279547691345
11.803239583969116,-0.5674448609352112,-0.7455939650535583,0.6734950542449951,-0.061226826161146164,0.4812313914299011,-0.465209424495697
11.823315143585205,-0.5674448609352112,-0.7471198439598083,0.6750209927558899,-0.061226826161146164,0.4819943606853485,-0.4674982726573944
11.843364715576172,-0.5678263306617737,-0.7482643127441406,0.6757839322090149,-0.061226826161146164,0.483138769865036,-0.4686427116394043
11.863456964492798,-0.5678263306617737,-0.7497901916503906,0.6773098111152649,-0.061226826161146164,0.4842832088470459,-0.4690241813659668
11.883524894714355,-0.5682078003883362,-0.7509346008300781,0.6784542798995972,-0.06084534898400307,0.4865720570087433,-0.4713130295276642
11.903620958328247,-0.5685893297195435,-0.7513160705566406,0.6795986890792847,-0.061226826161146164,0.49038681387901306,-0.4720759987831116
11.923701047897339,-0.569733738899231,-0.7532234787940979,0.6818875670433044,-0.061226826161146164,0.49114975333213806,-0.4724574685096741
11.943855047225952,-0.569733738899231,-0.7543678879737854,0.6826505064964294,-0.06084534898400307,0.49343863129615784,-0.47550925612449646
11.96384072303772,-0.5701152086257935,-0.7555122971534729,0.6841763854026794,-0.061226826161146164,0.4957274794578552,-0.47665369510650635
11.983936071395874,-0.5708781480789185,-0.7570382356643677,0.6864652633666992,-0.061226826161146164,0.4983977973461151,-0.47817960381507874
12.004003286361694,-0.5716410875320435,-0.7589455842971802,0.6891355514526367,-0.061226826161146164,0.4983977973461151,-0.47894254326820374
12.02406358718872,-0.572022557258606,-0.7597085237503052,0.6898985505104065,-0.06084534898400307,0.4987792670726776,-0.47932401299476624
12.0441312789917,-0.572022557258606,-0.7600900530815125,0.691042959690094,-0.06084534898400307,0.4987792670726776,-0.4800869822502136
12.064220666885376,-0.5727855563163757,-0.7616159319877625,0.692568838596344,-0.061226826161146164,0.499542236328125,-0.4804684519767761
12.084296464920044,-0.5727855563163757,-0.7623788714408875,0.6937133073806763,-0.06084534898400307,0.5006866455078125,-0.4819943606853485
12.104491472244263,-0.5727855563163757,-0.763523280620575,0.6940947771072388,-0.06084534898400307,0.5014495849609375,-0.4835202693939209
12.124604225158691,-0.5739299654960632,-0.7642862796783447,0.6944762468338013,-0.06084534898400307,0.5022125840187073,-0.4839017391204834
12.144670486450195,-0.5746929049491882,-0.7650492191314697,0.6944762468338013,-0.061226826161146164,0.5041199326515198,-0.4858091175556183
12.164729595184326,-0.576218843460083,-0.7654306888580322,0.6944762468338013,-0.06160829961299896,0.5056458115577698,-0.4865720570087433
12.184815645217896,-0.5773632526397705,-0.7658121585845947,0.6948577165603638,-0.06198977679014206,0.506027340888977,-0.4869535267353058
12.204897403717041,-0.5781261920928955,-0.7661936283111572,0.6948577165603638,-0.06237125024199486,0.5071717500686646,-0.4869535267353058
12.224963665008545,-0.579270601272583,-0.7665750980377197,0.6952391862869263,-0.06313420087099075,0.508316159248352,-0.4873350262641907
12.245019674301147,-0.580033540725708,-0.7673380374908447,0.6960021257400513,-0.06351567804813385,0.5086976289749146,-0.4892423748970032
12.265220880508423,-0.5811780095100403,-0.767719566822052,0.6963835954666138,-0.06389715522527695,0.5086976289749146,-0.49000534415245056
12.28521180152893,-0.5819409489631653,-0.7681010365486145,0.6963835954666138,-0.06427863240242004,0.509079098701477,-0.49076828360557556
12.30530834197998,-0.5823224186897278,-0.7681010365486145,0.6963835954666138,-0.06466010212898254,0.5098420977592468,-0.49229419231414795
12.32543396949768,-0.5823224186897278,-0.768482506275177,0.6967650651931763,-0.06504157930612564,0.5094605684280396,-0.49458304047584534
12.345441341400146,-0.5830853581428528,-0.769245445728302,0.697528064250946,-0.06504157930612564,0.5109865069389343,-0.49458304047584534
12.365527391433716,-0.5842298269271851,-0.770008385181427,0.6979095339775085,-0.06580453366041183,0.5128938555717468,-0.49496451020240784
12.385592937469482,-0.5849927663803101,-0.7703898549079895,0.6979095339775085,-0.06618601083755493,0.5159456729888916,-0.4964904189109802
12.405667066574097,-0.5853742361068726,-0.770771324634552,0.6979095339775085,-0.06809338182210922,0.5170900821685791,-0.4976348578929901
12.425796270370483,-0.5865186452865601,-0.7715343236923218,0.698291003704071,-0.06809338182210922,0.5201418995857239,-0.4983977973461151
12.445883512496948,-0.5880445837974548,-0.7722972631454468,0.6986724734306335,-0.06885633617639542,0.5212863087654114,-0.4987792670726776
12.465963363647461,-0.5888075232505798,-0.7722972631454468,0.6986724734306335,-0.07000076025724411,0.5231937170028687,-0.50030517578125
12.486115217208862,-0.5895704627037048,-0.7730602025985718,0.699053943157196,-0.0711451917886734,0.5239566564559937,-0.5022125840187073
12.506221532821655,-0.5899519324302673,-0.7742046117782593,0.6994354128837585,-0.0711451917886734,0.5239566564559937,-0.5029755234718323
12.526334524154663,-0.5903334021568298,-0.7745860815048218,0.699816882610321,-0.071908138692379,0.5239566564559937,-0.5045014023780823
12.546397924423218,-0.5914778113365173,-0.7753490209579468,0.700579822063446,-0.0722896158695221,0.5243381261825562,-0.5052643418312073
12.566462516784668,-0.5922408103942871,-0.775730550289154,0.7009612917900085,-0.0722896158695221,0.5247195959091187,-0.5052643418312073
12.58652949333191,-0.5926222801208496,-0.775730550289154,0.7009612917900085,-0.07267109304666519,0.5251010656356812,-0.5056458115577698
12.606618165969849,-0.5933852195739746,-0.7761120200157166,0.7013428211212158,-0.07267109304666519,0.5254825949668884,-0.506027340888977
12.626694679260254,-0.5941481590270996,-0.7768749594688416,0.7017242908477783,-0.07305257022380829,0.5262455344200134,-0.506790280342102
12.64675498008728,-0.5945296287536621,-0.7776378989219666,0.7021057605743408,-0.07457847148180008,0.5273899435997009,-0.508316159248352
12.667213439941406,-0.5960555672645569,-0.778019368648529,0.7021057605743408,-0.07534141838550568,0.5281528830528259,-0.5094605684280396
12.687313795089722,-0.5964370369911194,-0.7784008383750916,0.7024872303009033,-0.07610437273979187,0.5289158225059509,-0.5102235674858093
12.707394123077393,-0.5968185067176819,-0.7791637778282166,0.7028687000274658,-0.07686731964349747,0.5300602912902832,-0.5117494463920593
12.727619409561157,-0.5968185067176819,-0.7795453071594238,0.7028687000274658,-0.07724879682064056,0.5304417610168457,-0.5128938555717468
12.747719764709473,-0.5975814461708069,-0.7803082466125488,0.7028687000274658,-0.07763027399778366,0.5319676399230957,-0.5128938555717468
12.767797946929932,-0.5987258553504944,-0.7806897163391113,0.7032501697540283,-0.07877469807863235,0.5331120491027832,-0.5132753252983093
12.787849426269531,-0.5994887948036194,-0.7814526557922363,0.7032501697540283,-0.07915617525577545,0.5350194573402405,-0.5144197940826416
12.807979583740234,-0.6002517938613892,-0.7822155952453613,0.7036316394805908,-0.07953765243291855,0.5357823967933655,-0.5159456729888916
12.828028202056885,-0.6010147333145142,-0.7825970649719238,0.7043945789337158,-0.07991912961006165,0.536163866519928,-0.5174715518951416
12.848098278045654,-0.6021591424942017,-0.7825970649719238,0.7043945789337158,-0.08030059933662415,0.5365453362464905,-0.5201418995857239
12.868234157562256,-0.6033035516738892,-0.7825970649719238,0.7047760486602783,-0.08068207651376724,0.5388342142105103,-0.5205233693122864
12.888294458389282,-0.6040665507316589,-0.7829785346984863,0.7051575779914856,-0.08068207651376724,0.5407415628433228,-0.5209048390388489
12.908492088317871,-0.6040665507316589,-0.7837415337562561,0.7051575779914856,-0.08068207651376724,0.5415045619010925,-0.5216678380966187
12.928587436676025,-0.6044480204582214,-0.7845044732093811,0.7055390477180481,-0.08144503086805344,0.541886031627655,-0.5228122472763062
12.9486563205719,-0.6048294901847839,-0.7856488823890686,0.7059205174446106,-0.08411535620689392,0.54264897108078,-0.5235751867294312
12.968708515167236,-0.6052109599113464,-0.7860303521156311,0.7063019871711731,-0.08487831056118011,0.54417484998703,-0.5247195959091187
12.988807678222656,-0.6063553690910339,-0.7867932915687561,0.7063019871711731,-0.08487831056118011,0.5460822582244873,-0.5254825949668884
13.008870840072632,-0.6071183085441589,-0.7867932915687561,0.7066834568977356,-0.08525978773832321,0.5479896068572998,-0.5273899435997009
13.028940677642822,-0.6086442470550537,-0.7867932915687561,0.7070649266242981,-0.086785688996315,0.5498970150947571,-0.5285343527793884
13.049073934555054,-0.6094071865081787,-0.7879377603530884,0.7070649266242981,-0.086785688996315,0.5514228940010071,-0.5300602912902832
13.06912112236023,-0.6094071865081787,-0.7887006998062134,0.7074463963508606,-0.086785688996315,0.5514228940010071,-0.5308232307434082
13.089176177978516,-0.6101701259613037,-0.7890821695327759,0.7078278660774231,-0.0871671661734581,0.5514228940010071,-0.5312047004699707
13.10927939414978,-0.6109330654144287,-0.7898451089859009,0.7082093358039856,-0.08869306743144989,0.5518043637275696,-0.5315861701965332
13.129387617111206,-0.6113145351409912,-0.7902265787124634,0.7082093358039856,-0.08869306743144989,0.5521858334541321,-0.5315861701965332
13.149476766586304,-0.6113145351409912,-0.7906080484390259,0.7082093358039856,-0.08869306743144989,0.5525673031806946,-0.5323491096496582
13.169555902481079,-0.612077534198761,-0.7909895181655884,0.7085908055305481,-0.08869306743144989,0.5537117719650269,-0.5331120491027832
13.189609289169312,-0.6132219433784485,-0.7921339869499207,0.7089722752571106,-0.08983749151229858,0.5552376508712769,-0.534637987613678
13.209686994552612,-0.6139848828315735,-0.7925154566764832,0.7093538045883179,-0.09060044586658478,0.5575265288352966,-0.5357823967933655
13.229928016662598,-0.615129292011261,-0.7928969264030457,0.7093538045883179,-0.09136339277029037,0.5582894682884216,-0.5365453362464905
13.25014042854309,-0.6155108213424683,-0.7936598658561707,0.7097352743148804,-0.09174486994743347,0.5586709380149841,-0.5384527444839478
13.270128965377808,-0.6155108213424683,-0.7940413355827332,0.7104982137680054,-0.09250781685113907,0.5594338774681091,-0.5384527444839478
13.290202856063843,-0.6162737607955933,-0.7948042750358582,0.7104982137680054,-0.09250781685113907,0.5598153471946716,-0.5392156839370728
13.31028413772583,-0.6174181699752808,-0.7951858043670654,0.7108796834945679,-0.09327077120542526,0.5609598159790039,-0.5395971536636353
13.330367803573608,-0.6181811094284058,-0.7955672740936279,0.7112611532211304,-0.09403372555971146,0.5617227554321289,-0.5403600931167603
13.35042142868042,-0.6185625791549683,-0.7963302135467529,0.7112611532211304,-0.09403372555971146,0.5624856948852539,-0.5430304408073425
13.370503902435303,-0.6185625791549683,-0.7970931529998779,0.7120240926742554,-0.09441519528627396,0.5628671646118164,-0.5445563197135925
13.390568017959595,-0.619325578212738,-0.7974746227264404,0.7124055624008179,-0.09517814964056015,0.5640115737915039,-0.5468451976776123
13.410627126693726,-0.620851457118988,-0.7974746227264404,0.7127870321273804,-0.09517814964056015,0.5651560425758362,-0.5472266674041748
13.430703401565552,-0.621614396572113,-0.7982375621795654,0.7131685614585876,-0.09555962681770325,0.5682078003883362,-0.5479896068572998
13.450780391693115,-0.6227588057518005,-0.7990005612373352,0.7135500311851501,-0.09555962681770325,0.5693522691726685,-0.5491340756416321
13.470831394195557,-0.6231403350830078,-0.7993820309638977,0.7135500311851501,-0.09632257372140884,0.569733738899231,-0.5498970150947571
13.490932941436768,-0.6235218048095703,-0.7993820309638977,0.7131685614585876,-0.09746700525283813,0.570496678352356,-0.5502784848213196
13.510986804962158,-0.6239032745361328,-0.8005264401435852,0.7135500311851501,-0.09861142933368683,0.5716410875320435,-0.5514228940010071
13.531054973602295,-0.6246662139892578,-0.8005264401435852,0.7143129706382751,-0.09861142933368683,0.5743114352226257,-0.5529488325119019
13.551143169403076,-0.6254291534423828,-0.8012893795967102,0.7146944403648376,-0.09899290651082993,0.576218843460083,-0.5548561811447144
13.571221351623535,-0.6258106231689453,-0.8016708493232727,0.7150759100914001,-0.09899290651082993,0.5766003131866455,-0.5548561811447144
13.591303586959839,-0.6258106231689453,-0.8016708493232727,0.7154573798179626,-0.09937438368797302,0.576981782913208,-0.5560005903244019
13.611365556716919,-0.6258106231689453,-0.8024337887763977,0.7154573798179626,-0.09975585341453552,0.5773632526397705,-0.5575265288352966
13.631467342376709,-0.6265735626220703,-0.8031967878341675,0.7158388495445251,-0.10013733059167862,0.577744722366333,-0.5575265288352966
13.651520729064941,-0.6269550919532776,-0.80357825756073,0.7162203192710876,-0.10128175467252731,0.578507661819458,-0.5579079985618591
13.671700954437256,-0.6277180314064026,-0.804341197013855,0.7166017889976501,-0.1024261862039566,0.5807965397834778,-0.5582894682884216
13.691790342330933,-0.6288624405860901,-0.8047226667404175,0.7169833183288574,-0.10204470902681351,0.5811780095100403,-0.5586709380149841
13.711871147155762,-0.6296253800392151,-0.80510413646698,0.7173647880554199,-0.1028076633810997,0.5815594792366028,-0.5601968169212341
13.731919288635254,-0.6311513185501099,-0.8054856061935425,0.7177462577819824,-0.1028076633810997,0.5823224186897278,-0.5621042251586914
13.752029657363892,-0.6319142580032349,-0.80663001537323,0.7177462577819824,-0.1028076633810997,0.5838482975959778,-0.5624856948852539
13.772100687026978,-0.6326771974563599,-0.8070115447044373,0.7177462577819824,-0.1039520874619484,0.5846112966537476,-0.5636301040649414
13.792176961898804,-0.6326771974563599,-0.8073930144309998,0.7177462577819824,-0.10547798871994019,0.5849927663803101,-0.5655375123023987
13.812286853790283,-0.6330586671829224,-0.8081559538841248,0.7185091972351074,-0.10624094307422638,0.5853742361068726,-0.5655375123023987
13.832337856292725,-0.6334401369094849,-0.8089188933372498,0.7192721366882324,-0.10662241280078888,0.5865186452865601,-0.5663004517555237
13.852393627166748,-0.6338216066360474,-0.8093003630638123,0.7196536064147949,-0.10662241280078888,0.5876630544662476,-0.5666819214820862
13.872468709945679,-0.6353475451469421,-0.8096818327903748,0.7196536064147949,-0.10662241280078888,0.5880445837974548,-0.5693522691726685
13.892564058303833,-0.6361104846000671,-0.8096818327903748,0.7196536064147949,-0.10738536715507507,0.5895704627037048,-0.5701152086257935
13.912640810012817,-0.6372548937797546,-0.8100633025169373,0.7196536064147949,-0.10814831405878067,0.5926222801208496,-0.571259617805481
13.93287467956543,-0.6380178332328796,-0.810826301574707,0.7200350761413574,-0.10891126841306686,0.5949110984802246,-0.5735484957695007
13.952996969223022,-0.6383993029594421,-0.8119707107543945,0.7207980751991272,-0.10929274559020996,0.5956740379333496,-0.5735484957695007
13.973071575164795,-0.6387808322906494,-0.8119707107543945,0.7207980751991272,-0.10929274559020996,0.5952925682067871,-0.5746929049491882
13.99351167678833,-0.6395437717437744,-0.812352180480957,0.7211795449256897,-0.10967422276735306,0.5956740379333496,-0.576218843460083
14.013672351837158,-0.6403067111968994,-0.813115119934082,0.7215610146522522,-0.10967422276735306,0.5983443856239319,-0.5766003131866455
14.033706903457642,-0.6403067111968994,-0.813878059387207,0.7219424843788147,-0.11005569249391556,0.5991073250770569,-0.5766003131866455
14.0537588596344,-0.6403067111968994,-0.813878059387207,0.7219424843788147,-0.11081864684820175,0.5994887948036194,-0.5773632526397705
14.073853254318237,-0.6410696506500244,-0.8150225281715393,0.7227054238319397,-0.11234454810619354,0.6010147333145142,-0.5788891315460205
14.093918085098267,-0.6418325901031494,-0.8154039978981018,0.7230868935585022,-0.11310750246047974,0.6029220819473267,-0.5819409489631653
14.11397385597229,-0.6422140598297119,-0.8157854676246643,0.7230868935585022,-0.11310750246047974,0.6044480204582214,-0.5830853581428528
14.134063959121704,-0.6433585286140442,-0.8161669373512268,0.7234683632850647,-0.11310750246047974,0.6052109599113464,-0.5834668278694153
14.154146432876587,-0.6445029377937317,-0.8169298768043518,0.7234683632850647,-0.11425192654132843,0.6059738993644714,-0.5842298269271851
