liuyurong129/humanoid-gym/humanoid/data/actual_q_20250522-032257.csv
timestamp,joint_1,joint_2,joint_3,joint_4,joint_5,joint_6
6.151199340820312e-05,-0.00019073777366429567,0.12645913660526276,-0.06618601083755493,-0.00019073777366429567,0.0009536888683214784,-0.00019073777366429567
0.020146846771240234,-0.00019073777366429567,0.11081864684820175,-0.059319447726011276,-0.00019073777366429567,0.0009536888683214784,-0.00019073777366429567
0.04022574424743652,-0.00019073777366429567,0.10051880776882172,-0.053215838968753815,-0.00019073777366429567,-0.00019073777366429567,-0.00019073777366429567
0.06044793128967285,-0.00019073777366429567,0.08907453715801239,-0.04596780240535736,-0.00019073777366429567,0.00019073777366429567,-0.00019073777366429567
0.08045768737792969,-0.00019073777366429567,0.07763027399778366,-0.03833829239010811,-0.00019073777366429567,0.00019073777366429567,-0.00019073777366429567
0.1005239486694336,-0.00019073777366429567,0.07000076025724411,-0.03528648987412453,0.00019073777366429567,0.00019073777366429567,-0.00019073777366429567
0.12061834335327148,-0.00019073777366429567,0.06733043491840363,-0.03337911143898964,-0.00019073777366429567,0.00019073777366429567,-0.00019073777366429567
0.14069724082946777,-0.00019073777366429567,0.06580453366041183,-0.034142062067985535,-0.00019073777366429567,0.00019073777366429567,-0.00019073777366429567
0.16082072257995605,-0.00019073777366429567,0.06580453366041183,-0.03376058489084244,-0.00019073777366429567,0.000572213320992887,-0.00019073777366429567
0.18094086647033691,-0.00019073777366429567,0.06580453366041183,-0.032616160809993744,-0.00019073777366429567,0.00019073777366429567,-0.00019073777366429567
0.2009754180908203,-0.00019073777366429567,0.06618601083755493,-0.03147173300385475,-0.00019073777366429567,0.00019073777366429567,-0.000572213320992887
0.22105050086975098,-0.00019073777366429567,0.06580453366041183,-0.03032730519771576,-0.00019073777366429567,0.000572213320992887,-0.000572213320992887
0.24111199378967285,-0.00019073777366429567,0.06542305648326874,-0.02880140393972397,-0.000572213320992887,0.000572213320992887,-0.0009536888683214784
0.26120495796203613,-0.000572213320992887,0.06427863240242004,-0.02841992862522602,-0.000572213320992887,0.000572213320992887,-0.0009536888683214784
0.28127312660217285,-0.000572213320992887,0.06389715522527695,-0.02841992862522602,-0.0009536888683214784,0.0009536888683214784,-0.001716639962978661
0.3013753890991211,-0.000572213320992887,0.06313420087099075,-0.02727550081908703,-0.0013351644156500697,0.0009536888683214784,-0.004005493130534887
0.3214573860168457,-0.0009536888683214784,0.06237125024199486,-0.026131074875593185,-0.001716639962978661,0.0009536888683214784,-0.00476844422519207
0.34162020683288574,-0.0020981156267225742,0.06160829961299896,-0.024605173617601395,-0.002861066721379757,0.001716639962978661,-0.005149920005351305
0.3616824150085449,-0.002861066721379757,0.06084534898400307,-0.023460745811462402,-0.0036240178160369396,0.0024795911740511656,-0.005531395319849253
0.38175439834594727,-0.0036240178160369396,0.06008239835500717,-0.02231631986796856,-0.004386968910694122,0.002861066721379757,-0.007057297509163618
0.40184497833251953,-0.00476844422519207,0.05893797054886818,-0.021553369238972664,-0.00476844422519207,0.002861066721379757,-0.007438773289322853
0.42218923568725586,-0.005531395319849253,0.058175019919872284,-0.02079041674733162,-0.005149920005351305,0.002861066721379757,-0.008201723918318748
0.4422910213470459,-0.005912871100008488,0.05703059583902359,-0.020027466118335724,-0.005912871100008488,0.002861066721379757,-0.008201723918318748
0.46245408058166504,-0.007057297509163618,0.0558861680328846,-0.01888304017484188,-0.007438773289322853,0.0032425422687083483,-0.00858320016413927
0.48255109786987305,-0.0078202486038208,0.0551232174038887,-0.01773861236870289,-0.0078202486038208,0.0036240178160369396,-0.009346150793135166
0.5031001567840576,-0.008201723918318748,0.05436026677489281,-0.016975661739706993,-0.008201723918318748,0.0036240178160369396,-0.010490577667951584
0.5232393741607666,-0.008964675478637218,0.053215838968753815,-0.01506828423589468,-0.00858320016413927,0.004005493130534887,-0.011635004542768002
0.5435659885406494,-0.010109102353453636,0.051689937710762024,-0.013923857361078262,-0.009727626107633114,0.005531395319849253,-0.012397955171763897
0.5636565685272217,-0.010872052982449532,0.050164032727479935,-0.011635004542768002,-0.01125352829694748,0.00667582219466567,-0.013160906732082367
0.5837106704711914,-0.01201647985726595,0.04940108209848404,-0.010490577667951584,-0.01201647985726595,0.007057297509163618,-0.01430533267557621
0.6038002967834473,-0.012779430486261845,0.048638131469488144,-0.009727626107633114,-0.012397955171763897,0.007438773289322853,-0.01506828423589468
0.6239945888519287,-0.012779430486261845,0.04787518084049225,-0.00858320016413927,-0.012779430486261845,0.0078202486038208,-0.015449759550392628
0.6440849304199219,-0.01430533267557621,0.04596780240535736,-0.00667582219466567,-0.01430533267557621,0.008201723918318748,-0.01583123579621315
0.664142370223999,-0.01506828423589468,0.045204851776361465,-0.005912871100008488,-0.01583123579621315,0.00858320016413927,-0.016594186425209045
0.6843075752258301,-0.014686808921396732,0.04482337832450867,-0.005149920005351305,-0.01583123579621315,0.00858320016413927,-0.016975661739706993
0.7044172286987305,-0.01506828423589468,0.04329747334122658,-0.0036240178160369396,-0.016212711110711098,0.00858320016413927,-0.01773861236870289
0.7245981693267822,-0.01583123579621315,0.04291599988937378,-0.0032425422687083483,-0.016594186425209045,0.00858320016413927,-0.01888304017484188
0.744734525680542,-0.016975661739706993,0.04253452271223068,-0.0024795911740511656,-0.01735713705420494,0.009346150793135166,-0.019645990803837776
0.7648663520812988,-0.01773861236870289,0.04100862145423889,-0.0009536888683214784,-0.01888304017484188,0.010109102353453636,-0.02040894143283367
0.7850360870361328,-0.018501564860343933,0.0394827201962471,0.00019073777366429567,-0.01926451548933983,0.010872052982449532,-0.021553369238972664
0.8050997257232666,-0.01926451548933983,0.03833829239010811,0.0013351644156500697,-0.019645990803837776,0.01125352829694748,-0.023079270496964455
0.8251779079437256,-0.020027466118335724,0.03795681521296501,0.0024795911740511656,-0.019645990803837776,0.01125352829694748,-0.023079270496964455
0.84523606300354,-0.02079041674733162,0.037193864583969116,0.0032425422687083483,-0.020027466118335724,0.010872052982449532,-0.023079270496964455
0.8653438091278076,-0.02193484455347061,0.03604944050312042,0.004386968910694122,-0.02040894143283367,0.010872052982449532,-0.02384222112596035
0.885392427444458,-0.02231631986796856,0.03528648987412453,0.00476844422519207,-0.021553369238972664,0.01125352829694748,-0.024223696440458298
0.9055657386779785,-0.02231631986796856,0.034142062067985535,0.005912871100008488,-0.02231631986796856,0.01125352829694748,-0.025749599561095238
0.9256155490875244,-0.02231631986796856,0.03376058489084244,0.00667582219466567,-0.022697795182466507,0.01125352829694748,-0.026512550190091133
0.9456908702850342,-0.023079270496964455,0.03299763426184654,0.0078202486038208,-0.023079270496964455,0.01201647985726595,-0.02727550081908703
0.9658734798431396,-0.024223696440458298,0.03185320645570755,0.009346150793135166,-0.023460745811462402,0.013542382046580315,-0.028038453310728073
0.9859857559204102,-0.024605173617601395,0.031090257689356804,0.010109102353453636,-0.02384222112596035,0.01583123579621315,-0.029182879254221916
1.0061452388763428,-0.02536812424659729,0.029564354568719864,0.01125352829694748,-0.024986648932099342,0.016212711110711098,-0.030708782374858856
1.026212215423584,-0.026512550190091133,0.029182879254221916,0.01201647985726595,-0.026131074875593185,0.01773861236870289,-0.031090257689356804
1.0463433265686035,-0.02727550081908703,0.027656977996230125,0.012779430486261845,-0.02689402550458908,0.018501564860343933,-0.03147173300385475
1.0665225982666016,-0.027656977996230125,0.02689402550458908,0.013542382046580315,-0.02689402550458908,0.018501564860343933,-0.03223468363285065
1.0866172313690186,-0.02841992862522602,0.026131074875593185,0.014686808921396732,-0.02727550081908703,0.01888304017484188,-0.03337911143898964
1.1067209243774414,-0.029564354568719864,0.024605173617601395,0.016594186425209045,-0.027656977996230125,0.01888304017484188,-0.03376058489084244
1.1268725395202637,-0.029564354568719864,0.024605173617601395,0.01735713705420494,-0.02841992862522602,0.01888304017484188,-0.034142062067985535
1.1469252109527588,-0.029564354568719864,0.023460745811462402,0.018501564860343933,-0.029564354568719864,0.01888304017484188,-0.03452353551983833
1.1671757698059082,-0.02994582988321781,0.021553369238972664,0.020027466118335724,-0.02994582988321781,0.01888304017484188,-0.03528648987412453
1.1874566078186035,-0.031090257689356804,0.02079041674733162,0.021171892061829567,-0.03032730519771576,0.020027466118335724,-0.03604944050312042
1.2076420783996582,-0.03223468363285065,0.01926451548933983,0.023079270496964455,-0.030708782374858856,0.021171892061829567,-0.037193864583969116
1.2276904582977295,-0.032616160809993744,0.01926451548933983,0.023460745811462402,-0.03147173300385475,0.023079270496964455,-0.03833829239010811
1.2477445602416992,-0.03376058489084244,0.018120087683200836,0.024605173617601395,-0.03147173300385475,0.023460745811462402,-0.038719769567251205
1.2679526805877686,-0.03490501269698143,0.01735713705420494,0.025749599561095238,-0.032616160809993744,0.024605173617601395,-0.0394827201962471
1.2881698608398438,-0.03604944050312042,0.01583123579621315,0.026512550190091133,-0.03376058489084244,0.02536812424659729,-0.04100862145423889
1.3083455562591553,-0.03681239113211632,0.014686808921396732,0.027656977996230125,-0.03452353551983833,0.025749599561095238,-0.04139009863138199
1.3284173011779785,-0.03681239113211632,0.01430533267557621,0.028038453310728073,-0.03490501269698143,0.025749599561095238,-0.04177157208323479
1.348611831665039,-0.03681239113211632,0.012779430486261845,0.029564354568719864,-0.03528648987412453,0.025749599561095238,-0.04253452271223068
1.3686344623565674,-0.037193864583969116,0.010872052982449532,0.031090257689356804,-0.03604944050312042,0.026131074875593185,-0.04291599988937378
1.3886828422546387,-0.03833829239010811,0.009346150793135166,0.032616160809993744,-0.03757534176111221,0.026512550190091133,-0.04406042397022247
1.4087889194488525,-0.039101243019104004,0.00858320016413927,0.03376058489084244,-0.03833829239010811,0.02689402550458908,-0.04558632895350456
1.4288725852966309,-0.0398641936480999,0.008201723918318748,0.03452353551983833,-0.03833829239010811,0.02689402550458908,-0.04596780240535736
1.4490132331848145,-0.04100862145423889,0.00667582219466567,0.03604944050312042,-0.038719769567251205,0.026512550190091133,-0.04749370738863945
1.4690937995910645,-0.042153049260377884,0.005149920005351305,0.037193864583969116,-0.0394827201962471,0.02689402550458908,-0.04901960864663124
1.489159107208252,-0.04329747334122658,0.0036240178160369396,0.039101243019104004,-0.04139009863138199,0.02689402550458908,-0.04940108209848404
1.5092506408691406,-0.04406042397022247,0.0024795911740511656,0.040245670825242996,-0.042153049260377884,0.02727550081908703,-0.050164032727479935
1.5293302536010742,-0.04406042397022247,0.001716639962978661,0.040627144277095795,-0.04253452271223068,0.027656977996230125,-0.05092698708176613
1.5494039058685303,-0.04406042397022247,0.0009536888683214784,0.04139009863138199,-0.04291599988937378,0.027656977996230125,-0.051689937710762024
1.5694844722747803,-0.04444190114736557,-0.00019073777366429567,0.042153049260377884,-0.04406042397022247,0.028038453310728073,-0.05283436179161072
1.5895631313323975,-0.045204851776361465,-0.0013351644156500697,0.04291599988937378,-0.045204851776361465,0.029564354568719864,-0.053215838968753815
1.6096577644348145,-0.04634927958250046,-0.0020981156267225742,0.04444190114736557,-0.045204851776361465,0.02994582988321781,-0.05359731614589691
1.6297175884246826,-0.04711223021149635,-0.002861066721379757,0.045204851776361465,-0.04558632895350456,0.030708782374858856,-0.05436026677489281
1.649794101715088,-0.048256658017635345,-0.004386968910694122,0.046730753034353256,-0.04558632895350456,0.03147173300385475,-0.056267641484737396
1.6698789596557617,-0.04940108209848404,-0.005531395319849253,0.04787518084049225,-0.04634927958250046,0.03147173300385475,-0.05703059583902359
1.6899559497833252,-0.049782559275627136,-0.00667582219466567,0.04901960864663124,-0.04634927958250046,0.03147173300385475,-0.057793546468019485
1.710106611251831,-0.05054550990462303,-0.0078202486038208,0.05054550990462303,-0.046730753034353256,0.032616160809993744,-0.05855649709701538
1.7301878929138184,-0.05130846053361893,-0.008964675478637218,0.051689937710762024,-0.04749370738863945,0.03337911143898964,-0.06008239835500717
1.7503149509429932,-0.051689937710762024,-0.010109102353453636,0.053215838968753815,-0.04940108209848404,0.03337911143898964,-0.06008239835500717
1.7710134983062744,-0.05130846053361893,-0.010872052982449532,0.05359731614589691,-0.04940108209848404,0.034142062067985535,-0.06046387553215027
1.7911310195922852,-0.05245288833975792,-0.012397955171763897,0.054741740226745605,-0.049782559275627136,0.03452353551983833,-0.06084534898400307
1.8111979961395264,-0.053215838968753815,-0.013160906732082367,0.0558861680328846,-0.05054550990462303,0.03643091395497322,-0.06160829961299896
1.8314478397369385,-0.05436026677489281,-0.01506828423589468,0.05741206929087639,-0.05207141116261482,0.03681239113211632,-0.06275273114442825
1.851445198059082,-0.054741740226745605,-0.016212711110711098,0.05855649709701538,-0.05283436179161072,0.037193864583969116,-0.06427863240242004
1.871509313583374,-0.0558861680328846,-0.01735713705420494,0.059319447726011276,-0.05283436179161072,0.03757534176111221,-0.06466010212898254
1.8915767669677734,-0.05664911866188049,-0.018120087683200836,0.06084534898400307,-0.053215838968753815,0.037193864583969116,-0.06542305648326874
1.9116764068603516,-0.057793546468019485,-0.019645990803837776,0.06198977679014206,-0.05359731614589691,0.037193864583969116,-0.06733043491840363
1.9318122863769531,-0.05855649709701538,-0.02079041674733162,0.06351567804813385,-0.05397878959774971,0.03757534176111221,-0.06771191209554672
1.9519565105438232,-0.05855649709701538,-0.021553369238972664,0.06427863240242004,-0.0551232174038887,0.03757534176111221,-0.06847485899925232
1.972059726715088,-0.05893797054886818,-0.023460745811462402,0.06618601083755493,-0.0558861680328846,0.03757534176111221,-0.06847485899925232
1.992096185684204,-0.05893797054886818,-0.024223696440458298,0.06694895774126053,-0.05664911866188049,0.03757534176111221,-0.06961929053068161
2.0122225284576416,-0.06008239835500717,-0.024986648932099342,0.06809338182210922,-0.05664911866188049,0.03833829239010811,-0.0707637146115303
2.032280206680298,-0.06046387553215027,-0.025749599561095238,0.06885633617639542,-0.05703059583902359,0.0394827201962471,-0.071908138692379
2.0524771213531494,-0.061226826161146164,-0.026512550190091133,0.06923781335353851,-0.057793546468019485,0.04139009863138199,-0.07267109304666519
2.072870969772339,-0.06198977679014206,-0.028038453310728073,0.0707637146115303,-0.05855649709701538,0.04253452271223068,-0.07343403995037079
2.0926711559295654,-0.06275273114442825,-0.029182879254221916,0.0715266615152359,-0.06008239835500717,0.043678950518369675,-0.07534141838550568
2.1127736568450928,-0.06351567804813385,-0.030708782374858856,0.07305257022380829,-0.06084534898400307,0.045204851776361465,-0.07572289556264877
2.132835865020752,-0.06427863240242004,-0.031090257689356804,0.07343403995037079,-0.061226826161146164,0.04596780240535736,-0.07572289556264877
2.152987003326416,-0.06504157930612564,-0.03185320645570755,0.07457847148180008,-0.06160829961299896,0.046730753034353256,-0.07648584991693497
2.1730685234069824,-0.06618601083755493,-0.03376058489084244,0.07610437273979187,-0.06237125024199486,0.04634927958250046,-0.07763027399778366
2.1933014392852783,-0.06618601083755493,-0.03452353551983833,0.07724879682064056,-0.06351567804813385,0.04558632895350456,-0.07839322835206985
2.213395833969116,-0.06656748056411743,-0.03604944050312042,0.07839322835206985,-0.06389715522527695,0.04596780240535736,-0.07915617525577545
2.233455181121826,-0.06694895774126053,-0.03604944050312042,0.07953765243291855,-0.06427863240242004,0.04634927958250046,-0.07953765243291855
2.2535910606384277,-0.06809338182210922,-0.03795681521296501,0.08106355369091034,-0.06504157930612564,0.048256658017635345,-0.08030059933662415
2.2736728191375732,-0.06885633617639542,-0.0394827201962471,0.08335240930318832,-0.06504157930612564,0.04940108209848404,-0.08106355369091034
2.2938106060028076,-0.07038223743438721,-0.040245670825242996,0.08487831056118011,-0.06618601083755493,0.050164032727479935,-0.08297093212604523
2.31388783454895,-0.0715266615152359,-0.042153049260377884,0.08602273464202881,-0.06847485899925232,0.051689937710762024,-0.08373387902975082
2.334238052368164,-0.0722896158695221,-0.04406042397022247,0.0871671661734581,-0.06923781335353851,0.051689937710762024,-0.08487831056118011
2.3543217182159424,-0.07305257022380829,-0.045204851776361465,0.08869306743144989,-0.06961929053068161,0.05245288833975792,-0.08564125746488571
2.374387741088867,-0.07305257022380829,-0.04596780240535736,0.08907453715801239,-0.0715266615152359,0.05245288833975792,-0.08602273464202881
2.394472599029541,-0.07343403995037079,-0.04711223021149635,0.09021896868944168,-0.0715266615152359,0.05207141116261482,-0.0864042118191719
2.4146230220794678,-0.07343403995037079,-0.048256658017635345,0.09098191559314728,-0.071908138692379,0.05245288833975792,-0.086785688996315
2.4348320960998535,-0.07381551712751389,-0.04940108209848404,0.09212634712457657,-0.071908138692379,0.05283436179161072,-0.0875486359000206
2.45495343208313,-0.07534141838550568,-0.05092698708176613,0.09441519528627396,-0.0722896158695221,0.05359731614589691,-0.0883115902543068
2.475095510482788,-0.07610437273979187,-0.05245288833975792,0.09555962681770325,-0.07267109304666519,0.05436026677489281,-0.09021896868944168
2.495187282562256,-0.07763027399778366,-0.05397878959774971,0.09822995215654373,-0.07305257022380829,0.054741740226745605,-0.09098191559314728
2.515272378921509,-0.07839322835206985,-0.054741740226745605,0.09899290651082993,-0.07457847148180008,0.05436026677489281,-0.09174486994743347
2.535456418991089,-0.07877469807863235,-0.0555046908557415,0.09975585341453552,-0.07572289556264877,0.05436026677489281,-0.09250781685113907
2.5556693077087402,-0.07915617525577545,-0.05664911866188049,0.10090028494596481,-0.07610437273979187,0.054741740226745605,-0.09365224838256836
2.575692892074585,-0.07953765243291855,-0.057793546468019485,0.10166323184967041,-0.07648584991693497,0.054741740226745605,-0.09403372555971146
2.5958752632141113,-0.08068207651376724,-0.05970092490315437,0.1039520874619484,-0.07724879682064056,0.05703059583902359,-0.09441519528627396
2.6161394119262695,-0.08106355369091034,-0.061226826161146164,0.10471503436565399,-0.07915617525577545,0.05741206929087639,-0.09517814964056015
2.6362290382385254,-0.08220797777175903,-0.06275273114442825,0.10662241280078888,-0.07915617525577545,0.05893797054886818,-0.09708552807569504
2.656313180923462,-0.08258945494890213,-0.06313420087099075,0.10700388997793198,-0.07991912961006165,0.05970092490315437,-0.09784847497940063
2.6764092445373535,-0.08373387902975082,-0.06466010212898254,0.10814831405878067,-0.07991912961006165,0.06008239835500717,-0.09822995215654373
2.696488618850708,-0.08487831056118011,-0.06580453366041183,0.10929274559020996,-0.08068207651376724,0.06008239835500717,-0.09975585341453552
2.716557741165161,-0.08564125746488571,-0.06771191209554672,0.11081864684820175,-0.08182650804519653,0.06046387553215027,-0.10128175467252731
2.7366347312927246,-0.0864042118191719,-0.06847485899925232,0.11234454810619354,-0.08335240930318832,0.06046387553215027,-0.10204470902681351
2.756791591644287,-0.0875486359000206,-0.06923781335353851,0.11310750246047974,-0.08335240930318832,0.06046387553215027,-0.1024261862039566
2.7768168449401855,-0.0875486359000206,-0.0707637146115303,0.11463340371847153,-0.08373387902975082,0.06084534898400307,-0.1028076633810997
2.796886920928955,-0.0875486359000206,-0.071908138692379,0.11539635062217712,-0.08411535620689392,0.06084534898400307,-0.1035706102848053
2.8170006275177,-0.0879301130771637,-0.07343403995037079,0.11730372905731201,-0.08449683338403702,0.06160829961299896,-0.10471503436565399
2.8370792865753174,-0.0883115902543068,-0.07419699430465698,0.1184481605887413,-0.0871671661734581,0.06237125024199486,-0.10509651154279709
2.857177495956421,-0.08945601433515549,-0.07610437273979187,0.11959258466959,-0.0871671661734581,0.06389715522527695,-0.10624094307422638
2.8773913383483887,-0.09021896868944168,-0.07724879682064056,0.12111848592758179,-0.0875486359000206,0.06389715522527695,-0.10662241280078888
2.897599935531616,-0.09060044586658478,-0.07839322835206985,0.12149996310472488,-0.0879301130771637,0.06427863240242004,-0.10814831405878067
2.917745590209961,-0.09212634712457657,-0.07991912961006165,0.12264438718557358,-0.08983749151229858,0.06427863240242004,-0.10929274559020996
2.9379255771636963,-0.09250781685113907,-0.08068207651376724,0.12378881871700287,-0.09060044586658478,0.06389715522527695,-0.11005569249391556
2.957937479019165,-0.09327077120542526,-0.08182650804519653,0.12493324279785156,-0.09098191559314728,0.06427863240242004,-0.11043716967105865
2.9785349369049072,-0.09403372555971146,-0.08373387902975082,0.12760357558727264,-0.09136339277029037,0.06466010212898254,-0.11234454810619354
2.9987270832061768,-0.09479667246341705,-0.08564125746488571,0.12874799966812134,-0.09212634712457657,0.06542305648326874,-0.11272602528333664
3.01894211769104,-0.09517814964056015,-0.086785688996315,0.13103684782981873,-0.09403372555971146,0.06771191209554672,-0.11348897218704224
3.0390048027038574,-0.09517814964056015,-0.0875486359000206,0.13218127191066742,-0.09441519528627396,0.06885633617639542,-0.11387044936418533
3.059113025665283,-0.09708552807569504,-0.08907453715801239,0.134470134973526,-0.09479667246341705,0.071908138692379,-0.11463340371847153
3.0791919231414795,-0.09784847497940063,-0.09098191559314728,0.1356145590543747,-0.09594109654426575,0.07267109304666519,-0.11692225188016891
3.099306583404541,-0.09937438368797302,-0.09250781685113907,0.1371404528617859,-0.09746700525283813,0.07419699430465698,-0.11730372905731201
3.119468927383423,-0.10013733059167862,-0.09365224838256836,0.13790340721607208,-0.09784847497940063,0.07457847148180008,-0.1184481605887413
3.1395907402038574,-0.10090028494596481,-0.09555962681770325,0.13942931592464447,-0.09784847497940063,0.07457847148180008,-0.1199740618467331
3.1596529483795166,-0.10204470902681351,-0.09670405089855194,0.14057374000549316,-0.09822995215654373,0.07495994865894318,-0.1199740618467331
3.179805278778076,-0.1024261862039566,-0.09899290651082993,0.14171816408634186,-0.09861142933368683,0.07534141838550568,-0.1203555315732956
3.1999142169952393,-0.1028076633810997,-0.10013733059167862,0.14362554252147675,-0.09861142933368683,0.07572289556264877,-0.12073700875043869
3.2202773094177246,-0.1031891331076622,-0.10128175467252731,0.14400701224803925,-0.09899290651082993,0.07686731964349747,-0.12111848592758179
3.24035906791687,-0.10433356463909149,-0.10204470902681351,0.14591439068317413,-0.09975585341453552,0.07877469807863235,-0.12226291000843048
3.260470151901245,-0.10471503436565399,-0.1024261862039566,0.14705882966518402,-0.10166323184967041,0.07877469807863235,-0.12340734153985977
3.2805216312408447,-0.10585946589708328,-0.1039520874619484,0.14858472347259521,-0.10204470902681351,0.07915617525577545,-0.12493324279785156
3.3006088733673096,-0.10624094307422638,-0.10471503436565399,0.1497291475534439,-0.1024261862039566,0.07915617525577545,-0.12531471252441406
3.320704698562622,-0.10738536715507507,-0.10547798871994019,0.1504921019077301,-0.1028076633810997,0.07953765243291855,-0.12722209095954895
3.340933084487915,-0.10814831405878067,-0.10738536715507507,0.1520180106163025,-0.10509651154279709,0.07953765243291855,-0.12798504531383514
3.3610427379608154,-0.10929274559020996,-0.10891126841306686,0.15316243469715118,-0.10547798871994019,0.07991912961006165,-0.12836651504039764
3.3810927867889404,-0.10929274559020996,-0.11043716967105865,0.15430685877799988,-0.10585946589708328,0.08068207651376724,-0.12874799966812134
3.4011504650115967,-0.10967422276735306,-0.11158160120248795,0.15583276748657227,-0.10585946589708328,0.08106355369091034,-0.12951095402240753
3.421355724334717,-0.11005569249391556,-0.11272602528333664,0.15735866129398346,-0.10624094307422638,0.08182650804519653,-0.13103684782981873
3.4414563179016113,-0.11081864684820175,-0.11463340371847153,0.15926603972911835,-0.10700388997793198,0.08335240930318832,-0.13141833245754242
3.4627039432525635,-0.11196307092905045,-0.11730372905731201,0.16079194843769073,-0.10776684433221817,0.08487831056118011,-0.1325627565383911
3.4829108715057373,-0.11272602528333664,-0.1188296303153038,0.16269932687282562,-0.10891126841306686,0.08602273464202881,-0.135233074426651
3.5029397010803223,-0.11387044936418533,-0.11959258466959,0.16422522068023682,-0.10967422276735306,0.0864042118191719,-0.1363775134086609
3.5230181217193604,-0.11501488089561462,-0.12073700875043869,0.1661325991153717,-0.11043716967105865,0.086785688996315,-0.13790340721607208
3.5432119369506836,-0.11577782779932022,-0.12188144028186798,0.1672770231962204,-0.11196307092905045,0.0871671661734581,-0.13866636157035828
3.563462495803833,-0.11654078215360641,-0.12302586436271667,0.1684214472770691,-0.11272602528333664,0.0875486359000206,-0.13904783129692078
3.58371901512146,-0.11692225188016891,-0.12417028844356537,0.17032882571220398,-0.11310750246047974,0.0875486359000206,-0.13942931592464447
3.603954315185547,-0.11654078215360641,-0.12493324279785156,0.17109178006649017,-0.11348897218704224,0.0883115902543068,-0.13981078565120697
3.624134063720703,-0.11730372905731201,-0.12722209095954895,0.17299915850162506,-0.11425192654132843,0.08945601433515549,-0.14019227027893066
3.644160747528076,-0.1180666834115982,-0.12912946939468384,0.17376211285591125,-0.11501488089561462,0.09060044586658478,-0.14171816408634186
3.6642680168151855,-0.1188296303153038,-0.13065537810325623,0.17528800666332245,-0.11692225188016891,0.09174486994743347,-0.14324407279491425
3.684345006942749,-0.11959258466959,-0.13141833245754242,0.17719538509845734,-0.11730372905731201,0.09327077120542526,-0.14400701224803925
3.704620599746704,-0.12073700875043869,-0.1325627565383911,0.17795833945274353,-0.11730372905731201,0.09365224838256836,-0.14515145123004913
3.7247257232666016,-0.12188144028186798,-0.135233074426651,0.17986571788787842,-0.1184481605887413,0.09441519528627396,-0.14591439068317413
3.744852066040039,-0.12226291000843048,-0.1363775134086609,0.1813916265964508,-0.1203555315732956,0.09517814964056015,-0.14629587531089783
3.7653768062591553,-0.12302586436271667,-0.13790340721607208,0.182917520403862,-0.12073700875043869,0.09632257372140884,-0.14667734503746033
3.7855348587036133,-0.12378881871700287,-0.13866636157035828,0.1844434291124344,-0.12111848592758179,0.09784847497940063,-0.14744029939174652
3.805995464324951,-0.12417028844356537,-0.13981078565120697,0.18558785319328308,-0.12264438718557358,0.09822995215654373,-0.14820325374603271
3.826104164123535,-0.12493324279785156,-0.14171816408634186,0.18749523162841797,-0.12417028844356537,0.09899290651082993,-0.1497291475534439
3.84614634513855,-0.12607766687870026,-0.14400701224803925,0.18863965570926666,-0.12455176562070847,0.09975585341453552,-0.1508735716342926
3.866260290145874,-0.12684062123298645,-0.14515145123004913,0.19054703414440155,-0.12455176562070847,0.10090028494596481,-0.1516365259885788
3.886319160461426,-0.12722209095954895,-0.14591439068317413,0.19245441257953644,-0.12493324279785156,0.10166323184967041,-0.15354390442371368
3.9064295291900635,-0.12836651504039764,-0.14744029939174652,0.19398032128810883,-0.12607766687870026,0.1035706102848053,-0.15430685877799988
3.926692008972168,-0.12912946939468384,-0.1493476778268814,0.1962691694498062,-0.12722209095954895,0.10433356463909149,-0.15430685877799988
3.946667432785034,-0.13027389347553253,-0.1516365259885788,0.1974135935306549,-0.12836651504039764,0.10509651154279709,-0.15583276748657227
3.966771125793457,-0.13141833245754242,-0.15316243469715118,0.1997024416923523,-0.12874799966812134,0.10547798871994019,-0.15697719156742096
3.9869375228881836,-0.13141833245754242,-0.15354390442371368,0.20084688067436218,-0.12951095402240753,0.10547798871994019,-0.15812161564826965
4.007082939147949,-0.13141833245754242,-0.15506981313228607,0.20160982012748718,-0.13141833245754242,0.10585946589708328,-0.15850308537483215
4.027245759963989,-0.1325627565383911,-0.15697719156742096,0.20389868319034576,-0.13179980218410492,0.10624094307422638,-0.15964750945568085
4.047327280044556,-0.1333257108926773,-0.15735866129398346,0.20466163754463196,-0.13179980218410492,0.10700388997793198,-0.16193637251853943
4.067416429519653,-0.134470134973526,-0.15888457000255585,0.20656901597976685,-0.13218127191066742,0.10852979123592377,-0.16269932687282562
4.087555646896362,-0.1356145590543747,-0.16041046380996704,0.20809490978717804,-0.13218127191066742,0.10891126841306686,-0.16384375095367432
4.107667446136475,-0.1367589831352234,-0.16231784224510193,0.21000228822231293,-0.1333257108926773,0.11005569249391556,-0.164988175034523
4.127795457839966,-0.13752193748950958,-0.16384375095367432,0.21229113638401031,-0.1337071806192398,0.11120012402534485,-0.164988175034523
4.147777318954468,-0.13828489184379578,-0.1646067053079605,0.212672621011734,-0.1340886503458023,0.11158160120248795,-0.1653696447610855
4.167990446090698,-0.13866636157035828,-0.1661325991153717,0.2145799994468689,-0.135233074426651,0.11196307092905045,-0.1657511293888092
4.187960863113403,-0.13866636157035828,-0.1684214472770691,0.2149614691734314,-0.1356145590543747,0.11272602528333664,-0.1665140837430954
4.208096742630005,-0.13942931592464447,-0.17109178006649017,0.21648737788200378,-0.1359960287809372,0.11387044936418533,-0.1676585078239441
4.228148698806763,-0.14019227027893066,-0.17185473442077637,0.21801327168941498,-0.1363775134086609,0.11501488089561462,-0.16918440163135529
4.248471736907959,-0.14095520973205566,-0.17299915850162506,0.21915769577026367,-0.13790340721607208,0.11615930497646332,-0.16956588625907898
4.268580913543701,-0.14209964871406555,-0.17490653693675995,0.22106507420539856,-0.13942931592464447,0.11654078215360641,-0.17071031033992767
4.288650035858154,-0.14286258816719055,-0.17719538509845734,0.22182802855968475,-0.13981078565120697,0.11654078215360641,-0.17223620414733887
4.308826208114624,-0.14400701224803925,-0.17872129380702972,0.22411687672138214,-0.14057374000549316,0.11654078215360641,-0.17261768877506256
4.328836679458618,-0.14476996660232544,-0.17910276353359222,0.22602425515651703,-0.14133669435977936,0.11692225188016891,-0.17299915850162506
4.34890604019165,-0.14591439068317413,-0.1817730963230133,0.22793163359165192,-0.14286258816719055,0.1184481605887413,-0.17414358258247375
4.369017124176025,-0.14591439068317413,-0.1840619444847107,0.2294575423002243,-0.14286258816719055,0.1188296303153038,-0.17528800666332245
4.389231443405151,-0.14629587531089783,-0.18596932291984558,0.230601966381073,-0.14324407279491425,0.1203555315732956,-0.17643244564533234
4.409364223480225,-0.14705882966518402,-0.18673227727413177,0.23212787508964539,-0.14362554252147675,0.12149996310472488,-0.17795833945274353
4.429413557052612,-0.14782176911830902,-0.18863965570926666,0.23327229917049408,-0.14438849687576294,0.12417028844356537,-0.1802472025156021
4.449550628662109,-0.1489662081003189,-0.19016556441783905,0.23517967760562897,-0.14667734503746033,0.12493324279785156,-0.1813916265964508
4.469590187072754,-0.1497291475534439,-0.19169145822525024,0.23632410168647766,-0.14705882966518402,0.12722209095954895,-0.1825360506772995
4.4897119998931885,-0.1504921019077301,-0.19321736693382263,0.23746852576732635,-0.14782176911830902,0.12760357558727264,-0.1836804747581482
4.509750843048096,-0.1516365259885788,-0.19398032128810883,0.23937590420246124,-0.14820325374603271,0.12798504531383514,-0.1840619444847107
4.529813051223755,-0.152399480342865,-0.19474326074123383,0.24052032828330994,-0.1497291475534439,0.12836651504039764,-0.1844434291124344
4.550008296966553,-0.15316243469715118,-0.1966506391763687,0.24319066107273102,-0.1504921019077301,0.12912946939468384,-0.18673227727413177
4.570151090621948,-0.15354390442371368,-0.1974135935306549,0.2443350851535797,-0.1508735716342926,0.12951095402240753,-0.18825818598270416
4.590405702590942,-0.15354390442371368,-0.1989395022392273,0.2454795092344284,-0.1508735716342926,0.13103684782981873,-0.18863965570926666
4.6104936599731445,-0.15430685877799988,-0.20084688067436218,0.2473868876695633,-0.1508735716342926,0.13141833245754242,-0.19016556441783905
4.630752801895142,-0.15506981313228607,-0.20351719856262207,0.248531311750412,-0.1520180106163025,0.1333257108926773,-0.19130998849868774
4.6508307456970215,-0.15621423721313477,-0.20504310727119446,0.2508201599121094,-0.15354390442371368,0.1337071806192398,-0.19130998849868774
4.670987367630005,-0.15697719156742096,-0.20656901597976685,0.25196459889411926,-0.15392538905143738,0.1337071806192398,-0.19169145822525024
4.691012144088745,-0.15812161564826965,-0.20771344006061554,0.25349050760269165,-0.15430685877799988,0.1348516047000885,-0.19207294285297394
4.711083173751831,-0.15888457000255585,-0.21000228822231293,0.25501641631126404,-0.15583276748657227,0.134470134973526,-0.19283588230609894
4.731181621551514,-0.16002899408340454,-0.21152819693088531,0.2576867341995239,-0.15697719156742096,0.1356145590543747,-0.19474326074123383
4.751252174377441,-0.16041046380996704,-0.212672621011734,0.2592126429080963,-0.15774014592170715,0.1356145590543747,-0.1958876997232437
4.77136754989624,-0.16079194843769073,-0.2145799994468689,0.2615014910697937,-0.15774014592170715,0.1371404528617859,-0.1962691694498062
4.79142951965332,-0.16079194843769073,-0.2153429538011551,0.2626459002494812,-0.15812161564826965,0.13790340721607208,-0.1977950781583786
4.811541318893433,-0.16155488789081573,-0.2153429538011551,0.2641718089580536,-0.15888457000255585,0.13942931592464447,-0.1985580176115036
4.831662654876709,-0.16269932687282562,-0.21725031733512878,0.265697717666626,-0.15964750945568085,0.14057374000549316,-0.1989395022392273
4.851933240890503,-0.16346226632595062,-0.21763180196285248,0.266460657119751,-0.16079194843769073,0.14171816408634186,-0.1993209719657898
4.872002840042114,-0.1646067053079605,-0.21953918039798737,0.26798656582832336,-0.16117341816425323,0.14171816408634186,-0.200083926320076
4.892072916030884,-0.164988175034523,-0.22144655883312225,0.26874953508377075,-0.16193637251853943,0.14209964871406555,-0.20122835040092468
4.912192344665527,-0.1661325991153717,-0.22220951318740845,0.27065691351890564,-0.16193637251853943,0.14286258816719055,-0.20275425910949707
4.932269334793091,-0.1668955534696579,-0.22297245264053345,0.27218279242515564,-0.16269932687282562,0.14286258816719055,-0.20389868319034576
4.952387571334839,-0.1680399775505066,-0.22526131570339203,0.2744716703891754,-0.16422522068023682,0.14362554252147675,-0.20618753135204315
4.97242283821106,-0.1684214472770691,-0.22793163359165192,0.2763790488243103,-0.1657511293888092,0.14438849687576294,-0.20809490978717804
4.9925336837768555,-0.16994735598564148,-0.2298390120267868,0.2786678969860077,-0.1661325991153717,0.14629587531089783,-0.20923933386802673
5.012695789337158,-0.17071031033992767,-0.2309834510087967,0.2805752754211426,-0.1668955534696579,0.14820325374603271,-0.21000228822231293
5.033249378204346,-0.17109178006649017,-0.23212787508964539,0.2813382148742676,-0.1684214472770691,0.1501106321811676,-0.21038375794887543
5.05333948135376,-0.17223620414733887,-0.23403525352478027,0.28362706303596497,-0.16918440163135529,0.1508735716342926,-0.21152819693088531
5.073407411575317,-0.17299915850162506,-0.23670557141304016,0.28439003229141235,-0.16956588625907898,0.1516365259885788,-0.2138170450925827
5.093556880950928,-0.17414358258247375,-0.23861294984817505,0.28667888045310974,-0.17032882571220398,0.152399480342865,-0.2149614691734314
5.113658428192139,-0.17452506721019745,-0.23937590420246124,0.28782328963279724,-0.17109178006649017,0.15316243469715118,-0.2157244235277176
5.133983373641968,-0.17490653693675995,-0.24128328263759613,0.28934919834136963,-0.17299915850162506,0.15430685877799988,-0.21763180196285248
5.1538708209991455,-0.17528800666332245,-0.24242770671844482,0.2912565767765045,-0.17376211285591125,0.15545128285884857,-0.21763180196285248
5.175487041473389,-0.17605096101760864,-0.24242770671844482,0.2931639552116394,-0.17414358258247375,0.15735866129398346,-0.21801327168941498
5.195600748062134,-0.17719538509845734,-0.24357213079929352,0.2962157726287842,-0.17490653693675995,0.15774014592170715,-0.21839475631713867
5.215679168701172,-0.17795833945274353,-0.2450980395078659,0.2973601818084717,-0.17566949129104614,0.15926603972911835,-0.21953918039798737
5.235844850540161,-0.17948424816131592,-0.2466239482164383,0.29926756024360657,-0.17605096101760864,0.15964750945568085,-0.22144655883312225
5.256018400192261,-0.17986571788787842,-0.2473868876695633,0.30041199922561646,-0.17681391537189484,0.16041046380996704,-0.22220951318740845
5.276188373565674,-0.1806286722421646,-0.24929426610469818,0.30231937766075134,-0.17719538509845734,0.16079194843769073,-0.22297245264053345
5.296316862106323,-0.1813916265964508,-0.2508201599121094,0.30384528636932373,-0.17757686972618103,0.16079194843769073,-0.22487983107566833
5.316429615020752,-0.182154580950737,-0.25272753834724426,0.3061341345310211,-0.1802472025156021,0.16308079659938812,-0.22526131570339203
5.336533546447754,-0.1832990050315857,-0.25616082549095154,0.3091859221458435,-0.1806286722421646,0.1646067053079605,-0.22678720951080322
5.357048034667969,-0.1840619444847107,-0.2580682039260864,0.3107118308544159,-0.1810101419687271,0.1665140837430954,-0.2286945879459381
5.3771491050720215,-0.18558785319328308,-0.2588311731815338,0.3133821487426758,-0.182154580950737,0.1676585078239441,-0.2302204966545105
5.397229909896851,-0.18558785319328308,-0.2588311731815338,0.31414511799812317,-0.1825360506772995,0.1684214472770691,-0.23250934481620789
5.417301654815674,-0.18673227727413177,-0.2592126429080963,0.31528952717781067,-0.1840619444847107,0.16918440163135529,-0.23289081454277039
5.437506675720215,-0.18749523162841797,-0.2603570520877838,0.31719690561294556,-0.1844434291124344,0.16956588625907898,-0.23365376889705658
5.457557916641235,-0.18863965570926666,-0.2626459002494812,0.31834134459495544,-0.1844434291124344,0.16994735598564148,-0.23479819297790527
5.477694511413574,-0.18940261006355286,-0.2641718089580536,0.32101166248321533,-0.18520638346672058,0.17185473442077637,-0.23594263195991516
5.497786521911621,-0.18978407979011536,-0.2653162479400635,0.3229190409183502,-0.18596932291984558,0.17338064312934875,-0.23670557141304016
5.5179338455200195,-0.19054703414440155,-0.26798656582832336,0.3255893886089325,-0.18749523162841797,0.17490653693675995,-0.23746852576732635
5.538051605224609,-0.19130998849868774,-0.26951247453689575,0.3282597064971924,-0.18787670135498047,0.17643244564533234,-0.23937590420246124
5.5581183433532715,-0.19245441257953644,-0.27180132269859314,0.32978561520576477,-0.18863965570926666,0.17795833945274353,-0.24128328263759613
5.578249216079712,-0.19359883666038513,-0.27218279242515564,0.33245593309402466,-0.18940261006355286,0.17986571788787842,-0.24242770671844482
5.598310232162476,-0.19474326074123383,-0.2733272314071655,0.33398184180259705,-0.19016556441783905,0.1813916265964508,-0.24357213079929352
5.618480205535889,-0.1958876997232437,-0.2756160795688629,0.33665215969085693,-0.19130998849868774,0.182917520403862,-0.2439536154270172
5.638541221618652,-0.1966506391763687,-0.2775234580039978,0.3385595381259918,-0.19169145822525024,0.182917520403862,-0.2439536154270172
5.659002304077148,-0.1970321238040924,-0.2790493667125702,0.3397039771080017,-0.19207294285297394,0.1832990050315857,-0.2447165697813034
5.6791462898254395,-0.1974135935306549,-0.2809567451477051,0.3419928252696991,-0.19283588230609894,0.1836804747581482,-0.2454795092344284
5.699195861816406,-0.1985580176115036,-0.2817196846008301,0.3427557647228241,-0.19359883666038513,0.18520638346672058,-0.247768372297287
5.7193028926849365,-0.1993209719657898,-0.28286412358283997,0.344663143157959,-0.19512474536895752,0.18673227727413177,-0.24929426610469818
5.739448308944702,-0.1997024416923523,-0.28553444147109985,0.34580758213996887,-0.1958876997232437,0.18749523162841797,-0.25120165944099426
5.7594733238220215,-0.20122835040092468,-0.28667888045310974,0.34771496057510376,-0.1966506391763687,0.18825818598270416,-0.25120165944099426
5.779631853103638,-0.20199130475521088,-0.28782328963279724,0.34962233901023865,-0.1970321238040924,0.18863965570926666,-0.25196459889411926
5.799728155136108,-0.20237277448177338,-0.28820478916168213,0.35038527846336365,-0.1985580176115036,0.18902114033699036,-0.25234606862068176
5.819783449172974,-0.20351719856262207,-0.2904936373233795,0.35229265689849854,-0.1997024416923523,0.19092851877212524,-0.25425344705581665
5.840126037597656,-0.20389868319034576,-0.2924010157585144,0.3538185656070709,-0.200083926320076,0.19169145822525024,-0.25654229521751404
5.860235929489136,-0.20428015291690826,-0.2935454249382019,0.3564889132976532,-0.200083926320076,0.19283588230609894,-0.2576867341995239
5.880281686782837,-0.20466163754463196,-0.2943083941936493,0.3576333224773407,-0.20122835040092468,0.19436179101467133,-0.2592126429080963
5.900373458862305,-0.20542457699775696,-0.2962157726287842,0.3595407009124756,-0.20199130475521088,0.19550621509552002,-0.2595941126346588
5.9204888343811035,-0.20618753135204315,-0.29850462079048157,0.3606851398944855,-0.20275425910949707,0.1970321238040924,-0.2603570520877838
5.940535068511963,-0.20695048570632935,-0.30041199922561646,0.3622110188007355,-0.20351719856262207,0.1977950781583786,-0.2622644305229187
5.960639476776123,-0.20771344006061554,-0.30270084738731384,0.36488136649131775,-0.20389868319034576,0.1981765478849411,-0.2626459002494812
5.981037139892578,-0.20885786414146423,-0.30308231711387634,0.36640727519989014,-0.20542457699775696,0.1997024416923523,-0.2630273997783661
6.001136064529419,-0.21038375794887543,-0.30460822582244873,0.36907759308815,-0.20656901597976685,0.20122835040092468,-0.264934778213501
6.021172285079956,-0.21114671230316162,-0.30460822582244873,0.369840532541275,-0.20656901597976685,0.20160982012748718,-0.26684215664863586
6.041390895843506,-0.21152819693088531,-0.3061341345310211,0.3713664412498474,-0.20695048570632935,0.20237277448177338,-0.26722362637519836
6.061572790145874,-0.21152819693088531,-0.3068970739841461,0.3732738196849823,-0.20733195543289185,0.20313572883605957,-0.26836803555488586
6.081500291824341,-0.21190966665744781,-0.308041512966156,0.3744182586669922,-0.20847637951374054,0.20389868319034576,-0.26989394426345825
6.10163688659668,-0.2130540907382965,-0.309567391872406,0.3763256371021271,-0.20923933386802673,0.20542457699775696,-0.26989394426345825
6.121689319610596,-0.2138170450925827,-0.3110933005809784,0.37823301553726196,-0.21038375794887543,0.20771344006061554,-0.27065691351890564
6.142047643661499,-0.2145799994468689,-0.3130006790161133,0.38014039397239685,-0.21076524257659912,0.20923933386802673,-0.27218279242515564
6.1621551513671875,-0.2161058932542801,-0.31528952717781067,0.38242924213409424,-0.21114671230316162,0.20962081849575043,-0.2740901708602905
6.182222843170166,-0.21725031733512878,-0.31719690561294556,0.3839551508426666,-0.21152819693088531,0.20962081849575043,-0.2744716703891754
6.202436447143555,-0.21801327168941498,-0.31795987486839294,0.3858625292778015,-0.21229113638401031,0.21038375794887543,-0.2756160795688629
6.222466468811035,-0.21839475631713867,-0.31910428404808044,0.3873884081840515,-0.2138170450925827,0.21076524257659912,-0.2775234580039978
6.24283766746521,-0.21839475631713867,-0.32101166248321533,0.3889143168926239,-0.2138170450925827,0.21114671230316162,-0.2775234580039978
6.263018369674683,-0.21877622604370117,-0.3221561014652252,0.3912031650543213,-0.2141985148191452,0.21229113638401031,-0.2779049277305603
6.2830846309661865,-0.21877622604370117,-0.3233005404472351,0.3919661343097687,-0.2149614691734314,0.2141985148191452,-0.2790493667125702
6.303209066390991,-0.21992065012454987,-0.3244449496269226,0.39463645219802856,-0.2157244235277176,0.21648737788200378,-0.2805752754211426
6.32335901260376,-0.22106507420539856,-0.32673379778862,0.39654383063316345,-0.21725031733512878,0.21877622604370117,-0.28286412358283997
6.3435258865356445,-0.22182802855968475,-0.3286411762237549,0.39883267879486084,-0.21763180196285248,0.21992065012454987,-0.28553444147109985
6.363693952560425,-0.22297245264053345,-0.33016708493232727,0.4022659659385681,-0.21801327168941498,0.22068360447883606,-0.28553444147109985
6.383815765380859,-0.22373540699481964,-0.33169299364089966,0.403410404920578,-0.21877622604370117,0.22106507420539856,-0.28629741072654724
6.403834819793701,-0.22487983107566833,-0.33398184180259705,0.4060807228088379,-0.21915769577026367,0.22068360447883606,-0.28744181990623474
6.423950672149658,-0.22564278542995453,-0.33512628078460693,0.4068436622619629,-0.22106507420539856,0.22144655883312225,-0.28896772861480713
6.443981885910034,-0.22602425515651703,-0.33588922023773193,0.4076066315174103,-0.22182802855968475,0.22259098291397095,-0.28934919834136963
6.464114427566528,-0.22640573978424072,-0.3381780683994293,0.4091325104236603,-0.22220951318740845,0.22487983107566833,-0.2912565767765045
6.484180927276611,-0.22716869413852692,-0.3389410376548767,0.41065841913223267,-0.22411687672138214,0.22678720951080322,-0.2939268946647644
6.504281997680664,-0.22793163359165192,-0.3404669165611267,0.41294726729393005,-0.22487983107566833,0.2286945879459381,-0.2958342730998993
6.524326801300049,-0.2290760725736618,-0.3412298858165741,0.41561761498451233,-0.22602425515651703,0.230601966381073,-0.2962157726287842
6.5445556640625,-0.2309834510087967,-0.343900203704834,0.4186694025993347,-0.22755016386508942,0.23250934481620789,-0.2969787120819092
6.564579248428345,-0.2313649207353592,-0.34618905186653137,0.421339750289917,-0.22755016386508942,0.23250934481620789,-0.2977416515350342
6.585426568984985,-0.23250934481620789,-0.34847790002822876,0.4228656589984894,-0.2283131182193756,0.23289081454277039,-0.29888609051704407
6.605480194091797,-0.23327229917049408,-0.35038527846336365,0.42515450716018677,-0.2294575423002243,0.23479819297790527,-0.30079346895217896
6.625581979751587,-0.23327229917049408,-0.35152971744537354,0.42629891633987427,-0.2294575423002243,0.23594263195991516,-0.30193790793418884
6.645671367645264,-0.23403525352478027,-0.3534370958805084,0.42858776450157166,-0.2302204966545105,0.23708705604076385,-0.30346378684043884
6.665738582611084,-0.23479819297790527,-0.3557259440422058,0.43087664246559143,-0.2313649207353592,0.23937590420246124,-0.30384528636932373
6.686039686203003,-0.23517967760562897,-0.3580147922039032,0.43202105164527893,-0.23212787508964539,0.24052032828330994,-0.30422675609588623
6.706173896789551,-0.23594263195991516,-0.3583962619304657,0.4346913993358612,-0.23289081454277039,0.24166475236415863,-0.3057526648044586
6.7263102531433105,-0.23708705604076385,-0.3599221706390381,0.4358358085155487,-0.23365376889705658,0.24166475236415863,-0.3072785437107086
6.746403217315674,-0.23823148012161255,-0.361066609621048,0.4373617172241211,-0.23479819297790527,0.24242770671844482,-0.3084229826927185
6.766502618789673,-0.23937590420246124,-0.36411839723587036,0.439269095659256,-0.23594263195991516,0.24357213079929352,-0.3099488914012909
6.786624431610107,-0.24052032828330994,-0.36602577567100525,0.44193941354751587,-0.23670557141304016,0.2454795092344284,-0.3133821487426758
6.806755065917969,-0.24090181291103363,-0.368314653635025,0.44460976123809814,-0.23708705604076385,0.2470054179430008,-0.31452658772468567
6.8268961906433105,-0.24128328263759613,-0.369840532541275,0.44651713967323303,-0.23708705604076385,0.2481498420238495,-0.31567102670669556
6.847043991088867,-0.24242770671844482,-0.3713664412498474,0.4491874575614929,-0.23785001039505005,0.2500572204589844,-0.31605249643325806
6.867168426513672,-0.2443350851535797,-0.3732738196849823,0.4514763057231903,-0.23975738883018494,0.25196459889411926,-0.31986725330352783
6.88725733757019,-0.2458609938621521,-0.3740367889404297,0.4549095928668976,-0.24052032828330994,0.25425344705581665,-0.3221561014652252
6.907752752304077,-0.2462424635887146,-0.3755626678466797,0.45681697130203247,-0.24090181291103363,0.25539788603782654,-0.3221561014652252
6.927842378616333,-0.2473868876695633,-0.3778515160083771,0.45948728919029236,-0.24204623699188232,0.25577935576438904,-0.3229190409183502
6.9482550621032715,-0.247768372297287,-0.37937742471694946,0.46101319789886475,-0.2439536154270172,0.25616082549095154,-0.3233005404472351
6.968359708786011,-0.2481498420238495,-0.38090333342552185,0.46368351578712463,-0.2443350851535797,0.2576867341995239,-0.3240634799003601
6.988463640213013,-0.2481498420238495,-0.38281071186065674,0.465209424495697,-0.2450980395078659,0.2592126429080963,-0.3263523280620575
7.008523225784302,-0.24891279637813568,-0.3847180902957916,0.4682612419128418,-0.2454795092344284,0.2611200213432312,-0.3282597064971924
7.028693437576294,-0.24967575073242188,-0.386243999004364,0.4701686203479767,-0.2470054179430008,0.2630273997783661,-0.32978561520576477
7.049294471740723,-0.25120165944099426,-0.387006938457489,0.4728389382362366,-0.248531311750412,0.264934778213501,-0.33054855465888977
7.069411516189575,-0.25196459889411926,-0.3881513774394989,0.47589075565338135,-0.24891279637813568,0.266460657119751,-0.33131152391433716
7.089835166931152,-0.25349050760269165,-0.3900587558746338,0.47817960381507874,-0.24929426610469818,0.26760509610176086,-0.33321890234947205
7.109957456588745,-0.25463491678237915,-0.3934920132160187,0.4819943606853485,-0.2504386901855469,0.26836803555488586,-0.33512628078460693
7.130414724349976,-0.25501641631126404,-0.39654383063316345,0.4835202693939209,-0.25120165944099426,0.26951247453689575,-0.3381780683994293
7.150548219680786,-0.25577935576438904,-0.39845120906829834,0.4858091175556183,-0.25234606862068176,0.27027541399002075,-0.3404669165611267
7.170742511749268,-0.25654229521751404,-0.4007400572299957,0.4877164959907532,-0.25425344705581665,0.272945761680603,-0.3416113555431366
7.190832614898682,-0.2573052644729614,-0.4037918746471405,0.4892423748970032,-0.25501641631126404,0.2744716703891754,-0.344663143157959
7.211021900177002,-0.2580682039260864,-0.4056992530822754,0.49038681387901306,-0.25616082549095154,0.2767605185508728,-0.34618905186653137
7.231122732162476,-0.2592126429080963,-0.4076066315174103,0.49267566204071045,-0.2576867341995239,0.2786678969860077,-0.34733349084854126
7.251196622848511,-0.2599755823612213,-0.4087510406970978,0.49420157074928284,-0.2588311731815338,0.2801937758922577,-0.34885939955711365
7.271299362182617,-0.2611200213432312,-0.41027694940567017,0.4968718886375427,-0.2592126429080963,0.2809567451477051,-0.34885939955711365
7.291399240493774,-0.2615014910697937,-0.41142138838768005,0.499542236328125,-0.2599755823612213,0.2817196846008301,-0.34924086928367615
7.311596393585205,-0.2622644305229187,-0.41180285811424255,0.501068115234375,-0.2603570520877838,0.28286412358283997,-0.35038527846336365
7.331743478775024,-0.2626459002494812,-0.41294726729393005,0.5033569931983948,-0.2611200213432312,0.28439003229141235,-0.35229265689849854
7.351828336715698,-0.2634088695049286,-0.41409170627593994,0.5045014023780823,-0.2618829607963562,0.28553444147109985,-0.3538185656070709
7.371922969818115,-0.2645532786846161,-0.41523614525794983,0.5064088106155396,-0.2630273997783661,0.28782328963279724,-0.3553444743156433
7.391953945159912,-0.2653162479400635,-0.41599908471107483,0.5079346895217896,-0.2641718089580536,0.28973066806793213,-0.3561074137687683
7.412073373794556,-0.26684215664863586,-0.4190509021282196,0.5113679766654968,-0.265697717666626,0.2924010157585144,-0.3568703830242157
7.43222188949585,-0.26760509610176086,-0.421339750289917,0.5140383243560791,-0.266460657119751,0.2927824854850769,-0.3599221706390381
7.4527997970581055,-0.26874953508377075,-0.4232471287250519,0.5167086124420166,-0.26722362637519836,0.2935454249382019,-0.36259251832962036
7.4730565547943115,-0.26951247453689575,-0.4236285984516144,0.5197604298591614,-0.26760509610176086,0.2946898639202118,-0.36449989676475525
7.493149757385254,-0.26989394426345825,-0.42553597688674927,0.5212863087654114,-0.26798656582832336,0.2946898639202118,-0.36602577567100525
7.513158559799194,-0.27065691351890564,-0.42706188559532166,0.5239566564559937,-0.26836803555488586,0.2965972423553467,-0.36793315410614014
7.533325910568237,-0.27141985297203064,-0.42935073375701904,0.5262455344200134,-0.27065691351890564,0.29926756024360657,-0.3686961233615875
7.553385257720947,-0.2725642919540405,-0.43240252137184143,0.5285343527793884,-0.27141985297203064,0.30155640840530396,-0.3721294105052948
7.573546409606934,-0.2733272314071655,-0.4339284300804138,0.5319676399230957,-0.2725642919540405,0.30384528636932373,-0.3740367889404297
7.593595266342163,-0.2740901708602905,-0.4354543387889862,0.5342565178871155,-0.273708701133728,0.3061341345310211,-0.3747997283935547
7.613695383071899,-0.2756160795688629,-0.4358358085155487,0.536926805973053,-0.2740901708602905,0.3068970739841461,-0.3751811981201172
7.6338043212890625,-0.2763790488243103,-0.4358358085155487,0.5392156839370728,-0.2748531401157379,0.3068970739841461,-0.3759441375732422
7.653872728347778,-0.2767605185508728,-0.4358358085155487,0.541886031627655,-0.2752346098423004,0.308041512966156,-0.3774700462818146
7.673967361450195,-0.2771419882774353,-0.4369802474975586,0.5453193187713623,-0.2756160795688629,0.3084229826927185,-0.37937742471694946
7.694095849990845,-0.2779049277305603,-0.4381246566772461,0.5468451976776123,-0.2767605185508728,0.3114747703075409,-0.38090333342552185
7.714210510253906,-0.2790493667125702,-0.44079500436782837,0.5506599545478821,-0.2779049277305603,0.31452658772468567,-0.38281071186065674
7.734276294708252,-0.2798123061656952,-0.44346532225608826,0.5521858334541321,-0.2798123061656952,0.31681543588638306,-0.3839551508426666
7.754350185394287,-0.2809567451477051,-0.44804301857948303,0.5552376508712769,-0.2813382148742676,0.31795987486839294,-0.386243999004364
7.77454137802124,-0.2817196846008301,-0.4514763057231903,0.5579079985618591,-0.2817196846008301,0.31872281432151794,-0.3892957866191864
7.794532537460327,-0.28362706303596497,-0.4537651538848877,0.5601968169212341,-0.28324559330940247,0.32024872303009033,-0.3912031650543213
7.814682722091675,-0.28439003229141235,-0.4556725323200226,0.5636301040649414,-0.28439003229141235,0.3225375711917877,-0.3931105434894562
7.835210800170898,-0.28515297174453735,-0.45757991075515747,0.5659189820289612,-0.28477150201797485,0.3233005404472351,-0.39463645219802856
7.85529899597168,-0.28591591119766235,-0.45872434973716736,0.569733738899231,-0.28515297174453735,0.32520791888237,-0.39654383063316345
7.875376462936401,-0.28667888045310974,-0.45872434973716736,0.571259617805481,-0.28667888045310974,0.3271152675151825,-0.39921414852142334
7.895496129989624,-0.28820478916168213,-0.46063172817230225,0.5746929049491882,-0.28820478916168213,0.33093002438545227,-0.4007400572299957
7.915704011917114,-0.28896772861480713,-0.46292057633399963,0.5781261920928955,-0.28858625888824463,0.33321890234947205,-0.4018844962120056
7.936223030090332,-0.2904936373233795,-0.4648279547691345,0.5804150700569153,-0.28858625888824463,0.3370336592197418,-0.4026474356651306
7.956339120864868,-0.2912565767765045,-0.4667353332042694,0.5842298269271851,-0.28973066806793213,0.3374151289463043,-0.4045548141002655
7.976472616195679,-0.291638046503067,-0.4678797721862793,0.5849927663803101,-0.290112167596817,0.3377965986728668,-0.4076066315174103
7.996549367904663,-0.2927824854850769,-0.4690241813659668,0.5872815847396851,-0.2920195460319519,0.3393225073814392,-0.4079881012439728
8.016624212265015,-0.2935454249382019,-0.4713130295276642,0.5899519324302673,-0.2927824854850769,0.3416113555431366,-0.4091325104236603
8.036769390106201,-0.2943083941936493,-0.47398337721824646,0.5930037498474121,-0.2935454249382019,0.3435187339782715,-0.41180285811424255
8.056804656982422,-0.2950713336467743,-0.47665369510650635,0.5968185067176819,-0.2939268946647644,0.34618905186653137,-0.41409170627593994
8.076858043670654,-0.2965972423553467,-0.47856107354164124,0.5987258553504944,-0.2946898639202118,0.34885939955711365,-0.41676202416419983
8.096957206726074,-0.29812315106391907,-0.4800869822502136,0.6010147333145142,-0.2962157726287842,0.34962233901023865,-0.4182879328727722
8.117034196853638,-0.29850462079048157,-0.481612890958786,0.6025406122207642,-0.2973601818084717,0.35152971744537354,-0.4194323718547821
8.137233018875122,-0.29926756024360657,-0.483138769865036,0.6048294901847839,-0.29812315106391907,0.35229265689849854,-0.4205767810344696
8.157412052154541,-0.30041199922561646,-0.4846646785736084,0.6074998378753662,-0.29888609051704407,0.3530556261539459,-0.4228656589984894
8.178826808929443,-0.30155640840530396,-0.4861905872821808,0.6097886562347412,-0.29964902997016907,0.3545815348625183,-0.42591744661331177
8.198943138122559,-0.30231937766075134,-0.4873350262641907,0.612840473651886,-0.30041199922561646,0.3583962619304657,-0.42744335532188416
8.219053506851196,-0.30346378684043884,-0.4880979657173157,0.6147478222846985,-0.30079346895217896,0.361066609621048,-0.42782482504844666
8.239103317260742,-0.30384528636932373,-0.48962387442588806,0.6158922910690308,-0.30193790793418884,0.36335545778274536,-0.43011367321014404
8.25920581817627,-0.30460822582244873,-0.49153125286102295,0.6185625791549683,-0.30308231711387634,0.36526283621788025,-0.43202105164527893
8.279394388198853,-0.3057526648044586,-0.49343863129615784,0.619325578212738,-0.30422675609588623,0.36678874492645264,-0.4346913993358612
8.29945969581604,-0.3061341345310211,-0.4957274794578552,0.622377336025238,-0.3061341345310211,0.3686961233615875,-0.4350728690624237
8.319508075714111,-0.3061341345310211,-0.4983977973461151,0.6242847442626953,-0.3065156042575836,0.3694590628147125,-0.4373617172241211
8.339662075042725,-0.3072785437107086,-0.5014495849609375,0.6280995011329651,-0.3076600432395935,0.3713664412498474,-0.439269095659256
8.359791040420532,-0.308041512966156,-0.5025940537452698,0.6303883194923401,-0.3084229826927185,0.3725108802318573,-0.44270238280296326
8.379919052124023,-0.3091859221458435,-0.5041199326515198,0.6338216066360474,-0.309567391872406,0.3751811981201172,-0.44460976123809814
8.399961233139038,-0.3103303611278534,-0.5064088106155396,0.6376363635063171,-0.3114747703075409,0.3767071068286896,-0.44728007912635803
8.420013189315796,-0.3110933005809784,-0.5071717500686646,0.6403067111968994,-0.3110933005809784,0.37861448526382446,-0.4495689272880554
8.440065622329712,-0.3118562698364258,-0.508316159248352,0.6441214680671692,-0.3114747703075409,0.37937742471694946,-0.4507133662700653
8.460134267807007,-0.3130006790161133,-0.5094605684280396,0.6464102864265442,-0.3122377395629883,0.38204777240753174,-0.4533836841583252
8.480611324310303,-0.3133821487426758,-0.5102235674858093,0.648699164390564,-0.3130006790161133,0.3843366205692291,-0.4537651538848877
8.50071930885315,-0.31414511799812317,-0.5121309161186218,0.6521324515342712,-0.31376364827156067,0.3854810297489166,-0.4541466534137726
8.520788669586182,-0.31414511799812317,-0.5128938555717468,0.6532768607139587,-0.31452658772468567,0.3873884081840515,-0.4560540020465851
8.540867328643799,-0.31528952717781067,-0.5151827335357666,0.656710147857666,-0.31605249643325806,0.3904402256011963,-0.45796138048171997
8.560949325561523,-0.31605249643325806,-0.5167086124420166,0.6582360863685608,-0.31643396615982056,0.3919661343097687,-0.46025025844573975
8.581679582595825,-0.31757840514183044,-0.5182345509529114,0.6601434350013733,-0.31795987486839294,0.3934920132160187,-0.46139466762542725
8.6018385887146,-0.31872281432151794,-0.5205233693122864,0.6631952524185181,-0.31872281432151794,0.39539939165115356,-0.46177613735198975
8.621920824050903,-0.31986725330352783,-0.5216678380966187,0.6654840707778931,-0.31948578357696533,0.39845120906829834,-0.4648279547691345
8.641977548599243,-0.32101166248321533,-0.5239566564559937,0.6685358881950378,-0.32024872303009033,0.4007400572299957,-0.4678797721862793
8.662055730819702,-0.3225375711917877,-0.5254825949668884,0.6719691753387451,-0.32101166248321533,0.4030289053916931,-0.4697871506214142
8.682608366012573,-0.3236820101737976,-0.5270084738731384,0.6742580533027649,-0.3225375711917877,0.404173344373703,-0.4728389382362366
8.70268726348877,-0.3248264193534851,-0.5289158225059509,0.6776912808418274,-0.3225375711917877,0.4056992530822754,-0.47627222537994385
8.722769498825073,-0.3248264193534851,-0.5304417610168457,0.6799801588058472,-0.3233005404472351,0.40989547967910767,-0.47894254326820374
8.742843389511108,-0.3255893886089325,-0.5327305793762207,0.6826505064964294,-0.3248264193534851,0.41180285811424255,-0.4797055125236511
8.763007402420044,-0.325970858335495,-0.5350194573402405,0.6853207945823669,-0.32673379778862,0.41409170627593994,-0.4800869822502136
8.783024549484253,-0.32673379778862,-0.5365453362464905,0.6872282028198242,-0.3274967670440674,0.4175249934196472,-0.4827573001384735
8.803169250488281,-0.3278782367706299,-0.5388342142105103,0.6914244294166565,-0.3286411762237549,0.4205767810344696,-0.4842832088470459
8.82328724861145,-0.3282597064971924,-0.5399786233901978,0.693331778049469,-0.33093002438545227,0.4205767810344696,-0.4877164959907532
8.843408346176147,-0.3290226459503174,-0.541886031627655,0.6967650651931763,-0.33169299364089966,0.4228656589984894,-0.4880979657173157
8.863441944122314,-0.32978561520576477,-0.543411910533905,0.699816882610321,-0.33207446336746216,0.4243915379047394,-0.49000534415245056
8.88363790512085,-0.33169299364089966,-0.5457007884979248,0.7024872303009033,-0.33283740282058716,0.42668038606643677,-0.49305713176727295
8.90373420715332,-0.33245593309402466,-0.5472266674041748,0.7051575779914856,-0.33321890234947205,0.42973220348358154,-0.4957274794578552
8.924107313156128,-0.33283740282058716,-0.5487525463104248,0.7066834568977356,-0.33360037207603455,0.43163958191871643,-0.4980163276195526
8.944170236587524,-0.33474478125572205,-0.5506599545478821,0.7093538045883179,-0.33436331152915955,0.4346913993358612,-0.50030517578125
8.964666366577148,-0.33550775051116943,-0.5521858334541321,0.7104982137680054,-0.33512628078460693,0.4362172782421112,-0.5048828721046448
8.98470163345337,-0.33588922023773193,-0.5544747114181519,0.7135500311851501,-0.3370336592197418,0.438506156206131,-0.5052643418312073
9.0058114528656,-0.33665215969085693,-0.5563820600509644,0.7154573798179626,-0.3374151289463043,0.440032035112381,-0.507553219795227
9.025909423828125,-0.3377965986728668,-0.5590524077415466,0.7196536064147949,-0.3377965986728668,0.44384679198265076,-0.5102235674858093
9.046653509140015,-0.3393225073814392,-0.5605783462524414,0.7215610146522522,-0.3397039771080017,0.4484245181083679,-0.5128938555717468
9.06683087348938,-0.3400854468345642,-0.5624856948852539,0.724612832069397,-0.3408484160900116,0.4507133662700653,-0.5148012638092041
9.086860179901123,-0.3404669165611267,-0.5636301040649414,0.7257572412490845,-0.3408484160900116,0.4537651538848877,-0.5178530812263489
9.106932640075684,-0.3419928252696991,-0.5651560425758362,0.7288090586662292,-0.3419928252696991,0.45643550157546997,-0.5212863087654114
9.127042770385742,-0.3423742949962616,-0.5670633912086487,0.7307164072990417,-0.3423742949962616,0.45719844102859497,-0.5239566564559937
9.147209405899048,-0.3427557647228241,-0.5693522691726685,0.733386754989624,-0.3427557647228241,0.45872434973716736,-0.5254825949668884
9.167360544204712,-0.343137264251709,-0.5716410875320435,0.7368200421333313,-0.343900203704834,0.46177613735198975,-0.5292973518371582
9.187498331069946,-0.3442816734313965,-0.5735484957695007,0.7391088604927063,-0.34542611241340637,0.465209424495697,-0.5315861701965332
9.207489967346191,-0.34580758213996887,-0.576218843460083,0.7429236173629761,-0.34657052159309387,0.4678797721862793,-0.5331120491027832
9.22770380973816,-0.34695202112197876,-0.577744722366333,0.7459754347801208,-0.34733349084854126,0.4724574685096741,-0.535400927066803
9.24776315689087,-0.34771496057510376,-0.579270601272583,0.7494087219238281,-0.34885939955711365,0.47474631667137146,-0.5388342142105103
9.267925024032593,-0.34962233901023865,-0.5838482975959778,0.7558938264846802,-0.3534370958805084,0.4835202693939209,-0.5430304408073425
9.288097381591797,-0.35000380873680115,-0.5891889929771423,0.763523280620575,-0.3545815348625183,0.4854276478290558,-0.5468451976776123
9.30813717842102,-0.35076677799224854,-0.5933852195739746,0.768482506275177,-0.3538185656070709,0.4880979657173157,-0.5498970150947571
9.328256845474243,-0.35191118717193604,-0.5971999764442444,0.7745860815048218,-0.3553444743156433,0.49114975333213806,-0.5521858334541321
9.348389148712158,-0.35191118717193604,-0.5994887948036194,0.7784008383750916,-0.3564889132976532,0.4961089491844177,-0.5552376508712769
9.368430137634277,-0.3526741564273834,-0.6025406122207642,0.7818341255187988,-0.3568703830242157,0.4991607666015625,-0.5582894682884216
9.38862419128418,-0.3538185656070709,-0.6048294901847839,0.7845044732093811,-0.3572518527507782,0.5022125840187073,-0.5594338774681091
9.409117221832275,-0.3549630045890808,-0.6074998378753662,0.7879377603530884,-0.3599221706390381,0.5056458115577698,-0.5632486343383789
9.429224729537964,-0.3557259440422058,-0.6105515956878662,0.7921339869499207,-0.361066609621048,0.5086976289749146,-0.5663004517555237
9.449475288391113,-0.3564889132976532,-0.6124590039253235,0.7948042750358582,-0.3606851398944855,0.5098420977592468,-0.5678263306617737
9.469552278518677,-0.3568703830242157,-0.614366352558136,0.7974746227264404,-0.36259251832962036,0.5121309161186218,-0.5708781480789185
9.489691019058228,-0.3572518527507782,-0.6166552305221558,0.8016708493232727,-0.36335545778274536,0.5151827335357666,-0.5735484957695007
9.509765863418579,-0.3576333224773407,-0.6189440488815308,0.804341197013855,-0.36335545778274536,0.5178530812263489,-0.5766003131866455
9.529846668243408,-0.3583962619304657,-0.6219958662986755,0.8073930144309998,-0.36449989676475525,0.5201418995857239,-0.5781261920928955
9.54991888999939,-0.3591592311859131,-0.6235218048095703,0.8100633025169373,-0.36449989676475525,0.5247195959091187,-0.5823224186897278
9.570082187652588,-0.3599221706390381,-0.6254291534423828,0.8127336502075195,-0.36602577567100525,0.5281528830528259,-0.5853742361068726
9.590192079544067,-0.3614480793476105,-0.6273365616798401,0.8157854676246643,-0.36717021465301514,0.5315861701965332,-0.5876630544662476
9.61023998260498,-0.36297398805618286,-0.6292439103126526,0.8184558153152466,-0.3686961233615875,0.533875048160553,-0.5903334021568298
9.630340576171875,-0.36373692750930786,-0.6303883194923401,0.8215075731277466,-0.3694590628147125,0.5357823967933655,-0.5926222801208496
9.650391101837158,-0.36411839723587036,-0.6330586671829224,0.8245593905448914,-0.3706035017967224,0.5376898050308228,-0.5933852195739746
9.670619010925293,-0.36411839723587036,-0.6353475451469421,0.8268482685089111,-0.3706035017967224,0.5399786233901978,-0.5979629158973694
9.69072413444519,-0.36411839723587036,-0.6383993029594421,0.8302815556526184,-0.3717479109764099,0.541886031627655,-0.6006332635879517
9.710803508758545,-0.36411839723587036,-0.6406881809234619,0.8325703740119934,-0.3717479109764099,0.5479896068572998,-0.6036850810050964
9.730966567993164,-0.36449989676475525,-0.6441214680671692,0.8356221914291382,-0.3736552894115448,0.5529488325119019,-0.6078813076019287
9.751075267791748,-0.36526283621788025,-0.647936224937439,0.840199887752533,-0.3759441375732422,0.5575265288352966,-0.6109330654144287
9.771155595779419,-0.36602577567100525,-0.6517509818077087,0.8432517051696777,-0.3767071068286896,0.5617227554321289,-0.614366352558136
9.791325807571411,-0.36717021465301514,-0.6563286781311035,0.8485923409461975,-0.3778515160083771,0.5636301040649414,-0.6181811094284058
9.811347007751465,-0.36907759308815,-0.6589990258216858,0.8512626886367798,-0.37823301553726196,0.5655375123023987,-0.620088517665863
9.831500053405762,-0.3706035017967224,-0.6620507836341858,0.8546959757804871,-0.37975889444351196,0.569733738899231,-0.6231403350830078
9.85165810585022,-0.3713664412498474,-0.6647211313247681,0.8577477931976318,-0.38014039397239685,0.5724040865898132,-0.6273365616798401
9.8721022605896,-0.3721294105052948,-0.6670100092887878,0.8604180812835693,-0.38204777240753174,0.5758373141288757,-0.6303883194923401
9.892204523086548,-0.3721294105052948,-0.6696802973747253,0.8638513684272766,-0.38281071186065674,0.578507661819458,-0.6357290148735046
9.912250757217407,-0.3721294105052948,-0.6704432964324951,0.8661402463912964,-0.3843366205692291,0.5827038884162903,-0.6376363635063171
9.932344198226929,-0.3725108802318573,-0.6723506450653076,0.8688105344772339,-0.3854810297489166,0.5865186452865601,-0.6410696506500244
9.952443361282349,-0.3728923499584198,-0.6746395230293274,0.8730067610740662,-0.3866254687309265,0.5910963416099548,-0.6437399983406067
9.972557544708252,-0.3732738196849823,-0.6765468716621399,0.8756771087646484,-0.386243999004364,0.5960555672645569,-0.647173285484314
9.992762327194214,-0.3740367889404297,-0.6792172193527222,0.8802548050880432,-0.3866254687309265,0.6013962030410767,-0.6513695120811462
10.012911558151245,-0.3747997283935547,-0.6818875670433044,0.8829251527786255,-0.3873884081840515,0.6059738993644714,-0.656710147857666
10.032949686050415,-0.3759441375732422,-0.6860837936401367,0.8871213793754578,-0.3881513774394989,0.6094071865081787,-0.6616693139076233
10.053058862686157,-0.3778515160083771,-0.689517080783844,0.8909361362457275,-0.3896772861480713,0.614366352558136,-0.6647211313247681
10.073252201080322,-0.37823301553726196,-0.693331778049469,0.8947508931159973,-0.3904402256011963,0.6174181699752808,-0.6696802973747253
10.093351364135742,-0.37861448526382446,-0.698291003704071,0.9000915288925171,-0.3923476040363312,0.621614396572113,-0.6715877056121826
10.113449811935425,-0.37861448526382446,-0.7017242908477783,0.9027618765830994,-0.3931105434894562,0.6227588057518005,-0.6773098111152649
10.133583068847656,-0.37861448526382446,-0.7055390477180481,0.9069581031799316,-0.39387351274490356,0.6246662139892578,-0.6811245679855347
10.153732538223267,-0.37899595499038696,-0.7082093358039856,0.9111543297767639,-0.39501792192459106,0.6296253800392151,-0.6841763854026794
10.173778295516968,-0.37937742471694946,-0.7097352743148804,0.9134432077407837,-0.39654383063316345,0.6326771974563599,-0.6887540817260742
10.193975687026978,-0.38052186369895935,-0.7116426229476929,0.917639434337616,-0.39768826961517334,0.6383993029594421,-0.691805899143219
10.214066505432129,-0.38052186369895935,-0.7131685614585876,0.9203097820281982,-0.39768826961517334,0.6441214680671692,-0.6967650651931763
10.234131574630737,-0.38128480315208435,-0.7154573798179626,0.924887478351593,-0.39883267879486084,0.649462103843689,-0.7013428211212158
10.25417160987854,-0.38281071186065674,-0.7185091972351074,0.9287022352218628,-0.4011215269565582,0.6548027992248535,-0.7074463963508606
10.2742919921875,-0.3843366205692291,-0.7227054238319397,0.9332799315452576,-0.4015030264854431,0.6609063744544983,-0.7139315009117126
10.294376373291016,-0.3854810297489166,-0.726901650428772,0.9393835067749023,-0.4045548141002655,0.6689173579216003,-0.7177462577819824
10.314619779586792,-0.3858625292778015,-0.732623815536499,0.9443427324295044,-0.4053177833557129,0.6742580533027649,-0.7227054238319397
10.334815740585327,-0.3858625292778015,-0.7394903302192688,0.9504463076591492,-0.4060807228088379,0.6765468716621399,-0.7265201807022095
10.354971170425415,-0.3858625292778015,-0.7440680265426636,0.954261064529419,-0.4076066315174103,0.6811245679855347,-0.7307164072990417
10.375098705291748,-0.3858625292778015,-0.7494087219238281,0.9573128819465637,-0.4083695709705353,0.6845578551292419,-0.7337682247161865
10.395256042480469,-0.3858625292778015,-0.7536049485206604,0.9596017599105835,-0.40951400995254517,0.6898985505104065,-0.7379644513130188
10.41525650024414,-0.3858625292778015,-0.7558938264846802,0.961509108543396,-0.41256579756736755,0.6963835954666138,-0.7436865568161011
10.435508728027344,-0.387006938457489,-0.7581826448440552,0.9653238654136658,-0.41599908471107483,0.7051575779914856,-0.7490272521972656
10.455509662628174,-0.3881513774394989,-0.7589455842971802,0.9676127433776855,-0.41638055443763733,0.7108796834945679,-0.7539864182472229
10.475730895996094,-0.3892957866191864,-0.7608529925346375,0.9740977883338928,-0.41676202416419983,0.7204165458679199,-0.7593270540237427
10.495778799057007,-0.3904402256011963,-0.7631418108940125,0.9794384837150574,-0.41638055443763733,0.7318608164787292,-0.7665750980377197
10.51595425605774,-0.3912031650543213,-0.7669565677642822,0.9870679974555969,-0.41638055443763733,0.7413977384567261,-0.7722972631454468
10.536044120788574,-0.3919661343097687,-0.7711527943611145,0.9916456937789917,-0.41638055443763733,0.7505531311035156,-0.7776378989219666
10.556185245513916,-0.3923476040363312,-0.776493489742279,0.9962233901023865,-0.41638055443763733,0.7581826448440552,-0.7829785346984863
10.576464414596558,-0.3923476040363312,-0.7833600640296936,1.0015640258789062,-0.4171435236930847,0.7642862796783447,-0.7894636392593384
10.596528053283691,-0.3923476040363312,-0.7890821695327759,1.0042344331741333,-0.4179064631462097,0.7726787328720093,-0.7963302135467529
10.61660885810852,-0.3927290737628937,-0.7940413355827332,1.0076676607131958,-0.4209582805633545,0.7795453071594238,-0.8016708493232727
10.63672137260437,-0.3934920132160187,-0.7970931529998779,1.0103379487991333,-0.42515450716018677,0.7917525172233582,-0.8089188933372498
10.656816482543945,-0.39425498247146606,-0.7982375621795654,1.0141527652740479,-0.43125811219215393,0.7997635006904602,-0.8176928162574768
10.676905870437622,-0.39578089118003845,-0.8009079098701477,1.0206378698349,-0.4331654906272888,0.8119707107543945,-0.8268482685089111
10.69731068611145,-0.39654383063316345,-0.8039597272872925,1.02521550655365,-0.42935073375701904,0.8207446336746216,-0.8321889042854309
10.717703104019165,-0.39654383063316345,-0.8085374236106873,1.0313191413879395,-0.42591744661331177,0.8287556171417236,-0.8371480703353882
10.737707376480103,-0.39616236090660095,-0.8127336502075195,1.0336079597473145,-0.4232471287250519,0.8375295400619507,-0.8421072959899902
10.75778603553772,-0.39616236090660095,-0.8169298768043518,1.0370413064956665,-0.4243915379047394,0.8463035225868225,-0.8478294014930725
10.777891397476196,-0.39616236090660095,-0.8215075731277466,1.0400930643081665,-0.42973220348358154,0.8539330363273621,-0.8524070978164673
10.797969102859497,-0.39616236090660095,-0.8249408602714539,1.043907880783081,-0.4381246566772461,0.8611810207366943,-0.8600366115570068
10.81813359260559,-0.39654383063316345,-0.8291370868682861,1.0488669872283936,-0.438506156206131,0.8684290647506714,-0.8661402463912964
10.83824372291565,-0.39845120906829834,-0.8314259648323059,1.053444743156433,-0.4335469603538513,0.8710994124412537,-0.8688105344772339
10.858329772949219,-0.39845120906829834,-0.8340963125228882,1.057259440422058,-0.42973220348358154,0.8745326995849609,-0.8714808821678162
10.878591775894165,-0.39806973934173584,-0.8363851308822632,1.0606927871704102,-0.42896926403045654,0.8791103959083557,-0.8726252913475037
10.898680686950684,-0.39806973934173584,-0.839436948299408,1.0629816055297852,-0.42973220348358154,0.8863584399223328,-0.8745326995849609
10.918807029724121,-0.39806973934173584,-0.8424887657165527,1.0656518936157227,-0.43163958191871643,0.8947508931159973,-0.8791103959083557
10.938924074172974,-0.39806973934173584,-0.846684992313385,1.0687037706375122,-0.43240252137184143,0.9004730582237244,-0.883306622505188
10.959038257598877,-0.39806973934173584,-0.8497368097305298,1.0717555284500122,-0.4331654906272888,0.9046692848205566,-0.8852140307426453
10.97913384437561,-0.39806973934173584,-0.8527885675430298,1.0755703449249268,-0.4331654906272888,0.9081025123596191,-0.8886472582817078
10.999220132827759,-0.39845120906829834,-0.8539330363273621,1.0786221027374268,-0.4327840209007263,0.9100099205970764,-0.890554666519165
11.019308090209961,-0.39845120906829834,-0.8546959757804871,1.0812923908233643,-0.43202105164527893,0.9122987985610962,-0.892080545425415
11.039365768432617,-0.39845120906829834,-0.8569847941398621,1.0851072072982788,-0.43163958191871643,0.9172579646110535,-0.8943694233894348
11.05950403213501,-0.39845120906829834,-0.8596551418304443,1.0873960256576538,-0.43011367321014404,0.9203097820281982,-0.8970397710800171
11.079537630081177,-0.39806973934173584,-0.8634698987007141,1.0908293724060059,-0.42935073375701904,0.924887478351593,-0.8981841802597046
11.099574565887451,-0.39806973934173584,-0.8672846555709839,1.0919737815856934,-0.42858776450157166,0.9279392957687378,-0.8989471197128296
11.119663715362549,-0.39692530035972595,-0.8684290647506714,1.0942625999450684,-0.43087664246559143,0.9321355223655701,-0.9004730582237244
11.139760494232178,-0.39730677008628845,-0.8695735335350037,1.0969328880310059,-0.4346913993358612,0.9348058104515076,-0.9039062857627869
11.159841060638428,-0.39768826961517334,-0.8707179427146912,1.0999847650527954,-0.4335469603538513,0.9367132186889648,-0.9058136940002441
11.17995309829712,-0.3995956480503082,-0.8722438216209412,1.1030365228652954,-0.42858776450157166,0.9370946884155273,-0.9061951637268066
11.199982166290283,-0.39921414852142334,-0.8741512298583984,1.1064698696136475,-0.4228656589984894,0.9386205673217773,-0.9054322242736816
11.220066785812378,-0.39921414852142334,-0.8760585784912109,1.1079957485198975,-0.4205767810344696,0.9405279755592346,-0.9061951637268066
11.240117073059082,-0.39883267879486084,-0.8775845170021057,1.1095216274261475,-0.4228656589984894,0.9435797929763794,-0.9065766334533691
11.260378360748291,-0.39806973934173584,-0.8798733353614807,1.1102845668792725,-0.42782482504844666,0.9473945498466492,-0.9069581031799316
11.280442953109741,-0.39730677008628845,-0.8836880922317505,1.1125733852386475,-0.43011367321014404,0.952735185623169,-0.9096284508705139
11.300447702407837,-0.39730677008628845,-0.8875028491020203,1.1160067319869995,-0.43011367321014404,0.9546425342559814,-0.9111543297767639
11.320523500442505,-0.39730677008628845,-0.890554666519165,1.118677020072937,-0.43049514293670654,0.9546425342559814,-0.9134432077407837
11.340678215026855,-0.39730677008628845,-0.892080545425415,1.1205843687057495,-0.43011367321014404,0.9538795948028564,-0.9138246774673462
11.360740184783936,-0.39730677008628845,-0.8924620151519775,1.122110366821289,-0.43049514293670654,0.9546425342559814,-0.9153505563735962
11.380815029144287,-0.39730677008628845,-0.8928435444831848,1.1232547760009766,-0.42820629477500916,0.954261064529419,-0.9157320261001587
11.400925397872925,-0.39730677008628845,-0.8939879536628723,1.125162124633789,-0.42591744661331177,0.954261064529419,-0.9157320261001587
11.421080827713013,-0.39730677008628845,-0.8951323628425598,1.1270694732666016,-0.4236285984516144,0.9557870030403137,-0.916113555431366
11.441078662872314,-0.39730677008628845,-0.8962767720222473,1.1297398805618286,-0.4228656589984894,0.9580758213996887,-0.9164950251579285
11.461188793182373,-0.39730677008628845,-0.8974212408065796,1.1308842897415161,-0.4217212200164795,0.9603646993637085,-0.916876494884491
11.481258630752563,-0.39730677008628845,-0.8981841802597046,1.1324101686477661,-0.422102689743042,0.9626535177230835,-0.916876494884491
11.501429557800293,-0.39730677008628845,-0.8993285894393921,1.1335545778274536,-0.4217212200164795,0.9634165167808533,-0.9164950251579285
11.521479368209839,-0.39730677008628845,-0.9012359976768494,1.1354619264602661,-0.4209582805633545,0.9634165167808533,-0.916876494884491
11.541592597961426,-0.39730677008628845,-0.9039062857627869,1.1369879245758057,-0.4194323718547821,0.9630350470542908,-0.9164950251579285
11.561663627624512,-0.39730677008628845,-0.9065766334533691,1.1381323337554932,-0.4190509021282196,0.9630350470542908,-0.916876494884491
11.581758975982666,-0.39730677008628845,-0.9073395729064941,1.1388952732086182,-0.4179064631462097,0.9626535177230835,-0.916876494884491
11.601831912994385,-0.39730677008628845,-0.9069581031799316,1.1396582126617432,-0.4194323718547821,0.9630350470542908,-0.9172579646110535
11.622002840042114,-0.39730677008628845,-0.9069581031799316,1.1415655612945557,-0.4190509021282196,0.9664682745933533,-0.9172579646110535
11.642203330993652,-0.39730677008628845,-0.9073395729064941,1.1438543796539307,-0.4171435236930847,0.9676127433776855,-0.9172579646110535
11.662217855453491,-0.39730677008628845,-0.9088655114173889,1.1465247869491577,-0.41332876682281494,0.9676127433776855,-0.9172579646110535
11.682435750961304,-0.39730677008628845,-0.9107728600502014,1.1480506658554077,-0.40951400995254517,0.967994213104248,-0.9172579646110535
11.702490091323853,-0.39730677008628845,-0.9126802682876587,1.1488136053085327,-0.4083695709705353,0.968757152557373,-0.9172579646110535
11.72282361984253,-0.39730677008628845,-0.9138246774673462,1.1491950750350952,-0.4083695709705353,0.9691386222839355,-0.9172579646110535
11.743055820465088,-0.39730677008628845,-0.9153505563735962,1.1491950750350952,-0.40951400995254517,0.9691386222839355,-0.917639434337616
11.762998819351196,-0.39730677008628845,-0.9164950251579285,1.1499580144882202,-0.41180285811424255,0.968757152557373,-0.917639434337616
11.783109426498413,-0.39768826961517334,-0.916876494884491,1.1514838933944702,-0.41218432784080505,0.9691386222839355,-0.918402373790741
11.803184986114502,-0.39921414852142334,-0.9172579646110535,1.1530098915100098,-0.41103988885879517,0.968757152557373,-0.9195467829704285
11.823425769805908,-0.39921414852142334,-0.917639434337616,1.1537728309631348,-0.4079881012439728,0.967994213104248,-0.9203097820281982
11.843573808670044,-0.39806973934173584,-0.9180209040641785,1.1537728309631348,-0.4072251319885254,0.968757152557373,-0.9203097820281982
11.863620042800903,-0.39806973934173584,-0.919165313243866,1.1537728309631348,-0.4072251319885254,0.969520092010498,-0.9206912517547607
11.883836030960083,-0.39768826961517334,-0.9203097820281982,1.1537728309631348,-0.4076066315174103,0.970283031463623,-0.9206912517547607
11.903951644897461,-0.39692530035972595,-0.9210727214813232,1.1549172401428223,-0.4087510406970978,0.9714275002479553,-0.9210727214813232
11.92397403717041,-0.39730677008628845,-0.9222171306610107,1.1560616493225098,-0.4091325104236603,0.9725719094276428,-0.9214541912078857
11.944146633148193,-0.39730677008628845,-0.9229800701141357,1.1575875282287598,-0.4072251319885254,0.9714275002479553,-0.9206912517547607
11.964208126068115,-0.39730677008628845,-0.9229800701141357,1.1591134071350098,-0.4037918746471405,0.970283031463623,-0.9210727214813232
11.984471797943115,-0.39730677008628845,-0.9237430095672607,1.1598763465881348,-0.4015030264854431,0.969520092010498,-0.9210727214813232
12.004470348358154,-0.39730677008628845,-0.9237430095672607,1.1606394052505493,-0.3999771177768707,0.969520092010498,-0.9210727214813232
12.024637937545776,-0.39730677008628845,-0.924124538898468,1.1610208749771118,-0.3999771177768707,0.9683756828308105,-0.9214541912078857
12.044679403305054,-0.39730677008628845,-0.924124538898468,1.1610208749771118,-0.39921414852142334,0.968757152557373,-0.9214541912078857
12.064926624298096,-0.39730677008628845,-0.9252689480781555,1.1614023447036743,-0.39845120906829834,0.9691386222839355,-0.9214541912078857
12.08505654335022,-0.39730677008628845,-0.9252689480781555,1.1617838144302368,-0.39692530035972595,0.968757152557373,-0.9210727214813232
12.105226516723633,-0.39730677008628845,-0.9260318875312805,1.1621652841567993,-0.39692530035972595,0.9683756828308105,-0.9210727214813232
12.125242233276367,-0.39730677008628845,-0.927176296710968,1.1629282236099243,-0.39692530035972595,0.968757152557373,-0.9214541912078857
12.14534592628479,-0.39730677008628845,-0.9279392957687378,1.1633096933364868,-0.39692530035972595,0.967994213104248,-0.9218356609344482
12.16584849357605,-0.39730677008628845,-0.9294651746749878,1.1644541025161743,-0.39616236090660095,0.967994213104248,-0.9218356609344482
12.186076879501343,-0.39730677008628845,-0.9302281141281128,1.1655985116958618,-0.39501792192459106,0.967994213104248,-0.9222171306610107
12.206151485443115,-0.39730677008628845,-0.9302281141281128,1.1659799814224243,-0.39501792192459106,0.967231273651123,-0.9225986003875732
12.226285934448242,-0.39730677008628845,-0.9306095838546753,1.1663614511489868,-0.39539939165115356,0.9683756828308105,-0.9229800701141357
12.246423482894897,-0.39692530035972595,-0.9313725233078003,1.1671243906021118,-0.39463645219802856,0.9691386222839355,-0.9233615398406982
12.26650094985962,-0.39730677008628845,-0.9321355223655701,1.1678873300552368,-0.39387351274490356,0.9683756828308105,-0.9233615398406982
12.28665804862976,-0.39730677008628845,-0.9328984618186951,1.1682689189910889,-0.3934920132160187,0.9683756828308105,-0.9233615398406982
12.306650876998901,-0.39692530035972595,-0.9336614012718201,1.1682689189910889,-0.3934920132160187,0.9699015617370605,-0.9237430095672607
12.326930046081543,-0.39692530035972595,-0.9348058104515076,1.1682689189910889,-0.3934920132160187,0.9699015617370605,-0.9237430095672607
12.347132921218872,-0.39692530035972595,-0.9363317489624023,1.1682689189910889,-0.3934920132160187,0.969520092010498,-0.9233615398406982
12.367134809494019,-0.39692530035972595,-0.9367132186889648,1.1694133281707764,-0.39387351274490356,0.969520092010498,-0.9237430095672607
12.387230396270752,-0.39692530035972595,-0.9374761581420898,1.1705577373504639,-0.39425498247146606,0.969520092010498,-0.9233615398406982
12.407328128814697,-0.39654383063316345,-0.9374761581420898,1.1717021465301514,-0.3934920132160187,0.9691386222839355,-0.9233615398406982
12.427531242370605,-0.39616236090660095,-0.9374761581420898,1.1728465557098389,-0.3931105434894562,0.9683756828308105,-0.9237430095672607
12.44754672050476,-0.39578089118003845,-0.9374761581420898,1.1743724346160889,-0.3931105434894562,0.968757152557373,-0.924124538898468
12.467668771743774,-0.39463645219802856,-0.9382390975952148,1.1743724346160889,-0.3919661343097687,0.968757152557373,-0.924124538898468
12.487753629684448,-0.39387351274490356,-0.9386205673217773,1.1743724346160889,-0.3912031650543213,0.968757152557373,-0.9237430095672607
12.507890462875366,-0.3931105434894562,-0.9397650361061096,1.1747539043426514,-0.3912031650543213,0.968757152557373,-0.924124538898468
12.528037786483765,-0.3927290737628937,-0.9405279755592346,1.1747539043426514,-0.3912031650543213,0.9691386222839355,-0.924124538898468
12.548173666000366,-0.3927290737628937,-0.9409094452857971,1.1747539043426514,-0.3912031650543213,0.9691386222839355,-0.924124538898468
12.568272829055786,-0.3931105434894562,-0.9416723847389221,1.1755168437957764,-0.3912031650543213,0.969520092010498,-0.924124538898468
12.58841872215271,-0.3931105434894562,-0.9416723847389221,1.176279902458191,-0.3912031650543213,0.9683756828308105,-0.924124538898468
12.608527421951294,-0.3931105434894562,-0.9420538544654846,1.1766613721847534,-0.3908216953277588,0.9668498039245605,-0.924124538898468
12.628768920898438,-0.3931105434894562,-0.9424353241920471,1.177805781364441,-0.3904402256011963,0.967994213104248,-0.9237430095672607
12.648917198181152,-0.3934920132160187,-0.9424353241920471,1.1781872510910034,-0.3892957866191864,0.9664682745933533,-0.9237430095672607
12.668936014175415,-0.3934920132160187,-0.9428167939186096,1.178568720817566,-0.3892957866191864,0.9664682745933533,-0.9237430095672607
12.689064502716064,-0.3934920132160187,-0.9435797929763794,1.178568720817566,-0.3873884081840515,0.967231273651123,-0.9237430095672607
12.709674835205078,-0.3934920132160187,-0.9439612627029419,1.1789501905441284,-0.386243999004364,0.967231273651123,-0.9233615398406982
12.72986888885498,-0.3934920132160187,-0.9443427324295044,1.179331660270691,-0.386243999004364,0.9676127433776855,-0.9237430095672607
12.749912977218628,-0.39387351274490356,-0.9447242021560669,1.180094599723816,-0.386243999004364,0.967994213104248,-0.9237430095672607
12.770006656646729,-0.39425498247146606,-0.9447242021560669,1.1804760694503784,-0.386243999004364,0.9676127433776855,-0.9237430095672607
12.790120363235474,-0.39425498247146606,-0.9451056718826294,1.180857539176941,-0.3854810297489166,0.9676127433776855,-0.9237430095672607
12.810180425643921,-0.39425498247146606,-0.9454871416091919,1.1812390089035034,-0.3850995600223541,0.967994213104248,-0.9237430095672607
12.830315828323364,-0.39425498247146606,-0.9458686113357544,1.181620478630066,-0.3854810297489166,0.967231273651123,-0.9237430095672607
12.850414037704468,-0.39425498247146606,-0.9462500810623169,1.181620478630066,-0.3854810297489166,0.967994213104248,-0.9237430095672607
12.870439767837524,-0.39425498247146606,-0.9473945498466492,1.181620478630066,-0.3854810297489166,0.9683756828308105,-0.9237430095672607
12.89053726196289,-0.39425498247146606,-0.9489204287528992,1.180094599723816,-0.38357365131378174,0.9676127433776855,-0.9233615398406982
12.910658836364746,-0.39539939165115356,-0.951209306716919,1.1766613721847534,-0.3763256371021271,0.9676127433776855,-0.9225986003875732
12.931730270385742,-0.39730677008628845,-0.9554055333137512,1.1713206768035889,-0.369840532541275,0.9664682745933533,-0.9206912517547607
12.951826572418213,-0.4003585875034332,-0.9611276388168335,1.1629282236099243,-0.36640727519989014,0.9653238654136658,-0.918402373790741
12.971927881240845,-0.4026474356651306,-0.9660868048667908,1.1568245887756348,-0.36335545778274536,0.9645609259605408,-0.9142061471939087
12.991999626159668,-0.4064621925354004,-0.9721904397010803,1.1488136053085327,-0.36259251832962036,0.9618905782699585,-0.9122987985610962
13.012111902236938,-0.4087510406970978,-0.9760051965713501,1.1419470310211182,-0.36335545778274536,0.9569314122200012,-0.9084840416908264
13.032175302505493,-0.41256579756736755,-0.9794384837150574,1.1339360475540161,-0.36335545778274536,0.954261064529419,-0.9050507545471191
13.052296161651611,-0.41599908471107483,-0.9824903011322021,1.1263065338134766,-0.36373692750930786,0.9496833682060242,-0.9039062857627869
13.072574853897095,-0.4190509021282196,-0.9832532405853271,1.1217288970947266,-0.36259251832962036,0.9493018984794617,-0.8985656499862671
13.092704057693481,-0.4209582805633545,-0.9843976497650146,1.114862322807312,-0.3599221706390381,0.9462500810623169,-0.8974212408065796
13.112850904464722,-0.4217212200164795,-0.9840161800384521,1.112191915512085,-0.3583962619304657,0.9473945498466492,-0.8958953022956848
13.133057117462158,-0.422102689743042,-0.9840161800384521,1.1087586879730225,-0.3561074137687683,0.9477760195732117,-0.8936064839363098
13.153053760528564,-0.422102689743042,-0.9843976497650146,1.1072328090667725,-0.3530556261539459,0.9481574892997742,-0.8928435444831848
13.173156261444092,-0.422102689743042,-0.9851605892181396,1.1057069301605225,-0.35038527846336365,0.9493018984794617,-0.8932250142097473
13.193267345428467,-0.422102689743042,-0.9863049983978271,1.1045624017715454,-0.34885939955711365,0.9493018984794617,-0.8928435444831848
13.213397741317749,-0.422102689743042,-0.9863049983978271,1.1037994623184204,-0.34847790002822876,0.9489204287528992,-0.892080545425415
13.23347544670105,-0.422102689743042,-0.9863049983978271,1.102655053138733,-0.34809643030166626,0.9481574892997742,-0.89131760597229
13.253537893295288,-0.422102689743042,-0.9866865277290344,1.1022735834121704,-0.34771496057510376,0.9466315507888794,-0.8909361362457275
13.27437162399292,-0.422102689743042,-0.9870679974555969,1.101892113685608,-0.34657052159309387,0.9458686113357544,-0.8901731967926025
13.294698238372803,-0.422102689743042,-0.9882124066352844,1.1007477045059204,-0.344663143157959,0.9451056718826294,-0.8894102573394775
13.315376996994019,-0.422102689743042,-0.9882124066352844,1.100366234779358,-0.343900203704834,0.9451056718826294,-0.889028787612915
13.335553407669067,-0.422102689743042,-0.9889753460884094,1.0992218255996704,-0.3442816734313965,0.9454871416091919,-0.889028787612915
13.35559344291687,-0.422102689743042,-0.9889753460884094,1.098840355873108,-0.343137264251709,0.9454871416091919,-0.8886472582817078
13.375794410705566,-0.422102689743042,-0.9893568158149719,1.098840355873108,-0.3419928252696991,0.9454871416091919,-0.8886472582817078
13.395769834518433,-0.422102689743042,-0.9897382855415344,1.0984588861465454,-0.3412298858165741,0.9443427324295044,-0.8875028491020203
13.415857076644897,-0.422102689743042,-0.9901197552680969,1.0976959466934204,-0.3412298858165741,0.9435797929763794,-0.8871213793754578
13.435946702957153,-0.422102689743042,-0.9905012845993042,1.0969328880310059,-0.3408484160900116,0.9435797929763794,-0.8867399096488953
13.456029653549194,-0.422102689743042,-0.9905012845993042,1.0957884788513184,-0.3400854468345642,0.9431982636451721,-0.8863584399223328
13.47621750831604,-0.422102689743042,-0.9912642240524292,1.0946440696716309,-0.3400854468345642,0.9431982636451721,-0.8863584399223328
13.496242046356201,-0.422102689743042,-0.9916456937789917,1.0942625999450684,-0.3400854468345642,0.9431982636451721,-0.8863584399223328
13.51644492149353,-0.422102689743042,-0.9924086332321167,1.0931181907653809,-0.3397039771080017,0.9428167939186096,-0.8859769701957703
13.536601066589355,-0.422102689743042,-0.9927901029586792,1.0927367210388184,-0.3397039771080017,0.9431982636451721,-0.8859769701957703
13.556580781936646,-0.422102689743042,-0.9931715726852417,1.0919737815856934,-0.3393225073814392,0.9424353241920471,-0.8855955004692078
13.576786041259766,-0.422102689743042,-0.9935530424118042,1.0908293724060059,-0.3374151289463043,0.9428167939186096,-0.8852140307426453
13.596954107284546,-0.422102689743042,-0.9939345121383667,1.0904479026794434,-0.3370336592197418,0.9420538544654846,-0.8852140307426453
13.617151021957397,-0.422102689743042,-0.994316041469574,1.0896848440170288,-0.3370336592197418,0.9420538544654846,-0.8848325610160828
13.637220859527588,-0.422102689743042,-0.9946975111961365,1.0889219045639038,-0.33627068996429443,0.9420538544654846,-0.8848325610160828
13.657458782196045,-0.422102689743042,-0.995078980922699,1.0881589651107788,-0.33474478125572205,0.9420538544654846,-0.884069561958313
13.677649021148682,-0.422102689743042,-0.995841920375824,1.0873960256576538,-0.33398184180259705,0.9420538544654846,-0.883306622505188
13.697706460952759,-0.422102689743042,-0.995841920375824,1.0866330862045288,-0.33321890234947205,0.9412909150123596,-0.8829251527786255
13.717812061309814,-0.422102689743042,-0.996604859828949,1.0862516164779663,-0.33321890234947205,0.9412909150123596,-0.8821622133255005
13.737942218780518,-0.422102689743042,-0.9969863295555115,1.0858701467514038,-0.33321890234947205,0.9412909150123596,-0.8821622133255005
13.758736610412598,-0.422102689743042,-0.9977492690086365,1.0847257375717163,-0.33207446336746216,0.9409094452857971,-0.881780743598938
13.778890132904053,-0.422102689743042,-0.9981307983398438,1.0839627981185913,-0.33169299364089966,0.9401465058326721,-0.8813992738723755
13.798969268798828,-0.422102689743042,-0.9985122680664062,1.0835813283920288,-0.33169299364089966,0.9401465058326721,-0.881017804145813
13.819055557250977,-0.422102689743042,-0.9988937377929688,1.0824369192123413,-0.33093002438545227,0.9397650361061096,-0.8794918656349182
13.839130401611328,-0.422102689743042,-0.9992752075195312,1.0816738605499268,-0.33093002438545227,0.9390020370483398,-0.8794918656349182
13.85948896408081,-0.422102689743042,-0.9996566772460938,1.0812923908233643,-0.32940414547920227,0.9390020370483398,-0.8791103959083557
13.87967562675476,-0.422102689743042,-1.0004196166992188,1.0805294513702393,-0.3278782367706299,0.9382390975952148,-0.8783474564552307
13.899696111679077,-0.422102689743042,-1.0004196166992188,1.0801479816436768,-0.3274967670440674,0.9374761581420898,-0.8783474564552307
13.919770956039429,-0.422102689743042,-1.0008010864257812,1.0793850421905518,-0.32673379778862,0.9374761581420898,-0.8783474564552307
13.939871311187744,-0.422102689743042,-1.0008010864257812,1.0786221027374268,-0.325970858335495,0.9367132186889648,-0.8779659867286682
13.960594654083252,-0.422102689743042,-1.0015640258789062,1.0782406330108643,-0.3255893886089325,0.9363317489624023,-0.8779659867286682
13.980660200119019,-0.422102689743042,-1.0023269653320312,1.0774776935577393,-0.3236820101737976,0.9359502792358398,-0.8775845170021057
14.000773191452026,-0.422102689743042,-1.0027084350585938,1.0767147541046143,-0.3233005404472351,0.9351872801780701,-0.8775845170021057
14.020852327346802,-0.422102689743042,-1.0030899047851562,1.0759518146514893,-0.3225375711917877,0.9351872801780701,-0.8764400482177734
14.04092788696289,-0.422102689743042,-1.0038528442382812,1.0748074054718018,-0.3225375711917877,0.9351872801780701,-0.8764400482177734
14.061105251312256,-0.422102689743042,-1.0042344331741333,1.0740443468093872,-0.32101166248321533,0.9348058104515076,-0.8752956390380859
14.081182956695557,-0.422102689743042,-1.0049973726272583,1.0732814073562622,-0.32063019275665283,0.9348058104515076,-0.8749141693115234
14.101308822631836,-0.422102689743042,-1.0049973726272583,1.0725184679031372,-0.32024872303009033,0.9344243407249451,-0.8749141693115234
14.121448993682861,-0.422102689743042,-1.0053788423538208,1.0717555284500122,-0.31872281432151794,0.9344243407249451,-0.8741512298583984
14.141486883163452,-0.422102689743042,-1.0057603120803833,1.0713740587234497,-0.31834134459495544,0.9344243407249451,-0.8741512298583984
14.16156792640686,-0.422102689743042,-1.0061417818069458,1.0706111192703247,-0.31719690561294556,0.9340428709983826,-0.8737697601318359
14.181725263595581,-0.422102689743042,-1.0069047212600708,1.0694667100906372,-0.31681543588638306,0.9336614012718201,-0.8730067610740662
14.201752424240112,-0.422102689743042,-1.0069047212600708,1.0694667100906372,-0.31719690561294556,0.9336614012718201,-0.8722438216209412
14.221846103668213,-0.422102689743042,-1.0069047212600708,1.0683223009109497,-0.31681543588638306,0.9325169920921326,-0.8714808821678162
14.241914749145508,-0.422102689743042,-1.0076676607131958,1.0679408311843872,-0.31643396615982056,0.9325169920921326,-0.8714808821678162
14.26199460029602,-0.422102689743042,-1.0080491304397583,1.0671778917312622,-0.31490805745124817,0.9321355223655701,-0.8710994124412537
14.282080888748169,-0.422102689743042,-1.0084306001663208,1.0664149522781372,-0.31376364827156067,0.9302281141281128,-0.8710994124412537
14.30242109298706,-0.422102689743042,-1.0088120698928833,1.0660333633422852,-0.31376364827156067,0.9306095838546753,-0.8710994124412537
