liuyurong129/humanoid-gym/humanoid/data/actual_q_20250522-034348.csv
timestamp,joint_1,joint_2,joint_3,joint_4,joint_5,joint_6
5.1975250244140625e-05,0.000572213320992887,0.16269932687282562,-0.08258945494890213,-0.00019073777366429567,0.00019073777366429567,0.00019073777366429567
0.020133256912231445,0.000572213320992887,0.14019227027893066,-0.07267109304666519,-0.00019073777366429567,-0.00019073777366429567,0.00019073777366429567
0.04021644592285156,-0.00019073777366429567,0.1192111074924469,-0.06313420087099075,-0.00019073777366429567,0.001716639962978661,0.00019073777366429567
0.060292720794677734,0.00019073777366429567,0.10624094307422638,-0.05741206929087639,-0.00019073777366429567,0.0009536888683214784,0.00019073777366429567
0.08037042617797852,0.00019073777366429567,0.09594109654426575,-0.05054550990462303,-0.00019073777366429567,0.000572213320992887,0.00019073777366429567
0.10045528411865234,0.00019073777366429567,0.08487831056118011,-0.04329747334122658,-0.00019073777366429567,0.000572213320992887,0.00019073777366429567
0.1205286979675293,-0.00019073777366429567,0.08182650804519653,-0.04139009863138199,-0.00019073777366429567,0.0013351644156500697,0.00019073777366429567
0.14075899124145508,-0.00019073777366429567,0.08297093212604523,-0.04139009863138199,-0.00019073777366429567,0.000572213320992887,0.00019073777366429567
0.16084909439086914,-0.00019073777366429567,0.08335240930318832,-0.04329747334122658,-0.00019073777366429567,0.00019073777366429567,0.00019073777366429567
0.1814131736755371,-0.000572213320992887,0.08220797777175903,-0.043678950518369675,-0.00019073777366429567,0.000572213320992887,0.00019073777366429567
0.20148730278015137,-0.000572213320992887,0.07953765243291855,-0.04329747334122658,-0.00019073777366429567,0.000572213320992887,0.00019073777366429567
0.2215576171875,-0.0009536888683214784,0.07991912961006165,-0.04291599988937378,-0.00019073777366429567,0.000572213320992887,0.00019073777366429567
0.2417314052581787,-0.0024795911740511656,0.08068207651376724,-0.04253452271223068,-0.00019073777366429567,0.000572213320992887,0.00019073777366429567
0.26176977157592773,-0.002861066721379757,0.08068207651376724,-0.042153049260377884,-0.00019073777366429567,0.000572213320992887,0.00019073777366429567
0.28186511993408203,-0.0032425422687083483,0.08030059933662415,-0.042153049260377884,-0.00019073777366429567,0.000572213320992887,0.00019073777366429567
0.3019242286682129,-0.004005493130534887,0.08030059933662415,-0.042153049260377884,-0.00019073777366429567,0.000572213320992887,0.000572213320992887
0.32245635986328125,-0.00476844422519207,0.07953765243291855,-0.042153049260377884,-0.00019073777366429567,0.000572213320992887,0.00019073777366429567
0.3426179885864258,-0.005531395319849253,0.07877469807863235,-0.04177157208323479,-0.00019073777366429567,0.000572213320992887,0.000572213320992887
0.3626389503479004,-0.005912871100008488,0.07877469807863235,-0.04177157208323479,-0.00019073777366429567,0.000572213320992887,0.000572213320992887
0.38283777236938477,-0.00667582219466567,0.07877469807863235,-0.04139009863138199,-0.00019073777366429567,0.000572213320992887,0.000572213320992887
0.40282130241394043,-0.007438773289322853,0.07839322835206985,-0.04139009863138199,-0.00019073777366429567,0.000572213320992887,0.000572213320992887
0.4228854179382324,-0.007438773289322853,0.07839322835206985,-0.04139009863138199,-0.00019073777366429567,0.000572213320992887,0.000572213320992887
0.4429788589477539,-0.0078202486038208,0.07839322835206985,-0.04100862145423889,-0.00019073777366429567,0.000572213320992887,0.000572213320992887
0.46305322647094727,-0.0078202486038208,0.07801175117492676,-0.04100862145423889,-0.00019073777366429567,0.00019073777366429567,0.000572213320992887
0.48327183723449707,-0.008201723918318748,0.07763027399778366,-0.04100862145423889,-0.00019073777366429567,0.000572213320992887,0.000572213320992887
0.5033917427062988,-0.009346150793135166,0.07724879682064056,-0.04100862145423889,-0.000572213320992887,0.00019073777366429567,0.000572213320992887
0.5235755443572998,-0.009727626107633114,0.07724879682064056,-0.04100862145423889,-0.000572213320992887,0.000572213320992887,0.000572213320992887
0.5436859130859375,-0.010109102353453636,0.07724879682064056,-0.04100862145423889,-0.00019073777366429567,0.000572213320992887,0.000572213320992887
0.5637385845184326,-0.010490577667951584,0.07724879682064056,-0.04100862145423889,-0.000572213320992887,0.00019073777366429567,0.000572213320992887
0.5838360786437988,-0.01201647985726595,0.07648584991693497,-0.040627144277095795,-0.000572213320992887,0.000572213320992887,0.000572213320992887
0.6039361953735352,-0.012397955171763897,0.07610437273979187,-0.040245670825242996,-0.000572213320992887,0.00019073777366429567,0.000572213320992887
0.6240139007568359,-0.012779430486261845,0.07648584991693497,-0.040245670825242996,-0.000572213320992887,0.00019073777366429567,0.000572213320992887
0.644160270690918,-0.013160906732082367,0.07610437273979187,-0.0398641936480999,-0.000572213320992887,0.00019073777366429567,0.000572213320992887
0.6642153263092041,-0.013923857361078262,0.07572289556264877,-0.0398641936480999,-0.000572213320992887,0.00019073777366429567,0.000572213320992887
0.6855459213256836,-0.014686808921396732,0.07572289556264877,-0.0394827201962471,-0.000572213320992887,0.00019073777366429567,0.0009536888683214784
0.7057068347930908,-0.01506828423589468,0.07534141838550568,-0.0394827201962471,-0.000572213320992887,0.00019073777366429567,0.0009536888683214784
0.7257003784179688,-0.01506828423589468,0.07534141838550568,-0.0394827201962471,-0.000572213320992887,0.00019073777366429567,0.0009536888683214784
0.7459304332733154,-0.01583123579621315,0.07534141838550568,-0.0394827201962471,-0.000572213320992887,0.00019073777366429567,0.0009536888683214784
0.766063928604126,-0.016975661739706993,0.07495994865894318,-0.039101243019104004,-0.000572213320992887,0.000572213320992887,0.0009536888683214784
0.7861025333404541,-0.016975661739706993,0.07457847148180008,-0.039101243019104004,-0.000572213320992887,0.00019073777366429567,0.0009536888683214784
0.8062229156494141,-0.01735713705420494,0.07419699430465698,-0.039101243019104004,-0.0009536888683214784,0.00019073777366429567,0.0009536888683214784
0.8263421058654785,-0.018120087683200836,0.07381551712751389,-0.039101243019104004,-0.0009536888683214784,0.00019073777366429567,0.0013351644156500697
0.8466625213623047,-0.01926451548933983,0.07343403995037079,-0.039101243019104004,-0.0009536888683214784,0.00019073777366429567,0.0013351644156500697
0.8667640686035156,-0.019645990803837776,0.07343403995037079,-0.039101243019104004,-0.0009536888683214784,0.00019073777366429567,0.001716639962978661
0.8868334293365479,-0.020027466118335724,0.07343403995037079,-0.038719769567251205,-0.0009536888683214784,0.00019073777366429567,0.0024795911740511656
0.9073784351348877,-0.02079041674733162,0.07343403995037079,-0.038719769567251205,-0.0009536888683214784,0.00019073777366429567,0.0024795911740511656
0.9274888038635254,-0.021553369238972664,0.07305257022380829,-0.038719769567251205,-0.0009536888683214784,0.00019073777366429567,0.002861066721379757
0.9476044178009033,-0.02231631986796856,0.07305257022380829,-0.038719769567251205,-0.0009536888683214784,0.00019073777366429567,0.002861066721379757
0.9676535129547119,-0.02193484455347061,0.07267109304666519,-0.038719769567251205,-0.0009536888683214784,0.00019073777366429567,0.002861066721379757
0.987760066986084,-0.02231631986796856,0.0722896158695221,-0.03833829239010811,-0.0009536888683214784,0.00019073777366429567,0.002861066721379757
1.0078248977661133,-0.02231631986796856,0.0722896158695221,-0.03795681521296501,-0.0013351644156500697,-0.00019073777366429567,0.002861066721379757
1.0279760360717773,-0.023079270496964455,0.071908138692379,-0.03795681521296501,-0.0013351644156500697,0.00019073777366429567,0.002861066721379757
1.048069953918457,-0.023460745811462402,0.071908138692379,-0.03795681521296501,-0.0013351644156500697,0.00019073777366429567,0.002861066721379757
1.068108320236206,-0.024223696440458298,0.071908138692379,-0.03757534176111221,-0.001716639962978661,0.00019073777366429567,0.002861066721379757
1.0881872177124023,-0.024605173617601395,0.0711451917886734,-0.03757534176111221,-0.001716639962978661,-0.00019073777366429567,0.0032425422687083483
1.1085681915283203,-0.024986648932099342,0.0711451917886734,-0.03757534176111221,-0.001716639962978661,-0.00019073777366429567,0.0032425422687083483
1.1287970542907715,-0.026131074875593185,0.0711451917886734,-0.03757534176111221,-0.0020981156267225742,-0.00019073777366429567,0.0032425422687083483
1.1493735313415527,-0.02689402550458908,0.0707637146115303,-0.037193864583969116,-0.0020981156267225742,-0.00019073777366429567,0.0032425422687083483
1.1694812774658203,-0.027656977996230125,0.07038223743438721,-0.03681239113211632,-0.0020981156267225742,-0.00019073777366429567,0.0032425422687083483
1.1895945072174072,-0.02841992862522602,0.07000076025724411,-0.03681239113211632,-0.0024795911740511656,-0.00019073777366429567,0.0032425422687083483
1.209754228591919,-0.029182879254221916,0.07000076025724411,-0.03681239113211632,-0.002861066721379757,-0.000572213320992887,0.0032425422687083483
1.2297799587249756,-0.029182879254221916,0.06961929053068161,-0.03681239113211632,-0.002861066721379757,-0.00019073777366429567,0.0032425422687083483
1.2500011920928955,-0.029182879254221916,0.06923781335353851,-0.03681239113211632,-0.002861066721379757,-0.000572213320992887,0.0032425422687083483
1.2700963020324707,-0.02994582988321781,0.06885633617639542,-0.03681239113211632,-0.0032425422687083483,-0.000572213320992887,0.0032425422687083483
1.2901649475097656,-0.030708782374858856,0.06885633617639542,-0.03681239113211632,-0.0032425422687083483,-0.00019073777366429567,0.0032425422687083483
1.310227394104004,-0.03147173300385475,0.06885633617639542,-0.03643091395497322,-0.0032425422687083483,-0.00019073777366429567,0.0032425422687083483
1.3303184509277344,-0.03185320645570755,0.06809338182210922,-0.03643091395497322,-0.0032425422687083483,-0.00019073777366429567,0.0032425422687083483
1.350379228591919,-0.03223468363285065,0.06809338182210922,-0.03604944050312042,-0.0032425422687083483,-0.000572213320992887,0.0036240178160369396
1.3704602718353271,-0.03337911143898964,0.06809338182210922,-0.035667963325977325,-0.0032425422687083483,-0.000572213320992887,0.0036240178160369396
1.3905255794525146,-0.03452353551983833,0.06809338182210922,-0.035667963325977325,-0.0032425422687083483,-0.000572213320992887,0.0036240178160369396
1.410593032836914,-0.03490501269698143,0.06809338182210922,-0.035667963325977325,-0.0036240178160369396,-0.000572213320992887,0.0036240178160369396
1.4306907653808594,-0.035667963325977325,0.06733043491840363,-0.035667963325977325,-0.0036240178160369396,-0.000572213320992887,0.0036240178160369396
1.4507594108581543,-0.03643091395497322,0.06694895774126053,-0.03528648987412453,-0.0036240178160369396,-0.0009536888683214784,0.0036240178160369396
1.4708654880523682,-0.03681239113211632,0.06618601083755493,-0.03528648987412453,-0.0036240178160369396,-0.0009536888683214784,0.0036240178160369396
1.4909641742706299,-0.03681239113211632,0.06618601083755493,-0.03528648987412453,-0.004005493130534887,-0.0009536888683214784,0.0036240178160369396
1.5110058784484863,-0.03681239113211632,0.06618601083755493,-0.03490501269698143,-0.004005493130534887,-0.0009536888683214784,0.0036240178160369396
1.5311238765716553,-0.037193864583969116,0.06580453366041183,-0.03490501269698143,-0.004005493130534887,-0.0009536888683214784,0.0036240178160369396
1.5511937141418457,-0.03757534176111221,0.06580453366041183,-0.03490501269698143,-0.004005493130534887,-0.000572213320992887,0.004005493130534887
1.5718400478363037,-0.038719769567251205,0.06580453366041183,-0.03452353551983833,-0.004005493130534887,-0.000572213320992887,0.004005493130534887
1.5919289588928223,-0.0394827201962471,0.06542305648326874,-0.03452353551983833,-0.004386968910694122,-0.0009536888683214784,0.004005493130534887
1.6119921207427979,-0.0398641936480999,0.06504157930612564,-0.03452353551983833,-0.004386968910694122,-0.0009536888683214784,0.004005493130534887
1.6320858001708984,-0.04100862145423889,0.06504157930612564,-0.03452353551983833,-0.004386968910694122,-0.0013351644156500697,0.004005493130534887
1.6522040367126465,-0.04139009863138199,0.06466010212898254,-0.034142062067985535,-0.004386968910694122,-0.001716639962978661,0.004005493130534887
1.6722187995910645,-0.04177157208323479,0.06466010212898254,-0.03376058489084244,-0.00476844422519207,-0.001716639962978661,0.004005493130534887
1.69246506690979,-0.042153049260377884,0.06389715522527695,-0.03376058489084244,-0.00476844422519207,-0.0020981156267225742,0.004386968910694122
1.7124645709991455,-0.04253452271223068,0.06389715522527695,-0.03337911143898964,-0.00476844422519207,-0.0020981156267225742,0.004386968910694122
1.7326076030731201,-0.043678950518369675,0.06389715522527695,-0.03337911143898964,-0.005149920005351305,-0.0020981156267225742,0.004386968910694122
1.7527644634246826,-0.04406042397022247,0.06351567804813385,-0.03337911143898964,-0.005149920005351305,-0.0020981156267225742,0.004386968910694122
1.7728025913238525,-0.04406042397022247,0.06313420087099075,-0.03337911143898964,-0.005912871100008488,-0.0020981156267225742,0.004386968910694122
1.7929377555847168,-0.04444190114736557,0.06313420087099075,-0.03299763426184654,-0.006294346414506435,-0.0020981156267225742,0.004386968910694122
1.8129806518554688,-0.045204851776361465,0.06275273114442825,-0.03299763426184654,-0.006294346414506435,-0.0020981156267225742,0.00476844422519207
1.833033800125122,-0.04596780240535736,0.06275273114442825,-0.03299763426184654,-0.00667582219466567,-0.0020981156267225742,0.00476844422519207
1.8531315326690674,-0.046730753034353256,0.06275273114442825,-0.032616160809993744,-0.00667582219466567,-0.0024795911740511656,0.00476844422519207
1.8732314109802246,-0.04711223021149635,0.06237125024199486,-0.032616160809993744,-0.00667582219466567,-0.0024795911740511656,0.005149920005351305
1.8933558464050293,-0.04787518084049225,0.06198977679014206,-0.032616160809993744,-0.00667582219466567,-0.002861066721379757,0.005149920005351305
1.9134600162506104,-0.048638131469488144,0.06160829961299896,-0.032616160809993744,-0.007057297509163618,-0.002861066721379757,0.005149920005351305
1.9335026741027832,-0.04901960864663124,0.06160829961299896,-0.032616160809993744,-0.007057297509163618,-0.002861066721379757,0.005531395319849253
1.9536521434783936,-0.04940108209848404,0.06084534898400307,-0.032616160809993744,-0.007057297509163618,-0.0032425422687083483,0.005912871100008488
1.9736840724945068,-0.050164032727479935,0.06084534898400307,-0.03223468363285065,-0.007057297509163618,-0.002861066721379757,0.007057297509163618
1.9938552379608154,-0.05092698708176613,0.06084534898400307,-0.03185320645570755,-0.007057297509163618,-0.0032425422687083483,0.007057297509163618
2.0140576362609863,-0.05130846053361893,0.06084534898400307,-0.03147173300385475,-0.007057297509163618,-0.0032425422687083483,0.007057297509163618
2.03468656539917,-0.05130846053361893,0.06084534898400307,-0.03147173300385475,-0.007057297509163618,-0.0032425422687083483,0.007057297509163618
2.0548057556152344,-0.05207141116261482,0.06008239835500717,-0.03147173300385475,-0.007057297509163618,-0.0036240178160369396,0.007438773289322853
2.0749120712280273,-0.05245288833975792,0.05970092490315437,-0.03147173300385475,-0.007438773289322853,-0.0032425422687083483,0.007438773289322853
2.095137119293213,-0.05359731614589691,0.05893797054886818,-0.03147173300385475,-0.007438773289322853,-0.0032425422687083483,0.007438773289322853
2.1152849197387695,-0.05436026677489281,0.05893797054886818,-0.03147173300385475,-0.007438773289322853,-0.0032425422687083483,0.007438773289322853
2.1353626251220703,-0.05436026677489281,0.05893797054886818,-0.031090257689356804,-0.007438773289322853,-0.0036240178160369396,0.007438773289322853
2.155475378036499,-0.0558861680328846,0.05893797054886818,-0.030708782374858856,-0.007438773289322853,-0.0036240178160369396,0.0078202486038208
2.1755318641662598,-0.05664911866188049,0.05855649709701538,-0.030708782374858856,-0.0078202486038208,-0.0036240178160369396,0.0078202486038208
2.1959831714630127,-0.05664911866188049,0.05855649709701538,-0.030708782374858856,-0.0078202486038208,-0.0036240178160369396,0.0078202486038208
2.216095447540283,-0.057793546468019485,0.057793546468019485,-0.03032730519771576,-0.0078202486038208,-0.0036240178160369396,0.0078202486038208
2.236271858215332,-0.05855649709701538,0.05741206929087639,-0.02994582988321781,-0.0078202486038208,-0.0036240178160369396,0.0078202486038208
2.2563962936401367,-0.05893797054886818,0.05664911866188049,-0.029564354568719864,-0.0078202486038208,-0.0036240178160369396,0.0078202486038208
2.276411294937134,-0.059319447726011276,0.05664911866188049,-0.029564354568719864,-0.0078202486038208,-0.0036240178160369396,0.008201723918318748
2.2964906692504883,-0.06046387553215027,0.05664911866188049,-0.029182879254221916,-0.008201723918318748,-0.0036240178160369396,0.008201723918318748
2.316581964492798,-0.06084534898400307,0.05664911866188049,-0.02880140393972397,-0.008201723918318748,-0.0036240178160369396,0.00858320016413927
2.3373143672943115,-0.06160829961299896,0.056267641484737396,-0.02880140393972397,-0.008201723918318748,-0.0036240178160369396,0.008964675478637218
2.357436180114746,-0.06198977679014206,0.0558861680328846,-0.02880140393972397,-0.008201723918318748,-0.004005493130534887,0.009346150793135166
2.377530813217163,-0.06275273114442825,0.0555046908557415,-0.02841992862522602,-0.008201723918318748,-0.004005493130534887,0.010109102353453636
2.3977017402648926,-0.06389715522527695,0.0555046908557415,-0.02841992862522602,-0.00858320016413927,-0.004386968910694122,0.010490577667951584
2.417801856994629,-0.06504157930612564,0.0551232174038887,-0.02841992862522602,-0.00858320016413927,-0.004005493130534887,0.010490577667951584
2.4384682178497314,-0.06580453366041183,0.054741740226745605,-0.02841992862522602,-0.00858320016413927,-0.004386968910694122,0.010490577667951584
2.4585647583007812,-0.06618601083755493,0.05436026677489281,-0.027656977996230125,-0.008964675478637218,-0.004386968910694122,0.010490577667951584
2.478635549545288,-0.06618601083755493,0.05397878959774971,-0.027656977996230125,-0.009346150793135166,-0.00476844422519207,0.010872052982449532
2.499540328979492,-0.06694895774126053,0.05359731614589691,-0.02727550081908703,-0.009346150793135166,-0.00476844422519207,0.010872052982449532
2.519636392593384,-0.06809338182210922,0.05359731614589691,-0.02727550081908703,-0.009727626107633114,-0.00476844422519207,0.010872052982449532
2.5397181510925293,-0.06847485899925232,0.05359731614589691,-0.02689402550458908,-0.010109102353453636,-0.00476844422519207,0.010872052982449532
2.559817314147949,-0.06923781335353851,0.05359731614589691,-0.02689402550458908,-0.010490577667951584,-0.00476844422519207,0.010872052982449532
2.5799052715301514,-0.06923781335353851,0.053215838968753815,-0.026512550190091133,-0.010490577667951584,-0.005149920005351305,0.010872052982449532
2.5999698638916016,-0.07038223743438721,0.05283436179161072,-0.026512550190091133,-0.010490577667951584,-0.005149920005351305,0.010872052982449532
2.6200673580169678,-0.0711451917886734,0.05207141116261482,-0.026512550190091133,-0.010872052982449532,-0.005531395319849253,0.010872052982449532
2.6401309967041016,-0.071908138692379,0.05207141116261482,-0.026512550190091133,-0.010872052982449532,-0.005912871100008488,0.010872052982449532
2.660207986831665,-0.07305257022380829,0.051689937710762024,-0.026512550190091133,-0.010872052982449532,-0.005912871100008488,0.01125352829694748
2.680281639099121,-0.07305257022380829,0.05130846053361893,-0.026512550190091133,-0.010872052982449532,-0.006294346414506435,0.01125352829694748
2.700364828109741,-0.07305257022380829,0.051689937710762024,-0.026131074875593185,-0.010872052982449532,-0.00667582219466567,0.01125352829694748
2.720468521118164,-0.07343403995037079,0.05130846053361893,-0.026131074875593185,-0.01125352829694748,-0.00667582219466567,0.01125352829694748
2.7407429218292236,-0.07381551712751389,0.05054550990462303,-0.025749599561095238,-0.01125352829694748,-0.00667582219466567,0.01125352829694748
2.760833501815796,-0.07495994865894318,0.05054550990462303,-0.02536812424659729,-0.01125352829694748,-0.00667582219466567,0.01125352829694748
2.7809035778045654,-0.07534141838550568,0.05054550990462303,-0.02536812424659729,-0.01125352829694748,-0.006294346414506435,0.01125352829694748
2.800997495651245,-0.07610437273979187,0.050164032727479935,-0.02536812424659729,-0.01125352829694748,-0.00667582219466567,0.01125352829694748
2.8211684226989746,-0.07686731964349747,0.04940108209848404,-0.024986648932099342,-0.01125352829694748,-0.00667582219466567,0.011635004542768002
2.8412067890167236,-0.07801175117492676,0.04940108209848404,-0.024605173617601395,-0.011635004542768002,-0.00667582219466567,0.011635004542768002
2.8614065647125244,-0.07877469807863235,0.04901960864663124,-0.024605173617601395,-0.011635004542768002,-0.007057297509163618,0.011635004542768002
2.8815293312072754,-0.07953765243291855,0.048638131469488144,-0.024605173617601395,-0.011635004542768002,-0.007057297509163618,0.011635004542768002
2.901628017425537,-0.07991912961006165,0.048638131469488144,-0.024223696440458298,-0.011635004542768002,-0.007057297509163618,0.011635004542768002
2.9216604232788086,-0.08030059933662415,0.048256658017635345,-0.024223696440458298,-0.011635004542768002,-0.007057297509163618,0.011635004542768002
2.941739559173584,-0.08068207651376724,0.048256658017635345,-0.024223696440458298,-0.01201647985726595,-0.007057297509163618,0.01201647985726595
2.9619812965393066,-0.08144503086805344,0.04749370738863945,-0.024223696440458298,-0.012397955171763897,-0.007057297509163618,0.01201647985726595
2.9820313453674316,-0.08258945494890213,0.04711223021149635,-0.02384222112596035,-0.012397955171763897,-0.00667582219466567,0.01201647985726595
3.0021116733551025,-0.08335240930318832,0.046730753034353256,-0.023460745811462402,-0.012397955171763897,-0.007057297509163618,0.01201647985726595
3.022230386734009,-0.08411535620689392,0.04634927958250046,-0.023079270496964455,-0.012779430486261845,-0.007057297509163618,0.012397955171763897
3.042476177215576,-0.08525978773832321,0.04634927958250046,-0.023079270496964455,-0.013160906732082367,-0.007057297509163618,0.012397955171763897
3.0625743865966797,-0.08564125746488571,0.04634927958250046,-0.023079270496964455,-0.013923857361078262,-0.007057297509163618,0.012397955171763897
3.0829010009765625,-0.08564125746488571,0.04634927958250046,-0.023079270496964455,-0.013923857361078262,-0.007057297509163618,0.012397955171763897
3.103104591369629,-0.086785688996315,0.045204851776361465,-0.022697795182466507,-0.01430533267557621,-0.007057297509163618,0.012779430486261845
3.1231606006622314,-0.0875486359000206,0.045204851776361465,-0.02231631986796856,-0.014686808921396732,-0.00667582219466567,0.012779430486261845
3.1433515548706055,-0.0875486359000206,0.04444190114736557,-0.02231631986796856,-0.014686808921396732,-0.007057297509163618,0.013160906732082367
3.163372755050659,-0.0879301130771637,0.04444190114736557,-0.02231631986796856,-0.014686808921396732,-0.007057297509163618,0.013542382046580315
3.1845266819000244,-0.08907453715801239,0.04444190114736557,-0.02231631986796856,-0.014686808921396732,-0.007057297509163618,0.013923857361078262
3.2046360969543457,-0.08983749151229858,0.04406042397022247,-0.02193484455347061,-0.01506828423589468,-0.007057297509163618,0.013923857361078262
3.2247488498687744,-0.08983749151229858,0.04329747334122658,-0.02193484455347061,-0.01506828423589468,-0.007057297509163618,0.013923857361078262
3.244795083999634,-0.09136339277029037,0.04329747334122658,-0.021553369238972664,-0.01506828423589468,-0.007057297509163618,0.01430533267557621
3.264894962310791,-0.09212634712457657,0.04291599988937378,-0.021171892061829567,-0.01506828423589468,-0.007057297509163618,0.01430533267557621
3.285064697265625,-0.09250781685113907,0.04253452271223068,-0.021171892061829567,-0.01506828423589468,-0.007057297509163618,0.01430533267557621
3.305166006088257,-0.09327077120542526,0.042153049260377884,-0.02079041674733162,-0.01506828423589468,-0.007438773289322853,0.014686808921396732
3.3252670764923096,-0.09365224838256836,0.042153049260377884,-0.02079041674733162,-0.01506828423589468,-0.007057297509163618,0.014686808921396732
3.3453524112701416,-0.09441519528627396,0.04177157208323479,-0.02079041674733162,-0.015449759550392628,-0.007438773289322853,0.014686808921396732
3.365429639816284,-0.09479667246341705,0.04139009863138199,-0.02079041674733162,-0.015449759550392628,-0.007057297509163618,0.014686808921396732
3.385836601257324,-0.09479667246341705,0.04139009863138199,-0.02040894143283367,-0.015449759550392628,-0.007057297509163618,0.014686808921396732
3.406022548675537,-0.09555962681770325,0.04139009863138199,-0.02040894143283367,-0.015449759550392628,-0.007438773289322853,0.01506828423589468
3.4260547161102295,-0.09632257372140884,0.04100862145423889,-0.020027466118335724,-0.01583123579621315,-0.007057297509163618,0.01506828423589468
3.4462075233459473,-0.09708552807569504,0.040627144277095795,-0.020027466118335724,-0.01583123579621315,-0.007057297509163618,0.01506828423589468
3.466315984725952,-0.09784847497940063,0.040245670825242996,-0.020027466118335724,-0.01583123579621315,-0.007057297509163618,0.01506828423589468
3.4863638877868652,-0.09899290651082993,0.040245670825242996,-0.020027466118335724,-0.01583123579621315,-0.007438773289322853,0.01506828423589468
3.50649094581604,-0.09975585341453552,0.0398641936480999,-0.020027466118335724,-0.01583123579621315,-0.007438773289322853,0.01506828423589468
3.5265426635742188,-0.09975585341453552,0.0394827201962471,-0.01926451548933983,-0.01583123579621315,-0.007438773289322853,0.015449759550392628
3.5466675758361816,-0.10051880776882172,0.0394827201962471,-0.01888304017484188,-0.01583123579621315,-0.007438773289322853,0.015449759550392628
3.5668137073516846,-0.10166323184967041,0.039101243019104004,-0.01888304017484188,-0.016212711110711098,-0.007057297509163618,0.015449759550392628
3.5868523120880127,-0.10204470902681351,0.039101243019104004,-0.01888304017484188,-0.016212711110711098,-0.007057297509163618,0.015449759550392628
3.6069889068603516,-0.10204470902681351,0.03833829239010811,-0.01888304017484188,-0.016594186425209045,-0.007438773289322853,0.015449759550392628
3.6271026134490967,-0.1024261862039566,0.03833829239010811,-0.018501564860343933,-0.016594186425209045,-0.007438773289322853,0.01583123579621315
3.6472463607788086,-0.1035706102848053,0.03757534176111221,-0.018501564860343933,-0.016975661739706993,-0.007438773289322853,0.016212711110711098
3.6673710346221924,-0.10433356463909149,0.037193864583969116,-0.018120087683200836,-0.016975661739706993,-0.007438773289322853,0.016594186425209045
3.6874589920043945,-0.10471503436565399,0.037193864583969116,-0.018120087683200836,-0.01735713705420494,-0.007438773289322853,0.016594186425209045
3.7076356410980225,-0.10547798871994019,0.037193864583969116,-0.018120087683200836,-0.01773861236870289,-0.007438773289322853,0.016975661739706993
3.7276597023010254,-0.10624094307422638,0.03681239113211632,-0.018120087683200836,-0.018120087683200836,-0.007438773289322853,0.01735713705420494
3.7477381229400635,-0.10700388997793198,0.03604944050312042,-0.01773861236870289,-0.018120087683200836,-0.007438773289322853,0.01773861236870289
3.767820119857788,-0.10776684433221817,0.03604944050312042,-0.01735713705420494,-0.018120087683200836,-0.0078202486038208,0.018120087683200836
3.788337230682373,-0.10891126841306686,0.035667963325977325,-0.016975661739706993,-0.018120087683200836,-0.007438773289322853,0.018120087683200836
3.808444023132324,-0.10929274559020996,0.03528648987412453,-0.016975661739706993,-0.018120087683200836,-0.0078202486038208,0.018120087683200836
3.8285443782806396,-0.10929274559020996,0.03490501269698143,-0.016975661739706993,-0.018501564860343933,-0.0078202486038208,0.018120087683200836
3.848928928375244,-0.10967422276735306,0.03490501269698143,-0.016975661739706993,-0.018501564860343933,-0.0078202486038208,0.018120087683200836
3.869075298309326,-0.11043716967105865,0.034142062067985535,-0.016594186425209045,-0.018501564860343933,-0.007438773289322853,0.018501564860343933
3.889117956161499,-0.11158160120248795,0.034142062067985535,-0.016594186425209045,-0.018501564860343933,-0.007438773289322853,0.018501564860343933
3.9092020988464355,-0.11196307092905045,0.03376058489084244,-0.016212711110711098,-0.01888304017484188,-0.007438773289322853,0.018501564860343933
3.9292826652526855,-0.11272602528333664,0.03376058489084244,-0.01583123579621315,-0.01888304017484188,-0.0078202486038208,0.018501564860343933
3.9500033855438232,-0.11463340371847153,0.03299763426184654,-0.01583123579621315,-0.01888304017484188,-0.0078202486038208,0.018501564860343933
3.9701247215270996,-0.11501488089561462,0.03299763426184654,-0.01583123579621315,-0.01888304017484188,-0.008201723918318748,0.018501564860343933
3.9902231693267822,-0.11539635062217712,0.032616160809993744,-0.01583123579621315,-0.01888304017484188,-0.008201723918318748,0.018501564860343933
4.010344982147217,-0.11654078215360641,0.03185320645570755,-0.01506828423589468,-0.01926451548933983,-0.008201723918318748,0.01888304017484188
4.030380725860596,-0.11654078215360641,0.03185320645570755,-0.014686808921396732,-0.01926451548933983,-0.0078202486038208,0.01888304017484188
4.050525903701782,-0.11768520623445511,0.03185320645570755,-0.01430533267557621,-0.01926451548933983,-0.008201723918318748,0.01888304017484188
4.070643901824951,-0.1188296303153038,0.031090257689356804,-0.013923857361078262,-0.01926451548933983,-0.0078202486038208,0.01926451548933983
4.090732574462891,-0.11959258466959,0.030708782374858856,-0.013923857361078262,-0.01926451548933983,-0.008201723918318748,0.01926451548933983
4.110823631286621,-0.1203555315732956,0.02994582988321781,-0.013923857361078262,-0.01926451548933983,-0.008201723918318748,0.019645990803837776
4.130886554718018,-0.12111848592758179,0.02994582988321781,-0.013923857361078262,-0.019645990803837776,-0.00858320016413927,0.019645990803837776
4.150979280471802,-0.12188144028186798,0.02994582988321781,-0.013542382046580315,-0.019645990803837776,-0.00858320016413927,0.019645990803837776
4.171045303344727,-0.12226291000843048,0.029564354568719864,-0.013160906732082367,-0.019645990803837776,-0.009346150793135166,0.020027466118335724
4.191101312637329,-0.12302586436271667,0.029182879254221916,-0.012779430486261845,-0.020027466118335724,-0.008964675478637218,0.020027466118335724
4.211199045181274,-0.12417028844356537,0.02880140393972397,-0.01201647985726595,-0.020027466118335724,-0.008964675478637218,0.020027466118335724
4.231328248977661,-0.12417028844356537,0.02880140393972397,-0.01201647985726595,-0.02040894143283367,-0.008964675478637218,0.020027466118335724
4.251544713973999,-0.12493324279785156,0.028038453310728073,-0.01201647985726595,-0.02040894143283367,-0.009346150793135166,0.02040894143283367
4.271641731262207,-0.12645913660526276,0.027656977996230125,-0.011635004542768002,-0.02079041674733162,-0.008964675478637218,0.02040894143283367
4.291698694229126,-0.12722209095954895,0.02727550081908703,-0.011635004542768002,-0.021171892061829567,-0.009346150793135166,0.02079041674733162
4.311790704727173,-0.12798504531383514,0.02689402550458908,-0.011635004542768002,-0.021171892061829567,-0.009346150793135166,0.021553369238972664
4.331870079040527,-0.12912946939468384,0.02689402550458908,-0.011635004542768002,-0.021553369238972664,-0.009346150793135166,0.021553369238972664
4.351953029632568,-0.12912946939468384,0.02689402550458908,-0.011635004542768002,-0.02193484455347061,-0.009727626107633114,0.02193484455347061
4.372157573699951,-0.12989242374897003,0.026131074875593185,-0.010872052982449532,-0.02193484455347061,-0.010490577667951584,0.02193484455347061
4.392123699188232,-0.13103684782981873,0.025749599561095238,-0.010490577667951584,-0.02193484455347061,-0.010109102353453636,0.02231631986796856
4.412293910980225,-0.13141833245754242,0.02536812424659729,-0.010490577667951584,-0.02193484455347061,-0.010490577667951584,0.02231631986796856
4.432346820831299,-0.13141833245754242,0.024986648932099342,-0.010109102353453636,-0.02193484455347061,-0.010490577667951584,0.02231631986796856
4.4524617195129395,-0.13218127191066742,0.024986648932099342,-0.010109102353453636,-0.02231631986796856,-0.010872052982449532,0.02231631986796856
4.472535610198975,-0.1333257108926773,0.024605173617601395,-0.009727626107633114,-0.02231631986796856,-0.010490577667951584,0.02231631986796856
4.492587566375732,-0.1337071806192398,0.024605173617601395,-0.009727626107633114,-0.02231631986796856,-0.010490577667951584,0.022697795182466507
4.512683629989624,-0.134470134973526,0.024223696440458298,-0.009727626107633114,-0.02231631986796856,-0.010490577667951584,0.022697795182466507
4.532914638519287,-0.1356145590543747,0.023460745811462402,-0.009346150793135166,-0.02231631986796856,-0.010490577667951584,0.022697795182466507
4.552867412567139,-0.1363775134086609,0.022697795182466507,-0.009346150793135166,-0.022697795182466507,-0.010490577667951584,0.022697795182466507
4.57300877571106,-0.1367589831352234,0.022697795182466507,-0.009346150793135166,-0.022697795182466507,-0.01125352829694748,0.023079270496964455
4.593034029006958,-0.1371404528617859,0.022697795182466507,-0.009346150793135166,-0.022697795182466507,-0.01125352829694748,0.023079270496964455
4.613186597824097,-0.13866636157035828,0.02231631986796856,-0.00858320016413927,-0.022697795182466507,-0.01125352829694748,0.023079270496964455
4.633279085159302,-0.13866636157035828,0.021553369238972664,-0.0078202486038208,-0.022697795182466507,-0.010872052982449532,0.023079270496964455
4.653457403182983,-0.13942931592464447,0.021553369238972664,-0.0078202486038208,-0.022697795182466507,-0.010872052982449532,0.023460745811462402
4.673534631729126,-0.14057374000549316,0.021171892061829567,-0.0078202486038208,-0.022697795182466507,-0.010872052982449532,0.02384222112596035
4.693682909011841,-0.14171816408634186,0.02040894143283367,-0.007438773289322853,-0.023079270496964455,-0.010872052982449532,0.02384222112596035
4.713850975036621,-0.14248111844062805,0.020027466118335724,-0.007438773289322853,-0.023079270496964455,-0.010872052982449532,0.024223696440458298
4.733874320983887,-0.14324407279491425,0.019645990803837776,-0.007438773289322853,-0.023079270496964455,-0.01125352829694748,0.024986648932099342
4.753948450088501,-0.14400701224803925,0.019645990803837776,-0.007057297509163618,-0.023079270496964455,-0.01125352829694748,0.026131074875593185
4.774029016494751,-0.14438849687576294,0.01926451548933983,-0.00667582219466567,-0.023079270496964455,-0.011635004542768002,0.026131074875593185
4.7940754890441895,-0.14553292095661163,0.018501564860343933,-0.006294346414506435,-0.023079270496964455,-0.01125352829694748,0.026131074875593185
4.814159870147705,-0.14629587531089783,0.018120087683200836,-0.006294346414506435,-0.023460745811462402,-0.01125352829694748,0.026131074875593185
4.834223747253418,-0.14629587531089783,0.018120087683200836,-0.006294346414506435,-0.023460745811462402,-0.01125352829694748,0.026131074875593185
4.854491472244263,-0.14744029939174652,0.01773861236870289,-0.006294346414506435,-0.023460745811462402,-0.011635004542768002,0.026512550190091133
4.874640226364136,-0.14820325374603271,0.01735713705420494,-0.005912871100008488,-0.02384222112596035,-0.01125352829694748,0.026512550190091133
4.894784688949585,-0.14858472347259521,0.01735713705420494,-0.005531395319849253,-0.02384222112596035,-0.011635004542768002,0.026512550190091133
4.91482138633728,-0.1493476778268814,0.016975661739706993,-0.005531395319849253,-0.024223696440458298,-0.011635004542768002,0.026512550190091133
4.934952259063721,-0.1501106321811676,0.016212711110711098,-0.005149920005351305,-0.024223696440458298,-0.01125352829694748,0.026512550190091133
4.954971551895142,-0.1512550562620163,0.016212711110711098,-0.005149920005351305,-0.024605173617601395,-0.011635004542768002,0.026512550190091133
4.975046873092651,-0.152399480342865,0.015449759550392628,-0.004386968910694122,-0.024986648932099342,-0.011635004542768002,0.02689402550458908
4.99515175819397,-0.15316243469715118,0.01506828423589468,-0.004386968910694122,-0.02536812424659729,-0.011635004542768002,0.02689402550458908
5.015575170516968,-0.15316243469715118,0.015449759550392628,-0.004386968910694122,-0.02536812424659729,-0.012397955171763897,0.02689402550458908
5.035757303237915,-0.15392538905143738,0.01430533267557621,-0.004005493130534887,-0.02536812424659729,-0.012779430486261845,0.02727550081908703
5.056100368499756,-0.15506981313228607,0.01430533267557621,-0.0036240178160369396,-0.025749599561095238,-0.013160906732082367,0.02727550081908703
5.076193809509277,-0.15621423721313477,0.013160906732082367,-0.0036240178160369396,-0.025749599561095238,-0.012779430486261845,0.02727550081908703
5.0963358879089355,-0.15697719156742096,0.013160906732082367,-0.0032425422687083483,-0.025749599561095238,-0.013542382046580315,0.027656977996230125
5.116427421569824,-0.15812161564826965,0.012397955171763897,-0.002861066721379757,-0.025749599561095238,-0.013542382046580315,0.028038453310728073
5.136497974395752,-0.15850308537483215,0.012397955171763897,-0.0024795911740511656,-0.025749599561095238,-0.014686808921396732,0.02880140393972397
5.156585693359375,-0.16002899408340454,0.011635004542768002,-0.0020981156267225742,-0.025749599561095238,-0.014686808921396732,0.029182879254221916
5.176662445068359,-0.16079194843769073,0.010872052982449532,-0.001716639962978661,-0.026131074875593185,-0.01506828423589468,0.029182879254221916
5.197368860244751,-0.16155488789081573,0.010872052982449532,-0.001716639962978661,-0.026131074875593185,-0.014686808921396732,0.029564354568719864
5.217522621154785,-0.16269932687282562,0.010109102353453636,-0.0013351644156500697,-0.026131074875593185,-0.014686808921396732,0.029564354568719864
5.237688064575195,-0.16308079659938812,0.010109102353453636,-0.0013351644156500697,-0.026131074875593185,-0.014686808921396732,0.029564354568719864
5.257683038711548,-0.16384375095367432,0.010109102353453636,-0.0013351644156500697,-0.026131074875593185,-0.014686808921396732,0.029564354568719864
5.277836799621582,-0.164988175034523,0.009727626107633114,-0.000572213320992887,-0.026512550190091133,-0.014686808921396732,0.02994582988321781
5.298014163970947,-0.1657511293888092,0.008964675478637218,-0.00019073777366429567,-0.026512550190091133,-0.014686808921396732,0.02994582988321781
5.318202972412109,-0.1668955534696579,0.008201723918318748,0.00019073777366429567,-0.026512550190091133,-0.01506828423589468,0.02994582988321781
5.338258504867554,-0.1676585078239441,0.008201723918318748,0.000572213320992887,-0.026512550190091133,-0.01506828423589468,0.02994582988321781
5.358500242233276,-0.1680399775505066,0.0078202486038208,0.000572213320992887,-0.026512550190091133,-0.01506828423589468,0.02994582988321781
5.378626346588135,-0.1684214472770691,0.007438773289322853,0.0009536888683214784,-0.02689402550458908,-0.01506828423589468,0.02994582988321781
5.398683786392212,-0.16880293190479279,0.007057297509163618,0.0009536888683214784,-0.02689402550458908,-0.01506828423589468,0.03032730519771576
5.419181823730469,-0.16994735598564148,0.00667582219466567,0.0013351644156500697,-0.02689402550458908,-0.01430533267557621,0.03032730519771576
5.454244375228882,-0.17223620414733887,0.005531395319849253,0.0020981156267225742,-0.02689402550458908,-0.01506828423589468,0.03032730519771576
5.474380016326904,-0.1825360506772995,-0.0009536888683214784,0.00667582219466567,-0.027656977996230125,-0.012779430486261845,0.03185320645570755
5.49443244934082,-0.18863965570926666,-0.0032425422687083483,0.008201723918318748,-0.029182879254221916,-0.008964675478637218,0.03452353551983833
5.514493942260742,-0.18863965570926666,-0.005531395319849253,0.008201723918318748,-0.02994582988321781,-0.014686808921396732,0.034142062067985535
5.534653902053833,-0.18863965570926666,-0.004386968910694122,0.0078202486038208,-0.029564354568719864,-0.021553369238972664,0.03528648987412453
5.554700136184692,-0.19016556441783905,-0.004386968910694122,0.0078202486038208,-0.02994582988321781,-0.021553369238972664,0.037193864583969116
5.574790000915527,-0.19054703414440155,-0.00476844422519207,0.008201723918318748,-0.02994582988321781,-0.02079041674733162,0.037193864583969116
5.5948426723480225,-0.19054703414440155,-0.005149920005351305,0.00858320016413927,-0.02994582988321781,-0.018120087683200836,0.037193864583969116
5.614907264709473,-0.19092851877212524,-0.005531395319849253,0.00858320016413927,-0.02994582988321781,-0.016594186425209045,0.037193864583969116
5.635021686553955,-0.19169145822525024,-0.00667582219466567,0.008964675478637218,-0.02994582988321781,-0.012779430486261845,0.037193864583969116
5.6550750732421875,-0.19169145822525024,-0.00667582219466567,0.008964675478637218,-0.02994582988321781,-0.012397955171763897,0.037193864583969116
5.67516827583313,-0.19321736693382263,-0.007057297509163618,0.008964675478637218,-0.03032730519771576,-0.01201647985726595,0.037193864583969116
5.695277690887451,-0.19474326074123383,-0.007438773289322853,0.009346150793135166,-0.03032730519771576,-0.013923857361078262,0.03757534176111221
5.716311693191528,-0.1966506391763687,-0.0078202486038208,0.010109102353453636,-0.03032730519771576,-0.015449759550392628,0.03757534176111221
5.736412763595581,-0.1970321238040924,-0.008201723918318748,0.010490577667951584,-0.03032730519771576,-0.015449759550392628,0.03757534176111221
5.756538391113281,-0.1974135935306549,-0.008964675478637218,0.010872052982449532,-0.03032730519771576,-0.01735713705420494,0.03757534176111221
5.7765796184539795,-0.1989395022392273,-0.009727626107633114,0.010872052982449532,-0.03032730519771576,-0.016594186425209045,0.03757534176111221
5.796655178070068,-0.200083926320076,-0.010109102353453636,0.01125352829694748,-0.030708782374858856,-0.016975661739706993,0.03757534176111221
5.816991329193115,-0.20122835040092468,-0.010872052982449532,0.01125352829694748,-0.030708782374858856,-0.016594186425209045,0.03757534176111221
5.837103366851807,-0.20275425910949707,-0.01201647985726595,0.01201647985726595,-0.030708782374858856,-0.015449759550392628,0.03795681521296501
5.857176303863525,-0.20351719856262207,-0.01201647985726595,0.012397955171763897,-0.031090257689356804,-0.01430533267557621,0.03795681521296501
5.877298355102539,-0.20389868319034576,-0.011635004542768002,0.012397955171763897,-0.03147173300385475,-0.01506828423589468,0.03795681521296501
5.897420406341553,-0.20428015291690826,-0.01201647985726595,0.012779430486261845,-0.03147173300385475,-0.015449759550392628,0.03795681521296501
5.917581558227539,-0.20542457699775696,-0.012779430486261845,0.013160906732082367,-0.03147173300385475,-0.015449759550392628,0.03833829239010811
5.937766790390015,-0.20656901597976685,-0.01430533267557621,0.013542382046580315,-0.03185320645570755,-0.015449759550392628,0.03833829239010811
5.9577836990356445,-0.20733195543289185,-0.013923857361078262,0.013542382046580315,-0.032616160809993744,-0.015449759550392628,0.038719769567251205
5.978155612945557,-0.20847637951374054,-0.01430533267557621,0.013923857361078262,-0.03299763426184654,-0.014686808921396732,0.038719769567251205
5.998325347900391,-0.20962081849575043,-0.01506828423589468,0.01430533267557621,-0.03299763426184654,-0.01506828423589468,0.038719769567251205
6.018324136734009,-0.21076524257659912,-0.01583123579621315,0.014686808921396732,-0.03337911143898964,-0.01506828423589468,0.039101243019104004
6.038407802581787,-0.21152819693088531,-0.016212711110711098,0.01506828423589468,-0.03337911143898964,-0.015449759550392628,0.0394827201962471
6.0585243701934814,-0.21190966665744781,-0.016975661739706993,0.015449759550392628,-0.03337911143898964,-0.01583123579621315,0.0398641936480999
6.07858943939209,-0.2134355753660202,-0.016975661739706993,0.015449759550392628,-0.03337911143898964,-0.01583123579621315,0.040627144277095795
6.098726272583008,-0.2145799994468689,-0.01773861236870289,0.015449759550392628,-0.03376058489084244,-0.015449759550392628,0.04100862145423889
6.1187825202941895,-0.2153429538011551,-0.018120087683200836,0.016212711110711098,-0.03376058489084244,-0.01430533267557621,0.04100862145423889
6.138917684555054,-0.21686884760856628,-0.01926451548933983,0.016975661739706993,-0.03376058489084244,-0.014686808921396732,0.04100862145423889
6.158954858779907,-0.21801327168941498,-0.019645990803837776,0.01735713705420494,-0.03376058489084244,-0.01506828423589468,0.04139009863138199
6.179197549819946,-0.21839475631713867,-0.019645990803837776,0.01735713705420494,-0.034142062067985535,-0.01583123579621315,0.04139009863138199
6.199310541152954,-0.21953918039798737,-0.021171892061829567,0.01773861236870289,-0.034142062067985535,-0.01583123579621315,0.04177157208323479
6.219374179840088,-0.22030213475227356,-0.021553369238972664,0.018501564860343933,-0.034142062067985535,-0.01583123579621315,0.04177157208323479
6.239476442337036,-0.22106507420539856,-0.02231631986796856,0.018501564860343933,-0.034142062067985535,-0.01506828423589468,0.04177157208323479
6.259557247161865,-0.22259098291397095,-0.023079270496964455,0.01926451548933983,-0.03452353551983833,-0.014686808921396732,0.04177157208323479
6.279629707336426,-0.22373540699481964,-0.023460745811462402,0.01926451548933983,-0.03452353551983833,-0.01506828423589468,0.042153049260377884
6.2997047901153564,-0.22411687672138214,-0.023460745811462402,0.019645990803837776,-0.03490501269698143,-0.01506828423589468,0.04253452271223068
6.319788694381714,-0.22602425515651703,-0.024223696440458298,0.020027466118335724,-0.03490501269698143,-0.01506828423589468,0.04291599988937378
6.33986759185791,-0.2283131182193756,-0.025749599561095238,0.02079041674733162,-0.03528648987412453,-0.015449759550392628,0.043678950518369675
6.360206365585327,-0.2302204966545105,-0.026512550190091133,0.021171892061829567,-0.035667963325977325,-0.01583123579621315,0.04444190114736557
6.380295753479004,-0.2313649207353592,-0.02689402550458908,0.02193484455347061,-0.03643091395497322,-0.01583123579621315,0.04482337832450867
6.400474786758423,-0.23250934481620789,-0.027656977996230125,0.02193484455347061,-0.03681239113211632,-0.015449759550392628,0.04482337832450867
6.420500993728638,-0.23327229917049408,-0.02880140393972397,0.022697795182466507,-0.03681239113211632,-0.015449759550392628,0.04482337832450867
6.440632343292236,-0.23403525352478027,-0.029564354568719864,0.022697795182466507,-0.03681239113211632,-0.015449759550392628,0.04482337832450867
6.46071982383728,-0.23594263195991516,-0.031090257689356804,0.023079270496964455,-0.037193864583969116,-0.015449759550392628,0.045204851776361465
6.4809041023254395,-0.23708705604076385,-0.031090257689356804,0.023460745811462402,-0.037193864583969116,-0.014686808921396732,0.045204851776361465
6.500992298126221,-0.23861294984817505,-0.03185320645570755,0.024223696440458298,-0.037193864583969116,-0.014686808921396732,0.045204851776361465
6.521054267883301,-0.24013885855674744,-0.032616160809993744,0.024605173617601395,-0.037193864583969116,-0.015449759550392628,0.04558632895350456
6.541145086288452,-0.24128328263759613,-0.03376058489084244,0.024986648932099342,-0.03757534176111221,-0.01583123579621315,0.04558632895350456
6.561249494552612,-0.24166475236415863,-0.034142062067985535,0.02536812424659729,-0.03757534176111221,-0.01583123579621315,0.04558632895350456
6.581291675567627,-0.24280919134616852,-0.03490501269698143,0.02536812424659729,-0.03757534176111221,-0.01583123579621315,0.04596780240535736
6.601393222808838,-0.2447165697813034,-0.03604944050312042,0.025749599561095238,-0.03757534176111221,-0.015449759550392628,0.04596780240535736
6.621531248092651,-0.2458609938621521,-0.03681239113211632,0.026131074875593185,-0.03757534176111221,-0.01506828423589468,0.04634927958250046
6.641595840454102,-0.2473868876695633,-0.03833829239010811,0.02689402550458908,-0.03795681521296501,-0.014686808921396732,0.046730753034353256
6.6617209911346436,-0.2481498420238495,-0.038719769567251205,0.02727550081908703,-0.03795681521296501,-0.01506828423589468,0.04749370738863945
6.681848764419556,-0.24967575073242188,-0.0398641936480999,0.028038453310728073,-0.03833829239010811,-0.015449759550392628,0.048638131469488144
6.7019734382629395,-0.25120165944099426,-0.04100862145423889,0.02880140393972397,-0.03833829239010811,-0.01583123579621315,0.048638131469488144
6.721992492675781,-0.25272753834724426,-0.04139009863138199,0.029182879254221916,-0.03833829239010811,-0.015449759550392628,0.04901960864663124
6.7420923709869385,-0.25425344705581665,-0.042153049260377884,0.029564354568719864,-0.03833829239010811,-0.015449759550392628,0.04901960864663124
6.7621519565582275,-0.25501641631126404,-0.04329747334122658,0.02994582988321781,-0.038719769567251205,-0.015449759550392628,0.04901960864663124
6.782303094863892,-0.25616082549095154,-0.04406042397022247,0.031090257689356804,-0.039101243019104004,-0.015449759550392628,0.04940108209848404
6.802356719970703,-0.2573052644729614,-0.045204851776361465,0.03147173300385475,-0.0394827201962471,-0.014686808921396732,0.04940108209848404
6.822509765625,-0.2595941126346588,-0.046730753034353256,0.03185320645570755,-0.040627144277095795,-0.014686808921396732,0.049782559275627136
6.8426244258880615,-0.2611200213432312,-0.04787518084049225,0.03223468363285065,-0.04100862145423889,-0.014686808921396732,0.050164032727479935
6.862672328948975,-0.2622644305229187,-0.048256658017635345,0.03299763426184654,-0.04139009863138199,-0.01506828423589468,0.05054550990462303
6.8827595710754395,-0.2641718089580536,-0.049782559275627136,0.034142062067985535,-0.04139009863138199,-0.015449759550392628,0.051689937710762024
6.9029459953308105,-0.26684215664863586,-0.05092698708176613,0.034142062067985535,-0.04139009863138199,-0.01583123579621315,0.05245288833975792
6.923039674758911,-0.26798656582832336,-0.051689937710762024,0.03528648987412453,-0.04139009863138199,-0.01506828423589468,0.05245288833975792
6.943265914916992,-0.26913100481033325,-0.05283436179161072,0.035667963325977325,-0.04177157208323479,-0.014686808921396732,0.05283436179161072
6.963303804397583,-0.27065691351890564,-0.054741740226745605,0.037193864583969116,-0.04177157208323479,-0.01506828423589468,0.053215838968753815
6.9833691120147705,-0.2725642919540405,-0.0555046908557415,0.037193864583969116,-0.04177157208323479,-0.014686808921396732,0.053215838968753815
7.003442764282227,-0.2748531401157379,-0.05703059583902359,0.03795681521296501,-0.042153049260377884,-0.014686808921396732,0.05359731614589691
7.023542642593384,-0.2763790488243103,-0.057793546468019485,0.03795681521296501,-0.04253452271223068,-0.014686808921396732,0.05397878959774971
7.0436012744903564,-0.2790493667125702,-0.05970092490315437,0.039101243019104004,-0.04253452271223068,-0.015449759550392628,0.05436026677489281
7.063727378845215,-0.2805752754211426,-0.061226826161146164,0.0394827201962471,-0.04291599988937378,-0.015449759550392628,0.0555046908557415
7.083743572235107,-0.2817196846008301,-0.06275273114442825,0.0398641936480999,-0.04329747334122658,-0.01506828423589468,0.0558861680328846
7.1038818359375,-0.28362706303596497,-0.06427863240242004,0.040245670825242996,-0.043678950518369675,-0.01506828423589468,0.056267641484737396
7.124021768569946,-0.28515297174453735,-0.06542305648326874,0.04139009863138199,-0.04406042397022247,-0.01506828423589468,0.056267641484737396
7.144243955612183,-0.28629741072654724,-0.06694895774126053,0.04177157208323479,-0.04444190114736557,-0.01506828423589468,0.05664911866188049
7.1643640995025635,-0.28858625888824463,-0.06961929053068161,0.04291599988937378,-0.04444190114736557,-0.014686808921396732,0.05664911866188049
7.184473037719727,-0.290875107049942,-0.0711451917886734,0.04329747334122658,-0.04482337832450867,-0.014686808921396732,0.05664911866188049
7.20454740524292,-0.2920195460319519,-0.07267109304666519,0.04406042397022247,-0.04482337832450867,-0.014686808921396732,0.05703059583902359
7.224659204483032,-0.2931639552116394,-0.07343403995037079,0.04444190114736557,-0.04482337832450867,-0.01506828423589468,0.05741206929087639
7.244709730148315,-0.2950713336467743,-0.07534141838550568,0.04596780240535736,-0.04482337832450867,-0.01506828423589468,0.057793546468019485
7.264794588088989,-0.2977416515350342,-0.07763027399778366,0.04749370738863945,-0.04482337832450867,-0.01430533267557621,0.05855649709701538
7.28499174118042,-0.29926756024360657,-0.08068207651376724,0.048256658017635345,-0.045204851776361465,-0.014686808921396732,0.05970092490315437
7.305147409439087,-0.30041199922561646,-0.08258945494890213,0.04901960864663124,-0.045204851776361465,-0.014686808921396732,0.06046387553215027
7.325185537338257,-0.30155640840530396,-0.08373387902975082,0.049782559275627136,-0.045204851776361465,-0.01506828423589468,0.06084534898400307
7.345300674438477,-0.30422675609588623,-0.08564125746488571,0.05054550990462303,-0.045204851776361465,-0.013923857361078262,0.06084534898400307
7.365353584289551,-0.3057526648044586,-0.0875486359000206,0.05207141116261482,-0.04558632895350456,-0.01430533267557621,0.061226826161146164
7.385430097579956,-0.3076600432395935,-0.08983749151229858,0.05245288833975792,-0.04558632895350456,-0.014686808921396732,0.06160829961299896
7.405553817749023,-0.3103303611278534,-0.09250781685113907,0.05397878959774971,-0.04558632895350456,-0.01430533267557621,0.06313420087099075
7.42564845085144,-0.3118562698364258,-0.09365224838256836,0.054741740226745605,-0.04596780240535736,-0.013160906732082367,0.06389715522527695
7.4456915855407715,-0.3133821487426758,-0.09594109654426575,0.0555046908557415,-0.04596780240535736,-0.013542382046580315,0.06389715522527695
7.465831756591797,-0.31528952717781067,-0.09899290651082993,0.05664911866188049,-0.04596780240535736,-0.013923857361078262,0.06389715522527695
7.48586630821228,-0.31872281432151794,-0.10204470902681351,0.05703059583902359,-0.04634927958250046,-0.01430533267557621,0.06427863240242004
7.50596809387207,-0.3213931620121002,-0.10433356463909149,0.058175019919872284,-0.04634927958250046,-0.013923857361078262,0.06466010212898254
7.526076316833496,-0.3221561014652252,-0.10509651154279709,0.059319447726011276,-0.046730753034353256,-0.013923857361078262,0.06466010212898254
7.546101808547974,-0.3236820101737976,-0.10624094307422638,0.06008239835500717,-0.046730753034353256,-0.013923857361078262,0.06504157930612564
7.566193342208862,-0.325970858335495,-0.10891126841306686,0.06160829961299896,-0.04749370738863945,-0.013923857361078262,0.06542305648326874
7.586313247680664,-0.3286411762237549,-0.11272602528333664,0.06313420087099075,-0.04787518084049225,-0.013542382046580315,0.06618601083755493
7.606396198272705,-0.33169299364089966,-0.11654078215360641,0.06504157930612564,-0.048638131469488144,-0.012779430486261845,0.06771191209554672
7.6264708042144775,-0.33398184180259705,-0.1192111074924469,0.06733043491840363,-0.048638131469488144,-0.01201647985726595,0.06809338182210922
7.646591424942017,-0.33550775051116943,-0.12111848592758179,0.06771191209554672,-0.04901960864663124,-0.01201647985726595,0.06847485899925232
7.666714906692505,-0.3389410376548767,-0.12531471252441406,0.0707637146115303,-0.04901960864663124,-0.01125352829694748,0.06923781335353851
7.686745643615723,-0.3423742949962616,-0.13065537810325623,0.0715266615152359,-0.04940108209848404,-0.010490577667951584,0.0707637146115303
7.706840991973877,-0.34542611241340637,-0.135233074426651,0.07457847148180008,-0.049782559275627136,-0.010490577667951584,0.0711451917886734
7.726904392242432,-0.34771496057510376,-0.13790340721607208,0.07534141838550568,-0.049782559275627136,-0.0078202486038208,0.071908138692379
7.746987342834473,-0.35229265689849854,-0.14362554252147675,0.07839322835206985,-0.05054550990462303,-0.007057297509163618,0.071908138692379
7.767130136489868,-0.3568703830242157,-0.1516365259885788,0.08030059933662415,-0.05130846053361893,-0.00667582219466567,0.0722896158695221
7.787652492523193,-0.3614480793476105,-0.15812161564826965,0.08258945494890213,-0.05207141116261482,-0.007057297509163618,0.07305257022380829
7.80774998664856,-0.36488136649131775,-0.16384375095367432,0.08525978773832321,-0.05207141116261482,-0.007438773289322853,0.07419699430465698
7.8278491497039795,-0.36640727519989014,-0.1665140837430954,0.0864042118191719,-0.05207141116261482,-0.007057297509163618,0.07534141838550568
7.847937107086182,-0.3702220320701599,-0.17261768877506256,0.08945601433515549,-0.05245288833975792,-0.007057297509163618,0.07572289556264877
7.868098735809326,-0.3736552894115448,-0.1810101419687271,0.09250781685113907,-0.05245288833975792,-0.00667582219466567,0.07610437273979187
7.888237953186035,-0.3778515160083771,-0.19016556441783905,0.09517814964056015,-0.05283436179161072,-0.006294346414506435,0.07724879682064056
7.9083030223846436,-0.37975889444351196,-0.19512474536895752,0.09937438368797302,-0.05283436179161072,-0.0036240178160369396,0.07915617525577545
7.928340911865234,-0.38281071186065674,-0.200083926320076,0.1024261862039566,-0.05283436179161072,-0.0032425422687083483,0.07953765243291855
7.948435068130493,-0.3858625292778015,-0.20771344006061554,0.10738536715507507,-0.05283436179161072,-0.002861066721379757,0.08030059933662415
7.968555212020874,-0.3892957866191864,-0.21686884760856628,0.10967422276735306,-0.053215838968753815,-0.0020981156267225742,0.08182650804519653
7.988617658615112,-0.3931105434894562,-0.22678720951080322,0.11463340371847153,-0.053215838968753815,-0.0013351644156500697,0.08258945494890213
8.008750200271606,-0.39501792192459106,-0.23365376889705658,0.11959258466959,-0.05359731614589691,-0.00019073777366429567,0.08335240930318832
8.02878737449646,-0.39845120906829834,-0.24090181291103363,0.12417028844356537,-0.05397878959774971,0.0013351644156500697,0.08449683338403702
8.048923015594482,-0.4026474356651306,-0.25349050760269165,0.13179980218410492,-0.05436026677489281,0.0013351644156500697,0.08602273464202881
8.068976640701294,-0.4072251319885254,-0.26951247453689575,0.1359960287809372,-0.0551232174038887,0.0020981156267225742,0.0871671661734581
8.089139699935913,-0.41294726729393005,-0.28744181990623474,0.14515145123004913,-0.0558861680328846,0.000572213320992887,0.08907453715801239
8.109232425689697,-0.41676202416419983,-0.29850462079048157,0.15392538905143738,-0.056267641484737396,0.001716639962978661,0.09136339277029037
8.129298686981201,-0.4198138415813446,-0.308804452419281,0.16117341816425323,-0.056267641484737396,0.0020981156267225742,0.09212634712457657
8.149383544921875,-0.42553597688674927,-0.3282597064971924,0.17223620414733887,-0.056267641484737396,0.002861066721379757,0.09327077120542526
8.169509410858154,-0.43125811219215393,-0.34885939955711365,0.1825360506772995,-0.05664911866188049,0.0036240178160369396,0.09479667246341705
8.189578294754028,-0.4362172782421112,-0.3686961233615875,0.19321736693382263,-0.05703059583902359,0.0032425422687083483,0.09594109654426575
8.209671020507812,-0.4377431869506836,-0.37975889444351196,0.20313572883605957,-0.05703059583902359,0.002861066721379757,0.09861142933368683
8.229743719100952,-0.44079500436782837,-0.3923476040363312,0.2138170450925827,-0.05703059583902359,0.0032425422687083483,0.09899290651082993
8.249880313873291,-0.44422826170921326,-0.41371023654937744,0.22526131570339203,-0.05741206929087639,0.0032425422687083483,0.09975585341453552
8.269964933395386,-0.44499123096466064,-0.4335469603538513,0.23403525352478027,-0.057793546468019485,0.0036240178160369396,0.10166323184967041
8.290289163589478,-0.44575417041778564,-0.44613564014434814,0.2450980395078659,-0.057793546468019485,0.0036240178160369396,0.1024261862039566
8.310427188873291,-0.44651713967323303,-0.45643550157546997,0.25158312916755676,-0.05855649709701538,0.005149920005351305,0.1035706102848053
8.330546379089355,-0.4488059878349304,-0.4724574685096741,0.2611200213432312,-0.059319447726011276,0.008201723918318748,0.10585946589708328
8.350620746612549,-0.4491874575614929,-0.49114975333213806,0.266460657119751,-0.059319447726011276,0.009727626107633114,0.10624094307422638
8.37081241607666,-0.4491874575614929,-0.5018310546875,0.2756160795688629,-0.05970092490315437,0.009727626107633114,0.10814831405878067
8.390792846679688,-0.4491874575614929,-0.5106050372123718,0.28324559330940247,-0.06008239835500717,0.01201647985726595,0.10967422276735306
8.41088604927063,-0.4491874575614929,-0.5197604298591614,0.2931639552116394,-0.06008239835500717,0.01201647985726595,0.11005569249391556
8.43095350265503,-0.4491874575614929,-0.5273899435997009,0.29964902997016907,-0.06046387553215027,0.012779430486261845,0.11081864684820175
8.451042413711548,-0.4491874575614929,-0.5350194573402405,0.308041512966156,-0.06046387553215027,0.013160906732082367,0.11310750246047974
8.471114873886108,-0.4499503970146179,-0.54112309217453,0.31528952717781067,-0.06046387553215027,0.01506828423589468,0.11425192654132843
8.491165399551392,-0.4507133662700653,-0.5476081371307373,0.32024872303009033,-0.06046387553215027,0.018120087683200836,0.11730372905731201
8.511295795440674,-0.4510948359966278,-0.5560005903244019,0.3286411762237549,-0.06046387553215027,0.01926451548933983,0.11768520623445511
8.531337976455688,-0.4510948359966278,-0.5621042251586914,0.33398184180259705,-0.06046387553215027,0.01926451548933983,0.1180666834115982
8.552060842514038,-0.4510948359966278,-0.5685893297195435,0.3400854468345642,-0.061226826161146164,0.020027466118335724,0.1188296303153038
8.572249412536621,-0.4510948359966278,-0.5754558444023132,0.34771496057510376,-0.06084534898400307,0.02079041674733162,0.1203555315732956
8.592273950576782,-0.4510948359966278,-0.5815594792366028,0.3545815348625183,-0.061226826161146164,0.023079270496964455,0.12149996310472488
8.612351179122925,-0.4514763057231903,-0.5895704627037048,0.36259251832962036,-0.061226826161146164,0.02536812424659729,0.12302586436271667
8.63249659538269,-0.4518577754497528,-0.5960555672645569,0.36793315410614014,-0.06198977679014206,0.026512550190091133,0.12417028844356537
8.652515411376953,-0.4522392749786377,-0.6044480204582214,0.3759441375732422,-0.06237125024199486,0.02727550081908703,0.12493324279785156
8.672608852386475,-0.4530022144317627,-0.612840473651886,0.38281071186065674,-0.06275273114442825,0.02880140393972397,0.12569619715213776
8.692667245864868,-0.4533836841583252,-0.622377336025238,0.3904402256011963,-0.06351567804813385,0.029564354568719864,0.12722209095954895
8.712765216827393,-0.4537651538848877,-0.6311513185501099,0.3995956480503082,-0.06351567804813385,0.02994582988321781,0.12836651504039764
8.732848167419434,-0.4541466534137726,-0.6372548937797546,0.404936283826828,-0.06389715522527695,0.03032730519771576,0.12951095402240753
8.752967834472656,-0.4549095928668976,-0.6441214680671692,0.41180285811424255,-0.06389715522527695,0.03032730519771576,0.13103684782981873
8.773078680038452,-0.4552910625934601,-0.650225043296814,0.4182879328727722,-0.06427863240242004,0.03032730519771576,0.13218127191066742
8.793167114257812,-0.4552910625934601,-0.6578545570373535,0.4243915379047394,-0.06466010212898254,0.030708782374858856,0.1337071806192398
8.81324815750122,-0.4556725323200226,-0.6670100092887878,0.4327840209007263,-0.06427863240242004,0.03185320645570755,0.1356145590543747
8.83338475227356,-0.45643550157546997,-0.6734950542449951,0.438506156206131,-0.06466010212898254,0.03490501269698143,0.1359960287809372
8.853812217712402,-0.45643550157546997,-0.6795986890792847,0.44346532225608826,-0.06466010212898254,0.03528648987412453,0.1367589831352234
8.873945236206055,-0.45643550157546997,-0.6868467330932617,0.4503318965435028,-0.06427863240242004,0.03604944050312042,0.13828489184379578
8.894020795822144,-0.45757991075515747,-0.691805899143219,0.4549095928668976,-0.06466010212898254,0.03757534176111221,0.14057374000549316
8.915077447891235,-0.45757991075515747,-0.6986724734306335,0.45986875891685486,-0.06504157930612564,0.039101243019104004,0.14248111844062805
8.935165405273438,-0.45757991075515747,-0.7059205174446106,0.4667353332042694,-0.06466010212898254,0.0394827201962471,0.14324407279491425
8.955257177352905,-0.45834288001060486,-0.7104982137680054,0.4724574685096741,-0.06504157930612564,0.04139009863138199,0.14400701224803925
8.975685834884644,-0.45834288001060486,-0.7169833183288574,0.47817960381507874,-0.06542305648326874,0.04329747334122658,0.14400701224803925
8.995771169662476,-0.45834288001060486,-0.7227054238319397,0.4854276478290558,-0.06542305648326874,0.04329747334122658,0.14553292095661163
9.015850067138672,-0.45834288001060486,-0.726901650428772,0.4892423748970032,-0.06542305648326874,0.045204851776361465,0.14705882966518402
9.03594183921814,-0.45834288001060486,-0.732623815536499,0.4957274794578552,-0.06542305648326874,0.04596780240535736,0.14744029939174652
9.056092262268066,-0.45834288001060486,-0.7372015118598938,0.501068115234375,-0.06580453366041183,0.04711223021149635,0.14858472347259521
9.076116800308228,-0.45834288001060486,-0.7417792081832886,0.5048828721046448,-0.06656748056411743,0.04940108209848404,0.1504921019077301
9.096196174621582,-0.45872434973716736,-0.7478827834129333,0.5121309161186218,-0.06694895774126053,0.05207141116261482,0.1508735716342926
9.116281032562256,-0.45872434973716736,-0.7532234787940979,0.5174715518951416,-0.06733043491840363,0.05283436179161072,0.1512550562620163
9.136339664459229,-0.45910581946372986,-0.7585641145706177,0.5235751867294312,-0.06733043491840363,0.05397878959774971,0.1527809500694275
9.156428575515747,-0.45948728919029236,-0.7646677494049072,0.5312047004699707,-0.06733043491840363,0.0551232174038887,0.15392538905143738
9.176536321640015,-0.46025025844573975,-0.770008385181427,0.5357823967933655,-0.06733043491840363,0.0551232174038887,0.15506981313228607
9.19668436050415,-0.46063172817230225,-0.7761120200157166,0.54264897108078,-0.06771191209554672,0.0555046908557415,0.15583276748657227
9.216797590255737,-0.46063172817230225,-0.7814526557922363,0.5487525463104248,-0.06733043491840363,0.0558861680328846,0.15812161564826965
9.23694658279419,-0.46063172817230225,-0.7875562906265259,0.5548561811447144,-0.06771191209554672,0.0558861680328846,0.16002899408340454
9.257039308547974,-0.46139466762542725,-0.7940413355827332,0.5621042251586914,-0.06771191209554672,0.05664911866188049,0.16155488789081573
9.27719521522522,-0.46177613735198975,-0.7978560924530029,0.5659189820289612,-0.06771191209554672,0.05741206929087639,0.16231784224510193
9.297410726547241,-0.46292057633399963,-0.80357825756073,0.570496678352356,-0.06771191209554672,0.05970092490315437,0.16269932687282562
9.31739091873169,-0.46368351578712463,-0.8085374236106873,0.5754558444023132,-0.06771191209554672,0.06237125024199486,0.16346226632595062
9.337456941604614,-0.46368351578712463,-0.8157854676246643,0.5815594792366028,-0.06809338182210922,0.06237125024199486,0.1661325991153717
9.357585191726685,-0.46368351578712463,-0.8234149813652039,0.5880445837974548,-0.06771191209554672,0.06389715522527695,0.1680399775505066
9.377704620361328,-0.46368351578712463,-0.8272297382354736,0.5922408103942871,-0.06771191209554672,0.06389715522527695,0.16918440163135529
9.397829055786133,-0.46368351578712463,-0.8337147831916809,0.5983443856239319,-0.06771191209554672,0.06427863240242004,0.16994735598564148
9.417888402938843,-0.46368351578712463,-0.838674008846283,0.6025406122207642,-0.06771191209554672,0.06466010212898254,0.16994735598564148
9.438612937927246,-0.464446485042572,-0.8432517051696777,0.6067368388175964,-0.06809338182210922,0.06504157930612564,0.17071031033992767
9.458673238754272,-0.465209424495697,-0.8470664620399475,0.6113145351409912,-0.06771191209554672,0.06961929053068161,0.17223620414733887
9.478742599487305,-0.4655908942222595,-0.8520256280899048,0.6147478222846985,-0.06809338182210922,0.071908138692379,0.17338064312934875
9.498817682266235,-0.4655908942222595,-0.8566033244132996,0.6189440488815308,-0.06809338182210922,0.071908138692379,0.17452506721019745
9.518895864486694,-0.4655908942222595,-0.8596551418304443,0.6219958662986755,-0.06809338182210922,0.07343403995037079,0.17566949129104614
9.539089441299438,-0.4655908942222595,-0.8634698987007141,0.6269550919532776,-0.06809338182210922,0.07495994865894318,0.17681391537189484
9.559184789657593,-0.4655908942222595,-0.8676661252975464,0.6326771974563599,-0.06809338182210922,0.07763027399778366,0.17757686972618103
9.579322576522827,-0.4655908942222595,-0.8714808821678162,0.6368734240531921,-0.06809338182210922,0.07877469807863235,0.17795833945274353
9.599690198898315,-0.4655908942222595,-0.8764400482177734,0.6425955891609192,-0.06809338182210922,0.07991912961006165,0.17910276353359222
9.619775772094727,-0.4655908942222595,-0.881017804145813,0.648699164390564,-0.06809338182210922,0.08068207651376724,0.1802472025156021
9.639846086502075,-0.4655908942222595,-0.884069561958313,0.6521324515342712,-0.06809338182210922,0.08144503086805344,0.1810101419687271
9.659921884536743,-0.4655908942222595,-0.8882657885551453,0.6570916175842285,-0.06809338182210922,0.08182650804519653,0.1825360506772995
9.680007696151733,-0.4659723937511444,-0.89131760597229,0.6612878441810608,-0.06771191209554672,0.08182650804519653,0.1848248988389969
9.700187921524048,-0.4663538634777069,-0.8947508931159973,0.6651026010513306,-0.06809338182210922,0.08182650804519653,0.18596932291984558
9.720285892486572,-0.4671168029308319,-0.8993285894393921,0.6708247661590576,-0.06771191209554672,0.08258945494890213,0.18749523162841797
9.740362405776978,-0.4674982726573944,-0.9027618765830994,0.6754024624824524,-0.06809338182210922,0.08335240930318832,0.18825818598270416
9.760552644729614,-0.4678797721862793,-0.9077210426330566,0.6803616285324097,-0.06809338182210922,0.08449683338403702,0.18863965570926666
9.780645847320557,-0.4678797721862793,-0.9115357995033264,0.6849393248558044,-0.06771191209554672,0.08602273464202881,0.19016556441783905
9.800699949264526,-0.4678797721862793,-0.9145876169204712,0.6883726119995117,-0.06809338182210922,0.0864042118191719,0.19245441257953644
9.820789098739624,-0.4678797721862793,-0.9195467829704285,0.692568838596344,-0.06809338182210922,0.0871671661734581,0.19398032128810883
9.840866565704346,-0.4678797721862793,-0.9225986003875732,0.6963835954666138,-0.06771191209554672,0.0875486359000206,0.19550621509552002
9.860975980758667,-0.4682612419128418,-0.9260318875312805,0.699816882610321,-0.06809338182210922,0.08945601433515549,0.1958876997232437
9.88106393814087,-0.4686427116394043,-0.9302281141281128,0.7051575779914856,-0.06771191209554672,0.09174486994743347,0.1966506391763687
9.901119947433472,-0.4690241813659668,-0.9336614012718201,0.7089722752571106,-0.06809338182210922,0.09250781685113907,0.1974135935306549
9.92121696472168,-0.4701686203479767,-0.9374761581420898,0.7131685614585876,-0.06771191209554672,0.09517814964056015,0.1989395022392273
9.941317319869995,-0.4701686203479767,-0.9412909150123596,0.7177462577819824,-0.06771191209554672,0.09670405089855194,0.200083926320076
9.961362600326538,-0.4705500900745392,-0.9435797929763794,0.7207980751991272,-0.06771191209554672,0.09746700525283813,0.20084688067436218
9.98154091835022,-0.4709315598011017,-0.9481574892997742,0.7257572412490845,-0.06771191209554672,0.09784847497940063,0.20313572883605957
10.001562356948853,-0.4709315598011017,-0.9504463076591492,0.7288090586662292,-0.06771191209554672,0.09861142933368683,0.20351719856262207
10.022228956222534,-0.4709315598011017,-0.9546425342559814,0.733386754989624,-0.06771191209554672,0.09937438368797302,0.20428015291690826
10.042304515838623,-0.4709315598011017,-0.959983229637146,0.7391088604927063,-0.06771191209554672,0.10090028494596481,0.20580606162548065
10.062365293502808,-0.4713130295276642,-0.9634165167808533,0.7429236173629761,-0.06771191209554672,0.1028076633810997,0.20733195543289185
10.082452297210693,-0.4720759987831116,-0.968757152557373,0.7482643127441406,-0.06771191209554672,0.10509651154279709,0.20847637951374054
10.10254430770874,-0.4724574685096741,-0.9725719094276428,0.7532234787940979,-0.06771191209554672,0.10662241280078888,0.21114671230316162
10.122589111328125,-0.4728389382362366,-0.9767681360244751,0.7570382356643677,-0.06733043491840363,0.10891126841306686,0.21229113638401031
10.14279842376709,-0.4728389382362366,-0.9824903011322021,0.7623788714408875,-0.06733043491840363,0.10929274559020996,0.2134355753660202
10.162806987762451,-0.4728389382362366,-0.9855420589447021,0.7669565677642822,-0.06733043491840363,0.10929274559020996,0.2145799994468689
10.182860851287842,-0.4728389382362366,-0.9897382855415344,0.770771324634552,-0.06694895774126053,0.10891126841306686,0.2149614691734314
10.203019857406616,-0.4728389382362366,-0.994316041469574,0.7761120200157166,-0.06694895774126053,0.11005569249391556,0.21686884760856628
10.223080396652222,-0.4728389382362366,-0.9969863295555115,0.7784008383750916,-0.06694895774126053,0.11043716967105865,0.21877622604370117
10.243136882781982,-0.4728389382362366,-1.0011825561523438,0.7833600640296936,-0.06694895774126053,0.11196307092905045,0.22068360447883606
10.263222694396973,-0.4728389382362366,-1.0053788423538208,0.7879377603530884,-0.06656748056411743,0.11310750246047974,0.22220951318740845
10.283312320709229,-0.4732204079627991,-1.0091935396194458,0.7917525172233582,-0.06656748056411743,0.11425192654132843,0.22220951318740845
10.303389310836792,-0.4732204079627991,-1.0141527652740479,0.7967116832733154,-0.06618601083755493,0.11577782779932022,0.22297245264053345
10.323471069335938,-0.4732204079627991,-1.0172045230865479,0.8009079098701477,-0.06618601083755493,0.11730372905731201,0.22449836134910583
10.343599557876587,-0.4732204079627991,-1.0210193395614624,0.8047226667404175,-0.06580453366041183,0.1192111074924469,0.22602425515651703
10.36370325088501,-0.4736018776893616,-1.02521550655365,0.8100633025169373,-0.06542305648326874,0.12188144028186798,0.22678720951080322
10.383782863616943,-0.47398337721824646,-1.027885913848877,0.813115119934082,-0.06504157930612564,0.12417028844356537,0.2290760725736618
10.403862237930298,-0.47436484694480896,-1.0320820808410645,0.8173113465309143,-0.06427863240242004,0.12493324279785156,0.2298390120267868
10.42404317855835,-0.47512778639793396,-1.036659836769104,0.8211261034011841,-0.06389715522527695,0.12607766687870026,0.2298390120267868
10.44410228729248,-0.47512778639793396,-1.0393301248550415,0.8241779208183289,-0.06389715522527695,0.12722209095954895,0.230601966381073
10.464311122894287,-0.47512778639793396,-1.043144941329956,0.8279926776885986,-0.06389715522527695,0.12874799966812134,0.23212787508964539
10.484347343444824,-0.47512778639793396,-1.0473411083221436,0.8325703740119934,-0.06351567804813385,0.13027389347553253,0.23327229917049408
10.504516124725342,-0.47512778639793396,-1.051155924797058,0.8363851308822632,-0.06351567804813385,0.13103684782981873,0.23441672325134277
10.524622678756714,-0.47512778639793396,-1.0553520917892456,0.840962827205658,-0.06313420087099075,0.13141833245754242,0.23708705604076385
10.544706583023071,-0.47550925612449646,-1.0591669082641602,0.8447775840759277,-0.06275273114442825,0.13218127191066742,0.23785001039505005
10.564850568771362,-0.47589075565338135,-1.0637445449829102,0.8504997491836548,-0.06275273114442825,0.134470134973526,0.23937590420246124
10.585001230239868,-0.47589075565338135,-1.0667964220046997,0.8535515666007996,-0.06237125024199486,0.135233074426651,0.24013885855674744
10.605082035064697,-0.47627222537994385,-1.0717555284500122,0.8577477931976318,-0.06160829961299896,0.13752193748950958,0.24090181291103363
10.625129222869873,-0.47627222537994385,-1.0748074054718018,0.8615625500679016,-0.061226826161146164,0.13904783129692078,0.24204623699188232
10.645298957824707,-0.47627222537994385,-1.0786221027374268,0.8649957776069641,-0.06046387553215027,0.13904783129692078,0.2443350851535797
10.665468692779541,-0.47665369510650635,-1.0831998586654663,0.8703364729881287,-0.06008239835500717,0.13981078565120697,0.2462424635887146
10.685574054718018,-0.47741663455963135,-1.0866330862045288,0.8737697601318359,-0.06008239835500717,0.14248111844062805,0.248531311750412
10.705703020095825,-0.47817960381507874,-1.0923552513122559,0.8798733353614807,-0.05970092490315437,0.14362554252147675,0.24891279637813568
10.725700378417969,-0.47817960381507874,-1.0946440696716309,0.8829251527786255,-0.05970092490315437,0.14438849687576294,0.2500572204589844
10.745861768722534,-0.47817960381507874,-1.0992218255996704,0.8882657885551453,-0.05893797054886818,0.14591439068317413,0.25234606862068176
10.766023874282837,-0.47817960381507874,-1.101892113685608,0.892080545425415,-0.05893797054886818,0.14744029939174652,0.25463491678237915
10.786133527755737,-0.47817960381507874,-1.106088399887085,0.8970397710800171,-0.058175019919872284,0.1489662081003189,0.25539788603782654
10.806284189224243,-0.47817960381507874,-1.109140157699585,0.9012359976768494,-0.057793546468019485,0.1504921019077301,0.25577935576438904
10.826336860656738,-0.47817960381507874,-1.1118104457855225,0.9054322242736816,-0.05703059583902359,0.1512550562620163,0.25616082549095154
10.846430540084839,-0.47817960381507874,-1.1160067319869995,0.9107728600502014,-0.05664911866188049,0.15468832850456238,0.2576867341995239
10.866499185562134,-0.47817960381507874,-1.118677020072937,0.9142061471939087,-0.056267641484737396,0.15774014592170715,0.2592126429080963
10.886569023132324,-0.47856107354164124,-1.123636245727539,0.9195467829704285,-0.0558861680328846,0.15850308537483215,0.2599755823612213
10.906647682189941,-0.47856107354164124,-1.126688003540039,0.9233615398406982,-0.0555046908557415,0.16117341816425323,0.2615014910697937
10.92690396308899,-0.47932401299476624,-1.1297398805618286,0.9267948269844055,-0.0551232174038887,0.16346226632595062,0.2634088695049286
10.947043895721436,-0.4797055125236511,-1.1343175172805786,0.9298466444015503,-0.0551232174038887,0.1653696447610855,0.2641718089580536
10.967143297195435,-0.4800869822502136,-1.1366063356399536,0.9325169920921326,-0.0551232174038887,0.1672770231962204,0.266460657119751
10.987221717834473,-0.4800869822502136,-1.1396582126617432,0.9351872801780701,-0.054741740226745605,0.1668955534696579,0.26722362637519836
11.007414817810059,-0.4800869822502136,-1.1434729099273682,0.9393835067749023,-0.05436026677489281,0.1672770231962204,0.26798656582832336
11.027431726455688,-0.4800869822502136,-1.1453803777694702,0.9416723847389221,-0.05436026677489281,0.1676585078239441,0.27027541399002075
11.047492980957031,-0.4800869822502136,-1.1480506658554077,0.9447242021560669,-0.053215838968753815,0.1680399775505066,0.2725642919540405
11.067567348480225,-0.4800869822502136,-1.1503394842147827,0.9477760195732117,-0.05245288833975792,0.16956588625907898,0.2744716703891754
11.08771562576294,-0.4800869822502136,-1.1533913612365723,0.951209306716919,-0.05245288833975792,0.17071031033992767,0.2748531401157379
11.107874870300293,-0.4800869822502136,-1.1564431190490723,0.9546425342559814,-0.05207141116261482,0.17223620414733887,0.2759975492954254
11.128081798553467,-0.4800869822502136,-1.1587319374084473,0.9576943516731262,-0.051689937710762024,0.17643244564533234,0.2779049277305603
11.148197174072266,-0.4804684519767761,-1.1614023447036743,0.961509108543396,-0.05130846053361893,0.17757686972618103,0.2794308364391327
11.1683030128479,-0.4804684519767761,-1.1640726327896118,0.9649423956871033,-0.05092698708176613,0.1806286722421646,0.2813382148742676
11.188965320587158,-0.4804684519767761,-1.1671243906021118,0.968757152557373,-0.050164032727479935,0.1840619444847107,0.2821011543273926
11.20905327796936,-0.4804684519767761,-1.1713206768035889,0.9733348488807678,-0.04901960864663124,0.18558785319328308,0.28286412358283997
11.22912073135376,-0.4804684519767761,-1.1732280254364014,0.9756237268447876,-0.048638131469488144,0.18711376190185547,0.28439003229141235
11.249263048171997,-0.4804684519767761,-1.176279902458191,0.9786755442619324,-0.048256658017635345,0.18825818598270416,0.28553444147109985
11.26931643486023,-0.4808499217033386,-1.180094599723816,0.9817273020744324,-0.048256658017635345,0.18940261006355286,0.28667888045310974
11.289371013641357,-0.481612890958786,-1.181620478630066,0.9836347103118896,-0.048256658017635345,0.19130998849868774,0.28896772861480713
11.309464931488037,-0.482375830411911,-1.1854352951049805,0.9870679974555969,-0.04749370738863945,0.19207294285297394,0.2904936373233795
11.329561948776245,-0.483138769865036,-1.188105583190918,0.9889753460884094,-0.04749370738863945,0.19245441257953644,0.2924010157585144
11.349786520004272,-0.4835202693939209,-1.191157341003418,0.9912642240524292,-0.04634927958250046,0.19359883666038513,0.2935454249382019
11.369883060455322,-0.4839017391204834,-1.1949721574783325,0.9946975111961365,-0.045204851776361465,0.19474326074123383,0.2946898639202118
11.390058994293213,-0.4846646785736084,-1.19764244556427,0.996604859828949,-0.04482337832450867,0.19474326074123383,0.2973601818084717
11.41005802154541,-0.4846646785736084,-1.201075792312622,1.0000381469726562,-0.04444190114736557,0.1958876997232437,0.30003052949905396
11.430171251296997,-0.4846646785736084,-1.2029831409454346,1.0023269653320312,-0.04406042397022247,0.1985580176115036,0.30079346895217896
11.450252056121826,-0.4846646785736084,-1.205653429031372,1.0053788423538208,-0.043678950518369675,0.1997024416923523,0.30155640840530396
11.470330715179443,-0.4846646785736084,-1.2083238363265991,1.0084306001663208,-0.04291599988937378,0.20237277448177338,0.30346378684043884
11.490368127822876,-0.4846646785736084,-1.2098497152328491,1.0111008882522583,-0.04177157208323479,0.20389868319034576,0.30460822582244873
11.510561466217041,-0.4846646785736084,-1.2129014730453491,1.0149157047271729,-0.04139009863138199,0.20733195543289185,0.3068970739841461
11.530579566955566,-0.4846646785736084,-1.2151904106140137,1.0179674625396729,-0.040627144277095795,0.21038375794887543,0.308041512966156
11.550664186477661,-0.4846646785736084,-1.2182421684265137,1.0210193395614624,-0.040245670825242996,0.21229113638401031,0.3084229826927185
11.570755243301392,-0.4846646785736084,-1.2205309867858887,1.0233081579208374,-0.0398641936480999,0.2134355753660202,0.3091859221458435
11.59082579612732,-0.4846646785736084,-1.2224383354187012,1.02521550655365,-0.039101243019104004,0.2145799994468689,0.3103303611278534
11.610981464385986,-0.4850461483001709,-1.2247272729873657,1.027885913848877,-0.03795681521296501,0.2149614691734314,0.3114747703075409
11.631514310836792,-0.4854276478290558,-1.2262531518936157,1.030174732208252,-0.037193864583969116,0.21763180196285248,0.3130006790161133
11.65161943435669,-0.4858091175556183,-1.2293049097061157,1.0343708992004395,-0.03643091395497322,0.21839475631713867,0.31528952717781067
11.67166543006897,-0.4858091175556183,-1.2312123775482178,1.036659836769104,-0.03528648987412453,0.22030213475227356,0.31795987486839294
11.69176959991455,-0.4858091175556183,-1.2338826656341553,1.039711594581604,-0.03337911143898964,0.22106507420539856,0.31910428404808044
11.711849689483643,-0.4865720570087433,-1.2357900142669678,1.042000412940979,-0.03337911143898964,0.22259098291397095,0.32024872303009033
11.73210883140564,-0.4865720570087433,-1.2376973628997803,1.0442893505096436,-0.03299763426184654,0.22564278542995453,0.3225375711917877
11.752201318740845,-0.4873350262641907,-1.2407492399215698,1.047722578048706,-0.032616160809993744,0.2286945879459381,0.32520791888237
11.772310733795166,-0.4877164959907532,-1.2430380582809448,1.050011396408081,-0.03223468363285065,0.2302204966545105,0.32673379778862
11.792504072189331,-0.4877164959907532,-1.2460898160934448,1.0530632734298706,-0.031090257689356804,0.23289081454277039,0.3271152675151825
11.81259536743164,-0.4877164959907532,-1.2491416931152344,1.056496500968933,-0.029564354568719864,0.23517967760562897,0.3286411762237549
11.83335280418396,-0.4877164959907532,-1.2514305114746094,1.0584038496017456,-0.02880140393972397,0.23632410168647766,0.33093002438545227
11.853480100631714,-0.4877164959907532,-1.255245327949524,1.0622186660766602,-0.02841992862522602,0.23708705604076385,0.33321890234947205
11.8734872341156,-0.4877164959907532,-1.257534146308899,1.0641260147094727,-0.02727550081908703,0.23823148012161255,0.33436331152915955
11.893758058547974,-0.4877164959907532,-1.261730432510376,1.0675593614578247,-0.026512550190091133,0.23975738883018494,0.33550775051116943
11.91386342048645,-0.4877164959907532,-1.2644007205963135,1.0706111192703247,-0.025749599561095238,0.24166475236415863,0.3370336592197418
11.933928728103638,-0.4880979657173157,-1.267071008682251,1.0732814073562622,-0.024986648932099342,0.24319066107273102,0.3385595381259918
11.954016208648682,-0.4884794354438782,-1.2708858251571655,1.0767147541046143,-0.024605173617601395,0.2450980395078659,0.3416113555431366
11.974074125289917,-0.4884794354438782,-1.272793173789978,1.0793850421905518,-0.023460745811462402,0.2466239482164383,0.3442816734313965
11.994338989257812,-0.4888609051704407,-1.275081992149353,1.0809109210968018,-0.022697795182466507,0.2473868876695633,0.34542611241340637
12.014436483383179,-0.4888609051704407,-1.2781338691711426,1.0843442678451538,-0.02193484455347061,0.24891279637813568,0.34580758213996887
12.03451156616211,-0.4892423748970032,-1.28080415725708,1.0866330862045288,-0.02079041674733162,0.25196459889411926,0.34847790002822876
12.054749727249146,-0.49000534415245056,-1.284618854522705,1.0904479026794434,-0.018501564860343933,0.25539788603782654,0.35152971744537354
12.074751377105713,-0.49000534415245056,-1.2869077920913696,1.0927367210388184,-0.01773861236870289,0.2580682039260864,0.3538185656070709
12.094832420349121,-0.49000534415245056,-1.2899595499038696,1.0961699485778809,-0.01735713705420494,0.2599755823612213,0.3557259440422058
12.114957094192505,-0.49000534415245056,-1.2930114269256592,1.098840355873108,-0.016975661739706993,0.2626459002494812,0.3587777614593506
12.135009288787842,-0.49038681387901306,-1.2956817150115967,1.101892113685608,-0.015449759550392628,0.2641718089580536,0.3606851398944855
12.15510630607605,-0.49076828360557556,-1.2998778820037842,1.1072328090667725,-0.013923857361078262,0.265697717666626,0.3622110188007355
12.175170421600342,-0.49076828360557556,-1.3036926984786987,1.1110475063323975,-0.01201647985726595,0.26836803555488586,0.36411839723587036
12.19530439376831,-0.49076828360557556,-1.3078888654708862,1.116388201713562,-0.010872052982449532,0.27027541399002075,0.36564430594444275
12.21534776687622,-0.49076828360557556,-1.3105592727661133,1.118677020072937,-0.010490577667951584,0.27141985297203064,0.368314653635025
12.235520839691162,-0.49076828360557556,-1.3143739700317383,1.1217288970947266,-0.009727626107633114,0.273708701133728,0.3702220320701599
12.255638122558594,-0.49114975333213806,-1.3181887865066528,1.1255435943603516,-0.00858320016413927,0.2752346098423004,0.3721294105052948
12.275952816009521,-0.49191272258758545,-1.3216220140457153,1.128213882446289,-0.00667582219466567,0.2782863974571228,0.3740367889404297
12.29606318473816,-0.49229419231414795,-1.3261997699737549,1.1320286989212036,-0.005149920005351305,0.2813382148742676,0.3778515160083771
12.316131114959717,-0.49267566204071045,-1.3284885883331299,1.1343175172805786,-0.0036240178160369396,0.28400853276252747,0.38014039397239685
12.336257696151733,-0.49267566204071045,-1.3319218158721924,1.1373693943023682,-0.002861066721379757,0.28629741072654724,0.38242924213409424
12.356316566467285,-0.49267566204071045,-1.333447813987732,1.1385138034820557,-0.0020981156267225742,0.28858625888824463,0.3858625292778015
12.376469612121582,-0.49267566204071045,-1.335736632347107,1.1404211521148682,-0.00019073777366429567,0.28973066806793213,0.3873884081840515
12.396514892578125,-0.49267566204071045,-1.338025450706482,1.1423285007476807,0.000572213320992887,0.2912565767765045,0.3892957866191864
12.416584014892578,-0.49267566204071045,-1.339551329612732,1.1438543796539307,0.001716639962978661,0.2935454249382019,0.3908216953277588
12.436765432357788,-0.49267566204071045,-1.3418402671813965,1.1469062566757202,0.002861066721379757,0.2962157726287842,0.39425498247146606
12.457484245300293,-0.49267566204071045,-1.3433661460876465,1.1480506658554077,0.004386968910694122,0.29812315106391907,0.39692530035972595
12.477582931518555,-0.49267566204071045,-1.3456549644470215,1.1499580144882202,0.005912871100008488,0.30003052949905396,0.39806973934173584
12.497685432434082,-0.49267566204071045,-1.3471808433532715,1.1514838933944702,0.007057297509163618,0.30270084738731384,0.4003585875034332
12.517770290374756,-0.49305713176727295,-1.349469780921936,1.1530098915100098,0.008201723918318748,0.3057526648044586,0.404173344373703
12.537858009338379,-0.49305713176727295,-1.3521400690078735,1.1545357704162598,0.010109102353453636,0.308041512966156,0.4068436622619629
12.558510065078735,-0.49305713176727295,-1.3536659479141235,1.1560616493225098,0.01125352829694748,0.309567391872406,0.41027694940567017
12.578656196594238,-0.49420157074928284,-1.356717824935913,1.1587319374084473,0.01201647985726595,0.3126192092895508,0.41256579756736755
12.598692417144775,-0.49458304047584534,-1.3586251735687256,1.1606394052505493,0.012779430486261845,0.31528952717781067,0.41371023654937744
12.619064569473267,-0.49496451020240784,-1.361295461654663,1.1636911630630493,0.01506828423589468,0.31757840514183044,0.41599908471107483
12.639145135879517,-0.49496451020240784,-1.3643473386764526,1.1675058603286743,0.01735713705420494,0.31834134459495544,0.4175249934196472
12.659227848052979,-0.49496451020240784,-1.3658732175827026,1.1697947978973389,0.019645990803837776,0.31910428404808044,0.4198138415813446
12.679373502731323,-0.49496451020240784,-1.3689249753952026,1.1728465557098389,0.02193484455347061,0.32101166248321533,0.4236285984516144
12.699441194534302,-0.4953460097312927,-1.3715953826904297,1.1758984327316284,0.02384222112596035,0.3229190409183502,0.42515450716018677
12.71959924697876,-0.4961089491844177,-1.3738842010498047,1.1781872510910034,0.02536812424659729,0.3248264193534851,0.42973220348358154
12.739690065383911,-0.4961089491844177,-1.3769359588623047,1.1812390089035034,0.026512550190091133,0.3282597064971924,0.4335469603538513
12.759785890579224,-0.4957274794578552,-1.3784618377685547,1.1827648878097534,0.02727550081908703,0.33054855465888977,0.4365987777709961
12.779861211776733,-0.4957274794578552,-1.3792248964309692,1.185053825378418,0.02841992862522602,0.33436331152915955,0.439269095659256
12.800246953964233,-0.4957274794578552,-1.3796063661575317,1.186579704284668,0.02880140393972397,0.33627068996429443,0.4396505653858185
12.820252418518066,-0.4953460097312927,-1.3796063661575317,1.188868522644043,0.031090257689356804,0.3385595381259918,0.440032035112381
12.840307474136353,-0.49458304047584534,-1.3796063661575317,1.190394401550293,0.03337911143898964,0.3408484160900116,0.44079500436782837
12.860392570495605,-0.49305713176727295,-1.3792248964309692,1.1919203996658325,0.034142062067985535,0.3412298858165741,0.44155794382095337
12.88046908378601,-0.49076828360557556,-1.3788433074951172,1.1926833391189575,0.03452353551983833,0.3412298858165741,0.44193941354751587
12.900555610656738,-0.4873350262641907,-1.3784618377685547,1.19306480884552,0.03452353551983833,0.343137264251709,0.44155794382095337
12.920638799667358,-0.4858091175556183,-1.3784618377685547,1.19306480884552,0.03452353551983833,0.34504464268684387,0.44193941354751587
12.940698623657227,-0.4842832088470459,-1.3784618377685547,1.19306480884552,0.03452353551983833,0.344663143157959,0.44193941354751587
12.961021900177002,-0.4812313914299011,-1.3780803680419922,1.19306480884552,0.034142062067985535,0.34695202112197876,0.44155794382095337
12.981112480163574,-0.47589075565338135,-1.3773174285888672,1.193827748298645,0.03452353551983833,0.34924086928367615,0.44155794382095337
13.001192808151245,-0.47398337721824646,-1.3773174285888672,1.1942092180252075,0.034142062067985535,0.34847790002822876,0.44155794382095337
13.021284818649292,-0.4705500900745392,-1.3765544891357422,1.1949721574783325,0.034142062067985535,0.34924086928367615,0.44117647409439087
13.041362762451172,-0.4674982726573944,-1.3754100799560547,1.195353627204895,0.034142062067985535,0.35114824771881104,0.4396505653858185
13.061429500579834,-0.465209424495697,-1.3754100799560547,1.195353627204895,0.034142062067985535,0.3534370958805084,0.439269095659256
13.0815110206604,-0.4640650153160095,-1.3754100799560547,1.195353627204895,0.034142062067985535,0.3549630045890808,0.4388876259326935
13.101562976837158,-0.46253910660743713,-1.3754100799560547,1.195353627204895,0.034142062067985535,0.3568703830242157,0.438506156206131
13.121664762496948,-0.46215763688087463,-1.3754100799560547,1.195353627204895,0.03376058489084244,0.3583962619304657,0.4381246566772461
13.141764879226685,-0.46177613735198975,-1.3754100799560547,1.195353627204895,0.03376058489084244,0.3583962619304657,0.4381246566772461
13.161904335021973,-0.46025025844573975,-1.3750286102294922,1.1957350969314575,0.03337911143898964,0.3580147922039032,0.4373617172241211
13.181982517242432,-0.45948728919029236,-1.3746471405029297,1.1964980363845825,0.03376058489084244,0.3545815348625183,0.4365987777709961
13.202028751373291,-0.45872434973716736,-1.3738842010498047,1.1964980363845825,0.03376058489084244,0.3534370958805084,0.4350728690624237
13.222212791442871,-0.45834288001060486,-1.3735027313232422,1.196879506111145,0.03376058489084244,0.3526741564273834,0.4343098998069763
13.242387533187866,-0.45757991075515747,-1.3735027313232422,1.196879506111145,0.03376058489084244,0.3526741564273834,0.4331654906272888
13.262508869171143,-0.45643550157546997,-1.3731212615966797,1.1972609758377075,0.03376058489084244,0.3538185656070709,0.43240252137184143
13.282886981964111,-0.4560540020465851,-1.3735027313232422,1.1972609758377075,0.03337911143898964,0.3545815348625183,0.43087664246559143
13.303010702133179,-0.4541466534137726,-1.3735027313232422,1.196879506111145,0.03299763426184654,0.3553444743156433,0.43049514293670654
13.323081731796265,-0.4522392749786377,-1.3731212615966797,1.1972609758377075,0.03299763426184654,0.3561074137687683,0.43011367321014404
13.34362268447876,-0.4510948359966278,-1.3731212615966797,1.1972609758377075,0.03299763426184654,0.3564889132976532,0.42973220348358154
13.3638014793396,-0.4507133662700653,-1.3723583221435547,1.1972609758377075,0.03299763426184654,0.3564889132976532,0.42896926403045654
13.383843898773193,-0.4499503970146179,-1.3719768524169922,1.1972609758377075,0.032616160809993744,0.3572518527507782,0.42744335532188416
13.403925657272339,-0.4499503970146179,-1.3719768524169922,1.1972609758377075,0.032616160809993744,0.3591592311859131,0.42668038606643677
13.4240403175354,-0.4499503970146179,-1.3712139129638672,1.1972609758377075,0.032616160809993744,0.3591592311859131,0.42629891633987427
13.444114446640015,-0.4491874575614929,-1.3712139129638672,1.1972609758377075,0.03223468363285065,0.3583962619304657,0.42515450716018677
13.464301824569702,-0.44804301857948303,-1.3712139129638672,1.19764244556427,0.03223468363285065,0.3580147922039032,0.4232471287250519
13.484323263168335,-0.44766154885292053,-1.3712139129638672,1.19764244556427,0.03223468363285065,0.3564889132976532,0.4228656589984894
13.504462718963623,-0.44689860939979553,-1.3712139129638672,1.19764244556427,0.03147173300385475,0.3557259440422058,0.422102689743042
13.524527311325073,-0.44575417041778564,-1.3712139129638672,1.1980239152908325,0.031090257689356804,0.3557259440422058,0.4209582805633545
13.544631958007812,-0.44346532225608826,-1.3712139129638672,1.198405385017395,0.03032730519771576,0.3576333224773407,0.4198138415813446
13.564716577529907,-0.44232088327407837,-1.3704508543014526,1.1987868547439575,0.03032730519771576,0.3587777614593506,0.4194323718547821
13.584805011749268,-0.44155794382095337,-1.3700693845748901,1.1987868547439575,0.02994582988321781,0.3583962619304657,0.4186694025993347
13.604886054992676,-0.4404135048389435,-1.3700693845748901,1.19916832447052,0.02994582988321781,0.3599221706390381,0.4175249934196472
13.624961614608765,-0.438506156206131,-1.3700693845748901,1.199549913406372,0.02994582988321781,0.361066609621048,0.41561761498451233
13.6452054977417,-0.4377431869506836,-1.3700693845748901,1.199549913406372,0.029564354568719864,0.3606851398944855,0.41523614525794983
13.665344953536987,-0.4365987777709961,-1.3696879148483276,1.199549913406372,0.029182879254221916,0.3599221706390381,0.41447317600250244
13.685401201248169,-0.4354543387889862,-1.3693064451217651,1.199549913406372,0.02841992862522602,0.3599221706390381,0.41332876682281494
13.705464601516724,-0.4354543387889862,-1.3693064451217651,1.199549913406372,0.02841992862522602,0.3606851398944855,0.41256579756736755
13.725566148757935,-0.4350728690624237,-1.3693064451217651,1.1999313831329346,0.028038453310728073,0.3603036403656006,0.41180285811424255
13.74566102027893,-0.4346913993358612,-1.3693064451217651,1.200312852859497,0.028038453310728073,0.3603036403656006,0.41142138838768005
13.765738248825073,-0.4335469603538513,-1.3693064451217651,1.2006943225860596,0.027656977996230125,0.3603036403656006,0.41103988885879517
13.785871505737305,-0.4331654906272888,-1.3689249753952026,1.2006943225860596,0.02727550081908703,0.3599221706390381,0.41065841913223267
13.806256771087646,-0.43202105164527893,-1.3685435056686401,1.2006943225860596,0.02727550081908703,0.3603036403656006,0.40951400995254517
13.826424837112427,-0.43087664246559143,-1.3681620359420776,1.201075792312622,0.02689402550458908,0.3595407009124756,0.4076066315174103
13.84647822380066,-0.42935073375701904,-1.3681620359420776,1.201075792312622,0.02689402550458908,0.3603036403656006,0.4068436622619629
13.866542339324951,-0.42858776450157166,-1.3681620359420776,1.2014572620391846,0.026512550190091133,0.361066609621048,0.4053177833557129
13.886616230010986,-0.42782482504844666,-1.3677805662155151,1.2014572620391846,0.026512550190091133,0.36259251832962036,0.404173344373703
13.90758466720581,-0.42629891633987427,-1.3677805662155151,1.2014572620391846,0.026131074875593185,0.36335545778274536,0.403410404920578
13.927675008773804,-0.42515450716018677,-1.3673990964889526,1.2014572620391846,0.025749599561095238,0.36335545778274536,0.4030289053916931
13.947768926620483,-0.4236285984516144,-1.3673990964889526,1.201838731765747,0.026131074875593185,0.36488136649131775,0.4015030264854431
13.96792483329773,-0.4224841594696045,-1.3670176267623901,1.2022202014923096,0.025749599561095238,0.36488136649131775,0.3999771177768707
13.988014698028564,-0.4217212200164795,-1.3670176267623901,1.202601671218872,0.025749599561095238,0.36411839723587036,0.39921414852142334
14.008149147033691,-0.421339750289917,-1.3670176267623901,1.202601671218872,0.025749599561095238,0.36411839723587036,0.39730677008628845
14.028369665145874,-0.4205767810344696,-1.3662546873092651,1.202601671218872,0.024986648932099342,0.36488136649131775,0.39616236090660095
14.04847526550293,-0.4190509021282196,-1.3658732175827026,1.202601671218872,0.024605173617601395,0.36526283621788025,0.39539939165115356
