liuyurong129/humanoid-gym/humanoid/data/actual_q_20250522-034615.csv
timestamp,joint_1,joint_2,joint_3,joint_4,joint_5,joint_6
6.580352783203125e-05,0.00019073777366429567,0.16231784224510193,-0.08258945494890213,-0.00019073777366429567,0.00019073777366429567,-0.00019073777366429567
0.020162582397460938,0.000572213320992887,0.13790340721607208,-0.0715266615152359,-0.00019073777366429567,0.00019073777366429567,-0.00019073777366429567
0.04024505615234375,-0.00019073777366429567,0.11768520623445511,-0.06275273114442825,-0.00019073777366429567,0.002861066721379757,-0.00019073777366429567
0.06029152870178223,-0.00019073777366429567,0.10509651154279709,-0.05664911866188049,-0.00019073777366429567,0.00019073777366429567,-0.00019073777366429567
0.08037400245666504,-0.00019073777366429567,0.09479667246341705,-0.050164032727479935,-0.00019073777366429567,0.00019073777366429567,-0.00019073777366429567
0.1004488468170166,-0.00019073777366429567,0.08411535620689392,-0.04329747334122658,-0.00019073777366429567,0.00019073777366429567,-0.00019073777366429567
0.12051224708557129,0.0009536888683214784,0.08030059933662415,-0.0394827201962471,-0.00019073777366429567,0.00019073777366429567,-0.00019073777366429567
0.14059853553771973,0.0024795911740511656,0.08068207651376724,-0.038719769567251205,-0.00019073777366429567,-0.00019073777366429567,0.00019073777366429567
0.16066694259643555,0.002861066721379757,0.08182650804519653,-0.039101243019104004,-0.00019073777366429567,-0.0009536888683214784,0.00019073777366429567
0.18074584007263184,0.002861066721379757,0.08068207651376724,-0.039101243019104004,-0.00019073777366429567,-0.00019073777366429567,0.00019073777366429567
0.20087122917175293,0.004386968910694122,0.07991912961006165,-0.039101243019104004,-0.00019073777366429567,0.000572213320992887,0.00019073777366429567
0.22091364860534668,0.005149920005351305,0.07991912961006165,-0.03833829239010811,-0.00019073777366429567,0.00019073777366429567,0.00019073777366429567
0.24125051498413086,0.005912871100008488,0.08068207651376724,-0.037193864583969116,-0.00019073777366429567,0.00019073777366429567,0.00019073777366429567
0.261364221572876,0.007057297509163618,0.08068207651376724,-0.03604944050312042,-0.00019073777366429567,0.00019073777366429567,0.00019073777366429567
0.2814826965332031,0.007438773289322853,0.08068207651376724,-0.035667963325977325,-0.00019073777366429567,0.00019073777366429567,0.000572213320992887
0.30156540870666504,0.008201723918318748,0.08030059933662415,-0.035667963325977325,-0.00019073777366429567,0.00019073777366429567,0.000572213320992887
0.3216848373413086,0.008964675478637218,0.07953765243291855,-0.03490501269698143,-0.00019073777366429567,0.00019073777366429567,0.0009536888683214784
0.34251952171325684,0.010109102353453636,0.07915617525577545,-0.034142062067985535,-0.00019073777366429567,0.00019073777366429567,0.0009536888683214784
0.3626735210418701,0.01125352829694748,0.07877469807863235,-0.03299763426184654,-0.00019073777366429567,0.00019073777366429567,0.0009536888683214784
0.38275814056396484,0.012397955171763897,0.07839322835206985,-0.032616160809993744,-0.00019073777366429567,0.00019073777366429567,0.0013351644156500697
0.4027855396270752,0.013542382046580315,0.07877469807863235,-0.03147173300385475,-0.00019073777366429567,0.00019073777366429567,0.0013351644156500697
0.42287135124206543,0.014686808921396732,0.07839322835206985,-0.03032730519771576,-0.00019073777366429567,0.00019073777366429567,0.001716639962978661
0.4429640769958496,0.01506828423589468,0.07839322835206985,-0.029564354568719864,-0.00019073777366429567,0.00019073777366429567,0.0020981156267225742
0.46308088302612305,0.01583123579621315,0.07763027399778366,-0.02880140393972397,-0.00019073777366429567,0.000572213320992887,0.0020981156267225742
0.4832613468170166,0.016975661739706993,0.07724879682064056,-0.02727550081908703,-0.00019073777366429567,0.000572213320992887,0.0024795911740511656
0.5035021305084229,0.01735713705420494,0.07763027399778366,-0.02689402550458908,-0.000572213320992887,0.000572213320992887,0.0032425422687083483
0.5236818790435791,0.01888304017484188,0.07724879682064056,-0.026131074875593185,-0.000572213320992887,0.00019073777366429567,0.004005493130534887
0.543769359588623,0.02040894143283367,0.07648584991693497,-0.025749599561095238,-0.000572213320992887,0.00019073777366429567,0.004386968910694122
0.5638365745544434,0.021553369238972664,0.07610437273979187,-0.024986648932099342,-0.0009536888683214784,0.00019073777366429567,0.004386968910694122
0.5839288234710693,0.02193484455347061,0.07572289556264877,-0.02384222112596035,-0.0013351644156500697,0.000572213320992887,0.00476844422519207
0.6040565967559814,0.02231631986796856,0.07534141838550568,-0.023079270496964455,-0.0013351644156500697,0.00019073777366429567,0.005149920005351305
0.6241888999938965,0.02384222112596035,0.07572289556264877,-0.02231631986796856,-0.0020981156267225742,0.000572213320992887,0.005149920005351305
0.6442198753356934,0.024986648932099342,0.07534141838550568,-0.02079041674733162,-0.0024795911740511656,0.000572213320992887,0.005531395319849253
0.6642916202545166,0.025749599561095238,0.07534141838550568,-0.02040894143283367,-0.0032425422687083483,0.000572213320992887,0.005912871100008488
0.6844098567962646,0.02689402550458908,0.07457847148180008,-0.01926451548933983,-0.0036240178160369396,0.000572213320992887,0.006294346414506435
0.7044808864593506,0.02841992862522602,0.07419699430465698,-0.018501564860343933,-0.004005493130534887,0.000572213320992887,0.0078202486038208
0.7247159481048584,0.029564354568719864,0.07343403995037079,-0.018120087683200836,-0.004005493130534887,0.0009536888683214784,0.00858320016413927
0.7448055744171143,0.03032730519771576,0.07305257022380829,-0.016975661739706993,-0.004386968910694122,0.0009536888683214784,0.00858320016413927
0.7648622989654541,0.03185320645570755,0.07305257022380829,-0.01583123579621315,-0.00476844422519207,0.0009536888683214784,0.009346150793135166
0.784965991973877,0.03337911143898964,0.07267109304666519,-0.013923857361078262,-0.00476844422519207,0.0009536888683214784,0.010109102353453636
0.8050410747528076,0.034142062067985535,0.071908138692379,-0.012779430486261845,-0.005531395319849253,0.0009536888683214784,0.010872052982449532
0.8251285552978516,0.035667963325977325,0.071908138692379,-0.01201647985726595,-0.005912871100008488,0.0009536888683214784,0.01201647985726595
0.845167875289917,0.03681239113211632,0.0715266615152359,-0.010490577667951584,-0.00667582219466567,0.0009536888683214784,0.01201647985726595
0.8652739524841309,0.03757534176111221,0.0711451917886734,-0.009727626107633114,-0.007057297509163618,0.0013351644156500697,0.01201647985726595
0.8853263854980469,0.03833829239010811,0.0707637146115303,-0.008201723918318748,-0.007438773289322853,0.0013351644156500697,0.012397955171763897
0.905449628829956,0.0394827201962471,0.07038223743438721,-0.007057297509163618,-0.007438773289322853,0.0013351644156500697,0.012397955171763897
0.9255692958831787,0.04139009863138199,0.07000076025724411,-0.005531395319849253,-0.0078202486038208,0.001716639962978661,0.012779430486261845
0.9456939697265625,0.04291599988937378,0.06923781335353851,-0.004386968910694122,-0.0078202486038208,0.001716639962978661,0.013160906732082367
0.965815544128418,0.04406042397022247,0.06885633617639542,-0.0032425422687083483,-0.008201723918318748,0.001716639962978661,0.013160906732082367
0.9858486652374268,0.04482337832450867,0.06847485899925232,-0.0024795911740511656,-0.00858320016413927,0.0024795911740511656,0.013923857361078262
1.0059354305267334,0.04634927958250046,0.06809338182210922,-0.0009536888683214784,-0.008964675478637218,0.0024795911740511656,0.014686808921396732
1.0260875225067139,0.04749370738863945,0.06809338182210922,0.00019073777366429567,-0.009727626107633114,0.002861066721379757,0.015449759550392628
1.0462262630462646,0.04940108209848404,0.06809338182210922,0.001716639962978661,-0.010490577667951584,0.0024795911740511656,0.016212711110711098
1.066255807876587,0.05092698708176613,0.06771191209554672,0.0032425422687083483,-0.01125352829694748,0.0024795911740511656,0.016594186425209045
1.0864546298980713,0.05245288833975792,0.06656748056411743,0.00476844422519207,-0.01125352829694748,0.0024795911740511656,0.01735713705420494
1.106546401977539,0.05397878959774971,0.06580453366041183,0.006294346414506435,-0.011635004542768002,0.002861066721379757,0.018501564860343933
1.1267411708831787,0.0551232174038887,0.06580453366041183,0.007057297509163618,-0.01201647985726595,0.002861066721379757,0.01926451548933983
1.1468684673309326,0.05703059583902359,0.06580453366041183,0.008201723918318748,-0.012397955171763897,0.002861066721379757,0.019645990803837776
1.1669352054595947,0.058175019919872284,0.06504157930612564,0.008964675478637218,-0.012779430486261845,0.002861066721379757,0.020027466118335724
1.1870167255401611,0.059319447726011276,0.06504157930612564,0.009727626107633114,-0.013542382046580315,0.0032425422687083483,0.02040894143283367
1.2071161270141602,0.06046387553215027,0.06466010212898254,0.010872052982449532,-0.014686808921396732,0.0032425422687083483,0.02040894143283367
1.2273199558258057,0.06198977679014206,0.06389715522527695,0.01201647985726595,-0.01506828423589468,0.0032425422687083483,0.021171892061829567
1.2474114894866943,0.06389715522527695,0.06313420087099075,0.013923857361078262,-0.015449759550392628,0.002861066721379757,0.02193484455347061
1.2674756050109863,0.06542305648326874,0.06275273114442825,0.014686808921396732,-0.01583123579621315,0.002861066721379757,0.022697795182466507
1.2875595092773438,0.06656748056411743,0.06275273114442825,0.016212711110711098,-0.01583123579621315,0.0032425422687083483,0.023460745811462402
1.3076293468475342,0.06771191209554672,0.06275273114442825,0.01773861236870289,-0.016212711110711098,0.0032425422687083483,0.02384222112596035
1.3288578987121582,0.06923781335353851,0.06198977679014206,0.01926451548933983,-0.016594186425209045,0.0032425422687083483,0.024223696440458298
1.3489511013031006,0.0715266615152359,0.06084534898400307,0.021553369238972664,-0.01773861236870289,0.0032425422687083483,0.02536812424659729
1.3690333366394043,0.07305257022380829,0.06084534898400307,0.022697795182466507,-0.018501564860343933,0.0032425422687083483,0.02727550081908703
1.3892295360565186,0.07495994865894318,0.06084534898400307,0.023460745811462402,-0.01888304017484188,0.0032425422687083483,0.027656977996230125
1.4092953205108643,0.07686731964349747,0.06008239835500717,0.025749599561095238,-0.01888304017484188,0.0032425422687083483,0.028038453310728073
1.429335355758667,0.07839322835206985,0.05970092490315437,0.02689402550458908,-0.01926451548933983,0.0032425422687083483,0.02880140393972397
1.4494504928588867,0.08030059933662415,0.05855649709701538,0.02880140393972397,-0.019645990803837776,0.0032425422687083483,0.02994582988321781
1.4695539474487305,0.08220797777175903,0.057793546468019485,0.02994582988321781,-0.020027466118335724,0.0036240178160369396,0.030708782374858856
1.4896039962768555,0.08487831056118011,0.05703059583902359,0.032616160809993744,-0.02079041674733162,0.0036240178160369396,0.030708782374858856
1.5097203254699707,0.0871671661734581,0.05664911866188049,0.03528648987412453,-0.02193484455347061,0.0036240178160369396,0.03185320645570755
1.529878854751587,0.08983749151229858,0.0558861680328846,0.03795681521296501,-0.022697795182466507,0.0036240178160369396,0.03223468363285065
1.5499069690704346,0.09174486994743347,0.0551232174038887,0.04100862145423889,-0.023079270496964455,0.004005493130534887,0.03337911143898964
1.5699608325958252,0.09441519528627396,0.054741740226745605,0.042153049260377884,-0.023079270496964455,0.004386968910694122,0.03490501269698143
1.590055227279663,0.09670405089855194,0.05359731614589691,0.04406042397022247,-0.023460745811462402,0.004386968910694122,0.03604944050312042
1.6102142333984375,0.09861142933368683,0.053215838968753815,0.04634927958250046,-0.024223696440458298,0.004386968910694122,0.03757534176111221
1.6302204132080078,0.10128175467252731,0.05245288833975792,0.048638131469488144,-0.024986648932099342,0.00476844422519207,0.03833829239010811
1.6503105163574219,0.1035706102848053,0.05130846053361893,0.051689937710762024,-0.026131074875593185,0.00476844422519207,0.039101243019104004
1.670391321182251,0.10509651154279709,0.05130846053361893,0.05436026677489281,-0.026512550190091133,0.005149920005351305,0.0394827201962471
1.6904683113098145,0.10776684433221817,0.05054550990462303,0.056267641484737396,-0.02689402550458908,0.005531395319849253,0.040245670825242996
1.7105867862701416,0.11081864684820175,0.04940108209848404,0.05970092490315437,-0.02727550081908703,0.005912871100008488,0.042153049260377884
1.7306408882141113,0.11348897218704224,0.048638131469488144,0.06198977679014206,-0.027656977996230125,0.006294346414506435,0.04291599988937378
1.7508106231689453,0.11692225188016891,0.04711223021149635,0.06504157930612564,-0.02880140393972397,0.006294346414506435,0.04482337832450867
1.7708353996276855,0.1199740618467331,0.04634927958250046,0.06923781335353851,-0.02994582988321781,0.00667582219466567,0.04596780240535736
1.7909152507781982,0.12455176562070847,0.04482337832450867,0.07305257022380829,-0.030708782374858856,0.00667582219466567,0.04711223021149635
1.8109996318817139,0.12912946939468384,0.04329747334122658,0.07839322835206985,-0.031090257689356804,0.00667582219466567,0.048638131469488144
1.8310894966125488,0.1329442262649536,0.042153049260377884,0.08182650804519653,-0.032616160809993744,0.00667582219466567,0.050164032727479935
1.8514504432678223,0.13752193748950958,0.040627144277095795,0.08602273464202881,-0.034142062067985535,0.007057297509163618,0.051689937710762024
1.8715944290161133,0.14133669435977936,0.038719769567251205,0.09212634712457657,-0.03490501269698143,0.007057297509163618,0.05359731614589691
1.8916079998016357,0.14553292095661163,0.037193864583969116,0.09632257372140884,-0.03604944050312042,0.007438773289322853,0.0555046908557415
1.9117286205291748,0.1501106321811676,0.03452353551983833,0.1039520874619484,-0.03757534176111221,0.007057297509163618,0.05741206929087639
1.9318058490753174,0.15430685877799988,0.03299763426184654,0.10814831405878067,-0.038719769567251205,0.00667582219466567,0.059319447726011276
1.9519522190093994,0.16002899408340454,0.03032730519771576,0.11615930497646332,-0.040245670825242996,0.007057297509163618,0.06275273114442825
1.9720420837402344,0.1661325991153717,0.02727550081908703,0.12493324279785156,-0.04177157208323479,0.00667582219466567,0.06580453366041183
1.9927616119384766,0.17261768877506256,0.02384222112596035,0.1337071806192398,-0.04444190114736557,0.007057297509163618,0.06923781335353851
2.0128700733184814,0.1802472025156021,0.01773861236870289,0.14782176911830902,-0.04596780240535736,0.00667582219466567,0.07305257022380829
2.032954454421997,0.18902114033699036,0.01201647985726595,0.16079194843769073,-0.048638131469488144,0.007057297509163618,0.07801175117492676
2.0530436038970947,0.1997024416923523,0.0020981156267225742,0.1813916265964508,-0.05207141116261482,0.00667582219466567,0.08373387902975082
2.0731701850891113,0.21000228822231293,-0.008964675478637218,0.20351719856262207,-0.0555046908557415,0.00667582219466567,0.09250781685113907
2.0932836532592773,0.22220951318740845,-0.02536812424659729,0.23289081454277039,-0.061226826161146164,0.006294346414506435,0.1035706102848053
2.113485097885132,0.23365376889705658,-0.043678950518369675,0.264934778213501,-0.06885633617639542,0.00667582219466567,0.1192111074924469
2.1340370178222656,0.24090181291103363,-0.05970092490315437,0.28820478916168213,-0.07991912961006165,0.006294346414506435,0.13942931592464447
2.1541526317596436,0.2443350851535797,-0.07495994865894318,0.309567391872406,-0.08983749151229858,0.005912871100008488,0.16231784224510193
2.1744017601013184,0.2443350851535797,-0.08487831056118011,0.31986725330352783,-0.10433356463909149,0.0024795911740511656,0.19016556441783905
2.1944937705993652,0.24204623699188232,-0.09555962681770325,0.3248264193534851,-0.11730372905731201,-0.001716639962978661,0.21648737788200378
2.214649200439453,0.23899443447589874,-0.10204470902681351,0.3229190409183502,-0.12722209095954895,-0.00476844422519207,0.23975738883018494
2.234743118286133,0.23289081454277039,-0.11158160120248795,0.31719690561294556,-0.1348516047000885,-0.009346150793135166,0.2618829607963562
2.2550747394561768,0.22526131570339203,-0.12111848592758179,0.3114747703075409,-0.14324407279491425,-0.015449759550392628,0.28591591119766235
2.2751786708831787,0.21725031733512878,-0.13179980218410492,0.3068970739841461,-0.1501106321811676,-0.01888304017484188,0.3072785437107086
2.295285701751709,0.212672621011734,-0.13866636157035828,0.3057526648044586,-0.15735866129398346,-0.02536812424659729,0.33016708493232727
2.315444231033325,0.21152819693088531,-0.14476996660232544,0.3061341345310211,-0.1661325991153717,-0.03185320645570755,0.3538185656070709
2.335570812225342,0.212672621011734,-0.1497291475534439,0.3099488914012909,-0.17376211285591125,-0.038719769567251205,0.3774700462818146
2.355684757232666,0.21839475631713867,-0.15545128285884857,0.31757840514183044,-0.182917520403862,-0.04711223021149635,0.4015030264854431
2.375859260559082,0.22678720951080322,-0.16193637251853943,0.3282597064971924,-0.19054703414440155,-0.05397878959774971,0.4232471287250519
2.3959124088287354,0.23632410168647766,-0.1684214472770691,0.3385595381259918,-0.1977950781583786,-0.05855649709701538,0.44308385252952576
2.415990114212036,0.2466239482164383,-0.17605096101760864,0.35152971744537354,-0.20504310727119446,-0.06084534898400307,0.46253910660743713
2.4361917972564697,0.25387197732925415,-0.182917520403862,0.361829549074173,-0.2130540907382965,-0.06160829961299896,0.4812313914299011
2.4562809467315674,0.2569237947463989,-0.18787670135498047,0.3721294105052948,-0.22220951318740845,-0.05970092490315437,0.5006866455078125
2.4763591289520264,0.25616082549095154,-0.18978407979011536,0.3774700462818146,-0.2309834510087967,-0.06008239835500717,0.5170900821685791
2.4964332580566406,0.2508201599121094,-0.19169145822525024,0.38090333342552185,-0.23861294984817505,-0.06008239835500717,0.5342565178871155
2.5165278911590576,0.24204623699188232,-0.19359883666038513,0.38357365131378174,-0.2454795092344284,-0.06198977679014206,0.5502784848213196
2.5368776321411133,0.23289081454277039,-0.19474326074123383,0.386243999004364,-0.25349050760269165,-0.06733043491840363,0.5670633912086487
2.5569674968719482,0.22373540699481964,-0.1981765478849411,0.3889143168926239,-0.2607385218143463,-0.07495994865894318,0.5823224186897278
2.577073574066162,0.21953918039798737,-0.20237277448177338,0.3912031650543213,-0.26684215664863586,-0.08258945494890213,0.5979629158973694
2.5972025394439697,0.21763180196285248,-0.20656901597976685,0.3923476040363312,-0.2740901708602905,-0.09021896868944168,0.6124590039253235
2.617297887802124,0.21763180196285248,-0.212672621011734,0.39501792192459106,-0.2794308364391327,-0.09403372555971146,0.6265735626220703
2.6374857425689697,0.21801327168941498,-0.21992065012454987,0.39806973934173584,-0.28591591119766235,-0.09327077120542526,0.6410696506500244
2.6574935913085938,0.21915769577026367,-0.22678720951080322,0.4030289053916931,-0.2920195460319519,-0.0883115902543068,0.654421329498291
2.6776909828186035,0.22297245264053345,-0.23250934481620789,0.4060807228088379,-0.29850462079048157,-0.08182650804519653,0.6681544184684753
2.6976914405822754,0.22716869413852692,-0.23785001039505005,0.41142138838768005,-0.30231937766075134,-0.07495994865894318,0.6803616285324097
2.7177839279174805,0.2309834510087967,-0.24242770671844482,0.41599908471107483,-0.308804452419281,-0.0707637146115303,0.692568838596344
2.7378554344177246,0.23327229917049408,-0.2462424635887146,0.4224841594696045,-0.31376364827156067,-0.06809338182210922,0.7032501697540283
2.758039712905884,0.23327229917049408,-0.24891279637813568,0.42629891633987427,-0.31872281432151794,-0.06847485899925232,0.7143129706382751
2.778120994567871,0.23212787508964539,-0.25120165944099426,0.43087664246559143,-0.3240634799003601,-0.06961929053068161,0.7257572412490845
2.7982237339019775,0.2298390120267868,-0.25387197732925415,0.4354543387889862,-0.3286411762237549,-0.0711451917886734,0.7364385724067688
2.8184494972229004,0.22564278542995453,-0.25616082549095154,0.439269095659256,-0.33398184180259705,-0.07267109304666519,0.7482643127441406
2.8385379314422607,0.22030213475227356,-0.2595941126346588,0.44308385252952576,-0.3389410376548767,-0.07495994865894318,0.7578011751174927
2.8586556911468506,0.21763180196285248,-0.2630273997783661,0.44499123096466064,-0.343137264251709,-0.07686731964349747,0.7681010365486145
2.8787412643432617,0.21725031733512878,-0.266460657119751,0.44689860939979553,-0.34618905186653137,-0.07839322835206985,0.7791637778282166
2.8988187313079834,0.21648737788200378,-0.27103838324546814,0.4488059878349304,-0.35000380873680115,-0.07801175117492676,0.7898451089859009
2.9188973903656006,0.2153429538011551,-0.2759975492954254,0.4510948359966278,-0.3545815348625183,-0.07763027399778366,0.7993820309638977
2.9390337467193604,0.2157244235277176,-0.2813382148742676,0.4541466534137726,-0.3599221706390381,-0.07534141838550568,0.8070115447044373
2.959536075592041,0.2157244235277176,-0.28515297174453735,0.4560540020465851,-0.36297398805618286,-0.07267109304666519,0.8157854676246643
2.9796104431152344,0.21725031733512878,-0.28934919834136963,0.45948728919029236,-0.36678874492645264,-0.0707637146115303,0.8257037997245789
2.999704122543335,0.21915769577026367,-0.2931639552116394,0.46330204606056213,-0.368314653635025,-0.0707637146115303,0.8337147831916809
3.0198006629943848,0.22030213475227356,-0.2973601818084717,0.4663538634777069,-0.3721294105052948,-0.0711451917886734,0.8428702354431152
3.0399346351623535,0.22106507420539856,-0.30041199922561646,0.4705500900745392,-0.3759441375732422,-0.07000076025724411,0.8508812189102173
3.060178518295288,0.22144655883312225,-0.30308231711387634,0.47398337721824646,-0.37937742471694946,-0.06961929053068161,0.8596551418304443
3.0803098678588867,0.22220951318740845,-0.3065156042575836,0.47741663455963135,-0.38281071186065674,-0.06923781335353851,0.8665217161178589
3.1010453701019287,0.22220951318740845,-0.308804452419281,0.4812313914299011,-0.3854810297489166,-0.06771191209554672,0.8733882904052734
3.1212141513824463,0.22220951318740845,-0.3130006790161133,0.4850461483001709,-0.3881513774394989,-0.06809338182210922,0.882543683052063
3.1419692039489746,0.22220951318740845,-0.31567102670669556,0.4873350262641907,-0.3912031650543213,-0.06923781335353851,0.8886472582817078
3.162061929702759,0.22068360447883606,-0.31757840514183044,0.4880979657173157,-0.39425498247146606,-0.06923781335353851,0.8947508931159973
3.1821537017822266,0.21915769577026367,-0.3213931620121002,0.4888609051704407,-0.39578089118003845,-0.06847485899925232,0.9016174674034119
3.202207088470459,0.21763180196285248,-0.3244449496269226,0.49038681387901306,-0.39768826961517334,-0.06771191209554672,0.9100099205970764
3.2223258018493652,0.21763180196285248,-0.32940414547920227,0.49267566204071045,-0.3999771177768707,-0.06885633617639542,0.9142061471939087
3.2423620223999023,0.21763180196285248,-0.33398184180259705,0.4953460097312927,-0.4026474356651306,-0.06923781335353851,0.9210727214813232
3.262453317642212,0.21763180196285248,-0.3393225073814392,0.4987792670726776,-0.4053177833557129,-0.06961929053068161,0.9287022352218628
3.2825706005096436,0.21763180196285248,-0.343900203704834,0.5014495849609375,-0.4064621925354004,-0.06809338182210922,0.9351872801780701
3.3026657104492188,0.21801327168941498,-0.34657052159309387,0.5045014023780823,-0.4091325104236603,-0.06771191209554672,0.9401465058326721
3.322869062423706,0.21801327168941498,-0.34962233901023865,0.5064088106155396,-0.41218432784080505,-0.06733043491840363,0.9451056718826294
3.3429274559020996,0.21801327168941498,-0.35076677799224854,0.509079098701477,-0.41256579756736755,-0.06733043491840363,0.9504463076591492
3.3630592823028564,0.21877622604370117,-0.3530556261539459,0.5121309161186218,-0.41371023654937744,-0.06733043491840363,0.9569314122200012
3.3831496238708496,0.21992065012454987,-0.3545815348625183,0.5155642032623291,-0.41599908471107483,-0.06809338182210922,0.9626535177230835
3.403231382369995,0.22068360447883606,-0.3564889132976532,0.5182345509529114,-0.4179064631462097,-0.06847485899925232,0.9657053351402283
3.4233767986297607,0.22106507420539856,-0.3595407009124756,0.5189974904060364,-0.4205767810344696,-0.06847485899925232,0.9706645011901855
3.4434332847595215,0.22068360447883606,-0.361066609621048,0.5193789601325989,-0.4209582805633545,-0.06771191209554672,0.9744792580604553
3.4635963439941406,0.22068360447883606,-0.36449989676475525,0.5197604298591614,-0.4228656589984894,-0.06656748056411743,0.9786755442619324
3.483609676361084,0.22068360447883606,-0.36793315410614014,0.5205233693122864,-0.4240100681781769,-0.06618601083755493,0.9828717708587646
3.503723382949829,0.22068360447883606,-0.3725108802318573,0.5216678380966187,-0.42553597688674927,-0.06618601083755493,0.9863049983978271
3.5238101482391357,0.21953918039798737,-0.3759441375732422,0.5235751867294312,-0.42668038606643677,-0.06618601083755493,0.9905012845993042
3.5439634323120117,0.21763180196285248,-0.37899595499038696,0.5258640646934509,-0.42782482504844666,-0.06542305648326874,0.9935530424118042
3.5641074180603027,0.21725031733512878,-0.38128480315208435,0.5285343527793884,-0.42896926403045654,-0.06466010212898254,0.9977492690086365
3.584210157394409,0.21648737788200378,-0.38281071186065674,0.5315861701965332,-0.43049514293670654,-0.06389715522527695,1.0015640258789062
3.604268789291382,0.2157244235277176,-0.38281071186065674,0.533875048160553,-0.43240252137184143,-0.06466010212898254,1.0057603120803833
3.6243350505828857,0.2157244235277176,-0.38281071186065674,0.5357823967933655,-0.4331654906272888,-0.06542305648326874,1.0088120698928833
3.6444222927093506,0.2157244235277176,-0.3850995600223541,0.536926805973053,-0.4343098998069763,-0.06542305648326874,1.0122454166412354
3.664599657058716,0.2157244235277176,-0.387006938457489,0.5384527444839478,-0.4350728690624237,-0.06618601083755493,1.0156786441802979
3.6847617626190186,0.2157244235277176,-0.3896772861480713,0.5392156839370728,-0.4354543387889862,-0.06656748056411743,1.0179674625396729
3.7048511505126953,0.2157244235277176,-0.3927290737628937,0.5407415628433228,-0.4358358085155487,-0.06618601083755493,1.0206378698349
3.7249441146850586,0.2157244235277176,-0.39730677008628845,0.54112309217453,-0.4369802474975586,-0.06618601083755493,1.0240710973739624
3.745032787322998,0.2157244235277176,-0.4018844962120056,0.541886031627655,-0.4377431869506836,-0.06466010212898254,1.0263599157333374
3.765211582183838,0.2157244235277176,-0.4045548141002655,0.5430304408073425,-0.438506156206131,-0.06275273114442825,1.028648853302002
3.7852511405944824,0.2157244235277176,-0.4064621925354004,0.5445563197135925,-0.438506156206131,-0.06008239835500717,1.0328450202941895
3.80534291267395,0.2157244235277176,-0.4076066315174103,0.5468451976776123,-0.4388876259326935,-0.05893797054886818,1.035896897315979
3.825428009033203,0.2157244235277176,-0.4079881012439728,0.5495155453681946,-0.4396505653858185,-0.05893797054886818,1.0378042459487915
3.84552264213562,0.2157244235277176,-0.4079881012439728,0.5529488325119019,-0.44079500436782837,-0.05970092490315437,1.0393301248550415
3.865757703781128,0.2157244235277176,-0.4076066315174103,0.5548561811447144,-0.44193941354751587,-0.061226826161146164,1.0408560037612915
3.885899543762207,0.2157244235277176,-0.4076066315174103,0.5560005903244019,-0.44270238280296326,-0.06275273114442825,1.041237473487854
3.906031370162964,0.2157244235277176,-0.4076066315174103,0.5560005903244019,-0.44308385252952576,-0.06389715522527695,1.042763352394104
3.926215648651123,0.2157244235277176,-0.4079881012439728,0.5560005903244019,-0.44308385252952576,-0.06389715522527695,1.0442893505096436
3.9463789463043213,0.2157244235277176,-0.41103988885879517,0.5560005903244019,-0.44308385252952576,-0.06351567804813385,1.046196699142456
3.966411590576172,0.2157244235277176,-0.41485464572906494,0.5563820600509644,-0.44346532225608826,-0.06351567804813385,1.048485517501831
3.986487627029419,0.2153429538011551,-0.41676202416419983,0.5567635893821716,-0.44422826170921326,-0.06237125024199486,1.050011396408081
4.006600379943848,0.2141985148191452,-0.4182879328727722,0.5571450591087341,-0.44460976123809814,-0.05970092490315437,1.051918864250183
4.026935338973999,0.212672621011734,-0.4190509021282196,0.5575265288352966,-0.44499123096466064,-0.059319447726011276,1.0530632734298706
4.047051668167114,0.21076524257659912,-0.4190509021282196,0.5586709380149841,-0.44537270069122314,-0.059319447726011276,1.054970622062683
4.0671398639678955,0.21000228822231293,-0.4190509021282196,0.5609598159790039,-0.44575417041778564,-0.05970092490315437,1.058022379875183
4.087258577346802,0.20923933386802673,-0.4190509021282196,0.5640115737915039,-0.44575417041778564,-0.06008239835500717,1.0610742568969727
4.107345342636108,0.20923933386802673,-0.4190509021282196,0.5655375123023987,-0.44613564014434814,-0.06198977679014206,1.0629816055297852
4.127397537231445,0.20962081849575043,-0.4194323718547821,0.5659189820289612,-0.44651713967323303,-0.06351567804813385,1.0629816055297852
4.1474928855896,0.20962081849575043,-0.4201953113079071,0.5655375123023987,-0.44651713967323303,-0.06275273114442825,1.0637445449829102
4.167568683624268,0.21038375794887543,-0.4217212200164795,0.5655375123023987,-0.44651713967323303,-0.06160829961299896,1.0656518936157227
4.18766713142395,0.21076524257659912,-0.4247730076313019,0.5655375123023987,-0.44651713967323303,-0.06084534898400307,1.0667964220046997
4.20777153968811,0.21190966665744781,-0.42896926403045654,0.5655375123023987,-0.44651713967323303,-0.06008239835500717,1.0671778917312622
4.227843761444092,0.2134355753660202,-0.43240252137184143,0.5655375123023987,-0.44651713967323303,-0.05893797054886818,1.0675593614578247
4.247969627380371,0.2138170450925827,-0.4339284300804138,0.5655375123023987,-0.44651713967323303,-0.05703059583902359,1.0679408311843872
4.268011569976807,0.2141985148191452,-0.4343098998069763,0.5663004517555237,-0.44613564014434814,-0.05436026677489281,1.0698481798171997
4.288205623626709,0.2145799994468689,-0.4331654906272888,0.5682078003883362,-0.44651713967323303,-0.05359731614589691,1.0706111192703247
4.30829930305481,0.2145799994468689,-0.43240252137184143,0.570496678352356,-0.44651713967323303,-0.0551232174038887,1.0706111192703247
4.328389644622803,0.2145799994468689,-0.43125811219215393,0.5739299654960632,-0.44689860939979553,-0.05664911866188049,1.0709925889968872
4.348515748977661,0.2145799994468689,-0.43087664246559143,0.576218843460083,-0.44689860939979553,-0.05970092490315437,1.0721369981765747
4.36867618560791,0.2141985148191452,-0.43049514293670654,0.5773632526397705,-0.44728007912635803,-0.061226826161146164,1.0732814073562622
4.388696670532227,0.2134355753660202,-0.43049514293670654,0.5773632526397705,-0.44728007912635803,-0.06275273114442825,1.0748074054718018
4.408786773681641,0.2130540907382965,-0.43049514293670654,0.576981782913208,-0.44728007912635803,-0.06351567804813385,1.0751888751983643
4.428934335708618,0.21190966665744781,-0.43087664246559143,0.5758373141288757,-0.44766154885292053,-0.06351567804813385,1.0755703449249268
4.449016094207764,0.21038375794887543,-0.43125811219215393,0.5743114352226257,-0.4484245181083679,-0.06313420087099075,1.0767147541046143
4.469125747680664,0.21000228822231293,-0.43163958191871643,0.5727855563163757,-0.4484245181083679,-0.06237125024199486,1.0778591632843018
4.489154577255249,0.20962081849575043,-0.4327840209007263,0.5724040865898132,-0.44804301857948303,-0.06084534898400307,1.0782406330108643
4.509273052215576,0.20885786414146423,-0.4339284300804138,0.572022557258606,-0.44804301857948303,-0.061226826161146164,1.0786221027374268
4.529313802719116,0.20809490978717804,-0.4346913993358612,0.572022557258606,-0.44804301857948303,-0.05970092490315437,1.0790035724639893
4.549380302429199,0.20847637951374054,-0.4350728690624237,0.572022557258606,-0.44804301857948303,-0.05970092490315437,1.0793850421905518
4.569469213485718,0.20847637951374054,-0.4354543387889862,0.5731670260429382,-0.44804301857948303,-0.05893797054886818,1.0820554494857788
4.589545249938965,0.20885786414146423,-0.4354543387889862,0.5746929049491882,-0.44804301857948303,-0.05893797054886818,1.0831998586654663
4.609640598297119,0.20885786414146423,-0.4354543387889862,0.5758373141288757,-0.44804301857948303,-0.05893797054886818,1.0835813283920288
4.629724740982056,0.21038375794887543,-0.4354543387889862,0.5773632526397705,-0.44804301857948303,-0.06008239835500717,1.0847257375717163
4.649772882461548,0.21076524257659912,-0.4354543387889862,0.577744722366333,-0.44804301857948303,-0.05893797054886818,1.0851072072982788
4.6698994636535645,0.21076524257659912,-0.4354543387889862,0.5781261920928955,-0.44804301857948303,-0.05893797054886818,1.0851072072982788
4.6899542808532715,0.21076524257659912,-0.4354543387889862,0.5781261920928955,-0.44804301857948303,-0.05741206929087639,1.0851072072982788
4.710118055343628,0.21076524257659912,-0.4354543387889862,0.5781261920928955,-0.44804301857948303,-0.05664911866188049,1.0851072072982788
4.730183839797974,0.21076524257659912,-0.4354543387889862,0.577744722366333,-0.44804301857948303,-0.056267641484737396,1.0851072072982788
4.750437021255493,0.21076524257659912,-0.4354543387889862,0.577744722366333,-0.44804301857948303,-0.056267641484737396,1.0851072072982788
4.770531415939331,0.21038375794887543,-0.4354543387889862,0.5773632526397705,-0.44804301857948303,-0.05664911866188049,1.0851072072982788
4.7905848026275635,0.21038375794887543,-0.4354543387889862,0.576981782913208,-0.44804301857948303,-0.05664911866188049,1.0851072072982788
4.810654163360596,0.21038375794887543,-0.4358358085155487,0.576981782913208,-0.44766154885292053,-0.056267641484737396,1.0854886770248413
4.830798625946045,0.21038375794887543,-0.4358358085155487,0.576981782913208,-0.44766154885292053,-0.056267641484737396,1.0854886770248413
4.850844621658325,0.21000228822231293,-0.4358358085155487,0.576981782913208,-0.44804301857948303,-0.056267641484737396,1.0854886770248413
4.870927810668945,0.20885786414146423,-0.4358358085155487,0.576981782913208,-0.44804301857948303,-0.05664911866188049,1.0854886770248413
4.891073703765869,0.20733195543289185,-0.4365987777709961,0.576981782913208,-0.44804301857948303,-0.05664911866188049,1.0858701467514038
4.911121368408203,0.20580606162548065,-0.4381246566772461,0.576981782913208,-0.44766154885292053,-0.05741206929087639,1.0858701467514038
4.931210279464722,0.20504310727119446,-0.44079500436782837,0.576981782913208,-0.44804301857948303,-0.058175019919872284,1.0858701467514038
4.951263904571533,0.20428015291690826,-0.44384679198265076,0.576981782913208,-0.44804301857948303,-0.05893797054886818,1.0858701467514038
4.971381664276123,0.20351719856262207,-0.44613564014434814,0.5773632526397705,-0.44804301857948303,-0.05893797054886818,1.0862516164779663
4.991479873657227,0.20504310727119446,-0.44613564014434814,0.5773632526397705,-0.44766154885292053,-0.057793546468019485,1.0862516164779663
5.01154351234436,0.20733195543289185,-0.44575417041778564,0.578507661819458,-0.44766154885292053,-0.05664911866188049,1.0877774953842163
5.031620264053345,0.20962081849575043,-0.44499123096466064,0.5804150700569153,-0.44728007912635803,-0.05664911866188049,1.0885404348373413
5.051699876785278,0.2134355753660202,-0.44460976123809814,0.5834668278694153,-0.44766154885292053,-0.056267641484737396,1.0885404348373413
5.071848392486572,0.2157244235277176,-0.44308385252952576,0.5846112966537476,-0.44728007912635803,-0.0558861680328846,1.0889219045639038
5.091883420944214,0.21839475631713867,-0.44155794382095337,0.5853742361068726,-0.44766154885292053,-0.056267641484737396,1.0885404348373413
5.111971378326416,0.21801327168941498,-0.44079500436782837,0.5853742361068726,-0.44728007912635803,-0.054741740226745605,1.0889219045639038
5.132113933563232,0.2161058932542801,-0.4404135048389435,0.5849927663803101,-0.44728007912635803,-0.054741740226745605,1.0885404348373413
5.152169466018677,0.212672621011734,-0.4396505653858185,0.5838482975959778,-0.44728007912635803,-0.05397878959774971,1.0889219045639038
5.172332286834717,0.20962081849575043,-0.4388876259326935,0.5823224186897278,-0.44728007912635803,-0.0551232174038887,1.0889219045639038
5.19240927696228,0.20656901597976685,-0.438506156206131,0.5811780095100403,-0.44728007912635803,-0.05664911866188049,1.0893033742904663
5.212510108947754,0.20313572883605957,-0.438506156206131,0.580033540725708,-0.44728007912635803,-0.05893797054886818,1.0893033742904663
5.2326414585113525,0.20084688067436218,-0.438506156206131,0.5788891315460205,-0.44728007912635803,-0.061226826161146164,1.0893033742904663
5.252824306488037,0.1989395022392273,-0.438506156206131,0.577744722366333,-0.44728007912635803,-0.06160829961299896,1.0893033742904663
5.272910118103027,0.1989395022392273,-0.4388876259326935,0.5773632526397705,-0.44728007912635803,-0.06198977679014206,1.0893033742904663
5.292982816696167,0.20084688067436218,-0.4396505653858185,0.577744722366333,-0.44728007912635803,-0.06084534898400307,1.0896848440170288
5.313058376312256,0.20389868319034576,-0.4404135048389435,0.5781261920928955,-0.44689860939979553,-0.061226826161146164,1.0896848440170288
5.333193063735962,0.20695048570632935,-0.44079500436782837,0.579270601272583,-0.44689860939979553,-0.05970092490315437,1.0896848440170288
5.353644847869873,0.21000228822231293,-0.44193941354751587,0.580033540725708,-0.44651713967323303,-0.058175019919872284,1.0896848440170288
5.373740196228027,0.2130540907382965,-0.44193941354751587,0.5811780095100403,-0.44651713967323303,-0.0555046908557415,1.0900664329528809
5.393810987472534,0.2141985148191452,-0.44270238280296326,0.5823224186897278,-0.44613564014434814,-0.05207141116261482,1.0900664329528809
5.414302587509155,0.2145799994468689,-0.44270238280296326,0.5823224186897278,-0.44613564014434814,-0.05207141116261482,1.0896848440170288
5.43449592590332,0.2145799994468689,-0.44232088327407837,0.5823224186897278,-0.44613564014434814,-0.05207141116261482,1.0896848440170288
5.454546213150024,0.212672621011734,-0.44117647409439087,0.5823224186897278,-0.44575417041778564,-0.05207141116261482,1.0900664329528809
5.474717617034912,0.21000228822231293,-0.4404135048389435,0.5823224186897278,-0.44575417041778564,-0.05397878959774971,1.0900664329528809
5.494758367538452,0.20733195543289185,-0.439269095659256,0.5823224186897278,-0.44575417041778564,-0.0555046908557415,1.0900664329528809
5.515172958374023,0.20504310727119446,-0.438506156206131,0.5819409489631653,-0.44575417041778564,-0.057793546468019485,1.0904479026794434
5.5353169441223145,0.20313572883605957,-0.438506156206131,0.5815594792366028,-0.44575417041778564,-0.06008239835500717,1.0904479026794434
5.555500268936157,0.20160982012748718,-0.438506156206131,0.5811780095100403,-0.44575417041778564,-0.06084534898400307,1.0908293724060059
5.57563042640686,0.20122835040092468,-0.438506156206131,0.5804150700569153,-0.44575417041778564,-0.06046387553215027,1.0915923118591309
5.595704555511475,0.20122835040092468,-0.4388876259326935,0.579270601272583,-0.44575417041778564,-0.06008239835500717,1.0919737815856934
5.615864515304565,0.20351719856262207,-0.4388876259326935,0.579270601272583,-0.44575417041778564,-0.05970092490315437,1.0919737815856934
5.635894775390625,0.20580606162548065,-0.440032035112381,0.579270601272583,-0.44575417041778564,-0.058175019919872284,1.0919737815856934
5.656076192855835,0.20809490978717804,-0.44079500436782837,0.579270601272583,-0.44537270069122314,-0.05703059583902359,1.0919737815856934
5.67612361907959,0.20962081849575043,-0.44079500436782837,0.579270601272583,-0.44575417041778564,-0.0551232174038887,1.0919737815856934
5.696168422698975,0.21152819693088531,-0.44079500436782837,0.5796520709991455,-0.44537270069122314,-0.053215838968753815,1.0919737815856934
5.7162604331970215,0.212672621011734,-0.44079500436782837,0.580033540725708,-0.44537270069122314,-0.05283436179161072,1.0919737815856934
5.7363200187683105,0.212672621011734,-0.44079500436782837,0.5804150700569153,-0.44537270069122314,-0.05245288833975792,1.0919737815856934
5.756406784057617,0.212672621011734,-0.44079500436782837,0.5807965397834778,-0.44537270069122314,-0.05245288833975792,1.0919737815856934
5.776482105255127,0.21038375794887543,-0.4404135048389435,0.5815594792366028,-0.44537270069122314,-0.05283436179161072,1.0923552513122559
5.796619415283203,0.20771344006061554,-0.440032035112381,0.5815594792366028,-0.44537270069122314,-0.05359731614589691,1.0919737815856934
5.816711187362671,0.20504310727119446,-0.439269095659256,0.5811780095100403,-0.44537270069122314,-0.05397878959774971,1.0919737815856934
5.836818695068359,0.20313572883605957,-0.4388876259326935,0.5811780095100403,-0.44537270069122314,-0.0558861680328846,1.0923552513122559
5.856889963150024,0.20122835040092468,-0.4388876259326935,0.5811780095100403,-0.44537270069122314,-0.06008239835500717,1.0919737815856934
5.876954078674316,0.20084688067436218,-0.438506156206131,0.580033540725708,-0.44537270069122314,-0.061226826161146164,1.0919737815856934
5.897028684616089,0.20122835040092468,-0.4388876259326935,0.579270601272583,-0.44499123096466064,-0.06160829961299896,1.0923552513122559
5.917132377624512,0.20313572883605957,-0.4388876259326935,0.579270601272583,-0.44499123096466064,-0.06084534898400307,1.0919737815856934
5.937170505523682,0.20580606162548065,-0.440032035112381,0.579270601272583,-0.44499123096466064,-0.05893797054886818,1.0923552513122559
5.957255601882935,0.20885786414146423,-0.44079500436782837,0.579270601272583,-0.44499123096466064,-0.05664911866188049,1.0923552513122559
5.9773335456848145,0.21076524257659912,-0.44117647409439087,0.579270601272583,-0.44499123096466064,-0.05397878959774971,1.0923552513122559
5.997403860092163,0.21190966665744781,-0.44117647409439087,0.5796520709991455,-0.44460976123809814,-0.051689937710762024,1.0923552513122559
6.017464876174927,0.21190966665744781,-0.44117647409439087,0.580033540725708,-0.44460976123809814,-0.051689937710762024,1.0923552513122559
6.037561416625977,0.21190966665744781,-0.44079500436782837,0.5804150700569153,-0.44460976123809814,-0.05207141116261482,1.0923552513122559
6.057624816894531,0.21152819693088531,-0.44079500436782837,0.5811780095100403,-0.44460976123809814,-0.05283436179161072,1.0923552513122559
6.07769513130188,0.21000228822231293,-0.4404135048389435,0.5815594792366028,-0.44422826170921326,-0.05436026677489281,1.0923552513122559
6.097782611846924,0.20809490978717804,-0.4396505653858185,0.5815594792366028,-0.44422826170921326,-0.056267641484737396,1.0919737815856934
6.117879629135132,0.20580606162548065,-0.439269095659256,0.5815594792366028,-0.44422826170921326,-0.0558861680328846,1.0919737815856934
6.137929439544678,0.20351719856262207,-0.438506156206131,0.5811780095100403,-0.44422826170921326,-0.056267641484737396,1.0919737815856934
6.15802001953125,0.20313572883605957,-0.438506156206131,0.5811780095100403,-0.44422826170921326,-0.058175019919872284,1.0919737815856934
6.178091764450073,0.20313572883605957,-0.438506156206131,0.5804150700569153,-0.44422826170921326,-0.05970092490315437,1.0923552513122559
6.198168992996216,0.20313572883605957,-0.438506156206131,0.579270601272583,-0.44422826170921326,-0.06046387553215027,1.0923552513122559
6.218326807022095,0.20389868319034576,-0.4388876259326935,0.5788891315460205,-0.44384679198265076,-0.059319447726011276,1.0923552513122559
6.2383294105529785,0.20618753135204315,-0.4396505653858185,0.5788891315460205,-0.44346532225608826,-0.05893797054886818,1.0923552513122559
6.258421421051025,0.20847637951374054,-0.44079500436782837,0.5788891315460205,-0.44308385252952576,-0.057793546468019485,1.0923552513122559
6.278547763824463,0.21038375794887543,-0.44079500436782837,0.579270601272583,-0.44308385252952576,-0.0555046908557415,1.0923552513122559
6.2986228466033936,0.21114671230316162,-0.44079500436782837,0.579270601272583,-0.44308385252952576,-0.05359731614589691,1.0923552513122559
6.318782806396484,0.21190966665744781,-0.44079500436782837,0.579270601272583,-0.44270238280296326,-0.05245288833975792,1.0919737815856934
6.338831186294556,0.21190966665744781,-0.44079500436782837,0.5796520709991455,-0.44270238280296326,-0.05245288833975792,1.0923552513122559
6.3589043617248535,0.21152819693088531,-0.44079500436782837,0.580033540725708,-0.44270238280296326,-0.05283436179161072,1.0923552513122559
6.379012584686279,0.21076524257659912,-0.4404135048389435,0.5804150700569153,-0.44270238280296326,-0.05359731614589691,1.0923552513122559
6.399143695831299,0.20923933386802673,-0.4396505653858185,0.5804150700569153,-0.44270238280296326,-0.054741740226745605,1.0919737815856934
6.419234037399292,0.20695048570632935,-0.439269095659256,0.5804150700569153,-0.44270238280296326,-0.054741740226745605,1.0923552513122559
6.439295530319214,0.20504310727119446,-0.438506156206131,0.5804150700569153,-0.44270238280296326,-0.0555046908557415,1.0923552513122559
6.459385395050049,0.20389868319034576,-0.438506156206131,0.5804150700569153,-0.44270238280296326,-0.058175019919872284,1.0919737815856934
6.4794745445251465,0.20313572883605957,-0.438506156206131,0.5804150700569153,-0.44270238280296326,-0.059319447726011276,1.0919737815856934
6.499750852584839,0.20313572883605957,-0.438506156206131,0.580033540725708,-0.44270238280296326,-0.06008239835500717,1.0923552513122559
6.519856929779053,0.20313572883605957,-0.438506156206131,0.580033540725708,-0.44270238280296326,-0.05970092490315437,1.0923552513122559
6.539917469024658,0.20466163754463196,-0.4388876259326935,0.5796520709991455,-0.44308385252952576,-0.05970092490315437,1.0919737815856934
6.560148239135742,0.20656901597976685,-0.4388876259326935,0.579270601272583,-0.44270238280296326,-0.05893797054886818,1.0919737815856934
6.580136299133301,0.20847637951374054,-0.4396505653858185,0.579270601272583,-0.44270238280296326,-0.05703059583902359,1.0919737815856934
6.600223064422607,0.21038375794887543,-0.440032035112381,0.579270601272583,-0.44308385252952576,-0.05436026677489281,1.0919737815856934
6.620347738265991,0.21114671230316162,-0.44079500436782837,0.579270601272583,-0.44308385252952576,-0.053215838968753815,1.0923552513122559
6.640425682067871,0.212672621011734,-0.44079500436782837,0.579270601272583,-0.44308385252952576,-0.05245288833975792,1.0919737815856934
6.6605224609375,0.2130540907382965,-0.44079500436782837,0.579270601272583,-0.44308385252952576,-0.05207141116261482,1.0919737815856934
6.680744647979736,0.2130540907382965,-0.44079500436782837,0.5796520709991455,-0.44308385252952576,-0.05283436179161072,1.0919737815856934
6.700838804244995,0.212672621011734,-0.4404135048389435,0.580033540725708,-0.44308385252952576,-0.05245288833975792,1.0919737815856934
6.720909833908081,0.21038375794887543,-0.4396505653858185,0.580033540725708,-0.44308385252952576,-0.05283436179161072,1.0919737815856934
6.740984916687012,0.20847637951374054,-0.438506156206131,0.580033540725708,-0.44308385252952576,-0.053215838968753815,1.0915923118591309
6.761101245880127,0.20618753135204315,-0.438506156206131,0.580033540725708,-0.44308385252952576,-0.05359731614589691,1.0915923118591309
6.781166315078735,0.20313572883605957,-0.438506156206131,0.580033540725708,-0.44308385252952576,-0.05664911866188049,1.0915923118591309
6.801312685012817,0.20275425910949707,-0.438506156206131,0.580033540725708,-0.44308385252952576,-0.05893797054886818,1.0915923118591309
6.821429014205933,0.20313572883605957,-0.438506156206131,0.5796520709991455,-0.44308385252952576,-0.06046387553215027,1.0919737815856934
6.841552734375,0.20313572883605957,-0.438506156206131,0.5796520709991455,-0.44308385252952576,-0.061226826161146164,1.0915923118591309
6.861591815948486,0.20389868319034576,-0.4388876259326935,0.579270601272583,-0.44308385252952576,-0.06008239835500717,1.0915923118591309
6.881756067276001,0.20656901597976685,-0.4388876259326935,0.579270601272583,-0.44308385252952576,-0.05893797054886818,1.0915923118591309
6.9018120765686035,0.20733195543289185,-0.4396505653858185,0.579270601272583,-0.44308385252952576,-0.0558861680328846,1.0915923118591309
6.921921968460083,0.20885786414146423,-0.4404135048389435,0.579270601272583,-0.44308385252952576,-0.0555046908557415,1.0912108421325684
6.942001581192017,0.21076524257659912,-0.44079500436782837,0.579270601272583,-0.44346532225608826,-0.05397878959774971,1.0912108421325684
6.962104320526123,0.212672621011734,-0.44193941354751587,0.579270601272583,-0.44308385252952576,-0.053215838968753815,1.0912108421325684
6.982213497161865,0.2138170450925827,-0.44308385252952576,0.5796520709991455,-0.44346532225608826,-0.05283436179161072,1.0915923118591309
7.002322196960449,0.2134355753660202,-0.44308385252952576,0.580033540725708,-0.44346532225608826,-0.05245288833975792,1.0912108421325684
7.022413730621338,0.2134355753660202,-0.44270238280296326,0.580033540725708,-0.44346532225608826,-0.051689937710762024,1.0915923118591309
7.042509078979492,0.21190966665744781,-0.44155794382095337,0.5804150700569153,-0.44346532225608826,-0.051689937710762024,1.0912108421325684
7.062567472457886,0.20885786414146423,-0.4404135048389435,0.5807965397834778,-0.44346532225608826,-0.05245288833975792,1.0912108421325684
7.082673072814941,0.20618753135204315,-0.439269095659256,0.5815594792366028,-0.44384679198265076,-0.05359731614589691,1.0912108421325684
7.102684497833252,0.20466163754463196,-0.438506156206131,0.5815594792366028,-0.44384679198265076,-0.05855649709701538,1.0912108421325684
7.122770071029663,0.20313572883605957,-0.438506156206131,0.5811780095100403,-0.44384679198265076,-0.061226826161146164,1.0912108421325684
7.142868518829346,0.20313572883605957,-0.438506156206131,0.5811780095100403,-0.44422826170921326,-0.06389715522527695,1.0912108421325684
7.163029193878174,0.20313572883605957,-0.4388876259326935,0.580033540725708,-0.44422826170921326,-0.06313420087099075,1.0912108421325684
7.183155536651611,0.20428015291690826,-0.4388876259326935,0.579270601272583,-0.44422826170921326,-0.06237125024199486,1.0912108421325684
7.2032387256622314,0.20656901597976685,-0.4396505653858185,0.579270601272583,-0.44422826170921326,-0.059319447726011276,1.0912108421325684
7.223309516906738,0.20771344006061554,-0.440032035112381,0.579270601272583,-0.44422826170921326,-0.057793546468019485,1.0915923118591309
7.243446350097656,0.20923933386802673,-0.44079500436782837,0.579270601272583,-0.44422826170921326,-0.05741206929087639,1.0912108421325684
7.2635486125946045,0.21114671230316162,-0.44079500436782837,0.579270601272583,-0.44422826170921326,-0.0551232174038887,1.0912108421325684
7.283587694168091,0.2130540907382965,-0.44079500436782837,0.579270601272583,-0.44422826170921326,-0.05436026677489281,1.0912108421325684
7.3036768436431885,0.2138170450925827,-0.44079500436782837,0.579270601272583,-0.44422826170921326,-0.05283436179161072,1.0912108421325684
7.323740482330322,0.2138170450925827,-0.44079500436782837,0.5796520709991455,-0.44422826170921326,-0.05207141116261482,1.0912108421325684
7.3438403606414795,0.212672621011734,-0.4404135048389435,0.580033540725708,-0.44460976123809814,-0.05092698708176613,1.0912108421325684
7.363935232162476,0.21038375794887543,-0.4396505653858185,0.580033540725708,-0.44460976123809814,-0.05054550990462303,1.0912108421325684
7.384032487869263,0.20733195543289185,-0.439269095659256,0.580033540725708,-0.44460976123809814,-0.051689937710762024,1.0912108421325684
7.404183387756348,0.20504310727119446,-0.438506156206131,0.580033540725708,-0.44460976123809814,-0.053215838968753815,1.0912108421325684
7.424198627471924,0.20313572883605957,-0.438506156206131,0.580033540725708,-0.44460976123809814,-0.057793546468019485,1.0915923118591309
7.444282054901123,0.20199130475521088,-0.4381246566772461,0.580033540725708,-0.44460976123809814,-0.061226826161146164,1.0912108421325684
7.464457035064697,0.20084688067436218,-0.4377431869506836,0.580033540725708,-0.44460976123809814,-0.06084534898400307,1.0912108421325684
7.484579801559448,0.20122835040092468,-0.4377431869506836,0.5796520709991455,-0.44460976123809814,-0.05970092490315437,1.0912108421325684
7.504668235778809,0.20351719856262207,-0.4377431869506836,0.579270601272583,-0.44460976123809814,-0.05855649709701538,1.0912108421325684
7.524915933609009,0.20580606162548065,-0.4377431869506836,0.579270601272583,-0.44460976123809814,-0.0558861680328846,1.0915923118591309
7.545063495635986,0.20771344006061554,-0.4388876259326935,0.579270601272583,-0.44460976123809814,-0.054741740226745605,1.0915923118591309
7.56523871421814,0.20885786414146423,-0.4396505653858185,0.579270601272583,-0.44460976123809814,-0.05397878959774971,1.0912108421325684
7.585271596908569,0.21000228822231293,-0.44079500436782837,0.579270601272583,-0.44460976123809814,-0.053215838968753815,1.0912108421325684
7.605361700057983,0.21076524257659912,-0.44117647409439087,0.579270601272583,-0.44460976123809814,-0.05207141116261482,1.0912108421325684
7.625865459442139,0.21076524257659912,-0.44079500436782837,0.579270601272583,-0.44460976123809814,-0.05245288833975792,1.0912108421325684
7.64596152305603,0.21076524257659912,-0.44079500436782837,0.579270601272583,-0.44460976123809814,-0.053215838968753815,1.0912108421325684
7.66603684425354,0.21038375794887543,-0.4396505653858185,0.5796520709991455,-0.44460976123809814,-0.05397878959774971,1.0912108421325684
7.686156511306763,0.20962081849575043,-0.439269095659256,0.5796520709991455,-0.44460976123809814,-0.0551232174038887,1.0912108421325684
7.706273555755615,0.20771344006061554,-0.4388876259326935,0.580033540725708,-0.44460976123809814,-0.0551232174038887,1.0912108421325684
7.726405382156372,0.20580606162548065,-0.438506156206131,0.580033540725708,-0.44460976123809814,-0.0558861680328846,1.0908293724060059
7.746503114700317,0.20542457699775696,-0.438506156206131,0.580033540725708,-0.44460976123809814,-0.057793546468019485,1.0908293724060059
7.766627311706543,0.20504310727119446,-0.438506156206131,0.580033540725708,-0.44460976123809814,-0.05970092490315437,1.0908293724060059
7.78667688369751,0.20504310727119446,-0.438506156206131,0.580033540725708,-0.44460976123809814,-0.06046387553215027,1.0908293724060059
7.806747913360596,0.20542457699775696,-0.438506156206131,0.580033540725708,-0.44460976123809814,-0.06008239835500717,1.0908293724060059
7.826802730560303,0.20542457699775696,-0.438506156206131,0.580033540725708,-0.44460976123809814,-0.05893797054886818,1.0908293724060059
7.84692120552063,0.20542457699775696,-0.4388876259326935,0.5796520709991455,-0.44460976123809814,-0.05741206929087639,1.0908293724060059
7.86699652671814,0.20618753135204315,-0.4388876259326935,0.579270601272583,-0.44460976123809814,-0.056267641484737396,1.0908293724060059
7.887082099914551,0.20656901597976685,-0.439269095659256,0.579270601272583,-0.44460976123809814,-0.056267641484737396,1.0908293724060059
7.907174587249756,0.20656901597976685,-0.4396505653858185,0.579270601272583,-0.44460976123809814,-0.05664911866188049,1.0908293724060059
7.927270889282227,0.20771344006061554,-0.440032035112381,0.579270601272583,-0.44460976123809814,-0.05703059583902359,1.0908293724060059
7.9473395347595215,0.20847637951374054,-0.440032035112381,0.579270601272583,-0.44460976123809814,-0.056267641484737396,1.0908293724060059
7.967419624328613,0.20847637951374054,-0.440032035112381,0.579270601272583,-0.44460976123809814,-0.0558861680328846,1.0908293724060059
7.98775839805603,0.21000228822231293,-0.440032035112381,0.5796520709991455,-0.44460976123809814,-0.0555046908557415,1.0912108421325684
8.007860898971558,0.21076524257659912,-0.440032035112381,0.5796520709991455,-0.44460976123809814,-0.0551232174038887,1.0908293724060059
8.027936458587646,0.21038375794887543,-0.440032035112381,0.580033540725708,-0.44460976123809814,-0.0551232174038887,1.0908293724060059
8.048018217086792,0.21038375794887543,-0.4396505653858185,0.580033540725708,-0.44460976123809814,-0.0555046908557415,1.0912108421325684
8.068129777908325,0.21038375794887543,-0.4396505653858185,0.580033540725708,-0.44460976123809814,-0.056267641484737396,1.0912108421325684
8.088310241699219,0.20962081849575043,-0.4396505653858185,0.580033540725708,-0.44460976123809814,-0.05703059583902359,1.0908293724060059
8.108437061309814,0.20771344006061554,-0.4396505653858185,0.580033540725708,-0.44460976123809814,-0.05703059583902359,1.0908293724060059
8.128489017486572,0.20695048570632935,-0.4396505653858185,0.580033540725708,-0.44460976123809814,-0.057793546468019485,1.0912108421325684
8.149025917053223,0.20618753135204315,-0.4396505653858185,0.580033540725708,-0.44460976123809814,-0.057793546468019485,1.0912108421325684
8.169114589691162,0.20580606162548065,-0.439269095659256,0.580033540725708,-0.44460976123809814,-0.06008239835500717,1.0912108421325684
8.189394235610962,0.20580606162548065,-0.439269095659256,0.580033540725708,-0.44460976123809814,-0.06008239835500717,1.0912108421325684
8.209514856338501,0.20580606162548065,-0.439269095659256,0.580033540725708,-0.44460976123809814,-0.05970092490315437,1.0912108421325684
8.22959303855896,0.20618753135204315,-0.439269095659256,0.580033540725708,-0.44460976123809814,-0.05893797054886818,1.0912108421325684
8.249720811843872,0.20618753135204315,-0.439269095659256,0.580033540725708,-0.44460976123809814,-0.057793546468019485,1.0912108421325684
8.269810914993286,0.20656901597976685,-0.4396505653858185,0.5796520709991455,-0.44460976123809814,-0.056267641484737396,1.0912108421325684
8.289870262145996,0.20656901597976685,-0.4396505653858185,0.5796520709991455,-0.44460976123809814,-0.0558861680328846,1.0912108421325684
8.309979677200317,0.20771344006061554,-0.4396505653858185,0.5796520709991455,-0.44460976123809814,-0.056267641484737396,1.0912108421325684
8.33004903793335,0.20847637951374054,-0.4396505653858185,0.580033540725708,-0.44460976123809814,-0.0558861680328846,1.0912108421325684
8.35007643699646,0.20847637951374054,-0.4396505653858185,0.580033540725708,-0.44460976123809814,-0.0558861680328846,1.0912108421325684
8.370173215866089,0.20847637951374054,-0.4396505653858185,0.580033540725708,-0.44460976123809814,-0.054741740226745605,1.0912108421325684
8.390362977981567,0.20847637951374054,-0.4396505653858185,0.580033540725708,-0.44460976123809814,-0.05359731614589691,1.0912108421325684
8.41036057472229,0.20847637951374054,-0.4396505653858185,0.580033540725708,-0.44460976123809814,-0.053215838968753815,1.0912108421325684
8.430647611618042,0.20847637951374054,-0.4396505653858185,0.580033540725708,-0.44460976123809814,-0.05359731614589691,1.0912108421325684
8.450661897659302,0.20847637951374054,-0.439269095659256,0.580033540725708,-0.44460976123809814,-0.05397878959774971,1.0912108421325684
8.470793008804321,0.20847637951374054,-0.4388876259326935,0.5796520709991455,-0.44460976123809814,-0.0551232174038887,1.0912108421325684
8.490936756134033,0.20847637951374054,-0.438506156206131,0.580033540725708,-0.44460976123809814,-0.0558861680328846,1.0912108421325684
8.511098861694336,0.20847637951374054,-0.438506156206131,0.580033540725708,-0.44460976123809814,-0.05664911866188049,1.0912108421325684
8.531198978424072,0.20847637951374054,-0.438506156206131,0.5796520709991455,-0.44460976123809814,-0.05741206929087639,1.0912108421325684
8.551268339157104,0.20809490978717804,-0.438506156206131,0.5796520709991455,-0.44460976123809814,-0.05741206929087639,1.0912108421325684
8.571337223052979,0.20809490978717804,-0.438506156206131,0.579270601272583,-0.44460976123809814,-0.057793546468019485,1.0912108421325684
8.591423988342285,0.20771344006061554,-0.438506156206131,0.579270601272583,-0.44422826170921326,-0.058175019919872284,1.0912108421325684
8.611591577529907,0.20733195543289185,-0.438506156206131,0.579270601272583,-0.44460976123809814,-0.05855649709701538,1.0912108421325684
8.631624221801758,0.20733195543289185,-0.438506156206131,0.579270601272583,-0.44460976123809814,-0.05855649709701538,1.0912108421325684
8.651726961135864,0.20733195543289185,-0.438506156206131,0.5796520709991455,-0.44460976123809814,-0.05855649709701538,1.0912108421325684
8.671773433685303,0.20733195543289185,-0.438506156206131,0.579270601272583,-0.44422826170921326,-0.058175019919872284,1.0912108421325684
8.691865921020508,0.20733195543289185,-0.438506156206131,0.579270601272583,-0.44460976123809814,-0.057793546468019485,1.0912108421325684
8.711960554122925,0.20733195543289185,-0.4388876259326935,0.579270601272583,-0.44460976123809814,-0.057793546468019485,1.0912108421325684
8.732112884521484,0.20733195543289185,-0.4388876259326935,0.5796520709991455,-0.44460976123809814,-0.057793546468019485,1.0912108421325684
8.752206087112427,0.20733195543289185,-0.4388876259326935,0.5796520709991455,-0.44460976123809814,-0.05741206929087639,1.0912108421325684
8.772364139556885,0.20733195543289185,-0.4388876259326935,0.579270601272583,-0.44460976123809814,-0.05703059583902359,1.0915923118591309
8.79242992401123,0.20733195543289185,-0.4388876259326935,0.5796520709991455,-0.44422826170921326,-0.05664911866188049,1.0915923118591309
8.812542915344238,0.20733195543289185,-0.4388876259326935,0.5796520709991455,-0.44460976123809814,-0.056267641484737396,1.0915923118591309
8.832666635513306,0.20733195543289185,-0.4388876259326935,0.5796520709991455,-0.44422826170921326,-0.056267641484737396,1.0915923118591309
8.85275387763977,0.20733195543289185,-0.4388876259326935,0.5796520709991455,-0.44460976123809814,-0.056267641484737396,1.0915923118591309
8.87283205986023,0.20733195543289185,-0.4388876259326935,0.5796520709991455,-0.44460976123809814,-0.056267641484737396,1.0915923118591309
8.893046617507935,0.20733195543289185,-0.4388876259326935,0.5796520709991455,-0.44460976123809814,-0.056267641484737396,1.0915923118591309
8.913142204284668,0.20733195543289185,-0.4388876259326935,0.5796520709991455,-0.44422826170921326,-0.056267641484737396,1.0915923118591309
8.933174848556519,0.20733195543289185,-0.4388876259326935,0.5796520709991455,-0.44422826170921326,-0.056267641484737396,1.0915923118591309
8.953322649002075,0.20771344006061554,-0.4388876259326935,0.5796520709991455,-0.44422826170921326,-0.0558861680328846,1.0915923118591309
8.973515748977661,0.20771344006061554,-0.4388876259326935,0.5796520709991455,-0.44422826170921326,-0.0558861680328846,1.0915923118591309
8.993535995483398,0.20771344006061554,-0.4388876259326935,0.5796520709991455,-0.44422826170921326,-0.056267641484737396,1.0915923118591309
9.013583660125732,0.20771344006061554,-0.4388876259326935,0.5796520709991455,-0.44422826170921326,-0.0558861680328846,1.0919737815856934
9.033680438995361,0.20809490978717804,-0.4388876259326935,0.5796520709991455,-0.44422826170921326,-0.0558861680328846,1.0919737815856934
9.05379319190979,0.20809490978717804,-0.4388876259326935,0.5796520709991455,-0.44422826170921326,-0.0558861680328846,1.0919737815856934
9.073914051055908,0.20809490978717804,-0.4388876259326935,0.5796520709991455,-0.44422826170921326,-0.0558861680328846,1.0919737815856934
9.094013690948486,0.20809490978717804,-0.4388876259326935,0.5796520709991455,-0.44422826170921326,-0.0558861680328846,1.0919737815856934
9.114083290100098,0.20809490978717804,-0.4388876259326935,0.5796520709991455,-0.44422826170921326,-0.0558861680328846,1.0919737815856934
9.134204626083374,0.20809490978717804,-0.4388876259326935,0.5796520709991455,-0.44422826170921326,-0.0558861680328846,1.0919737815856934
9.15427279472351,0.20809490978717804,-0.4388876259326935,0.5796520709991455,-0.44422826170921326,-0.0558861680328846,1.0919737815856934
9.174341678619385,0.20809490978717804,-0.4388876259326935,0.5796520709991455,-0.44422826170921326,-0.056267641484737396,1.0919737815856934
9.194409370422363,0.20809490978717804,-0.4388876259326935,0.5796520709991455,-0.44422826170921326,-0.056267641484737396,1.0919737815856934
9.214481592178345,0.20809490978717804,-0.4388876259326935,0.580033540725708,-0.44422826170921326,-0.056267641484737396,1.0919737815856934
9.234586238861084,0.20809490978717804,-0.4388876259326935,0.5796520709991455,-0.44422826170921326,-0.056267641484737396,1.0919737815856934
9.254682302474976,0.20809490978717804,-0.4388876259326935,0.580033540725708,-0.44422826170921326,-0.056267641484737396,1.0919737815856934
9.274775505065918,0.20809490978717804,-0.4388876259326935,0.580033540725708,-0.44422826170921326,-0.056267641484737396,1.0919737815856934
9.294881343841553,0.20809490978717804,-0.4388876259326935,0.580033540725708,-0.44422826170921326,-0.056267641484737396,1.0919737815856934
9.314995765686035,0.20809490978717804,-0.4388876259326935,0.580033540725708,-0.44422826170921326,-0.056267641484737396,1.0919737815856934
9.335103273391724,0.20809490978717804,-0.4388876259326935,0.5796520709991455,-0.44422826170921326,-0.056267641484737396,1.0919737815856934
9.355144023895264,0.20809490978717804,-0.4388876259326935,0.5796520709991455,-0.44422826170921326,-0.056267641484737396,1.0919737815856934
9.375237464904785,0.20771344006061554,-0.4388876259326935,0.5796520709991455,-0.44422826170921326,-0.05664911866188049,1.0919737815856934
9.395346641540527,0.20771344006061554,-0.4388876259326935,0.580033540725708,-0.44422826170921326,-0.056267641484737396,1.0919737815856934
9.415467500686646,0.20733195543289185,-0.4388876259326935,0.580033540725708,-0.44422826170921326,-0.05664911866188049,1.0923552513122559
9.435673236846924,0.20733195543289185,-0.4388876259326935,0.5796520709991455,-0.44422826170921326,-0.05664911866188049,1.0923552513122559
9.455744743347168,0.20733195543289185,-0.4388876259326935,0.5796520709991455,-0.44422826170921326,-0.05664911866188049,1.0923552513122559
9.475809812545776,0.20733195543289185,-0.4388876259326935,0.580033540725708,-0.44422826170921326,-0.05664911866188049,1.0923552513122559
9.495962381362915,0.20733195543289185,-0.4388876259326935,0.5796520709991455,-0.44422826170921326,-0.05664911866188049,1.0923552513122559
9.515981674194336,0.20733195543289185,-0.4388876259326935,0.5796520709991455,-0.44422826170921326,-0.05664911866188049,1.0923552513122559
9.536218404769897,0.20733195543289185,-0.4388876259326935,0.580033540725708,-0.44422826170921326,-0.05664911866188049,1.0923552513122559
9.556246995925903,0.20733195543289185,-0.4388876259326935,0.580033540725708,-0.44422826170921326,-0.05664911866188049,1.0923552513122559
9.5763578414917,0.20733195543289185,-0.4388876259326935,0.5796520709991455,-0.44422826170921326,-0.05664911866188049,1.0923552513122559
9.596405267715454,0.20733195543289185,-0.4388876259326935,0.5796520709991455,-0.44422826170921326,-0.05664911866188049,1.0923552513122559
9.616496086120605,0.20733195543289185,-0.4388876259326935,0.580033540725708,-0.44422826170921326,-0.056267641484737396,1.0923552513122559
9.636597871780396,0.20733195543289185,-0.4388876259326935,0.5796520709991455,-0.44422826170921326,-0.056267641484737396,1.0923552513122559
9.656679630279541,0.20733195543289185,-0.4388876259326935,0.580033540725708,-0.44422826170921326,-0.056267641484737396,1.0923552513122559
9.67682671546936,0.20771344006061554,-0.4388876259326935,0.580033540725708,-0.44422826170921326,-0.056267641484737396,1.0923552513122559
9.697228193283081,0.20771344006061554,-0.4388876259326935,0.5796520709991455,-0.44422826170921326,-0.056267641484737396,1.0923552513122559
9.717320919036865,0.20771344006061554,-0.4388876259326935,0.5796520709991455,-0.44422826170921326,-0.056267641484737396,1.0923552513122559
9.737404346466064,0.20809490978717804,-0.4388876259326935,0.580033540725708,-0.44422826170921326,-0.056267641484737396,1.0923552513122559
9.757564544677734,0.20809490978717804,-0.4388876259326935,0.5796520709991455,-0.44384679198265076,-0.056267641484737396,1.0923552513122559
9.777603149414062,0.20809490978717804,-0.4388876259326935,0.5796520709991455,-0.44422826170921326,-0.0558861680328846,1.0923552513122559
9.797660112380981,0.20809490978717804,-0.4388876259326935,0.580033540725708,-0.44384679198265076,-0.0558861680328846,1.0923552513122559
9.817753314971924,0.20809490978717804,-0.4388876259326935,0.5796520709991455,-0.44384679198265076,-0.056267641484737396,1.0923552513122559
9.837797403335571,0.20809490978717804,-0.4388876259326935,0.5796520709991455,-0.44384679198265076,-0.056267641484737396,1.0927367210388184
9.857895374298096,0.20809490978717804,-0.4388876259326935,0.5796520709991455,-0.44384679198265076,-0.056267641484737396,1.0923552513122559
9.877994298934937,0.20809490978717804,-0.4388876259326935,0.580033540725708,-0.44384679198265076,-0.056267641484737396,1.0923552513122559
9.898103475570679,0.20809490978717804,-0.4388876259326935,0.5796520709991455,-0.44384679198265076,-0.056267641484737396,1.0923552513122559
9.918191194534302,0.20809490978717804,-0.4388876259326935,0.5796520709991455,-0.44422826170921326,-0.056267641484737396,1.0923552513122559
9.938483953475952,0.20809490978717804,-0.4388876259326935,0.580033540725708,-0.44384679198265076,-0.056267641484737396,1.0923552513122559
9.958584070205688,0.20809490978717804,-0.4388876259326935,0.580033540725708,-0.44384679198265076,-0.056267641484737396,1.0923552513122559
9.978642702102661,0.20809490978717804,-0.4388876259326935,0.5796520709991455,-0.44384679198265076,-0.05664911866188049,1.0923552513122559
9.998761415481567,0.20809490978717804,-0.4388876259326935,0.5796520709991455,-0.44384679198265076,-0.05664911866188049,1.0927367210388184
10.01888918876648,0.20809490978717804,-0.4388876259326935,0.580033540725708,-0.44384679198265076,-0.05664911866188049,1.0927367210388184
10.039444923400879,0.20809490978717804,-0.4388876259326935,0.5796520709991455,-0.44422826170921326,-0.05664911866188049,1.0927367210388184
10.059597492218018,0.20809490978717804,-0.4388876259326935,0.5796520709991455,-0.44384679198265076,-0.05664911866188049,1.0923552513122559
10.079700469970703,0.20809490978717804,-0.4388876259326935,0.5796520709991455,-0.44384679198265076,-0.05664911866188049,1.0923552513122559
10.099866151809692,0.20809490978717804,-0.4388876259326935,0.5796520709991455,-0.44384679198265076,-0.05664911866188049,1.0923552513122559
10.11992335319519,0.20809490978717804,-0.4388876259326935,0.5796520709991455,-0.44384679198265076,-0.05664911866188049,1.0927367210388184
10.139975786209106,0.20809490978717804,-0.4388876259326935,0.5796520709991455,-0.44384679198265076,-0.05664911866188049,1.0927367210388184
10.160059928894043,0.20809490978717804,-0.4388876259326935,0.5796520709991455,-0.44384679198265076,-0.05664911866188049,1.0927367210388184
10.180124759674072,0.20771344006061554,-0.4388876259326935,0.5796520709991455,-0.44384679198265076,-0.05664911866188049,1.0927367210388184
10.200215101242065,0.20771344006061554,-0.4388876259326935,0.5796520709991455,-0.44384679198265076,-0.05664911866188049,1.0927367210388184
10.220313549041748,0.20771344006061554,-0.4388876259326935,0.5796520709991455,-0.44384679198265076,-0.05664911866188049,1.0927367210388184
10.240424156188965,0.20733195543289185,-0.4388876259326935,0.5796520709991455,-0.44384679198265076,-0.05664911866188049,1.0927367210388184
10.260481357574463,0.20733195543289185,-0.4388876259326935,0.5796520709991455,-0.44384679198265076,-0.05664911866188049,1.0927367210388184
10.280717134475708,0.20771344006061554,-0.4388876259326935,0.5796520709991455,-0.44384679198265076,-0.05664911866188049,1.0927367210388184
10.30082631111145,0.20771344006061554,-0.4388876259326935,0.5796520709991455,-0.44384679198265076,-0.05664911866188049,1.0927367210388184
10.32109785079956,0.20771344006061554,-0.4388876259326935,0.5796520709991455,-0.44384679198265076,-0.05664911866188049,1.0927367210388184
10.341146230697632,0.20733195543289185,-0.4388876259326935,0.5796520709991455,-0.44384679198265076,-0.05664911866188049,1.0927367210388184
10.361276626586914,0.20771344006061554,-0.4388876259326935,0.5796520709991455,-0.44384679198265076,-0.05664911866188049,1.0927367210388184
10.381312608718872,0.20771344006061554,-0.4388876259326935,0.5796520709991455,-0.44384679198265076,-0.05664911866188049,1.0927367210388184
10.401384353637695,0.20771344006061554,-0.4388876259326935,0.5796520709991455,-0.44384679198265076,-0.05664911866188049,1.0927367210388184
10.421480417251587,0.20771344006061554,-0.4388876259326935,0.5796520709991455,-0.44384679198265076,-0.056267641484737396,1.0927367210388184
10.441610097885132,0.20771344006061554,-0.439269095659256,0.5796520709991455,-0.44384679198265076,-0.056267641484737396,1.0927367210388184
10.461647510528564,0.20771344006061554,-0.4396505653858185,0.5796520709991455,-0.44384679198265076,-0.056267641484737396,1.0927367210388184
10.481742143630981,0.20771344006061554,-0.4396505653858185,0.5796520709991455,-0.44384679198265076,-0.056267641484737396,1.0927367210388184
10.50189995765686,0.20771344006061554,-0.4396505653858185,0.5796520709991455,-0.44384679198265076,-0.056267641484737396,1.0927367210388184
10.522050380706787,0.20771344006061554,-0.4396505653858185,0.5796520709991455,-0.44384679198265076,-0.056267641484737396,1.0927367210388184
10.542185306549072,0.20771344006061554,-0.4396505653858185,0.580033540725708,-0.44384679198265076,-0.056267641484737396,1.0927367210388184
10.562302589416504,0.20771344006061554,-0.4396505653858185,0.580033540725708,-0.44384679198265076,-0.056267641484737396,1.0927367210388184
10.582396030426025,0.20809490978717804,-0.4396505653858185,0.580033540725708,-0.44384679198265076,-0.056267641484737396,1.0927367210388184
10.602494478225708,0.20809490978717804,-0.439269095659256,0.580033540725708,-0.44384679198265076,-0.056267641484737396,1.0927367210388184
10.622572898864746,0.20809490978717804,-0.439269095659256,0.580033540725708,-0.44384679198265076,-0.056267641484737396,1.0927367210388184
10.64268159866333,0.20809490978717804,-0.439269095659256,0.580033540725708,-0.44384679198265076,-0.056267641484737396,1.0927367210388184
10.662712097167969,0.20809490978717804,-0.4388876259326935,0.580033540725708,-0.44384679198265076,-0.056267641484737396,1.0927367210388184
10.682819843292236,0.20809490978717804,-0.4388876259326935,0.580033540725708,-0.44384679198265076,-0.056267641484737396,1.0927367210388184
10.702874422073364,0.20809490978717804,-0.4388876259326935,0.580033540725708,-0.44384679198265076,-0.056267641484737396,1.0927367210388184
10.72295069694519,0.20809490978717804,-0.4388876259326935,0.580033540725708,-0.44384679198265076,-0.05664911866188049,1.0927367210388184
10.743035316467285,0.20809490978717804,-0.4388876259326935,0.580033540725708,-0.44384679198265076,-0.056267641484737396,1.0927367210388184
10.763118743896484,0.20809490978717804,-0.4388876259326935,0.580033540725708,-0.44384679198265076,-0.056267641484737396,1.0927367210388184
10.783236980438232,0.20809490978717804,-0.4388876259326935,0.580033540725708,-0.44384679198265076,-0.056267641484737396,1.0927367210388184
10.803272008895874,0.20809490978717804,-0.4388876259326935,0.580033540725708,-0.44384679198265076,-0.056267641484737396,1.0927367210388184
10.823359251022339,0.20809490978717804,-0.4388876259326935,0.580033540725708,-0.44384679198265076,-0.05664911866188049,1.0927367210388184
10.843458890914917,0.20809490978717804,-0.4388876259326935,0.5796520709991455,-0.44384679198265076,-0.05664911866188049,1.0927367210388184
10.863552808761597,0.20809490978717804,-0.4388876259326935,0.5796520709991455,-0.44384679198265076,-0.056267641484737396,1.0927367210388184
10.883649587631226,0.20809490978717804,-0.4388876259326935,0.5796520709991455,-0.44384679198265076,-0.05664911866188049,1.0927367210388184
10.903899431228638,0.20733195543289185,-0.4388876259326935,0.5796520709991455,-0.44384679198265076,-0.056267641484737396,1.0927367210388184
10.923988342285156,0.20733195543289185,-0.4388876259326935,0.5796520709991455,-0.44384679198265076,-0.05664911866188049,1.0927367210388184
10.944072246551514,0.20733195543289185,-0.4388876259326935,0.5796520709991455,-0.44384679198265076,-0.05703059583902359,1.0927367210388184
10.964149236679077,0.20733195543289185,-0.4388876259326935,0.579270601272583,-0.44384679198265076,-0.05703059583902359,1.0927367210388184
10.984269618988037,0.20733195543289185,-0.4388876259326935,0.5796520709991455,-0.44384679198265076,-0.05703059583902359,1.0927367210388184
11.005053043365479,0.20733195543289185,-0.4388876259326935,0.5796520709991455,-0.44384679198265076,-0.05664911866188049,1.0927367210388184
11.025182247161865,0.20733195543289185,-0.4388876259326935,0.5796520709991455,-0.44384679198265076,-0.05664911866188049,1.0927367210388184
11.045262336730957,0.20733195543289185,-0.438506156206131,0.5796520709991455,-0.44384679198265076,-0.05664911866188049,1.0927367210388184
11.065375566482544,0.20733195543289185,-0.4388876259326935,0.5796520709991455,-0.44384679198265076,-0.05664911866188049,1.0927367210388184
11.085435152053833,0.20733195543289185,-0.4388876259326935,0.5796520709991455,-0.44384679198265076,-0.05664911866188049,1.0927367210388184
11.105907201766968,0.20733195543289185,-0.4388876259326935,0.5796520709991455,-0.44384679198265076,-0.05664911866188049,1.0927367210388184
11.125979900360107,0.20733195543289185,-0.4388876259326935,0.5796520709991455,-0.44384679198265076,-0.05664911866188049,1.0927367210388184
11.146034717559814,0.20733195543289185,-0.4388876259326935,0.5796520709991455,-0.44384679198265076,-0.05664911866188049,1.0927367210388184
11.16612720489502,0.20733195543289185,-0.4388876259326935,0.5796520709991455,-0.44384679198265076,-0.05664911866188049,1.0927367210388184
11.186219930648804,0.20733195543289185,-0.4388876259326935,0.5796520709991455,-0.44384679198265076,-0.05664911866188049,1.0927367210388184
11.2063467502594,0.20733195543289185,-0.4388876259326935,0.5796520709991455,-0.44384679198265076,-0.056267641484737396,1.0927367210388184
11.226389169692993,0.20771344006061554,-0.4388876259326935,0.5796520709991455,-0.44384679198265076,-0.056267641484737396,1.0927367210388184
11.246501207351685,0.20771344006061554,-0.4388876259326935,0.5796520709991455,-0.44384679198265076,-0.056267641484737396,1.0927367210388184
11.266601085662842,0.20771344006061554,-0.4388876259326935,0.5796520709991455,-0.44346532225608826,-0.056267641484737396,1.0927367210388184
11.286700248718262,0.20809490978717804,-0.4388876259326935,0.5796520709991455,-0.44384679198265076,-0.056267641484737396,1.0927367210388184
11.306766271591187,0.20809490978717804,-0.4388876259326935,0.5796520709991455,-0.44346532225608826,-0.056267641484737396,1.0927367210388184
11.326849699020386,0.20809490978717804,-0.4388876259326935,0.5796520709991455,-0.44346532225608826,-0.056267641484737396,1.0927367210388184
11.346931457519531,0.20809490978717804,-0.4388876259326935,0.5796520709991455,-0.44346532225608826,-0.056267641484737396,1.0927367210388184
11.366974592208862,0.20809490978717804,-0.4388876259326935,0.5796520709991455,-0.44346532225608826,-0.056267641484737396,1.0927367210388184
11.3870689868927,0.20809490978717804,-0.4388876259326935,0.5796520709991455,-0.44346532225608826,-0.056267641484737396,1.0927367210388184
11.407156705856323,0.20809490978717804,-0.4388876259326935,0.5796520709991455,-0.44346532225608826,-0.056267641484737396,1.0927367210388184
11.42738127708435,0.20809490978717804,-0.4388876259326935,0.5796520709991455,-0.44346532225608826,-0.056267641484737396,1.0927367210388184
11.4474778175354,0.20809490978717804,-0.438506156206131,0.5796520709991455,-0.44346532225608826,-0.056267641484737396,1.0927367210388184
11.467534065246582,0.20809490978717804,-0.438506156206131,0.5796520709991455,-0.44346532225608826,-0.056267641484737396,1.0927367210388184
11.48762035369873,0.20809490978717804,-0.438506156206131,0.5796520709991455,-0.44346532225608826,-0.056267641484737396,1.0927367210388184
11.50770378112793,0.20809490978717804,-0.438506156206131,0.5796520709991455,-0.44346532225608826,-0.05664911866188049,1.0927367210388184
11.52778172492981,0.20809490978717804,-0.438506156206131,0.5796520709991455,-0.44346532225608826,-0.05664911866188049,1.0927367210388184
11.547904014587402,0.20809490978717804,-0.438506156206131,0.5796520709991455,-0.44346532225608826,-0.05664911866188049,1.0927367210388184
11.567991256713867,0.20771344006061554,-0.438506156206131,0.5796520709991455,-0.44346532225608826,-0.05664911866188049,1.0927367210388184
11.588057518005371,0.20733195543289185,-0.438506156206131,0.5796520709991455,-0.44346532225608826,-0.05664911866188049,1.0927367210388184
11.608150243759155,0.20733195543289185,-0.438506156206131,0.5796520709991455,-0.44346532225608826,-0.05664911866188049,1.0927367210388184
11.628204822540283,0.20733195543289185,-0.438506156206131,0.5796520709991455,-0.44346532225608826,-0.05664911866188049,1.0927367210388184
11.648291826248169,0.20733195543289185,-0.438506156206131,0.5796520709991455,-0.44346532225608826,-0.05703059583902359,1.0927367210388184
11.668384313583374,0.20733195543289185,-0.438506156206131,0.5796520709991455,-0.44346532225608826,-0.05664911866188049,1.0927367210388184
11.688451051712036,0.20733195543289185,-0.438506156206131,0.5796520709991455,-0.44346532225608826,-0.05703059583902359,1.0927367210388184
11.708558082580566,0.20733195543289185,-0.438506156206131,0.5796520709991455,-0.44346532225608826,-0.05664911866188049,1.0927367210388184
11.728609800338745,0.20733195543289185,-0.438506156206131,0.5796520709991455,-0.44346532225608826,-0.05664911866188049,1.0927367210388184
11.748728513717651,0.20733195543289185,-0.438506156206131,0.579270601272583,-0.44346532225608826,-0.05664911866188049,1.0927367210388184
11.768812894821167,0.20733195543289185,-0.438506156206131,0.5796520709991455,-0.44346532225608826,-0.05664911866188049,1.0927367210388184
11.788882970809937,0.20733195543289185,-0.438506156206131,0.5796520709991455,-0.44346532225608826,-0.05664911866188049,1.0927367210388184
11.809061527252197,0.20733195543289185,-0.438506156206131,0.5796520709991455,-0.44346532225608826,-0.05664911866188049,1.0927367210388184
11.82909870147705,0.20733195543289185,-0.438506156206131,0.579270601272583,-0.44346532225608826,-0.05664911866188049,1.0927367210388184
11.849164247512817,0.20733195543289185,-0.438506156206131,0.5796520709991455,-0.44346532225608826,-0.05664911866188049,1.0927367210388184
11.869250059127808,0.20733195543289185,-0.438506156206131,0.579270601272583,-0.44346532225608826,-0.05664911866188049,1.0927367210388184
11.889568090438843,0.20733195543289185,-0.438506156206131,0.579270601272583,-0.44346532225608826,-0.05664911866188049,1.0927367210388184
11.90966248512268,0.20733195543289185,-0.438506156206131,0.579270601272583,-0.44346532225608826,-0.05664911866188049,1.0927367210388184
11.929715156555176,0.20771344006061554,-0.438506156206131,0.5796520709991455,-0.44346532225608826,-0.05664911866188049,1.0927367210388184
11.94983434677124,0.20771344006061554,-0.438506156206131,0.579270601272583,-0.44346532225608826,-0.05664911866188049,1.0927367210388184
11.969963550567627,0.20771344006061554,-0.438506156206131,0.5796520709991455,-0.44346532225608826,-0.056267641484737396,1.0927367210388184
11.990026473999023,0.20809490978717804,-0.438506156206131,0.579270601272583,-0.44346532225608826,-0.056267641484737396,1.0927367210388184
12.010132551193237,0.20809490978717804,-0.438506156206131,0.579270601272583,-0.44346532225608826,-0.056267641484737396,1.0927367210388184
12.030290603637695,0.20809490978717804,-0.438506156206131,0.579270601272583,-0.44346532225608826,-0.056267641484737396,1.0927367210388184
12.050484418869019,0.20809490978717804,-0.438506156206131,0.579270601272583,-0.44346532225608826,-0.056267641484737396,1.0927367210388184
12.070452690124512,0.20809490978717804,-0.438506156206131,0.579270601272583,-0.44346532225608826,-0.056267641484737396,1.0927367210388184
12.090547323226929,0.20809490978717804,-0.438506156206131,0.579270601272583,-0.44346532225608826,-0.056267641484737396,1.0927367210388184
12.110687255859375,0.20809490978717804,-0.438506156206131,0.579270601272583,-0.44346532225608826,-0.056267641484737396,1.0927367210388184
12.130884885787964,0.20809490978717804,-0.438506156206131,0.579270601272583,-0.44346532225608826,-0.056267641484737396,1.0927367210388184
12.150949478149414,0.20809490978717804,-0.438506156206131,0.579270601272583,-0.44346532225608826,-0.056267641484737396,1.0927367210388184
12.17104721069336,0.20809490978717804,-0.4381246566772461,0.579270601272583,-0.44346532225608826,-0.056267641484737396,1.0927367210388184
12.191102743148804,0.20809490978717804,-0.4377431869506836,0.579270601272583,-0.44346532225608826,-0.056267641484737396,1.0927367210388184
12.211320161819458,0.20809490978717804,-0.4377431869506836,0.579270601272583,-0.44346532225608826,-0.056267641484737396,1.0927367210388184
12.231418132781982,0.20809490978717804,-0.4377431869506836,0.579270601272583,-0.44346532225608826,-0.05664911866188049,1.0927367210388184
12.251469850540161,0.20809490978717804,-0.4377431869506836,0.579270601272583,-0.44346532225608826,-0.05664911866188049,1.0927367210388184
12.271559953689575,0.20733195543289185,-0.4377431869506836,0.579270601272583,-0.44346532225608826,-0.05664911866188049,1.0927367210388184
12.291715383529663,0.20733195543289185,-0.4377431869506836,0.579270601272583,-0.44346532225608826,-0.05664911866188049,1.0927367210388184
12.3119215965271,0.20733195543289185,-0.4377431869506836,0.579270601272583,-0.44346532225608826,-0.05664911866188049,1.0927367210388184
12.332011699676514,0.20733195543289185,-0.4377431869506836,0.579270601272583,-0.44346532225608826,-0.05664911866188049,1.0927367210388184
12.352075099945068,0.20733195543289185,-0.4377431869506836,0.579270601272583,-0.44346532225608826,-0.05664911866188049,1.0927367210388184
12.372255325317383,0.20733195543289185,-0.4377431869506836,0.579270601272583,-0.44346532225608826,-0.05664911866188049,1.0927367210388184
12.39230489730835,0.20733195543289185,-0.4377431869506836,0.579270601272583,-0.44346532225608826,-0.056267641484737396,1.0927367210388184
12.412485599517822,0.20733195543289185,-0.4377431869506836,0.579270601272583,-0.44346532225608826,-0.056267641484737396,1.0927367210388184
12.432628631591797,0.20733195543289185,-0.438506156206131,0.579270601272583,-0.44346532225608826,-0.056267641484737396,1.0927367210388184
12.452669620513916,0.20733195543289185,-0.4388876259326935,0.579270601272583,-0.44346532225608826,-0.05664911866188049,1.0927367210388184
12.472808122634888,0.20733195543289185,-0.4388876259326935,0.579270601272583,-0.44346532225608826,-0.05664911866188049,1.0927367210388184
12.492894649505615,0.20733195543289185,-0.4388876259326935,0.5788891315460205,-0.44346532225608826,-0.0558861680328846,1.0927367210388184
12.512904644012451,0.20733195543289185,-0.4388876259326935,0.579270601272583,-0.44346532225608826,-0.056267641484737396,1.0927367210388184
12.533008098602295,0.20733195543289185,-0.4388876259326935,0.579270601272583,-0.44346532225608826,-0.056267641484737396,1.0927367210388184
12.55315351486206,0.20733195543289185,-0.4388876259326935,0.579270601272583,-0.44346532225608826,-0.056267641484737396,1.0927367210388184
12.5731680393219,0.20733195543289185,-0.438506156206131,0.579270601272583,-0.44346532225608826,-0.056267641484737396,1.0927367210388184
12.593265056610107,0.20771344006061554,-0.438506156206131,0.579270601272583,-0.44346532225608826,-0.056267641484737396,1.0927367210388184
12.61336374282837,0.20771344006061554,-0.438506156206131,0.579270601272583,-0.44346532225608826,-0.056267641484737396,1.0927367210388184
12.633433818817139,0.20771344006061554,-0.4388876259326935,0.579270601272583,-0.44346532225608826,-0.056267641484737396,1.0927367210388184
12.653548002243042,0.20809490978717804,-0.438506156206131,0.579270601272583,-0.44346532225608826,-0.056267641484737396,1.0927367210388184
12.673771858215332,0.20809490978717804,-0.438506156206131,0.579270601272583,-0.44346532225608826,-0.056267641484737396,1.0927367210388184
12.693857908248901,0.21114671230316162,-0.4404135048389435,0.579270601272583,-0.44346532225608826,-0.05664911866188049,1.0927367210388184
12.713919639587402,0.2157244235277176,-0.44537270069122314,0.579270601272583,-0.44270238280296326,-0.06008239835500717,1.0931181907653809
12.734119415283203,0.22411687672138214,-0.4541466534137726,0.579270601272583,-0.44193941354751587,-0.06237125024199486,1.0931181907653809
12.754188776016235,0.2313649207353592,-0.46292057633399963,0.579270601272583,-0.44155794382095337,-0.06809338182210922,1.0931181907653809
12.774440288543701,0.24090181291103363,-0.47589075565338135,0.579270601272583,-0.44155794382095337,-0.06618601083755493,1.0931181907653809
12.79456615447998,0.24929426610469818,-0.4877164959907532,0.5788891315460205,-0.4396505653858185,-0.06084534898400307,1.0927367210388184
12.814684391021729,0.25577935576438904,-0.5006866455078125,0.5781261920928955,-0.4373617172241211,-0.05703059583902359,1.0934996604919434
12.83482575416565,0.2618829607963562,-0.5132753252983093,0.5773632526397705,-0.4365987777709961,-0.049782559275627136,1.0934996604919434
12.854867219924927,0.266460657119751,-0.5201418995857239,0.576981782913208,-0.4343098998069763,-0.048256658017635345,1.0931181907653809
12.875117778778076,0.26951247453689575,-0.5266270041465759,0.576981782913208,-0.4339284300804138,-0.048638131469488144,1.0931181907653809
12.89524531364441,0.27103838324546814,-0.5315861701965332,0.5773632526397705,-0.4339284300804138,-0.05092698708176613,1.0931181907653809
12.91529631614685,0.27103838324546814,-0.5327305793762207,0.5773632526397705,-0.4339284300804138,-0.05283436179161072,1.0931181907653809
12.935442209243774,0.27141985297203064,-0.535400927066803,0.5773632526397705,-0.4339284300804138,-0.05397878959774971,1.0934996604919434
12.95549750328064,0.27218279242515564,-0.5376898050308228,0.5773632526397705,-0.4335469603538513,-0.0558861680328846,1.0931181907653809
12.975555181503296,0.27218279242515564,-0.5392156839370728,0.577744722366333,-0.4331654906272888,-0.05664911866188049,1.0931181907653809
12.99565315246582,0.2733272314071655,-0.54112309217453,0.577744722366333,-0.4327840209007263,-0.056267641484737396,1.0934996604919434
13.015722751617432,0.2740901708602905,-0.541886031627655,0.577744722366333,-0.43125811219215393,-0.05436026677489281,1.0931181907653809
13.035933017730713,0.2752346098423004,-0.54264897108078,0.577744722366333,-0.43049514293670654,-0.053215838968753815,1.0931181907653809
13.055947303771973,0.2763790488243103,-0.54417484998703,0.5781261920928955,-0.43049514293670654,-0.05359731614589691,1.0931181907653809
13.076001644134521,0.2763790488243103,-0.5449378490447998,0.5781261920928955,-0.43049514293670654,-0.053215838968753815,1.0931181907653809
13.096099615097046,0.2767605185508728,-0.5464637279510498,0.5781261920928955,-0.43049514293670654,-0.05359731614589691,1.0934996604919434
13.116223096847534,0.2767605185508728,-0.5472266674041748,0.5781261920928955,-0.43011367321014404,-0.05436026677489281,1.0931181907653809
13.136685609817505,0.2767605185508728,-0.5479896068572998,0.5781261920928955,-0.42973220348358154,-0.054741740226745605,1.0931181907653809
13.15686321258545,0.2771419882774353,-0.5495155453681946,0.5781261920928955,-0.42935073375701904,-0.0551232174038887,1.0931181907653809
13.176916122436523,0.2775234580039978,-0.5502784848213196,0.5781261920928955,-0.42896926403045654,-0.054741740226745605,1.0931181907653809
13.196959972381592,0.2782863974571228,-0.5514228940010071,0.5781261920928955,-0.42858776450157166,-0.054741740226745605,1.0931181907653809
13.217055559158325,0.2790493667125702,-0.5525673031806946,0.5781261920928955,-0.42706188559532166,-0.05397878959774971,1.0931181907653809
13.237149000167847,0.2790493667125702,-0.5529488325119019,0.5781261920928955,-0.42668038606643677,-0.05359731614589691,1.0931181907653809
13.257304906845093,0.2790493667125702,-0.5540932416915894,0.5781261920928955,-0.42668038606643677,-0.05359731614589691,1.0931181907653809
13.27736520767212,0.2794308364391327,-0.5552376508712769,0.5781261920928955,-0.42668038606643677,-0.05436026677489281,1.0931181907653809
13.29744553565979,0.2801937758922577,-0.5560005903244019,0.578507661819458,-0.42668038606643677,-0.054741740226745605,1.0931181907653809
13.317537784576416,0.2813382148742676,-0.5575265288352966,0.578507661819458,-0.42629891633987427,-0.0551232174038887,1.0931181907653809
13.337678909301758,0.2813382148742676,-0.5579079985618591,0.578507661819458,-0.42629891633987427,-0.054741740226745605,1.0931181907653809
13.357701063156128,0.2817196846008301,-0.5594338774681091,0.578507661819458,-0.42591744661331177,-0.05397878959774971,1.0931181907653809
13.377776861190796,0.28286412358283997,-0.5598153471946716,0.5788891315460205,-0.42591744661331177,-0.05436026677489281,1.0931181907653809
13.397841453552246,0.28324559330940247,-0.5601968169212341,0.5788891315460205,-0.42515450716018677,-0.05436026677489281,1.0931181907653809
13.417932271957397,0.28324559330940247,-0.5617227554321289,0.579270601272583,-0.4243915379047394,-0.0551232174038887,1.0931181907653809
13.438066959381104,0.28324559330940247,-0.5624856948852539,0.579270601272583,-0.4236285984516144,-0.054741740226745605,1.0931181907653809
13.458220481872559,0.28324559330940247,-0.5636301040649414,0.579270601272583,-0.4232471287250519,-0.0551232174038887,1.0931181907653809
13.478252649307251,0.28362706303596497,-0.5651560425758362,0.579270601272583,-0.4228656589984894,-0.0551232174038887,1.0931181907653809
13.498889684677124,0.28439003229141235,-0.5659189820289612,0.579270601272583,-0.4224841594696045,-0.0555046908557415,1.0931181907653809
13.518985033035278,0.28477150201797485,-0.5674448609352112,0.579270601272583,-0.4224841594696045,-0.0555046908557415,1.0931181907653809
13.539088249206543,0.28477150201797485,-0.5678263306617737,0.579270601272583,-0.4224841594696045,-0.0555046908557415,1.0931181907653809
13.559154987335205,0.28515297174453735,-0.5685893297195435,0.579270601272583,-0.4224841594696045,-0.0558861680328846,1.0931181907653809
13.579205989837646,0.28553444147109985,-0.569733738899231,0.579270601272583,-0.422102689743042,-0.0551232174038887,1.0931181907653809
13.59927225112915,0.28629741072654724,-0.570496678352356,0.579270601272583,-0.4217212200164795,-0.0551232174038887,1.0931181907653809
13.619364976882935,0.28667888045310974,-0.572022557258606,0.579270601272583,-0.4201953113079071,-0.0555046908557415,1.0931181907653809
13.63942837715149,0.28667888045310974,-0.5724040865898132,0.579270601272583,-0.4194323718547821,-0.0558861680328846,1.0931181907653809
13.65951919555664,0.28744181990623474,-0.5743114352226257,0.5796520709991455,-0.4194323718547821,-0.056267641484737396,1.0931181907653809
13.679593324661255,0.28782328963279724,-0.5750743746757507,0.5796520709991455,-0.4190509021282196,-0.0558861680328846,1.0931181907653809
13.70015811920166,0.28858625888824463,-0.5758373141288757,0.5796520709991455,-0.4190509021282196,-0.0558861680328846,1.0931181907653809
13.720280647277832,0.28896772861480713,-0.5773632526397705,0.5796520709991455,-0.4190509021282196,-0.0555046908557415,1.0931181907653809
13.74037504196167,0.28896772861480713,-0.5781261920928955,0.5796520709991455,-0.4190509021282196,-0.056267641484737396,1.0931181907653809
13.76048469543457,0.28973066806793213,-0.579270601272583,0.580033540725708,-0.4186694025993347,-0.056267641484737396,1.0931181907653809
13.78058671951294,0.2904936373233795,-0.5807965397834778,0.580033540725708,-0.4186694025993347,-0.05664911866188049,1.0931181907653809
13.800605773925781,0.2904936373233795,-0.5815594792366028,0.580033540725708,-0.4182879328727722,-0.056267641484737396,1.0931181907653809
13.820703744888306,0.290875107049942,-0.5830853581428528,0.580033540725708,-0.4182879328727722,-0.05664911866188049,1.0931181907653809
13.840775966644287,0.2912565767765045,-0.5842298269271851,0.580033540725708,-0.4179064631462097,-0.05664911866188049,1.0931181907653809
13.861000776290894,0.291638046503067,-0.5849927663803101,0.580033540725708,-0.41676202416419983,-0.056267641484737396,1.0931181907653809
13.881011247634888,0.291638046503067,-0.5865186452865601,0.580033540725708,-0.41561761498451233,-0.05664911866188049,1.0931181907653809
13.901165246963501,0.2927824854850769,-0.5872815847396851,0.5804150700569153,-0.41523614525794983,-0.05703059583902359,1.0931181907653809
13.92128872871399,0.2935454249382019,-0.5888075232505798,0.5804150700569153,-0.41523614525794983,-0.05703059583902359,1.0931181907653809
13.941433429718018,0.2935454249382019,-0.5899519324302673,0.5804150700569153,-0.41523614525794983,-0.05664911866188049,1.0931181907653809
13.96153712272644,0.2939268946647644,-0.5914778113365173,0.5804150700569153,-0.41485464572906494,-0.05664911866188049,1.0931181907653809
13.981627225875854,0.2950713336467743,-0.5926222801208496,0.5807965397834778,-0.41447317600250244,-0.05664911866188049,1.0931181907653809
14.001750469207764,0.2958342730998993,-0.5941481590270996,0.5811780095100403,-0.41332876682281494,-0.05664911866188049,1.0931181907653809
14.021845579147339,0.2958342730998993,-0.5952925682067871,0.5815594792366028,-0.41218432784080505,-0.05741206929087639,1.0931181907653809
14.042302370071411,0.2958342730998993,-0.5964370369911194,0.5815594792366028,-0.41218432784080505,-0.05703059583902359,1.0931181907653809
14.062433958053589,0.2965972423553467,-0.5979629158973694,0.5815594792366028,-0.41180285811424255,-0.05703059583902359,1.0931181907653809
14.082490921020508,0.2977416515350342,-0.5994887948036194,0.5815594792366028,-0.41180285811424255,-0.058175019919872284,1.0931181907653809
14.102612733840942,0.29812315106391907,-0.6013962030410767,0.5819409489631653,-0.41142138838768005,-0.057793546468019485,1.0931181907653809
14.12272834777832,0.29812315106391907,-0.6025406122207642,0.5819409489631653,-0.41142138838768005,-0.058175019919872284,1.0931181907653809
14.142816543579102,0.29888609051704407,-0.6040665507316589,0.5819409489631653,-0.41103988885879517,-0.05741206929087639,1.0931181907653809
14.162873268127441,0.29926756024360657,-0.6055924296379089,0.5819409489631653,-0.41103988885879517,-0.057793546468019485,1.0931181907653809
14.182945251464844,0.30003052949905396,-0.6067368388175964,0.5823224186897278,-0.41103988885879517,-0.05855649709701538,1.0931181907653809
14.203101634979248,0.30003052949905396,-0.6078813076019287,0.5823224186897278,-0.41065841913223267,-0.05855649709701538,1.0931181907653809
14.223169326782227,0.30079346895217896,-0.6090257167816162,0.5823224186897278,-0.41027694940567017,-0.05893797054886818,1.0931181907653809
14.243248224258423,0.30117493867874146,-0.6097886562347412,0.5823224186897278,-0.40951400995254517,-0.05855649709701538,1.0931181907653809
14.263357639312744,0.30155640840530396,-0.612077534198761,0.5823224186897278,-0.4083695709705353,-0.05855649709701538,1.0931181907653809
14.283426523208618,0.30231937766075134,-0.612840473651886,0.5823224186897278,-0.4079881012439728,-0.05893797054886818,1.0931181907653809
14.303679466247559,0.30308231711387634,-0.6139848828315735,0.5823224186897278,-0.4076066315174103,-0.059319447726011276,1.0931181907653809
14.323792219161987,0.30346378684043884,-0.6158922910690308,0.5827038884162903,-0.4076066315174103,-0.05893797054886818,1.0931181907653809
14.343873739242554,0.30346378684043884,-0.6170367002487183,0.5827038884162903,-0.4076066315174103,-0.059319447726011276,1.0931181907653809
