liuyurong129/humanoid-gym/humanoid/data/actual_q_20250522-231649.csv
timestamp,joint_1,joint_2,joint_3,joint_4,joint_5,joint_6
4.291534423828125e-05,-0.00019073777366429567,0.0024795911740511656,-0.0013351644156500697,-0.00019073777366429567,0.00019073777366429567,-0.00019073777366429567
0.02011251449584961,-0.00019073777366429567,0.001716639962978661,-0.0013351644156500697,-0.00019073777366429567,0.00019073777366429567,-0.00019073777366429567
0.04019284248352051,-0.00019073777366429567,0.001716639962978661,-0.0013351644156500697,-0.00019073777366429567,0.00019073777366429567,-0.00019073777366429567
0.060242652893066406,-0.00019073777366429567,0.001716639962978661,-0.0013351644156500697,-0.00019073777366429567,0.00019073777366429567,-0.00019073777366429567
0.08033323287963867,-0.00019073777366429567,0.001716639962978661,-0.0009536888683214784,-0.00019073777366429567,-0.00019073777366429567,-0.00019073777366429567
0.10047245025634766,-0.00019073777366429567,0.0009536888683214784,0.00019073777366429567,-0.00019073777366429567,-0.00019073777366429567,-0.00019073777366429567
0.12052392959594727,-0.00019073777366429567,0.000572213320992887,0.00019073777366429567,-0.00019073777366429567,0.00019073777366429567,-0.00019073777366429567
0.14064264297485352,-0.00019073777366429567,-0.00019073777366429567,0.0013351644156500697,-0.00019073777366429567,-0.00019073777366429567,-0.00019073777366429567
0.16067218780517578,-0.00019073777366429567,-0.0009536888683214784,0.0020981156267225742,-0.00019073777366429567,0.00019073777366429567,-0.00019073777366429567
0.18076181411743164,-0.00019073777366429567,-0.0013351644156500697,0.002861066721379757,-0.00019073777366429567,-0.00019073777366429567,-0.00019073777366429567
0.2008049488067627,-0.000572213320992887,-0.002861066721379757,0.002861066721379757,-0.00019073777366429567,0.00019073777366429567,0.00019073777366429567
0.2208864688873291,-0.000572213320992887,-0.0036240178160369396,0.004005493130534887,-0.00019073777366429567,-0.00019073777366429567,0.00019073777366429567
0.24104571342468262,-0.0009536888683214784,-0.00476844422519207,0.004005493130534887,-0.00019073777366429567,-0.00019073777366429567,0.00019073777366429567
0.26108264923095703,-0.0013351644156500697,-0.00476844422519207,0.004386968910694122,-0.00019073777366429567,-0.00019073777366429567,0.00019073777366429567
0.28119683265686035,-0.001716639962978661,-0.005531395319849253,0.005149920005351305,0.00019073777366429567,-0.00019073777366429567,0.00019073777366429567
0.30126452445983887,-0.0024795911740511656,-0.00667582219466567,0.005531395319849253,0.00019073777366429567,0.00019073777366429567,0.00019073777366429567
0.32138609886169434,-0.0024795911740511656,-0.00667582219466567,0.006294346414506435,0.00019073777366429567,-0.000572213320992887,0.00019073777366429567
0.34143710136413574,-0.0024795911740511656,-0.0078202486038208,0.007057297509163618,0.00019073777366429567,-0.00019073777366429567,0.00019073777366429567
0.361513614654541,-0.002861066721379757,-0.0078202486038208,0.0078202486038208,0.00019073777366429567,-0.00019073777366429567,0.00019073777366429567
0.3815796375274658,-0.0036240178160369396,-0.008964675478637218,0.008201723918318748,0.00019073777366429567,-0.000572213320992887,0.00019073777366429567
0.40165233612060547,-0.004386968910694122,-0.009346150793135166,0.00858320016413927,0.00019073777366429567,-0.00019073777366429567,0.000572213320992887
0.4217531681060791,-0.00476844422519207,-0.010490577667951584,0.009346150793135166,0.00019073777366429567,-0.00019073777366429567,0.000572213320992887
0.44184374809265137,-0.00476844422519207,-0.01125352829694748,0.009346150793135166,0.000572213320992887,-0.00019073777366429567,0.000572213320992887
0.461946964263916,-0.00476844422519207,-0.011635004542768002,0.010109102353453636,0.000572213320992887,-0.000572213320992887,0.000572213320992887
0.48195791244506836,-0.005149920005351305,-0.01201647985726595,0.010490577667951584,0.000572213320992887,-0.000572213320992887,0.000572213320992887
0.5020368099212646,-0.005912871100008488,-0.012779430486261845,0.01125352829694748,0.0009536888683214784,-0.000572213320992887,0.000572213320992887
0.522111177444458,-0.005912871100008488,-0.013542382046580315,0.01201647985726595,0.0009536888683214784,-0.000572213320992887,0.000572213320992887
0.5421814918518066,-0.005912871100008488,-0.013923857361078262,0.01201647985726595,0.0013351644156500697,-0.000572213320992887,0.0009536888683214784
0.5622575283050537,-0.00667582219466567,-0.013923857361078262,0.012397955171763897,0.0013351644156500697,-0.00019073777366429567,0.0009536888683214784
0.5823252201080322,-0.007438773289322853,-0.01430533267557621,0.012397955171763897,0.0013351644156500697,-0.000572213320992887,0.0009536888683214784
0.6024534702301025,-0.007438773289322853,-0.01506828423589468,0.013160906732082367,0.0020981156267225742,-0.0009536888683214784,0.0009536888683214784
0.6224982738494873,-0.007438773289322853,-0.016212711110711098,0.013542382046580315,0.0020981156267225742,-0.0009536888683214784,0.0009536888683214784
0.6426305770874023,-0.0078202486038208,-0.01583123579621315,0.01430533267557621,0.0024795911740511656,-0.0009536888683214784,0.0013351644156500697
0.6626715660095215,-0.0078202486038208,-0.016594186425209045,0.014686808921396732,0.0024795911740511656,-0.0009536888683214784,0.0013351644156500697
0.6827318668365479,-0.0078202486038208,-0.016975661739706993,0.01506828423589468,0.002861066721379757,-0.0009536888683214784,0.0013351644156500697
0.7028918266296387,-0.008201723918318748,-0.01735713705420494,0.015449759550392628,0.002861066721379757,-0.0009536888683214784,0.0013351644156500697
0.7228918075561523,-0.00858320016413927,-0.018120087683200836,0.01583123579621315,0.002861066721379757,-0.0009536888683214784,0.0013351644156500697
0.7429792881011963,-0.009346150793135166,-0.018120087683200836,0.016594186425209045,0.0032425422687083483,-0.0009536888683214784,0.0013351644156500697
0.7631971836090088,-0.009727626107633114,-0.01926451548933983,0.01735713705420494,0.0032425422687083483,-0.0009536888683214784,0.001716639962978661
0.7831845283508301,-0.009727626107633114,-0.01926451548933983,0.01735713705420494,0.0036240178160369396,-0.0013351644156500697,0.001716639962978661
0.8032660484313965,-0.010109102353453636,-0.02040894143283367,0.018120087683200836,0.004005493130534887,-0.0013351644156500697,0.001716639962978661
0.8233683109283447,-0.010490577667951584,-0.021171892061829567,0.018501564860343933,0.004005493130534887,-0.0013351644156500697,0.0020981156267225742
0.8434104919433594,-0.010872052982449532,-0.021553369238972664,0.01926451548933983,0.004005493130534887,-0.0013351644156500697,0.0024795911740511656
0.8634767532348633,-0.01125352829694748,-0.022697795182466507,0.01926451548933983,0.004386968910694122,-0.001716639962978661,0.0024795911740511656
0.883603572845459,-0.01201647985726595,-0.022697795182466507,0.019645990803837776,0.004386968910694122,-0.0013351644156500697,0.0024795911740511656
0.9036276340484619,-0.01201647985726595,-0.023460745811462402,0.02079041674733162,0.00476844422519207,-0.001716639962978661,0.002861066721379757
0.9236640930175781,-0.01201647985726595,-0.024223696440458298,0.02079041674733162,0.005149920005351305,-0.0020981156267225742,0.0032425422687083483
0.9437417984008789,-0.012779430486261845,-0.02536812424659729,0.021553369238972664,0.005531395319849253,-0.0020981156267225742,0.0036240178160369396
0.9638736248016357,-0.012779430486261845,-0.025749599561095238,0.02231631986796856,0.005912871100008488,-0.0020981156267225742,0.004005493130534887
0.9839305877685547,-0.013160906732082367,-0.026512550190091133,0.023079270496964455,0.006294346414506435,-0.0020981156267225742,0.004005493130534887
1.003974437713623,-0.013923857361078262,-0.02727550081908703,0.02384222112596035,0.00667582219466567,-0.0020981156267225742,0.004386968910694122
1.024055004119873,-0.01430533267557621,-0.027656977996230125,0.024223696440458298,0.007057297509163618,-0.0024795911740511656,0.004386968910694122
1.044152021408081,-0.014686808921396732,-0.02841992862522602,0.024986648932099342,0.007057297509163618,-0.002861066721379757,0.004386968910694122
1.0642211437225342,-0.014686808921396732,-0.02841992862522602,0.024986648932099342,0.007057297509163618,-0.0032425422687083483,0.004386968910694122
1.0843431949615479,-0.01506828423589468,-0.02880140393972397,0.025749599561095238,0.007057297509163618,-0.004005493130534887,0.004386968910694122
1.1043596267700195,-0.015449759550392628,-0.02994582988321781,0.025749599561095238,0.007438773289322853,-0.004005493130534887,0.004386968910694122
1.1244447231292725,-0.016212711110711098,-0.02994582988321781,0.02689402550458908,0.007438773289322853,-0.004005493130534887,0.00476844422519207
1.1445157527923584,-0.016975661739706993,-0.031090257689356804,0.02727550081908703,0.007438773289322853,-0.004386968910694122,0.00476844422519207
1.164588451385498,-0.016975661739706993,-0.03147173300385475,0.027656977996230125,0.007438773289322853,-0.004386968910694122,0.00476844422519207
1.184652328491211,-0.016975661739706993,-0.03223468363285065,0.027656977996230125,0.0078202486038208,-0.00476844422519207,0.00476844422519207
1.2047266960144043,-0.016975661739706993,-0.032616160809993744,0.028038453310728073,0.0078202486038208,-0.00476844422519207,0.00476844422519207
1.224799394607544,-0.01773861236870289,-0.03299763426184654,0.029182879254221916,0.0078202486038208,-0.00476844422519207,0.00476844422519207
1.2448475360870361,-0.018501564860343933,-0.03376058489084244,0.029182879254221916,0.0078202486038208,-0.00476844422519207,0.00476844422519207
1.2649650573730469,-0.01888304017484188,-0.03376058489084244,0.02994582988321781,0.008201723918318748,-0.005149920005351305,0.00476844422519207
1.2850027084350586,-0.01888304017484188,-0.035667963325977325,0.030708782374858856,0.008201723918318748,-0.005531395319849253,0.005149920005351305
1.3050732612609863,-0.01888304017484188,-0.03604944050312042,0.031090257689356804,0.00858320016413927,-0.005912871100008488,0.005149920005351305
1.3251709938049316,-0.01926451548933983,-0.03681239113211632,0.03147173300385475,0.008964675478637218,-0.005912871100008488,0.005149920005351305
1.3452246189117432,-0.019645990803837776,-0.037193864583969116,0.03185320645570755,0.008964675478637218,-0.00667582219466567,0.005149920005351305
1.3652830123901367,-0.020027466118335724,-0.03795681521296501,0.03223468363285065,0.009346150793135166,-0.00667582219466567,0.005149920005351305
1.3853590488433838,-0.02040894143283367,-0.03795681521296501,0.03299763426184654,0.009727626107633114,-0.007057297509163618,0.005531395319849253
1.4054558277130127,-0.021171892061829567,-0.03833829239010811,0.03337911143898964,0.010109102353453636,-0.007438773289322853,0.005531395319849253
1.4255361557006836,-0.02193484455347061,-0.039101243019104004,0.034142062067985535,0.010490577667951584,-0.007438773289322853,0.005531395319849253
1.445603609085083,-0.02193484455347061,-0.0394827201962471,0.03452353551983833,0.010490577667951584,-0.0078202486038208,0.005531395319849253
1.4656751155853271,-0.02193484455347061,-0.040245670825242996,0.03528648987412453,0.010490577667951584,-0.0078202486038208,0.005912871100008488
1.4857227802276611,-0.02193484455347061,-0.04100862145423889,0.03604944050312042,0.010872052982449532,-0.0078202486038208,0.005912871100008488
1.5058598518371582,-0.02193484455347061,-0.04139009863138199,0.03681239113211632,0.010872052982449532,-0.0078202486038208,0.005912871100008488
1.5258893966674805,-0.02231631986796856,-0.04291599988937378,0.037193864583969116,0.01125352829694748,-0.0078202486038208,0.006294346414506435
1.5459930896759033,-0.02231631986796856,-0.04329747334122658,0.03757534176111221,0.01125352829694748,-0.0078202486038208,0.007057297509163618
1.566042423248291,-0.023079270496964455,-0.04482337832450867,0.03833829239010811,0.011635004542768002,-0.008201723918318748,0.007438773289322853
1.5861148834228516,-0.023460745811462402,-0.045204851776361465,0.038719769567251205,0.011635004542768002,-0.008201723918318748,0.0078202486038208
1.6062798500061035,-0.024223696440458298,-0.04596780240535736,0.0394827201962471,0.01201647985726595,-0.008201723918318748,0.008201723918318748
1.6262710094451904,-0.024223696440458298,-0.046730753034353256,0.040245670825242996,0.01201647985726595,-0.008201723918318748,0.008201723918318748
1.6463537216186523,-0.024223696440458298,-0.04711223021149635,0.04100862145423889,0.012397955171763897,-0.008201723918318748,0.008201723918318748
1.6664371490478516,-0.024605173617601395,-0.04787518084049225,0.04177157208323479,0.012779430486261845,-0.008201723918318748,0.008201723918318748
1.6865043640136719,-0.024986648932099342,-0.048256658017635345,0.04177157208323479,0.013160906732082367,-0.008201723918318748,0.00858320016413927
1.7066781520843506,-0.02536812424659729,-0.048638131469488144,0.04253452271223068,0.013923857361078262,-0.008201723918318748,0.00858320016413927
1.7266850471496582,-0.026131074875593185,-0.04940108209848404,0.04253452271223068,0.01430533267557621,-0.008201723918318748,0.00858320016413927
1.7467806339263916,-0.026512550190091133,-0.04940108209848404,0.043678950518369675,0.014686808921396732,-0.008201723918318748,0.00858320016413927
1.76680588722229,-0.026512550190091133,-0.05054550990462303,0.04406042397022247,0.014686808921396732,-0.008201723918318748,0.008964675478637218
1.7868900299072266,-0.02727550081908703,-0.05054550990462303,0.04482337832450867,0.014686808921396732,-0.00858320016413927,0.008964675478637218
1.8069608211517334,-0.02727550081908703,-0.05245288833975792,0.04558632895350456,0.01506828423589468,-0.00858320016413927,0.008964675478637218
1.8270418643951416,-0.02727550081908703,-0.05245288833975792,0.04596780240535736,0.01506828423589468,-0.008964675478637218,0.009346150793135166
1.8470780849456787,-0.027656977996230125,-0.05359731614589691,0.04634927958250046,0.01506828423589468,-0.008964675478637218,0.009346150793135166
1.8671495914459229,-0.02841992862522602,-0.05397878959774971,0.04634927958250046,0.015449759550392628,-0.008964675478637218,0.009346150793135166
1.8872098922729492,-0.02880140393972397,-0.05436026677489281,0.04711223021149635,0.015449759550392628,-0.008964675478637218,0.009727626107633114
1.9072840213775635,-0.029182879254221916,-0.0551232174038887,0.04787518084049225,0.01583123579621315,-0.009346150793135166,0.010109102353453636
1.9273760318756104,-0.029182879254221916,-0.0555046908557415,0.048256658017635345,0.016212711110711098,-0.009727626107633114,0.010490577667951584
1.947448492050171,-0.029182879254221916,-0.056267641484737396,0.048638131469488144,0.016594186425209045,-0.009727626107633114,0.01125352829694748
1.9675102233886719,-0.029182879254221916,-0.05664911866188049,0.048638131469488144,0.016975661739706993,-0.010109102353453636,0.011635004542768002
1.9875800609588623,-0.029564354568719864,-0.05741206929087639,0.049782559275627136,0.01735713705420494,-0.010490577667951584,0.011635004542768002
2.007608652114868,-0.02994582988321781,-0.057793546468019485,0.05054550990462303,0.01773861236870289,-0.010490577667951584,0.011635004542768002
2.0277302265167236,-0.03032730519771576,-0.05855649709701538,0.05130846053361893,0.018120087683200836,-0.010872052982449532,0.011635004542768002
2.047818899154663,-0.031090257689356804,-0.059319447726011276,0.05207141116261482,0.018120087683200836,-0.010872052982449532,0.011635004542768002
2.0679590702056885,-0.03147173300385475,-0.059319447726011276,0.05245288833975792,0.018501564860343933,-0.01125352829694748,0.01201647985726595
2.0879998207092285,-0.03147173300385475,-0.06008239835500717,0.05283436179161072,0.018501564860343933,-0.01125352829694748,0.01201647985726595
2.1080548763275146,-0.03147173300385475,-0.06046387553215027,0.05359731614589691,0.018501564860343933,-0.011635004542768002,0.01201647985726595
2.1281540393829346,-0.03223468363285065,-0.06084534898400307,0.05397878959774971,0.01888304017484188,-0.011635004542768002,0.01201647985726595
2.148157835006714,-0.032616160809993744,-0.06198977679014206,0.054741740226745605,0.01888304017484188,-0.01201647985726595,0.01201647985726595
2.1682448387145996,-0.03337911143898964,-0.06198977679014206,0.0555046908557415,0.01888304017484188,-0.01201647985726595,0.012397955171763897
2.1883127689361572,-0.03376058489084244,-0.06351567804813385,0.056267641484737396,0.01926451548933983,-0.01201647985726595,0.012397955171763897
2.2083804607391357,-0.03376058489084244,-0.06389715522527695,0.056267641484737396,0.01926451548933983,-0.012397955171763897,0.012397955171763897
2.228466272354126,-0.03452353551983833,-0.06466010212898254,0.05703059583902359,0.01926451548933983,-0.012779430486261845,0.012397955171763897
2.2485475540161133,-0.03490501269698143,-0.06504157930612564,0.05741206929087639,0.01926451548933983,-0.012779430486261845,0.012397955171763897
2.268650770187378,-0.03490501269698143,-0.06580453366041183,0.058175019919872284,0.019645990803837776,-0.013160906732082367,0.012397955171763897
2.288698434829712,-0.03490501269698143,-0.06618601083755493,0.05855649709701538,0.019645990803837776,-0.014686808921396732,0.012397955171763897
2.308771848678589,-0.035667963325977325,-0.06656748056411743,0.05893797054886818,0.020027466118335724,-0.01506828423589468,0.012397955171763897
2.328864812850952,-0.03604944050312042,-0.06733043491840363,0.05970092490315437,0.02040894143283367,-0.015449759550392628,0.012779430486261845
2.3489294052124023,-0.03643091395497322,-0.06771191209554672,0.06008239835500717,0.021553369238972664,-0.015449759550392628,0.012779430486261845
2.368993043899536,-0.03681239113211632,-0.06809338182210922,0.06046387553215027,0.02193484455347061,-0.01583123579621315,0.012779430486261845
2.389035701751709,-0.03681239113211632,-0.06923781335353851,0.06084534898400307,0.02193484455347061,-0.01583123579621315,0.012779430486261845
2.4091601371765137,-0.03681239113211632,-0.06961929053068161,0.06198977679014206,0.02231631986796856,-0.016212711110711098,0.013160906732082367
2.429314613342285,-0.03681239113211632,-0.0707637146115303,0.06237125024199486,0.02231631986796856,-0.01583123579621315,0.013160906732082367
2.449359178543091,-0.03681239113211632,-0.0707637146115303,0.06275273114442825,0.02231631986796856,-0.01583123579621315,0.013160906732082367
2.4694926738739014,-0.03757534176111221,-0.071908138692379,0.06313420087099075,0.02231631986796856,-0.01583123579621315,0.013160906732082367
2.4895224571228027,-0.03795681521296501,-0.071908138692379,0.06389715522527695,0.022697795182466507,-0.01583123579621315,0.013542382046580315
2.509629249572754,-0.038719769567251205,-0.0722896158695221,0.06466010212898254,0.022697795182466507,-0.01583123579621315,0.013542382046580315
2.52974009513855,-0.038719769567251205,-0.07267109304666519,0.06504157930612564,0.023079270496964455,-0.01583123579621315,0.013923857361078262
2.5498008728027344,-0.038719769567251205,-0.07343403995037079,0.06618601083755493,0.023460745811462402,-0.016212711110711098,0.01430533267557621
2.5698649883270264,-0.0394827201962471,-0.07419699430465698,0.06656748056411743,0.02384222112596035,-0.016594186425209045,0.014686808921396732
2.5899460315704346,-0.0398641936480999,-0.07495994865894318,0.06694895774126053,0.02384222112596035,-0.016212711110711098,0.014686808921396732
2.610046863555908,-0.0398641936480999,-0.07610437273979187,0.06733043491840363,0.024223696440458298,-0.016594186425209045,0.01506828423589468
2.630096673965454,-0.040245670825242996,-0.07686731964349747,0.06809338182210922,0.024605173617601395,-0.016212711110711098,0.01506828423589468
2.650165319442749,-0.04100862145423889,-0.07724879682064056,0.06847485899925232,0.024986648932099342,-0.016212711110711098,0.015449759550392628
2.670212984085083,-0.04100862145423889,-0.07839322835206985,0.06923781335353851,0.02536812424659729,-0.016212711110711098,0.015449759550392628
2.6903038024902344,-0.04100862145423889,-0.07839322835206985,0.06961929053068161,0.025749599561095238,-0.016594186425209045,0.015449759550392628
2.7103655338287354,-0.04177157208323479,-0.07953765243291855,0.0707637146115303,0.025749599561095238,-0.016594186425209045,0.015449759550392628
2.730436325073242,-0.04177157208323479,-0.07953765243291855,0.0711451917886734,0.025749599561095238,-0.016594186425209045,0.01583123579621315
2.75053071975708,-0.042153049260377884,-0.08030059933662415,0.0722896158695221,0.026131074875593185,-0.016975661739706993,0.01583123579621315
2.7706003189086914,-0.042153049260377884,-0.08144503086805344,0.07267109304666519,0.026131074875593185,-0.016975661739706993,0.01583123579621315
2.790663480758667,-0.04291599988937378,-0.08220797777175903,0.07343403995037079,0.026512550190091133,-0.016975661739706993,0.016212711110711098
2.810734272003174,-0.04329747334122658,-0.08297093212604523,0.07381551712751389,0.026512550190091133,-0.016975661739706993,0.016594186425209045
2.8308138847351074,-0.04329747334122658,-0.08335240930318832,0.07457847148180008,0.026512550190091133,-0.01735713705420494,0.016594186425209045
2.850883960723877,-0.04406042397022247,-0.08449683338403702,0.07495994865894318,0.02689402550458908,-0.01735713705420494,0.016594186425209045
2.870957374572754,-0.04406042397022247,-0.08449683338403702,0.07534141838550568,0.02689402550458908,-0.01773861236870289,0.016975661739706993
2.8910257816314697,-0.04406042397022247,-0.08525978773832321,0.07572289556264877,0.02727550081908703,-0.018120087683200836,0.016975661739706993
2.911054849624634,-0.04406042397022247,-0.08564125746488571,0.07610437273979187,0.02727550081908703,-0.018120087683200836,0.016975661739706993
2.9311330318450928,-0.04444190114736557,-0.0864042118191719,0.07686731964349747,0.027656977996230125,-0.018120087683200836,0.01735713705420494
2.9512054920196533,-0.045204851776361465,-0.0871671661734581,0.07763027399778366,0.028038453310728073,-0.018120087683200836,0.01735713705420494
2.9713754653930664,-0.045204851776361465,-0.0875486359000206,0.07763027399778366,0.02841992862522602,-0.018120087683200836,0.01773861236870289
2.9914610385894775,-0.04596780240535736,-0.0875486359000206,0.07877469807863235,0.02880140393972397,-0.018120087683200836,0.018120087683200836
3.0114948749542236,-0.04634927958250046,-0.0879301130771637,0.07915617525577545,0.029182879254221916,-0.018501564860343933,0.018501564860343933
3.0472073554992676,-0.04749370738863945,-0.08945601433515549,0.07991912961006165,0.029564354568719864,-0.018501564860343933,0.01888304017484188
3.06733775138855,-0.048638131469488144,-0.09212634712457657,0.08297093212604523,0.02994582988321781,-0.01888304017484188,0.01926451548933983
3.0873703956604004,-0.05130846053361893,-0.09746700525283813,0.0879301130771637,0.031090257689356804,-0.01888304017484188,0.020027466118335724
3.1074399948120117,-0.051689937710762024,-0.09937438368797302,0.08945601433515549,0.03299763426184654,-0.018501564860343933,0.02040894143283367
3.127504348754883,-0.051689937710762024,-0.10051880776882172,0.09060044586658478,0.03337911143898964,-0.01926451548933983,0.02040894143283367
3.1475865840911865,-0.05207141116261482,-0.09899290651082993,0.09021896868944168,0.03337911143898964,-0.021171892061829567,0.02079041674733162
3.1677095890045166,-0.05245288833975792,-0.10013733059167862,0.09174486994743347,0.03376058489084244,-0.02079041674733162,0.02079041674733162
3.1876938343048096,-0.05245288833975792,-0.10166323184967041,0.09212634712457657,0.03376058489084244,-0.02040894143283367,0.021171892061829567
3.2078752517700195,-0.05359731614589691,-0.10128175467252731,0.09250781685113907,0.03376058489084244,-0.020027466118335724,0.021171892061829567
3.2279086112976074,-0.05359731614589691,-0.1031891331076622,0.09288929402828217,0.034142062067985535,-0.02079041674733162,0.021171892061829567
3.2479631900787354,-0.05359731614589691,-0.1031891331076622,0.09365224838256836,0.034142062067985535,-0.02040894143283367,0.021553369238972664
3.2680342197418213,-0.05436026677489281,-0.1039520874619484,0.09441519528627396,0.034142062067985535,-0.02040894143283367,0.02193484455347061
3.2881064414978027,-0.05436026677489281,-0.10433356463909149,0.09517814964056015,0.034142062067985535,-0.02040894143283367,0.02193484455347061
3.3082022666931152,-0.05436026677489281,-0.10433356463909149,0.09594109654426575,0.03452353551983833,-0.021171892061829567,0.02231631986796856
3.328251600265503,-0.0551232174038887,-0.10585946589708328,0.09632257372140884,0.03452353551983833,-0.02079041674733162,0.022697795182466507
3.348322868347168,-0.0555046908557415,-0.10547798871994019,0.09746700525283813,0.03490501269698143,-0.02040894143283367,0.022697795182466507
3.3684349060058594,-0.0558861680328846,-0.10662241280078888,0.09822995215654373,0.03528648987412453,-0.02079041674733162,0.023079270496964455
3.3885457515716553,-0.0558861680328846,-0.10700388997793198,0.09822995215654373,0.03604944050312042,-0.02079041674733162,0.023079270496964455
3.4085686206817627,-0.056267641484737396,-0.10852979123592377,0.09899290651082993,0.03643091395497322,-0.021171892061829567,0.023079270496964455
3.428649425506592,-0.05664911866188049,-0.10929274559020996,0.09975585341453552,0.03681239113211632,-0.021171892061829567,0.023079270496964455
3.4487156867980957,-0.05664911866188049,-0.11043716967105865,0.10013733059167862,0.03681239113211632,-0.021171892061829567,0.023460745811462402
3.468748092651367,-0.05741206929087639,-0.11158160120248795,0.10090028494596481,0.037193864583969116,-0.021171892061829567,0.023460745811462402
3.4888265132904053,-0.057793546468019485,-0.11158160120248795,0.10166323184967041,0.037193864583969116,-0.02079041674733162,0.023460745811462402
3.508906602859497,-0.05855649709701538,-0.11310750246047974,0.1024261862039566,0.037193864583969116,-0.021171892061829567,0.023460745811462402
3.5289597511291504,-0.05855649709701538,-0.11272602528333664,0.1028076633810997,0.03757534176111221,-0.02193484455347061,0.02384222112596035
3.549053192138672,-0.05855649709701538,-0.11348897218704224,0.1039520874619484,0.03757534176111221,-0.023079270496964455,0.02384222112596035
3.569096803665161,-0.05893797054886818,-0.11387044936418533,0.10433356463909149,0.03795681521296501,-0.023079270496964455,0.02384222112596035
3.589186668395996,-0.059319447726011276,-0.11463340371847153,0.10471503436565399,0.03795681521296501,-0.023079270496964455,0.024223696440458298
3.6093757152557373,-0.05970092490315437,-0.11539635062217712,0.10509651154279709,0.03833829239010811,-0.023079270496964455,0.024223696440458298
3.629485607147217,-0.06008239835500717,-0.11577782779932022,0.10585946589708328,0.038719769567251205,-0.023079270496964455,0.024605173617601395
3.649505615234375,-0.06084534898400307,-0.11692225188016891,0.10662241280078888,0.039101243019104004,-0.023079270496964455,0.024605173617601395
3.669562578201294,-0.06084534898400307,-0.11692225188016891,0.10662241280078888,0.0398641936480999,-0.023460745811462402,0.024986648932099342
3.6896469593048096,-0.06160829961299896,-0.11768520623445511,0.10738536715507507,0.040627144277095795,-0.023460745811462402,0.02536812424659729
3.7098381519317627,-0.06198977679014206,-0.1180666834115982,0.10776684433221817,0.040627144277095795,-0.023460745811462402,0.02727550081908703
3.729930877685547,-0.06237125024199486,-0.1188296303153038,0.10852979123592377,0.04100862145423889,-0.023460745811462402,0.02689402550458908
3.75,-0.06275273114442825,-0.1199740618467331,0.10929274559020996,0.04100862145423889,-0.023460745811462402,0.02727550081908703
3.770209550857544,-0.06275273114442825,-0.1199740618467331,0.11005569249391556,0.04100862145423889,-0.02384222112596035,0.02727550081908703
3.7902183532714844,-0.06351567804813385,-0.12073700875043869,0.11043716967105865,0.04139009863138199,-0.02384222112596035,0.02727550081908703
3.810299873352051,-0.06389715522527695,-0.12111848592758179,0.11120012402534485,0.04139009863138199,-0.023460745811462402,0.02727550081908703
3.8304169178009033,-0.06389715522527695,-0.12149996310472488,0.11196307092905045,0.04139009863138199,-0.024223696440458298,0.02727550081908703
3.8505001068115234,-0.06427863240242004,-0.12264438718557358,0.11234454810619354,0.04177157208323479,-0.023460745811462402,0.027656977996230125
3.8705391883850098,-0.06504157930612564,-0.12302586436271667,0.11348897218704224,0.042153049260377884,-0.023460745811462402,0.027656977996230125
3.8906095027923584,-0.06580453366041183,-0.12417028844356537,0.11425192654132843,0.042153049260377884,-0.02384222112596035,0.027656977996230125
3.9106874465942383,-0.06580453366041183,-0.12417028844356537,0.11425192654132843,0.04253452271223068,-0.02384222112596035,0.028038453310728073
3.9307618141174316,-0.06580453366041183,-0.12531471252441406,0.11501488089561462,0.04291599988937378,-0.024605173617601395,0.028038453310728073
3.950868844985962,-0.06618601083755493,-0.12531471252441406,0.11577782779932022,0.043678950518369675,-0.024605173617601395,0.028038453310728073
3.9709460735321045,-0.06618601083755493,-0.12645913660526276,0.11654078215360641,0.04444190114736557,-0.024223696440458298,0.02841992862522602
3.990992307662964,-0.06694895774126053,-0.12722209095954895,0.11692225188016891,0.04444190114736557,-0.024223696440458298,0.02841992862522602
4.011092901229858,-0.06694895774126053,-0.12798504531383514,0.11730372905731201,0.04482337832450867,-0.024223696440458298,0.02880140393972397
4.03114652633667,-0.06809338182210922,-0.12874799966812134,0.1184481605887413,0.04482337832450867,-0.024605173617601395,0.029182879254221916
4.0512778759002686,-0.06809338182210922,-0.12912946939468384,0.1188296303153038,0.04482337832450867,-0.024605173617601395,0.029564354568719864
4.071321725845337,-0.06809338182210922,-0.13027389347553253,0.1199740618467331,0.045204851776361465,-0.024986648932099342,0.02994582988321781
4.09144926071167,-0.06847485899925232,-0.13027389347553253,0.1203555315732956,0.045204851776361465,-0.02536812424659729,0.03032730519771576
4.111483812332153,-0.06923781335353851,-0.13103684782981873,0.12111848592758179,0.04558632895350456,-0.025749599561095238,0.03032730519771576
4.131550312042236,-0.06923781335353851,-0.13141833245754242,0.12149996310472488,0.04558632895350456,-0.02536812424659729,0.03032730519771576
4.15162992477417,-0.07038223743438721,-0.13218127191066742,0.12226291000843048,0.04596780240535736,-0.02536812424659729,0.03032730519771576
4.171740770339966,-0.0711451917886734,-0.1333257108926773,0.12264438718557358,0.04634927958250046,-0.025749599561095238,0.03032730519771576
4.1918487548828125,-0.0711451917886734,-0.1333257108926773,0.12302586436271667,0.046730753034353256,-0.025749599561095238,0.03032730519771576
4.211880207061768,-0.0711451917886734,-0.134470134973526,0.12378881871700287,0.04711223021149635,-0.026512550190091133,0.03032730519771576
4.231980323791504,-0.0711451917886734,-0.1340886503458023,0.12455176562070847,0.04787518084049225,-0.026512550190091133,0.030708782374858856
4.252101182937622,-0.0722896158695221,-0.1348516047000885,0.12531471252441406,0.048256658017635345,-0.026131074875593185,0.030708782374858856
4.2722015380859375,-0.07305257022380829,-0.135233074426651,0.12569619715213776,0.048638131469488144,-0.026131074875593185,0.030708782374858856
4.29223108291626,-0.07305257022380829,-0.135233074426651,0.12645913660526276,0.048638131469488144,-0.026131074875593185,0.030708782374858856
4.312355995178223,-0.07343403995037079,-0.1367589831352234,0.12760357558727264,0.048638131469488144,-0.026512550190091133,0.031090257689356804
4.332400560379028,-0.07305257022380829,-0.1371404528617859,0.12836651504039764,0.04901960864663124,-0.026512550190091133,0.031090257689356804
4.352494239807129,-0.07305257022380829,-0.13866636157035828,0.12874799966812134,0.04901960864663124,-0.02689402550458908,0.03147173300385475
4.372645139694214,-0.07343403995037079,-0.13904783129692078,0.12912946939468384,0.04940108209848404,-0.026512550190091133,0.03147173300385475
4.392678737640381,-0.07419699430465698,-0.13942931592464447,0.13027389347553253,0.04940108209848404,-0.026131074875593185,0.03147173300385475
4.412792921066284,-0.07419699430465698,-0.14095520973205566,0.13103684782981873,0.04940108209848404,-0.026131074875593185,0.03147173300385475
4.432896375656128,-0.07457847148180008,-0.14133669435977936,0.13179980218410492,0.049782559275627136,-0.026512550190091133,0.03185320645570755
4.452960014343262,-0.07534141838550568,-0.14248111844062805,0.1325627565383911,0.050164032727479935,-0.02689402550458908,0.03185320645570755
4.473004341125488,-0.07534141838550568,-0.14248111844062805,0.1333257108926773,0.05054550990462303,-0.02689402550458908,0.03185320645570755
4.493136167526245,-0.07648584991693497,-0.14400701224803925,0.1337071806192398,0.05130846053361893,-0.026512550190091133,0.03223468363285065
4.51318883895874,-0.07724879682064056,-0.14438849687576294,0.134470134973526,0.051689937710762024,-0.02689402550458908,0.03223468363285065
4.533309698104858,-0.07724879682064056,-0.14438849687576294,0.1356145590543747,0.051689937710762024,-0.02689402550458908,0.032616160809993744
4.553454399108887,-0.07763027399778366,-0.14515145123004913,0.1356145590543747,0.05207141116261482,-0.02689402550458908,0.03299763426184654
4.573564529418945,-0.07763027399778366,-0.14553292095661163,0.1367589831352234,0.05207141116261482,-0.02689402550458908,0.03376058489084244
4.593706846237183,-0.07839322835206985,-0.14667734503746033,0.13752193748950958,0.05245288833975792,-0.02689402550458908,0.034142062067985535
4.61370062828064,-0.07839322835206985,-0.14667734503746033,0.13790340721607208,0.05245288833975792,-0.02689402550458908,0.034142062067985535
4.633772850036621,-0.07839322835206985,-0.14744029939174652,0.13866636157035828,0.05245288833975792,-0.02689402550458908,0.03452353551983833
4.65384840965271,-0.07877469807863235,-0.14782176911830902,0.13904783129692078,0.05245288833975792,-0.02689402550458908,0.03452353551983833
4.673933506011963,-0.07953765243291855,-0.14858472347259521,0.14019227027893066,0.05283436179161072,-0.02689402550458908,0.03452353551983833
4.694040775299072,-0.07953765243291855,-0.1493476778268814,0.14095520973205566,0.05283436179161072,-0.02689402550458908,0.03452353551983833
4.714079856872559,-0.07991912961006165,-0.1497291475534439,0.14133669435977936,0.053215838968753815,-0.02689402550458908,0.03490501269698143
4.7341530323028564,-0.08030059933662415,-0.1501106321811676,0.14171816408634186,0.053215838968753815,-0.02689402550458908,0.03490501269698143
4.7543017864227295,-0.08068207651376724,-0.1501106321811676,0.14248111844062805,0.05359731614589691,-0.02727550081908703,0.03490501269698143
4.7744622230529785,-0.08068207651376724,-0.1516365259885788,0.14324407279491425,0.05397878959774971,-0.02689402550458908,0.03490501269698143
4.794436454772949,-0.08106355369091034,-0.152399480342865,0.14400701224803925,0.05397878959774971,-0.02727550081908703,0.03528648987412453
4.81452202796936,-0.08144503086805344,-0.1527809500694275,0.14476996660232544,0.054741740226745605,-0.02727550081908703,0.03528648987412453
4.834587335586548,-0.08220797777175903,-0.15430685877799988,0.14553292095661163,0.0555046908557415,-0.02727550081908703,0.03528648987412453
4.854661703109741,-0.08297093212604523,-0.15430685877799988,0.14591439068317413,0.0558861680328846,-0.02727550081908703,0.035667963325977325
4.874776363372803,-0.08258945494890213,-0.15506981313228607,0.14705882966518402,0.0558861680328846,-0.02727550081908703,0.03643091395497322
4.894894123077393,-0.08297093212604523,-0.15506981313228607,0.14744029939174652,0.0558861680328846,-0.027656977996230125,0.037193864583969116
4.9149205684661865,-0.08373387902975082,-0.15583276748657227,0.14820325374603271,0.056267641484737396,-0.02727550081908703,0.03757534176111221
4.934969425201416,-0.08373387902975082,-0.15659570693969727,0.14858472347259521,0.056267641484737396,-0.02727550081908703,0.03757534176111221
4.955112934112549,-0.08449683338403702,-0.15697719156742096,0.1493476778268814,0.056267641484737396,-0.02727550081908703,0.03795681521296501
4.975231409072876,-0.08487831056118011,-0.15812161564826965,0.1501106321811676,0.056267641484737396,-0.027656977996230125,0.03795681521296501
4.9952616691589355,-0.08487831056118011,-0.15812161564826965,0.1504921019077301,0.05664911866188049,-0.028038453310728073,0.03795681521296501
5.01535964012146,-0.08525978773832321,-0.15888457000255585,0.1516365259885788,0.05664911866188049,-0.029182879254221916,0.03833829239010811
5.035508394241333,-0.08564125746488571,-0.15926603972911835,0.1520180106163025,0.05703059583902359,-0.029564354568719864,0.03833829239010811
5.055619716644287,-0.08564125746488571,-0.16002899408340454,0.1527809500694275,0.05741206929087639,-0.029564354568719864,0.03833829239010811
5.075733184814453,-0.08602273464202881,-0.16041046380996704,0.15354390442371368,0.058175019919872284,-0.029564354568719864,0.03833829239010811
5.095777988433838,-0.086785688996315,-0.16117341816425323,0.15430685877799988,0.05893797054886818,-0.02880140393972397,0.03833829239010811
5.11585807800293,-0.0871671661734581,-0.16193637251853943,0.15545128285884857,0.059319447726011276,-0.02880140393972397,0.03833829239010811
5.13593864440918,-0.0871671661734581,-0.16231784224510193,0.15583276748657227,0.059319447726011276,-0.029182879254221916,0.038719769567251205
5.155994415283203,-0.0875486359000206,-0.16346226632595062,0.15621423721313477,0.059319447726011276,-0.02994582988321781,0.038719769567251205
5.17607307434082,-0.0875486359000206,-0.16346226632595062,0.15697719156742096,0.05970092490315437,-0.02994582988321781,0.038719769567251205
5.1961541175842285,-0.0875486359000206,-0.16422522068023682,0.15774014592170715,0.05970092490315437,-0.030708782374858856,0.039101243019104004
5.216209888458252,-0.0879301130771637,-0.164988175034523,0.15812161564826965,0.05970092490315437,-0.03032730519771576,0.039101243019104004
5.236280679702759,-0.0879301130771637,-0.1653696447610855,0.15964750945568085,0.06008239835500717,-0.02994582988321781,0.039101243019104004
5.2563769817352295,-0.0879301130771637,-0.1665140837430954,0.16041046380996704,0.06008239835500717,-0.03032730519771576,0.039101243019104004
5.2764363288879395,-0.08869306743144989,-0.1665140837430954,0.16117341816425323,0.06008239835500717,-0.02994582988321781,0.039101243019104004
5.296576023101807,-0.08907453715801239,-0.1665140837430954,0.16193637251853943,0.06046387553215027,-0.03032730519771576,0.0394827201962471
5.316567897796631,-0.08983749151229858,-0.1676585078239441,0.16269932687282562,0.06046387553215027,-0.02994582988321781,0.0394827201962471
5.336721420288086,-0.08983749151229858,-0.1684214472770691,0.16346226632595062,0.06084534898400307,-0.030708782374858856,0.0398641936480999
5.356762647628784,-0.09021896868944168,-0.16956588625907898,0.16422522068023682,0.061226826161146164,-0.03032730519771576,0.0398641936480999
5.376829624176025,-0.09098191559314728,-0.16956588625907898,0.1646067053079605,0.061226826161146164,-0.03032730519771576,0.040245670825242996
5.396906614303589,-0.09136339277029037,-0.17147326469421387,0.1657511293888092,0.06160829961299896,-0.03032730519771576,0.040627144277095795
5.416948318481445,-0.09174486994743347,-0.17147326469421387,0.1661325991153717,0.06160829961299896,-0.029564354568719864,0.04139009863138199
5.437028884887695,-0.09174486994743347,-0.17147326469421387,0.1668955534696579,0.06237125024199486,-0.03032730519771576,0.04139009863138199
5.457079887390137,-0.09212634712457657,-0.17261768877506256,0.1676585078239441,0.06275273114442825,-0.030708782374858856,0.04177157208323479
5.477259874343872,-0.09212634712457657,-0.17261768877506256,0.1684214472770691,0.06313420087099075,-0.031090257689356804,0.042153049260377884
5.497349500656128,-0.09288929402828217,-0.17376211285591125,0.16918440163135529,0.06351567804813385,-0.03032730519771576,0.042153049260377884
5.517373561859131,-0.09288929402828217,-0.17376211285591125,0.16994735598564148,0.06351567804813385,-0.02994582988321781,0.042153049260377884
5.5374672412872314,-0.09288929402828217,-0.17528800666332245,0.17071031033992767,0.06389715522527695,-0.03032730519771576,0.042153049260377884
5.557515382766724,-0.09365224838256836,-0.17566949129104614,0.17109178006649017,0.06389715522527695,-0.03032730519771576,0.04253452271223068
5.577668905258179,-0.09403372555971146,-0.17605096101760864,0.17185473442077637,0.06389715522527695,-0.03032730519771576,0.04253452271223068
5.59769606590271,-0.09441519528627396,-0.17757686972618103,0.17261768877506256,0.06427863240242004,-0.030708782374858856,0.04253452271223068
5.6178319454193115,-0.09479667246341705,-0.17795833945274353,0.17299915850162506,0.06427863240242004,-0.03032730519771576,0.04291599988937378
5.6378703117370605,-0.09479667246341705,-0.17872129380702972,0.17452506721019745,0.06466010212898254,-0.030708782374858856,0.04291599988937378
5.657979488372803,-0.09479667246341705,-0.17910276353359222,0.17490653693675995,0.06504157930612564,-0.030708782374858856,0.04329747334122658
5.67805552482605,-0.09517814964056015,-0.17910276353359222,0.17605096101760864,0.06580453366041183,-0.031090257689356804,0.043678950518369675
5.698103189468384,-0.09517814964056015,-0.1802472025156021,0.17643244564533234,0.06618601083755493,-0.030708782374858856,0.04406042397022247
5.718179225921631,-0.09594109654426575,-0.1810101419687271,0.17757686972618103,0.06656748056411743,-0.030708782374858856,0.04482337832450867
5.738247394561768,-0.09670405089855194,-0.1817730963230133,0.17833982408046722,0.06694895774126053,-0.030708782374858856,0.045204851776361465
5.758320093154907,-0.09708552807569504,-0.182154580950737,0.17872129380702972,0.06733043491840363,-0.030708782374858856,0.045204851776361465
5.778533935546875,-0.09670405089855194,-0.1836804747581482,0.17948424816131592,0.06733043491840363,-0.03223468363285065,0.04558632895350456
5.798522710800171,-0.09708552807569504,-0.1840619444847107,0.17986571788787842,0.06771191209554672,-0.03223468363285065,0.04558632895350456
5.818568706512451,-0.09784847497940063,-0.1840619444847107,0.1810101419687271,0.06771191209554672,-0.03299763426184654,0.04558632895350456
5.838667154312134,-0.09784847497940063,-0.1848248988389969,0.1813916265964508,0.06809338182210922,-0.03337911143898964,0.04558632895350456
5.858720541000366,-0.09784847497940063,-0.18596932291984558,0.182154580950737,0.06809338182210922,-0.03299763426184654,0.04596780240535736
5.878821134567261,-0.09899290651082993,-0.18635080754756927,0.1832990050315857,0.06847485899925232,-0.03337911143898964,0.04596780240535736
5.898890972137451,-0.09975585341453552,-0.18635080754756927,0.1836804747581482,0.06885633617639542,-0.03299763426184654,0.04596780240535736
5.918950080871582,-0.09975585341453552,-0.18825818598270416,0.1848248988389969,0.06885633617639542,-0.03337911143898964,0.04596780240535736
5.939080238342285,-0.09975585341453552,-0.18863965570926666,0.18558785319328308,0.06961929053068161,-0.03337911143898964,0.04634927958250046
5.9591686725616455,-0.10013733059167862,-0.18863965570926666,0.18673227727413177,0.07038223743438721,-0.034142062067985535,0.04634927958250046
5.979243516921997,-0.10013733059167862,-0.19054703414440155,0.18711376190185547,0.0707637146115303,-0.034142062067985535,0.046730753034353256
5.999308347702026,-0.10013733059167862,-0.19054703414440155,0.18711376190185547,0.0707637146115303,-0.03337911143898964,0.046730753034353256
6.019407749176025,-0.10090028494596481,-0.19130998849868774,0.18825818598270416,0.0707637146115303,-0.03337911143898964,0.046730753034353256
6.039473295211792,-0.10204470902681351,-0.19169145822525024,0.18902114033699036,0.0711451917886734,-0.03337911143898964,0.046730753034353256
6.059573650360107,-0.10204470902681351,-0.19283588230609894,0.19016556441783905,0.0711451917886734,-0.034142062067985535,0.046730753034353256
6.079595565795898,-0.10204470902681351,-0.19283588230609894,0.19092851877212524,0.0711451917886734,-0.034142062067985535,0.04711223021149635
6.099716901779175,-0.10204470902681351,-0.19359883666038513,0.19207294285297394,0.0715266615152359,-0.03452353551983833,0.04749370738863945
6.119787216186523,-0.10204470902681351,-0.19398032128810883,0.19283588230609894,0.0715266615152359,-0.03452353551983833,0.04787518084049225
6.139849424362183,-0.10204470902681351,-0.19398032128810883,0.19321736693382263,0.0715266615152359,-0.03376058489084244,0.048256658017635345
6.159965515136719,-0.1024261862039566,-0.1958876997232437,0.19398032128810883,0.0715266615152359,-0.03376058489084244,0.048638131469488144
6.1800055503845215,-0.1031891331076622,-0.1958876997232437,0.19474326074123383,0.071908138692379,-0.03299763426184654,0.048638131469488144
6.200136423110962,-0.1031891331076622,-0.1966506391763687,0.19550621509552002,0.071908138692379,-0.03376058489084244,0.04901960864663124
6.220161199569702,-0.1039520874619484,-0.1974135935306549,0.1962691694498062,0.0722896158695221,-0.034142062067985535,0.04901960864663124
6.24023175239563,-0.10433356463909149,-0.1989395022392273,0.1970321238040924,0.07343403995037079,-0.03490501269698143,0.04940108209848404
6.260383129119873,-0.10471503436565399,-0.1989395022392273,0.1977950781583786,0.07419699430465698,-0.03452353551983833,0.04940108209848404
6.280395030975342,-0.10509651154279709,-0.1989395022392273,0.1981765478849411,0.07457847148180008,-0.034142062067985535,0.04940108209848404
6.300466537475586,-0.10509651154279709,-0.20084688067436218,0.1993209719657898,0.07457847148180008,-0.034142062067985535,0.049782559275627136
6.3205931186676025,-0.10547798871994019,-0.20084688067436218,0.1993209719657898,0.07457847148180008,-0.03337911143898964,0.049782559275627136
6.340729236602783,-0.10624094307422638,-0.20122835040092468,0.2004653960466385,0.07495994865894318,-0.03376058489084244,0.049782559275627136
6.360774040222168,-0.10624094307422638,-0.20160982012748718,0.20122835040092468,0.07495994865894318,-0.03452353551983833,0.049782559275627136
6.380836725234985,-0.10624094307422638,-0.20313572883605957,0.20160982012748718,0.07534141838550568,-0.034142062067985535,0.050164032727479935
6.400968551635742,-0.10700388997793198,-0.20313572883605957,0.20237277448177338,0.07534141838550568,-0.03452353551983833,0.050164032727479935
6.4210524559021,-0.10738536715507507,-0.20313572883605957,0.20313572883605957,0.07572289556264877,-0.03376058489084244,0.050164032727479935
6.4410998821258545,-0.10738536715507507,-0.20504310727119446,0.20428015291690826,0.07572289556264877,-0.034142062067985535,0.05054550990462303
6.461183547973633,-0.10776684433221817,-0.20504310727119446,0.20466163754463196,0.07610437273979187,-0.03376058489084244,0.05092698708176613
6.481287717819214,-0.10852979123592377,-0.20504310727119446,0.20580606162548065,0.07648584991693497,-0.034142062067985535,0.05130846053361893
6.5014073848724365,-0.10929274559020996,-0.20695048570632935,0.20656901597976685,0.07724879682064056,-0.03452353551983833,0.051689937710762024
6.521424770355225,-0.10929274559020996,-0.20733195543289185,0.20733195543289185,0.07801175117492676,-0.03452353551983833,0.053215838968753815
6.541545629501343,-0.10929274559020996,-0.20771344006061554,0.20809490978717804,0.07839322835206985,-0.03528648987412453,0.05359731614589691
6.561675548553467,-0.10929274559020996,-0.20809490978717804,0.20847637951374054,0.07839322835206985,-0.03490501269698143,0.05359731614589691
6.581717252731323,-0.10929274559020996,-0.20847637951374054,0.20962081849575043,0.07877469807863235,-0.03452353551983833,0.05359731614589691
6.601813793182373,-0.10967422276735306,-0.21038375794887543,0.21038375794887543,0.07877469807863235,-0.034142062067985535,0.05359731614589691
6.621944189071655,-0.10967422276735306,-0.21038375794887543,0.21152819693088531,0.07877469807863235,-0.03376058489084244,0.05359731614589691
6.642045497894287,-0.11043716967105865,-0.2130540907382965,0.21229113638401031,0.07877469807863235,-0.03452353551983833,0.05359731614589691
6.662114858627319,-0.11081864684820175,-0.2134355753660202,0.212672621011734,0.07915617525577545,-0.03452353551983833,0.05359731614589691
6.682241678237915,-0.11158160120248795,-0.2157244235277176,0.2138170450925827,0.07915617525577545,-0.03490501269698143,0.05397878959774971
6.702293157577515,-0.11158160120248795,-0.2157244235277176,0.2141985148191452,0.07953765243291855,-0.03528648987412453,0.05397878959774971
6.7224273681640625,-0.11234454810619354,-0.2157244235277176,0.2153429538011551,0.07991912961006165,-0.03528648987412453,0.05397878959774971
6.742462396621704,-0.11272602528333664,-0.21686884760856628,0.2161058932542801,0.07991912961006165,-0.03528648987412453,0.05436026677489281
6.76252818107605,-0.11348897218704224,-0.21763180196285248,0.21648737788200378,0.08068207651376724,-0.03452353551983833,0.05436026677489281
6.782634973526001,-0.11348897218704224,-0.21763180196285248,0.21763180196285248,0.08106355369091034,-0.03490501269698143,0.05436026677489281
6.80273962020874,-0.11348897218704224,-0.21763180196285248,0.21801327168941498,0.08144503086805344,-0.03452353551983833,0.05436026677489281
6.822775363922119,-0.11425192654132843,-0.21953918039798737,0.21877622604370117,0.08182650804519653,-0.035667963325977325,0.0551232174038887
6.842835426330566,-0.11463340371847153,-0.21992065012454987,0.21915769577026367,0.08220797777175903,-0.03490501269698143,0.0555046908557415
6.862919807434082,-0.11463340371847153,-0.22106507420539856,0.22030213475227356,0.08220797777175903,-0.03528648987412453,0.0558861680328846
6.882981061935425,-0.11501488089561462,-0.22220951318740845,0.22106507420539856,0.08220797777175903,-0.035667963325977325,0.056267641484737396
6.9030468463897705,-0.11577782779932022,-0.22259098291397095,0.22144655883312225,0.08258945494890213,-0.03452353551983833,0.056267641484737396
6.923116683959961,-0.11615930497646332,-0.22259098291397095,0.22259098291397095,0.08297093212604523,-0.03528648987412453,0.056267641484737396
6.943194627761841,-0.11654078215360641,-0.22297245264053345,0.22297245264053345,0.08297093212604523,-0.03452353551983833,0.05664911866188049
6.9632790088653564,-0.11654078215360641,-0.22297245264053345,0.22449836134910583,0.08335240930318832,-0.035667963325977325,0.05664911866188049
6.98333740234375,-0.11654078215360641,-0.22411687672138214,0.22487983107566833,0.08335240930318832,-0.03528648987412453,0.05664911866188049
7.003423690795898,-0.11654078215360641,-0.22487983107566833,0.22602425515651703,0.08411535620689392,-0.03528648987412453,0.05703059583902359
7.023475646972656,-0.11654078215360641,-0.22602425515651703,0.22640573978424072,0.08487831056118011,-0.03528648987412453,0.05703059583902359
7.043645143508911,-0.11692225188016891,-0.22602425515651703,0.22716869413852692,0.08564125746488571,-0.03452353551983833,0.05703059583902359
7.0636513233184814,-0.11730372905731201,-0.22755016386508942,0.2283131182193756,0.08564125746488571,-0.03490501269698143,0.05703059583902359
7.083810329437256,-0.11768520623445511,-0.22793163359165192,0.2286945879459381,0.08564125746488571,-0.03452353551983833,0.05703059583902359
7.103923797607422,-0.1180666834115982,-0.2290760725736618,0.2294575423002243,0.08602273464202881,-0.03528648987412453,0.05741206929087639
7.123971939086914,-0.1188296303153038,-0.2294575423002243,0.2302204966545105,0.08602273464202881,-0.035667963325977325,0.05741206929087639
7.144008159637451,-0.1188296303153038,-0.2298390120267868,0.2313649207353592,0.08602273464202881,-0.03643091395497322,0.057793546468019485
7.164134979248047,-0.1188296303153038,-0.2313649207353592,0.23289081454277039,0.0864042118191719,-0.03643091395497322,0.057793546468019485
7.184226751327515,-0.11959258466959,-0.2317463904619217,0.23327229917049408,0.0864042118191719,-0.035667963325977325,0.057793546468019485
7.204259872436523,-0.1199740618467331,-0.23212787508964539,0.23403525352478027,0.0864042118191719,-0.03528648987412453,0.05855649709701538
7.2243030071258545,-0.1203555315732956,-0.23289081454277039,0.23441672325134277,0.086785688996315,-0.03490501269698143,0.05855649709701538
7.244497776031494,-0.12111848592758179,-0.23403525352478027,0.23517967760562897,0.0871671661734581,-0.03490501269698143,0.05893797054886818
7.264499664306641,-0.12111848592758179,-0.23479819297790527,0.23594263195991516,0.0871671661734581,-0.03528648987412453,0.059319447726011276
7.284562349319458,-0.12111848592758179,-0.23517967760562897,0.23670557141304016,0.0879301130771637,-0.03528648987412453,0.06046387553215027
7.304715633392334,-0.12188144028186798,-0.23670557141304016,0.23746852576732635,0.0883115902543068,-0.03528648987412453,0.06046387553215027
7.324732542037964,-0.12188144028186798,-0.23708705604076385,0.23823148012161255,0.08907453715801239,-0.03528648987412453,0.06046387553215027
7.344832420349121,-0.12226291000843048,-0.23708705604076385,0.23975738883018494,0.08945601433515549,-0.03528648987412453,0.06084534898400307
7.364924430847168,-0.12264438718557358,-0.23746852576732635,0.24013885855674744,0.08945601433515549,-0.03490501269698143,0.06084534898400307
7.384974718093872,-0.12302586436271667,-0.23899443447589874,0.24166475236415863,0.08983749151229858,-0.03528648987412453,0.061226826161146164
7.40509819984436,-0.12378881871700287,-0.23937590420246124,0.24242770671844482,0.08983749151229858,-0.03490501269698143,0.061226826161146164
7.425136089324951,-0.12417028844356537,-0.23937590420246124,0.24319066107273102,0.09021896868944168,-0.03490501269698143,0.06160829961299896
7.445212125778198,-0.12378881871700287,-0.24052032828330994,0.24357213079929352,0.09060044586658478,-0.03604944050312042,0.06160829961299896
7.465281248092651,-0.12417028844356537,-0.24052032828330994,0.2443350851535797,0.09098191559314728,-0.035667963325977325,0.06160829961299896
7.485348224639893,-0.12417028844356537,-0.24204623699188232,0.2450980395078659,0.09136339277029037,-0.03643091395497322,0.06198977679014206
7.505409479141235,-0.12455176562070847,-0.24280919134616852,0.2462424635887146,0.09212634712457657,-0.03528648987412453,0.06198977679014206
7.525546073913574,-0.12493324279785156,-0.24280919134616852,0.2470054179430008,0.09250781685113907,-0.03528648987412453,0.06237125024199486
7.545613050460815,-0.12493324279785156,-0.2443350851535797,0.247768372297287,0.09288929402828217,-0.03528648987412453,0.06313420087099075
7.565666913986206,-0.12569619715213776,-0.2443350851535797,0.248531311750412,0.09327077120542526,-0.03490501269698143,0.06389715522527695
7.585734844207764,-0.12607766687870026,-0.2466239482164383,0.24967575073242188,0.09327077120542526,-0.035667963325977325,0.06389715522527695
7.605782985687256,-0.12645913660526276,-0.2466239482164383,0.2504386901855469,0.09365224838256836,-0.035667963325977325,0.06389715522527695
7.6258704662323,-0.12722209095954895,-0.247768372297287,0.25158312916755676,0.09403372555971146,-0.035667963325977325,0.06427863240242004
7.645936727523804,-0.12722209095954895,-0.24891279637813568,0.25234606862068176,0.09403372555971146,-0.03604944050312042,0.06427863240242004
7.666020631790161,-0.12722209095954895,-0.248531311750412,0.25272753834724426,0.09403372555971146,-0.03528648987412453,0.06427863240242004
7.686137676239014,-0.12836651504039764,-0.2500572204589844,0.25387197732925415,0.09441519528627396,-0.03528648987412453,0.06427863240242004
7.70618748664856,-0.12874799966812134,-0.24967575073242188,0.25463491678237915,0.09441519528627396,-0.03490501269698143,0.06466010212898254
7.726262092590332,-0.12874799966812134,-0.25196459889411926,0.25616082549095154,0.09479667246341705,-0.03528648987412453,0.06466010212898254
7.746395111083984,-0.12912946939468384,-0.25158312916755676,0.2569237947463989,0.09479667246341705,-0.03528648987412453,0.06466010212898254
7.7664265632629395,-0.12912946939468384,-0.25158312916755676,0.2580682039260864,0.09517814964056015,-0.03604944050312042,0.06466010212898254
7.786499977111816,-0.12951095402240753,-0.25387197732925415,0.2588311731815338,0.09555962681770325,-0.03643091395497322,0.06504157930612564
7.806581735610962,-0.12989242374897003,-0.25463491678237915,0.2595941126346588,0.09708552807569504,-0.03604944050312042,0.06504157930612564
7.826653480529785,-0.13027389347553253,-0.25501641631126404,0.2603570520877838,0.09708552807569504,-0.03452353551983833,0.06504157930612564
7.846721172332764,-0.13065537810325623,-0.25501641631126404,0.2615014910697937,0.09708552807569504,-0.03490501269698143,0.06504157930612564
7.866784572601318,-0.13103684782981873,-0.25654229521751404,0.2618829607963562,0.09746700525283813,-0.03528648987412453,0.06542305648326874
7.886838436126709,-0.13141833245754242,-0.2573052644729614,0.2634088695049286,0.09746700525283813,-0.03528648987412453,0.06542305648326874
7.906913757324219,-0.13141833245754242,-0.2588311731815338,0.2645532786846161,0.09784847497940063,-0.03528648987412453,0.06580453366041183
7.92698335647583,-0.13141833245754242,-0.2588311731815338,0.2653162479400635,0.09784847497940063,-0.035667963325977325,0.06580453366041183
7.947069883346558,-0.13141833245754242,-0.2588311731815338,0.265697717666626,0.09822995215654373,-0.03528648987412453,0.06580453366041183
7.967144250869751,-0.13218127191066742,-0.2603570520877838,0.26684215664863586,0.09899290651082993,-0.03528648987412453,0.06618601083755493
7.9872918128967285,-0.1325627565383911,-0.2603570520877838,0.26722362637519836,0.09937438368797302,-0.03452353551983833,0.06618601083755493
8.00738525390625,-0.1329442262649536,-0.2611200213432312,0.26874953508377075,0.10051880776882172,-0.03528648987412453,0.06656748056411743
8.048645734786987,-0.1333257108926773,-0.2630273997783661,0.26989394426345825,0.10128175467252731,-0.03643091395497322,0.06771191209554672
8.06872010231018,-0.134470134973526,-0.265697717666626,0.27218279242515564,0.10128175467252731,-0.03643091395497322,0.06809338182210922
8.088796615600586,-0.1367589831352234,-0.27103838324546814,0.2779049277305603,0.1028076633810997,-0.03604944050312042,0.06885633617639542
8.108886957168579,-0.1367589831352234,-0.272945761680603,0.2798123061656952,0.10471503436565399,-0.03490501269698143,0.07000076025724411
8.128955364227295,-0.13752193748950958,-0.2752346098423004,0.28248265385627747,0.10471503436565399,-0.034142062067985535,0.0715266615152359
8.149023532867432,-0.13790340721607208,-0.2756160795688629,0.28248265385627747,0.10509651154279709,-0.03604944050312042,0.071908138692379
8.169112205505371,-0.13790340721607208,-0.2779049277305603,0.28400853276252747,0.10547798871994019,-0.03643091395497322,0.071908138692379
8.189117908477783,-0.13866636157035828,-0.2790493667125702,0.28477150201797485,0.10585946589708328,-0.03490501269698143,0.071908138692379
8.209199905395508,-0.13866636157035828,-0.2809567451477051,0.28591591119766235,0.10585946589708328,-0.03490501269698143,0.0722896158695221
8.229268789291382,-0.13866636157035828,-0.2809567451477051,0.28706035017967224,0.10585946589708328,-0.03490501269698143,0.0722896158695221
8.249338626861572,-0.13866636157035828,-0.2809567451477051,0.28667888045310974,0.10624094307422638,-0.03490501269698143,0.0722896158695221
8.26942229270935,-0.13904783129692078,-0.2813382148742676,0.28858625888824463,0.10700388997793198,-0.03490501269698143,0.0722896158695221
8.289495944976807,-0.13942931592464447,-0.2817196846008301,0.28934919834136963,0.10738536715507507,-0.03376058489084244,0.0722896158695221
8.3095703125,-0.13981078565120697,-0.28286412358283997,0.290875107049942,0.10776684433221817,-0.03490501269698143,0.0722896158695221
8.32960820198059,-0.14019227027893066,-0.28362706303596497,0.2920195460319519,0.10776684433221817,-0.03452353551983833,0.0722896158695221
8.349685668945312,-0.14095520973205566,-0.28515297174453735,0.2927824854850769,0.10852979123592377,-0.034142062067985535,0.07267109304666519
8.369757652282715,-0.14095520973205566,-0.28591591119766235,0.2939268946647644,0.10852979123592377,-0.034142062067985535,0.07267109304666519
8.389821290969849,-0.14095520973205566,-0.28744181990623474,0.2943083941936493,0.10852979123592377,-0.034142062067985535,0.07305257022380829
8.409891128540039,-0.14171816408634186,-0.28820478916168213,0.2954528033733368,0.10891126841306686,-0.03452353551983833,0.07305257022380829
8.429959774017334,-0.14171816408634186,-0.28858625888824463,0.2962157726287842,0.10891126841306686,-0.034142062067985535,0.07305257022380829
8.450062036514282,-0.14209964871406555,-0.290112167596817,0.2977416515350342,0.10967422276735306,-0.03452353551983833,0.07343403995037079
8.470122814178467,-0.14248111844062805,-0.290112167596817,0.29926756024360657,0.10967422276735306,-0.034142062067985535,0.07381551712751389
8.490201711654663,-0.14286258816719055,-0.290112167596817,0.30003052949905396,0.10967422276735306,-0.03376058489084244,0.07419699430465698
8.51040530204773,-0.14286258816719055,-0.291638046503067,0.30155640840530396,0.11005569249391556,-0.03452353551983833,0.07457847148180008
8.53044867515564,-0.14362554252147675,-0.291638046503067,0.30155640840530396,0.11081864684820175,-0.034142062067985535,0.07495994865894318
8.55053997039795,-0.14362554252147675,-0.2935454249382019,0.30308231711387634,0.11120012402534485,-0.03452353551983833,0.07495994865894318
8.570558071136475,-0.14400701224803925,-0.2939268946647644,0.30346378684043884,0.11158160120248795,-0.03376058489084244,0.07495994865894318
8.59064793586731,-0.14400701224803925,-0.2954528033733368,0.30422675609588623,0.11196307092905045,-0.03452353551983833,0.07534141838550568
8.610721349716187,-0.14438849687576294,-0.2958342730998993,0.3057526648044586,0.11196307092905045,-0.034142062067985535,0.07534141838550568
8.630810022354126,-0.14553292095661163,-0.2958342730998993,0.3061341345310211,0.11234454810619354,-0.03376058489084244,0.07534141838550568
8.650856256484985,-0.14591439068317413,-0.2977416515350342,0.3076600432395935,0.11234454810619354,-0.03490501269698143,0.07572289556264877
8.67096209526062,-0.14591439068317413,-0.2977416515350342,0.3084229826927185,0.11234454810619354,-0.03376058489084244,0.07572289556264877
8.691078186035156,-0.14591439068317413,-0.29964902997016907,0.3103303611278534,0.11272602528333664,-0.03490501269698143,0.07610437273979187
8.711112022399902,-0.14591439068317413,-0.29964902997016907,0.3103303611278534,0.11272602528333664,-0.034142062067985535,0.07610437273979187
8.731192350387573,-0.14629587531089783,-0.30079346895217896,0.3114747703075409,0.11272602528333664,-0.03452353551983833,0.07610437273979187
8.751270771026611,-0.14667734503746033,-0.30270084738731384,0.3126192092895508,0.11310750246047974,-0.03376058489084244,0.07610437273979187
8.771337509155273,-0.14705882966518402,-0.30270084738731384,0.3130006790161133,0.11348897218704224,-0.03337911143898964,0.07648584991693497
8.791427612304688,-0.14705882966518402,-0.30270084738731384,0.31452658772468567,0.11387044936418533,-0.03376058489084244,0.07648584991693497
8.811479568481445,-0.14782176911830902,-0.30270084738731384,0.31528952717781067,0.11425192654132843,-0.034142062067985535,0.07686731964349747
8.831657648086548,-0.14820325374603271,-0.30460822582244873,0.31643396615982056,0.11463340371847153,-0.03452353551983833,0.07724879682064056
8.851651430130005,-0.14820325374603271,-0.30460822582244873,0.31719690561294556,0.11501488089561462,-0.03376058489084244,0.07763027399778366
8.871702432632446,-0.1489662081003189,-0.3057526648044586,0.31834134459495544,0.11539635062217712,-0.03376058489084244,0.07839322835206985
8.89186954498291,-0.1489662081003189,-0.3068970739841461,0.31910428404808044,0.11577782779932022,-0.03376058489084244,0.07877469807863235
8.911906003952026,-0.1493476778268814,-0.3072785437107086,0.31948578357696533,0.11577782779932022,-0.03376058489084244,0.07915617525577545
8.93197751045227,-0.1497291475534439,-0.308804452419281,0.32063019275665283,0.11615930497646332,-0.03376058489084244,0.07915617525577545
8.952059984207153,-0.1501106321811676,-0.308804452419281,0.3217746317386627,0.11615930497646332,-0.03376058489084244,0.07953765243291855
8.972197771072388,-0.1501106321811676,-0.309567391872406,0.3229190409183502,0.11654078215360641,-0.034142062067985535,0.07953765243291855
8.992217540740967,-0.1508735716342926,-0.3110933005809784,0.3248264193534851,0.11654078215360641,-0.034142062067985535,0.07991912961006165
9.012287616729736,-0.1512550562620163,-0.3118562698364258,0.3248264193534851,0.11692225188016891,-0.03337911143898964,0.07991912961006165
9.032360315322876,-0.1512550562620163,-0.3133821487426758,0.32673379778862,0.11730372905731201,-0.034142062067985535,0.07991912961006165
9.052439212799072,-0.1512550562620163,-0.3133821487426758,0.3271152675151825,0.11768520623445511,-0.03376058489084244,0.07991912961006165
9.072512149810791,-0.1520180106163025,-0.31490805745124817,0.3286411762237549,0.1188296303153038,-0.034142062067985535,0.08030059933662415
9.092565774917603,-0.152399480342865,-0.31528952717781067,0.32940414547920227,0.11959258466959,-0.03337911143898964,0.08030059933662415
9.112637042999268,-0.152399480342865,-0.31681543588638306,0.33016708493232727,0.11959258466959,-0.034142062067985535,0.08030059933662415
9.132725715637207,-0.1527809500694275,-0.31719690561294556,0.33131152391433716,0.11959258466959,-0.03376058489084244,0.08068207651376724
9.152924060821533,-0.15316243469715118,-0.31719690561294556,0.33207446336746216,0.11959258466959,-0.03337911143898964,0.08068207651376724
9.172966480255127,-0.15316243469715118,-0.31948578357696533,0.33283740282058716,0.1199740618467331,-0.03376058489084244,0.08106355369091034
9.193010807037354,-0.15316243469715118,-0.31910428404808044,0.33398184180259705,0.1203555315732956,-0.03337911143898964,0.08182650804519653
9.213077306747437,-0.15316243469715118,-0.3213931620121002,0.33550775051116943,0.1203555315732956,-0.03337911143898964,0.08182650804519653
9.233165979385376,-0.15354390442371368,-0.3213931620121002,0.33665215969085693,0.1203555315732956,-0.03337911143898964,0.08220797777175903
9.253218650817871,-0.15392538905143738,-0.3221561014652252,0.3374151289463043,0.12149996310472488,-0.03337911143898964,0.08258945494890213
9.273309707641602,-0.15430685877799988,-0.3229190409183502,0.3389410376548767,0.12188144028186798,-0.03337911143898964,0.08258945494890213
9.293388366699219,-0.15430685877799988,-0.3233005404472351,0.3393225073814392,0.12302586436271667,-0.03299763426184654,0.08258945494890213
9.31347131729126,-0.15468832850456238,-0.3240634799003601,0.3404669165611267,0.12340734153985977,-0.03337911143898964,0.08297093212604523
9.333652019500732,-0.15545128285884857,-0.3244449496269226,0.3412298858165741,0.12340734153985977,-0.03299763426184654,0.08297093212604523
9.353736877441406,-0.15545128285884857,-0.3263523280620575,0.3423742949962616,0.12378881871700287,-0.03337911143898964,0.08335240930318832
9.37389326095581,-0.15583276748657227,-0.3274967670440674,0.3435187339782715,0.12378881871700287,-0.03299763426184654,0.08335240930318832
9.39394736289978,-0.15621423721313477,-0.3286411762237549,0.343900203704834,0.12417028844356537,-0.03299763426184654,0.08335240930318832
9.414060592651367,-0.15621423721313477,-0.32978561520576477,0.34542611241340637,0.12417028844356537,-0.03337911143898964,0.08373387902975082
9.434143304824829,-0.15659570693969727,-0.32940414547920227,0.34580758213996887,0.12455176562070847,-0.03299763426184654,0.08373387902975082
9.454178810119629,-0.15735866129398346,-0.33131152391433716,0.34771496057510376,0.12493324279785156,-0.03337911143898964,0.08373387902975082
9.474238157272339,-0.15774014592170715,-0.33169299364089966,0.34924086928367615,0.12607766687870026,-0.032616160809993744,0.08373387902975082
9.494350910186768,-0.15774014592170715,-0.33169299364089966,0.35000380873680115,0.12684062123298645,-0.03299763426184654,0.08411535620689392
9.514426469802856,-0.15812161564826965,-0.33360037207603455,0.35152971744537354,0.12722209095954895,-0.03337911143898964,0.08449683338403702
9.534486532211304,-0.15850308537483215,-0.33360037207603455,0.35191118717193604,0.12722209095954895,-0.03299763426184654,0.08487831056118011
9.554587841033936,-0.15850308537483215,-0.33588922023773193,0.3534370958805084,0.12722209095954895,-0.032616160809993744,0.08525978773832321
9.574648380279541,-0.15850308537483215,-0.33627068996429443,0.3538185656070709,0.12722209095954895,-0.032616160809993744,0.08564125746488571
9.59478235244751,-0.15926603972911835,-0.3381780683994293,0.3549630045890808,0.12760357558727264,-0.03299763426184654,0.0864042118191719
9.614799737930298,-0.16041046380996704,-0.3397039771080017,0.3561074137687683,0.12760357558727264,-0.032616160809993744,0.086785688996315
9.63488483428955,-0.16041046380996704,-0.3400854468345642,0.3572518527507782,0.12798504531383514,-0.032616160809993744,0.0871671661734581
9.654950857162476,-0.16041046380996704,-0.3416113555431366,0.3587777614593506,0.12836651504039764,-0.03337911143898964,0.0871671661734581
9.675024509429932,-0.16041046380996704,-0.3419928252696991,0.3591592311859131,0.12874799966812134,-0.03299763426184654,0.0875486359000206
9.695098638534546,-0.16041046380996704,-0.344663143157959,0.3606851398944855,0.12912946939468384,-0.03299763426184654,0.0875486359000206
9.71517014503479,-0.16041046380996704,-0.34504464268684387,0.3614480793476105,0.12989242374897003,-0.03223468363285065,0.0879301130771637
9.73524522781372,-0.16079194843769073,-0.34618905186653137,0.36297398805618286,0.13065537810325623,-0.03223468363285065,0.0879301130771637
9.755311012268066,-0.16155488789081573,-0.34809643030166626,0.36411839723587036,0.13065537810325623,-0.03185320645570755,0.0883115902543068
9.775387525558472,-0.16155488789081573,-0.34809643030166626,0.36411839723587036,0.13103684782981873,-0.03223468363285065,0.08907453715801239
9.795459032058716,-0.16269932687282562,-0.35038527846336365,0.36640727519989014,0.13103684782981873,-0.03185320645570755,0.08945601433515549
9.8155038356781,-0.16269932687282562,-0.35038527846336365,0.36640727519989014,0.13103684782981873,-0.03223468363285065,0.09098191559314728
9.835609674453735,-0.16269932687282562,-0.35076677799224854,0.368314653635025,0.13141833245754242,-0.032616160809993744,0.09098191559314728
9.85559344291687,-0.16308079659938812,-0.35114824771881104,0.3686961233615875,0.13141833245754242,-0.03223468363285065,0.09098191559314728
9.875693798065186,-0.16384375095367432,-0.35229265689849854,0.3706035017967224,0.13179980218410492,-0.03185320645570755,0.09098191559314728
9.895761013031006,-0.16384375095367432,-0.3534370958805084,0.3717479109764099,0.13179980218410492,-0.030708782374858856,0.09098191559314728
9.915830850601196,-0.16422522068023682,-0.3534370958805084,0.3721294105052948,0.13218127191066742,-0.030708782374858856,0.09136339277029037
9.935898780822754,-0.1646067053079605,-0.3545815348625183,0.3736552894115448,0.13218127191066742,-0.031090257689356804,0.09136339277029037
9.955971240997314,-0.1646067053079605,-0.3549630045890808,0.3740367889404297,0.1325627565383911,-0.030708782374858856,0.09136339277029037
9.976055383682251,-0.1657511293888092,-0.3564889132976532,0.3755626678466797,0.1333257108926773,-0.031090257689356804,0.09136339277029037
9.996123790740967,-0.1657511293888092,-0.3572518527507782,0.3763256371021271,0.1340886503458023,-0.030708782374858856,0.09136339277029037
10.016244649887085,-0.1657511293888092,-0.3587777614593506,0.3770885765552521,0.134470134973526,-0.030708782374858856,0.09174486994743347
10.036305665969849,-0.1668955534696579,-0.3606851398944855,0.37899595499038696,0.1348516047000885,-0.030708782374858856,0.09174486994743347
10.056411027908325,-0.1668955534696579,-0.361066609621048,0.37899595499038696,0.1348516047000885,-0.02994582988321781,0.09212634712457657
10.076470136642456,-0.1668955534696579,-0.36259251832962036,0.38090333342552185,0.1348516047000885,-0.03032730519771576,0.09212634712457657
10.09655213356018,-0.1672770231962204,-0.36335545778274536,0.38166627287864685,0.135233074426651,-0.029564354568719864,0.09250781685113907
10.116620302200317,-0.1676585078239441,-0.36488136649131775,0.38319218158721924,0.1356145590543747,-0.02994582988321781,0.09288929402828217
10.136667728424072,-0.1680399775505066,-0.36526283621788025,0.3839551508426666,0.1356145590543747,-0.029564354568719864,0.09327077120542526
10.156746625900269,-0.1680399775505066,-0.36526283621788025,0.3847180902957916,0.1359960287809372,-0.02994582988321781,0.09403372555971146
10.176822185516357,-0.1680399775505066,-0.36640727519989014,0.3858625292778015,0.1363775134086609,-0.02994582988321781,0.09441519528627396
10.196889638900757,-0.1680399775505066,-0.36717021465301514,0.3866254687309265,0.1371404528617859,-0.029182879254221916,0.09441519528627396
10.216963768005371,-0.1684214472770691,-0.368314653635025,0.3881513774394989,0.13752193748950958,-0.028038453310728073,0.09441519528627396
10.237006425857544,-0.16880293190479279,-0.368314653635025,0.3885328471660614,0.13790340721607208,-0.028038453310728073,0.09479667246341705
10.257089376449585,-0.16918440163135529,-0.3694590628147125,0.3900587558746338,0.13828489184379578,-0.02841992862522602,0.09479667246341705
10.277190923690796,-0.16994735598564148,-0.3713664412498474,0.3912031650543213,0.13828489184379578,-0.027656977996230125,0.09517814964056015
10.297298192977905,-0.16994735598564148,-0.3713664412498474,0.3912031650543213,0.13828489184379578,-0.027656977996230125,0.09517814964056015
10.317445039749146,-0.17032882571220398,-0.3725108802318573,0.3931105434894562,0.13904783129692078,-0.02841992862522602,0.09555962681770325
10.337530136108398,-0.17071031033992767,-0.3728923499584198,0.3934920132160187,0.13904783129692078,-0.028038453310728073,0.09594109654426575
10.357614278793335,-0.17109178006649017,-0.3747997283935547,0.39539939165115356,0.13942931592464447,-0.028038453310728073,0.09594109654426575
10.377615690231323,-0.17147326469421387,-0.3763256371021271,0.39654383063316345,0.13942931592464447,-0.02689402550458908,0.09632257372140884
10.397703886032104,-0.17185473442077637,-0.3770885765552521,0.39730677008628845,0.13981078565120697,-0.02689402550458908,0.09746700525283813
10.417761087417603,-0.17185473442077637,-0.37823301553726196,0.39883267879486084,0.14019227027893066,-0.02689402550458908,0.09784847497940063
10.437833070755005,-0.17223620414733887,-0.37975889444351196,0.39921414852142334,0.14133669435977936,-0.02727550081908703,0.09822995215654373
10.457902669906616,-0.17223620414733887,-0.38166627287864685,0.4003585875034332,0.14171816408634186,-0.02689402550458908,0.09822995215654373
10.477970600128174,-0.17261768877506256,-0.38242924213409424,0.4015030264854431,0.14209964871406555,-0.026512550190091133,0.09822995215654373
10.498109102249146,-0.17299915850162506,-0.38281071186065674,0.4026474356651306,0.14209964871406555,-0.02689402550458908,0.09861142933368683
10.518107652664185,-0.17299915850162506,-0.38319218158721924,0.4037918746471405,0.14209964871406555,-0.02689402550458908,0.09861142933368683
10.538201570510864,-0.17338064312934875,-0.3839551508426666,0.404936283826828,0.14248111844062805,-0.02689402550458908,0.09861142933368683
10.558291673660278,-0.17414358258247375,-0.3854810297489166,0.4068436622619629,0.14286258816719055,-0.026512550190091133,0.09861142933368683
10.578356266021729,-0.17414358258247375,-0.3858625292778015,0.4068436622619629,0.14286258816719055,-0.026512550190091133,0.09899290651082993
10.59842848777771,-0.17414358258247375,-0.3858625292778015,0.4072251319885254,0.14286258816719055,-0.02689402550458908,0.09861142933368683
10.618508100509644,-0.17414358258247375,-0.3858625292778015,0.4072251319885254,0.14286258816719055,-0.02689402550458908,0.09861142933368683
10.638680696487427,-0.17414358258247375,-0.3858625292778015,0.4072251319885254,0.14286258816719055,-0.026512550190091133,0.09861142933368683
10.65866756439209,-0.17414358258247375,-0.3858625292778015,0.4076066315174103,0.14286258816719055,-0.026131074875593185,0.09861142933368683
10.678805112838745,-0.17414358258247375,-0.3858625292778015,0.4076066315174103,0.14286258816719055,-0.026131074875593185,0.09861142933368683
10.69887924194336,-0.17414358258247375,-0.3858625292778015,0.4079881012439728,0.14286258816719055,-0.026131074875593185,0.09861142933368683
10.7190420627594,-0.17414358258247375,-0.3858625292778015,0.4079881012439728,0.14286258816719055,-0.026512550190091133,0.09861142933368683
10.73910927772522,-0.17414358258247375,-0.3858625292778015,0.4083695709705353,0.14286258816719055,-0.026512550190091133,0.09861142933368683
10.75916838645935,-0.17414358258247375,-0.3858625292778015,0.4083695709705353,0.14286258816719055,-0.026512550190091133,0.09861142933368683
10.779247283935547,-0.17414358258247375,-0.3858625292778015,0.4087510406970978,0.14286258816719055,-0.026131074875593185,0.09861142933368683
10.799326181411743,-0.17414358258247375,-0.3858625292778015,0.40951400995254517,0.14286258816719055,-0.026131074875593185,0.09822995215654373
10.819400787353516,-0.17414358258247375,-0.3858625292778015,0.40951400995254517,0.14248111844062805,-0.026131074875593185,0.09822995215654373
10.839588165283203,-0.17414358258247375,-0.3858625292778015,0.40989547967910767,0.14248111844062805,-0.026131074875593185,0.09822995215654373
10.85975980758667,-0.17414358258247375,-0.3858625292778015,0.40989547967910767,0.14248111844062805,-0.026131074875593185,0.09822995215654373
10.879759788513184,-0.17414358258247375,-0.3858625292778015,0.40989547967910767,0.14248111844062805,-0.026512550190091133,0.09822995215654373
10.899807453155518,-0.17414358258247375,-0.3858625292778015,0.41027694940567017,0.14248111844062805,-0.026512550190091133,0.09822995215654373
10.919891119003296,-0.17414358258247375,-0.3858625292778015,0.41027694940567017,0.14248111844062805,-0.026131074875593185,0.09822995215654373
10.939964294433594,-0.17414358258247375,-0.3858625292778015,0.41103988885879517,0.14248111844062805,-0.026131074875593185,0.09822995215654373
10.960036277770996,-0.17414358258247375,-0.3858625292778015,0.41103988885879517,0.14248111844062805,-0.026131074875593185,0.09822995215654373
10.980125904083252,-0.17376211285591125,-0.3858625292778015,0.41180285811424255,0.14248111844062805,-0.026131074875593185,0.09784847497940063
11.000191688537598,-0.17376211285591125,-0.3858625292778015,0.41180285811424255,0.14248111844062805,-0.026131074875593185,0.09784847497940063
11.020251274108887,-0.17376211285591125,-0.3858625292778015,0.41218432784080505,0.14248111844062805,-0.026131074875593185,0.09784847497940063
11.040338039398193,-0.17376211285591125,-0.3858625292778015,0.41218432784080505,0.14248111844062805,-0.026131074875593185,0.09746700525283813
11.060435056686401,-0.17376211285591125,-0.3858625292778015,0.41218432784080505,0.14209964871406555,-0.026131074875593185,0.09746700525283813
11.080522060394287,-0.17376211285591125,-0.3858625292778015,0.41256579756736755,0.14248111844062805,-0.026131074875593185,0.09746700525283813
11.100639581680298,-0.17376211285591125,-0.3858625292778015,0.41256579756736755,0.14209964871406555,-0.026131074875593185,0.09708552807569504
11.120716333389282,-0.17338064312934875,-0.3858625292778015,0.41332876682281494,0.14209964871406555,-0.026131074875593185,0.09670405089855194
11.140794277191162,-0.17299915850162506,-0.3858625292778015,0.41371023654937744,0.14209964871406555,-0.026131074875593185,0.09632257372140884
11.16094446182251,-0.17299915850162506,-0.3858625292778015,0.41409170627593994,0.14209964871406555,-0.026131074875593185,0.09632257372140884
11.180946588516235,-0.17261768877506256,-0.3858625292778015,0.41409170627593994,0.14209964871406555,-0.026131074875593185,0.09555962681770325
11.201028823852539,-0.17261768877506256,-0.3858625292778015,0.41447317600250244,0.14171816408634186,-0.025749599561095238,0.09517814964056015
11.221116542816162,-0.17261768877506256,-0.3858625292778015,0.41485464572906494,0.14171816408634186,-0.026131074875593185,0.09517814964056015
11.24117112159729,-0.17223620414733887,-0.3858625292778015,0.41485464572906494,0.14171816408634186,-0.026131074875593185,0.09479667246341705
11.261307954788208,-0.17223620414733887,-0.3858625292778015,0.41523614525794983,0.14171816408634186,-0.026131074875593185,0.09479667246341705
11.281320810317993,-0.17185473442077637,-0.3858625292778015,0.41561761498451233,0.14133669435977936,-0.026131074875593185,0.09479667246341705
11.301413297653198,-0.17185473442077637,-0.3858625292778015,0.41561761498451233,0.14133669435977936,-0.026131074875593185,0.09441519528627396
11.321476936340332,-0.17185473442077637,-0.3858625292778015,0.41599908471107483,0.14133669435977936,-0.026131074875593185,0.09441519528627396
11.34154987335205,-0.17185473442077637,-0.3858625292778015,0.41599908471107483,0.14095520973205566,-0.025749599561095238,0.09403372555971146
11.361626386642456,-0.17185473442077637,-0.3858625292778015,0.41638055443763733,0.14095520973205566,-0.026131074875593185,0.09403372555971146
11.381736993789673,-0.17185473442077637,-0.3858625292778015,0.41638055443763733,0.14095520973205566,-0.026131074875593185,0.09365224838256836
11.401831865310669,-0.17147326469421387,-0.3858625292778015,0.41676202416419983,0.14057374000549316,-0.026131074875593185,0.09365224838256836
11.421861410140991,-0.17147326469421387,-0.3858625292778015,0.4171435236930847,0.14019227027893066,-0.026131074875593185,0.09327077120542526
11.44193434715271,-0.17147326469421387,-0.3858625292778015,0.4171435236930847,0.13981078565120697,-0.025749599561095238,0.09250781685113907
11.462010145187378,-0.17071031033992767,-0.3858625292778015,0.4179064631462097,0.13904783129692078,-0.025749599561095238,0.09212634712457657
11.482080698013306,-0.17071031033992767,-0.3858625292778015,0.4179064631462097,0.13866636157035828,-0.025749599561095238,0.09174486994743347
11.502191305160522,-0.17071031033992767,-0.3858625292778015,0.4179064631462097,0.13866636157035828,-0.026131074875593185,0.09174486994743347
11.522211074829102,-0.17032882571220398,-0.3858625292778015,0.4182879328727722,0.13866636157035828,-0.025749599561095238,0.09136339277029037
11.542294979095459,-0.16956588625907898,-0.3858625292778015,0.4182879328727722,0.13828489184379578,-0.025749599561095238,0.09136339277029037
11.562359094619751,-0.16956588625907898,-0.3858625292778015,0.4186694025993347,0.13828489184379578,-0.025749599561095238,0.09136339277029037
11.582501411437988,-0.16956588625907898,-0.3858625292778015,0.4190509021282196,0.13828489184379578,-0.025749599561095238,0.09098191559314728
11.60254168510437,-0.16956588625907898,-0.3858625292778015,0.4194323718547821,0.13790340721607208,-0.02536812424659729,0.09098191559314728
11.622639417648315,-0.16956588625907898,-0.3858625292778015,0.4194323718547821,0.13790340721607208,-0.02536812424659729,0.09098191559314728
11.642857789993286,-0.16956588625907898,-0.3858625292778015,0.4198138415813446,0.13752193748950958,-0.02536812424659729,0.09098191559314728
11.662896871566772,-0.16956588625907898,-0.3858625292778015,0.4201953113079071,0.13752193748950958,-0.025749599561095238,0.09060044586658478
11.682970523834229,-0.16956588625907898,-0.3858625292778015,0.4201953113079071,0.13752193748950958,-0.02536812424659729,0.09060044586658478
11.703042984008789,-0.16956588625907898,-0.3858625292778015,0.4205767810344696,0.1371404528617859,-0.02536812424659729,0.09060044586658478
11.723113059997559,-0.16918440163135529,-0.3858625292778015,0.4205767810344696,0.1367589831352234,-0.02536812424659729,0.09021896868944168
11.743181943893433,-0.1684214472770691,-0.3858625292778015,0.421339750289917,0.1363775134086609,-0.02536812424659729,0.09021896868944168
11.763323783874512,-0.1676585078239441,-0.3858625292778015,0.421339750289917,0.1359960287809372,-0.02536812424659729,0.09021896868944168
11.783419847488403,-0.1676585078239441,-0.3858625292778015,0.4217212200164795,0.1359960287809372,-0.02536812424659729,0.08983749151229858
11.803436040878296,-0.1676585078239441,-0.3858625292778015,0.422102689743042,0.135233074426651,-0.024223696440458298,0.08945601433515549
11.823529481887817,-0.1676585078239441,-0.3858625292778015,0.422102689743042,0.135233074426651,-0.02384222112596035,0.08945601433515549
11.843615770339966,-0.1676585078239441,-0.3858625292778015,0.4224841594696045,0.1348516047000885,-0.024223696440458298,0.08869306743144989
11.863677740097046,-0.1676585078239441,-0.3858625292778015,0.4224841594696045,0.1348516047000885,-0.024223696440458298,0.0883115902543068
11.883790969848633,-0.1676585078239441,-0.3858625292778015,0.4228656589984894,0.1348516047000885,-0.024605173617601395,0.0875486359000206
11.903935194015503,-0.1676585078239441,-0.3858625292778015,0.4228656589984894,0.134470134973526,-0.024986648932099342,0.0875486359000206
11.924022674560547,-0.1676585078239441,-0.3858625292778015,0.4236285984516144,0.134470134973526,-0.024986648932099342,0.0871671661734581
11.944085359573364,-0.1676585078239441,-0.3858625292778015,0.4236285984516144,0.1340886503458023,-0.024605173617601395,0.0871671661734581
11.96415376663208,-0.1676585078239441,-0.3858625292778015,0.4236285984516144,0.1340886503458023,-0.024223696440458298,0.086785688996315
11.98422360420227,-0.1676585078239441,-0.3858625292778015,0.4243915379047394,0.1340886503458023,-0.024605173617601395,0.086785688996315
12.004313230514526,-0.1676585078239441,-0.3858625292778015,0.4243915379047394,0.1337071806192398,-0.024605173617601395,0.0864042118191719
12.024415016174316,-0.1676585078239441,-0.3858625292778015,0.4243915379047394,0.1337071806192398,-0.024605173617601395,0.0864042118191719
12.044463872909546,-0.1672770231962204,-0.3858625292778015,0.4247730076313019,0.1337071806192398,-0.024605173617601395,0.0864042118191719
12.064545631408691,-0.1672770231962204,-0.3858625292778015,0.4247730076313019,0.1333257108926773,-0.024605173617601395,0.08602273464202881
12.084606409072876,-0.1668955534696579,-0.3858625292778015,0.42515450716018677,0.1329442262649536,-0.024605173617601395,0.08564125746488571
12.104673624038696,-0.1665140837430954,-0.3858625292778015,0.42553597688674927,0.1329442262649536,-0.024223696440458298,0.08487831056118011
12.124745607376099,-0.1665140837430954,-0.3858625292778015,0.42591744661331177,0.1325627565383911,-0.024605173617601395,0.08449683338403702
12.14481520652771,-0.1665140837430954,-0.3858625292778015,0.42591744661331177,0.13218127191066742,-0.02384222112596035,0.08373387902975082
12.16488003730774,-0.1665140837430954,-0.3858625292778015,0.42629891633987427,0.13141833245754242,-0.024223696440458298,0.08335240930318832
12.184946060180664,-0.1661325991153717,-0.3858625292778015,0.42668038606643677,0.13141833245754242,-0.024223696440458298,0.08335240930318832
12.205018997192383,-0.1657511293888092,-0.3858625292778015,0.42668038606643677,0.13103684782981873,-0.024223696440458298,0.08335240930318832
12.225089311599731,-0.1657511293888092,-0.3858625292778015,0.42706188559532166,0.13103684782981873,-0.024223696440458298,0.08335240930318832
12.245156049728394,-0.1657511293888092,-0.3858625292778015,0.42706188559532166,0.13065537810325623,-0.02384222112596035,0.08297093212604523
12.265228748321533,-0.1653696447610855,-0.3858625292778015,0.42782482504844666,0.13065537810325623,-0.02384222112596035,0.08297093212604523
12.285492420196533,-0.1653696447610855,-0.3858625292778015,0.42782482504844666,0.13027389347553253,-0.023460745811462402,0.08258945494890213
12.305593490600586,-0.1653696447610855,-0.3858625292778015,0.42820629477500916,0.13027389347553253,-0.02384222112596035,0.08258945494890213
12.325660228729248,-0.164988175034523,-0.3858625292778015,0.42858776450157166,0.13027389347553253,-0.02384222112596035,0.08258945494890213
12.34575867652893,-0.1646067053079605,-0.3858625292778015,0.42858776450157166,0.12989242374897003,-0.02384222112596035,0.08258945494890213
12.365840673446655,-0.1646067053079605,-0.3858625292778015,0.42896926403045654,0.12989242374897003,-0.02384222112596035,0.08220797777175903
12.385887622833252,-0.1646067053079605,-0.3858625292778015,0.42896926403045654,0.12989242374897003,-0.02384222112596035,0.08220797777175903
12.406025171279907,-0.1646067053079605,-0.3858625292778015,0.42973220348358154,0.12951095402240753,-0.02384222112596035,0.08182650804519653
12.42603087425232,-0.16422522068023682,-0.3858625292778015,0.43011367321014404,0.12912946939468384,-0.023460745811462402,0.08182650804519653
12.44611406326294,-0.16422522068023682,-0.3858625292778015,0.43011367321014404,0.12836651504039764,-0.023460745811462402,0.08144503086805344
12.466206312179565,-0.16422522068023682,-0.3858625292778015,0.43049514293670654,0.12836651504039764,-0.02384222112596035,0.08144503086805344
12.486264705657959,-0.16422522068023682,-0.3858625292778015,0.43049514293670654,0.12798504531383514,-0.02384222112596035,0.08106355369091034
12.506330966949463,-0.16346226632595062,-0.3858625292778015,0.43087664246559143,0.12760357558727264,-0.024223696440458298,0.08068207651376724
12.526398658752441,-0.16346226632595062,-0.3858625292778015,0.43087664246559143,0.12760357558727264,-0.023460745811462402,0.07991912961006165
12.54645824432373,-0.16346226632595062,-0.3858625292778015,0.43125811219215393,0.12722209095954895,-0.023460745811462402,0.07991912961006165
12.566522598266602,-0.16308079659938812,-0.3858625292778015,0.43202105164527893,0.12722209095954895,-0.023079270496964455,0.07953765243291855
12.586640357971191,-0.16231784224510193,-0.3858625292778015,0.43202105164527893,0.12722209095954895,-0.023460745811462402,0.07953765243291855
12.606687545776367,-0.16231784224510193,-0.3858625292778015,0.43240252137184143,0.12684062123298645,-0.023079270496964455,0.07953765243291855
12.626753568649292,-0.16231784224510193,-0.3858625292778015,0.43240252137184143,0.12684062123298645,-0.023460745811462402,0.07915617525577545
12.646884441375732,-0.16231784224510193,-0.3858625292778015,0.4327840209007263,0.12684062123298645,-0.023079270496964455,0.07915617525577545
12.666884422302246,-0.16231784224510193,-0.3858625292778015,0.4327840209007263,0.12645913660526276,-0.023079270496964455,0.07877469807863235
12.68696928024292,-0.16231784224510193,-0.3858625292778015,0.4327840209007263,0.12645913660526276,-0.023079270496964455,0.07877469807863235
12.707083225250244,-0.16231784224510193,-0.3858625292778015,0.4331654906272888,0.12645913660526276,-0.023079270496964455,0.07877469807863235
12.727128267288208,-0.16231784224510193,-0.3858625292778015,0.4335469603538513,0.12607766687870026,-0.023079270496964455,0.07839322835206985
12.747197389602661,-0.16193637251853943,-0.3858625292778015,0.4339284300804138,0.12607766687870026,-0.023079270496964455,0.07801175117492676
12.767279148101807,-0.16193637251853943,-0.3858625292778015,0.4343098998069763,0.12569619715213776,-0.022697795182466507,0.07763027399778366
12.787345886230469,-0.16155488789081573,-0.3858625292778015,0.4346913993358612,0.12569619715213776,-0.023079270496964455,0.07724879682064056
12.807401418685913,-0.16117341816425323,-0.3858625292778015,0.4350728690624237,0.12531471252441406,-0.022697795182466507,0.07686731964349747
12.827513933181763,-0.16117341816425323,-0.3858625292778015,0.4350728690624237,0.12531471252441406,-0.022697795182466507,0.07610437273979187
12.847555160522461,-0.16117341816425323,-0.3858625292778015,0.4354543387889862,0.12493324279785156,-0.022697795182466507,0.07572289556264877
12.867646217346191,-0.16041046380996704,-0.3858625292778015,0.4354543387889862,0.12417028844356537,-0.023079270496964455,0.07572289556264877
12.887697458267212,-0.16041046380996704,-0.3858625292778015,0.4362172782421112,0.12378881871700287,-0.023079270496964455,0.07534141838550568
12.908216953277588,-0.16041046380996704,-0.3858625292778015,0.4362172782421112,0.12340734153985977,-0.022697795182466507,0.07534141838550568
12.928286075592041,-0.16041046380996704,-0.3858625292778015,0.4369802474975586,0.12340734153985977,-0.02231631986796856,0.07495994865894318
12.948343515396118,-0.16041046380996704,-0.3858625292778015,0.4369802474975586,0.12302586436271667,-0.02231631986796856,0.07495994865894318
12.9684579372406,-0.16041046380996704,-0.3858625292778015,0.4369802474975586,0.12302586436271667,-0.02231631986796856,0.07495994865894318
12.988529443740845,-0.16041046380996704,-0.3858625292778015,0.4373617172241211,0.12302586436271667,-0.02231631986796856,0.07457847148180008
13.008597135543823,-0.16041046380996704,-0.3858625292778015,0.4373617172241211,0.12264438718557358,-0.02231631986796856,0.07457847148180008
13.028672456741333,-0.16041046380996704,-0.3858625292778015,0.4381246566772461,0.12264438718557358,-0.022697795182466507,0.07419699430465698
13.048722982406616,-0.16002899408340454,-0.3858625292778015,0.4381246566772461,0.12264438718557358,-0.02231631986796856,0.07419699430465698
13.068832635879517,-0.16002899408340454,-0.3858625292778015,0.438506156206131,0.12226291000843048,-0.02193484455347061,0.07381551712751389
13.088903188705444,-0.16002899408340454,-0.3858625292778015,0.4388876259326935,0.12188144028186798,-0.02231631986796856,0.07343403995037079
13.10906195640564,-0.16002899408340454,-0.3858625292778015,0.4388876259326935,0.12149996310472488,-0.02193484455347061,0.07305257022380829
13.129092454910278,-0.15964750945568085,-0.3858625292778015,0.439269095659256,0.12073700875043869,-0.022697795182466507,0.07267109304666519
13.149224519729614,-0.15964750945568085,-0.3858625292778015,0.439269095659256,0.12073700875043869,-0.02231631986796856,0.07267109304666519
13.169299840927124,-0.15926603972911835,-0.3858625292778015,0.4396505653858185,0.1203555315732956,-0.02231631986796856,0.0722896158695221
13.189344644546509,-0.15926603972911835,-0.3858625292778015,0.440032035112381,0.1199740618467331,-0.02193484455347061,0.071908138692379
13.20943808555603,-0.15926603972911835,-0.3858625292778015,0.4404135048389435,0.1199740618467331,-0.02193484455347061,0.071908138692379
13.229524612426758,-0.15888457000255585,-0.3858625292778015,0.44079500436782837,0.11959258466959,-0.02193484455347061,0.071908138692379
13.249599695205688,-0.15888457000255585,-0.3858625292778015,0.44079500436782837,0.11959258466959,-0.02193484455347061,0.0715266615152359
13.269700288772583,-0.15850308537483215,-0.3858625292778015,0.44117647409439087,0.11959258466959,-0.02231631986796856,0.0715266615152359
13.289767026901245,-0.15812161564826965,-0.3858625292778015,0.44117647409439087,0.1192111074924469,-0.02193484455347061,0.0715266615152359
13.309885740280151,-0.15812161564826965,-0.3858625292778015,0.44155794382095337,0.1192111074924469,-0.021553369238972664,0.0711451917886734
13.32994818687439,-0.15812161564826965,-0.3858625292778015,0.44193941354751587,0.1188296303153038,-0.021171892061829567,0.0711451917886734
13.350008249282837,-0.15774014592170715,-0.3858625292778015,0.44232088327407837,0.1188296303153038,-0.021171892061829567,0.0707637146115303
13.370172262191772,-0.15774014592170715,-0.3858625292778015,0.44270238280296326,0.1184481605887413,-0.021553369238972664,0.0707637146115303
13.390257120132446,-0.15735866129398346,-0.3858625292778015,0.44270238280296326,0.1184481605887413,-0.021171892061829567,0.07038223743438721
13.410309314727783,-0.15735866129398346,-0.3858625292778015,0.44346532225608826,0.1184481605887413,-0.021553369238972664,0.07038223743438721
13.430510520935059,-0.15735866129398346,-0.3858625292778015,0.44346532225608826,0.1180666834115982,-0.02079041674733162,0.07000076025724411
13.45059847831726,-0.15735866129398346,-0.3858625292778015,0.44384679198265076,0.11768520623445511,-0.02079041674733162,0.06961929053068161
13.470761775970459,-0.15735866129398346,-0.3858625292778015,0.44422826170921326,0.11692225188016891,-0.02040894143283367,0.06885633617639542
13.490823030471802,-0.15735866129398346,-0.3858625292778015,0.44460976123809814,0.11615930497646332,-0.020027466118335724,0.06847485899925232
13.510958194732666,-0.15697719156742096,-0.3858625292778015,0.44460976123809814,0.11577782779932022,-0.020027466118335724,0.06809338182210922
13.530993461608887,-0.15697719156742096,-0.3858625292778015,0.44460976123809814,0.11577782779932022,-0.020027466118335724,0.06809338182210922
13.551103115081787,-0.15697719156742096,-0.3858625292778015,0.44537270069122314,0.11539635062217712,-0.020027466118335724,0.06809338182210922
13.57112193107605,-0.15659570693969727,-0.3858625292778015,0.44537270069122314,0.11539635062217712,-0.020027466118335724,0.06771191209554672
13.591202735900879,-0.15621423721313477,-0.3858625292778015,0.44537270069122314,0.11501488089561462,-0.020027466118335724,0.06733043491840363
13.611270666122437,-0.15583276748657227,-0.3858625292778015,0.44651713967323303,0.11501488089561462,-0.019645990803837776,0.06733043491840363
13.631371259689331,-0.15583276748657227,-0.3858625292778015,0.44651713967323303,0.11463340371847153,-0.01926451548933983,0.06694895774126053
13.651435613632202,-0.15545128285884857,-0.3858625292778015,0.44689860939979553,0.11425192654132843,-0.019645990803837776,0.06694895774126053
13.671497821807861,-0.15545128285884857,-0.3858625292778015,0.44689860939979553,0.11387044936418533,-0.01926451548933983,0.06656748056411743
13.691573858261108,-0.15545128285884857,-0.3858625292778015,0.44728007912635803,0.11348897218704224,-0.019645990803837776,0.06618601083755493
13.711601734161377,-0.15506981313228607,-0.3858625292778015,0.44728007912635803,0.11348897218704224,-0.01926451548933983,0.06580453366041183
13.731725692749023,-0.15506981313228607,-0.3858625292778015,0.44766154885292053,0.11310750246047974,-0.019645990803837776,0.06504157930612564
13.751773595809937,-0.15506981313228607,-0.3858625292778015,0.4484245181083679,0.11272602528333664,-0.01926451548933983,0.06466010212898254
13.77184247970581,-0.15506981313228607,-0.3858625292778015,0.4484245181083679,0.11272602528333664,-0.01926451548933983,0.06466010212898254
13.79193115234375,-0.15506981313228607,-0.3858625292778015,0.4488059878349304,0.11234454810619354,-0.01926451548933983,0.06427863240242004
13.81200098991394,-0.15506981313228607,-0.3858625292778015,0.4488059878349304,0.11234454810619354,-0.01926451548933983,0.06427863240242004
13.832057237625122,-0.15468832850456238,-0.3858625292778015,0.4491874575614929,0.11196307092905045,-0.01926451548933983,0.06389715522527695
13.852192640304565,-0.15392538905143738,-0.3858625292778015,0.4495689272880554,0.11196307092905045,-0.01926451548933983,0.06389715522527695
13.872222423553467,-0.15316243469715118,-0.3858625292778015,0.4495689272880554,0.11196307092905045,-0.01926451548933983,0.06389715522527695
13.892290353775024,-0.15316243469715118,-0.3858625292778015,0.4503318965435028,0.11158160120248795,-0.01926451548933983,0.06351567804813385
13.912358283996582,-0.15316243469715118,-0.3858625292778015,0.4507133662700653,0.11158160120248795,-0.01888304017484188,0.06313420087099075
13.932430028915405,-0.15316243469715118,-0.3858625292778015,0.4507133662700653,0.11120012402534485,-0.018501564860343933,0.06313420087099075
13.95249056816101,-0.15316243469715118,-0.3858625292778015,0.4510948359966278,0.11081864684820175,-0.018501564860343933,0.06275273114442825
13.972605228424072,-0.15316243469715118,-0.3858625292778015,0.4514763057231903,0.11081864684820175,-0.01888304017484188,0.06275273114442825
13.992654085159302,-0.15316243469715118,-0.3858625292778015,0.4518577754497528,0.11043716967105865,-0.01888304017484188,0.06237125024199486
14.01272177696228,-0.15316243469715118,-0.3858625292778015,0.4518577754497528,0.11043716967105865,-0.01888304017484188,0.06198977679014206
14.0327889919281,-0.15316243469715118,-0.3858625292778015,0.4522392749786377,0.10967422276735306,-0.018501564860343933,0.06160829961299896
14.052901268005371,-0.1527809500694275,-0.3858625292778015,0.4526207447052002,0.10929274559020996,-0.018501564860343933,0.06084534898400307
14.07295846939087,-0.1527809500694275,-0.3858625292778015,0.4530022144317627,0.10891126841306686,-0.018501564860343933,0.06046387553215027
