liuyurong129/humanoid-gym/humanoid/data/actual_q_20250522-041628.csv
timestamp,joint_1,joint_2,joint_3,joint_4,joint_5,joint_6
0.0001621246337890625,-0.00019073777366429567,0.001716639962978661,-0.0013351644156500697,-0.00019073777366429567,0.00019073777366429567,-0.00019073777366429567
0.020232677459716797,-0.00019073777366429567,0.001716639962978661,-0.0013351644156500697,-0.00019073777366429567,0.00019073777366429567,-0.00019073777366429567
0.04029512405395508,-0.00019073777366429567,0.001716639962978661,-0.0013351644156500697,-0.00019073777366429567,0.00019073777366429567,-0.00019073777366429567
0.060369014739990234,-0.00019073777366429567,0.0009536888683214784,-0.000572213320992887,-0.00019073777366429567,0.00019073777366429567,-0.00019073777366429567
0.08042454719543457,-0.00019073777366429567,0.0009536888683214784,-0.000572213320992887,-0.00019073777366429567,0.00019073777366429567,-0.00019073777366429567
0.1004934310913086,-0.00019073777366429567,0.000572213320992887,-0.00019073777366429567,-0.00019073777366429567,0.00019073777366429567,-0.00019073777366429567
0.12067055702209473,-0.0009536888683214784,-0.0036240178160369396,0.001716639962978661,-0.00019073777366429567,0.00019073777366429567,-0.00019073777366429567
0.14086318016052246,-0.0036240178160369396,-0.010490577667951584,0.0036240178160369396,-0.00019073777366429567,0.0009536888683214784,-0.00019073777366429567
0.16102886199951172,-0.007057297509163618,-0.016975661739706993,0.005912871100008488,0.00019073777366429567,0.001716639962978661,-0.00019073777366429567
0.18110346794128418,-0.009346150793135166,-0.02193484455347061,0.00667582219466567,0.00019073777366429567,0.001716639962978661,-0.00019073777366429567
0.20116162300109863,-0.012779430486261845,-0.02841992862522602,0.008201723918318748,0.00019073777366429567,0.0009536888683214784,-0.00019073777366429567
0.2212505340576172,-0.016594186425209045,-0.03604944050312042,0.009346150793135166,0.000572213320992887,0.000572213320992887,-0.00019073777366429567
0.2412891387939453,-0.02079041674733162,-0.043678950518369675,0.010490577667951584,0.000572213320992887,0.000572213320992887,-0.00019073777366429567
0.2613801956176758,-0.02536812424659729,-0.051689937710762024,0.011635004542768002,0.0013351644156500697,0.000572213320992887,-0.00019073777366429567
0.2814509868621826,-0.029564354568719864,-0.06046387553215027,0.013160906732082367,0.0024795911740511656,0.000572213320992887,-0.00019073777366429567
0.3016061782836914,-0.03376058489084244,-0.06961929053068161,0.01430533267557621,0.0032425422687083483,0.00019073777366429567,-0.00019073777366429567
0.32169055938720703,-0.03757534176111221,-0.07724879682064056,0.01583123579621315,0.004005493130534887,0.000572213320992887,-0.00019073777366429567
0.34177112579345703,-0.04177157208323479,-0.08411535620689392,0.01735713705420494,0.00476844422519207,0.000572213320992887,-0.00019073777366429567
0.3618640899658203,-0.04558632895350456,-0.09288929402828217,0.01926451548933983,0.005912871100008488,0.000572213320992887,0.00019073777366429567
0.38199615478515625,-0.049782559275627136,-0.1039520874619484,0.021553369238972664,0.007057297509163618,0.000572213320992887,-0.00019073777366429567
0.4021012783050537,-0.0551232174038887,-0.11768520623445511,0.023460745811462402,0.0078202486038208,0.000572213320992887,-0.00019073777366429567
0.42218589782714844,-0.06008239835500717,-0.12874799966812134,0.025749599561095238,0.00858320016413927,0.0009536888683214784,-0.00019073777366429567
0.4423649311065674,-0.06313420087099075,-0.1356145590543747,0.02689402550458908,0.009727626107633114,0.000572213320992887,-0.00019073777366429567
0.4624807834625244,-0.06771191209554672,-0.14629587531089783,0.02880140393972397,0.01125352829694748,0.000572213320992887,0.00019073777366429567
0.482511043548584,-0.07343403995037079,-0.16155488789081573,0.031090257689356804,0.01201647985726595,0.0009536888683214784,-0.00019073777366429567
0.5025882720947266,-0.07877469807863235,-0.17719538509845734,0.03337911143898964,0.012779430486261845,0.0009536888683214784,0.00019073777366429567
0.5226733684539795,-0.08335240930318832,-0.19016556441783905,0.03643091395497322,0.014686808921396732,0.0009536888683214784,0.00019073777366429567
0.5427606105804443,-0.0875486359000206,-0.1974135935306549,0.03795681521296501,0.015449759550392628,0.0009536888683214784,0.00019073777366429567
0.5630536079406738,-0.09288929402828217,-0.20885786414146423,0.04100862145423889,0.016975661739706993,0.0009536888683214784,0.00019073777366429567
0.5831499099731445,-0.09822995215654373,-0.22220951318740845,0.04444190114736557,0.01888304017484188,0.00019073777366429567,0.00019073777366429567
0.6032912731170654,-0.1039520874619484,-0.24052032828330994,0.046730753034353256,0.01926451548933983,0.0013351644156500697,0.00019073777366429567
0.6233851909637451,-0.11120012402534485,-0.2573052644729614,0.05054550990462303,0.021171892061829567,0.0013351644156500697,0.00019073777366429567
0.6434879302978516,-0.11654078215360641,-0.265697717666626,0.05359731614589691,0.022697795182466507,0.0013351644156500697,0.00019073777366429567
0.66391921043396,-0.12340734153985977,-0.2767605185508728,0.056267641484737396,0.024223696440458298,0.0020981156267225742,0.00019073777366429567
0.6840240955352783,-0.12951095402240753,-0.2927824854850769,0.05970092490315437,0.025749599561095238,0.0020981156267225742,0.00019073777366429567
0.7040774822235107,-0.1363775134086609,-0.3110933005809784,0.06198977679014206,0.026512550190091133,0.0020981156267225742,0.00019073777366429567
0.7241780757904053,-0.14286258816719055,-0.3255893886089325,0.06618601083755493,0.027656977996230125,0.0024795911740511656,0.00019073777366429567
0.7442729473114014,-0.14782176911830902,-0.33436331152915955,0.06885633617639542,0.029564354568719864,0.0013351644156500697,0.00019073777366429567
0.7647123336791992,-0.15430685877799988,-0.3435187339782715,0.071908138692379,0.030708782374858856,0.0013351644156500697,0.000572213320992887
0.7848081588745117,-0.16041046380996704,-0.3591592311859131,0.07648584991693497,0.03223468363285065,0.001716639962978661,0.000572213320992887
0.8048827648162842,-0.1676585078239441,-0.37899595499038696,0.07991912961006165,0.03337911143898964,0.0024795911740511656,0.00019073777366429567
0.8250086307525635,-0.17490653693675995,-0.3919661343097687,0.08525978773832321,0.03452353551983833,0.002861066721379757,0.000572213320992887
0.8450527191162109,-0.17986571788787842,-0.4003585875034332,0.0883115902543068,0.035667963325977325,0.0036240178160369396,0.000572213320992887
0.8651926517486572,-0.1848248988389969,-0.40951400995254517,0.09136339277029037,0.037193864583969116,0.004005493130534887,0.000572213320992887
0.8852865695953369,-0.19130998849868774,-0.4228656589984894,0.09555962681770325,0.03833829239010811,0.004005493130534887,0.000572213320992887
0.90535569190979,-0.1974135935306549,-0.4373617172241211,0.09937438368797302,0.0398641936480999,0.004005493130534887,0.000572213320992887
0.9262239933013916,-0.20389868319034576,-0.4518577754497528,0.1028076633810997,0.04139009863138199,0.002861066721379757,0.000572213320992887
0.9463255405426025,-0.20809490978717804,-0.45910581946372986,0.10585946589708328,0.04291599988937378,0.0032425422687083483,0.000572213320992887
0.9663712978363037,-0.21229113638401031,-0.4659723937511444,0.10814831405878067,0.04482337832450867,0.005912871100008488,0.000572213320992887
0.9864592552185059,-0.21763180196285248,-0.47703516483306885,0.11234454810619354,0.04558632895350456,0.007438773289322853,0.0009536888683214784
1.0065765380859375,-0.22373540699481964,-0.49114975333213806,0.11425192654132843,0.04634927958250046,0.0078202486038208,0.000572213320992887
1.0266499519348145,-0.2290760725736618,-0.5018310546875,0.11692225188016891,0.048256658017635345,0.00667582219466567,0.000572213320992887
1.0468037128448486,-0.2313649207353592,-0.506790280342102,0.1188296303153038,0.04940108209848404,0.007438773289322853,0.000572213320992887
1.0671203136444092,-0.23327229917049408,-0.5113679766654968,0.1203555315732956,0.05054550990462303,0.006294346414506435,0.0009536888683214784
1.0872211456298828,-0.23632410168647766,-0.5163271427154541,0.12226291000843048,0.05207141116261482,0.00667582219466567,0.0009536888683214784
1.1073062419891357,-0.23899443447589874,-0.5189974904060364,0.12340734153985977,0.05245288833975792,0.005912871100008488,0.0009536888683214784
1.1274616718292236,-0.24090181291103363,-0.5201418995857239,0.12455176562070847,0.053215838968753815,0.0078202486038208,0.0009536888683214784
1.1475541591644287,-0.24166475236415863,-0.5205233693122864,0.12645913660526276,0.05436026677489281,0.008201723918318748,0.0009536888683214784
1.1676609516143799,-0.24166475236415863,-0.5205233693122864,0.12722209095954895,0.056267641484737396,0.009727626107633114,0.0009536888683214784
1.1877245903015137,-0.24319066107273102,-0.5205233693122864,0.12874799966812134,0.05703059583902359,0.010490577667951584,0.0009536888683214784
1.2078156471252441,-0.2450980395078659,-0.5205233693122864,0.13103684782981873,0.057793546468019485,0.010872052982449532,0.0009536888683214784
1.2278859615325928,-0.2473868876695633,-0.5205233693122864,0.1325627565383911,0.059319447726011276,0.010872052982449532,0.0009536888683214784
1.2480227947235107,-0.248531311750412,-0.5205233693122864,0.1348516047000885,0.06084534898400307,0.010872052982449532,0.0009536888683214784
1.2681703567504883,-0.24891279637813568,-0.5209048390388489,0.1359960287809372,0.06198977679014206,0.010872052982449532,0.0009536888683214784
1.2881927490234375,-0.2500572204589844,-0.5205233693122864,0.13752193748950958,0.06389715522527695,0.010872052982449532,0.0009536888683214784
1.3083276748657227,-0.2508201599121094,-0.5205233693122864,0.13942931592464447,0.06427863240242004,0.011635004542768002,0.0009536888683214784
1.328488826751709,-0.25272753834724426,-0.5209048390388489,0.14057374000549316,0.06427863240242004,0.01201647985726595,0.0009536888683214784
1.3487889766693115,-0.25387197732925415,-0.5209048390388489,0.14171816408634186,0.06618601083755493,0.013542382046580315,0.0009536888683214784
1.3689360618591309,-0.25501641631126404,-0.5209048390388489,0.14438849687576294,0.06809338182210922,0.01430533267557621,0.0009536888683214784
1.3889915943145752,-0.25539788603782654,-0.5209048390388489,0.14629587531089783,0.06923781335353851,0.01430533267557621,0.0009536888683214784
1.4091053009033203,-0.25616082549095154,-0.5228122472763062,0.14858472347259521,0.0711451917886734,0.01430533267557621,0.0013351644156500697
1.4291722774505615,-0.2573052644729614,-0.5235751867294312,0.1504921019077301,0.0715266615152359,0.014686808921396732,0.0013351644156500697
1.4492409229278564,-0.2580682039260864,-0.5239566564559937,0.1520180106163025,0.071908138692379,0.01583123579621315,0.0013351644156500697
1.46938157081604,-0.2595941126346588,-0.5251010656356812,0.15392538905143738,0.07305257022380829,0.016594186425209045,0.0013351644156500697
1.4894530773162842,-0.2611200213432312,-0.5258640646934509,0.15506981313228607,0.07495994865894318,0.01888304017484188,0.0013351644156500697
1.5095243453979492,-0.2622644305229187,-0.5262455344200134,0.15621423721313477,0.07610437273979187,0.01926451548933983,0.0013351644156500697
1.5296502113342285,-0.2634088695049286,-0.5266270041465759,0.15926603972911835,0.07724879682064056,0.01926451548933983,0.0013351644156500697
1.5496792793273926,-0.2641718089580536,-0.5270084738731384,0.16193637251853943,0.07877469807863235,0.01926451548933983,0.001716639962978661
1.5698235034942627,-0.266460657119751,-0.5270084738731384,0.16422522068023682,0.07915617525577545,0.018501564860343933,0.0020981156267225742
1.5899097919464111,-0.26722362637519836,-0.5270084738731384,0.1665140837430954,0.08030059933662415,0.02040894143283367,0.0020981156267225742
1.6100239753723145,-0.26989394426345825,-0.5281528830528259,0.17071031033992767,0.08258945494890213,0.02384222112596035,0.0020981156267225742
1.6301145553588867,-0.27141985297203064,-0.5292973518371582,0.17261768877506256,0.08449683338403702,0.024223696440458298,0.0024795911740511656
1.6503095626831055,-0.2725642919540405,-0.5292973518371582,0.17528800666332245,0.0864042118191719,0.024605173617601395,0.0024795911740511656
1.6705107688903809,-0.2744716703891754,-0.5296788215637207,0.17757686972618103,0.0871671661734581,0.024605173617601395,0.0024795911740511656
1.690596342086792,-0.2756160795688629,-0.5304417610168457,0.1802472025156021,0.08983749151229858,0.025749599561095238,0.0024795911740511656
1.7106502056121826,-0.2767605185508728,-0.5312047004699707,0.1817730963230133,0.09098191559314728,0.02727550081908703,0.0024795911740511656
1.7307450771331787,-0.2767605185508728,-0.5319676399230957,0.1836804747581482,0.09288929402828217,0.026512550190091133,0.002861066721379757
1.7508213520050049,-0.2771419882774353,-0.5323491096496582,0.18558785319328308,0.09403372555971146,0.02689402550458908,0.002861066721379757
1.770984172821045,-0.2786678969860077,-0.5323491096496582,0.18749523162841797,0.09555962681770325,0.02727550081908703,0.002861066721379757
1.7910842895507812,-0.2794308364391327,-0.5327305793762207,0.18978407979011536,0.09784847497940063,0.028038453310728073,0.002861066721379757
1.8119847774505615,-0.2809567451477051,-0.5334935784339905,0.19283588230609894,0.09975585341453552,0.03032730519771576,0.0024795911740511656
1.8320872783660889,-0.28286412358283997,-0.534637987613678,0.1966506391763687,0.10128175467252731,0.030708782374858856,0.002861066721379757
1.852154016494751,-0.28477150201797485,-0.5350194573402405,0.1989395022392273,0.1028076633810997,0.030708782374858856,0.0024795911740511656
1.8722362518310547,-0.28591591119766235,-0.535400927066803,0.20237277448177338,0.10471503436565399,0.030708782374858856,0.002861066721379757
1.8923184871673584,-0.28706035017967224,-0.535400927066803,0.20466163754463196,0.10585946589708328,0.03147173300385475,0.002861066721379757
1.9124548435211182,-0.28896772861480713,-0.535400927066803,0.20656901597976685,0.10776684433221817,0.03337911143898964,0.002861066721379757
1.9325459003448486,-0.290875107049942,-0.5365453362464905,0.20962081849575043,0.10891126841306686,0.03452353551983833,0.002861066721379757
1.9527454376220703,-0.290875107049942,-0.5376898050308228,0.21229113638401031,0.10929274559020996,0.03528648987412453,0.002861066721379757
1.9727683067321777,-0.2912565767765045,-0.5388342142105103,0.2153429538011551,0.11158160120248795,0.03528648987412453,0.002861066721379757
1.9928479194641113,-0.2912565767765045,-0.5395971536636353,0.21801327168941498,0.11272602528333664,0.035667963325977325,0.002861066721379757
2.0130553245544434,-0.291638046503067,-0.5395971536636353,0.21953918039798737,0.11348897218704224,0.03643091395497322,0.0024795911740511656
2.0331461429595947,-0.2924010157585144,-0.5399786233901978,0.22182802855968475,0.11501488089561462,0.03795681521296501,0.002861066721379757
2.053230047225952,-0.2931639552116394,-0.5399786233901978,0.22373540699481964,0.11615930497646332,0.040245670825242996,0.002861066721379757
2.073507308959961,-0.2943083941936493,-0.5407415628433228,0.22640573978424072,0.11692225188016891,0.042153049260377884,0.002861066721379757
2.093672752380371,-0.2958342730998993,-0.541886031627655,0.2302204966545105,0.1188296303153038,0.04291599988937378,0.002861066721379757
2.1136624813079834,-0.2965972423553467,-0.54264897108078,0.23250934481620789,0.12073700875043869,0.045204851776361465,0.002861066721379757
2.13374924659729,-0.29812315106391907,-0.543411910533905,0.23517967760562897,0.12188144028186798,0.045204851776361465,0.002861066721379757
2.1538188457489014,-0.29888609051704407,-0.5437933802604675,0.23708705604076385,0.12378881871700287,0.04558632895350456,0.002861066721379757
2.1739673614501953,-0.29888609051704407,-0.5449378490447998,0.24052032828330994,0.12455176562070847,0.046730753034353256,0.002861066721379757
2.1945154666900635,-0.29964902997016907,-0.5457007884979248,0.24319066107273102,0.12645913660526276,0.04787518084049225,0.0024795911740511656
2.2146189212799072,-0.30079346895217896,-0.5472266674041748,0.2470054179430008,0.12836651504039764,0.05092698708176613,0.002861066721379757
2.234670639038086,-0.30155640840530396,-0.5479896068572998,0.24967575073242188,0.12951095402240753,0.05359731614589691,0.0024795911740511656
2.2547550201416016,-0.30308231711387634,-0.5483710765838623,0.25234606862068176,0.13141833245754242,0.054741740226745605,0.0024795911740511656
2.2748382091522217,-0.30422675609588623,-0.5491340756416321,0.25539788603782654,0.1325627565383911,0.056267641484737396,0.0024795911740511656
2.2955143451690674,-0.30537116527557373,-0.5498970150947571,0.2584496736526489,0.1359960287809372,0.05664911866188049,0.0024795911740511656
2.3156254291534424,-0.3061341345310211,-0.5510414242744446,0.2622644305229187,0.13942931592464447,0.056267641484737396,0.0024795911740511656
2.335685968399048,-0.3065156042575836,-0.5518043637275696,0.264934778213501,0.14171816408634186,0.0558861680328846,0.0020981156267225742
2.3557732105255127,-0.3072785437107086,-0.5529488325119019,0.26836803555488586,0.14476996660232544,0.05664911866188049,0.0024795911740511656
2.3758413791656494,-0.308041512966156,-0.5544747114181519,0.27141985297203064,0.14667734503746033,0.05970092490315437,0.0024795911740511656
2.395944356918335,-0.308804452419281,-0.5548561811447144,0.2740901708602905,0.1489662081003189,0.06198977679014206,0.0020981156267225742
2.416025161743164,-0.3099488914012909,-0.5563820600509644,0.2779049277305603,0.1508735716342926,0.06427863240242004,0.0020981156267225742
2.4360947608947754,-0.3110933005809784,-0.5575265288352966,0.2809567451477051,0.15316243469715118,0.06466010212898254,0.0013351644156500697
2.456202983856201,-0.3126192092895508,-0.5594338774681091,0.28477150201797485,0.15506981313228607,0.06618601083755493,0.0013351644156500697
2.4762752056121826,-0.3133821487426758,-0.5598153471946716,0.28706035017967224,0.15697719156742096,0.06771191209554672,0.0009536888683214784
2.4963459968566895,-0.31414511799812317,-0.5605783462524414,0.290112167596817,0.15888457000255585,0.06923781335353851,0.0009536888683214784
2.516418933868408,-0.31528952717781067,-0.5617227554321289,0.2935454249382019,0.16079194843769073,0.0715266615152359,0.0009536888683214784
2.5368471145629883,-0.31681543588638306,-0.5632486343383789,0.2962157726287842,0.16231784224510193,0.0722896158695221,0.000572213320992887
2.5569517612457275,-0.31834134459495544,-0.5655375123023987,0.29964902997016907,0.1646067053079605,0.07648584991693497,0.00019073777366429567
2.577019691467285,-0.31910428404808044,-0.5670633912086487,0.30270084738731384,0.1661325991153717,0.07839322835206985,0.00019073777366429567
2.5971052646636963,-0.32024872303009033,-0.570496678352356,0.3076600432395935,0.1684214472770691,0.07915617525577545,0.00019073777366429567
2.617215633392334,-0.3217746317386627,-0.5727855563163757,0.3118562698364258,0.16994735598564148,0.07991912961006165,-0.00019073777366429567
2.6373648643493652,-0.3233005404472351,-0.5746929049491882,0.31605249643325806,0.17299915850162506,0.07991912961006165,-0.00019073777366429567
2.657458543777466,-0.3240634799003601,-0.576218843460083,0.31986725330352783,0.17605096101760864,0.08106355369091034,-0.00019073777366429567
2.67751145362854,-0.3248264193534851,-0.577744722366333,0.3229190409183502,0.17910276353359222,0.08297093212604523,-0.000572213320992887
2.6976048946380615,-0.3255893886089325,-0.580033540725708,0.3274967670440674,0.1813916265964508,0.08487831056118011,-0.000572213320992887
2.7176480293273926,-0.3271152675151825,-0.5827038884162903,0.33093002438545227,0.1836804747581482,0.0871671661734581,-0.0009536888683214784
2.737738609313965,-0.3278782367706299,-0.5853742361068726,0.33474478125572205,0.18558785319328308,0.08983749151229858,-0.0009536888683214784
2.7578554153442383,-0.3282597064971924,-0.5869001150131226,0.3385595381259918,0.18787670135498047,0.09212634712457657,-0.0013351644156500697
2.777876615524292,-0.3282597064971924,-0.5891889929771423,0.3419928252696991,0.19054703414440155,0.09441519528627396,-0.001716639962978661
2.7979869842529297,-0.3286411762237549,-0.5918593406677246,0.34618905186653137,0.19245441257953644,0.09708552807569504,-0.001716639962978661
2.8180534839630127,-0.32940414547920227,-0.5949110984802246,0.35114824771881104,0.19512474536895752,0.09899290651082993,-0.0032425422687083483
2.838146686553955,-0.33016708493232727,-0.5971999764442444,0.3538185656070709,0.1985580176115036,0.1024261862039566,-0.004005493130534887
2.858264207839966,-0.33054855465888977,-0.6002517938613892,0.3580147922039032,0.20199130475521088,0.10547798871994019,-0.004386968910694122
2.878302812576294,-0.33207446336746216,-0.6036850810050964,0.36335545778274536,0.20466163754463196,0.10738536715507507,-0.004386968910694122
2.898353099822998,-0.33398184180259705,-0.6071183085441589,0.36755168437957764,0.20771344006061554,0.10891126841306686,-0.00476844422519207
2.918470621109009,-0.33512628078460693,-0.6113145351409912,0.3736552894115448,0.21152819693088531,0.11158160120248795,-0.00476844422519207
2.938532590866089,-0.33512628078460693,-0.613603413105011,0.3774700462818146,0.2141985148191452,0.11348897218704224,-0.00476844422519207
2.958655834197998,-0.33627068996429443,-0.6170367002487183,0.38319218158721924,0.21839475631713867,0.11577782779932022,-0.00476844422519207
2.978743314743042,-0.3370336592197418,-0.6212329268455505,0.3896772861480713,0.22182802855968475,0.1188296303153038,-0.005149920005351305
2.998788833618164,-0.3389410376548767,-0.6239032745361328,0.39425498247146606,0.22487983107566833,0.12302586436271667,-0.005912871100008488
3.018883228302002,-0.3397039771080017,-0.6265735626220703,0.4003585875034332,0.2286945879459381,0.12722209095954895,-0.006294346414506435
3.039025068283081,-0.3404669165611267,-0.6288624405860901,0.4053177833557129,0.2313649207353592,0.13103684782981873,-0.007057297509163618
3.059476613998413,-0.3404669165611267,-0.6307697892189026,0.4087510406970978,0.23479819297790527,0.1329442262649536,-0.007438773289322853
3.0796167850494385,-0.3404669165611267,-0.6338216066360474,0.41409170627593994,0.23861294984817505,0.1356145590543747,-0.007438773289322853
3.0996594429016113,-0.3412298858165741,-0.6372548937797546,0.4171435236930847,0.24280919134616852,0.13904783129692078,-0.008201723918318748
3.119781970977783,-0.3419928252696991,-0.6422140598297119,0.4217212200164795,0.2466239482164383,0.14209964871406555,-0.0078202486038208
3.1399037837982178,-0.3423742949962616,-0.6467918157577515,0.42515450716018677,0.2508201599121094,0.14553292095661163,-0.00858320016413927
3.1604511737823486,-0.3423742949962616,-0.6517509818077087,0.42744335532188416,0.25654229521751404,0.14858472347259521,-0.00858320016413927
3.180535078048706,-0.3423742949962616,-0.6578545570373535,0.43163958191871643,0.2615014910697937,0.1520180106163025,-0.00858320016413927
3.20062255859375,-0.3423742949962616,-0.6635767221450806,0.4346913993358612,0.26722362637519836,0.15506981313228607,-0.009346150793135166
3.2207906246185303,-0.3423742949962616,-0.6704432964324951,0.4381246566772461,0.27180132269859314,0.15812161564826965,-0.009727626107633114
3.2408499717712402,-0.3427557647228241,-0.6769283413887024,0.44155794382095337,0.2759975492954254,0.16079194843769073,-0.01125352829694748
3.260897397994995,-0.343137264251709,-0.6826505064964294,0.44384679198265076,0.2805752754211426,0.1646067053079605,-0.01201647985726595
3.280991792678833,-0.3435187339782715,-0.6891355514526367,0.44728007912635803,0.28439003229141235,0.1676585078239441,-0.012397955171763897
3.301133155822754,-0.3435187339782715,-0.693331778049469,0.4495689272880554,0.28820478916168213,0.16956588625907898,-0.012779430486261845
3.321235179901123,-0.3442816734313965,-0.697528064250946,0.4526207447052002,0.2920195460319519,0.17223620414733887,-0.013542382046580315
3.341329574584961,-0.344663143157959,-0.7009612917900085,0.4556725323200226,0.2954528033733368,0.17528800666332245,-0.014686808921396732
3.3614468574523926,-0.34504464268684387,-0.7036316394805908,0.45796138048171997,0.2977416515350342,0.17795833945274353,-0.01506828423589468
3.3815054893493652,-0.34542611241340637,-0.7063019871711731,0.46177613735198975,0.30231937766075134,0.1832990050315857,-0.015449759550392628
3.4016788005828857,-0.34580758213996887,-0.7078278660774231,0.4640650153160095,0.30498969554901123,0.18635080754756927,-0.01583123579621315
3.4216902256011963,-0.34580758213996887,-0.7078278660774231,0.4663538634777069,0.3076600432395935,0.19016556441783905,-0.016594186425209045
3.44185471534729,-0.34580758213996887,-0.7089722752571106,0.4694056510925293,0.3118562698364258,0.19321736693382263,-0.01735713705420494
3.4619157314300537,-0.34657052159309387,-0.7097352743148804,0.4713130295276642,0.31490805745124817,0.1974135935306549,-0.01888304017484188
3.4819984436035156,-0.34657052159309387,-0.7101167440414429,0.47436484694480896,0.31872281432151794,0.20199130475521088,-0.020027466118335724
3.502061367034912,-0.34695202112197876,-0.7112611532211304,0.47665369510650635,0.3221561014652252,0.20466163754463196,-0.021171892061829567
3.522157669067383,-0.34733349084854126,-0.7131685614585876,0.4804684519767761,0.32673379778862,0.20962081849575043,-0.023079270496964455
3.542276620864868,-0.34733349084854126,-0.7154573798179626,0.4846646785736084,0.33131152391433716,0.2134355753660202,-0.02384222112596035
3.56235408782959,-0.34733349084854126,-0.7173647880554199,0.4877164959907532,0.33627068996429443,0.21953918039798737,-0.024986648932099342
3.5824191570281982,-0.34733349084854126,-0.7196536064147949,0.49229419231414795,0.3400854468345642,0.22297245264053345,-0.026512550190091133
3.602553606033325,-0.34733349084854126,-0.7204165458679199,0.49458304047584534,0.3442816734313965,0.2283131182193756,-0.028038453310728073
3.6226980686187744,-0.34733349084854126,-0.7227054238319397,0.4987792670726776,0.34924086928367615,0.23327229917049408,-0.02880140393972397
3.6427972316741943,-0.34733349084854126,-0.7242313027381897,0.5014495849609375,0.3538185656070709,0.24052032828330994,-0.031090257689356804
3.662832260131836,-0.34733349084854126,-0.7265201807022095,0.5045014023780823,0.3591592311859131,0.2462424635887146,-0.03147173300385475
3.682993173599243,-0.34733349084854126,-0.7295719981193542,0.5086976289749146,0.36488136649131775,0.25272753834724426,-0.034142062067985535
3.7029733657836914,-0.34733349084854126,-0.7322422862052917,0.5121309161186218,0.3706035017967224,0.2603570520877838,-0.03490501269698143
3.7230749130249023,-0.34733349084854126,-0.7368200421333313,0.5170900821685791,0.3774700462818146,0.26684215664863586,-0.035667963325977325
3.7431507110595703,-0.34733349084854126,-0.7410162687301636,0.5212863087654114,0.38319218158721924,0.2725642919540405,-0.037193864583969116
3.763352870941162,-0.34733349084854126,-0.7448310256004333,0.5247195959091187,0.3900587558746338,0.2775234580039978,-0.038719769567251205
3.783461332321167,-0.34733349084854126,-0.7509346008300781,0.5304417610168457,0.39768826961517334,0.28400853276252747,-0.0394827201962471
3.803544044494629,-0.34733349084854126,-0.7547493577003479,0.534637987613678,0.4037918746471405,0.2904936373233795,-0.04139009863138199
3.823608875274658,-0.34733349084854126,-0.7589455842971802,0.5376898050308228,0.41142138838768005,0.2973601818084717,-0.04291599988937378
3.8437561988830566,-0.34733349084854126,-0.7639048099517822,0.54264897108078,0.4182879328727722,0.30537116527557373,-0.04406042397022247
3.8637914657592773,-0.34733349084854126,-0.7665750980377197,0.5457007884979248,0.4240100681781769,0.3130006790161133,-0.04711223021149635
3.88386607170105,-0.34733349084854126,-0.769245445728302,0.5491340756416321,0.43049514293670654,0.32063019275665283,-0.050164032727479935
3.9039440155029297,-0.34733349084854126,-0.7719157934188843,0.5529488325119019,0.4388876259326935,0.3282597064971924,-0.053215838968753815
3.9239962100982666,-0.34695202112197876,-0.7742046117782593,0.5556191205978394,0.44613564014434814,0.3377965986728668,-0.0551232174038887
3.9441168308258057,-0.34618905186653137,-0.7761120200157166,0.5586709380149841,0.4549095928668976,0.344663143157959,-0.058175019919872284
3.964198112487793,-0.34504464268684387,-0.778782308101654,0.5621042251586914,0.46253910660743713,0.35038527846336365,-0.05970092490315437
3.9845104217529297,-0.343900203704834,-0.7806897163391113,0.5647745728492737,0.4697871506214142,0.3572518527507782,-0.061226826161146164
4.004596948623657,-0.3419928252696991,-0.7829785346984863,0.5670633912086487,0.47589075565338135,0.36411839723587036,-0.06275273114442825
4.024671792984009,-0.3412298858165741,-0.7848859429359436,0.568970799446106,0.4800869822502136,0.3702220320701599,-0.06542305648326874
4.044740200042725,-0.3400854468345642,-0.7871748208999634,0.5708781480789185,0.4846646785736084,0.3755626678466797,-0.06771191209554672
4.0648980140686035,-0.3389410376548767,-0.7902265787124634,0.5739299654960632,0.4884794354438782,0.38090333342552185,-0.06847485899925232
4.084969997406006,-0.3370336592197418,-0.7925154566764832,0.576218843460083,0.49305713176727295,0.3854810297489166,-0.07038223743438721
4.105102062225342,-0.33588922023773193,-0.7951858043670654,0.578507661819458,0.4987792670726776,0.3896772861480713,-0.07267109304666519
4.125156402587891,-0.33474478125572205,-0.7978560924530029,0.5811780095100403,0.5033569931983948,0.39463645219802856,-0.07534141838550568
4.145254611968994,-0.33474478125572205,-0.8005264401435852,0.5830853581428528,0.5064088106155396,0.39730677008628845,-0.07610437273979187
4.165337562561035,-0.33474478125572205,-0.80357825756073,0.5849927663803101,0.5094605684280396,0.4015030264854431,-0.07839322835206985
4.1854166984558105,-0.33474478125572205,-0.8062485456466675,0.5869001150131226,0.5132753252983093,0.404936283826828,-0.07991912961006165
4.205523729324341,-0.33474478125572205,-0.8089188933372498,0.5895704627037048,0.5155642032623291,0.4072251319885254,-0.08068207651376724
4.22564959526062,-0.33398184180259705,-0.8119707107543945,0.5922408103942871,0.5197604298591614,0.41065841913223267,-0.08297093212604523
4.245989084243774,-0.33398184180259705,-0.8154039978981018,0.5952925682067871,0.5235751867294312,0.41371023654937744,-0.08373387902975082
4.266106367111206,-0.33360037207603455,-0.8180742859840393,0.5983443856239319,0.5258640646934509,0.41676202416419983,-0.08564125746488571
4.286155462265015,-0.33245593309402466,-0.8211261034011841,0.6002517938613892,0.5289158225059509,0.4201953113079071,-0.0871671661734581
4.306267499923706,-0.33169299364089966,-0.8237964510917664,0.6021591424942017,0.5304417610168457,0.422102689743042,-0.0879301130771637
4.326321363449097,-0.32978561520576477,-0.8268482685089111,0.6048294901847839,0.5312047004699707,0.4240100681781769,-0.08983749151229858
4.346367597579956,-0.32940414547920227,-0.8302815556526184,0.6067368388175964,0.5327305793762207,0.42668038606643677,-0.09098191559314728
4.366460084915161,-0.32978561520576477,-0.8337147831916809,0.6090257167816162,0.5342565178871155,0.42973220348358154,-0.09365224838256836
4.38651967048645,-0.32940414547920227,-0.8375295400619507,0.6116960644721985,0.536163866519928,0.4331654906272888,-0.09479667246341705
4.406615257263184,-0.32940414547920227,-0.839436948299408,0.6132219433784485,0.5388342142105103,0.4335469603538513,-0.09555962681770325
4.426707744598389,-0.32940414547920227,-0.8421072959899902,0.6147478222846985,0.5403600931167603,0.4339284300804138,-0.09746700525283813
4.446758270263672,-0.32940414547920227,-0.8455405235290527,0.6174181699752808,0.5430304408073425,0.4358358085155487,-0.09937438368797302
4.466856479644775,-0.3282597064971924,-0.84897381067276,0.619325578212738,0.5460822582244873,0.4377431869506836,-0.10128175467252731
4.486926794052124,-0.3274967670440674,-0.8508812189102173,0.620851457118988,0.5460822582244873,0.4373617172241211,-0.1024261862039566
4.507046699523926,-0.3274967670440674,-0.8535515666007996,0.6231403350830078,0.5464637279510498,0.4388876259326935,-0.10433356463909149
4.527235746383667,-0.32673379778862,-0.8569847941398621,0.6261920928955078,0.5483710765838623,0.44117647409439087,-0.10585946589708328
4.547339200973511,-0.3263523280620575,-0.8596551418304443,0.6303883194923401,0.5483710765838623,0.44308385252952576,-0.10776684433221817
4.567448616027832,-0.3263523280620575,-0.8627069592475891,0.6330586671829224,0.5506599545478821,0.44651713967323303,-0.11043716967105865
4.587527513504028,-0.3263523280620575,-0.8653773069381714,0.6361104846000671,0.5533303022384644,0.44804301857948303,-0.11196307092905045
4.607617616653442,-0.3263523280620575,-0.8661402463912964,0.6368734240531921,0.5552376508712769,0.4495689272880554,-0.11310750246047974
4.627774000167847,-0.3263523280620575,-0.8676661252975464,0.6376363635063171,0.5567635893821716,0.4491874575614929,-0.11348897218704224
4.647793531417847,-0.3255893886089325,-0.8699550032615662,0.6387808322906494,0.5571450591087341,0.4499503970146179,-0.11577782779932022
4.668195486068726,-0.3255893886089325,-0.8718623518943787,0.6406881809234619,0.5571450591087341,0.4503318965435028,-0.11692225188016891
4.68831205368042,-0.3255893886089325,-0.8733882904052734,0.6418325901031494,0.5575265288352966,0.4522392749786377,-0.11768520623445511
4.708377361297607,-0.32520791888237,-0.8752956390380859,0.6433585286140442,0.5575265288352966,0.4533836841583252,-0.1184481605887413
4.7285990715026855,-0.32520791888237,-0.8779659867286682,0.6452658772468567,0.5586709380149841,0.4556725323200226,-0.11959258466959
4.748610734939575,-0.3244449496269226,-0.8806362748146057,0.6483176946640015,0.5605783462524414,0.45643550157546997,-0.1203555315732956
4.769106864929199,-0.3244449496269226,-0.8844510316848755,0.6506065726280212,0.5609598159790039,0.4560540020465851,-0.12073700875043869
4.789230585098267,-0.3244449496269226,-0.8871213793754578,0.6525139212608337,0.5621042251586914,0.45643550157546997,-0.12111848592758179
4.809308767318726,-0.3244449496269226,-0.8886472582817078,0.6536583304405212,0.5628671646118164,0.4560540020465851,-0.12226291000843048
4.829575061798096,-0.3244449496269226,-0.8909361362457275,0.6548027992248535,0.5632486343383789,0.45643550157546997,-0.12455176562070847
4.84958815574646,-0.3244449496269226,-0.8936064839363098,0.657473087310791,0.5655375123023987,0.45834288001060486,-0.12684062123298645
4.869972467422485,-0.3240634799003601,-0.8958953022956848,0.6597619652748108,0.5659189820289612,0.46063172817230225,-0.12874799966812134
4.890045166015625,-0.3236820101737976,-0.8970397710800171,0.6605249047279358,0.5682078003883362,0.46139466762542725,-0.12951095402240753
4.9101080894470215,-0.3229190409183502,-0.8993285894393921,0.6616693139076233,0.5693522691726685,0.46292057633399963,-0.13141833245754242
4.930219888687134,-0.3221561014652252,-0.9027618765830994,0.6639581918716431,0.5701152086257935,0.46330204606056213,-0.1325627565383911
4.950290203094482,-0.3213931620121002,-0.9069581031799316,0.6670100092887878,0.5716410875320435,0.465209424495697,-0.134470134973526
4.970423221588135,-0.31986725330352783,-0.9092469811439514,0.6689173579216003,0.5731670260429382,0.465209424495697,-0.1356145590543747
4.990550518035889,-0.31986725330352783,-0.9119172692298889,0.6712062358856201,0.5724040865898132,0.465209424495697,-0.1367589831352234
5.010637044906616,-0.32024872303009033,-0.9130617380142212,0.6734950542449951,0.5750743746757507,0.4671168029308319,-0.13904783129692078
5.030798673629761,-0.32024872303009033,-0.9145876169204712,0.6757839322090149,0.5754558444023132,0.4678797721862793,-0.13942931592464447
5.050890922546387,-0.32024872303009033,-0.916113555431366,0.6780728101730347,0.5766003131866455,0.4690241813659668,-0.13981078565120697
5.071064710617065,-0.32024872303009033,-0.9187838435173035,0.6811245679855347,0.5781261920928955,0.4705500900745392,-0.14057374000549316
5.091057062149048,-0.32024872303009033,-0.9203097820281982,0.6822690367698669,0.580033540725708,0.4713130295276642,-0.14171816408634186
5.111148118972778,-0.32024872303009033,-0.9229800701141357,0.6841763854026794,0.5796520709991455,0.4713130295276642,-0.14324407279491425
5.131216049194336,-0.32024872303009033,-0.9252689480781555,0.6864652633666992,0.5807965397834778,0.4720759987831116,-0.14362554252147675
5.151298761367798,-0.32024872303009033,-0.9260318875312805,0.6868467330932617,0.5807965397834778,0.4724574685096741,-0.14476996660232544
5.17141580581665,-0.32024872303009033,-0.9275577664375305,0.6883726119995117,0.5804150700569153,0.4724574685096741,-0.14553292095661163
5.191462278366089,-0.32024872303009033,-0.9287022352218628,0.6898985505104065,0.5827038884162903,0.4732204079627991,-0.14667734503746033
5.211568117141724,-0.32024872303009033,-0.9309910535812378,0.691805899143219,0.5830853581428528,0.47436484694480896,-0.14667734503746033
5.231699228286743,-0.32024872303009033,-0.9321355223655701,0.6937133073806763,0.5842298269271851,0.47512778639793396,-0.14667734503746033
5.251751661300659,-0.32024872303009033,-0.9336614012718201,0.6948577165603638,0.5842298269271851,0.47512778639793396,-0.14705882966518402
5.271814584732056,-0.32024872303009033,-0.9370946884155273,0.6979095339775085,0.5842298269271851,0.47550925612449646,-0.14744029939174652
5.29188084602356,-0.32024872303009033,-0.9405279755592346,0.7001983523368835,0.5857557058334351,0.47627222537994385,-0.1489662081003189
5.311953544616699,-0.32024872303009033,-0.9416723847389221,0.7021057605743408,0.5861371755599976,0.47665369510650635,-0.1504921019077301
5.332861423492432,-0.32024872303009033,-0.9435797929763794,0.7032501697540283,0.5865186452865601,0.47627222537994385,-0.1516365259885788
5.353055000305176,-0.32024872303009033,-0.9462500810623169,0.7051575779914856,0.5872815847396851,0.47817960381507874,-0.15354390442371368
5.373101472854614,-0.32024872303009033,-0.9489204287528992,0.7078278660774231,0.5880445837974548,0.47894254326820374,-0.15430685877799988
5.393283367156982,-0.32024872303009033,-0.9508277773857117,0.7093538045883179,0.5880445837974548,0.4808499217033386,-0.15545128285884857
5.413315773010254,-0.32024872303009033,-0.9523537158966064,0.7101167440414429,0.5895704627037048,0.4812313914299011,-0.15659570693969727
5.433475971221924,-0.32024872303009033,-0.9531166553497314,0.7108796834945679,0.5895704627037048,0.481612890958786,-0.15850308537483215
5.453552484512329,-0.32024872303009033,-0.955024003982544,0.7124055624008179,0.5895704627037048,0.4819943606853485,-0.15964750945568085
5.473720550537109,-0.32024872303009033,-0.9565499424934387,0.7150759100914001,0.5903334021568298,0.4827573001384735,-0.16193637251853943
5.493733882904053,-0.32024872303009033,-0.9573128819465637,0.7166017889976501,0.5910963416099548,0.4835202693939209,-0.16231784224510193
5.513989686965942,-0.32024872303009033,-0.959220290184021,0.7185091972351074,0.5922408103942871,0.4839017391204834,-0.16346226632595062
5.534095764160156,-0.32024872303009033,-0.9618905782699585,0.7207980751991272,0.5945296287536621,0.4854276478290558,-0.1646067053079605
5.554208517074585,-0.32024872303009033,-0.9649423956871033,0.7227054238319397,0.5949110984802246,0.4873350262641907,-0.1653696447610855
5.574254512786865,-0.32024872303009033,-0.9676127433776855,0.7234683632850647,0.5956740379333496,0.4869535267353058,-0.1657511293888092
5.594354867935181,-0.32024872303009033,-0.969520092010498,0.724612832069397,0.5956740379333496,0.4880979657173157,-0.1661325991153717
5.614420413970947,-0.32024872303009033,-0.9718089699745178,0.726901650428772,0.5960555672645569,0.4877164959907532,-0.1665140837430954
5.634504079818726,-0.32024872303009033,-0.9737163186073303,0.7288090586662292,0.5964370369911194,0.4880979657173157,-0.1684214472770691
5.654587984085083,-0.32024872303009033,-0.9756237268447876,0.7318608164787292,0.5979629158973694,0.4892423748970032,-0.17032882571220398
5.674651384353638,-0.32024872303009033,-0.9779125452041626,0.7352941036224365,0.6006332635879517,0.49114975333213806,-0.17185473442077637
5.69474196434021,-0.32024872303009033,-0.9798199534416199,0.7375829815864563,0.6025406122207642,0.49191272258758545,-0.17261768877506256
5.714825868606567,-0.32024872303009033,-0.9817273020744324,0.7394903302192688,0.6029220819473267,0.49343863129615784,-0.17376211285591125
5.7349042892456055,-0.32024872303009033,-0.9832532405853271,0.7402533292770386,0.6048294901847839,0.49420157074928284,-0.17452506721019745
5.755020380020142,-0.32024872303009033,-0.9843976497650146,0.7402533292770386,0.6036850810050964,0.49420157074928284,-0.17605096101760864
5.775149822235107,-0.32024872303009033,-0.9863049983978271,0.7406347990036011,0.6040665507316589,0.49420157074928284,-0.17681391537189484
5.795334815979004,-0.32024872303009033,-0.9885938763618469,0.7425421476364136,0.6036850810050964,0.49420157074928284,-0.17795833945274353
5.815338850021362,-0.32024872303009033,-0.9905012845993042,0.7448310256004333,0.6033035516738892,0.49382010102272034,-0.17948424816131592
5.8355865478515625,-0.32024872303009033,-0.9920271635055542,0.7475013136863708,0.6040665507316589,0.49382010102272034,-0.1806286722421646
5.855684041976929,-0.32024872303009033,-0.9935530424118042,0.7505531311035156,0.6048294901847839,0.4953460097312927,-0.182154580950737
5.875761270523071,-0.32024872303009033,-0.994316041469574,0.7539864182472229,0.6063553690910339,0.4964904189109802,-0.1832990050315857
5.896148204803467,-0.32024872303009033,-0.9954604506492615,0.7547493577003479,0.6090257167816162,0.499542236328125,-0.1848248988389969
5.916251182556152,-0.32024872303009033,-0.9969863295555115,0.7562752962112427,0.6094071865081787,0.50030517578125,-0.1848248988389969
5.936319351196289,-0.32024872303009033,-0.9988937377929688,0.7570382356643677,0.6097886562347412,0.501068115234375,-0.18711376190185547
5.956391334533691,-0.32024872303009033,-1.0023269653320312,0.7581826448440552,0.6097886562347412,0.5014495849609375,-0.18825818598270416
5.976456642150879,-0.32024872303009033,-1.0049973726272583,0.7589455842971802,0.6094071865081787,0.5006866455078125,-0.18863965570926666
5.996528148651123,-0.32024872303009033,-1.0091935396194458,0.7612344622612,0.6097886562347412,0.50030517578125,-0.18940261006355286
6.016654968261719,-0.32024872303009033,-1.0111008882522583,0.763523280620575,0.6101701259613037,0.5006866455078125,-0.19092851877212524
6.0367350578308105,-0.32024872303009033,-1.0122454166412354,0.7654306888580322,0.6105515956878662,0.4987792670726776,-0.19092851877212524
6.056786298751831,-0.32024872303009033,-1.0122454166412354,0.7673380374908447,0.6105515956878662,0.499542236328125,-0.19130998849868774
6.076892614364624,-0.32024872303009033,-1.0130083560943604,0.7696269154548645,0.612840473651886,0.501068115234375,-0.19207294285297394
6.097026348114014,-0.31986725330352783,-1.0141527652740479,0.7719157934188843,0.613603413105011,0.5056458115577698,-0.19245441257953644
6.1172871589660645,-0.31948578357696533,-1.0152971744537354,0.7738231420516968,0.6147478222846985,0.507553219795227,-0.19359883666038513
6.137389898300171,-0.31948578357696533,-1.0164415836334229,0.7749675512313843,0.6155108213424683,0.508316159248352,-0.19474326074123383
6.157444715499878,-0.31948578357696533,-1.0194933414459229,0.776493489742279,0.6155108213424683,0.509079098701477,-0.19550621509552002
6.1775431632995605,-0.31948578357696533,-1.0233081579208374,0.778782308101654,0.6155108213424683,0.5094605684280396,-0.1962691694498062
6.197634935379028,-0.31948578357696533,-1.027885913848877,0.7818341255187988,0.6158922910690308,0.5094605684280396,-0.1981765478849411
6.217839002609253,-0.31948578357696533,-1.031700611114502,0.7845044732093811,0.6158922910690308,0.5079346895217896,-0.1985580176115036
6.237849473953247,-0.31948578357696533,-1.031700611114502,0.7856488823890686,0.6170367002487183,0.5071717500686646,-0.1989395022392273
6.257909774780273,-0.31948578357696533,-1.0313191413879395,0.7860303521156311,0.6166552305221558,0.5064088106155396,-0.1993209719657898
6.278088092803955,-0.31948578357696533,-1.0313191413879395,0.7875562906265259,0.6177996397018433,0.5086976289749146,-0.2004653960466385
6.298141717910767,-0.31910428404808044,-1.0313191413879395,0.7898451089859009,0.6185625791549683,0.5121309161186218,-0.20160982012748718
6.3182854652404785,-0.31910428404808044,-1.0313191413879395,0.7917525172233582,0.6185625791549683,0.5159456729888916,-0.20313572883605957
6.338274955749512,-0.31910428404808044,-1.031700611114502,0.7936598658561707,0.6189440488815308,0.5174715518951416,-0.20504310727119446
6.358332633972168,-0.31872281432151794,-1.0328450202941895,0.7944228053092957,0.6204699873924255,0.5182345509529114,-0.20618753135204315
6.378544092178345,-0.31795987486839294,-1.033989429473877,0.7955672740936279,0.6212329268455505,0.5178530812263489,-0.20656901597976685
6.398565292358398,-0.31795987486839294,-1.035896897315979,0.7967116832733154,0.621614396572113,0.5178530812263489,-0.20695048570632935
6.418713569641113,-0.31834134459495544,-1.0385671854019165,0.7986190319061279,0.621614396572113,0.5167086124420166,-0.20695048570632935
6.438746213912964,-0.31795987486839294,-1.0408560037612915,0.8009079098701477,0.6219958662986755,0.5167086124420166,-0.20771344006061554
6.458802700042725,-0.31834134459495544,-1.042763352394104,0.802815318107605,0.6231403350830078,0.5167086124420166,-0.20847637951374054
6.4788734912872314,-0.31834134459495544,-1.0435264110565186,0.8039597272872925,0.6239032745361328,0.5167086124420166,-0.21000228822231293
6.49901556968689,-0.31834134459495544,-1.0442893505096436,0.8047226667404175,0.6242847442626953,0.5167086124420166,-0.21000228822231293
6.519123077392578,-0.31834134459495544,-1.045433759689331,0.8062485456466675,0.6250476837158203,0.5170900821685791,-0.21038375794887543
6.539177894592285,-0.31834134459495544,-1.046959638595581,0.8085374236106873,0.6254291534423828,0.5182345509529114,-0.21152819693088531
6.559523105621338,-0.31834134459495544,-1.0496299266815186,0.8112077713012695,0.6254291534423828,0.5186160206794739,-0.21229113638401031
6.579737186431885,-0.31834134459495544,-1.050774335861206,0.8119707107543945,0.6265735626220703,0.5201418995857239,-0.2138170450925827
6.599797487258911,-0.31834134459495544,-1.0515373945236206,0.812352180480957,0.6265735626220703,0.5189974904060364,-0.2141985148191452
6.61987829208374,-0.31834134459495544,-1.052681803703308,0.8134965896606445,0.6269550919532776,0.5186160206794739,-0.2145799994468689
6.63997483253479,-0.31834134459495544,-1.0538262128829956,0.8154039978981018,0.6269550919532776,0.5186160206794739,-0.2149614691734314
6.660254240036011,-0.31834134459495544,-1.054970622062683,0.8169298768043518,0.6284809708595276,0.5197604298591614,-0.2161058932542801
6.680370092391968,-0.31834134459495544,-1.055733561515808,0.8180742859840393,0.6288624405860901,0.5209048390388489,-0.21686884760856628
6.700490236282349,-0.31834134459495544,-1.0561150312423706,0.8184558153152466,0.6292439103126526,0.5216678380966187,-0.21725031733512878
6.720645427703857,-0.31834134459495544,-1.057259440422058,0.8192187547683716,0.6288624405860901,0.5212863087654114,-0.21725031733512878
6.740800380706787,-0.31834134459495544,-1.0584038496017456,0.8199816942214966,0.6300068497657776,0.5224307775497437,-0.21801327168941498
6.760840177536011,-0.31834134459495544,-1.0595483779907227,0.8203631639480591,0.6296253800392151,0.5216678380966187,-0.21801327168941498
6.780934810638428,-0.31834134459495544,-1.0610742568969727,0.8215075731277466,0.6303883194923401,0.5220493078231812,-0.21877622604370117
6.801018476486206,-0.31834134459495544,-1.0629816055297852,0.8237964510917664,0.6307697892189026,0.5224307775497437,-0.21915769577026367
6.821706295013428,-0.31834134459495544,-1.0645074844360352,0.8264667987823486,0.6307697892189026,0.5224307775497437,-0.22068360447883606
6.8418128490448,-0.31834134459495544,-1.0656518936157227,0.8279926776885986,0.6311513185501099,0.5224307775497437,-0.22182802855968475
6.86186146736145,-0.31910428404808044,-1.0664149522781372,0.8299000263214111,0.6315327882766724,0.5235751867294312,-0.22220951318740845
6.881946802139282,-0.32024872303009033,-1.0671778917312622,0.8321889042854309,0.6315327882766724,0.5251010656356812,-0.22297245264053345
6.902068376541138,-0.32063019275665283,-1.0687037706375122,0.8352407217025757,0.6315327882766724,0.5262455344200134,-0.22411687672138214
6.922135829925537,-0.32063019275665283,-1.0694667100906372,0.8360036611557007,0.6330586671829224,0.5281528830528259,-0.22526131570339203
6.9423604011535645,-0.32063019275665283,-1.0706111192703247,0.8367666006088257,0.6342030763626099,0.5277714133262634,-0.22526131570339203
6.962539911270142,-0.32063019275665283,-1.0725184679031372,0.837911069393158,0.6342030763626099,0.5281528830528259,-0.22564278542995453
6.982734680175781,-0.32063019275665283,-1.0744259357452393,0.8390554785728455,0.6345845460891724,0.5277714133262634,-0.22564278542995453
7.002873420715332,-0.32024872303009033,-1.0759518146514893,0.8398184180259705,0.6342030763626099,0.5277714133262634,-0.22678720951080322
7.022893667221069,-0.32024872303009033,-1.0770962238311768,0.8413442969322205,0.6345845460891724,0.5277714133262634,-0.22793163359165192
7.04297137260437,-0.32024872303009033,-1.0778591632843018,0.8428702354431152,0.6345845460891724,0.5281528830528259,-0.2290760725736618
7.063020706176758,-0.32024872303009033,-1.0790035724639893,0.8447775840759277,0.6357290148735046,0.5300602912902832,-0.2298390120267868
7.083102226257324,-0.32024872303009033,-1.0797665119171143,0.8463035225868225,0.6372548937797546,0.5319676399230957,-0.230601966381073
7.10314154624939,-0.32063019275665283,-1.0816738605499268,0.84744793176651,0.6372548937797546,0.5327305793762207,-0.23250934481620789
7.123252868652344,-0.32063019275665283,-1.0835813283920288,0.8485923409461975,0.6372548937797546,0.5327305793762207,-0.23289081454277039
7.143323183059692,-0.32024872303009033,-1.0854886770248413,0.8493552803993225,0.6376363635063171,0.5331120491027832,-0.23327229917049408
7.163547039031982,-0.32063019275665283,-1.0873960256576538,0.8504997491836548,0.6372548937797546,0.5331120491027832,-0.23479819297790527
7.183658838272095,-0.32024872303009033,-1.0885404348373413,0.8516441583633423,0.6372548937797546,0.5323491096496582,-0.23479819297790527
7.203705549240112,-0.32063019275665283,-1.0893033742904663,0.8524070978164673,0.6372548937797546,0.5327305793762207,-0.23556114733219147
7.223796606063843,-0.32063019275665283,-1.0893033742904663,0.8524070978164673,0.6383993029594421,0.5331120491027832,-0.23594263195991516
7.243877649307251,-0.32101166248321533,-1.0896848440170288,0.8535515666007996,0.6391623020172119,0.5334935784339905,-0.23594263195991516
7.264397621154785,-0.3213931620121002,-1.0904479026794434,0.8558403849601746,0.6391623020172119,0.534637987613678,-0.23670557141304016
7.284524440765381,-0.3213931620121002,-1.0919737815856934,0.8577477931976318,0.6395437717437744,0.5350194573402405,-0.23670557141304016
7.304600477218628,-0.3213931620121002,-1.0934996604919434,0.8596551418304443,0.6395437717437744,0.535400927066803,-0.23785001039505005
7.324737787246704,-0.3217746317386627,-1.0942625999450684,0.8607995510101318,0.6403067111968994,0.535400927066803,-0.23899443447589874
7.344832420349121,-0.3217746317386627,-1.0954070091247559,0.8623254895210266,0.6403067111968994,0.535400927066803,-0.23975738883018494
7.364888429641724,-0.3225375711917877,-1.0969328880310059,0.8642328381538391,0.6403067111968994,0.5357823967933655,-0.24052032828330994
7.384975910186768,-0.3225375711917877,-1.0984588861465454,0.8661402463912964,0.6406881809234619,0.5357823967933655,-0.24090181291103363
7.405046463012695,-0.3225375711917877,-1.099603295326233,0.8669031858444214,0.6410696506500244,0.536163866519928,-0.24128328263759613
7.425385475158691,-0.3225375711917877,-1.100366234779358,0.8672846555709839,0.6418325901031494,0.5365453362464905,-0.24166475236415863
7.445566892623901,-0.3225375711917877,-1.1007477045059204,0.8680475950241089,0.6422140598297119,0.5365453362464905,-0.24242770671844482
7.465527772903442,-0.3225375711917877,-1.1022735834121704,0.8691920638084412,0.6433585286140442,0.5376898050308228,-0.24319066107273102
7.485619068145752,-0.3225375711917877,-1.1030365228652954,0.8703364729881287,0.6433585286140442,0.5392156839370728,-0.24357213079929352
7.505701541900635,-0.3225375711917877,-1.1045624017715454,0.8714808821678162,0.6433585286140442,0.5399786233901978,-0.2439536154270172
7.525919437408447,-0.3225375711917877,-1.106088399887085,0.8733882904052734,0.6433585286140442,0.5415045619010925,-0.2443350851535797
7.54602313041687,-0.3225375711917877,-1.10685133934021,0.8733882904052734,0.6445029377937317,0.5422675013542175,-0.2447165697813034
7.566100358963013,-0.3225375711917877,-1.1072328090667725,0.8733882904052734,0.6441214680671692,0.541886031627655,-0.2450980395078659
7.58629846572876,-0.3225375711917877,-1.10837721824646,0.8749141693115234,0.6445029377937317,0.541886031627655,-0.2454795092344284
7.606391906738281,-0.3225375711917877,-1.1095216274261475,0.8760585784912109,0.6452658772468567,0.5422675013542175,-0.2470054179430008
7.626479625701904,-0.3225375711917877,-1.10990309715271,0.8768215179443359,0.6452658772468567,0.541886031627655,-0.2470054179430008
7.646546125411987,-0.3225375711917877,-1.110666036605835,0.8775845170021057,0.6456473469734192,0.541886031627655,-0.2473868876695633
7.666615724563599,-0.3225375711917877,-1.112191915512085,0.8787289261817932,0.6456473469734192,0.5422675013542175,-0.247768372297287
7.686720848083496,-0.3225375711917877,-1.1144808530807495,0.8813992738723755,0.6452658772468567,0.541886031627655,-0.2481498420238495
7.706849813461304,-0.3225375711917877,-1.116388201713562,0.8829251527786255,0.6456473469734192,0.5422675013542175,-0.24967575073242188
7.726873874664307,-0.3225375711917877,-1.1167696714401245,0.8836880922317505,0.6456473469734192,0.5422675013542175,-0.2500572204589844
7.74696946144104,-0.3225375711917877,-1.117151141166687,0.8844510316848755,0.6456473469734192,0.5422675013542175,-0.2508201599121094
7.767090797424316,-0.3225375711917877,-1.1182955503463745,0.8859769701957703,0.6464102864265442,0.5422675013542175,-0.25120165944099426
7.787379026412964,-0.3225375711917877,-1.1190584897994995,0.8878843188285828,0.6464102864265442,0.5430304408073425,-0.25120165944099426
7.807476997375488,-0.3225375711917877,-1.119439959526062,0.8894102573394775,0.6467918157577515,0.5430304408073425,-0.25196459889411926
7.827535152435303,-0.3225375711917877,-1.120965838432312,0.8916990756988525,0.6464102864265442,0.543411910533905,-0.25272753834724426
7.8477606773376465,-0.3225375711917877,-1.1217288970947266,0.8928435444831848,0.6475547552108765,0.54417484998703,-0.25387197732925415
7.86772346496582,-0.3225375711917877,-1.1224918365478516,0.8936064839363098,0.6475547552108765,0.5449378490447998,-0.25425344705581665
7.888094663619995,-0.3225375711917877,-1.1232547760009766,0.8939879536628723,0.6475547552108765,0.5453193187713623,-0.25463491678237915
7.908257722854614,-0.3225375711917877,-1.124399185180664,0.8947508931159973,0.6475547552108765,0.5453193187713623,-0.25501641631126404
7.92830753326416,-0.3225375711917877,-1.1255435943603516,0.8958953022956848,0.6475547552108765,0.5453193187713623,-0.25539788603782654
7.9484148025512695,-0.3225375711917877,-1.1263065338134766,0.8962767720222473,0.6475547552108765,0.5453193187713623,-0.25539788603782654
7.968512773513794,-0.3225375711917877,-1.1270694732666016,0.8974212408065796,0.6475547552108765,0.5457007884979248,-0.25616082549095154
7.9886744022369385,-0.3225375711917877,-1.127450942993164,0.8981841802597046,0.648699164390564,0.5472266674041748,-0.2576867341995239
8.00870966911316,-0.3225375711917877,-1.1278324127197266,0.8993285894393921,0.6490806341171265,0.5487525463104248,-0.2580682039260864
8.028785228729248,-0.3225375711917877,-1.1285953521728516,0.9000915288925171,0.650225043296814,0.5498970150947571,-0.2584496736526489
8.048954248428345,-0.3229190409183502,-1.1297398805618286,0.9016174674034119,0.6509880423545837,0.5498970150947571,-0.2584496736526489
8.068976163864136,-0.3225375711917877,-1.1305028200149536,0.9019989371299744,0.6509880423545837,0.5498970150947571,-0.2588311731815338
8.089311599731445,-0.3229190409183502,-1.1308842897415161,0.9019989371299744,0.6509880423545837,0.5495155453681946,-0.2588311731815338
8.109435319900513,-0.3229190409183502,-1.1316472291946411,0.9027618765830994,0.6513695120811462,0.5498970150947571,-0.2592126429080963
8.129538774490356,-0.3233005404472351,-1.1327916383743286,0.9042877554893494,0.6517509818077087,0.5495155453681946,-0.2592126429080963
8.149579286575317,-0.3236820101737976,-1.1335545778274536,0.9054322242736816,0.6521324515342712,0.5506599545478821,-0.2595941126346588
8.16965937614441,-0.3236820101737976,-1.1339360475540161,0.9065766334533691,0.6525139212608337,0.5502784848213196,-0.2599755823612213
8.189955472946167,-0.3236820101737976,-1.1343175172805786,0.9065766334533691,0.6528953909873962,0.5502784848213196,-0.2603570520877838
8.21004033088684,-0.3236820101737976,-1.1350804567337036,0.9077210426330566,0.6532768607139587,0.5506599545478821,-0.2611200213432312
8.230125188827515,-0.3236820101737976,-1.1369879245758057,0.9096284508705139,0.6532768607139587,0.5506599545478821,-0.2618829607963562
8.250223636627197,-0.3236820101737976,-1.1377508640289307,0.9103913903236389,0.6536583304405212,0.5510414242744446,-0.2622644305229187
8.270363807678223,-0.3236820101737976,-1.1381323337554932,0.9107728600502014,0.6540398001670837,0.5510414242744446,-0.2626459002494812
8.290494918823242,-0.3236820101737976,-1.1388952732086182,0.9115357995033264,0.6540398001670837,0.5510414242744446,-0.2630273997783661
8.310719966888428,-0.3236820101737976,-1.1392767429351807,0.9119172692298889,0.654421329498291,0.5518043637275696,-0.2630273997783661
8.330769538879395,-0.3240634799003601,-1.1396582126617432,0.9122987985610962,0.654421329498291,0.5518043637275696,-0.2637903392314911
8.35081958770752,-0.3244449496269226,-1.1411840915679932,0.9138246774673462,0.654421329498291,0.5529488325119019,-0.264934778213501
8.370902299880981,-0.3244449496269226,-1.1423285007476807,0.9149690866470337,0.6548027992248535,0.5533303022384644,-0.266460657119751
8.39105749130249,-0.3244449496269226,-1.1434729099273682,0.916113555431366,0.654421329498291,0.5529488325119019,-0.266460657119751
8.411128044128418,-0.3244449496269226,-1.1446174383163452,0.9172579646110535,0.6548027992248535,0.5529488325119019,-0.26684215664863586
8.4312002658844,-0.3244449496269226,-1.1453803777694702,0.9187838435173035,0.655184268951416,0.5533303022384644,-0.26684215664863586
8.451279878616333,-0.3244449496269226,-1.1457618474960327,0.919165313243866,0.655184268951416,0.5544747114181519,-0.26760509610176086
8.471338510513306,-0.3244449496269226,-1.1457618474960327,0.9195467829704285,0.655947208404541,0.5560005903244019,-0.26798656582832336
8.49142575263977,-0.3244449496269226,-1.1465247869491577,0.9210727214813232,0.6555657386779785,0.5567635893821716,-0.26874953508377075
8.511505603790283,-0.3244449496269226,-1.1480506658554077,0.9222171306610107,0.6563286781311035,0.5571450591087341,-0.26951247453689575
8.531602144241333,-0.3244449496269226,-1.1488136053085327,0.9233615398406982,0.6563286781311035,0.5575265288352966,-0.26951247453689575
8.551769495010376,-0.3244449496269226,-1.1495765447616577,0.9237430095672607,0.656710147857666,0.5575265288352966,-0.26989394426345825
8.572191715240479,-0.3248264193534851,-1.1503394842147827,0.924887478351593,0.656710147857666,0.5575265288352966,-0.26989394426345825
8.59229564666748,-0.3248264193534851,-1.1507209539413452,0.926413357257843,0.6578545570373535,0.5575265288352966,-0.27027541399002075
8.612387895584106,-0.3248264193534851,-1.1514838933944702,0.9275577664375305,0.6578545570373535,0.5575265288352966,-0.27103838324546814
8.632492303848267,-0.32520791888237,-1.1526284217834473,0.9298466444015503,0.6578545570373535,0.5575265288352966,-0.27141985297203064
8.652630805969238,-0.32520791888237,-1.1533913612365723,0.9306095838546753,0.6582360863685608,0.5582894682884216,-0.2725642919540405
8.672700881958008,-0.3255893886089325,-1.1537728309631348,0.9313725233078003,0.6582360863685608,0.5594338774681091,-0.2733272314071655
8.692766189575195,-0.3255893886089325,-1.1545357704162598,0.9317540526390076,0.6586175560951233,0.5590524077415466,-0.273708701133728
8.712959051132202,-0.3255893886089325,-1.1556801795959473,0.9325169920921326,0.6586175560951233,0.5590524077415466,-0.273708701133728
8.733128070831299,-0.3255893886089325,-1.1568245887756348,0.9332799315452576,0.6586175560951233,0.5582894682884216,-0.273708701133728
8.75320839881897,-0.3255893886089325,-1.1575875282287598,0.9336614012718201,0.6586175560951233,0.5582894682884216,-0.2740901708602905
8.773373365402222,-0.3255893886089325,-1.1579689979553223,0.9348058104515076,0.6589990258216858,0.5586709380149841,-0.2744716703891754
8.793409585952759,-0.3255893886089325,-1.1587319374084473,0.9355688095092773,0.6593804955482483,0.5594338774681091,-0.2748531401157379
8.813476324081421,-0.3255893886089325,-1.1587319374084473,0.9355688095092773,0.6601434350013733,0.5609598159790039,-0.2748531401157379
8.833577871322632,-0.3255893886089325,-1.1594948768615723,0.9359502792358398,0.6601434350013733,0.5609598159790039,-0.2756160795688629
8.85365915298462,-0.3255893886089325,-1.1606394052505493,0.9370946884155273,0.6601434350013733,0.5613412857055664,-0.2763790488243103
8.873764753341675,-0.3255893886089325,-1.1621652841567993,0.9386205673217773,0.6605249047279358,0.5613412857055664,-0.2767605185508728
8.893818855285645,-0.3255893886089325,-1.1625467538833618,0.9393835067749023,0.6601434350013733,0.5613412857055664,-0.2767605185508728
8.913967370986938,-0.3255893886089325,-1.1629282236099243,0.9401465058326721,0.6605249047279358,0.5613412857055664,-0.2771419882774353
8.934022426605225,-0.3255893886089325,-1.1636911630630493,0.9409094452857971,0.6605249047279358,0.5613412857055664,-0.2771419882774353
8.954220533370972,-0.325970858335495,-1.1648355722427368,0.9428167939186096,0.6616693139076233,0.5624856948852539,-0.2775234580039978
8.9743173122406,-0.325970858335495,-1.1655985116958618,0.9439612627029419,0.6616693139076233,0.5624856948852539,-0.2782863974571228
8.994396686553955,-0.325970858335495,-1.1659799814224243,0.9451056718826294,0.6616693139076233,0.5632486343383789,-0.2782863974571228
9.014518976211548,-0.325970858335495,-1.1667429208755493,0.9451056718826294,0.6620507836341858,0.5636301040649414,-0.2790493667125702
9.034605979919434,-0.3263523280620575,-1.1671243906021118,0.9458686113357544,0.6616693139076233,0.5640115737915039,-0.2790493667125702
9.0547776222229,-0.32673379778862,-1.1678873300552368,0.9462500810623169,0.6620507836341858,0.5643930435180664,-0.2801937758922577
9.074863910675049,-0.32673379778862,-1.1686503887176514,0.9470130205154419,0.6616693139076233,0.5647745728492737,-0.2805752754211426
9.094940900802612,-0.32673379778862,-1.1690318584442139,0.9477760195732117,0.6620507836341858,0.5647745728492737,-0.2813382148742676
9.115297317504883,-0.32673379778862,-1.1701762676239014,0.9485389590263367,0.6624323129653931,0.5647745728492737,-0.2813382148742676
9.135385274887085,-0.3271152675151825,-1.1709392070770264,0.9493018984794617,0.6624323129653931,0.5651560425758362,-0.2817196846008301
9.155450105667114,-0.3271152675151825,-1.1717021465301514,0.9500648379325867,0.6624323129653931,0.5651560425758362,-0.2821011543273926
9.175548315048218,-0.3271152675151825,-1.1724650859832764,0.9500648379325867,0.6624323129653931,0.5655375123023987,-0.28248265385627747
9.195638179779053,-0.32673379778862,-1.1728465557098389,0.9504463076591492,0.6624323129653931,0.5655375123023987,-0.28286412358283997
9.215703964233398,-0.3271152675151825,-1.1736094951629639,0.9508277773857117,0.6628137826919556,0.5651560425758362,-0.28362706303596497
9.235780477523804,-0.3271152675151825,-1.1743724346160889,0.951972246170044,0.6624323129653931,0.5651560425758362,-0.28439003229141235
9.255842924118042,-0.3274967670440674,-1.1751353740692139,0.952735185623169,0.6628137826919556,0.5655375123023987,-0.28439003229141235
9.276058197021484,-0.3278782367706299,-1.1755168437957764,0.954261064529419,0.6628137826919556,0.5655375123023987,-0.28477150201797485
9.296154260635376,-0.3278782367706299,-1.176279902458191,0.955024003982544,0.6635767221450806,0.5655375123023987,-0.28477150201797485
9.31620478630066,-0.3278782367706299,-1.1766613721847534,0.9557870030403137,0.6639581918716431,0.5663004517555237,-0.28515297174453735
9.336291551589966,-0.3278782367706299,-1.177042841911316,0.9565499424934387,0.6647211313247681,0.5663004517555237,-0.28477150201797485
9.35636591911316,-0.3278782367706299,-1.1774243116378784,0.9565499424934387,0.6647211313247681,0.5663004517555237,-0.28515297174453735
9.376555919647217,-0.3278782367706299,-1.1781872510910034,0.9573128819465637,0.6643396615982056,0.5666819214820862,-0.28553444147109985
9.396655082702637,-0.3278782367706299,-1.1789501905441284,0.9580758213996887,0.6643396615982056,0.5670633912086487,-0.28591591119766235
9.416719913482666,-0.3278782367706299,-1.179331660270691,0.9584572911262512,0.6651026010513306,0.5674448609352112,-0.28591591119766235
9.436813592910767,-0.3278782367706299,-1.1804760694503784,0.9596017599105835,0.6651026010513306,0.5678263306617737,-0.28706035017967224
9.456947326660156,-0.3278782367706299,-1.1812390089035034,0.9603646993637085,0.6658655405044556,0.5682078003883362,-0.28782328963279724
9.477055072784424,-0.3278782367706299,-1.1820019483566284,0.960746169090271,0.6662470698356628,0.5685893297195435,-0.28782328963279724
9.497164964675903,-0.3278782367706299,-1.182383418083191,0.9611276388168335,0.6662470698356628,0.5685893297195435,-0.28820478916168213
9.51724648475647,-0.3278782367706299,-1.183146357536316,0.9618905782699585,0.6662470698356628,0.5682078003883362,-0.28820478916168213
9.537446022033691,-0.3278782367706299,-1.1835278272628784,0.9626535177230835,0.6662470698356628,0.5685893297195435,-0.28858625888824463
9.557653903961182,-0.3278782367706299,-1.1835278272628784,0.9634165167808533,0.6662470698356628,0.5693522691726685,-0.28896772861480713
9.577649354934692,-0.3278782367706299,-1.1835278272628784,0.9649423956871033,0.6662470698356628,0.569733738899231,-0.28934919834136963
9.597752332687378,-0.3278782367706299,-1.1846723556518555,0.9649423956871033,0.6673914790153503,0.571259617805481,-0.28973066806793213
9.61783218383789,-0.3278782367706299,-1.1854352951049805,0.9660868048667908,0.6673914790153503,0.5731670260429382,-0.2904936373233795
9.637911558151245,-0.3278782367706299,-1.1869611740112305,0.9664682745933533,0.6677729487419128,0.5727855563163757,-0.291638046503067
9.657999515533447,-0.3278782367706299,-1.1884870529174805,0.9668498039245605,0.6673914790153503,0.5724040865898132,-0.291638046503067
9.678074359893799,-0.3282597064971924,-1.1892499923706055,0.967231273651123,0.6673914790153503,0.5724040865898132,-0.2920195460319519
9.698258638381958,-0.3282597064971924,-1.189631462097168,0.967994213104248,0.6670100092887878,0.5724040865898132,-0.2920195460319519
9.718283891677856,-0.3286411762237549,-1.189631462097168,0.968757152557373,0.6673914790153503,0.572022557258606,-0.2924010157585144
9.738425731658936,-0.3286411762237549,-1.189631462097168,0.9699015617370605,0.6673914790153503,0.5724040865898132,-0.2924010157585144
9.758468389511108,-0.3286411762237549,-1.189631462097168,0.9706645011901855,0.6681544184684753,0.5724040865898132,-0.2924010157585144
9.778570890426636,-0.3286411762237549,-1.189631462097168,0.9710460305213928,0.6685358881950378,0.5727855563163757,-0.2924010157585144
9.79865550994873,-0.3286411762237549,-1.189631462097168,0.9714275002479553,0.6685358881950378,0.5727855563163757,-0.2927824854850769
9.818786859512329,-0.3286411762237549,-1.1900129318237305,0.9714275002479553,0.6685358881950378,0.5724040865898132,-0.2927824854850769
9.839006423950195,-0.3286411762237549,-1.1907758712768555,0.9721904397010803,0.6685358881950378,0.5727855563163757,-0.2931639552116394
9.859091997146606,-0.3286411762237549,-1.19153892993927,0.9729533791542053,0.6689173579216003,0.5727855563163757,-0.2931639552116394
9.879143714904785,-0.3286411762237549,-1.1926833391189575,0.9740977883338928,0.6689173579216003,0.5731670260429382,-0.2935454249382019
9.899342775344849,-0.3290226459503174,-1.193827748298645,0.9748607873916626,0.6692988276481628,0.5731670260429382,-0.2935454249382019
9.91948413848877,-0.3290226459503174,-1.1942092180252075,0.9756237268447876,0.6696802973747253,0.5727855563163757,-0.2939268946647644
9.939534902572632,-0.3290226459503174,-1.19459068775177,0.9760051965713501,0.6696802973747253,0.5727855563163757,-0.2943083941936493
9.9596848487854,-0.32978561520576477,-1.1949721574783325,0.9767681360244751,0.6696802973747253,0.5727855563163757,-0.2950713336467743
9.979704856872559,-0.32978561520576477,-1.1957350969314575,0.9775310754776001,0.6692988276481628,0.5735484957695007,-0.2954528033733368
10.000077247619629,-0.33016708493232727,-1.1957350969314575,0.9779125452041626,0.6696802973747253,0.5739299654960632,-0.2958342730998993
10.020220041275024,-0.33016708493232727,-1.19611656665802,0.9786755442619324,0.6696802973747253,0.5735484957695007,-0.2962157726287842
10.040334463119507,-0.33016708493232727,-1.1964980363845825,0.9790570139884949,0.6696802973747253,0.5739299654960632,-0.2962157726287842
10.060469388961792,-0.33016708493232727,-1.196879506111145,0.9794384837150574,0.6700618267059326,0.5750743746757507,-0.2965972423553467
10.080673694610596,-0.33016708493232727,-1.1972609758377075,0.9798199534416199,0.6700618267059326,0.5750743746757507,-0.2965972423553467
10.100759029388428,-0.33016708493232727,-1.1980239152908325,0.9802014231681824,0.6700618267059326,0.5754558444023132,-0.2969787120819092
10.120854377746582,-0.33016708493232727,-1.1987868547439575,0.9809643626213074,0.6700618267059326,0.5758373141288757,-0.2969787120819092
10.140902757644653,-0.33016708493232727,-1.19916832447052,0.9813458323478699,0.6696802973747253,0.5754558444023132,-0.2973601818084717
10.161046504974365,-0.33016708493232727,-1.19916832447052,0.9813458323478699,0.6696802973747253,0.5754558444023132,-0.2973601818084717
10.181143999099731,-0.33016708493232727,-1.199549913406372,0.9821087718009949,0.6700618267059326,0.5754558444023132,-0.2977416515350342
10.20120120048523,-0.33016708493232727,-1.1999313831329346,0.9832532405853271,0.6700618267059326,0.5754558444023132,-0.29850462079048157
10.221352815628052,-0.33016708493232727,-1.1999313831329346,0.9840161800384521,0.6700618267059326,0.5754558444023132,-0.29850462079048157
10.241455078125,-0.33016708493232727,-1.200312852859497,0.9847791194915771,0.6696802973747253,0.5754558444023132,-0.29888609051704407
10.261548042297363,-0.33016708493232727,-1.201075792312622,0.9851605892181396,0.6704432964324951,0.576981782913208,-0.29926756024360657
10.2816641330719,-0.33016708493232727,-1.2014572620391846,0.9855420589447021,0.6704432964324951,0.576981782913208,-0.29964902997016907
10.301771879196167,-0.33016708493232727,-1.2022202014923096,0.9859235286712646,0.6704432964324951,0.5773632526397705,-0.29964902997016907
10.321791648864746,-0.33016708493232727,-1.202601671218872,0.9866865277290344,0.6704432964324951,0.5766003131866455,-0.30003052949905396
10.34189486503601,-0.33016708493232727,-1.203364610671997,0.9866865277290344,0.6708247661590576,0.5773632526397705,-0.30003052949905396
10.362038373947144,-0.33016708493232727,-1.203364610671997,0.9866865277290344,0.6712062358856201,0.5773632526397705,-0.30041199922561646
10.382476329803467,-0.33093002438545227,-1.2037460803985596,0.9870679974555969,0.6712062358856201,0.577744722366333,-0.30041199922561646
10.402603149414062,-0.33093002438545227,-1.2045090198516846,0.9878309369087219,0.6712062358856201,0.577744722366333,-0.30079346895217896
10.422638416290283,-0.33093002438545227,-1.2052719593048096,0.9889753460884094,0.6715877056121826,0.5773632526397705,-0.30117493867874146
10.442739248275757,-0.33093002438545227,-1.205653429031372,0.9893568158149719,0.6719691753387451,0.578507661819458,-0.30193790793418884
10.462860584259033,-0.33093002438545227,-1.2060348987579346,0.9901197552680969,0.6723506450653076,0.578507661819458,-0.30231937766075134
10.482956647872925,-0.33093002438545227,-1.206416368484497,0.9908827543258667,0.6719691753387451,0.5788891315460205,-0.30270084738731384
10.503045558929443,-0.33093002438545227,-1.206416368484497,0.9916456937789917,0.6723506450653076,0.5788891315460205,-0.30308231711387634
10.52313232421875,-0.33093002438545227,-1.2067978382110596,0.9920271635055542,0.6727321147918701,0.580033540725708,-0.30308231711387634
10.54321837425232,-0.33093002438545227,-1.2067978382110596,0.9924086332321167,0.6727321147918701,0.5804150700569153,-0.30346378684043884
10.563279151916504,-0.33093002438545227,-1.2071794271469116,0.9927901029586792,0.6727321147918701,0.580033540725708,-0.30346378684043884
10.583328485488892,-0.33093002438545227,-1.2075608968734741,0.9927901029586792,0.6727321147918701,0.580033540725708,-0.30346378684043884
10.603420972824097,-0.33093002438545227,-1.2083238363265991,0.9935530424118042,0.6723506450653076,0.580033540725708,-0.30346378684043884
10.623494148254395,-0.33093002438545227,-1.2083238363265991,0.9935530424118042,0.6723506450653076,0.5796520709991455,-0.30346378684043884
10.643601894378662,-0.33093002438545227,-1.2083238363265991,0.9935530424118042,0.6723506450653076,0.5796520709991455,-0.30384528636932373
10.66373610496521,-0.33131152391433716,-1.2083238363265991,0.9939345121383667,0.6727321147918701,0.580033540725708,-0.30422675609588623
10.683775901794434,-0.33207446336746216,-1.2087053060531616,0.994316041469574,0.6723506450653076,0.5804150700569153,-0.30422675609588623
10.703858375549316,-0.33207446336746216,-1.2094682455062866,0.995078980922699,0.6723506450653076,0.5804150700569153,-0.30422675609588623
10.723923444747925,-0.33207446336746216,-1.2102311849594116,0.995841920375824,0.6727321147918701,0.5804150700569153,-0.30460822582244873
10.74402642250061,-0.33207446336746216,-1.2102311849594116,0.995841920375824,0.6727321147918701,0.5804150700569153,-0.30460822582244873
10.764098167419434,-0.33207446336746216,-1.2102311849594116,0.9962233901023865,0.6723506450653076,0.580033540725708,-0.30537116527557373
10.78415322303772,-0.33207446336746216,-1.2106126546859741,0.9969863295555115,0.6723506450653076,0.580033540725708,-0.30498969554901123
10.804349422454834,-0.33207446336746216,-1.2102311849594116,0.997367799282074,0.6723506450653076,0.580033540725708,-0.30537116527557373
10.824418544769287,-0.33207446336746216,-1.2106126546859741,0.9977492690086365,0.6723506450653076,0.5807965397834778,-0.3061341345310211
10.844469547271729,-0.33207446336746216,-1.2106126546859741,0.9985122680664062,0.6723506450653076,0.5811780095100403,-0.3061341345310211
10.864541053771973,-0.33207446336746216,-1.2113755941390991,0.9992752075195312,0.6723506450653076,0.5811780095100403,-0.3068970739841461
10.885008573532104,-0.33207446336746216,-1.2121385335922241,1.0000381469726562,0.6727321147918701,0.5815594792366028,-0.3072785437107086
10.905141353607178,-0.33207446336746216,-1.2125200033187866,1.0000381469726562,0.6727321147918701,0.5811780095100403,-0.3072785437107086
10.925211429595947,-0.33207446336746216,-1.2136644124984741,1.0008010864257812,0.6723506450653076,0.5811780095100403,-0.3076600432395935
10.945305585861206,-0.33207446336746216,-1.2136644124984741,1.0011825561523438,0.6727321147918701,0.5815594792366028,-0.3076600432395935
10.965376615524292,-0.33207446336746216,-1.2144273519515991,1.0015640258789062,0.6727321147918701,0.5815594792366028,-0.3076600432395935
10.985428810119629,-0.33207446336746216,-1.2144273519515991,1.0019454956054688,0.6723506450653076,0.5823224186897278,-0.308041512966156
11.005534648895264,-0.33207446336746216,-1.2148088216781616,1.0027084350585938,0.6723506450653076,0.5823224186897278,-0.308041512966156
11.025611162185669,-0.33207446336746216,-1.2148088216781616,1.0030899047851562,0.6719691753387451,0.5827038884162903,-0.3084229826927185
11.045647382736206,-0.33207446336746216,-1.2155718803405762,1.0038528442382812,0.6723506450653076,0.5838482975959778,-0.3091859221458435
11.065732717514038,-0.33207446336746216,-1.2159533500671387,1.0042344331741333,0.6723506450653076,0.5838482975959778,-0.3103303611278534
11.085803747177124,-0.33207446336746216,-1.2159533500671387,1.0042344331741333,0.6719691753387451,0.5834668278694153,-0.3103303611278534
11.105865001678467,-0.33207446336746216,-1.2167162895202637,1.0049973726272583,0.6723506450653076,0.5838482975959778,-0.3107118308544159
11.125986337661743,-0.33207446336746216,-1.2170977592468262,1.0057603120803833,0.6723506450653076,0.5834668278694153,-0.3107118308544159
11.146015167236328,-0.33207446336746216,-1.2170977592468262,1.0061417818069458,0.6723506450653076,0.5838482975959778,-0.3103303611278534
11.166116952896118,-0.33207446336746216,-1.2178606986999512,1.0061417818069458,0.6731135845184326,0.5846112966537476,-0.3103303611278534
11.18619704246521,-0.33207446336746216,-1.2186236381530762,1.0065232515335083,0.6734950542449951,0.5849927663803101,-0.3103303611278534
11.206324100494385,-0.33207446336746216,-1.2186236381530762,1.0069047212600708,0.6731135845184326,0.5846112966537476,-0.3103303611278534
11.226479053497314,-0.33207446336746216,-1.2190051078796387,1.0072861909866333,0.6734950542449951,0.5834668278694153,-0.3107118308544159
11.246555089950562,-0.33207446336746216,-1.2190051078796387,1.0076676607131958,0.6731135845184326,0.5838482975959778,-0.3107118308544159
11.26660943031311,-0.33207446336746216,-1.2190051078796387,1.0080491304397583,0.6734950542449951,0.5842298269271851,-0.3107118308544159
11.286681175231934,-0.33207446336746216,-1.2190051078796387,1.0084306001663208,0.6746395230293274,0.5849927663803101,-0.3107118308544159
11.306834936141968,-0.33207446336746216,-1.2197680473327637,1.0088120698928833,0.6746395230293274,0.5849927663803101,-0.3107118308544159
11.326959133148193,-0.33207446336746216,-1.2205309867858887,1.0095750093460083,0.6746395230293274,0.5846112966537476,-0.3110933005809784
11.346959829330444,-0.33207446336746216,-1.2209124565124512,1.0099564790725708,0.6746395230293274,0.5842298269271851,-0.3107118308544159
11.367260694503784,-0.33207446336746216,-1.2209124565124512,1.0099564790725708,0.6742580533027649,0.5838482975959778,-0.3110933005809784
11.387355327606201,-0.33207446336746216,-1.2209124565124512,1.0103379487991333,0.6746395230293274,0.5842298269271851,-0.3110933005809784
11.407463312149048,-0.33207446336746216,-1.2209124565124512,1.0107194185256958,0.6750209927558899,0.5849927663803101,-0.3110933005809784
11.42754578590393,-0.33207446336746216,-1.2216753959655762,1.0114823579788208,0.6750209927558899,0.5853742361068726,-0.3110933005809784
11.447618007659912,-0.33207446336746216,-1.2220568656921387,1.0122454166412354,0.6765468716621399,0.5869001150131226,-0.3114747703075409
11.467695713043213,-0.33207446336746216,-1.2228199243545532,1.0122454166412354,0.6761654019355774,0.5865186452865601,-0.3114747703075409
11.487768173217773,-0.33207446336746216,-1.2228199243545532,1.0126268863677979,0.6761654019355774,0.5861371755599976,-0.3114747703075409
11.507833003997803,-0.33207446336746216,-1.2232013940811157,1.0130083560943604,0.6761654019355774,0.5853742361068726,-0.3114747703075409
11.528178215026855,-0.33207446336746216,-1.2232013940811157,1.0137712955474854,0.6761654019355774,0.5853742361068726,-0.3114747703075409
11.548265218734741,-0.33207446336746216,-1.2235828638076782,1.0141527652740479,0.6769283413887024,0.5869001150131226,-0.3118562698364258
11.568314552307129,-0.33207446336746216,-1.2239643335342407,1.0145342350006104,0.6769283413887024,0.5872815847396851,-0.3122377395629883
11.588456869125366,-0.33245593309402466,-1.2239643335342407,1.0145342350006104,0.6765468716621399,0.5872815847396851,-0.3122377395629883
11.608529567718506,-0.33245593309402466,-1.2247272729873657,1.0152971744537354,0.6765468716621399,0.5869001150131226,-0.3122377395629883
11.629021883010864,-0.33245593309402466,-1.2251087427139282,1.0156786441802979,0.6769283413887024,0.5869001150131226,-0.3126192092895508
11.649144172668457,-0.33245593309402466,-1.2251087427139282,1.0156786441802979,0.6765468716621399,0.5865186452865601,-0.3126192092895508
11.669471263885498,-0.33283740282058716,-1.2251087427139282,1.0160601139068604,0.6769283413887024,0.5872815847396851,-0.3133821487426758
11.689565181732178,-0.33283740282058716,-1.2251087427139282,1.0164415836334229,0.6769283413887024,0.5872815847396851,-0.3133821487426758
11.709768533706665,-0.33283740282058716,-1.2254902124404907,1.0168230533599854,0.6773098111152649,0.5876630544662476,-0.3133821487426758
11.7300865650177,-0.33283740282058716,-1.2262531518936157,1.0175859928131104,0.6769283413887024,0.5876630544662476,-0.31376364827156067
11.7503023147583,-0.33283740282058716,-1.2266346216201782,1.0175859928131104,0.6776912808418274,0.5872815847396851,-0.31376364827156067
11.770495176315308,-0.33283740282058716,-1.2270160913467407,1.0175859928131104,0.6769283413887024,0.5876630544662476,-0.31414511799812317
11.790658950805664,-0.33283740282058716,-1.2273975610733032,1.0183489322662354,0.6773098111152649,0.5872815847396851,-0.31414511799812317
11.810766696929932,-0.33283740282058716,-1.2273975610733032,1.0183489322662354,0.6773098111152649,0.5876630544662476,-0.31414511799812317
11.830811977386475,-0.33283740282058716,-1.2273975610733032,1.0187304019927979,0.6773098111152649,0.5880445837974548,-0.31414511799812317
11.850897073745728,-0.33283740282058716,-1.2281605005264282,1.0191118717193604,0.6776912808418274,0.5884260535240173,-0.31414511799812317
11.87101149559021,-0.33283740282058716,-1.2281605005264282,1.0194933414459229,0.6776912808418274,0.5888075232505798,-0.31452658772468567
11.8911452293396,-0.33283740282058716,-1.2285419702529907,1.0194933414459229,0.6776912808418274,0.5880445837974548,-0.31452658772468567
11.911169528961182,-0.33283740282058716,-1.2289234399795532,1.019874930381775,0.6773098111152649,0.5884260535240173,-0.31490805745124817
11.931245565414429,-0.33283740282058716,-1.2293049097061157,1.0206378698349,0.6776912808418274,0.5884260535240173,-0.31452658772468567
11.951349020004272,-0.33283740282058716,-1.2293049097061157,1.0206378698349,0.6776912808418274,0.5888075232505798,-0.31490805745124817
11.971623182296753,-0.33283740282058716,-1.2293049097061157,1.0206378698349,0.6776912808418274,0.5891889929771423,-0.31528952717781067
11.991748571395874,-0.33283740282058716,-1.2293049097061157,1.0210193395614624,0.6780728101730347,0.5895704627037048,-0.31528952717781067
12.011845588684082,-0.33283740282058716,-1.2304493188858032,1.0217822790145874,0.6776912808418274,0.5895704627037048,-0.31528952717781067
12.031963348388672,-0.33283740282058716,-1.2304493188858032,1.02216374874115,0.6784542798995972,0.5903334021568298,-0.31567102670669556
12.052009105682373,-0.33283740282058716,-1.2304493188858032,1.02216374874115,0.6780728101730347,0.5899519324302673,-0.31605249643325806
12.07207703590393,-0.33283740282058716,-1.2304493188858032,1.0225452184677124,0.6780728101730347,0.5899519324302673,-0.31605249643325806
12.092172145843506,-0.33283740282058716,-1.2308309078216553,1.022926688194275,0.6784542798995972,0.5907148718833923,-0.31643396615982056
12.112226963043213,-0.33321890234947205,-1.2312123775482178,1.022926688194275,0.6784542798995972,0.5914778113365173,-0.31719690561294556
12.132314205169678,-0.33321890234947205,-1.2312123775482178,1.0233081579208374,0.6784542798995972,0.5914778113365173,-0.31795987486839294
12.152445554733276,-0.33321890234947205,-1.2315938472747803,1.0236896276474,0.6784542798995972,0.5910963416099548,-0.31795987486839294
12.172474384307861,-0.33321890234947205,-1.2315938472747803,1.0240710973739624,0.6784542798995972,0.5910963416099548,-0.31795987486839294
12.192659616470337,-0.33360037207603455,-1.2323567867279053,1.024452567100525,0.6784542798995972,0.5914778113365173,-0.31795987486839294
12.212744235992432,-0.33398184180259705,-1.2323567867279053,1.0248340368270874,0.6788357496261597,0.5918593406677246,-0.31795987486839294
12.232814073562622,-0.33436331152915955,-1.2323567867279053,1.0248340368270874,0.6792172193527222,0.5914778113365173,-0.31795987486839294
12.252955436706543,-0.33436331152915955,-1.2327382564544678,1.0248340368270874,0.6792172193527222,0.5914778113365173,-0.31834134459495544
12.273080348968506,-0.33474478125572205,-1.2331197261810303,1.0255969762802124,0.6795986890792847,0.5914778113365173,-0.31834134459495544
12.293309688568115,-0.33474478125572205,-1.2335011959075928,1.025978446006775,0.6795986890792847,0.5910963416099548,-0.31834134459495544
12.31328797340393,-0.33474478125572205,-1.2335011959075928,1.025978446006775,0.6799801588058472,0.5910963416099548,-0.31795987486839294
12.333348512649536,-0.33474478125572205,-1.2335011959075928,1.025978446006775,0.6799801588058472,0.5914778113365173,-0.31834134459495544
12.353448152542114,-0.33474478125572205,-1.2335011959075928,1.0267413854599,0.6799801588058472,0.5914778113365173,-0.31834134459495544
12.373671770095825,-0.33474478125572205,-1.2342641353607178,1.0267413854599,0.6799801588058472,0.5918593406677246,-0.31834134459495544
12.393699407577515,-0.33474478125572205,-1.2346456050872803,1.0271228551864624,0.6799801588058472,0.5930037498474121,-0.31834134459495544
12.413785457611084,-0.33474478125572205,-1.2350270748138428,1.0271228551864624,0.6799801588058472,0.5918593406677246,-0.31834134459495544
12.433845043182373,-0.33474478125572205,-1.2354085445404053,1.027885913848877,0.6799801588058472,0.5918593406677246,-0.31834134459495544
12.453935623168945,-0.33436331152915955,-1.2354085445404053,1.0282673835754395,0.6799801588058472,0.5918593406677246,-0.31834134459495544
12.474029064178467,-0.33436331152915955,-1.2354085445404053,1.0282673835754395,0.6799801588058472,0.5918593406677246,-0.31834134459495544
12.494136333465576,-0.33436331152915955,-1.2354085445404053,1.028648853302002,0.6803616285324097,0.5926222801208496,-0.31872281432151794
12.5141921043396,-0.33398184180259705,-1.2357900142669678,1.0290303230285645,0.6803616285324097,0.5930037498474121,-0.31872281432151794
12.534316301345825,-0.33398184180259705,-1.2357900142669678,1.0290303230285645,0.6803616285324097,0.5933852195739746,-0.31872281432151794
12.554368257522583,-0.33398184180259705,-1.2361714839935303,1.0290303230285645,0.6803616285324097,0.5933852195739746,-0.31910428404808044
12.574463605880737,-0.33398184180259705,-1.2365529537200928,1.0297932624816895,0.6803616285324097,0.5933852195739746,-0.31910428404808044
12.595130920410156,-0.33398184180259705,-1.2369344234466553,1.0297932624816895,0.6799801588058472,0.5922408103942871,-0.31948578357696533
12.615298986434937,-0.33398184180259705,-1.2369344234466553,1.030174732208252,0.6799801588058472,0.5926222801208496,-0.31910428404808044
12.635379314422607,-0.33398184180259705,-1.2369344234466553,1.030174732208252,0.6803616285324097,0.5930037498474121,-0.31948578357696533
12.655581951141357,-0.33398184180259705,-1.2376973628997803,1.0305562019348145,0.6803616285324097,0.5937666893005371,-0.31986725330352783
12.675681591033936,-0.33436331152915955,-1.2380788326263428,1.030937671661377,0.6807430982589722,0.5941481590270996,-0.31948578357696533
12.695745468139648,-0.33398184180259705,-1.2388418912887573,1.030937671661377,0.6811245679855347,0.5945296287536621,-0.31948578357696533
12.715839385986328,-0.33398184180259705,-1.2392233610153198,1.030937671661377,0.6822690367698669,0.5941481590270996,-0.31910428404808044
12.73594069480896,-0.33436331152915955,-1.2396048307418823,1.030937671661377,0.6845578551292419,0.5945296287536621,-0.31910428404808044
12.756001949310303,-0.33512628078460693,-1.2399863004684448,1.030937671661377,0.6872282028198242,0.5945296287536621,-0.31795987486839294
12.776095390319824,-0.33627068996429443,-1.2399863004684448,1.030937671661377,0.690280020236969,0.5949110984802246,-0.31643396615982056
12.796150922775269,-0.3377965986728668,-1.2399863004684448,1.030937671661377,0.693331778049469,0.5952925682067871,-0.3130006790161133
12.816248416900635,-0.3389410376548767,-1.2399863004684448,1.030937671661377,0.697528064250946,0.5952925682067871,-0.309567391872406
12.836318492889404,-0.3408484160900116,-1.2407492399215698,1.030937671661377,0.700579822063446,0.5952925682067871,-0.3072785437107086
12.8563973903656,-0.3423742949962616,-1.2411307096481323,1.030937671661377,0.7043945789337158,0.5952925682067871,-0.30384528636932373
12.876466989517212,-0.343137264251709,-1.2415121793746948,1.030937671661377,0.7078278660774231,0.5945296287536621,-0.29964902997016907
12.896549224853516,-0.344663143157959,-1.2422751188278198,1.030937671661377,0.7108796834945679,0.5945296287536621,-0.29850462079048157
12.916610479354858,-0.34618905186653137,-1.2430380582809448,1.0305562019348145,0.7143129706382751,0.5952925682067871,-0.2954528033733368
12.936813831329346,-0.34657052159309387,-1.2430380582809448,1.030174732208252,0.7173647880554199,0.5960555672645569,-0.2939268946647644
12.956971168518066,-0.34733349084854126,-1.2430380582809448,1.0297932624816895,0.7211795449256897,0.5956740379333496,-0.2912565767765045
12.976980209350586,-0.34809643030166626,-1.2430380582809448,1.0297932624816895,0.724612832069397,0.5960555672645569,-0.28744181990623474
12.99715280532837,-0.34924086928367615,-1.2430380582809448,1.029411792755127,0.7291905283927917,0.5964370369911194,-0.28324559330940247
13.017149448394775,-0.35000380873680115,-1.2430380582809448,1.0290303230285645,0.733386754989624,0.5979629158973694,-0.2801937758922577
13.037253141403198,-0.35076677799224854,-1.2430380582809448,1.028648853302002,0.7383459210395813,0.5991073250770569,-0.2756160795688629
13.05732536315918,-0.35152971744537354,-1.2430380582809448,1.0282673835754395,0.7421606779098511,0.5994887948036194,-0.2725642919540405
13.077572584152222,-0.3526741564273834,-1.2430380582809448,1.027885913848877,0.7452124953269958,0.5998703241348267,-0.26951247453689575
13.097660303115845,-0.3538185656070709,-1.2438009977340698,1.027885913848877,0.7490272521972656,0.6010147333145142,-0.26722362637519836
13.117749452590942,-0.3545815348625183,-1.2441824674606323,1.0275044441223145,0.7536049485206604,0.6025406122207642,-0.2641718089580536
13.137837171554565,-0.3553444743156433,-1.2441824674606323,1.0267413854599,0.7578011751174927,0.6025406122207642,-0.2599755823612213
13.157919645309448,-0.3561074137687683,-1.2441824674606323,1.025978446006775,0.760471522808075,0.6029220819473267,-0.2569237947463989
13.17794418334961,-0.3568703830242157,-1.2441824674606323,1.02521550655365,0.7639048099517822,0.6029220819473267,-0.25577935576438904
13.198045015335083,-0.3568703830242157,-1.2441824674606323,1.024452567100525,0.767719566822052,0.6029220819473267,-0.25120165944099426
13.218288898468018,-0.3572518527507782,-1.2449454069137573,1.0240710973739624,0.7711527943611145,0.6029220819473267,-0.2470054179430008
13.238377094268799,-0.3580147922039032,-1.2449454069137573,1.0236896276474,0.775730550289154,0.6044480204582214,-0.2447165697813034
13.258440494537354,-0.3587777614593506,-1.2449454069137573,1.0236896276474,0.7791637778282166,0.6044480204582214,-0.24090181291103363
13.278534889221191,-0.3591592311859131,-1.2453268766403198,1.022926688194275,0.7825970649719238,0.6048294901847839,-0.23899443447589874
13.298624277114868,-0.3599221706390381,-1.2449454069137573,1.0225452184677124,0.7864118218421936,0.6059738993644714,-0.23632410168647766
13.318885803222656,-0.3614480793476105,-1.2449454069137573,1.02216374874115,0.7898451089859009,0.6067368388175964,-0.23212787508964539
13.338988780975342,-0.361829549074173,-1.2449454069137573,1.0217822790145874,0.7944228053092957,0.6067368388175964,-0.230601966381073
13.359051942825317,-0.361829549074173,-1.2453268766403198,1.0210193395614624,0.7982375621795654,0.6067368388175964,-0.22678720951080322
13.379144191741943,-0.3622110188007355,-1.2449454069137573,1.0202564001083374,0.802815318107605,0.6074998378753662,-0.22220951318740845
13.399325370788574,-0.36373692750930786,-1.2453268766403198,1.019874930381775,0.8047226667404175,0.6090257167816162,-0.21877622604370117
13.41951298713684,-0.36373692750930786,-1.2449454069137573,1.0187304019927979,0.8070115447044373,0.6097886562347412,-0.21648737788200378
13.439611911773682,-0.36373692750930786,-1.2449454069137573,1.0183489322662354,0.8112077713012695,0.6105515956878662,-0.2153429538011551
13.459722518920898,-0.36373692750930786,-1.2453268766403198,1.0175859928131104,0.8134965896606445,0.6105515956878662,-0.212672621011734
13.479812622070312,-0.36373692750930786,-1.2449454069137573,1.0172045230865479,0.8165484070777893,0.6105515956878662,-0.21076524257659912
13.499904870986938,-0.36411839723587036,-1.2449454069137573,1.0164415836334229,0.8203631639480591,0.6113145351409912,-0.20733195543289185
13.519960403442383,-0.36411839723587036,-1.2449454069137573,1.0156786441802979,0.8234149813652039,0.6116960644721985,-0.20389868319034576
13.540065288543701,-0.36488136649131775,-1.2449454069137573,1.0152971744537354,0.8268482685089111,0.612077534198761,-0.20313572883605957
13.560149908065796,-0.36564430594444275,-1.2453268766403198,1.0152971744537354,0.8295185565948486,0.6124590039253235,-0.1981765478849411
13.580298900604248,-0.36602577567100525,-1.2453268766403198,1.0145342350006104,0.8333333134651184,0.6132219433784485,-0.19550621509552002
13.600408792495728,-0.36602577567100525,-1.2453268766403198,1.0137712955474854,0.8367666006088257,0.614366352558136,-0.19321736693382263
13.62050461769104,-0.36602577567100525,-1.2453268766403198,1.0133898258209229,0.8413442969322205,0.614366352558136,-0.19092851877212524
13.640597581863403,-0.36640727519989014,-1.2449454069137573,1.0133898258209229,0.8436331748962402,0.614366352558136,-0.18863965570926666
13.660685300827026,-0.36717021465301514,-1.2453268766403198,1.0126268863677979,0.8463035225868225,0.614366352558136,-0.18749523162841797
13.680793762207031,-0.36755168437957764,-1.2453268766403198,1.0118639469146729,0.8493552803993225,0.6158922910690308,-0.18520638346672058
13.701011657714844,-0.36793315410614014,-1.2453268766403198,1.0111008882522583,0.8512626886367798,0.6177996397018433,-0.1817730963230133
13.721038579940796,-0.36793315410614014,-1.2453268766403198,1.0099564790725708,0.8546959757804871,0.6181811094284058,-0.17872129380702972
13.741150140762329,-0.36793315410614014,-1.2453268766403198,1.0095750093460083,0.8577477931976318,0.6185625791549683,-0.17605096101760864
13.761207342147827,-0.36793315410614014,-1.2453268766403198,1.0084306001663208,0.8611810207366943,0.6185625791549683,-0.17261768877506256
13.78132700920105,-0.36793315410614014,-1.2453268766403198,1.0076676607131958,0.8646143078804016,0.6185625791549683,-0.16994735598564148
13.801373958587646,-0.368314653635025,-1.2453268766403198,1.0072861909866333,0.8657587766647339,0.6185625791549683,-0.1680399775505066
13.821437120437622,-0.368314653635025,-1.2453268766403198,1.0069047212600708,0.8699550032615662,0.6189440488815308,-0.1661325991153717
13.841537952423096,-0.368314653635025,-1.2453268766403198,1.0061417818069458,0.8726252913475037,0.619325578212738,-0.16346226632595062
13.861636400222778,-0.368314653635025,-1.2453268766403198,1.0057603120803833,0.8745326995849609,0.6204699873924255,-0.16308079659938812
13.882771968841553,-0.368314653635025,-1.2453268766403198,1.0053788423538208,0.8768215179443359,0.620851457118988,-0.16117341816425323
13.90287184715271,-0.36907759308815,-1.2453268766403198,1.0046159029006958,0.8798733353614807,0.621614396572113,-0.15850308537483215
13.923011302947998,-0.36907759308815,-1.2453268766403198,1.0038528442382812,0.881780743598938,0.622377336025238,-0.15545128285884857
13.943115711212158,-0.36907759308815,-1.2453268766403198,1.0030899047851562,0.8848325610160828,0.622377336025238,-0.1520180106163025
13.963213443756104,-0.36907759308815,-1.2453268766403198,1.0019454956054688,0.8886472582817078,0.6219958662986755,-0.1501106321811676
13.983251333236694,-0.36907759308815,-1.2453268766403198,1.0011825561523438,0.89131760597229,0.6219958662986755,-0.14705882966518402
14.003386974334717,-0.36907759308815,-1.2453268766403198,1.0008010864257812,0.8939879536628723,0.6219958662986755,-0.14438849687576294
14.023464441299438,-0.36907759308815,-1.2453268766403198,1.0008010864257812,0.8962767720222473,0.6219958662986755,-0.14362554252147675
14.04367208480835,-0.36907759308815,-1.2453268766403198,0.9996566772460938,0.8985656499862671,0.6219958662986755,-0.14209964871406555
14.063785314559937,-0.36907759308815,-1.2453268766403198,0.9988937377929688,0.9016174674034119,0.6235218048095703,-0.13942931592464447
14.083975791931152,-0.36907759308815,-1.2453268766403198,0.9985122680664062,0.9031433463096619,0.6239032745361328,-0.1367589831352234
14.104023218154907,-0.36907759308815,-1.2453268766403198,0.9977492690086365,0.9058136940002441,0.6242847442626953,-0.1367589831352234
14.124118566513062,-0.36907759308815,-1.2449454069137573,0.9969863295555115,0.9088655114173889,0.6246662139892578,-0.1348516047000885
14.144192457199097,-0.36907759308815,-1.2449454069137573,0.996604859828949,0.9103913903236389,0.6246662139892578,-0.13218127191066742
14.164331674575806,-0.36907759308815,-1.2449454069137573,0.995841920375824,0.9134432077407837,0.6246662139892578,-0.12912946939468384
14.184393882751465,-0.36907759308815,-1.2449454069137573,0.9946975111961365,0.9157320261001587,0.6250476837158203,-0.12645913660526276
14.204471588134766,-0.36907759308815,-1.2449454069137573,0.9935530424118042,0.9180209040641785,0.6250476837158203,-0.12569619715213776
14.224557161331177,-0.36907759308815,-1.2449454069137573,0.9927901029586792,0.9195467829704285,0.6250476837158203,-0.12417028844356537
14.24463176727295,-0.36907759308815,-1.2449454069137573,0.9920271635055542,0.9218356609344482,0.6250476837158203,-0.12111848592758179
14.264724493026733,-0.36907759308815,-1.2449454069137573,0.9916456937789917,0.924124538898468,0.6250476837158203,-0.1184481605887413
14.28480076789856,-0.36907759308815,-1.2449454069137573,0.9912642240524292,0.9245060086250305,0.6250476837158203,-0.1180666834115982
14.30503535270691,-0.36907759308815,-1.2449454069137573,0.9912642240524292,0.927176296710968,0.6250476837158203,-0.11730372905731201
14.325125455856323,-0.36907759308815,-1.2441824674606323,0.9905012845993042,0.9302281141281128,0.6258106231689453,-0.11539635062217712
14.345197439193726,-0.36907759308815,-1.2438009977340698,0.9897382855415344,0.9321355223655701,0.6258106231689453,-0.11310750246047974
14.365284442901611,-0.36907759308815,-1.2434195280075073,0.9889753460884094,0.9348058104515076,0.6269550919532776,-0.11158160120248795
14.385395288467407,-0.36907759308815,-1.2434195280075073,0.9885938763618469,0.9367132186889648,0.6273365616798401,-0.11043716967105865
14.405466079711914,-0.36907759308815,-1.2434195280075073,0.9878309369087219,0.9382390975952148,0.6269550919532776,-0.10929274559020996
14.425566911697388,-0.36907759308815,-1.2434195280075073,0.9863049983978271,0.9401465058326721,0.6277180314064026,-0.10662241280078888
14.44564414024353,-0.36907759308815,-1.2430380582809448,0.9863049983978271,0.9409094452857971,0.6269550919532776,-0.10433356463909149
14.465790033340454,-0.36907759308815,-1.2430380582809448,0.9855420589447021,0.9428167939186096,0.6273365616798401,-0.1024261862039566
14.485795021057129,-0.36907759308815,-1.2430380582809448,0.9847791194915771,0.9443427324295044,0.6277180314064026,-0.10051880776882172
