liuyurong129/humanoid-gym/humanoid/data/actual_q_20250524-021701.csv
timestamp,joint_1,joint_2,joint_3,joint_4,joint_5,joint_6
3.886222839355469e-05,-0.00019073777366429567,0.0013351644156500697,-0.0009536888683214784,-0.000572213320992887,-0.00019073777366429567,-0.00019073777366429567
0.020154953002929688,-0.00019073777366429567,0.0013351644156500697,-0.0009536888683214784,-0.00019073777366429567,-0.00019073777366429567,-0.00019073777366429567
0.040180206298828125,-0.00019073777366429567,0.0013351644156500697,-0.0009536888683214784,-0.00019073777366429567,-0.00019073777366429567,-0.00019073777366429567
0.06025099754333496,-0.00019073777366429567,0.0013351644156500697,-0.000572213320992887,-0.00019073777366429567,0.00019073777366429567,-0.00019073777366429567
0.08030414581298828,-0.00019073777366429567,0.000572213320992887,-0.000572213320992887,-0.000572213320992887,-0.00019073777366429567,-0.00019073777366429567
0.10058879852294922,-0.00019073777366429567,0.00019073777366429567,0.00019073777366429567,-0.000572213320992887,-0.00019073777366429567,-0.00019073777366429567
0.12072324752807617,-0.00019073777366429567,-0.0020981156267225742,0.002861066721379757,-0.000572213320992887,-0.00019073777366429567,-0.000572213320992887
0.14076805114746094,-0.00019073777366429567,-0.005149920005351305,0.00476844422519207,-0.000572213320992887,0.00019073777366429567,-0.0009536888683214784
0.16081523895263672,-0.00019073777366429567,-0.005912871100008488,0.007057297509163618,-0.000572213320992887,-0.00019073777366429567,-0.001716639962978661
0.1809227466583252,-0.00019073777366429567,-0.00667582219466567,0.009727626107633114,-0.0009536888683214784,-0.00019073777366429567,-0.0036240178160369396
0.20097875595092773,-0.00019073777366429567,-0.007057297509163618,0.01201647985726595,-0.001716639962978661,-0.00019073777366429567,-0.004005493130534887
0.22106385231018066,-0.00019073777366429567,-0.0078202486038208,0.013542382046580315,-0.0024795911740511656,-0.00019073777366429567,-0.005149920005351305
0.24116802215576172,-0.00019073777366429567,-0.008964675478637218,0.016212711110711098,-0.0032425422687083483,-0.00019073777366429567,-0.007438773289322853
0.26129770278930664,-0.00019073777366429567,-0.010490577667951584,0.01888304017484188,-0.004005493130534887,0.00019073777366429567,-0.008201723918318748
0.2813704013824463,-0.00019073777366429567,-0.01201647985726595,0.020027466118335724,-0.004386968910694122,-0.00019073777366429567,-0.010109102353453636
0.30223703384399414,-0.000572213320992887,-0.013923857361078262,0.023079270496964455,-0.005149920005351305,0.00019073777366429567,-0.011635004542768002
0.3223288059234619,-0.0009536888683214784,-0.01583123579621315,0.026131074875593185,-0.007438773289322853,0.00019073777366429567,-0.013160906732082367
0.3424217700958252,-0.0013351644156500697,-0.01888304017484188,0.029182879254221916,-0.0078202486038208,0.00019073777366429567,-0.01583123579621315
0.3624846935272217,-0.0013351644156500697,-0.02079041674733162,0.03147173300385475,-0.008964675478637218,0.00019073777366429567,-0.016975661739706993
0.38262343406677246,-0.0013351644156500697,-0.02231631986796856,0.034142062067985535,-0.010109102353453636,-0.00019073777366429567,-0.01888304017484188
0.40265703201293945,-0.0020981156267225742,-0.023460745811462402,0.03681239113211632,-0.01125352829694748,-0.00019073777366429567,-0.019645990803837776
0.4227612018585205,-0.002861066721379757,-0.024223696440458298,0.038719769567251205,-0.01125352829694748,0.000572213320992887,-0.021171892061829567
0.4428708553314209,-0.0032425422687083483,-0.02536812424659729,0.04100862145423889,-0.011635004542768002,0.000572213320992887,-0.022697795182466507
0.46297264099121094,-0.0032425422687083483,-0.027656977996230125,0.04406042397022247,-0.01201647985726595,0.00019073777366429567,-0.023460745811462402
0.4831399917602539,-0.0032425422687083483,-0.02880140393972397,0.046730753034353256,-0.012397955171763897,0.00019073777366429567,-0.024223696440458298
0.5031859874725342,-0.0032425422687083483,-0.02994582988321781,0.048638131469488144,-0.013542382046580315,0.00019073777366429567,-0.026131074875593185
0.5234105587005615,-0.0032425422687083483,-0.03147173300385475,0.05130846053361893,-0.01506828423589468,0.00019073777366429567,-0.02689402550458908
0.5435147285461426,-0.0036240178160369396,-0.03376058489084244,0.05397878959774971,-0.01583123579621315,0.00019073777366429567,-0.028038453310728073
0.563568115234375,-0.004005493130534887,-0.035667963325977325,0.05664911866188049,-0.016594186425209045,0.000572213320992887,-0.03032730519771576
0.5836942195892334,-0.004386968910694122,-0.03681239113211632,0.05893797054886818,-0.018501564860343933,0.0009536888683214784,-0.031090257689356804
0.6037662029266357,-0.00476844422519207,-0.038719769567251205,0.06275273114442825,-0.01888304017484188,0.0009536888683214784,-0.03376058489084244
0.6238491535186768,-0.00476844422519207,-0.040627144277095795,0.06542305648326874,-0.019645990803837776,0.0009536888683214784,-0.03452353551983833
0.6438841819763184,-0.005149920005351305,-0.042153049260377884,0.06694895774126053,-0.019645990803837776,0.000572213320992887,-0.03643091395497322
0.6644167900085449,-0.005531395319849253,-0.04291599988937378,0.06961929053068161,-0.02040894143283367,0.00019073777366429567,-0.03795681521296501
0.6845109462738037,-0.005531395319849253,-0.04406042397022247,0.0722896158695221,-0.02193484455347061,0.00019073777366429567,-0.0394827201962471
0.7045953273773193,-0.005531395319849253,-0.04558632895350456,0.07457847148180008,-0.023079270496964455,0.000572213320992887,-0.04139009863138199
0.7246456146240234,-0.005912871100008488,-0.04711223021149635,0.07648584991693497,-0.02384222112596035,0.000572213320992887,-0.04291599988937378
0.7446980476379395,-0.006294346414506435,-0.04940108209848404,0.07915617525577545,-0.02536812424659729,0.000572213320992887,-0.04444190114736557
0.764894962310791,-0.007438773289322853,-0.05207141116261482,0.08258945494890213,-0.026512550190091133,0.0009536888683214784,-0.04558632895350456
0.7850644588470459,-0.0078202486038208,-0.05397878959774971,0.08525978773832321,-0.02689402550458908,0.0009536888683214784,-0.04634927958250046
0.8050415515899658,-0.007438773289322853,-0.056267641484737396,0.0879301130771637,-0.02689402550458908,0.000572213320992887,-0.048638131469488144
0.8252394199371338,-0.0078202486038208,-0.059319447726011276,0.09212634712457657,-0.027656977996230125,0.00019073777366429567,-0.049782559275627136
0.8452401161193848,-0.0078202486038208,-0.06198977679014206,0.09594109654426575,-0.02841992862522602,0.00019073777366429567,-0.05092698708176613
0.8653154373168945,-0.008201723918318748,-0.06351567804813385,0.09861142933368683,-0.029564354568719864,0.00019073777366429567,-0.05283436179161072
0.8854095935821533,-0.008964675478637218,-0.06542305648326874,0.10128175467252731,-0.03032730519771576,0.0009536888683214784,-0.05359731614589691
0.9055118560791016,-0.008964675478637218,-0.06771191209554672,0.10471503436565399,-0.031090257689356804,0.0009536888683214784,-0.0558861680328846
0.9256443977355957,-0.009346150793135166,-0.07000076025724411,0.10662241280078888,-0.032616160809993744,0.0009536888683214784,-0.05703059583902359
0.9457581043243408,-0.009727626107633114,-0.0722896158695221,0.10891126841306686,-0.03452353551983833,0.0009536888683214784,-0.05855649709701538
0.9658255577087402,-0.009727626107633114,-0.07495994865894318,0.11234454810619354,-0.03490501269698143,0.0009536888683214784,-0.06084534898400307
0.9858887195587158,-0.010109102353453636,-0.07686731964349747,0.11501488089561462,-0.03528648987412453,0.000572213320992887,-0.06351567804813385
1.0059654712677002,-0.010109102353453636,-0.07877469807863235,0.11730372905731201,-0.03681239113211632,0.000572213320992887,-0.06466010212898254
1.0260341167449951,-0.010872052982449532,-0.08144503086805344,0.12073700875043869,-0.03757534176111221,0.0009536888683214784,-0.06694895774126053
1.0461111068725586,-0.010872052982449532,-0.08449683338403702,0.12417028844356537,-0.03833829239010811,0.0009536888683214784,-0.06847485899925232
1.0661919116973877,-0.01125352829694748,-0.0883115902543068,0.12645913660526276,-0.038719769567251205,0.0009536888683214784,-0.07038223743438721
1.0863864421844482,-0.011635004542768002,-0.09174486994743347,0.12912946939468384,-0.040245670825242996,0.0009536888683214784,-0.071908138692379
1.1064164638519287,-0.01201647985726595,-0.09441519528627396,0.13218127191066742,-0.04177157208323479,0.0009536888683214784,-0.07343403995037079
1.1265311241149902,-0.012397955171763897,-0.09632257372140884,0.1340886503458023,-0.042153049260377884,0.0013351644156500697,-0.07610437273979187
1.146824836730957,-0.012779430486261845,-0.09861142933368683,0.1359960287809372,-0.04329747334122658,0.0009536888683214784,-0.07724879682064056
1.1669573783874512,-0.013160906732082367,-0.10090028494596481,0.13904783129692078,-0.04482337832450867,0.0009536888683214784,-0.07915617525577545
1.1870379447937012,-0.013160906732082367,-0.1039520874619484,0.14133669435977936,-0.04558632895350456,0.000572213320992887,-0.07991912961006165
1.2072625160217285,-0.013542382046580315,-0.10700388997793198,0.14438849687576294,-0.04596780240535736,0.0009536888683214784,-0.08258945494890213
1.2274549007415771,-0.01430533267557621,-0.10929274559020996,0.14858472347259521,-0.04634927958250046,0.0013351644156500697,-0.08373387902975082
1.247493028640747,-0.013923857361078262,-0.11081864684820175,0.1501106321811676,-0.046730753034353256,0.0013351644156500697,-0.0864042118191719
1.2675130367279053,-0.014686808921396732,-0.11387044936418533,0.15468832850456238,-0.048256658017635345,0.0013351644156500697,-0.0879301130771637
1.287658452987671,-0.01506828423589468,-0.11768520623445511,0.15774014592170715,-0.04940108209848404,0.0013351644156500697,-0.09060044586658478
1.3078067302703857,-0.01506828423589468,-0.12111848592758179,0.16041046380996704,-0.050164032727479935,0.0009536888683214784,-0.09250781685113907
1.3278443813323975,-0.01506828423589468,-0.12378881871700287,0.16269932687282562,-0.05207141116261482,0.0009536888683214784,-0.09441519528627396
1.3479359149932861,-0.015449759550392628,-0.12569619715213776,0.1653696447610855,-0.05283436179161072,0.000572213320992887,-0.09555962681770325
1.368011236190796,-0.015449759550392628,-0.12684062123298645,0.16880293190479279,-0.053215838968753815,0.0009536888683214784,-0.09861142933368683
1.3880679607391357,-0.01583123579621315,-0.12951095402240753,0.17109178006649017,-0.05397878959774971,0.0013351644156500697,-0.10013733059167862
1.4081506729125977,-0.016212711110711098,-0.13218127191066742,0.17528800666332245,-0.05436026677489281,0.0013351644156500697,-0.1024261862039566
1.428215742111206,-0.016212711110711098,-0.1340886503458023,0.17795833945274353,-0.0555046908557415,0.0013351644156500697,-0.10433356463909149
1.4482710361480713,-0.016212711110711098,-0.1356145590543747,0.1802472025156021,-0.056267641484737396,0.0009536888683214784,-0.10547798871994019
1.4684340953826904,-0.016594186425209045,-0.13752193748950958,0.182917520403862,-0.05703059583902359,0.0009536888683214784,-0.10662241280078888
1.4885220527648926,-0.01773861236870289,-0.14057374000549316,0.18635080754756927,-0.05741206929087639,0.0009536888683214784,-0.10891126841306686
1.508599042892456,-0.018120087683200836,-0.14362554252147675,0.18902114033699036,-0.05855649709701538,0.0013351644156500697,-0.11043716967105865
1.5286381244659424,-0.018120087683200836,-0.14667734503746033,0.19130998849868774,-0.06008239835500717,0.0009536888683214784,-0.11272602528333664
1.5487315654754639,-0.018120087683200836,-0.1497291475534439,0.19398032128810883,-0.06084534898400307,0.0009536888683214784,-0.11463340371847153
1.5689036846160889,-0.018120087683200836,-0.1527809500694275,0.1977950781583786,-0.06237125024199486,0.000572213320992887,-0.11730372905731201
1.5888936519622803,-0.018120087683200836,-0.15354390442371368,0.1997024416923523,-0.06351567804813385,0.0009536888683214784,-0.1188296303153038
1.609668254852295,-0.018120087683200836,-0.15735866129398346,0.20237277448177338,-0.06389715522527695,0.0009536888683214784,-0.12149996310472488
1.629755973815918,-0.01888304017484188,-0.15964750945568085,0.20580606162548065,-0.06427863240242004,0.0009536888683214784,-0.12455176562070847
1.6498188972473145,-0.019645990803837776,-0.16346226632595062,0.20847637951374054,-0.06466010212898254,0.0013351644156500697,-0.12531471252441406
1.6698698997497559,-0.019645990803837776,-0.1668955534696579,0.21076524257659912,-0.06504157930612564,0.0009536888683214784,-0.12836651504039764
1.689957618713379,-0.020027466118335724,-0.16994735598564148,0.2141985148191452,-0.06656748056411743,0.0009536888683214784,-0.12989242374897003
1.710054874420166,-0.020027466118335724,-0.17261768877506256,0.21763180196285248,-0.06809338182210922,0.00019073777366429567,-0.13218127191066742
1.7301316261291504,-0.020027466118335724,-0.17490653693675995,0.22106507420539856,-0.06885633617639542,0.00019073777366429567,-0.1333257108926773
1.7502202987670898,-0.020027466118335724,-0.17795833945274353,0.22373540699481964,-0.06961929053068161,0.00019073777366429567,-0.1359960287809372
1.7703325748443604,-0.02040894143283367,-0.1806286722421646,0.22716869413852692,-0.0711451917886734,0.000572213320992887,-0.13790340721607208
1.790442943572998,-0.02040894143283367,-0.1844434291124344,0.2309834510087967,-0.0715266615152359,0.000572213320992887,-0.13981078565120697
1.8104546070098877,-0.02079041674733162,-0.18749523162841797,0.23365376889705658,-0.071908138692379,0.0009536888683214784,-0.14209964871406555
1.8305490016937256,-0.021553369238972664,-0.19054703414440155,0.23746852576732635,-0.071908138692379,0.0009536888683214784,-0.14438849687576294
1.8508954048156738,-0.02231631986796856,-0.19321736693382263,0.24166475236415863,-0.0722896158695221,0.0009536888683214784,-0.14744029939174652
1.8709335327148438,-0.02231631986796856,-0.19512474536895752,0.2439536154270172,-0.07343403995037079,-0.00019073777366429567,-0.1493476778268814
1.8910510540008545,-0.02231631986796856,-0.1985580176115036,0.2481498420238495,-0.07495994865894318,-0.0013351644156500697,-0.1516365259885788
1.9111392498016357,-0.02231631986796856,-0.20275425910949707,0.25158312916755676,-0.07572289556264877,-0.001716639962978661,-0.15468832850456238
1.931180477142334,-0.022697795182466507,-0.20656901597976685,0.25463491678237915,-0.07724879682064056,-0.001716639962978661,-0.15583276748657227
1.9512720108032227,-0.023460745811462402,-0.21038375794887543,0.2580682039260864,-0.07839322835206985,-0.0013351644156500697,-0.15812161564826965
1.9713644981384277,-0.023460745811462402,-0.2138170450925827,0.2615014910697937,-0.07915617525577545,-0.0013351644156500697,-0.15926603972911835
1.9914591312408447,-0.023460745811462402,-0.21686884760856628,0.265697717666626,-0.07915617525577545,-0.0013351644156500697,-0.16155488789081573
2.0114996433258057,-0.024223696440458298,-0.22030213475227356,0.26951247453689575,-0.07953765243291855,-0.0013351644156500697,-0.16308079659938812
2.0317113399505615,-0.024986648932099342,-0.22373540699481964,0.2740901708602905,-0.08030059933662415,-0.0013351644156500697,-0.1661325991153717
2.0519189834594727,-0.02536812424659729,-0.22793163359165192,0.2782863974571228,-0.08106355369091034,-0.0013351644156500697,-0.1684214472770691
2.0719568729400635,-0.02536812424659729,-0.2317463904619217,0.2817196846008301,-0.08258945494890213,-0.0020981156267225742,-0.17071031033992767
2.0919454097747803,-0.02536812424659729,-0.23556114733219147,0.28591591119766235,-0.08297093212604523,-0.0024795911740511656,-0.17376211285591125
2.112077236175537,-0.02536812424659729,-0.23785001039505005,0.28973066806793213,-0.08411535620689392,-0.002861066721379757,-0.17719538509845734
2.1321167945861816,-0.02536812424659729,-0.24052032828330994,0.2924010157585144,-0.0864042118191719,-0.002861066721379757,-0.17833982408046722
2.1522138118743896,-0.025749599561095238,-0.2443350851535797,0.2958342730998993,-0.086785688996315,-0.0024795911740511656,-0.1813916265964508
2.1723151206970215,-0.026131074875593185,-0.24967575073242188,0.30041199922561646,-0.0871671661734581,-0.0020981156267225742,-0.182917520403862
2.1924235820770264,-0.026512550190091133,-0.25387197732925415,0.30308231711387634,-0.08869306743144989,-0.0020981156267225742,-0.1848248988389969
2.212427854537964,-0.026512550190091133,-0.2580682039260864,0.3084229826927185,-0.09021896868944168,-0.0020981156267225742,-0.18787670135498047
2.2326431274414062,-0.026512550190091133,-0.2615014910697937,0.3114747703075409,-0.09060044586658478,-0.002861066721379757,-0.19054703414440155
2.252595901489258,-0.02727550081908703,-0.265697717666626,0.31567102670669556,-0.09136339277029037,-0.002861066721379757,-0.19359883666038513
2.27268123626709,-0.027656977996230125,-0.26913100481033325,0.32024872303009033,-0.09288929402828217,-0.0032425422687083483,-0.1970321238040924
2.292764663696289,-0.027656977996230125,-0.2725642919540405,0.3236820101737976,-0.09403372555971146,-0.0032425422687083483,-0.200083926320076
2.3129334449768066,-0.027656977996230125,-0.2759975492954254,0.3263523280620575,-0.09441519528627396,-0.0036240178160369396,-0.20237277448177338
2.333061933517456,-0.02841992862522602,-0.2798123061656952,0.32940414547920227,-0.09555962681770325,-0.0032425422687083483,-0.20389868319034576
2.353147506713867,-0.02880140393972397,-0.28324559330940247,0.33436331152915955,-0.09670405089855194,-0.0032425422687083483,-0.20695048570632935
2.373304605484009,-0.02880140393972397,-0.28706035017967224,0.3374151289463043,-0.09746700525283813,-0.0032425422687083483,-0.20847637951374054
2.3933660984039307,-0.029564354568719864,-0.2904936373233795,0.3400854468345642,-0.09784847497940063,-0.0032425422687083483,-0.21076524257659912
2.4134864807128906,-0.029564354568719864,-0.2943083941936493,0.343900203704834,-0.09822995215654373,-0.0036240178160369396,-0.2130540907382965
2.4335219860076904,-0.029564354568719864,-0.29812315106391907,0.34885939955711365,-0.09899290651082993,-0.004005493130534887,-0.2153429538011551
2.4535882472991943,-0.029564354568719864,-0.30270084738731384,0.35229265689849854,-0.10013733059167862,-0.005149920005351305,-0.21915769577026367
2.473727226257324,-0.02994582988321781,-0.3057526648044586,0.3561074137687683,-0.10090028494596481,-0.005149920005351305,-0.22220951318740845
2.493875741958618,-0.03032730519771576,-0.3099488914012909,0.3603036403656006,-0.10166323184967041,-0.005531395319849253,-0.22449836134910583
2.5139408111572266,-0.030708782374858856,-0.3133821487426758,0.36449989676475525,-0.1028076633810997,-0.005531395319849253,-0.22678720951080322
2.533977508544922,-0.03032730519771576,-0.31681543588638306,0.36678874492645264,-0.1035706102848053,-0.005531395319849253,-0.2294575423002243
2.554111957550049,-0.03032730519771576,-0.31948578357696533,0.3706035017967224,-0.10471503436565399,-0.006294346414506435,-0.23212787508964539
2.574309825897217,-0.030708782374858856,-0.3233005404472351,0.3751811981201172,-0.10547798871994019,-0.006294346414506435,-0.23441672325134277
2.59439754486084,-0.030708782374858856,-0.3263523280620575,0.3778515160083771,-0.10585946589708328,-0.006294346414506435,-0.23708705604076385
2.6145219802856445,-0.030708782374858856,-0.33016708493232727,0.38166627287864685,-0.10624094307422638,-0.006294346414506435,-0.23975738883018494
2.63460373878479,-0.03147173300385475,-0.33436331152915955,0.3866254687309265,-0.10662241280078888,-0.006294346414506435,-0.24319066107273102
2.654721736907959,-0.03223468363285065,-0.3377965986728668,0.3892957866191864,-0.10814831405878067,-0.006294346414506435,-0.2462424635887146
2.6747183799743652,-0.032616160809993744,-0.3419928252696991,0.39387351274490356,-0.10891126841306686,-0.00667582219466567,-0.24967575073242188
2.694866180419922,-0.032616160809993744,-0.34618905186653137,0.39845120906829834,-0.10967422276735306,-0.007438773289322853,-0.25310903787612915
2.7148985862731934,-0.032616160809993744,-0.34962233901023865,0.4022659659385681,-0.11081864684820175,-0.0078202486038208,-0.2569237947463989
2.735037326812744,-0.032616160809993744,-0.3530556261539459,0.4053177833557129,-0.11272602528333664,-0.00858320016413927,-0.2599755823612213
2.755096197128296,-0.032616160809993744,-0.3568703830242157,0.40989547967910767,-0.11348897218704224,-0.00858320016413927,-0.2626459002494812
2.775151252746582,-0.032616160809993744,-0.361829549074173,0.41561761498451233,-0.11463340371847153,-0.00858320016413927,-0.264934778213501
2.7952463626861572,-0.032616160809993744,-0.36526283621788025,0.4186694025993347,-0.11577782779932022,-0.00858320016413927,-0.26760509610176086
2.8152873516082764,-0.03299763426184654,-0.3694590628147125,0.4240100681781769,-0.11615930497646332,-0.00858320016413927,-0.27103838324546814
2.835360288619995,-0.03337911143898964,-0.3744182586669922,0.42858776450157166,-0.11654078215360641,-0.00858320016413927,-0.273708701133728
2.85552978515625,-0.03376058489084244,-0.37823301553726196,0.4339284300804138,-0.11692225188016891,-0.009346150793135166,-0.2763790488243103
2.8756277561187744,-0.03376058489084244,-0.38281071186065674,0.4381246566772461,-0.11730372905731201,-0.009727626107633114,-0.2798123061656952
2.8957247734069824,-0.034142062067985535,-0.3873884081840515,0.44270238280296326,-0.1180666834115982,-0.010872052982449532,-0.28362706303596497
2.9158518314361572,-0.03452353551983833,-0.3923476040363312,0.4484245181083679,-0.1199740618467331,-0.01125352829694748,-0.28706035017967224
2.935908079147339,-0.03452353551983833,-0.39578089118003845,0.4518577754497528,-0.12111848592758179,-0.01201647985726595,-0.2904936373233795
2.956052780151367,-0.03452353551983833,-0.39921414852142334,0.4556725323200226,-0.12226291000843048,-0.012779430486261845,-0.2943083941936493
2.976177453994751,-0.03452353551983833,-0.404936283826828,0.46101319789886475,-0.12340734153985977,-0.013160906732082367,-0.2973601818084717
2.9962575435638428,-0.03452353551983833,-0.40989547967910767,0.4640650153160095,-0.12378881871700287,-0.013542382046580315,-0.30155640840530396
3.016411542892456,-0.03452353551983833,-0.41371023654937744,0.4678797721862793,-0.12417028844356537,-0.013923857361078262,-0.30537116527557373
3.036499261856079,-0.03452353551983833,-0.4175249934196472,0.4716945290565491,-0.12531471252441406,-0.013923857361078262,-0.3099488914012909
3.0566024780273438,-0.03452353551983833,-0.4217212200164795,0.47627222537994385,-0.12645913660526276,-0.01430533267557621,-0.31414511799812317
3.076659917831421,-0.03490501269698143,-0.42629891633987427,0.4804684519767761,-0.12760357558727264,-0.01430533267557621,-0.31757840514183044
3.0968072414398193,-0.03452353551983833,-0.43049514293670654,0.4854276478290558,-0.12836651504039764,-0.014686808921396732,-0.3213931620121002
3.116842746734619,-0.03490501269698143,-0.4339284300804138,0.49076828360557556,-0.12912946939468384,-0.014686808921396732,-0.3255893886089325
3.1369102001190186,-0.03490501269698143,-0.4381246566772461,0.4957274794578552,-0.13065537810325623,-0.015449759550392628,-0.32940414547920227
3.1569597721099854,-0.035667963325977325,-0.44270238280296326,0.5014495849609375,-0.13103684782981873,-0.01583123579621315,-0.33398184180259705
3.1770782470703125,-0.035667963325977325,-0.44804301857948303,0.5079346895217896,-0.13179980218410492,-0.016594186425209045,-0.3381780683994293
3.197139024734497,-0.035667963325977325,-0.4530022144317627,0.5151827335357666,-0.13179980218410492,-0.01735713705420494,-0.3416113555431366
3.217210054397583,-0.035667963325977325,-0.45796138048171997,0.5209048390388489,-0.1325627565383911,-0.01926451548933983,-0.3442816734313965
3.237375497817993,-0.03604944050312042,-0.46330204606056213,0.5266270041465759,-0.1333257108926773,-0.02040894143283367,-0.34885939955711365
3.257469415664673,-0.03604944050312042,-0.4686427116394043,0.534637987613678,-0.134470134973526,-0.021553369238972664,-0.3534370958805084
3.2775449752807617,-0.03643091395497322,-0.47474631667137146,0.541886031627655,-0.1356145590543747,-0.02193484455347061,-0.3583962619304657
3.2976067066192627,-0.03643091395497322,-0.4808499217033386,0.5487525463104248,-0.1371404528617859,-0.022697795182466507,-0.36335545778274536
3.3177292346954346,-0.03643091395497322,-0.4865720570087433,0.5563820600509644,-0.13866636157035828,-0.023079270496964455,-0.36793315410614014
3.3378169536590576,-0.03643091395497322,-0.49305713176727295,0.5651560425758362,-0.13904783129692078,-0.02384222112596035,-0.3725108802318573
3.3578877449035645,-0.03643091395497322,-0.4983977973461151,0.572022557258606,-0.13981078565120697,-0.024986648932099342,-0.3767071068286896
3.3779637813568115,-0.03643091395497322,-0.5045014023780823,0.5788891315460205,-0.14019227027893066,-0.025749599561095238,-0.38166627287864685
3.3982207775115967,-0.03643091395497322,-0.5109865069389343,0.5880445837974548,-0.14095520973205566,-0.026512550190091133,-0.3866254687309265
3.4183037281036377,-0.03643091395497322,-0.5182345509529114,0.5987258553504944,-0.14209964871406555,-0.02689402550458908,-0.3915846347808838
3.438436269760132,-0.03643091395497322,-0.5251010656356812,0.6071183085441589,-0.14248111844062805,-0.028038453310728073,-0.39616236090660095
3.4584829807281494,-0.03643091395497322,-0.5315861701965332,0.6166552305221558,-0.14286258816719055,-0.029564354568719864,-0.4022659659385681
3.478583574295044,-0.03643091395497322,-0.5376898050308228,0.6246662139892578,-0.14324407279491425,-0.02994582988321781,-0.4072251319885254
3.498706579208374,-0.03643091395497322,-0.5449378490447998,0.6345845460891724,-0.14362554252147675,-0.03147173300385475,-0.41294726729393005
3.5187816619873047,-0.03643091395497322,-0.5518043637275696,0.6429770588874817,-0.14476996660232544,-0.032616160809993744,-0.4186694025993347
3.5387957096099854,-0.03643091395497322,-0.5590524077415466,0.649462103843689,-0.14553292095661163,-0.03376058489084244,-0.42515450716018677
3.5589118003845215,-0.03643091395497322,-0.5670633912086487,0.657473087310791,-0.14629587531089783,-0.03604944050312042,-0.43163958191871643
3.5790040493011475,-0.03643091395497322,-0.5739299654960632,0.6635767221450806,-0.14629587531089783,-0.03681239113211632,-0.4388876259326935
3.59902286529541,-0.03643091395497322,-0.5804150700569153,0.6677729487419128,-0.14629587531089783,-0.037193864583969116,-0.44651713967323303
3.619123935699463,-0.03643091395497322,-0.5869001150131226,0.6727321147918701,-0.14667734503746033,-0.03795681521296501,-0.4526207447052002
3.639263391494751,-0.03643091395497322,-0.5941481590270996,0.6792172193527222,-0.14705882966518402,-0.038719769567251205,-0.45948728919029236
3.659311294555664,-0.03643091395497322,-0.5994887948036194,0.6845578551292419,-0.14744029939174652,-0.0394827201962471,-0.4659723937511444
3.679386615753174,-0.03643091395497322,-0.6036850810050964,0.6887540817260742,-0.14858472347259521,-0.040627144277095795,-0.4724574685096741
3.6995108127593994,-0.03604944050312042,-0.6074998378753662,0.6944762468338013,-0.1493476778268814,-0.04139009863138199,-0.47932401299476624
3.7196714878082275,-0.035667963325977325,-0.612077534198761,0.700579822063446,-0.1497291475534439,-0.04406042397022247,-0.4858091175556183
3.739677906036377,-0.03528648987412453,-0.6155108213424683,0.7047760486602783,-0.1501106321811676,-0.04634927958250046,-0.49382010102272034
3.760010004043579,-0.034142062067985535,-0.6177996397018433,0.7089722752571106,-0.1504921019077301,-0.04940108209848404,-0.5006866455078125
3.7800915241241455,-0.03337911143898964,-0.6212329268455505,0.7135500311851501,-0.1504921019077301,-0.051689937710762024,-0.508316159248352
3.800259828567505,-0.03223468363285065,-0.6235218048095703,0.7177462577819824,-0.1504921019077301,-0.05245288833975792,-0.5167086124420166
3.8202528953552246,-0.03147173300385475,-0.6258106231689453,0.7211795449256897,-0.1508735716342926,-0.05397878959774971,-0.5251010656356812
3.8403635025024414,-0.03032730519771576,-0.6288624405860901,0.724612832069397,-0.1516365259885788,-0.0551232174038887,-0.5327305793762207
3.8604633808135986,-0.02880140393972397,-0.6311513185501099,0.7291905283927917,-0.1520180106163025,-0.05664911866188049,-0.5407415628433228
3.880488872528076,-0.028038453310728073,-0.6330586671829224,0.7314793467521667,-0.152399480342865,-0.05855649709701538,-0.5502784848213196
3.900655508041382,-0.02689402550458908,-0.6349660754203796,0.734149694442749,-0.1527809500694275,-0.05970092490315437,-0.5601968169212341
3.9207470417022705,-0.024986648932099342,-0.6368734240531921,0.7375829815864563,-0.15316243469715118,-0.061226826161146164,-0.570496678352356
3.9408209323883057,-0.023079270496964455,-0.6383993029594421,0.7398717999458313,-0.15354390442371368,-0.06313420087099075,-0.5807965397834778
3.960899591445923,-0.02040894143283367,-0.6406881809234619,0.7425421476364136,-0.15354390442371368,-0.06580453366041183,-0.5918593406677246
3.9809772968292236,-0.018120087683200836,-0.6433585286140442,0.7463569045066833,-0.15354390442371368,-0.06847485899925232,-0.6021591424942017
4.001068830490112,-0.016212711110711098,-0.6452658772468567,0.7486457824707031,-0.15354390442371368,-0.0707637146115303,-0.613603413105011
4.0211262702941895,-0.013542382046580315,-0.647173285484314,0.7509346008300781,-0.15392538905143738,-0.07381551712751389,-0.6254291534423828
4.041273355484009,-0.010109102353453636,-0.6498435735702515,0.7539864182472229,-0.15392538905143738,-0.07724879682064056,-0.6376363635063171
4.061304330825806,-0.00667582219466567,-0.6525139212608337,0.7566567659378052,-0.15392538905143738,-0.08068207651376724,-0.6517509818077087
4.0813987255096436,-0.0024795911740511656,-0.654421329498291,0.7581826448440552,-0.15392538905143738,-0.08449683338403702,-0.6658655405044556
4.101590156555176,0.001716639962978661,-0.656710147857666,0.7600900530815125,-0.15392538905143738,-0.0883115902543068,-0.6784542798995972
4.121609449386597,0.005912871100008488,-0.6593804955482483,0.7623788714408875,-0.15392538905143738,-0.09250781685113907,-0.691042959690094
4.141724348068237,0.008964675478637218,-0.6605249047279358,0.7639048099517822,-0.15354390442371368,-0.09746700525283813,-0.7043945789337158
4.161818265914917,0.013542382046580315,-0.6620507836341858,0.7650492191314697,-0.15354390442371368,-0.1028076633810997,-0.7185091972351074
4.181934118270874,0.018501564860343933,-0.6635767221450806,0.7669565677642822,-0.15316243469715118,-0.10776684433221817,-0.732623815536499
4.201947212219238,0.02231631986796856,-0.6651026010513306,0.7681010365486145,-0.15316243469715118,-0.11348897218704224,-0.7471198439598083
4.22210168838501,0.02727550081908703,-0.6673914790153503,0.7696269154548645,-0.15316243469715118,-0.1188296303153038,-0.76276034116745
4.242155313491821,0.032616160809993744,-0.6689173579216003,0.7715343236923218,-0.152399480342865,-0.12378881871700287,-0.778019368648529
4.262283563613892,0.03757534176111221,-0.6704432964324951,0.7719157934188843,-0.1520180106163025,-0.13065537810325623,-0.7940413355827332
4.282339811325073,0.04291599988937378,-0.6723506450653076,0.7734416723251343,-0.1504921019077301,-0.13752193748950958,-0.8112077713012695
4.3024938106536865,0.048256658017635345,-0.6750209927558899,0.7749675512313843,-0.1497291475534439,-0.14286258816719055,-0.8264667987823486
4.322561025619507,0.05397878959774971,-0.6769283413887024,0.775730550289154,-0.1489662081003189,-0.152399480342865,-0.8436331748962402
4.342597246170044,0.05970092490315437,-0.6788357496261597,0.776493489742279,-0.14820325374603271,-0.16231784224510193,-0.8627069592475891
4.362684726715088,0.06580453366041183,-0.6815060377120972,0.778019368648529,-0.14629587531089783,-0.17071031033992767,-0.8802548050880432
4.3827598094940186,0.0715266615152359,-0.6837949156761169,0.7791637778282166,-0.14476996660232544,-0.1810101419687271,-0.8989471197128296
4.4035608768463135,0.07724879682064056,-0.6860837936401367,0.7799267768859863,-0.14286258816719055,-0.19207294285297394,-0.9172579646110535
4.423715353012085,0.08335240930318832,-0.6887540817260742,0.7810711860656738,-0.14171816408634186,-0.20160982012748718,-0.9348058104515076
4.443832635879517,0.08907453715801239,-0.6906614899635315,0.7822155952453613,-0.13981078565120697,-0.21152819693088531,-0.951972246170044
4.463839292526245,0.09517814964056015,-0.692568838596344,0.7829785346984863,-0.13752193748950958,-0.22335393726825714,-0.9714275002479553
4.484009504318237,0.10090028494596481,-0.6956206560134888,0.7841230034828186,-0.1348516047000885,-0.23403525352478027,-0.9912642240524292
4.504019737243652,0.10662241280078888,-0.698291003704071,0.7856488823890686,-0.1325627565383911,-0.2443350851535797,-1.0111008882522583
4.524081468582153,0.11196307092905045,-0.7009612917900085,0.7867932915687561,-0.13027389347553253,-0.25310903787612915,-1.0305562019348145
4.544131278991699,0.11768520623445511,-0.7036316394805908,0.7875562906265259,-0.12798504531383514,-0.265697717666626,-1.0496299266815186
4.56420636177063,0.12340734153985977,-0.7066834568977356,0.7887006998062134,-0.12607766687870026,-0.2748531401157379,-1.0690852403640747
4.584339380264282,0.12912946939468384,-0.7093538045883179,0.7898451089859009,-0.12302586436271667,-0.28667888045310974,-1.0889219045639038
4.604402542114258,0.134470134973526,-0.7120240926742554,0.7906080484390259,-0.12073700875043869,-0.29888609051704407,-1.107614278793335
4.624892950057983,0.13904783129692078,-0.7150759100914001,0.7917525172233582,-0.1180666834115982,-0.309567391872406,-1.1278324127197266
4.645037651062012,0.14400701224803925,-0.7185091972351074,0.7932783961296082,-0.11463340371847153,-0.32063019275665283,-1.1480506658554077
4.665100574493408,0.1489662081003189,-0.7215610146522522,0.7948042750358582,-0.11234454810619354,-0.33093002438545227,-1.1659799814224243
4.685187578201294,0.1527809500694275,-0.7242313027381897,0.7963302135467529,-0.10814831405878067,-0.3397039771080017,-1.1861982345581055
4.705240964889526,0.15697719156742096,-0.7265201807022095,0.7978560924530029,-0.1039520874619484,-0.35038527846336365,-1.2037460803985596
4.725305080413818,0.16079194843769073,-0.7299534678459167,0.7990005612373352,-0.10128175467252731,-0.3606851398944855,-1.2205309867858887
4.745464324951172,0.16422522068023682,-0.7330052852630615,0.8009079098701477,-0.09899290651082993,-0.369840532541275,-1.2376973628997803
4.765456914901733,0.1672770231962204,-0.734912633895874,0.8016708493232727,-0.09632257372140884,-0.3774700462818146,-1.2537193298339844
4.785540342330933,0.17032882571220398,-0.7379644513130188,0.802815318107605,-0.09288929402828217,-0.3839551508426666,-1.269359827041626
4.805635213851929,0.17376211285591125,-0.7406347990036011,0.80510413646698,-0.08907453715801239,-0.3912031650543213,-1.2834744453430176
4.825755834579468,0.17719538509845734,-0.7433050870895386,0.8054856061935425,-0.0871671661734581,-0.39616236090660095,-1.2964446544647217
4.845857620239258,0.17986571788787842,-0.7463569045066833,0.8073930144309998,-0.08411535620689392,-0.4015030264854431,-1.3105592727661133
4.865946531295776,0.1817730963230133,-0.7482643127441406,0.8085374236106873,-0.08220797777175903,-0.404936283826828,-1.3227664232254028
4.8861401081085205,0.1848248988389969,-0.7513160705566406,0.8104447722434998,-0.07915617525577545,-0.4079881012439728,-1.335736632347107
4.906200647354126,0.18749523162841797,-0.7543678879737854,0.811589241027832,-0.07686731964349747,-0.41332876682281494,-1.3471808433532715
4.926273822784424,0.18978407979011536,-0.7566567659378052,0.812352180480957,-0.07457847148180008,-0.4179064631462097,-1.3570992946624756
4.946322917938232,0.19207294285297394,-0.7589455842971802,0.8134965896606445,-0.0722896158695221,-0.422102689743042,-1.3681620359420776
4.966433525085449,0.19359883666038513,-0.7616159319877625,0.8154039978981018,-0.06885633617639542,-0.42553597688674927,-1.3769359588623047
4.986836671829224,0.1958876997232437,-0.7639048099517822,0.8161669373512268,-0.06771191209554672,-0.42935073375701904,-1.3864728212356567
5.0069358348846436,0.1974135935306549,-0.7658121585845947,0.8176928162574768,-0.06542305648326874,-0.4331654906272888,-1.3967727422714233
5.027031421661377,0.1997024416923523,-0.768482506275177,0.8188372850418091,-0.06351567804813385,-0.4365987777709961,-1.404402256011963
5.04706072807312,0.20160982012748718,-0.770771324634552,0.8199816942214966,-0.06237125024199486,-0.4396505653858185,-1.41317617893219
5.067145109176636,0.20237277448177338,-0.7726787328720093,0.8218890428543091,-0.06046387553215027,-0.44270238280296326,-1.4215686321258545
5.087233781814575,0.20428015291690826,-0.7745860815048218,0.8226520419120789,-0.05703059583902359,-0.44537270069122314,-1.428435206413269
5.107287883758545,0.20580606162548065,-0.776493489742279,0.8237964510917664,-0.05397878959774971,-0.44651713967323303,-1.436446189880371
5.127455234527588,0.20733195543289185,-0.778782308101654,0.8249408602714539,-0.05245288833975792,-0.4484245181083679,-1.4425498247146606
5.147619962692261,0.20809490978717804,-0.7810711860656738,0.8260852694511414,-0.050164032727479935,-0.4495689272880554,-1.4494163990020752
5.167645215988159,0.21038375794887543,-0.7833600640296936,0.8268482685089111,-0.049782559275627136,-0.4510948359966278,-1.4555199146270752
5.187702417373657,0.21114671230316162,-0.7852674126625061,0.8287556171417236,-0.04787518084049225,-0.4533836841583252,-1.4631494283676147
5.208028793334961,0.21229113638401031,-0.7864118218421936,0.8295185565948486,-0.046730753034353256,-0.4552910625934601,-1.4681086540222168
5.2282421588897705,0.2134355753660202,-0.7883192300796509,0.8302815556526184,-0.043678950518369675,-0.4556725323200226,-1.4738308191299438
5.24831223487854,0.2141985148191452,-0.7906080484390259,0.8310444951057434,-0.042153049260377884,-0.4560540020465851,-1.4784084558486938
5.268312454223633,0.2153429538011551,-0.7917525172233582,0.8321889042854309,-0.04177157208323479,-0.45719844102859497,-1.4837491512298584
5.288503408432007,0.2161058932542801,-0.7932783961296082,0.8329518437385559,-0.040627144277095795,-0.45757991075515747,-1.489089846611023
5.3086302280426025,0.21686884760856628,-0.7944228053092957,0.8340963125228882,-0.038719769567251205,-0.45948728919029236,-1.4932860136032104
5.328667402267456,0.21839475631713867,-0.7967116832733154,0.8352407217025757,-0.03795681521296501,-0.46101319789886475,-1.497100830078125
5.348723888397217,0.21877622604370117,-0.7986190319061279,0.8363851308822632,-0.03604944050312042,-0.46177613735198975,-1.5020599365234375
5.368808269500732,0.21953918039798737,-0.7997635006904602,0.8367666006088257,-0.035667963325977325,-0.46292057633399963,-1.5054932832717896
5.388960123062134,0.22030213475227356,-0.8009079098701477,0.8375295400619507,-0.03223468363285065,-0.46368351578712463,-1.5108338594436646
5.409048795700073,0.22106507420539856,-0.802815318107605,0.8382925391197205,-0.03223468363285065,-0.464446485042572,-1.5127413272857666
5.429065465927124,0.22144655883312225,-0.80357825756073,0.839436948299408,-0.03185320645570755,-0.465209424495697,-1.5165560245513916
5.449239730834961,0.22144655883312225,-0.8047226667404175,0.8398184180259705,-0.03223468363285065,-0.465209424495697,-1.5196079015731812
5.469251394271851,0.22182802855968475,-0.8054856061935425,0.840199887752533,-0.03147173300385475,-0.465209424495697,-1.5226596593856812
5.489515781402588,0.22259098291397095,-0.80663001537323,0.8405813574790955,-0.02994582988321781,-0.4659723937511444,-1.5253299474716187
5.509496450424194,0.22259098291397095,-0.8077744841575623,0.840962827205658,-0.028038453310728073,-0.4663538634777069,-1.5280003547668457
5.529579162597656,0.22259098291397095,-0.8081559538841248,0.8413442969322205,-0.02689402550458908,-0.4663538634777069,-1.5302891731262207
5.54970908164978,0.22373540699481964,-0.8093003630638123,0.8413442969322205,-0.026512550190091133,-0.4674982726573944,-1.5318150520324707
5.569764137268066,0.22411687672138214,-0.8096818327903748,0.841725766658783,-0.025749599561095238,-0.4678797721862793,-1.5344853401184082
5.589821100234985,0.22449836134910583,-0.8112077713012695,0.841725766658783,-0.02536812424659729,-0.4674982726573944,-1.5383001565933228
5.610175609588623,0.22449836134910583,-0.812352180480957,0.8424887657165527,-0.02536812424659729,-0.4674982726573944,-1.5398260354995728
5.630347490310669,0.22487983107566833,-0.8134965896606445,0.8436331748962402,-0.024605173617601395,-0.4671168029308319,-1.5424963235855103
5.650412082672119,0.22526131570339203,-0.8146410584449768,0.8436331748962402,-0.023460745811462402,-0.4671168029308319,-1.5444037914276123
5.670459270477295,0.22564278542995453,-0.8150225281715393,0.8443961143493652,-0.023460745811462402,-0.4667353332042694,-1.5459296703338623
5.690507888793945,0.22564278542995453,-0.8154039978981018,0.8443961143493652,-0.023460745811462402,-0.4663538634777069,-1.5459296703338623
5.710675239562988,0.22526131570339203,-0.8157854676246643,0.8443961143493652,-0.023460745811462402,-0.4667353332042694,-1.5463111400604248
5.730729103088379,0.22564278542995453,-0.8165484070777893,0.8447775840759277,-0.023079270496964455,-0.4667353332042694,-1.5478370189666748
5.75106954574585,0.22564278542995453,-0.8173113465309143,0.8447775840759277,-0.02231631986796856,-0.4667353332042694,-1.5497443675994873
5.771165132522583,0.22564278542995453,-0.8180742859840393,0.8451590538024902,-0.02193484455347061,-0.4671168029308319,-1.5508888959884644
5.791239023208618,0.22564278542995453,-0.8192187547683716,0.8455405235290527,-0.02079041674733162,-0.4671168029308319,-1.5524147748947144
5.811469793319702,0.22564278542995453,-0.8192187547683716,0.8455405235290527,-0.019645990803837776,-0.4671168029308319,-1.5531777143478394
5.831839084625244,0.22564278542995453,-0.8192187547683716,0.84592205286026,-0.018501564860343933,-0.4667353332042694,-1.5535591840744019
5.851967096328735,0.22564278542995453,-0.8196002244949341,0.84592205286026,-0.018501564860343933,-0.4667353332042694,-1.5539406538009644
5.8720009326934814,0.22602425515651703,-0.8199816942214966,0.846684992313385,-0.018120087683200836,-0.4659723937511444,-1.5566109418869019
5.892070055007935,0.22602425515651703,-0.8199816942214966,0.846684992313385,-0.01773861236870289,-0.4655908942222595,-1.5573738813400269
5.912241697311401,0.22640573978424072,-0.8199816942214966,0.846684992313385,-0.01735713705420494,-0.4659723937511444,-1.5573738813400269
5.932358026504517,0.22640573978424072,-0.8203631639480591,0.8470664620399475,-0.016594186425209045,-0.4659723937511444,-1.5581368207931519
5.952527046203613,0.22640573978424072,-0.8211261034011841,0.8478294014930725,-0.01583123579621315,-0.4659723937511444,-1.5604257583618164
5.972545385360718,0.22640573978424072,-0.8211261034011841,0.8478294014930725,-0.01583123579621315,-0.4655908942222595,-1.5604257583618164
5.992608308792114,0.22640573978424072,-0.8211261034011841,0.848210871219635,-0.015449759550392628,-0.4648279547691345,-1.560807228088379
6.012699842453003,0.22640573978424072,-0.8211261034011841,0.848210871219635,-0.014686808921396732,-0.4648279547691345,-1.560807228088379
6.032750129699707,0.22640573978424072,-0.8215075731277466,0.8485923409461975,-0.014686808921396732,-0.46368351578712463,-1.561570167541504
6.052810430526733,0.22640573978424072,-0.8215075731277466,0.8485923409461975,-0.013923857361078262,-0.46330204606056213,-1.5627145767211914
6.07289981842041,0.22640573978424072,-0.8218890428543091,0.8485923409461975,-0.013160906732082367,-0.46330204606056213,-1.563858985900879
6.092965126037598,0.22640573978424072,-0.8218890428543091,0.8485923409461975,-0.012397955171763897,-0.46292057633399963,-1.5642404556274414
6.113108158111572,0.22640573978424072,-0.8218890428543091,0.8485923409461975,-0.012397955171763897,-0.46292057633399963,-1.5642404556274414
6.133162260055542,0.22640573978424072,-0.8218890428543091,0.8485923409461975,-0.012397955171763897,-0.46292057633399963,-1.5642404556274414
6.15331506729126,0.22640573978424072,-0.8218890428543091,0.8485923409461975,-0.012397955171763897,-0.46292057633399963,-1.564621925354004
6.173319339752197,0.22640573978424072,-0.8218890428543091,0.84897381067276,-0.01201647985726595,-0.46292057633399963,-1.564621925354004
6.193382740020752,0.22640573978424072,-0.8222705721855164,0.8485923409461975,-0.011635004542768002,-0.46292057633399963,-1.5650033950805664
6.213530778884888,0.22640573978424072,-0.8222705721855164,0.84897381067276,-0.01125352829694748,-0.46292057633399963,-1.565384864807129
6.233662843704224,0.22640573978424072,-0.8226520419120789,0.84897381067276,-0.010872052982449532,-0.46253910660743713,-1.566529393196106
6.253671407699585,0.22640573978424072,-0.8230335116386414,0.84897381067276,-0.010872052982449532,-0.46253910660743713,-1.5676738023757935
6.273739337921143,0.22640573978424072,-0.8230335116386414,0.84897381067276,-0.010872052982449532,-0.46139466762542725,-1.568055272102356
6.293801546096802,0.22640573978424072,-0.8230335116386414,0.84897381067276,-0.010109102353453636,-0.46025025844573975,-1.5676738023757935
6.313903570175171,0.22640573978424072,-0.8230335116386414,0.8493552803993225,-0.010109102353453636,-0.45986875891685486,-1.5676738023757935
6.333993434906006,0.22640573978424072,-0.8230335116386414,0.8504997491836548,-0.009727626107633114,-0.45948728919029236,-1.568055272102356
6.35413122177124,0.22640573978424072,-0.8234149813652039,0.8516441583633423,-0.009727626107633114,-0.45910581946372986,-1.568055272102356
6.374165058135986,0.22640573978424072,-0.8241779208183289,0.8516441583633423,-0.010109102353453636,-0.45910581946372986,-1.568055272102356
6.394283771514893,0.22640573978424072,-0.8241779208183289,0.8516441583633423,-0.010490577667951584,-0.45872434973716736,-1.568055272102356
6.414349317550659,0.22640573978424072,-0.8241779208183289,0.8516441583633423,-0.010109102353453636,-0.45910581946372986,-1.5684367418289185
6.434536457061768,0.22640573978424072,-0.8241779208183289,0.8516441583633423,-0.00858320016413927,-0.45910581946372986,-1.568818211555481
6.454594373703003,0.22640573978424072,-0.8241779208183289,0.8516441583633423,-0.007438773289322853,-0.45910581946372986,-1.568818211555481
6.4746294021606445,0.22640573978424072,-0.8241779208183289,0.8516441583633423,-0.0078202486038208,-0.45910581946372986,-1.568818211555481
6.49470067024231,0.22640573978424072,-0.8241779208183289,0.8516441583633423,-0.008201723918318748,-0.45910581946372986,-1.568818211555481
6.514789342880249,0.22640573978424072,-0.8241779208183289,0.8516441583633423,-0.008964675478637218,-0.45910581946372986,-1.568818211555481
6.53486967086792,0.22640573978424072,-0.8241779208183289,0.8512626886367798,-0.008964675478637218,-0.45872434973716736,-1.568818211555481
6.55497932434082,0.22640573978424072,-0.8241779208183289,0.8508812189102173,-0.008964675478637218,-0.45872434973716736,-1.568818211555481
6.57511043548584,0.22640573978424072,-0.8241779208183289,0.8508812189102173,-0.007438773289322853,-0.45834288001060486,-1.5691996812820435
6.595216751098633,0.22640573978424072,-0.8245593905448914,0.8508812189102173,-0.00667582219466567,-0.45834288001060486,-1.568818211555481
6.615315914154053,0.22602425515651703,-0.8249408602714539,0.8508812189102173,-0.007438773289322853,-0.45834288001060486,-1.5691996812820435
6.63537335395813,0.22602425515651703,-0.8249408602714539,0.8508812189102173,-0.0078202486038208,-0.45834288001060486,-1.5691996812820435
6.655420303344727,0.22602425515651703,-0.8249408602714539,0.8508812189102173,-0.0078202486038208,-0.45796138048171997,-1.5691996812820435
6.675504207611084,0.22526131570339203,-0.8245593905448914,0.8508812189102173,-0.0078202486038208,-0.45681697130203247,-1.5691996812820435
6.695576429367065,0.22526131570339203,-0.8245593905448914,0.8508812189102173,-0.007438773289322853,-0.4560540020465851,-1.5691996812820435
6.715672969818115,0.22526131570339203,-0.8245593905448914,0.8508812189102173,-0.007438773289322853,-0.4560540020465851,-1.5691996812820435
6.7358105182647705,0.22526131570339203,-0.8245593905448914,0.8508812189102173,-0.007438773289322853,-0.4560540020465851,-1.569581151008606
6.755833148956299,0.22526131570339203,-0.8241779208183289,0.8504997491836548,-0.007438773289322853,-0.4556725323200226,-1.569581151008606
6.775896787643433,0.22526131570339203,-0.8241779208183289,0.8504997491836548,-0.007438773289322853,-0.4556725323200226,-1.569581151008606
6.795959711074829,0.22526131570339203,-0.8241779208183289,0.8504997491836548,-0.007438773289322853,-0.4556725323200226,-1.569581151008606
6.816044092178345,0.22526131570339203,-0.8241779208183289,0.8504997491836548,-0.007438773289322853,-0.4556725323200226,-1.569581151008606
6.8361358642578125,0.22449836134910583,-0.8241779208183289,0.8504997491836548,-0.007438773289322853,-0.4556725323200226,-1.569581151008606
6.856199502944946,0.22449836134910583,-0.8241779208183289,0.8504997491836548,-0.007057297509163618,-0.4552910625934601,-1.569581151008606
6.876266241073608,0.22449836134910583,-0.8241779208183289,0.8501182794570923,-0.007057297509163618,-0.4552910625934601,-1.569581151008606
6.896366357803345,0.22449836134910583,-0.8237964510917664,0.8497368097305298,-0.007057297509163618,-0.4552910625934601,-1.569581151008606
6.916444778442383,0.22449836134910583,-0.8237964510917664,0.8497368097305298,-0.007057297509163618,-0.4552910625934601,-1.569581151008606
6.936513423919678,0.22449836134910583,-0.8237964510917664,0.8497368097305298,-0.007057297509163618,-0.4552910625934601,-1.569581151008606
6.9565513134002686,0.22449836134910583,-0.8237964510917664,0.8497368097305298,-0.007057297509163618,-0.4552910625934601,-1.569581151008606
6.976643085479736,0.22449836134910583,-0.8237964510917664,0.8497368097305298,-0.00667582219466567,-0.4552910625934601,-1.569581151008606
6.996741533279419,0.22449836134910583,-0.8237964510917664,0.8497368097305298,-0.007057297509163618,-0.4552910625934601,-1.569581151008606
7.016783952713013,0.22449836134910583,-0.8237964510917664,0.8497368097305298,-0.007057297509163618,-0.4549095928668976,-1.569581151008606
7.036848068237305,0.22449836134910583,-0.8237964510917664,0.8497368097305298,-0.007057297509163618,-0.4545281231403351,-1.569581151008606
7.056932687759399,0.22449836134910583,-0.8237964510917664,0.8497368097305298,-0.00667582219466567,-0.4545281231403351,-1.569581151008606
7.077065706253052,0.22411687672138214,-0.8234149813652039,0.84897381067276,-0.00667582219466567,-0.4545281231403351,-1.569581151008606
7.097107172012329,0.22411687672138214,-0.8226520419120789,0.8485923409461975,-0.007057297509163618,-0.4545281231403351,-1.569581151008606
7.117187261581421,0.22411687672138214,-0.8226520419120789,0.848210871219635,-0.006294346414506435,-0.4545281231403351,-1.570344090461731
7.137252330780029,0.22411687672138214,-0.8226520419120789,0.848210871219635,-0.005912871100008488,-0.4545281231403351,-1.570344090461731
7.157312631607056,0.22411687672138214,-0.8222705721855164,0.848210871219635,-0.00667582219466567,-0.4545281231403351,-1.5707255601882935
7.177386522293091,0.22335393726825714,-0.8222705721855164,0.848210871219635,-0.00667582219466567,-0.4541466534137726,-1.5707255601882935
7.197452783584595,0.22335393726825714,-0.8222705721855164,0.8478294014930725,-0.00667582219466567,-0.4537651538848877,-1.5707255601882935
7.217525959014893,0.22335393726825714,-0.8218890428543091,0.8478294014930725,-0.00667582219466567,-0.4533836841583252,-1.5707255601882935
7.237591028213501,0.22335393726825714,-0.8218890428543091,0.84744793176651,-0.006294346414506435,-0.4533836841583252,-1.570344090461731
7.2576844692230225,0.22335393726825714,-0.8218890428543091,0.84744793176651,-0.00667582219466567,-0.4530022144317627,-1.5707255601882935
7.277744293212891,0.22335393726825714,-0.8218890428543091,0.84744793176651,-0.00667582219466567,-0.4526207447052002,-1.5707255601882935
7.297810792922974,0.22335393726825714,-0.8218890428543091,0.84744793176651,-0.00667582219466567,-0.4526207447052002,-1.5707255601882935
7.317864418029785,0.22335393726825714,-0.8218890428543091,0.84744793176651,-0.007057297509163618,-0.4522392749786377,-1.5707255601882935
7.338010311126709,0.22335393726825714,-0.8218890428543091,0.84744793176651,-0.00667582219466567,-0.4522392749786377,-1.5707255601882935
7.358140468597412,0.22335393726825714,-0.8218890428543091,0.84744793176651,-0.00667582219466567,-0.4522392749786377,-1.5707255601882935
7.378187417984009,0.22335393726825714,-0.8218890428543091,0.84744793176651,-0.006294346414506435,-0.4522392749786377,-1.570344090461731
7.39825177192688,0.22335393726825714,-0.8218890428543091,0.84744793176651,-0.006294346414506435,-0.4522392749786377,-1.570344090461731
7.4182984828948975,0.22335393726825714,-0.8218890428543091,0.84744793176651,-0.00667582219466567,-0.4522392749786377,-1.570344090461731
7.4383933544158936,0.22335393726825714,-0.8218890428543091,0.84744793176651,-0.00667582219466567,-0.4522392749786377,-1.5707255601882935
7.458466529846191,0.22335393726825714,-0.8218890428543091,0.84744793176651,-0.00667582219466567,-0.4522392749786377,-1.570344090461731
7.478541612625122,0.22335393726825714,-0.8218890428543091,0.8470664620399475,-0.00667582219466567,-0.4522392749786377,-1.570344090461731
7.499175071716309,0.22335393726825714,-0.8218890428543091,0.846684992313385,-0.00667582219466567,-0.4518577754497528,-1.570344090461731
7.519407510757446,0.22297245264053345,-0.8215075731277466,0.846684992313385,-0.00667582219466567,-0.4518577754497528,-1.570344090461731
7.53946328163147,0.22259098291397095,-0.8211261034011841,0.8463035225868225,-0.006294346414506435,-0.4518577754497528,-1.570344090461731
7.559476852416992,0.22220951318740845,-0.8211261034011841,0.8463035225868225,-0.006294346414506435,-0.4514763057231903,-1.570344090461731
7.579752445220947,0.22220951318740845,-0.8211261034011841,0.8463035225868225,-0.006294346414506435,-0.4514763057231903,-1.570344090461731
7.599833250045776,0.22220951318740845,-0.8211261034011841,0.8463035225868225,-0.00667582219466567,-0.4514763057231903,-1.570344090461731
7.619920253753662,0.22220951318740845,-0.8211261034011841,0.8463035225868225,-0.00667582219466567,-0.4514763057231903,-1.570344090461731
7.64004111289978,0.22220951318740845,-0.8211261034011841,0.8463035225868225,-0.006294346414506435,-0.4514763057231903,-1.570344090461731
7.66012167930603,0.22220951318740845,-0.8211261034011841,0.8463035225868225,-0.006294346414506435,-0.4514763057231903,-1.570344090461731
7.680249929428101,0.22220951318740845,-0.8211261034011841,0.8463035225868225,-0.006294346414506435,-0.4514763057231903,-1.570344090461731
7.700345754623413,0.22220951318740845,-0.8211261034011841,0.8463035225868225,-0.006294346414506435,-0.4510948359966278,-1.570344090461731
7.720413446426392,0.22220951318740845,-0.8207446336746216,0.84592205286026,-0.00667582219466567,-0.4507133662700653,-1.570344090461731
7.740549325942993,0.22220951318740845,-0.8207446336746216,0.84592205286026,-0.00667582219466567,-0.4503318965435028,-1.570344090461731
7.760688543319702,0.22220951318740845,-0.8207446336746216,0.8455405235290527,-0.00667582219466567,-0.4495689272880554,-1.570344090461731
7.780691146850586,0.22220951318740845,-0.8207446336746216,0.8455405235290527,-0.006294346414506435,-0.4495689272880554,-1.570344090461731
7.800783157348633,0.22220951318740845,-0.8207446336746216,0.8455405235290527,-0.005912871100008488,-0.4495689272880554,-1.570344090461731
7.820852994918823,0.22220951318740845,-0.8207446336746216,0.8455405235290527,-0.005912871100008488,-0.4491874575614929,-1.570344090461731
7.840932130813599,0.22220951318740845,-0.8207446336746216,0.8455405235290527,-0.006294346414506435,-0.4491874575614929,-1.570344090461731
7.86104941368103,0.22220951318740845,-0.8207446336746216,0.8455405235290527,-0.006294346414506435,-0.4491874575614929,-1.570344090461731
7.881095886230469,0.22220951318740845,-0.8207446336746216,0.8455405235290527,-0.006294346414506435,-0.4491874575614929,-1.570344090461731
7.901301622390747,0.22220951318740845,-0.8203631639480591,0.8455405235290527,-0.006294346414506435,-0.4491874575614929,-1.5699626207351685
7.921411514282227,0.22220951318740845,-0.8203631639480591,0.8455405235290527,-0.005912871100008488,-0.4491874575614929,-1.570344090461731
7.941447734832764,0.22220951318740845,-0.8203631639480591,0.8455405235290527,-0.005912871100008488,-0.4491874575614929,-1.5699626207351685
7.961548328399658,0.22220951318740845,-0.8199816942214966,0.8455405235290527,-0.005912871100008488,-0.4491874575614929,-1.5699626207351685
7.981621026992798,0.22220951318740845,-0.8199816942214966,0.8455405235290527,-0.006294346414506435,-0.4491874575614929,-1.5699626207351685
8.001713275909424,0.22220951318740845,-0.8199816942214966,0.8455405235290527,-0.006294346414506435,-0.4491874575614929,-1.5699626207351685
8.021732091903687,0.22220951318740845,-0.8199816942214966,0.8455405235290527,-0.006294346414506435,-0.4488059878349304,-1.5699626207351685
8.041821956634521,0.22220951318740845,-0.8199816942214966,0.8455405235290527,-0.005912871100008488,-0.4491874575614929,-1.569581151008606
8.061896324157715,0.22220951318740845,-0.8199816942214966,0.8455405235290527,-0.005912871100008488,-0.4491874575614929,-1.5699626207351685
8.082008838653564,0.22220951318740845,-0.8199816942214966,0.8455405235290527,-0.006294346414506435,-0.4488059878349304,-1.569581151008606
8.102161884307861,0.22220951318740845,-0.8199816942214966,0.8455405235290527,-0.006294346414506435,-0.4488059878349304,-1.569581151008606
8.122350454330444,0.22220951318740845,-0.8199816942214966,0.8455405235290527,-0.006294346414506435,-0.4488059878349304,-1.569581151008606
8.142417430877686,0.22220951318740845,-0.8199816942214966,0.8455405235290527,-0.006294346414506435,-0.4488059878349304,-1.569581151008606
8.16245412826538,0.22220951318740845,-0.8199816942214966,0.8455405235290527,-0.005912871100008488,-0.4488059878349304,-1.569581151008606
8.182539939880371,0.22220951318740845,-0.8199816942214966,0.8451590538024902,-0.006294346414506435,-0.4488059878349304,-1.5691996812820435
8.202639818191528,0.22220951318740845,-0.8199816942214966,0.8455405235290527,-0.006294346414506435,-0.4488059878349304,-1.5691996812820435
8.222739219665527,0.22220951318740845,-0.8199816942214966,0.8455405235290527,-0.006294346414506435,-0.4488059878349304,-1.5691996812820435
8.242802619934082,0.22182802855968475,-0.8199816942214966,0.8455405235290527,-0.006294346414506435,-0.4488059878349304,-1.5691996812820435
8.262919664382935,0.22182802855968475,-0.8199816942214966,0.8455405235290527,-0.006294346414506435,-0.4488059878349304,-1.5691996812820435
8.282979488372803,0.22182802855968475,-0.8199816942214966,0.8455405235290527,-0.006294346414506435,-0.4488059878349304,-1.5691996812820435
8.303117990493774,0.22182802855968475,-0.8199816942214966,0.8455405235290527,-0.005912871100008488,-0.4488059878349304,-1.568818211555481
8.323201417922974,0.22182802855968475,-0.8199816942214966,0.8455405235290527,-0.006294346414506435,-0.4488059878349304,-1.568818211555481
8.343286275863647,0.22144655883312225,-0.8199816942214966,0.8455405235290527,-0.006294346414506435,-0.4484245181083679,-1.568818211555481
8.363388061523438,0.22144655883312225,-0.8199816942214966,0.8455405235290527,-0.006294346414506435,-0.4484245181083679,-1.568818211555481
8.383455276489258,0.22144655883312225,-0.8199816942214966,0.8455405235290527,-0.006294346414506435,-0.4488059878349304,-1.568818211555481
8.403507947921753,0.22144655883312225,-0.8199816942214966,0.8451590538024902,-0.006294346414506435,-0.4484245181083679,-1.568818211555481
8.423609256744385,0.22144655883312225,-0.8199816942214966,0.8451590538024902,-0.006294346414506435,-0.4488059878349304,-1.568818211555481
8.443801403045654,0.22144655883312225,-0.8199816942214966,0.8451590538024902,-0.005912871100008488,-0.4488059878349304,-1.568818211555481
8.463780641555786,0.22144655883312225,-0.8199816942214966,0.8451590538024902,-0.006294346414506435,-0.4484245181083679,-1.568818211555481
8.483996152877808,0.22144655883312225,-0.8199816942214966,0.8451590538024902,-0.006294346414506435,-0.4484245181083679,-1.568818211555481
8.503969192504883,0.22144655883312225,-0.8199816942214966,0.8451590538024902,-0.006294346414506435,-0.4484245181083679,-1.5684367418289185
8.524048089981079,0.22144655883312225,-0.8199816942214966,0.8451590538024902,-0.006294346414506435,-0.4484245181083679,-1.5684367418289185
8.544089794158936,0.22144655883312225,-0.8199816942214966,0.8451590538024902,-0.006294346414506435,-0.4484245181083679,-1.5684367418289185
8.564175844192505,0.22144655883312225,-0.8196002244949341,0.8451590538024902,-0.006294346414506435,-0.4484245181083679,-1.5684367418289185
8.584236860275269,0.22144655883312225,-0.8199816942214966,0.8443961143493652,-0.006294346414506435,-0.4484245181083679,-1.5684367418289185
8.60433316230774,0.22144655883312225,-0.8196002244949341,0.8443961143493652,-0.006294346414506435,-0.4484245181083679,-1.5684367418289185
8.624388456344604,0.22144655883312225,-0.8196002244949341,0.8443961143493652,-0.006294346414506435,-0.4484245181083679,-1.5684367418289185
8.644463539123535,0.22144655883312225,-0.8196002244949341,0.8443961143493652,-0.005912871100008488,-0.4484245181083679,-1.5684367418289185
8.664541006088257,0.22144655883312225,-0.8196002244949341,0.8443961143493652,-0.005912871100008488,-0.44804301857948303,-1.5684367418289185
8.68467092514038,0.22144655883312225,-0.8196002244949341,0.8443961143493652,-0.006294346414506435,-0.44804301857948303,-1.5684367418289185
8.704780101776123,0.22144655883312225,-0.8196002244949341,0.8443961143493652,-0.00667582219466567,-0.44804301857948303,-1.5684367418289185
8.724991083145142,0.22144655883312225,-0.8196002244949341,0.8443961143493652,-0.006294346414506435,-0.4484245181083679,-1.568055272102356
8.745092630386353,0.22144655883312225,-0.8196002244949341,0.8443961143493652,-0.006294346414506435,-0.44804301857948303,-1.5684367418289185
8.765292167663574,0.22144655883312225,-0.8196002244949341,0.8443961143493652,-0.006294346414506435,-0.4484245181083679,-1.5684367418289185
8.785429954528809,0.22144655883312225,-0.8196002244949341,0.8443961143493652,-0.006294346414506435,-0.4484245181083679,-1.568055272102356
8.80557131767273,0.22144655883312225,-0.8192187547683716,0.8443961143493652,-0.006294346414506435,-0.44804301857948303,-1.568055272102356
8.825721740722656,0.22144655883312225,-0.8192187547683716,0.8443961143493652,-0.006294346414506435,-0.44804301857948303,-1.568055272102356
8.845793724060059,0.22144655883312225,-0.8192187547683716,0.8443961143493652,-0.006294346414506435,-0.44804301857948303,-1.568055272102356
8.865835189819336,0.22144655883312225,-0.8192187547683716,0.8443961143493652,-0.006294346414506435,-0.44804301857948303,-1.568055272102356
8.885899543762207,0.22144655883312225,-0.8192187547683716,0.8443961143493652,-0.006294346414506435,-0.44804301857948303,-1.568055272102356
8.905968427658081,0.22144655883312225,-0.8192187547683716,0.8443961143493652,-0.006294346414506435,-0.44804301857948303,-1.568055272102356
8.926084518432617,0.22144655883312225,-0.8192187547683716,0.8443961143493652,-0.006294346414506435,-0.44804301857948303,-1.568055272102356
8.946173191070557,0.22144655883312225,-0.8192187547683716,0.8443961143493652,-0.006294346414506435,-0.44804301857948303,-1.568055272102356
8.966241598129272,0.22144655883312225,-0.8192187547683716,0.8443961143493652,-0.006294346414506435,-0.44804301857948303,-1.568055272102356
8.986330032348633,0.22144655883312225,-0.8192187547683716,0.8443961143493652,-0.006294346414506435,-0.44804301857948303,-1.568055272102356
9.006364822387695,0.22144655883312225,-0.8192187547683716,0.8443961143493652,-0.006294346414506435,-0.44804301857948303,-1.568055272102356
9.026488780975342,0.22144655883312225,-0.8192187547683716,0.8443961143493652,-0.006294346414506435,-0.44804301857948303,-1.568055272102356
9.046550989151001,0.22144655883312225,-0.8192187547683716,0.8443961143493652,-0.006294346414506435,-0.44804301857948303,-1.568055272102356
9.066739082336426,0.22144655883312225,-0.8192187547683716,0.8443961143493652,-0.006294346414506435,-0.44804301857948303,-1.568055272102356
9.086819887161255,0.22144655883312225,-0.8192187547683716,0.8443961143493652,-0.006294346414506435,-0.44804301857948303,-1.568055272102356
9.106962203979492,0.22144655883312225,-0.8192187547683716,0.8443961143493652,-0.006294346414506435,-0.44804301857948303,-1.568055272102356
9.126981735229492,0.22144655883312225,-0.8192187547683716,0.8443961143493652,-0.006294346414506435,-0.44804301857948303,-1.568055272102356
9.147051811218262,0.22144655883312225,-0.8192187547683716,0.8443961143493652,-0.006294346414506435,-0.44804301857948303,-1.568055272102356
9.167128324508667,0.22144655883312225,-0.8192187547683716,0.8443961143493652,-0.006294346414506435,-0.44804301857948303,-1.568055272102356
9.187214374542236,0.22144655883312225,-0.8192187547683716,0.8443961143493652,-0.006294346414506435,-0.44804301857948303,-1.568055272102356
9.207276821136475,0.22144655883312225,-0.8192187547683716,0.8443961143493652,-0.006294346414506435,-0.44804301857948303,-1.568055272102356
9.227358341217041,0.22144655883312225,-0.8192187547683716,0.8443961143493652,-0.006294346414506435,-0.44804301857948303,-1.568055272102356
9.247395992279053,0.22144655883312225,-0.8192187547683716,0.8443961143493652,-0.006294346414506435,-0.44804301857948303,-1.568055272102356
9.267554759979248,0.22144655883312225,-0.8192187547683716,0.8443961143493652,-0.006294346414506435,-0.44804301857948303,-1.568055272102356
9.287687063217163,0.22144655883312225,-0.8192187547683716,0.8443961143493652,-0.006294346414506435,-0.44804301857948303,-1.568055272102356
9.307718992233276,0.22144655883312225,-0.8192187547683716,0.8443961143493652,-0.006294346414506435,-0.44804301857948303,-1.568055272102356
9.327770233154297,0.22144655883312225,-0.8192187547683716,0.8443961143493652,-0.006294346414506435,-0.44804301857948303,-1.568055272102356
9.347852230072021,0.22144655883312225,-0.8192187547683716,0.8443961143493652,-0.006294346414506435,-0.44804301857948303,-1.568055272102356
9.367990493774414,0.22144655883312225,-0.8192187547683716,0.8443961143493652,-0.006294346414506435,-0.44804301857948303,-1.568055272102356
9.388094902038574,0.22144655883312225,-0.8192187547683716,0.8443961143493652,-0.006294346414506435,-0.44804301857948303,-1.568055272102356
9.408095598220825,0.22144655883312225,-0.8192187547683716,0.8443961143493652,-0.006294346414506435,-0.44804301857948303,-1.568055272102356
9.42823314666748,0.22144655883312225,-0.8192187547683716,0.8443961143493652,-0.006294346414506435,-0.44804301857948303,-1.568055272102356
9.448250532150269,0.22144655883312225,-0.8192187547683716,0.8447775840759277,-0.006294346414506435,-0.44804301857948303,-1.568055272102356
9.468395709991455,0.22144655883312225,-0.8192187547683716,0.8443961143493652,-0.006294346414506435,-0.44804301857948303,-1.568055272102356
9.48839259147644,0.22144655883312225,-0.8192187547683716,0.8443961143493652,-0.006294346414506435,-0.44804301857948303,-1.568055272102356
9.50848126411438,0.22144655883312225,-0.8192187547683716,0.8443961143493652,-0.006294346414506435,-0.44804301857948303,-1.568055272102356
9.528705596923828,0.22144655883312225,-0.8192187547683716,0.8443961143493652,-0.006294346414506435,-0.44804301857948303,-1.5676738023757935
9.54871129989624,0.22144655883312225,-0.8192187547683716,0.8443961143493652,-0.006294346414506435,-0.44804301857948303,-1.5676738023757935
9.56962537765503,0.22144655883312225,-0.8192187547683716,0.8443961143493652,-0.006294346414506435,-0.44804301857948303,-1.5676738023757935
9.589728832244873,0.22144655883312225,-0.8192187547683716,0.8443961143493652,-0.006294346414506435,-0.44804301857948303,-1.5676738023757935
9.60979962348938,0.22144655883312225,-0.8192187547683716,0.8447775840759277,-0.006294346414506435,-0.44804301857948303,-1.5676738023757935
9.629865884780884,0.22144655883312225,-0.8192187547683716,0.8443961143493652,-0.006294346414506435,-0.44804301857948303,-1.5676738023757935
9.649912357330322,0.22144655883312225,-0.8192187547683716,0.8447775840759277,-0.006294346414506435,-0.44804301857948303,-1.5676738023757935
9.670053482055664,0.22144655883312225,-0.8192187547683716,0.8443961143493652,-0.006294346414506435,-0.44804301857948303,-1.5676738023757935
9.690146446228027,0.22144655883312225,-0.8192187547683716,0.8443961143493652,-0.006294346414506435,-0.44804301857948303,-1.5676738023757935
9.710176229476929,0.22144655883312225,-0.8192187547683716,0.8443961143493652,-0.006294346414506435,-0.44804301857948303,-1.5676738023757935
9.730297803878784,0.22144655883312225,-0.8192187547683716,0.8443961143493652,-0.006294346414506435,-0.44804301857948303,-1.5676738023757935
9.750375270843506,0.22144655883312225,-0.8192187547683716,0.8447775840759277,-0.006294346414506435,-0.44804301857948303,-1.5676738023757935
9.770409345626831,0.22144655883312225,-0.8192187547683716,0.8447775840759277,-0.006294346414506435,-0.44804301857948303,-1.5676738023757935
9.790574550628662,0.22144655883312225,-0.8192187547683716,0.8447775840759277,-0.006294346414506435,-0.44804301857948303,-1.5676738023757935
9.810609817504883,0.22144655883312225,-0.8192187547683716,0.8447775840759277,-0.006294346414506435,-0.44804301857948303,-1.5676738023757935
9.830720901489258,0.22144655883312225,-0.8192187547683716,0.8447775840759277,-0.006294346414506435,-0.44804301857948303,-1.5676738023757935
9.850813150405884,0.22144655883312225,-0.8192187547683716,0.8447775840759277,-0.006294346414506435,-0.44804301857948303,-1.5676738023757935
9.870878458023071,0.22144655883312225,-0.8192187547683716,0.8447775840759277,-0.006294346414506435,-0.44804301857948303,-1.5676738023757935
9.890946626663208,0.22144655883312225,-0.8192187547683716,0.8447775840759277,-0.006294346414506435,-0.44804301857948303,-1.5676738023757935
9.911049842834473,0.22144655883312225,-0.8192187547683716,0.8447775840759277,-0.006294346414506435,-0.44804301857948303,-1.5676738023757935
9.931095123291016,0.22144655883312225,-0.8192187547683716,0.8447775840759277,-0.006294346414506435,-0.44804301857948303,-1.5676738023757935
9.951292753219604,0.22144655883312225,-0.8192187547683716,0.8447775840759277,-0.006294346414506435,-0.44804301857948303,-1.5676738023757935
9.971385717391968,0.22144655883312225,-0.8192187547683716,0.8447775840759277,-0.006294346414506435,-0.44804301857948303,-1.5676738023757935
9.99141788482666,0.22144655883312225,-0.8192187547683716,0.8447775840759277,-0.006294346414506435,-0.44804301857948303,-1.5676738023757935
10.011509895324707,0.22144655883312225,-0.8192187547683716,0.8447775840759277,-0.006294346414506435,-0.44804301857948303,-1.5676738023757935
10.031651020050049,0.22144655883312225,-0.8192187547683716,0.8447775840759277,-0.006294346414506435,-0.44804301857948303,-1.5676738023757935
10.051799774169922,0.22144655883312225,-0.8192187547683716,0.8447775840759277,-0.006294346414506435,-0.44804301857948303,-1.5676738023757935
10.071808338165283,0.22144655883312225,-0.8192187547683716,0.8447775840759277,-0.006294346414506435,-0.44804301857948303,-1.5676738023757935
10.092113256454468,0.22144655883312225,-0.8192187547683716,0.8447775840759277,-0.006294346414506435,-0.44804301857948303,-1.5676738023757935
10.112232208251953,0.22144655883312225,-0.8192187547683716,0.8447775840759277,-0.006294346414506435,-0.44804301857948303,-1.5676738023757935
10.132338285446167,0.22144655883312225,-0.8192187547683716,0.8447775840759277,-0.006294346414506435,-0.44804301857948303,-1.5676738023757935
10.152424335479736,0.22144655883312225,-0.8192187547683716,0.8447775840759277,-0.006294346414506435,-0.44804301857948303,-1.5676738023757935
10.172470569610596,0.22144655883312225,-0.8192187547683716,0.8447775840759277,-0.006294346414506435,-0.44804301857948303,-1.5676738023757935
10.19261908531189,0.22144655883312225,-0.8192187547683716,0.8447775840759277,-0.006294346414506435,-0.44804301857948303,-1.5676738023757935
10.212660074234009,0.22144655883312225,-0.8192187547683716,0.8447775840759277,-0.006294346414506435,-0.44804301857948303,-1.5676738023757935
10.232731103897095,0.22144655883312225,-0.8192187547683716,0.8447775840759277,-0.006294346414506435,-0.44804301857948303,-1.5676738023757935
10.252981185913086,0.22144655883312225,-0.8192187547683716,0.8447775840759277,-0.006294346414506435,-0.44804301857948303,-1.5676738023757935
10.272961616516113,0.22144655883312225,-0.8192187547683716,0.8447775840759277,-0.006294346414506435,-0.44804301857948303,-1.5676738023757935
10.293043375015259,0.22144655883312225,-0.8192187547683716,0.8447775840759277,-0.006294346414506435,-0.44804301857948303,-1.5676738023757935
10.313156127929688,0.22144655883312225,-0.8192187547683716,0.8447775840759277,-0.006294346414506435,-0.44804301857948303,-1.5676738023757935
10.33319640159607,0.22144655883312225,-0.8192187547683716,0.8447775840759277,-0.006294346414506435,-0.44804301857948303,-1.5676738023757935
10.353287935256958,0.22144655883312225,-0.8192187547683716,0.8447775840759277,-0.006294346414506435,-0.44804301857948303,-1.5676738023757935
10.37338638305664,0.22144655883312225,-0.8192187547683716,0.8447775840759277,-0.006294346414506435,-0.44804301857948303,-1.5676738023757935
10.393630504608154,0.22144655883312225,-0.8192187547683716,0.8447775840759277,-0.006294346414506435,-0.44804301857948303,-1.5676738023757935
10.413647651672363,0.22144655883312225,-0.8192187547683716,0.8447775840759277,-0.006294346414506435,-0.44804301857948303,-1.5676738023757935
10.433696031570435,0.22144655883312225,-0.8192187547683716,0.8447775840759277,-0.006294346414506435,-0.44804301857948303,-1.5676738023757935
10.453886032104492,0.22144655883312225,-0.8192187547683716,0.8447775840759277,-0.006294346414506435,-0.44804301857948303,-1.5676738023757935
10.47397255897522,0.22144655883312225,-0.8192187547683716,0.8447775840759277,-0.006294346414506435,-0.44804301857948303,-1.5676738023757935
10.494044780731201,0.22144655883312225,-0.8192187547683716,0.8447775840759277,-0.006294346414506435,-0.44804301857948303,-1.5676738023757935
10.514112710952759,0.22144655883312225,-0.8192187547683716,0.8447775840759277,-0.006294346414506435,-0.44804301857948303,-1.5676738023757935
10.534181356430054,0.22144655883312225,-0.8192187547683716,0.8447775840759277,-0.006294346414506435,-0.44804301857948303,-1.5676738023757935
10.554322481155396,0.22144655883312225,-0.8192187547683716,0.8447775840759277,-0.006294346414506435,-0.44804301857948303,-1.5676738023757935
10.574467897415161,0.22144655883312225,-0.8192187547683716,0.8447775840759277,-0.006294346414506435,-0.44804301857948303,-1.5676738023757935
10.594540357589722,0.22144655883312225,-0.8192187547683716,0.8447775840759277,-0.006294346414506435,-0.44766154885292053,-1.5676738023757935
10.614643096923828,0.22144655883312225,-0.8192187547683716,0.8447775840759277,-0.006294346414506435,-0.44804301857948303,-1.5676738023757935
10.634722709655762,0.22144655883312225,-0.8192187547683716,0.8447775840759277,-0.006294346414506435,-0.44804301857948303,-1.5676738023757935
10.65478777885437,0.22144655883312225,-0.8192187547683716,0.8447775840759277,-0.006294346414506435,-0.44804301857948303,-1.5676738023757935
10.67486023902893,0.22144655883312225,-0.8192187547683716,0.8447775840759277,-0.006294346414506435,-0.44804301857948303,-1.5676738023757935
10.695042371749878,0.22144655883312225,-0.8192187547683716,0.8447775840759277,-0.006294346414506435,-0.44804301857948303,-1.5676738023757935
10.715195178985596,0.22144655883312225,-0.8192187547683716,0.8447775840759277,-0.006294346414506435,-0.44804301857948303,-1.5676738023757935
10.735228061676025,0.22144655883312225,-0.8192187547683716,0.8447775840759277,-0.006294346414506435,-0.44804301857948303,-1.5676738023757935
10.755420446395874,0.22144655883312225,-0.8192187547683716,0.8447775840759277,-0.006294346414506435,-0.44804301857948303,-1.5676738023757935
10.775433778762817,0.22144655883312225,-0.8192187547683716,0.8447775840759277,-0.006294346414506435,-0.44804301857948303,-1.5676738023757935
10.795601606369019,0.22144655883312225,-0.8192187547683716,0.8447775840759277,-0.006294346414506435,-0.44804301857948303,-1.5676738023757935
10.815630197525024,0.22144655883312225,-0.8192187547683716,0.8447775840759277,-0.006294346414506435,-0.44804301857948303,-1.5676738023757935
10.835667133331299,0.22144655883312225,-0.8192187547683716,0.8447775840759277,-0.006294346414506435,-0.44804301857948303,-1.5676738023757935
10.85585355758667,0.22144655883312225,-0.8192187547683716,0.8447775840759277,-0.006294346414506435,-0.44804301857948303,-1.5676738023757935
10.875845432281494,0.22144655883312225,-0.8192187547683716,0.8447775840759277,-0.006294346414506435,-0.44804301857948303,-1.5676738023757935
10.895992279052734,0.22144655883312225,-0.8192187547683716,0.8447775840759277,-0.006294346414506435,-0.44804301857948303,-1.5676738023757935
10.916163921356201,0.22144655883312225,-0.8192187547683716,0.8447775840759277,-0.006294346414506435,-0.44804301857948303,-1.5676738023757935
10.936273574829102,0.22144655883312225,-0.8192187547683716,0.8447775840759277,-0.006294346414506435,-0.44804301857948303,-1.5676738023757935
10.956348419189453,0.22144655883312225,-0.8192187547683716,0.8447775840759277,-0.006294346414506435,-0.44804301857948303,-1.5676738023757935
10.976410865783691,0.22144655883312225,-0.8192187547683716,0.8447775840759277,-0.006294346414506435,-0.44804301857948303,-1.5676738023757935
10.996536016464233,0.22144655883312225,-0.8192187547683716,0.8447775840759277,-0.006294346414506435,-0.44804301857948303,-1.5676738023757935
11.016671895980835,0.22144655883312225,-0.8192187547683716,0.8447775840759277,-0.006294346414506435,-0.44804301857948303,-1.5676738023757935
11.03677487373352,0.22144655883312225,-0.8192187547683716,0.8447775840759277,-0.006294346414506435,-0.44804301857948303,-1.5676738023757935
11.056865930557251,0.22144655883312225,-0.8192187547683716,0.8447775840759277,-0.006294346414506435,-0.44804301857948303,-1.5676738023757935
11.07690167427063,0.22144655883312225,-0.8192187547683716,0.8447775840759277,-0.006294346414506435,-0.44804301857948303,-1.5676738023757935
11.096996307373047,0.22144655883312225,-0.8192187547683716,0.8447775840759277,-0.006294346414506435,-0.44804301857948303,-1.5676738023757935
11.11704683303833,0.22144655883312225,-0.8192187547683716,0.8447775840759277,-0.006294346414506435,-0.44804301857948303,-1.5676738023757935
11.137110948562622,0.22144655883312225,-0.8192187547683716,0.8447775840759277,-0.006294346414506435,-0.44804301857948303,-1.5676738023757935
11.157230615615845,0.22144655883312225,-0.8192187547683716,0.8447775840759277,-0.006294346414506435,-0.44804301857948303,-1.5676738023757935
11.177333116531372,0.22144655883312225,-0.8192187547683716,0.8447775840759277,-0.006294346414506435,-0.44804301857948303,-1.5676738023757935
11.197445392608643,0.22144655883312225,-0.8192187547683716,0.8447775840759277,-0.006294346414506435,-0.44804301857948303,-1.5676738023757935
11.217476606369019,0.22144655883312225,-0.8192187547683716,0.8447775840759277,-0.006294346414506435,-0.44804301857948303,-1.5676738023757935
11.237670660018921,0.22144655883312225,-0.8192187547683716,0.8447775840759277,-0.006294346414506435,-0.44804301857948303,-1.5676738023757935
11.25768232345581,0.22144655883312225,-0.8192187547683716,0.8447775840759277,-0.006294346414506435,-0.44804301857948303,-1.5676738023757935
11.27773118019104,0.22144655883312225,-0.8192187547683716,0.8447775840759277,-0.006294346414506435,-0.44804301857948303,-1.5676738023757935
11.297847032546997,0.22144655883312225,-0.8192187547683716,0.8447775840759277,-0.006294346414506435,-0.44804301857948303,-1.5676738023757935
11.317888975143433,0.22144655883312225,-0.8192187547683716,0.8447775840759277,-0.006294346414506435,-0.44804301857948303,-1.5676738023757935
11.337892532348633,0.22144655883312225,-0.8192187547683716,0.8447775840759277,-0.006294346414506435,-0.44804301857948303,-1.5676738023757935
11.357985019683838,0.22144655883312225,-0.8192187547683716,0.8447775840759277,-0.006294346414506435,-0.44804301857948303,-1.5676738023757935
11.378071546554565,0.22144655883312225,-0.8192187547683716,0.8447775840759277,-0.006294346414506435,-0.44804301857948303,-1.5676738023757935
11.398091077804565,0.22144655883312225,-0.8192187547683716,0.8447775840759277,-0.006294346414506435,-0.44804301857948303,-1.5676738023757935
11.418169260025024,0.22144655883312225,-0.8192187547683716,0.8447775840759277,-0.006294346414506435,-0.44804301857948303,-1.5676738023757935
11.438258409500122,0.22144655883312225,-0.8192187547683716,0.8447775840759277,-0.006294346414506435,-0.44804301857948303,-1.5676738023757935
11.458340644836426,0.22144655883312225,-0.8192187547683716,0.8447775840759277,-0.006294346414506435,-0.44804301857948303,-1.5676738023757935
11.478390455245972,0.22144655883312225,-0.8192187547683716,0.8447775840759277,-0.006294346414506435,-0.44804301857948303,-1.5676738023757935
11.49859094619751,0.22144655883312225,-0.8192187547683716,0.8447775840759277,-0.006294346414506435,-0.44804301857948303,-1.5676738023757935
11.518616914749146,0.22144655883312225,-0.8192187547683716,0.8447775840759277,-0.006294346414506435,-0.44804301857948303,-1.5676738023757935
11.538758277893066,0.22144655883312225,-0.8192187547683716,0.8447775840759277,-0.006294346414506435,-0.44804301857948303,-1.5676738023757935
11.558703899383545,0.22144655883312225,-0.8192187547683716,0.8447775840759277,-0.006294346414506435,-0.44804301857948303,-1.5676738023757935
11.578795671463013,0.22144655883312225,-0.8192187547683716,0.8447775840759277,-0.006294346414506435,-0.44804301857948303,-1.5676738023757935
11.598869562149048,0.22144655883312225,-0.8192187547683716,0.8447775840759277,-0.006294346414506435,-0.44804301857948303,-1.5676738023757935
11.618922472000122,0.22144655883312225,-0.8192187547683716,0.8447775840759277,-0.006294346414506435,-0.44804301857948303,-1.5676738023757935
11.63900375366211,0.22144655883312225,-0.8192187547683716,0.8447775840759277,-0.006294346414506435,-0.44804301857948303,-1.5676738023757935
11.65906572341919,0.22144655883312225,-0.8192187547683716,0.8447775840759277,-0.006294346414506435,-0.44804301857948303,-1.5676738023757935
11.679117202758789,0.22144655883312225,-0.8192187547683716,0.8447775840759277,-0.006294346414506435,-0.44804301857948303,-1.5676738023757935
11.699223756790161,0.22144655883312225,-0.8192187547683716,0.8447775840759277,-0.006294346414506435,-0.44804301857948303,-1.5676738023757935
11.719328880310059,0.22144655883312225,-0.8192187547683716,0.8447775840759277,-0.006294346414506435,-0.44804301857948303,-1.5676738023757935
11.739406108856201,0.22144655883312225,-0.8192187547683716,0.8447775840759277,-0.006294346414506435,-0.44804301857948303,-1.5676738023757935
11.759443521499634,0.22144655883312225,-0.8192187547683716,0.8447775840759277,-0.006294346414506435,-0.44804301857948303,-1.5676738023757935
11.77961802482605,0.22144655883312225,-0.8192187547683716,0.8447775840759277,-0.006294346414506435,-0.44804301857948303,-1.5676738023757935
11.799662590026855,0.22144655883312225,-0.8215075731277466,0.8421072959899902,-0.007057297509163618,-0.44804301857948303,-1.5669108629226685
11.819726467132568,0.22144655883312225,-0.8245593905448914,0.838674008846283,-0.010490577667951584,-0.44804301857948303,-1.564621925354004
11.839871644973755,0.22144655883312225,-0.8299000263214111,0.8310444951057434,-0.013542382046580315,-0.44804301857948303,-1.5627145767211914
11.859962940216064,0.22144655883312225,-0.8348592519760132,0.8207446336746216,-0.016212711110711098,-0.44689860939979553,-1.5573738813400269
11.880070447921753,0.22144655883312225,-0.840962827205658,0.811589241027832,-0.01506828423589468,-0.44422826170921326,-1.5512703657150269
11.9001305103302,0.22144655883312225,-0.8463035225868225,0.8054856061935425,-0.0078202486038208,-0.440032035112381,-1.5432593822479248
11.920480012893677,0.22144655883312225,-0.84897381067276,0.8001449704170227,0.0036240178160369396,-0.43202105164527893,-1.5356298685073853
11.940620183944702,0.22144655883312225,-0.8508812189102173,0.7936598658561707,0.012779430486261845,-0.4240100681781769,-1.5241855382919312
11.960669040679932,0.22144655883312225,-0.8512626886367798,0.7890821695327759,0.01201647985726595,-0.4179064631462097,-1.513885736465454
11.980728387832642,0.22144655883312225,-0.8501182794570923,0.7867932915687561,0.005149920005351305,-0.40989547967910767,-1.5070191621780396
12.000869750976562,0.22144655883312225,-0.8512626886367798,0.7814526557922363,-0.001716639962978661,-0.4018844962120056,-1.4997711181640625
12.020907163619995,0.22106507420539856,-0.8512626886367798,0.777256429195404,-0.00476844422519207,-0.39730677008628845,-1.4917601346969604
12.041052341461182,0.22030213475227356,-0.8527885675430298,0.7722972631454468,-0.0013351644156500697,-0.39463645219802856,-1.4845120906829834
12.061092138290405,0.21992065012454987,-0.8543145060539246,0.768482506275177,0.005149920005351305,-0.3919661343097687,-1.4765011072158813
12.081247568130493,0.21915769577026367,-0.8558403849601746,0.7658121585845947,0.012779430486261845,-0.3915846347808838,-1.4696345329284668
12.101380586624146,0.21801327168941498,-0.8543145060539246,0.76276034116745,0.01583123579621315,-0.3919661343097687,-1.4604791402816772
12.121488094329834,0.21801327168941498,-0.8527885675430298,0.760471522808075,0.01506828423589468,-0.3915846347808838,-1.4543755054473877
12.141666173934937,0.21801327168941498,-0.8512626886367798,0.7581826448440552,0.009727626107633114,-0.3912031650543213,-1.4475089311599731
12.16166090965271,0.21801327168941498,-0.8501182794570923,0.7555122971534729,0.0032425422687083483,-0.3892957866191864,-1.4421683549880981
12.181785345077515,0.21801327168941498,-0.8501182794570923,0.7524605393409729,0.0020981156267225742,-0.386243999004364,-1.4368276596069336
12.201924562454224,0.21801327168941498,-0.8501182794570923,0.7494087219238281,0.005531395319849253,-0.38319218158721924,-1.4311054944992065
12.221933364868164,0.21801327168941498,-0.8493552803993225,0.7448310256004333,0.01201647985726595,-0.37937742471694946,-1.426146388053894
12.242061614990234,0.21763180196285248,-0.84744793176651,0.7413977384567261,0.016975661739706993,-0.3740367889404297,-1.419661283493042
12.26215672492981,0.21725031733512878,-0.84592205286026,0.7413977384567261,0.020027466118335724,-0.36907759308815,-1.4135576486587524
12.282201051712036,0.21686884760856628,-0.8447775840759277,0.7398717999458313,0.016975661739706993,-0.36449989676475525,-1.406691074371338
12.302459239959717,0.2157244235277176,-0.8432517051696777,0.7391088604927063,0.011635004542768002,-0.361066609621048,-1.4047837257385254
12.322592735290527,0.2153429538011551,-0.8421072959899902,0.7368200421333313,0.008201723918318748,-0.3599221706390381,-1.4005874395370483
12.342638731002808,0.2149614691734314,-0.841725766658783,0.734912633895874,0.00858320016413927,-0.3603036403656006,-1.3944838047027588
12.362688064575195,0.2149614691734314,-0.8413442969322205,0.7330052852630615,0.012397955171763897,-0.3614480793476105,-1.3902876377105713
12.382888078689575,0.2149614691734314,-0.8405813574790955,0.7299534678459167,0.01735713705420494,-0.3622110188007355,-1.3857098817825317
12.402915239334106,0.2149614691734314,-0.837911069393158,0.7291905283927917,0.02079041674733162,-0.3622110188007355,-1.3822766542434692
12.422965049743652,0.2149614691734314,-0.8371480703353882,0.728427529335022,0.02079041674733162,-0.36297398805618286,-1.3788433074951172
12.443079710006714,0.2149614691734314,-0.8360036611557007,0.7280460596084595,0.01583123579621315,-0.361066609621048,-1.3742656707763672
12.463179588317871,0.2149614691734314,-0.8352407217025757,0.7280460596084595,0.01125352829694748,-0.3595407009124756,-1.3715953826904297
12.483250617980957,0.2141985148191452,-0.8352407217025757,0.726901650428772,0.01125352829694748,-0.3580147922039032,-1.3677805662155151
12.50334358215332,0.2138170450925827,-0.8344777822494507,0.7249943017959595,0.013160906732082367,-0.3545815348625183,-1.3639658689498901
12.523475170135498,0.2130540907382965,-0.8344777822494507,0.7230868935585022,0.01773861236870289,-0.35229265689849854,-1.361295461654663
12.543679237365723,0.2130540907382965,-0.8337147831916809,0.7215610146522522,0.021553369238972664,-0.35076677799224854,-1.357480764389038
12.563770771026611,0.2130540907382965,-0.8329518437385559,0.7207980751991272,0.022697795182466507,-0.35000380873680115,-1.3551918268203735
12.583831310272217,0.21229113638401031,-0.8314259648323059,0.7204165458679199,0.02193484455347061,-0.35000380873680115,-1.352521538734436
12.603928804397583,0.21190966665744781,-0.8291370868682861,0.7196536064147949,0.018501564860343933,-0.34962233901023865,-1.3483253717422485
12.624054431915283,0.21152819693088531,-0.8279926776885986,0.7188906669616699,0.016212711110711098,-0.35038527846336365,-1.3456549644470215
12.644157886505127,0.21114671230316162,-0.8272297382354736,0.7177462577819824,0.01583123579621315,-0.35076677799224854,-1.342221736907959
12.664204835891724,0.21114671230316162,-0.8272297382354736,0.7166017889976501,0.01583123579621315,-0.35076677799224854,-1.339932918548584
12.684404373168945,0.21114671230316162,-0.8272297382354736,0.7162203192710876,0.018120087683200836,-0.35076677799224854,-1.338025450706482
12.704430103302002,0.21114671230316162,-0.8260852694511414,0.7150759100914001,0.01888304017484188,-0.35076677799224854,-1.334210753440857
12.724545001983643,0.21114671230316162,-0.8249408602714539,0.7143129706382751,0.01888304017484188,-0.35076677799224854,-1.333447813987732
12.744627237319946,0.21114671230316162,-0.8230335116386414,0.7135500311851501,0.01735713705420494,-0.35076677799224854,-1.3315403461456299
12.764753818511963,0.21114671230316162,-0.8226520419120789,0.7135500311851501,0.016212711110711098,-0.35000380873680115,-1.3300144672393799
12.784887313842773,0.21114671230316162,-0.8230335116386414,0.7131685614585876,0.01430533267557621,-0.34885939955711365,-1.3281071186065674
12.805018186569214,0.21114671230316162,-0.8230335116386414,0.7124055624008179,0.013160906732082367,-0.34733349084854126,-1.3269627094268799
12.825093030929565,0.21114671230316162,-0.8230335116386414,0.7116426229476929,0.015449759550392628,-0.34771496057510376,-1.3254368305206299
12.845161437988281,0.21114671230316162,-0.8230335116386414,0.7112611532211304,0.016212711110711098,-0.34771496057510376,-1.3231478929519653
12.865458250045776,0.21114671230316162,-0.8226520419120789,0.7108796834945679,0.016212711110711098,-0.34771496057510376,-1.3223849534988403
12.885560750961304,0.21114671230316162,-0.8218890428543091,0.7108796834945679,0.01583123579621315,-0.34771496057510376,-1.3216220140457153
12.905658483505249,0.21114671230316162,-0.8215075731277466,0.7108796834945679,0.01430533267557621,-0.34809643030166626,-1.3197146654129028
12.925753831863403,0.21114671230316162,-0.8211261034011841,0.7108796834945679,0.01201647985726595,-0.34809643030166626,-1.3193331956863403
12.94581389427185,0.21114671230316162,-0.8215075731277466,0.7108796834945679,0.01201647985726595,-0.34809643030166626,-1.3197146654129028
12.965911865234375,0.21114671230316162,-0.8211261034011841,0.7104982137680054,0.012397955171763897,-0.34809643030166626,-1.3189517259597778
12.985984325408936,0.21114671230316162,-0.8211261034011841,0.7104982137680054,0.013160906732082367,-0.34809643030166626,-1.3189517259597778
13.006048440933228,0.21114671230316162,-0.8211261034011841,0.7104982137680054,0.013542382046580315,-0.34847790002822876,-1.3178073167800903
13.026145219802856,0.21114671230316162,-0.8211261034011841,0.7104982137680054,0.013160906732082367,-0.34847790002822876,-1.3158998489379883
13.046212673187256,0.21114671230316162,-0.8211261034011841,0.7104982137680054,0.012397955171763897,-0.34847790002822876,-1.3155183792114258
13.066272497177124,0.21114671230316162,-0.8211261034011841,0.7104982137680054,0.011635004542768002,-0.34847790002822876,-1.3155183792114258
13.086404085159302,0.21114671230316162,-0.8207446336746216,0.7104982137680054,0.012397955171763897,-0.34885939955711365,-1.3151369094848633
13.10649561882019,0.21114671230316162,-0.8211261034011841,0.7104982137680054,0.012779430486261845,-0.34924086928367615,-1.3147554397583008
13.126546144485474,0.21114671230316162,-0.8207446336746216,0.7104982137680054,0.013160906732082367,-0.34962233901023865,-1.3136110305786133
13.146620273590088,0.21114671230316162,-0.8207446336746216,0.7104982137680054,0.012779430486261845,-0.35000380873680115,-1.3124666213989258
13.166693687438965,0.21114671230316162,-0.8207446336746216,0.7104982137680054,0.012397955171763897,-0.35000380873680115,-1.3120851516723633
13.186774492263794,0.21114671230316162,-0.8207446336746216,0.7104982137680054,0.01201647985726595,-0.35038527846336365,-1.3120851516723633
13.206823110580444,0.21114671230316162,-0.8207446336746216,0.7104982137680054,0.012397955171763897,-0.35038527846336365,-1.3117036819458008
13.226922035217285,0.21114671230316162,-0.8207446336746216,0.7101167440414429,0.012397955171763897,-0.35076677799224854,-1.3117036819458008
13.246988534927368,0.21114671230316162,-0.8207446336746216,0.7101167440414429,0.012397955171763897,-0.35076677799224854,-1.3113222122192383
13.267062664031982,0.21114671230316162,-0.8199816942214966,0.7104982137680054,0.012397955171763897,-0.35076677799224854,-1.3105592727661133
13.287245512008667,0.21114671230316162,-0.8199816942214966,0.7104982137680054,0.012397955171763897,-0.35114824771881104,-1.3094148635864258
13.307406902313232,0.21114671230316162,-0.8196002244949341,0.7104982137680054,0.01201647985726595,-0.35114824771881104,-1.3082703351974487
13.327399730682373,0.21114671230316162,-0.8199816942214966,0.7104982137680054,0.01201647985726595,-0.35114824771881104,-1.3086519241333008
13.34748888015747,0.21114671230316162,-0.8199816942214966,0.7104982137680054,0.012779430486261845,-0.35152971744537354,-1.3082703351974487
13.367546081542969,0.21114671230316162,-0.8196002244949341,0.7104982137680054,0.012779430486261845,-0.35191118717193604,-1.3082703351974487
13.387697458267212,0.21114671230316162,-0.8196002244949341,0.7104982137680054,0.012779430486261845,-0.35191118717193604,-1.3082703351974487
13.407701015472412,0.21152819693088531,-0.8196002244949341,0.7104982137680054,0.012779430486261845,-0.35229265689849854,-1.3078888654708862
13.427753448486328,0.21190966665744781,-0.8196002244949341,0.7104982137680054,0.012397955171763897,-0.3526741564273834,-1.3078888654708862
13.44790005683899,0.21229113638401031,-0.8196002244949341,0.7104982137680054,0.012397955171763897,-0.3534370958805084,-1.3078888654708862
13.467958450317383,0.21229113638401031,-0.8196002244949341,0.7104982137680054,0.012779430486261845,-0.3534370958805084,-1.3078888654708862
13.48802638053894,0.21229113638401031,-0.8196002244949341,0.7104982137680054,0.013160906732082367,-0.3534370958805084,-1.3075073957443237
13.508154392242432,0.21229113638401031,-0.8196002244949341,0.7104982137680054,0.013160906732082367,-0.3538185656070709,-1.3071259260177612
13.52826476097107,0.2134355753660202,-0.8196002244949341,0.7104982137680054,0.012779430486261845,-0.3545815348625183,-1.3063629865646362
13.54844045639038,0.2134355753660202,-0.8196002244949341,0.7104982137680054,0.012779430486261845,-0.3553444743156433,-1.3056000471115112
13.568465232849121,0.2134355753660202,-0.8196002244949341,0.7104982137680054,0.012779430486261845,-0.3549630045890808,-1.3056000471115112
13.588577270507812,0.2138170450925827,-0.8196002244949341,0.7104982137680054,0.012779430486261845,-0.3549630045890808,-1.3056000471115112
13.60871148109436,0.2138170450925827,-0.8199816942214966,0.7104982137680054,0.013160906732082367,-0.3553444743156433,-1.3056000471115112
13.628763437271118,0.2141985148191452,-0.8199816942214966,0.7104982137680054,0.013160906732082367,-0.3553444743156433,-1.3052185773849487
13.64879322052002,0.2141985148191452,-0.8199816942214966,0.7104982137680054,0.013160906732082367,-0.3557259440422058,-1.3052185773849487
13.668858289718628,0.2141985148191452,-0.8199816942214966,0.7108796834945679,0.013160906732082367,-0.3561074137687683,-1.3052185773849487
13.688952207565308,0.2141985148191452,-0.8199816942214966,0.7108796834945679,0.012779430486261845,-0.3568703830242157,-1.3052185773849487
13.709087610244751,0.2141985148191452,-0.8199816942214966,0.7108796834945679,0.013160906732082367,-0.3572518527507782,-1.3052185773849487
13.729108095169067,0.2141985148191452,-0.8199816942214966,0.7108796834945679,0.013160906732082367,-0.3580147922039032,-1.3052185773849487
13.7491774559021,0.2141985148191452,-0.8203631639480591,0.7108796834945679,0.013160906732082367,-0.3580147922039032,-1.3048371076583862
13.769334554672241,0.2149614691734314,-0.8203631639480591,0.7112611532211304,0.013160906732082367,-0.3583962619304657,-1.3048371076583862
13.789390325546265,0.2153429538011551,-0.8211261034011841,0.7116426229476929,0.013160906732082367,-0.3587777614593506,-1.3048371076583862
13.809422254562378,0.2157244235277176,-0.8211261034011841,0.7120240926742554,0.012397955171763897,-0.3587777614593506,-1.3048371076583862
13.829525232315063,0.2161058932542801,-0.8218890428543091,0.7120240926742554,0.012779430486261845,-0.3587777614593506,-1.3048371076583862
13.849589824676514,0.2161058932542801,-0.8222705721855164,0.7124055624008179,0.013160906732082367,-0.3587777614593506,-1.3048371076583862
13.869664669036865,0.2161058932542801,-0.8226520419120789,0.7124055624008179,0.012779430486261845,-0.3583962619304657,-1.3052185773849487
13.889723062515259,0.2161058932542801,-0.8226520419120789,0.7124055624008179,0.013160906732082367,-0.3587777614593506,-1.3048371076583862
13.909854888916016,0.21648737788200378,-0.8226520419120789,0.7127870321273804,0.013160906732082367,-0.3591592311859131,-1.3048371076583862
13.929935932159424,0.2161058932542801,-0.8226520419120789,0.7127870321273804,0.012779430486261845,-0.3599221706390381,-1.3052185773849487
13.949986696243286,0.21648737788200378,-0.8226520419120789,0.7127870321273804,0.012779430486261845,-0.361066609621048,-1.3048371076583862
13.970160722732544,0.21686884760856628,-0.8226520419120789,0.7127870321273804,0.012779430486261845,-0.3614480793476105,-1.3048371076583862
13.99018406867981,0.21763180196285248,-0.8230335116386414,0.7127870321273804,0.013160906732082367,-0.3622110188007355,-1.3052185773849487
14.010233640670776,0.21839475631713867,-0.8230335116386414,0.7127870321273804,0.013160906732082367,-0.36259251832962036,-1.3048371076583862
14.030349016189575,0.21839475631713867,-0.8230335116386414,0.7131685614585876,0.013160906732082367,-0.3622110188007355,-1.3048371076583862
14.050512790679932,0.21839475631713867,-0.8230335116386414,0.7135500311851501,0.013160906732082367,-0.3622110188007355,-1.3052185773849487
14.070568323135376,0.21839475631713867,-0.8234149813652039,0.7135500311851501,0.013160906732082367,-0.3622110188007355,-1.3048371076583862
14.090653419494629,0.21839475631713867,-0.8234149813652039,0.7135500311851501,0.012779430486261845,-0.3622110188007355,-1.3048371076583862
14.110740661621094,0.21839475631713867,-0.8234149813652039,0.7139315009117126,0.012779430486261845,-0.36297398805618286,-1.3048371076583862
14.13083791732788,0.21839475631713867,-0.8237964510917664,0.7139315009117126,0.013160906732082367,-0.36373692750930786,-1.3048371076583862
14.150884866714478,0.21839475631713867,-0.8237964510917664,0.7139315009117126,0.013160906732082367,-0.36411839723587036,-1.3048371076583862
14.170958757400513,0.21839475631713867,-0.8241779208183289,0.7146944403648376,0.013923857361078262,-0.36449989676475525,-1.3048371076583862
