liuyurong129/humanoid-gym/humanoid/data/actual_q_20250523-024129.csv
timestamp,joint_1,joint_2,joint_3,joint_4,joint_5,joint_6
0.00015091896057128906,-0.00019073777366429567,0.0020981156267225742,-0.001716639962978661,-0.00019073777366429567,0.00019073777366429567,-0.00019073777366429567
0.020239591598510742,-0.00019073777366429567,0.001716639962978661,-0.001716639962978661,-0.00019073777366429567,0.00019073777366429567,-0.00019073777366429567
0.040311336517333984,-0.00019073777366429567,0.001716639962978661,-0.0009536888683214784,-0.00019073777366429567,-0.00019073777366429567,-0.00019073777366429567
0.06045842170715332,-0.00019073777366429567,0.001716639962978661,-0.0009536888683214784,-0.00019073777366429567,-0.00019073777366429567,-0.00019073777366429567
0.08047127723693848,-0.00019073777366429567,0.0013351644156500697,-0.0009536888683214784,-0.00019073777366429567,-0.00019073777366429567,-0.00019073777366429567
0.10052633285522461,-0.00019073777366429567,0.0013351644156500697,-0.000572213320992887,-0.00019073777366429567,-0.00019073777366429567,-0.00019073777366429567
0.1206367015838623,-0.000572213320992887,-0.004005493130534887,0.0036240178160369396,-0.00019073777366429567,-0.00019073777366429567,-0.00019073777366429567
0.14071416854858398,-0.0009536888683214784,-0.009346150793135166,0.00476844422519207,-0.00019073777366429567,0.00019073777366429567,-0.00019073777366429567
0.16080689430236816,-0.0009536888683214784,-0.013160906732082367,0.005912871100008488,-0.00019073777366429567,0.00019073777366429567,-0.00019073777366429567
0.18091988563537598,-0.0013351644156500697,-0.01430533267557621,0.005149920005351305,-0.00019073777366429567,-0.0009536888683214784,-0.00019073777366429567
0.20098185539245605,-0.0013351644156500697,-0.01583123579621315,0.005149920005351305,-0.00019073777366429567,-0.0009536888683214784,-0.00019073777366429567
0.22118020057678223,-0.0009536888683214784,-0.01773861236870289,0.005531395319849253,-0.00019073777366429567,-0.001716639962978661,-0.00019073777366429567
0.24120736122131348,-0.0013351644156500697,-0.020027466118335724,0.005531395319849253,-0.00019073777366429567,-0.0020981156267225742,-0.00019073777366429567
0.2612791061401367,-0.0013351644156500697,-0.02079041674733162,0.005531395319849253,-0.00019073777366429567,-0.0024795911740511656,-0.00019073777366429567
0.2813553810119629,-0.0013351644156500697,-0.021553369238972664,0.005531395319849253,-0.00019073777366429567,-0.0024795911740511656,-0.00019073777366429567
0.3014414310455322,-0.0013351644156500697,-0.023079270496964455,0.006294346414506435,-0.00019073777366429567,-0.0024795911740511656,-0.00019073777366429567
0.32152271270751953,-0.0013351644156500697,-0.02536812424659729,0.007057297509163618,-0.00019073777366429567,-0.0024795911740511656,-0.00019073777366429567
0.34163618087768555,-0.001716639962978661,-0.02689402550458908,0.007057297509163618,-0.00019073777366429567,-0.002861066721379757,-0.00019073777366429567
0.36174774169921875,-0.0024795911740511656,-0.027656977996230125,0.007057297509163618,-0.00019073777366429567,-0.0024795911740511656,-0.00019073777366429567
0.38181638717651367,-0.0024795911740511656,-0.029182879254221916,0.007438773289322853,-0.00019073777366429567,-0.002861066721379757,-0.00019073777366429567
0.4019484519958496,-0.0024795911740511656,-0.03032730519771576,0.007438773289322853,-0.00019073777366429567,-0.0032425422687083483,-0.00019073777366429567
0.4220418930053711,-0.0024795911740511656,-0.032616160809993744,0.007438773289322853,-0.00019073777366429567,-0.0036240178160369396,-0.00019073777366429567
0.44211888313293457,-0.0024795911740511656,-0.03452353551983833,0.007438773289322853,-0.00019073777366429567,-0.0036240178160369396,-0.00019073777366429567
0.46223998069763184,-0.002861066721379757,-0.03643091395497322,0.0078202486038208,-0.00019073777366429567,-0.0036240178160369396,-0.00019073777366429567
0.482419490814209,-0.0032425422687083483,-0.03795681521296501,0.00858320016413927,-0.00019073777366429567,-0.0032425422687083483,-0.00019073777366429567
0.5024642944335938,-0.0032425422687083483,-0.038719769567251205,0.00858320016413927,-0.00019073777366429567,-0.0036240178160369396,-0.00019073777366429567
0.5225265026092529,-0.0032425422687083483,-0.040245670825242996,0.00858320016413927,-0.00019073777366429567,-0.0036240178160369396,-0.00019073777366429567
0.5425946712493896,-0.0032425422687083483,-0.04177157208323479,0.00858320016413927,-0.00019073777366429567,-0.004005493130534887,-0.00019073777366429567
0.562882661819458,-0.0032425422687083483,-0.043678950518369675,0.00858320016413927,-0.00019073777366429567,-0.004005493130534887,0.00019073777366429567
0.5829715728759766,-0.0032425422687083483,-0.04482337832450867,0.008964675478637218,-0.00019073777366429567,-0.004386968910694122,-0.00019073777366429567
0.6031060218811035,-0.0036240178160369396,-0.04596780240535736,0.009346150793135166,-0.00019073777366429567,-0.004005493130534887,-0.00019073777366429567
0.6231589317321777,-0.0036240178160369396,-0.04749370738863945,0.009346150793135166,-0.00019073777366429567,-0.004386968910694122,-0.00019073777366429567
0.6432580947875977,-0.0036240178160369396,-0.04940108209848404,0.009727626107633114,-0.00019073777366429567,-0.004386968910694122,-0.00019073777366429567
0.6633334159851074,-0.0036240178160369396,-0.05054550990462303,0.009727626107633114,-0.00019073777366429567,-0.004386968910694122,-0.00019073777366429567
0.6834170818328857,-0.004005493130534887,-0.05245288833975792,0.009727626107633114,-0.00019073777366429567,-0.004386968910694122,-0.00019073777366429567
0.7034997940063477,-0.004386968910694122,-0.0551232174038887,0.010490577667951584,-0.00019073777366429567,-0.004386968910694122,-0.00019073777366429567
0.7235665321350098,-0.004386968910694122,-0.056267641484737396,0.010872052982449532,-0.00019073777366429567,-0.00476844422519207,-0.00019073777366429567
0.7436814308166504,-0.004386968910694122,-0.05741206929087639,0.01125352829694748,-0.00019073777366429567,-0.005149920005351305,-0.00019073777366429567
0.7637832164764404,-0.004386968910694122,-0.05855649709701538,0.01125352829694748,-0.00019073777366429567,-0.006294346414506435,-0.00019073777366429567
0.7838215827941895,-0.00476844422519207,-0.05970092490315437,0.011635004542768002,-0.00019073777366429567,-0.00667582219466567,-0.00019073777366429567
0.8040299415588379,-0.00476844422519207,-0.06160829961299896,0.011635004542768002,-0.00019073777366429567,-0.00667582219466567,-0.00019073777366429567
0.8240525722503662,-0.00476844422519207,-0.06351567804813385,0.01201647985726595,-0.00019073777366429567,-0.00667582219466567,0.00019073777366429567
0.8442783355712891,-0.005149920005351305,-0.06542305648326874,0.012397955171763897,-0.00019073777366429567,-0.00667582219466567,-0.00019073777366429567
0.8643734455108643,-0.005531395319849253,-0.06733043491840363,0.012397955171763897,-0.00019073777366429567,-0.00667582219466567,-0.00019073777366429567
0.8844559192657471,-0.005531395319849253,-0.06809338182210922,0.012397955171763897,-0.00019073777366429567,-0.007057297509163618,0.00019073777366429567
0.9046356678009033,-0.005531395319849253,-0.07000076025724411,0.012779430486261845,-0.00019073777366429567,-0.007057297509163618,0.00019073777366429567
0.9247562885284424,-0.005531395319849253,-0.071908138692379,0.012779430486261845,-0.00019073777366429567,-0.007057297509163618,0.00019073777366429567
0.9448106288909912,-0.005531395319849253,-0.07381551712751389,0.012779430486261845,-0.00019073777366429567,-0.007057297509163618,-0.00019073777366429567
0.9649343490600586,-0.005912871100008488,-0.07572289556264877,0.013542382046580315,-0.000572213320992887,-0.007057297509163618,0.00019073777366429567
0.9849987030029297,-0.006294346414506435,-0.07763027399778366,0.013923857361078262,-0.000572213320992887,-0.007057297509163618,0.00019073777366429567
1.0050969123840332,-0.00667582219466567,-0.07877469807863235,0.014686808921396732,-0.00019073777366429567,-0.007057297509163618,0.00019073777366429567
1.0251820087432861,-0.007438773289322853,-0.08068207651376724,0.014686808921396732,-0.000572213320992887,-0.007057297509163618,0.00019073777366429567
1.0452840328216553,-0.007438773289322853,-0.08297093212604523,0.014686808921396732,-0.000572213320992887,-0.007438773289322853,0.00019073777366429567
1.0653126239776611,-0.007438773289322853,-0.08602273464202881,0.014686808921396732,-0.000572213320992887,-0.0078202486038208,0.00019073777366429567
1.0855252742767334,-0.007438773289322853,-0.0875486359000206,0.015449759550392628,-0.000572213320992887,-0.0078202486038208,0.00019073777366429567
1.1055285930633545,-0.007438773289322853,-0.08907453715801239,0.015449759550392628,-0.000572213320992887,-0.008201723918318748,0.00019073777366429567
1.1256675720214844,-0.007438773289322853,-0.09174486994743347,0.015449759550392628,-0.000572213320992887,-0.008201723918318748,0.00019073777366429567
1.1457104682922363,-0.0078202486038208,-0.09365224838256836,0.01583123579621315,-0.000572213320992887,-0.008201723918318748,0.00019073777366429567
1.1658873558044434,-0.0078202486038208,-0.09517814964056015,0.01583123579621315,-0.0009536888683214784,-0.008201723918318748,0.00019073777366429567
1.1859796047210693,-0.0078202486038208,-0.09708552807569504,0.016212711110711098,-0.0009536888683214784,-0.008201723918318748,0.00019073777366429567
1.2061173915863037,-0.0078202486038208,-0.09784847497940063,0.016975661739706993,-0.0009536888683214784,-0.008201723918318748,0.00019073777366429567
1.2261621952056885,-0.00858320016413927,-0.10013733059167862,0.016975661739706993,-0.0009536888683214784,-0.008201723918318748,0.00019073777366429567
1.246326208114624,-0.00858320016413927,-0.1024261862039566,0.01773861236870289,-0.0009536888683214784,-0.008201723918318748,0.00019073777366429567
1.266359806060791,-0.00858320016413927,-0.10509651154279709,0.01773861236870289,-0.0009536888683214784,-0.008964675478637218,0.00019073777366429567
1.2864923477172852,-0.008964675478637218,-0.10700388997793198,0.01773861236870289,-0.0009536888683214784,-0.010109102353453636,0.00019073777366429567
1.3065593242645264,-0.008964675478637218,-0.10814831405878067,0.01773861236870289,-0.0013351644156500697,-0.010490577667951584,0.00019073777366429567
1.3267240524291992,-0.009346150793135166,-0.11043716967105865,0.018501564860343933,-0.0013351644156500697,-0.010490577667951584,0.00019073777366429567
1.3467860221862793,-0.009727626107633114,-0.11348897218704224,0.01888304017484188,-0.0013351644156500697,-0.010490577667951584,0.00019073777366429567
1.3674304485321045,-0.009727626107633114,-0.11577782779932022,0.01926451548933983,-0.0013351644156500697,-0.010490577667951584,0.00019073777366429567
1.387535572052002,-0.009727626107633114,-0.1180666834115982,0.019645990803837776,-0.0013351644156500697,-0.010490577667951584,0.00019073777366429567
1.4076058864593506,-0.009727626107633114,-0.1192111074924469,0.019645990803837776,-0.0013351644156500697,-0.010490577667951584,0.00019073777366429567
1.4277622699737549,-0.010109102353453636,-0.12188144028186798,0.019645990803837776,-0.001716639962978661,-0.010872052982449532,0.00019073777366429567
1.4478189945220947,-0.010490577667951584,-0.12493324279785156,0.020027466118335724,-0.001716639962978661,-0.010872052982449532,0.00019073777366429567
1.4678611755371094,-0.010872052982449532,-0.12722209095954895,0.02079041674733162,-0.001716639962978661,-0.010872052982449532,0.00019073777366429567
1.488067388534546,-0.010872052982449532,-0.13065537810325623,0.021553369238972664,-0.001716639962978661,-0.01125352829694748,0.00019073777366429567
1.508124828338623,-0.010872052982449532,-0.13218127191066742,0.02193484455347061,-0.001716639962978661,-0.011635004542768002,0.00019073777366429567
1.5282707214355469,-0.010872052982449532,-0.1340886503458023,0.022697795182466507,-0.001716639962978661,-0.01201647985726595,0.00019073777366429567
1.548365831375122,-0.011635004542768002,-0.1371404528617859,0.023079270496964455,-0.0020981156267225742,-0.012397955171763897,0.00019073777366429567
1.5685899257659912,-0.01201647985726595,-0.13981078565120697,0.023079270496964455,-0.0020981156267225742,-0.012397955171763897,0.00019073777366429567
1.5886409282684326,-0.01201647985726595,-0.14209964871406555,0.02384222112596035,-0.0020981156267225742,-0.012397955171763897,0.00019073777366429567
1.6087210178375244,-0.012397955171763897,-0.14438849687576294,0.02384222112596035,-0.0020981156267225742,-0.013160906732082367,0.000572213320992887
1.628920078277588,-0.012779430486261845,-0.14820325374603271,0.024223696440458298,-0.0020981156267225742,-0.013160906732082367,0.000572213320992887
1.6489341259002686,-0.012779430486261845,-0.1512550562620163,0.024986648932099342,-0.0020981156267225742,-0.013923857361078262,0.000572213320992887
1.6691858768463135,-0.013160906732082367,-0.15468832850456238,0.025749599561095238,-0.0020981156267225742,-0.01430533267557621,0.000572213320992887
1.689279556274414,-0.012779430486261845,-0.15697719156742096,0.026131074875593185,-0.0024795911740511656,-0.014686808921396732,0.000572213320992887
1.7093708515167236,-0.013160906732082367,-0.15888457000255585,0.026512550190091133,-0.0024795911740511656,-0.014686808921396732,0.000572213320992887
1.7295985221862793,-0.013923857361078262,-0.16117341816425323,0.02689402550458908,-0.0024795911740511656,-0.014686808921396732,0.000572213320992887
1.749699354171753,-0.013923857361078262,-0.16384375095367432,0.02727550081908703,-0.0024795911740511656,-0.014686808921396732,0.000572213320992887
1.7698814868927002,-0.013923857361078262,-0.1661325991153717,0.027656977996230125,-0.002861066721379757,-0.014686808921396732,0.000572213320992887
1.789923906326294,-0.01430533267557621,-0.16918440163135529,0.028038453310728073,-0.002861066721379757,-0.01506828423589468,0.000572213320992887
1.810011625289917,-0.014686808921396732,-0.17185473442077637,0.02880140393972397,-0.002861066721379757,-0.014686808921396732,0.000572213320992887
1.8300600051879883,-0.01506828423589468,-0.17414358258247375,0.029182879254221916,-0.002861066721379757,-0.015449759550392628,0.000572213320992887
1.8501553535461426,-0.01506828423589468,-0.17719538509845734,0.029564354568719864,-0.002861066721379757,-0.015449759550392628,0.000572213320992887
1.8702325820922852,-0.01506828423589468,-0.1806286722421646,0.03032730519771576,-0.002861066721379757,-0.016212711110711098,0.000572213320992887
1.8902897834777832,-0.015449759550392628,-0.1832990050315857,0.03032730519771576,-0.0032425422687083483,-0.016594186425209045,0.000572213320992887
1.910367488861084,-0.01583123579621315,-0.18596932291984558,0.030708782374858856,-0.0032425422687083483,-0.016594186425209045,0.0009536888683214784
1.9305009841918945,-0.016212711110711098,-0.18787670135498047,0.03147173300385475,-0.0032425422687083483,-0.016594186425209045,0.0009536888683214784
1.9508192539215088,-0.01583123579621315,-0.18978407979011536,0.03147173300385475,-0.002861066721379757,-0.016975661739706993,0.0009536888683214784
1.9709618091583252,-0.016212711110711098,-0.19359883666038513,0.03223468363285065,-0.0032425422687083483,-0.01773861236870289,0.0009536888683214784
1.991246223449707,-0.016212711110711098,-0.1966506391763687,0.032616160809993744,-0.0032425422687083483,-0.018120087683200836,0.0009536888683214784
2.011308431625366,-0.01735713705420494,-0.20122835040092468,0.034142062067985535,-0.0032425422687083483,-0.018120087683200836,0.0009536888683214784
2.031480312347412,-0.01773861236870289,-0.20504310727119446,0.03452353551983833,-0.0032425422687083483,-0.018120087683200836,0.0009536888683214784
2.0514917373657227,-0.018120087683200836,-0.21000228822231293,0.03528648987412453,-0.0032425422687083483,-0.01888304017484188,0.0013351644156500697
2.071561336517334,-0.018120087683200836,-0.2130540907382965,0.03604944050312042,-0.0032425422687083483,-0.019645990803837776,0.0013351644156500697
2.0916712284088135,-0.018120087683200836,-0.21839475631713867,0.037193864583969116,-0.0032425422687083483,-0.02040894143283367,0.0013351644156500697
2.1117360591888428,-0.018501564860343933,-0.22373540699481964,0.03833829239010811,-0.0032425422687083483,-0.021171892061829567,0.001716639962978661
2.1319141387939453,-0.01926451548933983,-0.2286945879459381,0.039101243019104004,-0.0036240178160369396,-0.021553369238972664,0.001716639962978661
2.1520116329193115,-0.019645990803837776,-0.23250934481620789,0.040245670825242996,-0.0036240178160369396,-0.02193484455347061,0.001716639962978661
2.17208194732666,-0.020027466118335724,-0.23594263195991516,0.04100862145423889,-0.0036240178160369396,-0.021553369238972664,0.0020981156267225742
2.1921701431274414,-0.020027466118335724,-0.24013885855674744,0.042153049260377884,-0.0036240178160369396,-0.02231631986796856,0.0020981156267225742
2.212247848510742,-0.02040894143283367,-0.2458609938621521,0.04406042397022247,-0.0036240178160369396,-0.022697795182466507,0.0024795911740511656
2.232318878173828,-0.02040894143283367,-0.25234606862068176,0.04444190114736557,-0.0036240178160369396,-0.022697795182466507,0.0032425422687083483
2.2524383068084717,-0.021553369238972664,-0.2584496736526489,0.04596780240535736,-0.0036240178160369396,-0.022697795182466507,0.0036240178160369396
2.2724759578704834,-0.02231631986796856,-0.2626459002494812,0.04711223021149635,-0.0036240178160369396,-0.022697795182466507,0.0036240178160369396
2.293416738510132,-0.022697795182466507,-0.26874953508377075,0.048256658017635345,-0.0036240178160369396,-0.023079270496964455,0.0036240178160369396
2.3134849071502686,-0.023460745811462402,-0.2759975492954254,0.050164032727479935,-0.0036240178160369396,-0.023079270496964455,0.004005493130534887
2.3335578441619873,-0.024605173617601395,-0.28591591119766235,0.05207141116261482,-0.0036240178160369396,-0.02384222112596035,0.004005493130534887
2.3536417484283447,-0.025749599561095238,-0.2962157726287842,0.05436026677489281,-0.0036240178160369396,-0.024605173617601395,0.004005493130534887
2.37381911277771,-0.026512550190091133,-0.30422675609588623,0.058175019919872284,-0.0036240178160369396,-0.02536812424659729,0.004386968910694122
2.39388370513916,-0.02689402550458908,-0.3103303611278534,0.06008239835500717,-0.0036240178160369396,-0.026131074875593185,0.004386968910694122
2.413986921310425,-0.028038453310728073,-0.31910428404808044,0.06351567804813385,-0.0036240178160369396,-0.026512550190091133,0.00476844422519207
2.4340808391571045,-0.02994582988321781,-0.3290226459503174,0.06847485899925232,-0.0036240178160369396,-0.026131074875593185,0.00476844422519207
2.4541661739349365,-0.03223468363285065,-0.3393225073814392,0.0715266615152359,-0.0036240178160369396,-0.02689402550458908,0.005149920005351305
2.474538564682007,-0.03452353551983833,-0.34771496057510376,0.07572289556264877,-0.0036240178160369396,-0.02689402550458908,0.005912871100008488
2.4947075843811035,-0.03604944050312042,-0.3545815348625183,0.08106355369091034,-0.004005493130534887,-0.027656977996230125,0.007438773289322853
2.5148508548736572,-0.03681239113211632,-0.3572518527507782,0.08335240930318832,-0.0036240178160369396,-0.028038453310728073,0.0078202486038208
2.534972667694092,-0.038719769567251205,-0.361066609621048,0.086785688996315,-0.004005493130534887,-0.029564354568719864,0.008201723918318748
2.55509090423584,-0.040627144277095795,-0.3622110188007355,0.08907453715801239,-0.0036240178160369396,-0.03032730519771576,0.008201723918318748
2.5751614570617676,-0.040627144277095795,-0.3622110188007355,0.09021896868944168,-0.0036240178160369396,-0.03032730519771576,0.008201723918318748
2.5952420234680176,-0.04100862145423889,-0.3622110188007355,0.09212634712457657,-0.0036240178160369396,-0.03223468363285065,0.00858320016413927
2.6153547763824463,-0.04177157208323479,-0.3622110188007355,0.09327077120542526,-0.0036240178160369396,-0.03299763426184654,0.00858320016413927
2.6359763145446777,-0.04177157208323479,-0.3622110188007355,0.09479667246341705,-0.0036240178160369396,-0.032616160809993744,0.00858320016413927
2.6561427116394043,-0.04177157208323479,-0.3622110188007355,0.09479667246341705,-0.004005493130534887,-0.03299763426184654,0.008964675478637218
2.67622971534729,-0.042153049260377884,-0.361829549074173,0.09479667246341705,-0.004005493130534887,-0.03299763426184654,0.008964675478637218
2.6962432861328125,-0.04291599988937378,-0.3622110188007355,0.09555962681770325,-0.004005493130534887,-0.03299763426184654,0.008964675478637218
2.7163665294647217,-0.04329747334122658,-0.361829549074173,0.09555962681770325,-0.0036240178160369396,-0.03299763426184654,0.008964675478637218
2.7364418506622314,-0.043678950518369675,-0.361829549074173,0.09594109654426575,-0.004005493130534887,-0.032616160809993744,0.009346150793135166
2.7564685344696045,-0.04406042397022247,-0.3614480793476105,0.09670405089855194,-0.004005493130534887,-0.032616160809993744,0.009346150793135166
2.7765512466430664,-0.04444190114736557,-0.3614480793476105,0.09670405089855194,-0.004005493130534887,-0.032616160809993744,0.009346150793135166
2.7966551780700684,-0.04482337832450867,-0.3606851398944855,0.09708552807569504,-0.004005493130534887,-0.032616160809993744,0.009727626107633114
2.8167147636413574,-0.045204851776361465,-0.3603036403656006,0.09746700525283813,-0.004005493130534887,-0.03299763426184654,0.009727626107633114
2.836818218231201,-0.04596780240535736,-0.3599221706390381,0.09784847497940063,-0.004005493130534887,-0.03299763426184654,0.010109102353453636
2.856931209564209,-0.04634927958250046,-0.3595407009124756,0.09861142933368683,-0.004005493130534887,-0.03299763426184654,0.010490577667951584
2.877002716064453,-0.046730753034353256,-0.3595407009124756,0.09861142933368683,-0.004005493130534887,-0.03299763426184654,0.010872052982449532
2.8970935344696045,-0.046730753034353256,-0.3587777614593506,0.09937438368797302,-0.004005493130534887,-0.03299763426184654,0.010872052982449532
2.9172749519348145,-0.046730753034353256,-0.3583962619304657,0.09975585341453552,-0.004005493130534887,-0.03299763426184654,0.01125352829694748
2.937418222427368,-0.04711223021149635,-0.3580147922039032,0.09975585341453552,-0.004005493130534887,-0.03299763426184654,0.01125352829694748
2.9574801921844482,-0.04749370738863945,-0.3576333224773407,0.09975585341453552,-0.004005493130534887,-0.03299763426184654,0.01125352829694748
2.9775478839874268,-0.04787518084049225,-0.3576333224773407,0.10013733059167862,-0.004005493130534887,-0.032616160809993744,0.01125352829694748
2.9976449012756348,-0.048256658017635345,-0.3572518527507782,0.10090028494596481,-0.004005493130534887,-0.032616160809993744,0.01125352829694748
3.017702341079712,-0.048256658017635345,-0.3568703830242157,0.10128175467252731,-0.004005493130534887,-0.03299763426184654,0.01125352829694748
3.0378592014312744,-0.048638131469488144,-0.3561074137687683,0.10204470902681351,-0.004005493130534887,-0.03299763426184654,0.01125352829694748
3.057910919189453,-0.04901960864663124,-0.3557259440422058,0.1028076633810997,-0.004005493130534887,-0.03299763426184654,0.01125352829694748
3.078303575515747,-0.04940108209848404,-0.3557259440422058,0.1028076633810997,-0.004005493130534887,-0.03299763426184654,0.01125352829694748
3.098475933074951,-0.050164032727479935,-0.3553444743156433,0.1035706102848053,-0.004005493130534887,-0.032616160809993744,0.01125352829694748
3.1185340881347656,-0.05092698708176613,-0.3549630045890808,0.1039520874619484,-0.004005493130534887,-0.03299763426184654,0.01125352829694748
3.138584613800049,-0.05092698708176613,-0.3545815348625183,0.1039520874619484,-0.004005493130534887,-0.03299763426184654,0.01125352829694748
3.1586625576019287,-0.05092698708176613,-0.3545815348625183,0.10433356463909149,-0.004005493130534887,-0.03299763426184654,0.01125352829694748
3.178745985031128,-0.05092698708176613,-0.3545815348625183,0.10471503436565399,-0.004005493130534887,-0.03299763426184654,0.01125352829694748
3.198897123336792,-0.05207141116261482,-0.3538185656070709,0.10547798871994019,-0.004005493130534887,-0.03337911143898964,0.01125352829694748
3.2189199924468994,-0.05245288833975792,-0.3534370958805084,0.10624094307422638,-0.004005493130534887,-0.03299763426184654,0.01125352829694748
3.2389276027679443,-0.05207141116261482,-0.3534370958805084,0.10624094307422638,-0.004386968910694122,-0.03299763426184654,0.01125352829694748
3.259024143218994,-0.05283436179161072,-0.3530556261539459,0.10700388997793198,-0.004005493130534887,-0.03299763426184654,0.01125352829694748
3.279226779937744,-0.053215838968753815,-0.35229265689849854,0.10700388997793198,-0.004005493130534887,-0.03299763426184654,0.01125352829694748
3.2992961406707764,-0.05397878959774971,-0.35152971744537354,0.10700388997793198,-0.004005493130534887,-0.03299763426184654,0.01125352829694748
3.3194658756256104,-0.05397878959774971,-0.35152971744537354,0.10738536715507507,-0.004005493130534887,-0.03299763426184654,0.01125352829694748
3.3395700454711914,-0.05397878959774971,-0.35152971744537354,0.10852979123592377,-0.004005493130534887,-0.03337911143898964,0.01125352829694748
3.3596980571746826,-0.054741740226745605,-0.35114824771881104,0.10891126841306686,-0.004005493130534887,-0.03337911143898964,0.011635004542768002
3.379814624786377,-0.0551232174038887,-0.35038527846336365,0.10929274559020996,-0.004005493130534887,-0.03337911143898964,0.01125352829694748
3.4002482891082764,-0.0551232174038887,-0.34962233901023865,0.10967422276735306,-0.004005493130534887,-0.03337911143898964,0.011635004542768002
3.4203574657440186,-0.0555046908557415,-0.34962233901023865,0.11043716967105865,-0.004005493130534887,-0.03337911143898964,0.011635004542768002
3.440411329269409,-0.0558861680328846,-0.34924086928367615,0.11043716967105865,-0.004005493130534887,-0.03337911143898964,0.011635004542768002
3.4604904651641846,-0.056267641484737396,-0.34885939955711365,0.11081864684820175,-0.004005493130534887,-0.03337911143898964,0.011635004542768002
3.480717420578003,-0.05664911866188049,-0.34809643030166626,0.11120012402534485,-0.004005493130534887,-0.03337911143898964,0.011635004542768002
3.500890016555786,-0.05703059583902359,-0.34771496057510376,0.11120012402534485,-0.004005493130534887,-0.03337911143898964,0.011635004542768002
3.521075487136841,-0.05741206929087639,-0.34733349084854126,0.11234454810619354,-0.004005493130534887,-0.03337911143898964,0.011635004542768002
3.5410938262939453,-0.05741206929087639,-0.34695202112197876,0.11272602528333664,-0.004005493130534887,-0.03337911143898964,0.011635004542768002
3.5613491535186768,-0.058175019919872284,-0.34657052159309387,0.11310750246047974,-0.004005493130534887,-0.03337911143898964,0.011635004542768002
3.581446647644043,-0.058175019919872284,-0.34542611241340637,0.11348897218704224,-0.004005493130534887,-0.03337911143898964,0.011635004542768002
3.6014857292175293,-0.05855649709701538,-0.34542611241340637,0.11348897218704224,-0.004005493130534887,-0.03337911143898964,0.011635004542768002
3.6215927600860596,-0.05893797054886818,-0.34542611241340637,0.11425192654132843,-0.004005493130534887,-0.03337911143898964,0.011635004542768002
3.641664981842041,-0.059319447726011276,-0.34504464268684387,0.11425192654132843,-0.004005493130534887,-0.03376058489084244,0.011635004542768002
3.6617166996002197,-0.05970092490315437,-0.3442816734313965,0.11463340371847153,-0.004386968910694122,-0.03376058489084244,0.011635004542768002
3.681806802749634,-0.06046387553215027,-0.343900203704834,0.11501488089561462,-0.004005493130534887,-0.03337911143898964,0.011635004542768002
3.7018966674804688,-0.061226826161146164,-0.3435187339782715,0.11539635062217712,-0.004005493130534887,-0.03376058489084244,0.01201647985726595
3.722080707550049,-0.061226826161146164,-0.343137264251709,0.11615930497646332,-0.004005493130534887,-0.03376058489084244,0.011635004542768002
3.742194652557373,-0.06160829961299896,-0.343137264251709,0.11654078215360641,-0.004386968910694122,-0.034142062067985535,0.01201647985726595
3.7622463703155518,-0.06198977679014206,-0.3427557647228241,0.11692225188016891,-0.004386968910694122,-0.034142062067985535,0.01201647985726595
3.7823281288146973,-0.06237125024199486,-0.3419928252696991,0.11730372905731201,-0.004386968910694122,-0.034142062067985535,0.01201647985726595
3.802523374557495,-0.06275273114442825,-0.3419928252696991,0.11730372905731201,-0.004386968910694122,-0.034142062067985535,0.01201647985726595
3.822523355484009,-0.06275273114442825,-0.3416113555431366,0.11768520623445511,-0.004386968910694122,-0.034142062067985535,0.01201647985726595
3.8428852558135986,-0.06313420087099075,-0.3412298858165741,0.1184481605887413,-0.004386968910694122,-0.034142062067985535,0.01201647985726595
3.862990379333496,-0.06351567804813385,-0.3408484160900116,0.1188296303153038,-0.004386968910694122,-0.034142062067985535,0.01201647985726595
3.8830721378326416,-0.06351567804813385,-0.3408484160900116,0.11959258466959,-0.004386968910694122,-0.034142062067985535,0.01201647985726595
3.9032700061798096,-0.06466010212898254,-0.3400854468345642,0.1199740618467331,-0.004386968910694122,-0.034142062067985535,0.01201647985726595
3.9232871532440186,-0.06504157930612564,-0.3393225073814392,0.12073700875043869,-0.004386968910694122,-0.034142062067985535,0.01201647985726595
3.9434170722961426,-0.06542305648326874,-0.3393225073814392,0.12111848592758179,-0.004386968910694122,-0.034142062067985535,0.012397955171763897
3.9634687900543213,-0.06580453366041183,-0.3389410376548767,0.12149996310472488,-0.004386968910694122,-0.03452353551983833,0.012397955171763897
3.9835357666015625,-0.06656748056411743,-0.3389410376548767,0.12188144028186798,-0.004386968910694122,-0.03452353551983833,0.012397955171763897
4.00375771522522,-0.06694895774126053,-0.3385595381259918,0.12188144028186798,-0.004386968910694122,-0.03490501269698143,0.012397955171763897
4.023875951766968,-0.06733043491840363,-0.3377965986728668,0.12264438718557358,-0.004386968910694122,-0.03490501269698143,0.012397955171763897
4.044001579284668,-0.06771191209554672,-0.3374151289463043,0.12340734153985977,-0.004386968910694122,-0.03490501269698143,0.012397955171763897
4.06407618522644,-0.06847485899925232,-0.3370336592197418,0.12378881871700287,-0.00476844422519207,-0.03490501269698143,0.012397955171763897
4.084183931350708,-0.06847485899925232,-0.33588922023773193,0.12493324279785156,-0.004386968910694122,-0.03490501269698143,0.012779430486261845
4.10449481010437,-0.06847485899925232,-0.33588922023773193,0.12493324279785156,-0.00476844422519207,-0.03528648987412453,0.012779430486261845
4.124588489532471,-0.06885633617639542,-0.33512628078460693,0.12569619715213776,-0.00476844422519207,-0.03528648987412453,0.012779430486261845
4.144652605056763,-0.06961929053068161,-0.33512628078460693,0.12569619715213776,-0.00476844422519207,-0.035667963325977325,0.012779430486261845
4.164852619171143,-0.06961929053068161,-0.33512628078460693,0.12569619715213776,-0.00476844422519207,-0.035667963325977325,0.012779430486261845
4.1848978996276855,-0.07000076025724411,-0.33474478125572205,0.12607766687870026,-0.00476844422519207,-0.035667963325977325,0.013160906732082367
4.204930305480957,-0.07038223743438721,-0.33474478125572205,0.12684062123298645,-0.00476844422519207,-0.035667963325977325,0.013160906732082367
4.225060224533081,-0.0707637146115303,-0.33398184180259705,0.12722209095954895,-0.00476844422519207,-0.035667963325977325,0.013542382046580315
4.245137453079224,-0.0711451917886734,-0.33321890234947205,0.12798504531383514,-0.00476844422519207,-0.035667963325977325,0.013542382046580315
4.265224933624268,-0.071908138692379,-0.33283740282058716,0.12798504531383514,-0.00476844422519207,-0.03528648987412453,0.013923857361078262
4.285321950912476,-0.071908138692379,-0.33283740282058716,0.12874799966812134,-0.00476844422519207,-0.035667963325977325,0.01430533267557621
4.305412292480469,-0.0722896158695221,-0.33283740282058716,0.12874799966812134,-0.00476844422519207,-0.03604944050312042,0.014686808921396732
4.3255295753479,-0.07267109304666519,-0.33245593309402466,0.12874799966812134,-0.00476844422519207,-0.03604944050312042,0.014686808921396732
4.345636606216431,-0.07305257022380829,-0.33207446336746216,0.12912946939468384,-0.00476844422519207,-0.03604944050312042,0.014686808921396732
4.365729570388794,-0.07343403995037079,-0.33131152391433716,0.12951095402240753,-0.00476844422519207,-0.03604944050312042,0.01506828423589468
4.386028051376343,-0.07381551712751389,-0.33093002438545227,0.13027389347553253,-0.00476844422519207,-0.03604944050312042,0.01506828423589468
4.406125545501709,-0.07381551712751389,-0.33054855465888977,0.13103684782981873,-0.005149920005351305,-0.03604944050312042,0.01506828423589468
4.426208972930908,-0.07419699430465698,-0.32978561520576477,0.13103684782981873,-0.005149920005351305,-0.03604944050312042,0.01506828423589468
4.446308612823486,-0.07495994865894318,-0.32940414547920227,0.13141833245754242,-0.005531395319849253,-0.03604944050312042,0.01506828423589468
4.466369390487671,-0.07534141838550568,-0.32940414547920227,0.13179980218410492,-0.005531395319849253,-0.03604944050312042,0.01506828423589468
4.48643159866333,-0.07572289556264877,-0.32940414547920227,0.13179980218410492,-0.005912871100008488,-0.03604944050312042,0.01506828423589468
4.506579637527466,-0.07610437273979187,-0.3286411762237549,0.13179980218410492,-0.005912871100008488,-0.03643091395497322,0.01506828423589468
4.526738882064819,-0.07648584991693497,-0.3282597064971924,0.1325627565383911,-0.006294346414506435,-0.03643091395497322,0.01506828423589468
4.546735763549805,-0.07686731964349747,-0.3274967670440674,0.1333257108926773,-0.006294346414506435,-0.03643091395497322,0.01506828423589468
4.566936016082764,-0.07724879682064056,-0.3271152675151825,0.1340886503458023,-0.00667582219466567,-0.03643091395497322,0.01506828423589468
4.587000370025635,-0.07763027399778366,-0.32673379778862,0.1348516047000885,-0.00667582219466567,-0.03643091395497322,0.01506828423589468
4.607136964797974,-0.07801175117492676,-0.3263523280620575,0.1356145590543747,-0.00667582219466567,-0.03643091395497322,0.015449759550392628
4.627194404602051,-0.07839322835206985,-0.325970858335495,0.1359960287809372,-0.007057297509163618,-0.03643091395497322,0.015449759550392628
4.647347688674927,-0.07915617525577545,-0.32520791888237,0.1359960287809372,-0.007057297509163618,-0.03643091395497322,0.015449759550392628
4.667450428009033,-0.07991912961006165,-0.3248264193534851,0.1363775134086609,-0.007438773289322853,-0.03643091395497322,0.015449759550392628
4.687517881393433,-0.08030059933662415,-0.3244449496269226,0.13752193748950958,-0.007438773289322853,-0.03643091395497322,0.015449759550392628
4.70760703086853,-0.08068207651376724,-0.3244449496269226,0.13790340721607208,-0.007438773289322853,-0.03681239113211632,0.015449759550392628
4.7276856899261475,-0.08106355369091034,-0.3240634799003601,0.13866636157035828,-0.007438773289322853,-0.03681239113211632,0.015449759550392628
4.747792720794678,-0.08220797777175903,-0.3233005404472351,0.13904783129692078,-0.007438773289322853,-0.03681239113211632,0.015449759550392628
4.767894268035889,-0.08258945494890213,-0.3229190409183502,0.13942931592464447,-0.007438773289322853,-0.03681239113211632,0.01583123579621315
4.787932395935059,-0.08258945494890213,-0.3225375711917877,0.13981078565120697,-0.007438773289322853,-0.03681239113211632,0.01583123579621315
4.808031797409058,-0.08335240930318832,-0.3225375711917877,0.14019227027893066,-0.007438773289322853,-0.03681239113211632,0.01583123579621315
4.828106641769409,-0.08335240930318832,-0.3221561014652252,0.14057374000549316,-0.007438773289322853,-0.03681239113211632,0.01583123579621315
4.8482420444488525,-0.08373387902975082,-0.3217746317386627,0.14095520973205566,-0.007438773289322853,-0.03681239113211632,0.01583123579621315
4.868406534194946,-0.08411535620689392,-0.32101166248321533,0.14209964871406555,-0.007438773289322853,-0.03681239113211632,0.016212711110711098
4.889124870300293,-0.08411535620689392,-0.32063019275665283,0.14248111844062805,-0.007438773289322853,-0.03681239113211632,0.016212711110711098
4.909187078475952,-0.08449683338403702,-0.31986725330352783,0.14286258816719055,-0.0078202486038208,-0.03681239113211632,0.016212711110711098
4.929322719573975,-0.08449683338403702,-0.31910428404808044,0.14362554252147675,-0.0078202486038208,-0.037193864583969116,0.016594186425209045
4.949435710906982,-0.08525978773832321,-0.31872281432151794,0.14324407279491425,-0.0078202486038208,-0.03681239113211632,0.016594186425209045
4.969513177871704,-0.08564125746488571,-0.31834134459495544,0.14400701224803925,-0.0078202486038208,-0.03681239113211632,0.016594186425209045
4.989687919616699,-0.0864042118191719,-0.31834134459495544,0.14438849687576294,-0.0078202486038208,-0.03681239113211632,0.016975661739706993
5.009829998016357,-0.0871671661734581,-0.31795987486839294,0.14515145123004913,-0.0078202486038208,-0.037193864583969116,0.01735713705420494
5.029922962188721,-0.0875486359000206,-0.31795987486839294,0.14591439068317413,-0.0078202486038208,-0.03681239113211632,0.01773861236870289
5.050022125244141,-0.0883115902543068,-0.31719690561294556,0.14629587531089783,-0.0078202486038208,-0.037193864583969116,0.018501564860343933
5.070073366165161,-0.08869306743144989,-0.31643396615982056,0.14667734503746033,-0.0078202486038208,-0.03757534176111221,0.01888304017484188
5.0901384353637695,-0.08869306743144989,-0.31605249643325806,0.14667734503746033,-0.0078202486038208,-0.03757534176111221,0.01888304017484188
5.1102800369262695,-0.08907453715801239,-0.31567102670669556,0.14705882966518402,-0.0078202486038208,-0.03757534176111221,0.01888304017484188
5.130382061004639,-0.08983749151229858,-0.31490805745124817,0.14782176911830902,-0.0078202486038208,-0.037193864583969116,0.01888304017484188
5.150454521179199,-0.09021896868944168,-0.31452658772468567,0.14782176911830902,-0.0078202486038208,-0.03757534176111221,0.01888304017484188
5.170539855957031,-0.09060044586658478,-0.31376364827156067,0.14858472347259521,-0.0078202486038208,-0.037193864583969116,0.01888304017484188
5.190621376037598,-0.09060044586658478,-0.3130006790161133,0.1497291475534439,-0.008201723918318748,-0.03757534176111221,0.01888304017484188
5.210913181304932,-0.09060044586658478,-0.3130006790161133,0.1501106321811676,-0.008201723918318748,-0.03757534176111221,0.01888304017484188
5.231019020080566,-0.09136339277029037,-0.3126192092895508,0.1504921019077301,-0.008201723918318748,-0.03757534176111221,0.01888304017484188
5.251094579696655,-0.09174486994743347,-0.3118562698364258,0.1504921019077301,-0.008201723918318748,-0.03757534176111221,0.01888304017484188
5.271235466003418,-0.09212634712457657,-0.3118562698364258,0.1504921019077301,-0.008201723918318748,-0.03795681521296501,0.01888304017484188
5.291340589523315,-0.09288929402828217,-0.3114747703075409,0.1508735716342926,-0.008201723918318748,-0.03757534176111221,0.01888304017484188
5.311418771743774,-0.09288929402828217,-0.3114747703075409,0.1520180106163025,-0.008201723918318748,-0.03795681521296501,0.01888304017484188
5.331593036651611,-0.09327077120542526,-0.3110933005809784,0.152399480342865,-0.008201723918318748,-0.03795681521296501,0.01926451548933983
5.35169243812561,-0.09403372555971146,-0.3103303611278534,0.1527809500694275,-0.008201723918318748,-0.03795681521296501,0.01926451548933983
5.3717615604400635,-0.09479667246341705,-0.3099488914012909,0.15354390442371368,-0.008201723918318748,-0.03757534176111221,0.01926451548933983
5.391832590103149,-0.09479667246341705,-0.3099488914012909,0.15392538905143738,-0.008201723918318748,-0.03795681521296501,0.01926451548933983
5.411974191665649,-0.09479667246341705,-0.309567391872406,0.15430685877799988,-0.008201723918318748,-0.03833829239010811,0.01926451548933983
5.4320220947265625,-0.09517814964056015,-0.309567391872406,0.15468832850456238,-0.008201723918318748,-0.038719769567251205,0.01926451548933983
5.4523255825042725,-0.09594109654426575,-0.308804452419281,0.15468832850456238,-0.008201723918318748,-0.03833829239010811,0.01926451548933983
5.472445726394653,-0.09632257372140884,-0.308041512966156,0.15506981313228607,-0.008201723918318748,-0.03833829239010811,0.01926451548933983
5.492499828338623,-0.09670405089855194,-0.3076600432395935,0.15583276748657227,-0.008201723918318748,-0.03833829239010811,0.019645990803837776
5.513095378875732,-0.09708552807569504,-0.3076600432395935,0.15659570693969727,-0.008201723918318748,-0.03833829239010811,0.019645990803837776
5.533186912536621,-0.09784847497940063,-0.3068970739841461,0.15735866129398346,-0.00858320016413927,-0.03833829239010811,0.019645990803837776
5.5532708168029785,-0.09822995215654373,-0.3065156042575836,0.15774014592170715,-0.00858320016413927,-0.038719769567251205,0.019645990803837776
5.573349714279175,-0.09899290651082993,-0.3057526648044586,0.15774014592170715,-0.00858320016413927,-0.038719769567251205,0.019645990803837776
5.593451261520386,-0.09899290651082993,-0.30537116527557373,0.15812161564826965,-0.00858320016413927,-0.039101243019104004,0.019645990803837776
5.613489389419556,-0.09937438368797302,-0.30537116527557373,0.15850308537483215,-0.00858320016413927,-0.0394827201962471,0.019645990803837776
5.633575677871704,-0.10013733059167862,-0.30460822582244873,0.15926603972911835,-0.00858320016413927,-0.0394827201962471,0.020027466118335724
5.653659105300903,-0.10013733059167862,-0.30422675609588623,0.16002899408340454,-0.00858320016413927,-0.0398641936480999,0.020027466118335724
5.673714637756348,-0.10051880776882172,-0.30384528636932373,0.16002899408340454,-0.00858320016413927,-0.0398641936480999,0.020027466118335724
5.6938066482543945,-0.10090028494596481,-0.30346378684043884,0.16079194843769073,-0.008964675478637218,-0.0394827201962471,0.02040894143283367
5.713879108428955,-0.10128175467252731,-0.30308231711387634,0.16117341816425323,-0.008964675478637218,-0.0398641936480999,0.02040894143283367
5.733997106552124,-0.10204470902681351,-0.30308231711387634,0.16117341816425323,-0.008964675478637218,-0.0398641936480999,0.02079041674733162
5.754094123840332,-0.1024261862039566,-0.30231937766075134,0.16117341816425323,-0.008964675478637218,-0.0398641936480999,0.02079041674733162
5.774171829223633,-0.1024261862039566,-0.30155640840530396,0.16231784224510193,-0.008964675478637218,-0.040245670825242996,0.021553369238972664
5.794350862503052,-0.1031891331076622,-0.30155640840530396,0.16231784224510193,-0.008964675478637218,-0.040245670825242996,0.02193484455347061
5.814444065093994,-0.1035706102848053,-0.30117493867874146,0.16308079659938812,-0.008964675478637218,-0.040627144277095795,0.02231631986796856
5.8345794677734375,-0.10433356463909149,-0.30041199922561646,0.16346226632595062,-0.009346150793135166,-0.040245670825242996,0.02231631986796856
5.85477089881897,-0.10509651154279709,-0.30003052949905396,0.16422522068023682,-0.009346150793135166,-0.040245670825242996,0.02231631986796856
5.874829053878784,-0.10547798871994019,-0.29926756024360657,0.1646067053079605,-0.009346150793135166,-0.040245670825242996,0.02231631986796856
5.894916534423828,-0.10509651154279709,-0.29926756024360657,0.1646067053079605,-0.009346150793135166,-0.040627144277095795,0.02231631986796856
5.914976596832275,-0.10547798871994019,-0.29888609051704407,0.1653696447610855,-0.009346150793135166,-0.04100862145423889,0.02231631986796856
5.9350502490997314,-0.10624094307422638,-0.29812315106391907,0.1653696447610855,-0.009346150793135166,-0.040627144277095795,0.02231631986796856
5.955125331878662,-0.10662241280078888,-0.2973601818084717,0.1657511293888092,-0.009727626107633114,-0.040627144277095795,0.02231631986796856
5.97528600692749,-0.10700388997793198,-0.2973601818084717,0.1672770231962204,-0.009727626107633114,-0.040627144277095795,0.02231631986796856
5.995335578918457,-0.10738536715507507,-0.2969787120819092,0.1676585078239441,-0.009727626107633114,-0.040627144277095795,0.022697795182466507
6.0154125690460205,-0.10738536715507507,-0.2965972423553467,0.1684214472770691,-0.009727626107633114,-0.040627144277095795,0.022697795182466507
6.035549640655518,-0.10814831405878067,-0.2958342730998993,0.16880293190479279,-0.010109102353453636,-0.040627144277095795,0.022697795182466507
6.055582046508789,-0.10891126841306686,-0.2950713336467743,0.16918440163135529,-0.010109102353453636,-0.040627144277095795,0.022697795182466507
6.0757129192352295,-0.10929274559020996,-0.2954528033733368,0.16956588625907898,-0.010109102353453636,-0.040627144277095795,0.022697795182466507
6.0958638191223145,-0.11005569249391556,-0.2946898639202118,0.16994735598564148,-0.010490577667951584,-0.040627144277095795,0.022697795182466507
6.115911245346069,-0.11043716967105865,-0.2946898639202118,0.17032882571220398,-0.010490577667951584,-0.04100862145423889,0.022697795182466507
6.136045217514038,-0.11120012402534485,-0.2943083941936493,0.17071031033992767,-0.010490577667951584,-0.04100862145423889,0.022697795182466507
6.1561689376831055,-0.11158160120248795,-0.2931639552116394,0.17147326469421387,-0.010490577667951584,-0.04100862145423889,0.023079270496964455
6.1763105392456055,-0.11234454810619354,-0.2931639552116394,0.17185473442077637,-0.010490577667951584,-0.04100862145423889,0.023079270496964455
6.196495771408081,-0.11272602528333664,-0.2920195460319519,0.17261768877506256,-0.010490577667951584,-0.04100862145423889,0.023079270496964455
6.216558933258057,-0.11272602528333664,-0.291638046503067,0.17261768877506256,-0.010872052982449532,-0.04100862145423889,0.023079270496964455
6.236649513244629,-0.11348897218704224,-0.2912565767765045,0.17299915850162506,-0.010490577667951584,-0.04100862145423889,0.023079270496964455
6.256716251373291,-0.11387044936418533,-0.2912565767765045,0.17376211285591125,-0.010872052982449532,-0.04100862145423889,0.023079270496964455
6.2768049240112305,-0.11425192654132843,-0.290875107049942,0.17452506721019745,-0.010872052982449532,-0.04100862145423889,0.023079270496964455
6.297116756439209,-0.11463340371847153,-0.28973066806793213,0.17490653693675995,-0.010872052982449532,-0.04100862145423889,0.023460745811462402
6.317499399185181,-0.11501488089561462,-0.28934919834136963,0.17528800666332245,-0.010872052982449532,-0.04100862145423889,0.023460745811462402
6.3375983238220215,-0.11577782779932022,-0.28858625888824463,0.17566949129104614,-0.010872052982449532,-0.04100862145423889,0.023460745811462402
6.3576881885528564,-0.11577782779932022,-0.28858625888824463,0.17605096101760864,-0.010872052982449532,-0.04100862145423889,0.023460745811462402
6.377964019775391,-0.11577782779932022,-0.28858625888824463,0.17605096101760864,-0.010872052982449532,-0.04100862145423889,0.023460745811462402
6.397923231124878,-0.11577782779932022,-0.28858625888824463,0.17605096101760864,-0.010872052982449532,-0.04100862145423889,0.023460745811462402
6.418282747268677,-0.11577782779932022,-0.28858625888824463,0.17605096101760864,-0.010872052982449532,-0.04100862145423889,0.023460745811462402
6.4384026527404785,-0.11577782779932022,-0.28858625888824463,0.17605096101760864,-0.010872052982449532,-0.04100862145423889,0.023460745811462402
6.458509683609009,-0.11577782779932022,-0.28858625888824463,0.17605096101760864,-0.010872052982449532,-0.04100862145423889,0.023460745811462402
6.478637218475342,-0.11577782779932022,-0.28858625888824463,0.17605096101760864,-0.010872052982449532,-0.04100862145423889,0.023460745811462402
6.498749494552612,-0.11577782779932022,-0.28858625888824463,0.17605096101760864,-0.010872052982449532,-0.04100862145423889,0.023460745811462402
6.518752336502075,-0.11577782779932022,-0.28858625888824463,0.17605096101760864,-0.010872052982449532,-0.04100862145423889,0.023460745811462402
6.5389063358306885,-0.11577782779932022,-0.28858625888824463,0.17605096101760864,-0.010872052982449532,-0.04100862145423889,0.023460745811462402
6.558945417404175,-0.11577782779932022,-0.28858625888824463,0.17605096101760864,-0.010872052982449532,-0.04100862145423889,0.023460745811462402
6.579552888870239,-0.11577782779932022,-0.28858625888824463,0.17605096101760864,-0.010872052982449532,-0.04100862145423889,0.023460745811462402
6.599670648574829,-0.11577782779932022,-0.28858625888824463,0.17605096101760864,-0.010872052982449532,-0.04100862145423889,0.023460745811462402
6.619755029678345,-0.11577782779932022,-0.28858625888824463,0.17605096101760864,-0.010872052982449532,-0.04100862145423889,0.023460745811462402
6.639830112457275,-0.11577782779932022,-0.28858625888824463,0.17605096101760864,-0.010872052982449532,-0.04100862145423889,0.023460745811462402
6.659930467605591,-0.11577782779932022,-0.28858625888824463,0.17605096101760864,-0.010872052982449532,-0.04100862145423889,0.023460745811462402
6.680000066757202,-0.11577782779932022,-0.28858625888824463,0.17605096101760864,-0.010872052982449532,-0.04100862145423889,0.023460745811462402
6.700073719024658,-0.11577782779932022,-0.28858625888824463,0.17605096101760864,-0.010872052982449532,-0.04100862145423889,0.023460745811462402
6.720160722732544,-0.11577782779932022,-0.28858625888824463,0.17605096101760864,-0.010872052982449532,-0.04100862145423889,0.023460745811462402
6.740271091461182,-0.11577782779932022,-0.28858625888824463,0.17605096101760864,-0.010872052982449532,-0.04100862145423889,0.023460745811462402
6.760365962982178,-0.11577782779932022,-0.28858625888824463,0.17605096101760864,-0.010872052982449532,-0.04100862145423889,0.023460745811462402
6.780537366867065,-0.11577782779932022,-0.28858625888824463,0.17605096101760864,-0.010872052982449532,-0.04100862145423889,0.023460745811462402
6.800573110580444,-0.11577782779932022,-0.28858625888824463,0.17605096101760864,-0.010872052982449532,-0.04100862145423889,0.023460745811462402
6.820657730102539,-0.11577782779932022,-0.28858625888824463,0.17605096101760864,-0.010872052982449532,-0.04100862145423889,0.023460745811462402
6.840721607208252,-0.11577782779932022,-0.28858625888824463,0.17605096101760864,-0.010872052982449532,-0.04100862145423889,0.023460745811462402
6.860860109329224,-0.11577782779932022,-0.28858625888824463,0.17605096101760864,-0.010872052982449532,-0.04100862145423889,0.023460745811462402
6.880927801132202,-0.11577782779932022,-0.28858625888824463,0.17605096101760864,-0.010872052982449532,-0.04100862145423889,0.023460745811462402
6.901045322418213,-0.11577782779932022,-0.28858625888824463,0.17605096101760864,-0.010872052982449532,-0.04100862145423889,0.023460745811462402
6.921094655990601,-0.11577782779932022,-0.28858625888824463,0.17605096101760864,-0.010872052982449532,-0.04100862145423889,0.023460745811462402
6.941153287887573,-0.11577782779932022,-0.28858625888824463,0.17605096101760864,-0.010872052982449532,-0.04100862145423889,0.023460745811462402
6.961262226104736,-0.11577782779932022,-0.28858625888824463,0.17605096101760864,-0.010872052982449532,-0.04100862145423889,0.023460745811462402
6.981328964233398,-0.11577782779932022,-0.28858625888824463,0.17605096101760864,-0.010872052982449532,-0.04100862145423889,0.023460745811462402
7.0014073848724365,-0.11577782779932022,-0.28858625888824463,0.17605096101760864,-0.010872052982449532,-0.04100862145423889,0.023460745811462402
7.021493434906006,-0.11577782779932022,-0.28858625888824463,0.17605096101760864,-0.010872052982449532,-0.04100862145423889,0.023460745811462402
7.041574478149414,-0.11577782779932022,-0.28858625888824463,0.17605096101760864,-0.010872052982449532,-0.04100862145423889,0.023460745811462402
7.061733245849609,-0.11577782779932022,-0.28858625888824463,0.17605096101760864,-0.010872052982449532,-0.04100862145423889,0.023460745811462402
7.0819079875946045,-0.11577782779932022,-0.28858625888824463,0.17605096101760864,-0.010872052982449532,-0.04100862145423889,0.023460745811462402
7.101900577545166,-0.11577782779932022,-0.28858625888824463,0.17605096101760864,-0.010872052982449532,-0.04100862145423889,0.023460745811462402
7.121974945068359,-0.11577782779932022,-0.28858625888824463,0.17605096101760864,-0.010872052982449532,-0.04100862145423889,0.023460745811462402
7.142240762710571,-0.11577782779932022,-0.28858625888824463,0.17605096101760864,-0.010872052982449532,-0.04100862145423889,0.023460745811462402
7.162293910980225,-0.11577782779932022,-0.28858625888824463,0.17605096101760864,-0.010872052982449532,-0.04100862145423889,0.023460745811462402
7.182386159896851,-0.11577782779932022,-0.28858625888824463,0.17605096101760864,-0.010872052982449532,-0.04100862145423889,0.023460745811462402
7.202466011047363,-0.11577782779932022,-0.28858625888824463,0.17605096101760864,-0.010872052982449532,-0.04100862145423889,0.023460745811462402
7.222523212432861,-0.11577782779932022,-0.28858625888824463,0.17605096101760864,-0.010872052982449532,-0.04100862145423889,0.023460745811462402
7.242619514465332,-0.11577782779932022,-0.28858625888824463,0.17605096101760864,-0.010872052982449532,-0.04100862145423889,0.023460745811462402
7.262704133987427,-0.11577782779932022,-0.28858625888824463,0.17605096101760864,-0.010872052982449532,-0.04100862145423889,0.023460745811462402
7.284109354019165,-0.11577782779932022,-0.28858625888824463,0.17605096101760864,-0.010872052982449532,-0.04100862145423889,0.023460745811462402
7.304242134094238,-0.11577782779932022,-0.28858625888824463,0.17605096101760864,-0.010872052982449532,-0.04100862145423889,0.023460745811462402
7.324355602264404,-0.11577782779932022,-0.28858625888824463,0.17605096101760864,-0.010872052982449532,-0.04100862145423889,0.023460745811462402
7.344339609146118,-0.11577782779932022,-0.28858625888824463,0.17605096101760864,-0.010872052982449532,-0.04100862145423889,0.023460745811462402
7.364454507827759,-0.11577782779932022,-0.28858625888824463,0.17605096101760864,-0.010872052982449532,-0.04100862145423889,0.023460745811462402
7.384588956832886,-0.11577782779932022,-0.28858625888824463,0.17605096101760864,-0.010872052982449532,-0.04100862145423889,0.023460745811462402
7.404813528060913,-0.11577782779932022,-0.28858625888824463,0.17605096101760864,-0.010872052982449532,-0.04100862145423889,0.023460745811462402
7.424912929534912,-0.11577782779932022,-0.28858625888824463,0.17605096101760864,-0.010872052982449532,-0.04100862145423889,0.023460745811462402
7.444983243942261,-0.11577782779932022,-0.28858625888824463,0.17605096101760864,-0.010872052982449532,-0.04100862145423889,0.023460745811462402
7.46523904800415,-0.11577782779932022,-0.28858625888824463,0.17605096101760864,-0.010872052982449532,-0.04100862145423889,0.023460745811462402
7.4853315353393555,-0.11577782779932022,-0.28858625888824463,0.17605096101760864,-0.010872052982449532,-0.04100862145423889,0.023460745811462402
7.505425691604614,-0.11577782779932022,-0.28858625888824463,0.17605096101760864,-0.010872052982449532,-0.04100862145423889,0.023460745811462402
7.525489568710327,-0.11577782779932022,-0.28858625888824463,0.17605096101760864,-0.010872052982449532,-0.04100862145423889,0.023460745811462402
7.545563697814941,-0.11577782779932022,-0.28858625888824463,0.17605096101760864,-0.010872052982449532,-0.04100862145423889,0.023460745811462402
7.565682649612427,-0.11577782779932022,-0.28858625888824463,0.17605096101760864,-0.010872052982449532,-0.04100862145423889,0.023460745811462402
7.5858118534088135,-0.11577782779932022,-0.28858625888824463,0.17605096101760864,-0.010872052982449532,-0.04100862145423889,0.023460745811462402
7.605894327163696,-0.11577782779932022,-0.28858625888824463,0.17605096101760864,-0.010872052982449532,-0.04100862145423889,0.023460745811462402
7.625951290130615,-0.11577782779932022,-0.28858625888824463,0.17605096101760864,-0.010872052982449532,-0.04100862145423889,0.023460745811462402
7.646074056625366,-0.11577782779932022,-0.28858625888824463,0.17605096101760864,-0.010872052982449532,-0.04100862145423889,0.023460745811462402
7.666178941726685,-0.11577782779932022,-0.28858625888824463,0.17605096101760864,-0.010872052982449532,-0.04100862145423889,0.023460745811462402
7.6862547397613525,-0.11577782779932022,-0.28858625888824463,0.17605096101760864,-0.010872052982449532,-0.04100862145423889,0.023460745811462402
7.706355333328247,-0.11577782779932022,-0.28858625888824463,0.17605096101760864,-0.010872052982449532,-0.04100862145423889,0.023460745811462402
7.726433515548706,-0.11577782779932022,-0.28858625888824463,0.17605096101760864,-0.010872052982449532,-0.04100862145423889,0.023460745811462402
7.746585845947266,-0.11577782779932022,-0.28858625888824463,0.17605096101760864,-0.010872052982449532,-0.04100862145423889,0.023460745811462402
7.7667083740234375,-0.11577782779932022,-0.28858625888824463,0.17605096101760864,-0.010872052982449532,-0.04100862145423889,0.023460745811462402
7.7867491245269775,-0.11577782779932022,-0.28858625888824463,0.17605096101760864,-0.010872052982449532,-0.04100862145423889,0.023460745811462402
7.806849241256714,-0.11577782779932022,-0.28858625888824463,0.17605096101760864,-0.010872052982449532,-0.04100862145423889,0.023460745811462402
7.82693076133728,-0.11577782779932022,-0.28858625888824463,0.17605096101760864,-0.010872052982449532,-0.04100862145423889,0.023460745811462402
7.8473286628723145,-0.11577782779932022,-0.28858625888824463,0.17605096101760864,-0.010872052982449532,-0.04100862145423889,0.023460745811462402
7.867441415786743,-0.11577782779932022,-0.28858625888824463,0.17605096101760864,-0.010872052982449532,-0.04100862145423889,0.023460745811462402
7.887526988983154,-0.11577782779932022,-0.28858625888824463,0.17605096101760864,-0.010872052982449532,-0.04100862145423889,0.023460745811462402
7.90850043296814,-0.11577782779932022,-0.28858625888824463,0.17605096101760864,-0.010872052982449532,-0.04100862145423889,0.023460745811462402
7.928672552108765,-0.11577782779932022,-0.28858625888824463,0.17605096101760864,-0.010872052982449532,-0.04100862145423889,0.023460745811462402
7.94877552986145,-0.11577782779932022,-0.28858625888824463,0.17605096101760864,-0.010872052982449532,-0.04100862145423889,0.023460745811462402
7.968802452087402,-0.11577782779932022,-0.28858625888824463,0.17605096101760864,-0.010872052982449532,-0.04100862145423889,0.023460745811462402
7.988885879516602,-0.11577782779932022,-0.28858625888824463,0.17605096101760864,-0.010872052982449532,-0.04100862145423889,0.023460745811462402
8.008934736251831,-0.11577782779932022,-0.28858625888824463,0.17605096101760864,-0.010872052982449532,-0.04100862145423889,0.023460745811462402
8.029048442840576,-0.11577782779932022,-0.28858625888824463,0.17605096101760864,-0.010872052982449532,-0.04100862145423889,0.023460745811462402
8.049108266830444,-0.11577782779932022,-0.28858625888824463,0.17605096101760864,-0.010872052982449532,-0.04100862145423889,0.023460745811462402
8.069184064865112,-0.11577782779932022,-0.28858625888824463,0.17605096101760864,-0.010872052982449532,-0.04100862145423889,0.023460745811462402
8.089315176010132,-0.11577782779932022,-0.28858625888824463,0.17605096101760864,-0.010872052982449532,-0.04100862145423889,0.023460745811462402
8.109395027160645,-0.11577782779932022,-0.28858625888824463,0.17605096101760864,-0.010872052982449532,-0.04100862145423889,0.023460745811462402
8.129451751708984,-0.11577782779932022,-0.28858625888824463,0.17605096101760864,-0.010872052982449532,-0.04100862145423889,0.023460745811462402
8.149636030197144,-0.11577782779932022,-0.28858625888824463,0.17605096101760864,-0.010872052982449532,-0.04100862145423889,0.023460745811462402
8.169682025909424,-0.11577782779932022,-0.28858625888824463,0.17605096101760864,-0.010872052982449532,-0.04100862145423889,0.023460745811462402
8.190192461013794,-0.11577782779932022,-0.28858625888824463,0.17605096101760864,-0.010872052982449532,-0.04100862145423889,0.023460745811462402
8.210283756256104,-0.11577782779932022,-0.28858625888824463,0.17605096101760864,-0.010872052982449532,-0.04100862145423889,0.023460745811462402
8.23037052154541,-0.11577782779932022,-0.28858625888824463,0.17605096101760864,-0.010872052982449532,-0.04100862145423889,0.023460745811462402
8.250429153442383,-0.11577782779932022,-0.28858625888824463,0.17605096101760864,-0.010872052982449532,-0.04100862145423889,0.023460745811462402
8.27055835723877,-0.11577782779932022,-0.28858625888824463,0.17605096101760864,-0.010872052982449532,-0.04100862145423889,0.023460745811462402
8.290677070617676,-0.11577782779932022,-0.28858625888824463,0.17605096101760864,-0.010872052982449532,-0.04100862145423889,0.023460745811462402
8.310974597930908,-0.11577782779932022,-0.28858625888824463,0.17605096101760864,-0.010872052982449532,-0.04100862145423889,0.023460745811462402
8.331075429916382,-0.11577782779932022,-0.28858625888824463,0.17605096101760864,-0.010872052982449532,-0.04100862145423889,0.023460745811462402
8.351188898086548,-0.11577782779932022,-0.28858625888824463,0.17605096101760864,-0.010872052982449532,-0.04100862145423889,0.023460745811462402
8.371428489685059,-0.11577782779932022,-0.28858625888824463,0.17605096101760864,-0.010872052982449532,-0.04100862145423889,0.023460745811462402
8.391511678695679,-0.11577782779932022,-0.28858625888824463,0.17605096101760864,-0.010872052982449532,-0.04100862145423889,0.023460745811462402
8.41156816482544,-0.11577782779932022,-0.28858625888824463,0.17605096101760864,-0.010872052982449532,-0.04100862145423889,0.023460745811462402
8.43165111541748,-0.11577782779932022,-0.28858625888824463,0.17605096101760864,-0.010872052982449532,-0.04100862145423889,0.023460745811462402
8.451720952987671,-0.11577782779932022,-0.28858625888824463,0.17605096101760864,-0.010872052982449532,-0.04100862145423889,0.023460745811462402
8.471806049346924,-0.11577782779932022,-0.28858625888824463,0.17605096101760864,-0.010872052982449532,-0.04100862145423889,0.023460745811462402
8.491871356964111,-0.11577782779932022,-0.28858625888824463,0.17605096101760864,-0.010872052982449532,-0.04100862145423889,0.023460745811462402
8.51193904876709,-0.11577782779932022,-0.28858625888824463,0.17605096101760864,-0.010872052982449532,-0.04100862145423889,0.023460745811462402
8.532357454299927,-0.11577782779932022,-0.28858625888824463,0.17605096101760864,-0.010872052982449532,-0.04100862145423889,0.023460745811462402
8.5525484085083,-0.11577782779932022,-0.28858625888824463,0.17605096101760864,-0.010872052982449532,-0.04100862145423889,0.023460745811462402
8.57256007194519,-0.11577782779932022,-0.28858625888824463,0.17605096101760864,-0.010872052982449532,-0.04100862145423889,0.023460745811462402
8.59265923500061,-0.11577782779932022,-0.28858625888824463,0.17605096101760864,-0.010872052982449532,-0.04100862145423889,0.023460745811462402
8.612794160842896,-0.11577782779932022,-0.28858625888824463,0.17605096101760864,-0.010872052982449532,-0.04100862145423889,0.023460745811462402
8.632883787155151,-0.11577782779932022,-0.28858625888824463,0.17605096101760864,-0.010872052982449532,-0.04100862145423889,0.023460745811462402
8.65293025970459,-0.11577782779932022,-0.28858625888824463,0.17605096101760864,-0.010872052982449532,-0.04100862145423889,0.023460745811462402
8.672993659973145,-0.11577782779932022,-0.28858625888824463,0.17605096101760864,-0.010872052982449532,-0.04100862145423889,0.023460745811462402
8.693053245544434,-0.11577782779932022,-0.28858625888824463,0.17605096101760864,-0.010872052982449532,-0.04100862145423889,0.023460745811462402
8.713149785995483,-0.11577782779932022,-0.28858625888824463,0.17605096101760864,-0.010872052982449532,-0.04100862145423889,0.023460745811462402
8.733223676681519,-0.11577782779932022,-0.28858625888824463,0.17605096101760864,-0.010872052982449532,-0.04100862145423889,0.023460745811462402
8.75349473953247,-0.11577782779932022,-0.28858625888824463,0.17605096101760864,-0.010872052982449532,-0.04100862145423889,0.023460745811462402
8.773594856262207,-0.11577782779932022,-0.28858625888824463,0.17605096101760864,-0.010872052982449532,-0.04100862145423889,0.023460745811462402
8.793665409088135,-0.11577782779932022,-0.28858625888824463,0.17605096101760864,-0.010872052982449532,-0.04100862145423889,0.023460745811462402
8.81393027305603,-0.11577782779932022,-0.28858625888824463,0.17605096101760864,-0.010872052982449532,-0.04100862145423889,0.023460745811462402
8.834118843078613,-0.11577782779932022,-0.28858625888824463,0.17605096101760864,-0.010872052982449532,-0.04100862145423889,0.023460745811462402
8.854241371154785,-0.11577782779932022,-0.28858625888824463,0.17605096101760864,-0.010872052982449532,-0.04100862145423889,0.023460745811462402
8.874339580535889,-0.11577782779932022,-0.28858625888824463,0.17605096101760864,-0.010872052982449532,-0.04100862145423889,0.023460745811462402
8.894443273544312,-0.11577782779932022,-0.28858625888824463,0.17605096101760864,-0.010872052982449532,-0.04100862145423889,0.023460745811462402
8.914649963378906,-0.11577782779932022,-0.28858625888824463,0.17605096101760864,-0.010872052982449532,-0.04100862145423889,0.023460745811462402
8.934780359268188,-0.11577782779932022,-0.28858625888824463,0.17605096101760864,-0.010872052982449532,-0.04100862145423889,0.023460745811462402
8.95479130744934,-0.11577782779932022,-0.28858625888824463,0.17605096101760864,-0.010872052982449532,-0.04100862145423889,0.023460745811462402
8.975005388259888,-0.11577782779932022,-0.28858625888824463,0.17605096101760864,-0.010872052982449532,-0.04100862145423889,0.023460745811462402
8.995075941085815,-0.11577782779932022,-0.28858625888824463,0.17605096101760864,-0.010872052982449532,-0.04100862145423889,0.023460745811462402
9.016069412231445,-0.11577782779932022,-0.28858625888824463,0.17605096101760864,-0.010872052982449532,-0.04100862145423889,0.023460745811462402
9.036307573318481,-0.11577782779932022,-0.28858625888824463,0.17605096101760864,-0.010872052982449532,-0.04100862145423889,0.023460745811462402
9.056335210800171,-0.11577782779932022,-0.28858625888824463,0.17605096101760864,-0.010872052982449532,-0.04100862145423889,0.023460745811462402
9.076423645019531,-0.11577782779932022,-0.28858625888824463,0.17605096101760864,-0.010872052982449532,-0.04100862145423889,0.023460745811462402
9.096599102020264,-0.11577782779932022,-0.28858625888824463,0.17605096101760864,-0.010872052982449532,-0.04100862145423889,0.023460745811462402
9.116578102111816,-0.11577782779932022,-0.28858625888824463,0.17605096101760864,-0.010872052982449532,-0.04100862145423889,0.023460745811462402
9.136698484420776,-0.11577782779932022,-0.28858625888824463,0.17605096101760864,-0.010872052982449532,-0.04100862145423889,0.023460745811462402
9.156789541244507,-0.11577782779932022,-0.28858625888824463,0.17605096101760864,-0.010872052982449532,-0.04100862145423889,0.023460745811462402
9.176834344863892,-0.11577782779932022,-0.28858625888824463,0.17605096101760864,-0.010872052982449532,-0.04100862145423889,0.023460745811462402
9.197038650512695,-0.11577782779932022,-0.28858625888824463,0.17605096101760864,-0.010872052982449532,-0.04100862145423889,0.023460745811462402
9.21702766418457,-0.11577782779932022,-0.28858625888824463,0.17605096101760864,-0.010872052982449532,-0.04100862145423889,0.023460745811462402
9.23720908164978,-0.11577782779932022,-0.28858625888824463,0.17605096101760864,-0.010872052982449532,-0.04100862145423889,0.023460745811462402
9.25731348991394,-0.11577782779932022,-0.28858625888824463,0.17605096101760864,-0.010872052982449532,-0.04100862145423889,0.023460745811462402
9.27743411064148,-0.11577782779932022,-0.28858625888824463,0.17605096101760864,-0.010872052982449532,-0.04100862145423889,0.023460745811462402
9.297801494598389,-0.11577782779932022,-0.28858625888824463,0.17605096101760864,-0.010872052982449532,-0.04100862145423889,0.023460745811462402
9.31793475151062,-0.11577782779932022,-0.28858625888824463,0.17605096101760864,-0.010872052982449532,-0.04100862145423889,0.023460745811462402
9.338050842285156,-0.11577782779932022,-0.28858625888824463,0.17605096101760864,-0.010872052982449532,-0.04100862145423889,0.023460745811462402
9.35823130607605,-0.11577782779932022,-0.28858625888824463,0.17605096101760864,-0.010872052982449532,-0.04100862145423889,0.023460745811462402
9.378366470336914,-0.11577782779932022,-0.28858625888824463,0.17605096101760864,-0.010872052982449532,-0.04100862145423889,0.023460745811462402
9.398406505584717,-0.11577782779932022,-0.28858625888824463,0.17605096101760864,-0.010872052982449532,-0.04100862145423889,0.023460745811462402
9.418558835983276,-0.11577782779932022,-0.28858625888824463,0.17605096101760864,-0.010872052982449532,-0.04100862145423889,0.023460745811462402
9.438650369644165,-0.11577782779932022,-0.28858625888824463,0.17605096101760864,-0.010872052982449532,-0.04100862145423889,0.023460745811462402
9.45874810218811,-0.11577782779932022,-0.28858625888824463,0.17605096101760864,-0.010872052982449532,-0.04100862145423889,0.023460745811462402
9.478946208953857,-0.11577782779932022,-0.28858625888824463,0.17605096101760864,-0.010872052982449532,-0.04100862145423889,0.023460745811462402
9.499093055725098,-0.11577782779932022,-0.28858625888824463,0.17605096101760864,-0.010872052982449532,-0.04100862145423889,0.023460745811462402
9.519232988357544,-0.11577782779932022,-0.28858625888824463,0.17605096101760864,-0.010872052982449532,-0.04100862145423889,0.023460745811462402
9.53944444656372,-0.11577782779932022,-0.28858625888824463,0.17605096101760864,-0.010872052982449532,-0.04100862145423889,0.023460745811462402
9.559470891952515,-0.11577782779932022,-0.28858625888824463,0.17605096101760864,-0.010872052982449532,-0.04100862145423889,0.023460745811462402
9.579506158828735,-0.11577782779932022,-0.28858625888824463,0.17605096101760864,-0.010872052982449532,-0.04100862145423889,0.023460745811462402
9.599603652954102,-0.11577782779932022,-0.28858625888824463,0.17605096101760864,-0.010872052982449532,-0.04100862145423889,0.023460745811462402
9.619687795639038,-0.11577782779932022,-0.28858625888824463,0.17605096101760864,-0.010872052982449532,-0.04100862145423889,0.023460745811462402
9.63979172706604,-0.11577782779932022,-0.28858625888824463,0.17605096101760864,-0.010872052982449532,-0.04100862145423889,0.023460745811462402
9.659871101379395,-0.11577782779932022,-0.28858625888824463,0.17605096101760864,-0.010872052982449532,-0.04100862145423889,0.023460745811462402
9.680276870727539,-0.11577782779932022,-0.28858625888824463,0.17605096101760864,-0.010872052982449532,-0.04100862145423889,0.023460745811462402
9.700443267822266,-0.11577782779932022,-0.28858625888824463,0.17605096101760864,-0.010872052982449532,-0.04100862145423889,0.023460745811462402
9.720505714416504,-0.11577782779932022,-0.28858625888824463,0.17605096101760864,-0.010872052982449532,-0.04100862145423889,0.023460745811462402
9.74055552482605,-0.11577782779932022,-0.28858625888824463,0.17605096101760864,-0.010872052982449532,-0.04100862145423889,0.023460745811462402
9.760648012161255,-0.11577782779932022,-0.28858625888824463,0.17605096101760864,-0.010872052982449532,-0.04100862145423889,0.023460745811462402
9.780752420425415,-0.11577782779932022,-0.28858625888824463,0.17605096101760864,-0.010872052982449532,-0.04100862145423889,0.023460745811462402
9.800857543945312,-0.11577782779932022,-0.28858625888824463,0.17605096101760864,-0.010872052982449532,-0.04100862145423889,0.023460745811462402
9.82093858718872,-0.11577782779932022,-0.28858625888824463,0.17605096101760864,-0.010872052982449532,-0.04100862145423889,0.023460745811462402
9.840991020202637,-0.11577782779932022,-0.28858625888824463,0.17605096101760864,-0.010872052982449532,-0.04100862145423889,0.023460745811462402
9.861104488372803,-0.11577782779932022,-0.28858625888824463,0.17605096101760864,-0.010872052982449532,-0.04100862145423889,0.023460745811462402
9.881166696548462,-0.11577782779932022,-0.28858625888824463,0.17605096101760864,-0.010872052982449532,-0.04100862145423889,0.023460745811462402
9.901601076126099,-0.11577782779932022,-0.28858625888824463,0.17605096101760864,-0.010872052982449532,-0.04100862145423889,0.023460745811462402
9.921737909317017,-0.11577782779932022,-0.28858625888824463,0.17605096101760864,-0.010872052982449532,-0.04100862145423889,0.023460745811462402
9.941756010055542,-0.11577782779932022,-0.28858625888824463,0.17605096101760864,-0.010872052982449532,-0.04100862145423889,0.023460745811462402
9.96188998222351,-0.11577782779932022,-0.28858625888824463,0.17605096101760864,-0.010872052982449532,-0.04100862145423889,0.023460745811462402
9.982028484344482,-0.11577782779932022,-0.28858625888824463,0.17605096101760864,-0.010872052982449532,-0.04100862145423889,0.023460745811462402
10.002058267593384,-0.11577782779932022,-0.28858625888824463,0.17605096101760864,-0.010872052982449532,-0.04100862145423889,0.023460745811462402
10.022190570831299,-0.11577782779932022,-0.28858625888824463,0.17605096101760864,-0.010872052982449532,-0.04100862145423889,0.023460745811462402
10.042262315750122,-0.11577782779932022,-0.28858625888824463,0.17605096101760864,-0.010872052982449532,-0.04100862145423889,0.023460745811462402
10.062310218811035,-0.11577782779932022,-0.28858625888824463,0.17605096101760864,-0.010872052982449532,-0.04100862145423889,0.023460745811462402
10.082500696182251,-0.11577782779932022,-0.28858625888824463,0.17605096101760864,-0.010872052982449532,-0.04100862145423889,0.023460745811462402
10.102500677108765,-0.11577782779932022,-0.28858625888824463,0.17605096101760864,-0.010872052982449532,-0.04100862145423889,0.023460745811462402
10.122750520706177,-0.11577782779932022,-0.28858625888824463,0.17605096101760864,-0.010872052982449532,-0.04100862145423889,0.023460745811462402
10.142983675003052,-0.11577782779932022,-0.28858625888824463,0.17605096101760864,-0.010872052982449532,-0.04100862145423889,0.023460745811462402
10.16297435760498,-0.11577782779932022,-0.28858625888824463,0.17605096101760864,-0.010872052982449532,-0.04100862145423889,0.023460745811462402
10.183073043823242,-0.11577782779932022,-0.28858625888824463,0.17605096101760864,-0.010872052982449532,-0.04100862145423889,0.023460745811462402
10.203120231628418,-0.11577782779932022,-0.28858625888824463,0.17605096101760864,-0.010872052982449532,-0.04100862145423889,0.023460745811462402
10.22319221496582,-0.11577782779932022,-0.28858625888824463,0.17605096101760864,-0.010872052982449532,-0.04100862145423889,0.023460745811462402
10.243292808532715,-0.11577782779932022,-0.28858625888824463,0.17605096101760864,-0.010872052982449532,-0.04100862145423889,0.023460745811462402
10.263346910476685,-0.11577782779932022,-0.28858625888824463,0.17605096101760864,-0.010872052982449532,-0.04100862145423889,0.023460745811462402
10.283409595489502,-0.11577782779932022,-0.28858625888824463,0.17605096101760864,-0.010872052982449532,-0.04100862145423889,0.023460745811462402
10.3035728931427,-0.11577782779932022,-0.28858625888824463,0.17605096101760864,-0.010872052982449532,-0.04100862145423889,0.023460745811462402
10.323750734329224,-0.11577782779932022,-0.28858625888824463,0.17605096101760864,-0.010872052982449532,-0.04100862145423889,0.023460745811462402
10.34378981590271,-0.11577782779932022,-0.28858625888824463,0.17605096101760864,-0.010872052982449532,-0.04100862145423889,0.023460745811462402
10.363882780075073,-0.11577782779932022,-0.28858625888824463,0.17605096101760864,-0.010872052982449532,-0.04100862145423889,0.023460745811462402
10.383976936340332,-0.11577782779932022,-0.28858625888824463,0.17605096101760864,-0.010872052982449532,-0.04100862145423889,0.023460745811462402
10.404016733169556,-0.11577782779932022,-0.28858625888824463,0.17605096101760864,-0.010872052982449532,-0.04100862145423889,0.023460745811462402
10.424145460128784,-0.11577782779932022,-0.28858625888824463,0.17605096101760864,-0.010872052982449532,-0.04100862145423889,0.023460745811462402
10.44429326057434,-0.11577782779932022,-0.28858625888824463,0.17605096101760864,-0.010872052982449532,-0.04100862145423889,0.023460745811462402
10.46432900428772,-0.11577782779932022,-0.28858625888824463,0.17605096101760864,-0.010872052982449532,-0.04100862145423889,0.023460745811462402
10.484421968460083,-0.11577782779932022,-0.28858625888824463,0.17605096101760864,-0.010872052982449532,-0.04100862145423889,0.023460745811462402
10.504501342773438,-0.11577782779932022,-0.28858625888824463,0.17605096101760864,-0.010872052982449532,-0.04100862145423889,0.023460745811462402
10.524572610855103,-0.11577782779932022,-0.28858625888824463,0.17605096101760864,-0.010872052982449532,-0.04100862145423889,0.023460745811462402
10.544692277908325,-0.11577782779932022,-0.28858625888824463,0.17605096101760864,-0.010872052982449532,-0.04100862145423889,0.023460745811462402
10.564788341522217,-0.11577782779932022,-0.28858625888824463,0.17605096101760864,-0.010872052982449532,-0.04100862145423889,0.023460745811462402
10.584837436676025,-0.11577782779932022,-0.28858625888824463,0.17605096101760864,-0.010872052982449532,-0.04100862145423889,0.023460745811462402
10.604929208755493,-0.11577782779932022,-0.28858625888824463,0.17605096101760864,-0.010872052982449532,-0.04100862145423889,0.023460745811462402
10.625008344650269,-0.11577782779932022,-0.28858625888824463,0.17605096101760864,-0.010872052982449532,-0.04100862145423889,0.023460745811462402
10.645129919052124,-0.11577782779932022,-0.28858625888824463,0.17605096101760864,-0.010872052982449532,-0.04100862145423889,0.023460745811462402
10.665181159973145,-0.11577782779932022,-0.28858625888824463,0.17605096101760864,-0.010872052982449532,-0.04100862145423889,0.023460745811462402
