liuyurong129/humanoid-gym/humanoid/data/actual_q_20250521-032621.csv
timestamp,joint_1,joint_2,joint_3,joint_4,joint_5,joint_6
5.650520324707031e-05,0.00019073777366429567,0.1665140837430954,-0.08335240930318832,-0.00019073777366429567,-0.00019073777366429567,-0.00019073777366429567
0.020129919052124023,0.00019073777366429567,0.14248111844062805,-0.07381551712751389,-0.00019073777366429567,-0.00019073777366429567,-0.00019073777366429567
0.04020953178405762,-0.00019073777366429567,0.12111848592758179,-0.06427863240242004,-0.00019073777366429567,0.0020981156267225742,-0.00019073777366429567
0.06027531623840332,-0.00019073777366429567,0.10814831405878067,-0.058175019919872284,-0.00019073777366429567,0.00019073777366429567,-0.00019073777366429567
0.08034062385559082,-0.00019073777366429567,0.09784847497940063,-0.051689937710762024,-0.00019073777366429567,-0.000572213320992887,-0.00019073777366429567
0.1004323959350586,-0.00019073777366429567,0.08983749151229858,-0.04711223021149635,-0.000572213320992887,-0.00019073777366429567,-0.00019073777366429567
0.1213846206665039,-0.000572213320992887,0.08602273464202881,-0.04482337832450867,-0.00019073777366429567,-0.00019073777366429567,-0.00019073777366429567
0.14150786399841309,-0.00019073777366429567,0.0879301130771637,-0.04558632895350456,-0.00019073777366429567,-0.0013351644156500697,0.00019073777366429567
0.16156625747680664,-0.000572213320992887,0.08373387902975082,-0.04596780240535736,-0.00019073777366429567,-0.00019073777366429567,0.00019073777366429567
0.18165969848632812,-0.00019073777366429567,0.08030059933662415,-0.04634927958250046,-0.00019073777366429567,-0.00019073777366429567,-0.00019073777366429567
0.20174694061279297,-0.000572213320992887,0.07839322835206985,-0.04634927958250046,-0.00019073777366429567,0.00019073777366429567,0.00019073777366429567
0.2218163013458252,-0.000572213320992887,0.07877469807863235,-0.04634927958250046,-0.00019073777366429567,0.00019073777366429567,0.00019073777366429567
0.2418994903564453,-0.000572213320992887,0.07877469807863235,-0.04596780240535736,-0.00019073777366429567,0.00019073777366429567,0.00019073777366429567
0.26205015182495117,-0.0009536888683214784,0.07801175117492676,-0.04596780240535736,-0.00019073777366429567,0.000572213320992887,0.000572213320992887
0.28214550018310547,-0.0020981156267225742,0.07724879682064056,-0.04634927958250046,0.00019073777366429567,0.00019073777366429567,0.000572213320992887
0.30220508575439453,-0.002861066721379757,0.07572289556264877,-0.04634927958250046,0.00019073777366429567,0.000572213320992887,0.000572213320992887
0.3222987651824951,-0.0024795911740511656,0.07534141838550568,-0.04634927958250046,0.000572213320992887,0.00019073777366429567,0.000572213320992887
0.3423638343811035,-0.0032425422687083483,0.07381551712751389,-0.04634927958250046,0.0009536888683214784,0.00019073777366429567,0.0009536888683214784
0.3624536991119385,-0.00476844422519207,0.07305257022380829,-0.04634927958250046,0.0013351644156500697,0.00019073777366429567,0.0013351644156500697
0.38252878189086914,-0.00476844422519207,0.0715266615152359,-0.04634927958250046,0.001716639962978661,0.00019073777366429567,0.0013351644156500697
0.4025845527648926,-0.00476844422519207,0.07038223743438721,-0.04634927958250046,0.0024795911740511656,0.00019073777366429567,0.001716639962978661
0.42267394065856934,-0.005912871100008488,0.07000076025724411,-0.046730753034353256,0.0032425422687083483,0.00019073777366429567,0.0020981156267225742
0.4427304267883301,-0.005912871100008488,0.06885633617639542,-0.04711223021149635,0.0032425422687083483,0.00019073777366429567,0.0020981156267225742
0.46282029151916504,-0.005912871100008488,0.06809338182210922,-0.04711223021149635,0.0036240178160369396,0.00019073777366429567,0.002861066721379757
0.48288917541503906,-0.007057297509163618,0.06618601083755493,-0.04711223021149635,0.0036240178160369396,0.00019073777366429567,0.0032425422687083483
0.5029697418212891,-0.0078202486038208,0.06580453366041183,-0.04711223021149635,0.004005493130534887,0.00019073777366429567,0.004005493130534887
0.5230529308319092,-0.0078202486038208,0.06542305648326874,-0.04711223021149635,0.004386968910694122,0.00019073777366429567,0.004005493130534887
0.5432374477386475,-0.008201723918318748,0.06427863240242004,-0.04749370738863945,0.004386968910694122,0.00019073777366429567,0.004005493130534887
0.5633265972137451,-0.00858320016413927,0.06389715522527695,-0.04749370738863945,0.00476844422519207,0.00019073777366429567,0.004386968910694122
0.583380937576294,-0.009346150793135166,0.06237125024199486,-0.04749370738863945,0.005149920005351305,0.00019073777366429567,0.004386968910694122
0.6034681797027588,-0.009727626107633114,0.06160829961299896,-0.04749370738863945,0.00667582219466567,0.00019073777366429567,0.00476844422519207
0.6235485076904297,-0.009727626107633114,0.05970092490315437,-0.04749370738863945,0.007057297509163618,0.00019073777366429567,0.00476844422519207
0.6436221599578857,-0.010109102353453636,0.05893797054886818,-0.04749370738863945,0.007438773289322853,-0.00019073777366429567,0.005149920005351305
0.6636974811553955,-0.01125352829694748,0.057793546468019485,-0.04749370738863945,0.007438773289322853,0.00019073777366429567,0.005149920005351305
0.6837577819824219,-0.01201647985726595,0.05664911866188049,-0.04749370738863945,0.0078202486038208,0.00019073777366429567,0.005531395319849253
0.7038533687591553,-0.01201647985726595,0.056267641484737396,-0.04749370738863945,0.008201723918318748,0.00019073777366429567,0.005912871100008488
0.7239139080047607,-0.012779430486261845,0.05397878959774971,-0.04787518084049225,0.008201723918318748,0.00019073777366429567,0.005912871100008488
0.7440032958984375,-0.012779430486261845,0.05359731614589691,-0.04787518084049225,0.008964675478637218,0.00019073777366429567,0.007057297509163618
0.7640984058380127,-0.013923857361078262,0.05207141116261482,-0.048256658017635345,0.009346150793135166,0.00019073777366429567,0.0078202486038208
0.784193754196167,-0.01430533267557621,0.05130846053361893,-0.048256658017635345,0.010109102353453636,0.00019073777366429567,0.008201723918318748
0.8042731285095215,-0.014686808921396732,0.05054550990462303,-0.048256658017635345,0.010872052982449532,0.00019073777366429567,0.00858320016413927
0.824608564376831,-0.01506828423589468,0.04940108209848404,-0.048256658017635345,0.010872052982449532,-0.00019073777366429567,0.008964675478637218
0.8447020053863525,-0.01506828423589468,0.04901960864663124,-0.048256658017635345,0.010872052982449532,-0.00019073777366429567,0.008964675478637218
0.8647589683532715,-0.01583123579621315,0.04711223021149635,-0.048256658017635345,0.01125352829694748,-0.00019073777366429567,0.009346150793135166
0.8848710060119629,-0.016212711110711098,0.04711223021149635,-0.048256658017635345,0.011635004542768002,0.00019073777366429567,0.009727626107633114
0.9049482345581055,-0.016975661739706993,0.04596780240535736,-0.048256658017635345,0.011635004542768002,0.00019073777366429567,0.010109102353453636
0.9250304698944092,-0.016975661739706993,0.045204851776361465,-0.048256658017635345,0.01201647985726595,-0.00019073777366429567,0.010872052982449532
0.9451324939727783,-0.018120087683200836,0.04406042397022247,-0.048256658017635345,0.012397955171763897,0.00019073777366429567,0.011635004542768002
0.9652388095855713,-0.01926451548933983,0.04253452271223068,-0.048256658017635345,0.012779430486261845,-0.00019073777366429567,0.01201647985726595
0.9853284358978271,-0.01926451548933983,0.042153049260377884,-0.048256658017635345,0.013923857361078262,-0.000572213320992887,0.01201647985726595
1.0053887367248535,-0.02040894143283367,0.040627144277095795,-0.048256658017635345,0.014686808921396732,-0.00019073777366429567,0.01201647985726595
1.0254802703857422,-0.02079041674733162,0.040245670825242996,-0.048256658017635345,0.01506828423589468,-0.000572213320992887,0.01201647985726595
1.0455608367919922,-0.02193484455347061,0.0394827201962471,-0.048256658017635345,0.01506828423589468,-0.00019073777366429567,0.012397955171763897
1.0656421184539795,-0.02231631986796856,0.03833829239010811,-0.048256658017635345,0.01506828423589468,-0.00019073777366429567,0.012397955171763897
1.0857279300689697,-0.02231631986796856,0.03681239113211632,-0.048638131469488144,0.01583123579621315,-0.00019073777366429567,0.012397955171763897
1.1057806015014648,-0.02231631986796856,0.03528648987412453,-0.048638131469488144,0.01583123579621315,-0.00019073777366429567,0.012779430486261845
1.1258659362792969,-0.022697795182466507,0.034142062067985535,-0.048638131469488144,0.016594186425209045,-0.00019073777366429567,0.012779430486261845
1.145925760269165,-0.023460745811462402,0.032616160809993744,-0.04940108209848404,0.016594186425209045,0.00019073777366429567,0.012779430486261845
1.1660144329071045,-0.024223696440458298,0.03223468363285065,-0.04940108209848404,0.01735713705420494,0.00019073777366429567,0.013160906732082367
1.1860840320587158,-0.024605173617601395,0.031090257689356804,-0.04940108209848404,0.018120087683200836,-0.00019073777366429567,0.013160906732082367
1.2061717510223389,-0.024605173617601395,0.030708782374858856,-0.04940108209848404,0.018501564860343933,-0.00019073777366429567,0.013923857361078262
1.2262475490570068,-0.02536812424659729,0.029564354568719864,-0.04940108209848404,0.01888304017484188,-0.00019073777366429567,0.014686808921396732
1.2462942600250244,-0.026131074875593185,0.028038453310728073,-0.04940108209848404,0.01888304017484188,-0.00019073777366429567,0.01506828423589468
1.2663743495941162,-0.026512550190091133,0.02689402550458908,-0.04940108209848404,0.01926451548933983,-0.00019073777366429567,0.015449759550392628
1.2864100933074951,-0.02727550081908703,0.02536812424659729,-0.049782559275627136,0.019645990803837776,-0.00019073777366429567,0.015449759550392628
1.3064918518066406,-0.02727550081908703,0.025749599561095238,-0.049782559275627136,0.019645990803837776,-0.000572213320992887,0.01583123579621315
1.326591968536377,-0.027656977996230125,0.024605173617601395,-0.049782559275627136,0.020027466118335724,-0.00019073777366429567,0.01583123579621315
1.3466947078704834,-0.02841992862522602,0.023460745811462402,-0.049782559275627136,0.021171892061829567,-0.00019073777366429567,0.016212711110711098
1.3667657375335693,-0.029182879254221916,0.022697795182466507,-0.049782559275627136,0.02193484455347061,-0.00019073777366429567,0.016594186425209045
1.386810541152954,-0.029564354568719864,0.02079041674733162,-0.049782559275627136,0.02231631986796856,0.00019073777366429567,0.016975661739706993
1.4068968296051025,-0.029564354568719864,0.02040894143283367,-0.050164032727479935,0.022697795182466507,-0.00019073777366429567,0.01735713705420494
1.4269342422485352,-0.03032730519771576,0.018120087683200836,-0.050164032727479935,0.023079270496964455,-0.000572213320992887,0.01773861236870289
1.4470281600952148,-0.030708782374858856,0.018120087683200836,-0.050164032727479935,0.023079270496964455,-0.00019073777366429567,0.01888304017484188
1.4671180248260498,-0.03147173300385475,0.016594186425209045,-0.050164032727479935,0.02384222112596035,0.00019073777366429567,0.01888304017484188
1.4871842861175537,-0.03185320645570755,0.015449759550392628,-0.050164032727479935,0.02384222112596035,-0.00019073777366429567,0.01926451548933983
1.5072782039642334,-0.032616160809993744,0.01430533267557621,-0.050164032727479935,0.024605173617601395,0.00019073777366429567,0.01926451548933983
1.5273292064666748,-0.03376058489084244,0.012779430486261845,-0.050164032727479935,0.02536812424659729,-0.00019073777366429567,0.019645990803837776
1.5474250316619873,-0.03376058489084244,0.01201647985726595,-0.050164032727479935,0.025749599561095238,-0.00019073777366429567,0.020027466118335724
1.5674781799316406,-0.03490501269698143,0.009727626107633114,-0.050164032727479935,0.025749599561095238,-0.000572213320992887,0.020027466118335724
1.5875680446624756,-0.03528648987412453,0.009727626107633114,-0.050164032727479935,0.026131074875593185,-0.00019073777366429567,0.020027466118335724
1.6076431274414062,-0.035667963325977325,0.0078202486038208,-0.05054550990462303,0.026512550190091133,0.00019073777366429567,0.02040894143283367
1.6277191638946533,-0.03643091395497322,0.00667582219466567,-0.05054550990462303,0.026512550190091133,-0.00019073777366429567,0.02040894143283367
1.6477985382080078,-0.03681239113211632,0.005531395319849253,-0.05054550990462303,0.02689402550458908,-0.00019073777366429567,0.02079041674733162
1.6678459644317627,-0.037193864583969116,0.004005493130534887,-0.05054550990462303,0.02689402550458908,-0.00019073777366429567,0.02079041674733162
1.6879546642303467,-0.03795681521296501,0.0032425422687083483,-0.05054550990462303,0.02727550081908703,-0.00019073777366429567,0.021553369238972664
1.7080347537994385,-0.039101243019104004,0.0013351644156500697,-0.05054550990462303,0.027656977996230125,0.00019073777366429567,0.021553369238972664
1.7281053066253662,-0.039101243019104004,0.0009536888683214784,-0.05054550990462303,0.02841992862522602,-0.000572213320992887,0.02231631986796856
1.7482037544250488,-0.0398641936480999,-0.00019073777366429567,-0.05092698708176613,0.029182879254221916,0.00019073777366429567,0.022697795182466507
1.7682695388793945,-0.040627144277095795,-0.000572213320992887,-0.05130846053361893,0.029564354568719864,-0.00019073777366429567,0.023079270496964455
1.7883484363555908,-0.04139009863138199,-0.0013351644156500697,-0.05130846053361893,0.02994582988321781,-0.00019073777366429567,0.023079270496964455
1.8084022998809814,-0.042153049260377884,-0.0032425422687083483,-0.05130846053361893,0.03032730519771576,0.00019073777366429567,0.023079270496964455
1.8284978866577148,-0.042153049260377884,-0.0036240178160369396,-0.05130846053361893,0.030708782374858856,-0.000572213320992887,0.02384222112596035
1.8485496044158936,-0.043678950518369675,-0.005912871100008488,-0.05130846053361893,0.031090257689356804,0.000572213320992887,0.02384222112596035
1.8686459064483643,-0.04406042397022247,-0.00667582219466567,-0.05130846053361893,0.03185320645570755,0.00019073777366429567,0.024223696440458298
1.888719081878662,-0.04406042397022247,-0.008201723918318748,-0.051689937710762024,0.03223468363285065,0.00019073777366429567,0.024605173617601395
1.9088025093078613,-0.04444190114736557,-0.00858320016413927,-0.05130846053361893,0.03337911143898964,-0.00019073777366429567,0.02536812424659729
1.9288771152496338,-0.045204851776361465,-0.009727626107633114,-0.051689937710762024,0.03376058489084244,0.00019073777366429567,0.02727550081908703
1.9489243030548096,-0.04596780240535736,-0.010490577667951584,-0.051689937710762024,0.03376058489084244,0.00019073777366429567,0.02727550081908703
1.9690754413604736,-0.04634927958250046,-0.010872052982449532,-0.051689937710762024,0.03376058489084244,0.00019073777366429567,0.027656977996230125
1.9891293048858643,-0.04749370738863945,-0.012779430486261845,-0.051689937710762024,0.034142062067985535,0.00019073777366429567,0.027656977996230125
2.00921368598938,-0.04749370738863945,-0.013160906732082367,-0.051689937710762024,0.034142062067985535,-0.00019073777366429567,0.028038453310728073
2.0292906761169434,-0.048256658017635345,-0.014686808921396732,-0.051689937710762024,0.03452353551983833,0.000572213320992887,0.028038453310728073
2.0493526458740234,-0.048638131469488144,-0.01583123579621315,-0.051689937710762024,0.03452353551983833,-0.00019073777366429567,0.02880140393972397
2.0694403648376465,-0.04940108209848404,-0.016975661739706993,-0.05207141116261482,0.03528648987412453,0.00019073777366429567,0.029564354568719864
2.0894882678985596,-0.05054550990462303,-0.01888304017484188,-0.05245288833975792,0.035667963325977325,0.000572213320992887,0.02994582988321781
2.109581232070923,-0.05054550990462303,-0.01926451548933983,-0.05245288833975792,0.03681239113211632,0.00019073777366429567,0.03032730519771576
2.129701852798462,-0.05130846053361893,-0.02193484455347061,-0.05245288833975792,0.037193864583969116,0.000572213320992887,0.03032730519771576
2.149780035018921,-0.051689937710762024,-0.022697795182466507,-0.05245288833975792,0.03757534176111221,0.00019073777366429567,0.030708782374858856
2.1698520183563232,-0.05207141116261482,-0.024223696440458298,-0.05245288833975792,0.03795681521296501,0.000572213320992887,0.030708782374858856
2.1899585723876953,-0.05283436179161072,-0.02536812424659729,-0.05245288833975792,0.03833829239010811,0.000572213320992887,0.030708782374858856
2.210038900375366,-0.05359731614589691,-0.026512550190091133,-0.05245288833975792,0.038719769567251205,0.000572213320992887,0.031090257689356804
2.2300913333892822,-0.05397878959774971,-0.02841992862522602,-0.05283436179161072,0.0394827201962471,0.000572213320992887,0.031090257689356804
2.2501842975616455,-0.05436026677489281,-0.029182879254221916,-0.05283436179161072,0.040627144277095795,0.000572213320992887,0.03147173300385475
2.2702693939208984,-0.0551232174038887,-0.03185320645570755,-0.05283436179161072,0.04100862145423889,0.000572213320992887,0.03147173300385475
2.290363073348999,-0.0558861680328846,-0.03223468363285065,-0.053215838968753815,0.04139009863138199,0.0009536888683214784,0.03223468363285065
2.3104476928710938,-0.056267641484737396,-0.03376058489084244,-0.05359731614589691,0.04139009863138199,0.000572213320992887,0.032616160809993744
2.330552816390991,-0.05664911866188049,-0.035667963325977325,-0.05359731614589691,0.04177157208323479,0.000572213320992887,0.03376058489084244
2.35063099861145,-0.05664911866188049,-0.03681239113211632,-0.053215838968753815,0.042153049260377884,0.000572213320992887,0.03452353551983833
2.370680809020996,-0.05703059583902359,-0.038719769567251205,-0.05359731614589691,0.042153049260377884,0.000572213320992887,0.03452353551983833
2.390775203704834,-0.057793546468019485,-0.039101243019104004,-0.05359731614589691,0.04329747334122658,0.000572213320992887,0.03490501269698143
2.4108214378356934,-0.05855649709701538,-0.042153049260377884,-0.05359731614589691,0.043678950518369675,0.0009536888683214784,0.03528648987412453
2.4309139251708984,-0.05855649709701538,-0.04291599988937378,-0.05359731614589691,0.04482337832450867,0.00019073777366429567,0.035667963325977325
2.4510061740875244,-0.059319447726011276,-0.04482337832450867,-0.05359731614589691,0.045204851776361465,0.00019073777366429567,0.03681239113211632
2.471078872680664,-0.05970092490315437,-0.04596780240535736,-0.05359731614589691,0.045204851776361465,0.000572213320992887,0.03757534176111221
2.491150140762329,-0.06008239835500717,-0.04711223021149635,-0.05359731614589691,0.04596780240535736,0.00019073777366429567,0.03795681521296501
2.5112152099609375,-0.06084534898400307,-0.048638131469488144,-0.05359731614589691,0.04596780240535736,0.0009536888683214784,0.03795681521296501
2.531315326690674,-0.06084534898400307,-0.04901960864663124,-0.05359731614589691,0.046730753034353256,0.000572213320992887,0.03795681521296501
2.551382541656494,-0.06198977679014206,-0.051689937710762024,-0.05397878959774971,0.04711223021149635,0.000572213320992887,0.03833829239010811
2.571472406387329,-0.06275273114442825,-0.051689937710762024,-0.05359731614589691,0.04787518084049225,0.000572213320992887,0.03833829239010811
2.5915567874908447,-0.06275273114442825,-0.053215838968753815,-0.05397878959774971,0.048638131469488144,0.00019073777366429567,0.038719769567251205
2.6116230487823486,-0.06313420087099075,-0.0551232174038887,-0.05397878959774971,0.048638131469488144,0.00019073777366429567,0.038719769567251205
2.631700038909912,-0.06389715522527695,-0.0555046908557415,-0.05397878959774971,0.04901960864663124,0.000572213320992887,0.039101243019104004
2.65175199508667,-0.06466010212898254,-0.058175019919872284,-0.05436026677489281,0.04901960864663124,0.000572213320992887,0.039101243019104004
2.671865940093994,-0.06504157930612564,-0.05893797054886818,-0.05436026677489281,0.04940108209848404,0.0009536888683214784,0.0398641936480999
2.6919283866882324,-0.06580453366041183,-0.06198977679014206,-0.05436026677489281,0.049782559275627136,0.0009536888683214784,0.0398641936480999
2.7120485305786133,-0.06618601083755493,-0.06198977679014206,-0.05436026677489281,0.050164032727479935,0.000572213320992887,0.04100862145423889
2.732144832611084,-0.06656748056411743,-0.06466010212898254,-0.05436026677489281,0.05130846053361893,0.000572213320992887,0.04139009863138199
2.7522313594818115,-0.06694895774126053,-0.06542305648326874,-0.05436026677489281,0.051689937710762024,0.000572213320992887,0.04177157208323479
2.772303581237793,-0.06694895774126053,-0.06656748056411743,-0.05436026677489281,0.05245288833975792,0.000572213320992887,0.042153049260377884
2.792353391647339,-0.06809338182210922,-0.06885633617639542,-0.05436026677489281,0.05245288833975792,0.0009536888683214784,0.04253452271223068
2.812450885772705,-0.06847485899925232,-0.07000076025724411,-0.05436026677489281,0.05283436179161072,0.0013351644156500697,0.04291599988937378
2.832507848739624,-0.06961929053068161,-0.0722896158695221,-0.054741740226745605,0.053215838968753815,0.001716639962978661,0.04329747334122658
2.8526012897491455,-0.07038223743438721,-0.0722896158695221,-0.054741740226745605,0.05359731614589691,0.0013351644156500697,0.04444190114736557
2.8726646900177,-0.0715266615152359,-0.07534141838550568,-0.054741740226745605,0.05436026677489281,0.0013351644156500697,0.045204851776361465
2.892765998840332,-0.0715266615152359,-0.07648584991693497,-0.054741740226745605,0.0551232174038887,0.0009536888683214784,0.045204851776361465
2.9128403663635254,-0.07267109304666519,-0.07763027399778366,-0.0551232174038887,0.056267641484737396,0.0013351644156500697,0.04558632895350456
2.9328839778900146,-0.07343403995037079,-0.07953765243291855,-0.0551232174038887,0.056267641484737396,0.0013351644156500697,0.04596780240535736
2.9529783725738525,-0.07305257022380829,-0.08068207651376724,-0.0555046908557415,0.05664911866188049,0.0013351644156500697,0.04596780240535736
2.9730379581451416,-0.07343403995037079,-0.08297093212604523,-0.0555046908557415,0.05703059583902359,0.0013351644156500697,0.04634927958250046
2.9931278228759766,-0.07343403995037079,-0.08373387902975082,-0.0555046908557415,0.05741206929087639,0.0013351644156500697,0.04634927958250046
3.013192892074585,-0.07419699430465698,-0.08564125746488571,-0.0555046908557415,0.05855649709701538,0.001716639962978661,0.046730753034353256
3.033290147781372,-0.07457847148180008,-0.086785688996315,-0.0555046908557415,0.059319447726011276,0.001716639962978661,0.04711223021149635
3.053372859954834,-0.07534141838550568,-0.0875486359000206,-0.0555046908557415,0.05970092490315437,0.001716639962978661,0.04749370738863945
3.0734190940856934,-0.07648584991693497,-0.08945601433515549,-0.0555046908557415,0.06008239835500717,0.001716639962978661,0.048638131469488144
3.093498945236206,-0.07686731964349747,-0.09060044586658478,-0.0555046908557415,0.06008239835500717,0.001716639962978661,0.04940108209848404
3.113560676574707,-0.07763027399778366,-0.09327077120542526,-0.0555046908557415,0.06084534898400307,0.001716639962978661,0.04940108209848404
3.133664131164551,-0.07763027399778366,-0.09403372555971146,-0.0555046908557415,0.061226826161146164,0.0013351644156500697,0.049782559275627136
3.1537420749664307,-0.07877469807863235,-0.09594109654426575,-0.0555046908557415,0.06198977679014206,0.0020981156267225742,0.050164032727479935
3.173818588256836,-0.07915617525577545,-0.09632257372140884,-0.0555046908557415,0.06275273114442825,0.0020981156267225742,0.05054550990462303
3.193899631500244,-0.07953765243291855,-0.09784847497940063,-0.0555046908557415,0.06351567804813385,0.0024795911740511656,0.05130846053361893
3.2139620780944824,-0.08068207651376724,-0.09975585341453552,-0.0555046908557415,0.06351567804813385,0.0024795911740511656,0.05245288833975792
3.234050750732422,-0.08068207651376724,-0.10051880776882172,-0.0555046908557415,0.06389715522527695,0.0024795911740511656,0.053215838968753815
3.2541146278381348,-0.08182650804519653,-0.1028076633810997,-0.0555046908557415,0.06427863240242004,0.002861066721379757,0.053215838968753815
3.274203062057495,-0.08182650804519653,-0.1031891331076622,-0.0555046908557415,0.06466010212898254,0.0024795911740511656,0.05359731614589691
3.294286012649536,-0.08297093212604523,-0.10547798871994019,-0.0555046908557415,0.06542305648326874,0.0032425422687083483,0.05397878959774971
3.314359664916992,-0.08373387902975082,-0.10624094307422638,-0.0555046908557415,0.06618601083755493,0.0032425422687083483,0.05397878959774971
3.3344411849975586,-0.08487831056118011,-0.10814831405878067,-0.0555046908557415,0.06694895774126053,0.0036240178160369396,0.054741740226745605
3.354503870010376,-0.08564125746488571,-0.10967422276735306,-0.0555046908557415,0.06733043491840363,0.0036240178160369396,0.054741740226745605
3.374606132507324,-0.08564125746488571,-0.11081864684820175,-0.0555046908557415,0.06771191209554672,0.002861066721379757,0.056267641484737396
3.3946611881256104,-0.086785688996315,-0.11348897218704224,-0.0555046908557415,0.06847485899925232,0.0032425422687083483,0.05664911866188049
3.414750337600708,-0.0875486359000206,-0.11348897218704224,-0.0555046908557415,0.06847485899925232,0.0036240178160369396,0.05664911866188049
3.4348316192626953,-0.0875486359000206,-0.11539635062217712,-0.0558861680328846,0.06923781335353851,0.004005493130534887,0.05703059583902359
3.454911708831787,-0.0875486359000206,-0.11615930497646332,-0.0555046908557415,0.07038223743438721,0.004005493130534887,0.05703059583902359
3.474989891052246,-0.0875486359000206,-0.11730372905731201,-0.0555046908557415,0.0707637146115303,0.0036240178160369396,0.05741206929087639
3.495046615600586,-0.0879301130771637,-0.1188296303153038,-0.0555046908557415,0.0711451917886734,0.0036240178160369396,0.05741206929087639
3.515127658843994,-0.08869306743144989,-0.11959258466959,-0.0558861680328846,0.0715266615152359,0.0036240178160369396,0.057793546468019485
3.5351879596710205,-0.08945601433515549,-0.12111848592758179,-0.0558861680328846,0.071908138692379,0.004005493130534887,0.058175019919872284
3.5552690029144287,-0.08983749151229858,-0.12111848592758179,-0.0558861680328846,0.0722896158695221,0.004005493130534887,0.05893797054886818
3.575343370437622,-0.08983749151229858,-0.12302586436271667,-0.0555046908557415,0.07305257022380829,0.004005493130534887,0.05970092490315437
3.5954318046569824,-0.09021896868944168,-0.12493324279785156,-0.0555046908557415,0.07419699430465698,0.004005493130534887,0.06046387553215027
3.615558385848999,-0.09174486994743347,-0.12645913660526276,-0.0555046908557415,0.07495994865894318,0.00476844422519207,0.061226826161146164
3.635615825653076,-0.09212634712457657,-0.12874799966812134,-0.0558861680328846,0.07495994865894318,0.004386968910694122,0.061226826161146164
3.6557302474975586,-0.09174486994743347,-0.13027389347553253,-0.0555046908557415,0.07572289556264877,0.004386968910694122,0.06160829961299896
3.6757662296295166,-0.09327077120542526,-0.1325627565383911,-0.0555046908557415,0.07610437273979187,0.004005493130534887,0.06275273114442825
3.695849895477295,-0.09327077120542526,-0.1329442262649536,-0.0555046908557415,0.07724879682064056,0.004005493130534887,0.06389715522527695
3.715932846069336,-0.09365224838256836,-0.1340886503458023,-0.0555046908557415,0.07839322835206985,0.00476844422519207,0.06427863240242004
3.735995054244995,-0.09403372555971146,-0.1348516047000885,-0.0555046908557415,0.07839322835206985,0.004005493130534887,0.06427863240242004
3.75606632232666,-0.09479667246341705,-0.1359960287809372,-0.0555046908557415,0.07915617525577545,0.00476844422519207,0.06466010212898254
3.7761242389678955,-0.09517814964056015,-0.13828489184379578,-0.0555046908557415,0.07915617525577545,0.004386968910694122,0.06466010212898254
3.7962396144866943,-0.09479667246341705,-0.13904783129692078,-0.0555046908557415,0.07953765243291855,0.004386968910694122,0.06504157930612564
3.81630802154541,-0.09632257372140884,-0.14209964871406555,-0.0555046908557415,0.07991912961006165,0.004386968910694122,0.06542305648326874
3.83640193939209,-0.09708552807569504,-0.14209964871406555,-0.0555046908557415,0.08068207651376724,0.005149920005351305,0.06580453366041183
3.856482982635498,-0.09708552807569504,-0.14438849687576294,-0.0555046908557415,0.08182650804519653,0.00476844422519207,0.06618601083755493
3.876559019088745,-0.09746700525283813,-0.14476996660232544,-0.0555046908557415,0.08258945494890213,0.004386968910694122,0.06694895774126053
3.8966495990753174,-0.09822995215654373,-0.14629587531089783,-0.0555046908557415,0.08297093212604523,0.005149920005351305,0.06809338182210922
3.9167051315307617,-0.09899290651082993,-0.14782176911830902,-0.0555046908557415,0.08335240930318832,0.005531395319849253,0.06847485899925232
3.9368021488189697,-0.09937438368797302,-0.14858472347259521,-0.0555046908557415,0.08411535620689392,0.00476844422519207,0.06885633617639542
3.9568703174591064,-0.10013733059167862,-0.1504921019077301,-0.0555046908557415,0.08564125746488571,0.005531395319849253,0.06923781335353851
3.976956367492676,-0.10013733059167862,-0.1504921019077301,-0.0555046908557415,0.08564125746488571,0.005531395319849253,0.07038223743438721
3.9970638751983643,-0.10051880776882172,-0.152399480342865,-0.0555046908557415,0.0864042118191719,0.005912871100008488,0.0715266615152359
4.0171425342559814,-0.10166323184967041,-0.15316243469715118,-0.0555046908557415,0.0864042118191719,0.006294346414506435,0.071908138692379
4.037219285964966,-0.10204470902681351,-0.15392538905143738,-0.0555046908557415,0.086785688996315,0.006294346414506435,0.071908138692379
4.057271718978882,-0.1024261862039566,-0.15621423721313477,-0.0555046908557415,0.0875486359000206,0.006294346414506435,0.0722896158695221
4.077367067337036,-0.1024261862039566,-0.15697719156742096,-0.0555046908557415,0.0883115902543068,0.006294346414506435,0.07267109304666519
4.097450256347656,-0.1031891331076622,-0.16002899408340454,-0.0555046908557415,0.08907453715801239,0.00667582219466567,0.07267109304666519
4.117527961730957,-0.1035706102848053,-0.16041046380996704,-0.0555046908557415,0.08983749151229858,0.007057297509163618,0.07305257022380829
4.137608528137207,-0.1039520874619484,-0.16308079659938812,-0.0555046908557415,0.09021896868944168,0.007438773289322853,0.07343403995037079
4.157686233520508,-0.10471503436565399,-0.16384375095367432,-0.0555046908557415,0.09060044586658478,0.007057297509163618,0.07381551712751389
4.177782297134399,-0.10547798871994019,-0.164988175034523,-0.0555046908557415,0.09098191559314728,0.007057297509163618,0.07495994865894318
4.19782829284668,-0.10624094307422638,-0.1665140837430954,-0.0551232174038887,0.09212634712457657,0.007057297509163618,0.07534141838550568
4.217918157577515,-0.10624094307422638,-0.1672770231962204,-0.0551232174038887,0.09327077120542526,0.00667582219466567,0.07572289556264877
4.237994432449341,-0.10814831405878067,-0.16956588625907898,-0.0551232174038887,0.09403372555971146,0.0078202486038208,0.07610437273979187
4.258079290390015,-0.10929274559020996,-0.16956588625907898,-0.0551232174038887,0.09403372555971146,0.0078202486038208,0.07610437273979187
4.278165102005005,-0.10929274559020996,-0.17109178006649017,-0.054741740226745605,0.09479667246341705,0.008201723918318748,0.07648584991693497
4.2982707023620605,-0.10967422276735306,-0.17223620414733887,-0.05436026677489281,0.09594109654426575,0.007438773289322853,0.07763027399778366
4.318350076675415,-0.11043716967105865,-0.17452506721019745,-0.05436026677489281,0.09746700525283813,0.0078202486038208,0.07915617525577545
4.338432312011719,-0.11158160120248795,-0.17719538509845734,-0.05436026677489281,0.09784847497940063,0.0078202486038208,0.07991912961006165
4.358542442321777,-0.11158160120248795,-0.17795833945274353,-0.05436026677489281,0.09784847497940063,0.008201723918318748,0.07991912961006165
4.3786046504974365,-0.11272602528333664,-0.1810101419687271,-0.05436026677489281,0.09822995215654373,0.00858320016413927,0.07991912961006165
4.398694753646851,-0.11310750246047974,-0.1813916265964508,-0.05436026677489281,0.10013733059167862,0.008201723918318748,0.08068207651376724
4.418782711029053,-0.11387044936418533,-0.1836804747581482,-0.05397878959774971,0.10090028494596481,0.00858320016413927,0.08106355369091034
4.438876152038574,-0.11463340371847153,-0.1836804747581482,-0.05359731614589691,0.10128175467252731,0.00858320016413927,0.08220797777175903
4.458970785140991,-0.11615930497646332,-0.18520638346672058,-0.05359731614589691,0.10166323184967041,0.00858320016413927,0.08258945494890213
4.479023218154907,-0.11654078215360641,-0.18558785319328308,-0.05359731614589691,0.10204470902681351,0.00858320016413927,0.08297093212604523
4.4991161823272705,-0.11654078215360641,-0.18635080754756927,-0.05359731614589691,0.1028076633810997,0.00858320016413927,0.08335240930318832
4.519181251525879,-0.11654078215360641,-0.18787670135498047,-0.05359731614589691,0.10433356463909149,0.00858320016413927,0.08373387902975082
4.539286136627197,-0.11654078215360641,-0.18825818598270416,-0.053215838968753815,0.10471503436565399,0.009346150793135166,0.08373387902975082
4.559365272521973,-0.11730372905731201,-0.19054703414440155,-0.053215838968753815,0.10509651154279709,0.010109102353453636,0.08449683338403702
4.580030202865601,-0.11768520623445511,-0.19092851877212524,-0.053215838968753815,0.10547798871994019,0.010490577667951584,0.08487831056118011
4.600123643875122,-0.1184481605887413,-0.19245441257953644,-0.053215838968753815,0.10624094307422638,0.010490577667951584,0.08564125746488571
4.620180130004883,-0.1188296303153038,-0.19359883666038513,-0.053215838968753815,0.10738536715507507,0.010490577667951584,0.0864042118191719
4.6402692794799805,-0.1188296303153038,-0.19398032128810883,-0.05283436179161072,0.10852979123592377,0.010109102353453636,0.0875486359000206
4.660353422164917,-0.1203555315732956,-0.1958876997232437,-0.05245288833975792,0.10891126841306686,0.010490577667951584,0.0879301130771637
4.6804234981536865,-0.12111848592758179,-0.1962691694498062,-0.05207141116261482,0.10891126841306686,0.01125352829694748,0.0883115902543068
4.700501203536987,-0.12073700875043869,-0.1977950781583786,-0.051689937710762024,0.10967422276735306,0.010872052982449532,0.08945601433515549
4.720566511154175,-0.12188144028186798,-0.1997024416923523,-0.051689937710762024,0.11043716967105865,0.010872052982449532,0.09098191559314728
4.740650653839111,-0.12226291000843048,-0.20122835040092468,-0.05130846053361893,0.11234454810619354,0.010872052982449532,0.09136339277029037
4.760702133178711,-0.12378881871700287,-0.20466163754463196,-0.05130846053361893,0.11272602528333664,0.01125352829694748,0.09136339277029037
4.780791282653809,-0.12417028844356537,-0.20542457699775696,-0.05130846053361893,0.11310750246047974,0.010872052982449532,0.09174486994743347
4.800933361053467,-0.12417028844356537,-0.20923933386802673,-0.05092698708176613,0.11387044936418533,0.010872052982449532,0.09174486994743347
4.820966720581055,-0.12417028844356537,-0.21038375794887543,-0.05092698708176613,0.11501488089561462,0.010872052982449532,0.09250781685113907
4.841045141220093,-0.12493324279785156,-0.2134355753660202,-0.050164032727479935,0.11539635062217712,0.01125352829694748,0.09288929402828217
4.8611485958099365,-0.12531471252441406,-0.2149614691734314,-0.050164032727479935,0.11577782779932022,0.01125352829694748,0.09441519528627396
4.881238698959351,-0.12607766687870026,-0.21648737788200378,-0.049782559275627136,0.11692225188016891,0.011635004542768002,0.09517814964056015
4.9012932777404785,-0.12684062123298645,-0.21915769577026367,-0.04940108209848404,0.11692225188016891,0.01125352829694748,0.09555962681770325
4.921382427215576,-0.12722209095954895,-0.21992065012454987,-0.04940108209848404,0.1184481605887413,0.01125352829694748,0.09632257372140884
4.941442012786865,-0.12836651504039764,-0.22259098291397095,-0.04901960864663124,0.11959258466959,0.01125352829694748,0.09784847497940063
4.9615161418914795,-0.12874799966812134,-0.22335393726825714,-0.04901960864663124,0.1203555315732956,0.01125352829694748,0.09861142933368683
4.981600999832153,-0.12912946939468384,-0.22602425515651703,-0.048256658017635345,0.12149996310472488,0.01125352829694748,0.09861142933368683
5.00166392326355,-0.12951095402240753,-0.2283131182193756,-0.04787518084049225,0.12226291000843048,0.01125352829694748,0.09861142933368683
5.021755695343018,-0.12951095402240753,-0.2298390120267868,-0.04787518084049225,0.12378881871700287,0.01125352829694748,0.09937438368797302
5.041808605194092,-0.13103684782981873,-0.23403525352478027,-0.04749370738863945,0.12417028844356537,0.01125352829694748,0.09937438368797302
5.061891794204712,-0.13141833245754242,-0.23479819297790527,-0.04749370738863945,0.12493324279785156,0.011635004542768002,0.09975585341453552
5.081952333450317,-0.13141833245754242,-0.23937590420246124,-0.04711223021149635,0.12607766687870026,0.01125352829694748,0.10051880776882172
5.102041959762573,-0.13179980218410492,-0.24013885855674744,-0.04711223021149635,0.12722209095954895,0.01125352829694748,0.10204470902681351
5.122121572494507,-0.1325627565383911,-0.24319066107273102,-0.04634927958250046,0.12798504531383514,0.011635004542768002,0.1024261862039566
5.142169713973999,-0.1333257108926773,-0.2450980395078659,-0.04596780240535736,0.12836651504039764,0.011635004542768002,0.1024261862039566
5.162257432937622,-0.1337071806192398,-0.2462424635887146,-0.04558632895350456,0.12989242374897003,0.01201647985726595,0.1035706102848053
5.182311058044434,-0.135233074426651,-0.24929426610469818,-0.045204851776361465,0.13103684782981873,0.012397955171763897,0.10471503436565399
5.202434539794922,-0.1359960287809372,-0.24967575073242188,-0.045204851776361465,0.13103684782981873,0.012397955171763897,0.10624094307422638
5.2225000858306885,-0.1363775134086609,-0.25310903787612915,-0.04406042397022247,0.13179980218410492,0.012397955171763897,0.10624094307422638
5.242583990097046,-0.1367589831352234,-0.25349050760269165,-0.043678950518369675,0.13218127191066742,0.01201647985726595,0.10662241280078888
5.262664556503296,-0.13752193748950958,-0.25654229521751404,-0.04329747334122658,0.1337071806192398,0.013160906732082367,0.10700388997793198
5.282713413238525,-0.13866636157035828,-0.2580682039260864,-0.04329747334122658,0.134470134973526,0.013923857361078262,0.10776684433221817
5.302804231643677,-0.13866636157035828,-0.2588311731815338,-0.04291599988937378,0.1348516047000885,0.01506828423589468,0.10891126841306686
5.322865724563599,-0.13981078565120697,-0.2622644305229187,-0.04291599988937378,0.1356145590543747,0.014686808921396732,0.10929274559020996
5.342955589294434,-0.14019227027893066,-0.2630273997783661,-0.04291599988937378,0.1371404528617859,0.01583123579621315,0.10967422276735306
5.363032579421997,-0.14057374000549316,-0.266460657119751,-0.042153049260377884,0.13828489184379578,0.01583123579621315,0.11005569249391556
5.383105516433716,-0.14133669435977936,-0.266460657119751,-0.04177157208323479,0.13828489184379578,0.015449759550392628,0.11043716967105865
5.403195142745972,-0.14171816408634186,-0.26913100481033325,-0.04100862145423889,0.13904783129692078,0.015449759550392628,0.11120012402534485
5.423251628875732,-0.14324407279491425,-0.27103838324546814,-0.040627144277095795,0.13942931592464447,0.015449759550392628,0.11272602528333664
5.4433372020721436,-0.14400701224803925,-0.2725642919540405,-0.040245670825242996,0.14133669435977936,0.016212711110711098,0.11387044936418533
5.463394403457642,-0.14476996660232544,-0.2748531401157379,-0.0394827201962471,0.14209964871406555,0.016212711110711098,0.11463340371847153
5.483484268188477,-0.14591439068317413,-0.2756160795688629,-0.0394827201962471,0.14248111844062805,0.016975661739706993,0.11654078215360641
5.503561496734619,-0.14591439068317413,-0.2782863974571228,-0.039101243019104004,0.14400701224803925,0.016594186425209045,0.11730372905731201
5.523636817932129,-0.14591439068317413,-0.2779049277305603,-0.039101243019104004,0.14553292095661163,0.016594186425209045,0.11768520623445511
5.543717384338379,-0.14705882966518402,-0.2805752754211426,-0.038719769567251205,0.14629587531089783,0.01735713705420494,0.1180666834115982
5.563772678375244,-0.14705882966518402,-0.2809567451477051,-0.03833829239010811,0.14667734503746033,0.01773861236870289,0.1184481605887413
5.583857536315918,-0.14782176911830902,-0.28286412358283997,-0.03795681521296501,0.14820325374603271,0.018120087683200836,0.1192111074924469
5.60393214225769,-0.14820325374603271,-0.28439003229141235,-0.03681239113211632,0.1497291475534439,0.018120087683200836,0.12111848592758179
5.6240153312683105,-0.14820325374603271,-0.28515297174453735,-0.03681239113211632,0.1501106321811676,0.018501564860343933,0.12149996310472488
5.644114255905151,-0.1493476778268814,-0.28706035017967224,-0.03643091395497322,0.1516365259885788,0.018120087683200836,0.12188144028186798
5.664187908172607,-0.1497291475534439,-0.28744181990623474,-0.03643091395497322,0.15316243469715118,0.018120087683200836,0.12340734153985977
5.684263706207275,-0.1501106321811676,-0.28934919834136963,-0.035667963325977325,0.15430685877799988,0.018501564860343933,0.12455176562070847
5.704326152801514,-0.1512550562620163,-0.290112167596817,-0.03490501269698143,0.15430685877799988,0.018501564860343933,0.12455176562070847
5.724414587020874,-0.1516365259885788,-0.2912565767765045,-0.03490501269698143,0.15659570693969727,0.018501564860343933,0.12493324279785156
5.744481801986694,-0.152399480342865,-0.2927824854850769,-0.034142062067985535,0.15735866129398346,0.018501564860343933,0.12569619715213776
5.764566421508789,-0.15316243469715118,-0.2931639552116394,-0.03376058489084244,0.15774014592170715,0.018501564860343933,0.12607766687870026
5.784658908843994,-0.15316243469715118,-0.2962157726287842,-0.03337911143898964,0.15888457000255585,0.018501564860343933,0.12684062123298645
5.804730176925659,-0.15392538905143738,-0.2965972423553467,-0.03337911143898964,0.16002899408340454,0.018501564860343933,0.12836651504039764
5.824806451797485,-0.15430685877799988,-0.29812315106391907,-0.03299763426184654,0.16079194843769073,0.01888304017484188,0.12874799966812134
5.844861745834351,-0.15506981313228607,-0.29888609051704407,-0.032616160809993744,0.16117341816425323,0.01926451548933983,0.12874799966812134
5.864956855773926,-0.15583276748657227,-0.30155640840530396,-0.03223468363285065,0.16308079659938812,0.019645990803837776,0.12989242374897003
5.885028123855591,-0.15659570693969727,-0.30308231711387634,-0.03147173300385475,0.1646067053079605,0.020027466118335724,0.13141833245754242
5.905133485794067,-0.15659570693969727,-0.30384528636932373,-0.03147173300385475,0.164988175034523,0.01926451548933983,0.1325627565383911
5.925214529037476,-0.15774014592170715,-0.3057526648044586,-0.03032730519771576,0.1657511293888092,0.019645990803837776,0.1329442262649536
5.945297479629517,-0.15850308537483215,-0.3057526648044586,-0.02994582988321781,0.1668955534696579,0.019645990803837776,0.1337071806192398
5.965373277664185,-0.16002899408340454,-0.3084229826927185,-0.02841992862522602,0.1684214472770691,0.02040894143283367,0.1348516047000885
5.985424995422363,-0.16041046380996704,-0.309567391872406,-0.027656977996230125,0.16918440163135529,0.02079041674733162,0.1359960287809372
6.005518198013306,-0.16041046380996704,-0.3107118308544159,-0.02689402550458908,0.17071031033992767,0.020027466118335724,0.1363775134086609
6.025583744049072,-0.16079194843769073,-0.3130006790161133,-0.026131074875593185,0.17223620414733887,0.020027466118335724,0.1367589831352234
6.045664310455322,-0.16079194843769073,-0.31376364827156067,-0.026131074875593185,0.17299915850162506,0.021171892061829567,0.13828489184379578
6.065754175186157,-0.16155488789081573,-0.31605249643325806,-0.02536812424659729,0.17490653693675995,0.021553369238972664,0.13981078565120697
6.0858094692230225,-0.16193637251853943,-0.31643396615982056,-0.02536812424659729,0.17605096101760864,0.02231631986796856,0.14095520973205566
6.105900764465332,-0.16269932687282562,-0.31834134459495544,-0.024986648932099342,0.17643244564533234,0.022697795182466507,0.14248111844062805
6.125961780548096,-0.16308079659938812,-0.31948578357696533,-0.024223696440458298,0.17719538509845734,0.02231631986796856,0.14324407279491425
6.146053791046143,-0.16384375095367432,-0.32101166248321533,-0.024223696440458298,0.17910276353359222,0.022697795182466507,0.14362554252147675
6.1661217212677,-0.164988175034523,-0.3244449496269226,-0.023079270496964455,0.1802472025156021,0.022697795182466507,0.14400701224803925
6.1862053871154785,-0.164988175034523,-0.3248264193534851,-0.02231631986796856,0.1806286722421646,0.022697795182466507,0.14400701224803925
6.206307649612427,-0.1668955534696579,-0.32940414547920227,-0.021553369238972664,0.182154580950737,0.023460745811462402,0.14476996660232544
6.226381778717041,-0.1676585078239441,-0.33131152391433716,-0.02079041674733162,0.1832990050315857,0.024605173617601395,0.14667734503746033
6.246461868286133,-0.1680399775505066,-0.33474478125572205,-0.02040894143283367,0.1836804747581482,0.024223696440458298,0.14782176911830902
6.266510486602783,-0.16880293190479279,-0.3381780683994293,-0.01926451548933983,0.1840619444847107,0.024223696440458298,0.14782176911830902
6.286604881286621,-0.16880293190479279,-0.3397039771080017,-0.01926451548933983,0.18558785319328308,0.024605173617601395,0.1504921019077301
6.306676149368286,-0.16994735598564148,-0.344663143157959,-0.018120087683200836,0.18711376190185547,0.02536812424659729,0.1508735716342926
6.3267505168914795,-0.17032882571220398,-0.34618905186653137,-0.01773861236870289,0.18787670135498047,0.025749599561095238,0.1508735716342926
6.346837759017944,-0.17185473442077637,-0.35114824771881104,-0.016594186425209045,0.19016556441783905,0.026131074875593185,0.1512550562620163
6.366899251937866,-0.17223620414733887,-0.3526741564273834,-0.01583123579621315,0.19092851877212524,0.026512550190091133,0.1516365259885788
6.386972188949585,-0.17223620414733887,-0.3553444743156433,-0.014686808921396732,0.19169145822525024,0.026131074875593185,0.152399480342865
6.40701961517334,-0.17299915850162506,-0.3587777614593506,-0.013542382046580315,0.19207294285297394,0.025749599561095238,0.15316243469715118
6.427112102508545,-0.17338064312934875,-0.3606851398944855,-0.012779430486261845,0.19436179101467133,0.026512550190091133,0.15468832850456238
6.447174310684204,-0.17452506721019745,-0.36526283621788025,-0.010872052982449532,0.19512474536895752,0.02689402550458908,0.15545128285884857
6.467268943786621,-0.17490653693675995,-0.36564430594444275,-0.010490577667951584,0.19550621509552002,0.027656977996230125,0.15545128285884857
6.487351179122925,-0.17528800666332245,-0.368314653635025,-0.009727626107633114,0.1974135935306549,0.02689402550458908,0.15659570693969727
6.507418632507324,-0.17643244564533234,-0.369840532541275,-0.00858320016413927,0.1985580176115036,0.02689402550458908,0.15964750945568085
6.527508020401001,-0.17681391537189484,-0.3717479109764099,-0.007438773289322853,0.1997024416923523,0.02689402550458908,0.16041046380996704
6.547546863555908,-0.17757686972618103,-0.3744182586669922,-0.005531395319849253,0.20084688067436218,0.02727550081908703,0.16079194843769073
6.56763768196106,-0.17833982408046722,-0.3755626678466797,-0.00476844422519207,0.20275425910949707,0.027656977996230125,0.16231784224510193
6.587698459625244,-0.17948424816131592,-0.38052186369895935,-0.0024795911740511656,0.20466163754463196,0.027656977996230125,0.16231784224510193
6.607785940170288,-0.17910276353359222,-0.38166627287864685,-0.0024795911740511656,0.20542457699775696,0.028038453310728073,0.16269932687282562
6.627869367599487,-0.1802472025156021,-0.3858625292778015,-0.0013351644156500697,0.20656901597976685,0.028038453310728073,0.16308079659938812
6.64794135093689,-0.1802472025156021,-0.3885328471660614,-0.0009536888683214784,0.20733195543289185,0.02880140393972397,0.164988175034523
6.668012380599976,-0.1802472025156021,-0.3915846347808838,0.00019073777366429567,0.20962081849575043,0.02841992862522602,0.1668955534696579
6.68806004524231,-0.1810101419687271,-0.39539939165115356,0.0013351644156500697,0.21000228822231293,0.02994582988321781,0.16880293190479279
6.708154678344727,-0.1813916265964508,-0.39730677008628845,0.0024795911740511656,0.21190966665744781,0.03032730519771576,0.16956588625907898
6.728214740753174,-0.1825360506772995,-0.4022659659385681,0.004005493130534887,0.2130540907382965,0.030708782374858856,0.16956588625907898
6.748297929763794,-0.182154580950737,-0.4026474356651306,0.004005493130534887,0.2138170450925827,0.031090257689356804,0.17071031033992767
6.768374919891357,-0.182154580950737,-0.4076066315174103,0.005912871100008488,0.2153429538011551,0.03185320645570755,0.17109178006649017
6.788426637649536,-0.1825360506772995,-0.41065841913223267,0.007057297509163618,0.21686884760856628,0.03299763426184654,0.17261768877506256
6.80851149559021,-0.1832990050315857,-0.41294726729393005,0.008201723918318748,0.21801327168941498,0.03376058489084244,0.17338064312934875
6.828556537628174,-0.1840619444847107,-0.4171435236930847,0.010109102353453636,0.21877622604370117,0.03452353551983833,0.17376211285591125
6.848647117614746,-0.1844434291124344,-0.4186694025993347,0.010872052982449532,0.22068360447883606,0.03528648987412453,0.17681391537189484
6.868714094161987,-0.18520638346672058,-0.4236285984516144,0.013542382046580315,0.22182802855968475,0.03528648987412453,0.17719538509845734
6.888794422149658,-0.18520638346672058,-0.4247730076313019,0.01430533267557621,0.22373540699481964,0.035667963325977325,0.17719538509845734
6.908867120742798,-0.18635080754756927,-0.42935073375701904,0.016212711110711098,0.22526131570339203,0.035667963325977325,0.17795833945274353
6.929048299789429,-0.18673227727413177,-0.4327840209007263,0.01735713705420494,0.22678720951080322,0.03643091395497322,0.17833982408046722
6.949139833450317,-0.18673227727413177,-0.4346913993358612,0.01888304017484188,0.2286945879459381,0.03643091395497322,0.17948424816131592
6.969183921813965,-0.18711376190185547,-0.4388876259326935,0.02079041674733162,0.2294575423002243,0.037193864583969116,0.1806286722421646
6.989277362823486,-0.18711376190185547,-0.44117647409439087,0.021553369238972664,0.2313649207353592,0.03757534176111221,0.1806286722421646
7.009345293045044,-0.18863965570926666,-0.44575417041778564,0.023460745811462402,0.23289081454277039,0.03833829239010811,0.1813916265964508
7.029418706893921,-0.18863965570926666,-0.44689860939979553,0.024223696440458298,0.23403525352478027,0.039101243019104004,0.1825360506772995
7.0494959354400635,-0.18940261006355286,-0.4510948359966278,0.026131074875593185,0.23594263195991516,0.03833829239010811,0.18520638346672058
7.069783926010132,-0.18940261006355286,-0.4545281231403351,0.027656977996230125,0.23708705604076385,0.0398641936480999,0.18558785319328308
7.089898347854614,-0.18940261006355286,-0.45796138048171997,0.029564354568719864,0.23861294984817505,0.0394827201962471,0.18635080754756927
7.1099255084991455,-0.18978407979011536,-0.46139466762542725,0.03223468363285065,0.24090181291103363,0.04177157208323479,0.18787670135498047
7.130018472671509,-0.18978407979011536,-0.46330204606056213,0.03299763426184654,0.24280919134616852,0.042153049260377884,0.18825818598270416
7.150089263916016,-0.19016556441783905,-0.4671168029308319,0.03604944050312042,0.24357213079929352,0.04329747334122658,0.18863965570926666
7.17015528678894,-0.19054703414440155,-0.4701686203479767,0.03681239113211632,0.2443350851535797,0.045204851776361465,0.18978407979011536
7.190229177474976,-0.19130998849868774,-0.4728389382362366,0.039101243019104004,0.2454795092344284,0.045204851776361465,0.19130998849868774
7.210427284240723,-0.19169145822525024,-0.47589075565338135,0.040245670825242996,0.2473868876695633,0.04634927958250046,0.19245441257953644
7.230518579483032,-0.19169145822525024,-0.47779813408851624,0.04139009863138199,0.2481498420238495,0.045204851776361465,0.19398032128810883
7.250561475753784,-0.19321736693382263,-0.4827573001384735,0.04406042397022247,0.2508201599121094,0.04558632895350456,0.19512474536895752
7.270696401596069,-0.19359883666038513,-0.4858091175556183,0.04444190114736557,0.25196459889411926,0.04749370738863945,0.1958876997232437
7.290796995162964,-0.19474326074123383,-0.4892423748970032,0.046730753034353256,0.25425344705581665,0.04749370738863945,0.1958876997232437
7.310873031616211,-0.19474326074123383,-0.49191272258758545,0.04749370738863945,0.25577935576438904,0.04940108209848404,0.1966506391763687
7.330952882766724,-0.19512474536895752,-0.49458304047584534,0.04940108209848404,0.2573052644729614,0.048638131469488144,0.1966506391763687
7.351131439208984,-0.1958876997232437,-0.4964904189109802,0.05092698708176613,0.2584496736526489,0.049782559275627136,0.1974135935306549
7.371230840682983,-0.1966506391763687,-0.4980163276195526,0.05245288833975792,0.2592126429080963,0.049782559275627136,0.1985580176115036
7.391243934631348,-0.1966506391763687,-0.50030517578125,0.054741740226745605,0.2611200213432312,0.05054550990462303,0.1997024416923523
7.411334276199341,-0.1966506391763687,-0.5014495849609375,0.0551232174038887,0.2622644305229187,0.05092698708176613,0.20160982012748718
7.431406259536743,-0.1966506391763687,-0.5041199326515198,0.057793546468019485,0.2634088695049286,0.05092698708176613,0.20275425910949707
7.451481342315674,-0.1966506391763687,-0.506790280342102,0.05893797054886818,0.2653162479400635,0.05245288833975792,0.20313572883605957
7.471564054489136,-0.1966506391763687,-0.508316159248352,0.061226826161146164,0.2660791873931885,0.05207141116261482,0.20389868319034576
7.49227499961853,-0.1974135935306549,-0.5125123858451843,0.06313420087099075,0.26684215664863586,0.053215838968753815,0.20428015291690826
7.512362003326416,-0.1977950781583786,-0.5144197940826416,0.06466010212898254,0.26874953508377075,0.05359731614589691,0.20542457699775696
7.5324177742004395,-0.1989395022392273,-0.5178530812263489,0.06733043491840363,0.26989394426345825,0.053215838968753815,0.20695048570632935
7.552510976791382,-0.1993209719657898,-0.5201418995857239,0.06809338182210922,0.27103838324546814,0.05359731614589691,0.20771344006061554
7.572574615478516,-0.20084688067436218,-0.5216678380966187,0.0707637146115303,0.272945761680603,0.053215838968753815,0.20847637951374054
7.592655897140503,-0.20199130475521088,-0.5228122472763062,0.0715266615152359,0.2740901708602905,0.05397878959774971,0.21114671230316162
7.612735986709595,-0.20199130475521088,-0.5247195959091187,0.07381551712751389,0.2752346098423004,0.053215838968753815,0.21152819693088531
7.632785797119141,-0.20275425910949707,-0.5266270041465759,0.07572289556264877,0.2775234580039978,0.053215838968753815,0.21190966665744781
7.652875900268555,-0.20389868319034576,-0.5281528830528259,0.07763027399778366,0.2798123061656952,0.054741740226745605,0.2134355753660202
7.672929525375366,-0.20389868319034576,-0.5312047004699707,0.08106355369091034,0.2813382148742676,0.05436026677489281,0.2145799994468689
7.693021297454834,-0.20389868319034576,-0.5327305793762207,0.08182650804519653,0.2821011543273926,0.054741740226745605,0.2145799994468689
7.713193416595459,-0.20389868319034576,-0.5350194573402405,0.08487831056118011,0.28439003229141235,0.053215838968753815,0.2149614691734314
7.733217000961304,-0.20428015291690826,-0.5373083353042603,0.08602273464202881,0.28591591119766235,0.0551232174038887,0.21763180196285248
7.753325939178467,-0.20504310727119446,-0.5388342142105103,0.08945601433515549,0.28782328963279724,0.05397878959774971,0.21915769577026367
7.773358106613159,-0.20580606162548065,-0.541886031627655,0.09136339277029037,0.28896772861480713,0.0555046908557415,0.21992065012454987
7.793450355529785,-0.20580606162548065,-0.5437933802604675,0.09365224838256836,0.290875107049942,0.0558861680328846,0.22220951318740845
7.813504695892334,-0.20618753135204315,-0.5464637279510498,0.09670405089855194,0.2927824854850769,0.0551232174038887,0.22220951318740845
7.8335981369018555,-0.20656901597976685,-0.5487525463104248,0.09784847497940063,0.2946898639202118,0.0558861680328846,0.22259098291397095
7.853696823120117,-0.20733195543289185,-0.5510414242744446,0.10128175467252731,0.2958342730998993,0.0551232174038887,0.22297245264053345
7.87378191947937,-0.20771344006061554,-0.5540932416915894,0.1024261862039566,0.2965972423553467,0.0558861680328846,0.22487983107566833
7.893858432769775,-0.20847637951374054,-0.5563820600509644,0.10471503436565399,0.29888609051704407,0.0555046908557415,0.22564278542995453
7.913910627365112,-0.20962081849575043,-0.5598153471946716,0.10662241280078888,0.30003052949905396,0.0555046908557415,0.22640573978424072
7.9340057373046875,-0.21038375794887543,-0.5609598159790039,0.10814831405878067,0.30231937766075134,0.056267641484737396,0.22793163359165192
7.954059839248657,-0.21152819693088531,-0.5643930435180664,0.11081864684820175,0.30384528636932373,0.05436026677489281,0.2294575423002243
7.9741551876068115,-0.21152819693088531,-0.5663004517555237,0.11234454810619354,0.30498969554901123,0.0551232174038887,0.2294575423002243
7.9942474365234375,-0.21152819693088531,-0.5670633912086487,0.11463340371847153,0.3072785437107086,0.05397878959774971,0.2302204966545105
8.01431679725647,-0.21190966665744781,-0.568970799446106,0.11615930497646332,0.308804452419281,0.0551232174038887,0.2317463904619217
8.034400224685669,-0.21229113638401031,-0.5708781480789185,0.1184481605887413,0.3107118308544159,0.0551232174038887,0.23250934481620789
8.054449796676636,-0.212672621011734,-0.5727855563163757,0.12073700875043869,0.3118562698364258,0.056267641484737396,0.23289081454277039
8.074545860290527,-0.2134355753660202,-0.5739299654960632,0.12188144028186798,0.31452658772468567,0.05703059583902359,0.23327229917049408
8.094597578048706,-0.2134355753660202,-0.5758373141288757,0.12531471252441406,0.31528952717781067,0.0558861680328846,0.23403525352478027
8.11469030380249,-0.2134355753660202,-0.576218843460083,0.12569619715213776,0.31719690561294556,0.05703059583902359,0.23632410168647766
8.134772539138794,-0.2145799994468689,-0.5781261920928955,0.12912946939468384,0.31872281432151794,0.0551232174038887,0.23823148012161255
8.154849529266357,-0.2145799994468689,-0.5807965397834778,0.13103684782981873,0.32024872303009033,0.05664911866188049,0.23861294984817505
8.174935102462769,-0.2145799994468689,-0.5823224186897278,0.1333257108926773,0.3225375711917877,0.0558861680328846,0.24052032828330994
8.194987058639526,-0.2157244235277176,-0.5857557058334351,0.1359960287809372,0.3248264193534851,0.05741206929087639,0.24052032828330994
8.215129137039185,-0.2161058932542801,-0.5876630544662476,0.13828489184379578,0.32673379778862,0.05741206929087639,0.24166475236415863
8.235145568847656,-0.21648737788200378,-0.5907148718833923,0.14248111844062805,0.32940414547920227,0.05703059583902359,0.24166475236415863
8.25524616241455,-0.21648737788200378,-0.5926222801208496,0.14324407279491425,0.33169299364089966,0.05741206929087639,0.2439536154270172
8.275291919708252,-0.21801327168941498,-0.5937666893005371,0.14629587531089783,0.33398184180259705,0.05703059583902359,0.2447165697813034
8.295356273651123,-0.21801327168941498,-0.5960555672645569,0.14782176911830902,0.33474478125572205,0.059319447726011276,0.2458609938621521
8.315483808517456,-0.21801327168941498,-0.5987258553504944,0.1501106321811676,0.3374151289463043,0.05893797054886818,0.2473868876695633
8.335496425628662,-0.21839475631713867,-0.6017776727676392,0.1520180106163025,0.3397039771080017,0.06084534898400307,0.2481498420238495
8.35558271408081,-0.21839475631713867,-0.6036850810050964,0.15392538905143738,0.3408484160900116,0.06008239835500717,0.248531311750412
8.375634670257568,-0.21839475631713867,-0.6067368388175964,0.15735866129398346,0.3419928252696991,0.06008239835500717,0.24891279637813568
8.395727634429932,-0.21839475631713867,-0.6082627773284912,0.15850308537483215,0.34542611241340637,0.06198977679014206,0.2500572204589844
8.415800333023071,-0.21877622604370117,-0.6101701259613037,0.16231784224510193,0.34771496057510376,0.061226826161146164,0.25196459889411926
8.435877323150635,-0.21877622604370117,-0.6124590039253235,0.16384375095367432,0.34847790002822876,0.06313420087099075,0.25387197732925415
8.455951929092407,-0.21877622604370117,-0.614366352558136,0.1668955534696579,0.35076677799224854,0.06237125024199486,0.25577935576438904
8.4760000705719,-0.21915769577026367,-0.6170367002487183,0.16956588625907898,0.35229265689849854,0.06466010212898254,0.25577935576438904
8.496087789535522,-0.21915769577026367,-0.6185625791549683,0.17109178006649017,0.3538185656070709,0.06580453366041183,0.25616082549095154
8.516154050827026,-0.21992065012454987,-0.6212329268455505,0.17528800666332245,0.3557259440422058,0.06733043491840363,0.25654229521751404
8.536328315734863,-0.22030213475227356,-0.6227588057518005,0.17643244564533234,0.3568703830242157,0.06809338182210922,0.2588311731815338
8.556318044662476,-0.22106507420539856,-0.6246662139892578,0.17948424816131592,0.3595407009124756,0.06809338182210922,0.2592126429080963
8.576393127441406,-0.22182802855968475,-0.6269550919532776,0.1813916265964508,0.361066609621048,0.0707637146115303,0.2595941126346588
8.596532106399536,-0.22297245264053345,-0.6288624405860901,0.1836804747581482,0.36335545778274536,0.0711451917886734,0.2607385218143463
8.616581916809082,-0.22335393726825714,-0.6311513185501099,0.18635080754756927,0.36526283621788025,0.071908138692379,0.2626459002494812
8.636668920516968,-0.22373540699481964,-0.6326771974563599,0.18787670135498047,0.36755168437957764,0.07305257022380829,0.2641718089580536
8.656752109527588,-0.22411687672138214,-0.6353475451469421,0.19169145822525024,0.3702220320701599,0.0722896158695221,0.2645532786846161
8.67683744430542,-0.22411687672138214,-0.6372548937797546,0.19245441257953644,0.3721294105052948,0.07419699430465698,0.266460657119751
8.696925401687622,-0.22487983107566833,-0.6399252414703369,0.1966506391763687,0.3747997283935547,0.07343403995037079,0.26684215664863586
8.717001914978027,-0.22487983107566833,-0.6414511203765869,0.1981765478849411,0.3770885765552521,0.07724879682064056,0.26684215664863586
8.737084865570068,-0.22564278542995453,-0.6425955891609192,0.20122835040092468,0.37937742471694946,0.07572289556264877,0.26798656582832336
8.757565021514893,-0.22602425515651703,-0.6445029377937317,0.20428015291690826,0.38242924213409424,0.07839322835206985,0.26913100481033325
8.777663230895996,-0.22602425515651703,-0.6464102864265442,0.20580606162548065,0.3847180902957916,0.07953765243291855,0.27218279242515564
8.797719717025757,-0.22602425515651703,-0.6483176946640015,0.20962081849575043,0.387006938457489,0.07953765243291855,0.2740901708602905
8.817813873291016,-0.22602425515651703,-0.6506065726280212,0.21114671230316162,0.3896772861480713,0.08030059933662415,0.2740901708602905
8.837889671325684,-0.22602425515651703,-0.6525139212608337,0.2149614691734314,0.3923476040363312,0.07915617525577545,0.2756160795688629
8.857973337173462,-0.22602425515651703,-0.654421329498291,0.21648737788200378,0.39387351274490356,0.08144503086805344,0.2782863974571228
8.878103494644165,-0.22640573978424072,-0.6563286781311035,0.21953918039798737,0.39654383063316345,0.08144503086805344,0.2786678969860077
8.89814805984497,-0.22716869413852692,-0.6589990258216858,0.22259098291397095,0.39806973934173584,0.08335240930318832,0.2798123061656952
8.918243408203125,-0.22716869413852692,-0.6609063744544983,0.22411687672138214,0.4011215269565582,0.08335240930318832,0.28248265385627747
8.938294649124146,-0.2283131182193756,-0.6643396615982056,0.2283131182193756,0.4030289053916931,0.08487831056118011,0.2821011543273926
8.958404779434204,-0.2290760725736618,-0.6662470698356628,0.2290760725736618,0.4053177833557129,0.0864042118191719,0.28248265385627747
8.978480339050293,-0.2309834510087967,-0.6689173579216003,0.23289081454277039,0.4076066315174103,0.0864042118191719,0.28286412358283997
8.998554944992065,-0.2309834510087967,-0.6719691753387451,0.23479819297790527,0.40989547967910767,0.0879301130771637,0.28477150201797485
9.01863431930542,-0.2309834510087967,-0.6742580533027649,0.23746852576732635,0.41294726729393005,0.0864042118191719,0.28591591119766235
9.03868842124939,-0.2313649207353592,-0.6776912808418274,0.24090181291103363,0.41599908471107483,0.0875486359000206,0.28667888045310974
9.0587899684906,-0.23250934481620789,-0.6799801588058472,0.24319066107273102,0.4186694025993347,0.08869306743144989,0.28973066806793213
9.078852415084839,-0.23327229917049408,-0.6826505064964294,0.2470054179430008,0.4209582805633545,0.08907453715801239,0.28973066806793213
9.098957538604736,-0.23289081454277039,-0.6845578551292419,0.248531311750412,0.4236285984516144,0.09174486994743347,0.2904936373233795
9.119032144546509,-0.23327229917049408,-0.6864652633666992,0.25272753834724426,0.42668038606643677,0.08945601433515549,0.291638046503067
9.139104843139648,-0.23327229917049408,-0.6876096725463867,0.25501641631126404,0.43011367321014404,0.09136339277029037,0.2931639552116394
9.15918254852295,-0.23327229917049408,-0.6887540817260742,0.2580682039260864,0.43163958191871643,0.08907453715801239,0.2943083941936493
9.179234743118286,-0.23365376889705658,-0.6914244294166565,0.2618829607963562,0.4354543387889862,0.09250781685113907,0.2946898639202118
9.199331998825073,-0.23403525352478027,-0.6937133073806763,0.2645532786846161,0.4388876259326935,0.09365224838256836,0.29888609051704407
9.219386100769043,-0.23441672325134277,-0.6956206560134888,0.26913100481033325,0.44232088327407837,0.09479667246341705,0.30003052949905396
9.23947286605835,-0.23441672325134277,-0.697528064250946,0.27027541399002075,0.44537270069122314,0.09746700525283813,0.30003052949905396
9.259555578231812,-0.23517967760562897,-0.700579822063446,0.2748531401157379,0.44766154885292053,0.09746700525283813,0.30079346895217896
9.279627323150635,-0.23517967760562897,-0.7032501697540283,0.2775234580039978,0.4507133662700653,0.10128175467252731,0.30193790793418884
9.29971170425415,-0.23517967760562897,-0.7055390477180481,0.2813382148742676,0.4530022144317627,0.09937438368797302,0.30498969554901123
9.319761037826538,-0.23556114733219147,-0.7089722752571106,0.28515297174453735,0.45681697130203247,0.10090028494596481,0.3068970739841461
9.339862585067749,-0.23556114733219147,-0.7108796834945679,0.28782328963279724,0.45986875891685486,0.10166323184967041,0.308041512966156
9.359915971755981,-0.23632410168647766,-0.7143129706382751,0.2924010157585144,0.46330204606056213,0.10090028494596481,0.3084229826927185
9.380008459091187,-0.23632410168647766,-0.7162203192710876,0.2943083941936493,0.4671168029308319,0.1035706102848053,0.3099488914012909
9.400068283081055,-0.23746852576732635,-0.7185091972351074,0.29888609051704407,0.4701686203479767,0.10204470902681351,0.3118562698364258
9.420163631439209,-0.23746852576732635,-0.7207980751991272,0.30117493867874146,0.4728389382362366,0.10433356463909149,0.31414511799812317
9.440340280532837,-0.23746852576732635,-0.7234683632850647,0.30422675609588623,0.47779813408851624,0.10433356463909149,0.31643396615982056
9.46033239364624,-0.23785001039505005,-0.726901650428772,0.308041512966156,0.482375830411911,0.10509651154279709,0.31872281432151794
9.480464696884155,-0.23823148012161255,-0.7288090586662292,0.3099488914012909,0.4846646785736084,0.10776684433221817,0.31948578357696533
9.50049376487732,-0.23861294984817505,-0.7330052852630615,0.31452658772468567,0.4888609051704407,0.10738536715507507,0.32101166248321533
9.520589828491211,-0.23861294984817505,-0.7360570430755615,0.31681543588638306,0.49267566204071045,0.10967422276735306,0.3263523280620575
9.540667057037354,-0.23861294984817505,-0.7387273907661438,0.32024872303009033,0.4968718886375427,0.10814831405878067,0.32673379778862
9.56075930595398,-0.23861294984817505,-0.7421606779098511,0.3233005404472351,0.4999237060546875,0.11081864684820175,0.3271152675151825
9.580832481384277,-0.23937590420246124,-0.7452124953269958,0.32673379778862,0.5045014023780823,0.10929274559020996,0.3290226459503174
9.600878238677979,-0.23975738883018494,-0.7494087219238281,0.33054855465888977,0.509079098701477,0.11272602528333664,0.33131152391433716
9.620973825454712,-0.23937590420246124,-0.7520790696144104,0.33245593309402466,0.5132753252983093,0.11234454810619354,0.33321890234947205
9.641029119491577,-0.24052032828330994,-0.7558938264846802,0.3374151289463043,0.5174715518951416,0.11158160120248795,0.33398184180259705
9.661136865615845,-0.24052032828330994,-0.7581826448440552,0.3389410376548767,0.5220493078231812,0.11615930497646332,0.33474478125572205
9.681226968765259,-0.24052032828330994,-0.760471522808075,0.3427557647228241,0.5254825949668884,0.11387044936418533,0.33665215969085693
9.701299667358398,-0.24052032828330994,-0.7639048099517822,0.34580758213996887,0.5296788215637207,0.11692225188016891,0.3381780683994293
9.721376180648804,-0.24052032828330994,-0.7665750980377197,0.34962233901023865,0.5334935784339905,0.11577782779932022,0.3400854468345642
9.741431713104248,-0.24052032828330994,-0.7703898549079895,0.3542000353336334,0.5392156839370728,0.11959258466959,0.3427557647228241
9.761524200439453,-0.24052032828330994,-0.7730602025985718,0.3568703830242157,0.54417484998703,0.11959258466959,0.34542611241340637
9.781580686569214,-0.24090181291103363,-0.777256429195404,0.361829549074173,0.5491340756416321,0.12149996310472488,0.34618905186653137
9.801666975021362,-0.24052032828330994,-0.7799267768859863,0.36411839723587036,0.5533303022384644,0.12569619715213776,0.34885939955711365
9.821747064590454,-0.24128328263759613,-0.7825970649719238,0.368314653635025,0.5586709380149841,0.12493324279785156,0.35114824771881104
9.841820478439331,-0.24166475236415863,-0.7864118218421936,0.3725108802318573,0.5647745728492737,0.12874799966812134,0.3530556261539459
9.861902713775635,-0.24242770671844482,-0.7890821695327759,0.3759441375732422,0.5693522691726685,0.12684062123298645,0.3549630045890808
9.881947755813599,-0.24280919134616852,-0.7928969264030457,0.38052186369895935,0.5746929049491882,0.13103684782981873,0.3568703830242157
9.90204405784607,-0.24280919134616852,-0.7955672740936279,0.38357365131378174,0.5811780095100403,0.1325627565383911,0.3595407009124756
9.922099590301514,-0.24357213079929352,-0.8005264401435852,0.3900587558746338,0.5876630544662476,0.13065537810325623,0.3606851398944855
9.942197322845459,-0.24357213079929352,-0.802815318107605,0.3923476040363312,0.5933852195739746,0.135233074426651,0.361066609621048
9.96229100227356,-0.24357213079929352,-0.8054856061935425,0.39692530035972595,0.5987258553504944,0.13065537810325623,0.36411839723587036
9.982375383377075,-0.2439536154270172,-0.8085374236106873,0.4011215269565582,0.6048294901847839,0.1340886503458023,0.36564430594444275
10.002519607543945,-0.2443350851535797,-0.811589241027832,0.4053177833557129,0.6132219433784485,0.1325627565383911,0.36793315410614014
10.022551774978638,-0.2454795092344284,-0.8154039978981018,0.41027694940567017,0.619325578212738,0.13218127191066742,0.3713664412498474
10.04264211654663,-0.2454795092344284,-0.8184558153152466,0.41294726729393005,0.6265735626220703,0.1337071806192398,0.3740367889404297
10.062695264816284,-0.2462424635887146,-0.8218890428543091,0.4186694025993347,0.6303883194923401,0.13065537810325623,0.37937742471694946
10.082785367965698,-0.2470054179430008,-0.8249408602714539,0.4217212200164795,0.6391623020172119,0.1337071806192398,0.38319218158721924
10.102867603302002,-0.2466239482164383,-0.8276112079620361,0.42553597688674927,0.6437399983406067,0.13065537810325623,0.3877699077129364
10.122941493988037,-0.2470054179430008,-0.8314259648323059,0.43011367321014404,0.6506065726280212,0.1333257108926773,0.3904402256011963
10.143020629882812,-0.2466239482164383,-0.8340963125228882,0.4331654906272888,0.655947208404541,0.13179980218410492,0.39501792192459106
10.16307520866394,-0.2473868876695633,-0.837911069393158,0.4381246566772461,0.6601434350013733,0.13218127191066742,0.39921414852142334
10.183167219161987,-0.2470054179430008,-0.8405813574790955,0.44079500436782837,0.6670100092887878,0.1340886503458023,0.4026474356651306
10.203243017196655,-0.2466239482164383,-0.8436331748962402,0.44537270069122314,0.6708247661590576,0.13103684782981873,0.4068436622619629
10.223314762115479,-0.2470054179430008,-0.846684992313385,0.4488059878349304,0.6784542798995972,0.1337071806192398,0.40989547967910767
10.243389129638672,-0.2450980395078659,-0.84897381067276,0.4518577754497528,0.6826505064964294,0.13103684782981873,0.41371023654937744
10.263466358184814,-0.2450980395078659,-0.8524070978164673,0.45643550157546997,0.6906614899635315,0.13027389347553253,0.4179064631462097
10.283570051193237,-0.2439536154270172,-0.8546959757804871,0.45834288001060486,0.699053943157196,0.13027389347553253,0.4228656589984894
10.303608417510986,-0.24280919134616852,-0.8573662638664246,0.46215763688087463,0.7032501697540283,0.12645913660526276,0.43011367321014404
10.323696613311768,-0.24052032828330994,-0.8604180812835693,0.4640650153160095,0.7116426229476929,0.12836651504039764,0.4362172782421112
10.343750715255737,-0.23975738883018494,-0.8630884289741516,0.4671168029308319,0.7162203192710876,0.12531471252441406,0.44232088327407837
10.363840341567993,-0.23937590420246124,-0.8657587766647339,0.4690241813659668,0.7227054238319397,0.12684062123298645,0.44575417041778564
10.383977890014648,-0.23785001039505005,-0.8669031858444214,0.4697871506214142,0.7310978770256042,0.12760357558727264,0.4530022144317627
10.404018640518188,-0.23746852576732635,-0.8688105344772339,0.4716945290565491,0.7379644513130188,0.12951095402240753,0.46215763688087463
10.424125671386719,-0.23708705604076385,-0.8699550032615662,0.4720759987831116,0.7467383742332458,0.1329442262649536,0.4648279547691345
10.4441819190979,-0.23708705604076385,-0.8699550032615662,0.4728389382362366,0.7528420090675354,0.1333257108926773,0.4686427116394043
10.464272737503052,-0.23708705604076385,-0.8707179427146912,0.4732204079627991,0.7616159319877625,0.13942931592464447,0.4716945290565491
10.484324216842651,-0.23708705604076385,-0.8707179427146912,0.4732204079627991,0.7688639760017395,0.14324407279491425,0.47589075565338135
10.504419803619385,-0.23708705604076385,-0.8710994124412537,0.4732204079627991,0.778782308101654,0.14705882966518402,0.47741663455963135
10.524495840072632,-0.23746852576732635,-0.8710994124412537,0.4732204079627991,0.7898451089859009,0.15316243469715118,0.47817960381507874
10.544578313827515,-0.23746852576732635,-0.8714808821678162,0.4732204079627991,0.7993820309638977,0.15812161564826965,0.4808499217033386
10.564682722091675,-0.23899443447589874,-0.8714808821678162,0.4732204079627991,0.8104447722434998,0.164988175034523,0.4808499217033386
10.584736347198486,-0.24090181291103363,-0.8710994124412537,0.4720759987831116,0.8211261034011841,0.17299915850162506,0.47932401299476624
10.604822874069214,-0.24357213079929352,-0.8703364729881287,0.4709315598011017,0.8287556171417236,0.1802472025156021,0.47932401299476624
10.624889135360718,-0.2454795092344284,-0.8684290647506714,0.4701686203479767,0.8398184180259705,0.18596932291984558,0.47665369510650635
10.644974946975708,-0.2458609938621521,-0.8684290647506714,0.4705500900745392,0.8436331748962402,0.18711376190185547,0.47589075565338135
10.665054082870483,-0.2458609938621521,-0.8684290647506714,0.4709315598011017,0.8440146446228027,0.18902114033699036,0.47512778639793396
10.685131311416626,-0.2470054179430008,-0.8684290647506714,0.4713130295276642,0.8443961143493652,0.18940261006355286,0.47512778639793396
10.705250024795532,-0.2466239482164383,-0.8688105344772339,0.4713130295276642,0.8440146446228027,0.18787670135498047,0.47436484694480896
10.725292921066284,-0.2466239482164383,-0.8688105344772339,0.4713130295276642,0.8436331748962402,0.18902114033699036,0.47436484694480896
10.745384693145752,-0.2466239482164383,-0.8688105344772339,0.4713130295276642,0.8432517051696777,0.18940261006355286,0.4736018776893616
10.765475988388062,-0.2462424635887146,-0.8688105344772339,0.4720759987831116,0.8432517051696777,0.19016556441783905,0.4732204079627991
10.78554368019104,-0.2466239482164383,-0.8688105344772339,0.4720759987831116,0.8428702354431152,0.19092851877212524,0.4724574685096741
10.80563759803772,-0.2466239482164383,-0.8691920638084412,0.4728389382362366,0.8428702354431152,0.18978407979011536,0.4720759987831116
10.825695514678955,-0.2466239482164383,-0.8695735335350037,0.4728389382362366,0.8428702354431152,0.18978407979011536,0.4720759987831116
10.845766305923462,-0.2462424635887146,-0.8695735335350037,0.4732204079627991,0.8421072959899902,0.18787670135498047,0.4716945290565491
10.86581826210022,-0.2454795092344284,-0.8695735335350037,0.4736018776893616,0.8413442969322205,0.18787670135498047,0.4713130295276642
10.885907173156738,-0.2454795092344284,-0.8695735335350037,0.4736018776893616,0.8413442969322205,0.18940261006355286,0.4713130295276642
10.90597677230835,-0.2447165697813034,-0.8699550032615662,0.47436484694480896,0.840962827205658,0.19016556441783905,0.4709315598011017
10.92605996131897,-0.2447165697813034,-0.8699550032615662,0.47436484694480896,0.8405813574790955,0.19016556441783905,0.4697871506214142
10.946139574050903,-0.2447165697813034,-0.8699550032615662,0.47512778639793396,0.8405813574790955,0.18940261006355286,0.4690241813659668
10.966216087341309,-0.2447165697813034,-0.8707179427146912,0.47550925612449646,0.8405813574790955,0.18978407979011536,0.4686427116394043
10.98630428314209,-0.2447165697813034,-0.8707179427146912,0.47550925612449646,0.840199887752533,0.18940261006355286,0.4682612419128418
11.006365299224854,-0.2447165697813034,-0.8710994124412537,0.47589075565338135,0.8398184180259705,0.18902114033699036,0.4682612419128418
11.026453971862793,-0.2447165697813034,-0.8710994124412537,0.47589075565338135,0.8382925391197205,0.18940261006355286,0.4678797721862793
11.046519994735718,-0.2443350851535797,-0.8714808821678162,0.47627222537994385,0.8375295400619507,0.18940261006355286,0.4674982726573944
11.066600799560547,-0.2443350851535797,-0.8718623518943787,0.47627222537994385,0.8375295400619507,0.18978407979011536,0.4671168029308319
11.086681365966797,-0.24357213079929352,-0.8718623518943787,0.47665369510650635,0.8375295400619507,0.18902114033699036,0.4667353332042694
11.106754779815674,-0.24319066107273102,-0.8718623518943787,0.47703516483306885,0.8371480703353882,0.18902114033699036,0.4659723937511444
11.12682819366455,-0.24319066107273102,-0.8718623518943787,0.47741663455963135,0.8367666006088257,0.18863965570926666,0.4655908942222595
11.146896362304688,-0.24319066107273102,-0.8722438216209412,0.47779813408851624,0.8367666006088257,0.18940261006355286,0.465209424495697
11.166984558105469,-0.24242770671844482,-0.8726252913475037,0.47817960381507874,0.8367666006088257,0.18902114033699036,0.4648279547691345
11.187061786651611,-0.24242770671844482,-0.8730067610740662,0.47856107354164124,0.8363851308822632,0.18902114033699036,0.4648279547691345
11.20714521408081,-0.24242770671844482,-0.8730067610740662,0.47856107354164124,0.8360036611557007,0.18863965570926666,0.464446485042572
11.227237224578857,-0.24242770671844482,-0.8733882904052734,0.47894254326820374,0.8352407217025757,0.18825818598270416,0.464446485042572
11.247285842895508,-0.24242770671844482,-0.8737697601318359,0.4797055125236511,0.8340963125228882,0.18863965570926666,0.4640650153160095
11.26737666130066,-0.24242770671844482,-0.8737697601318359,0.4797055125236511,0.8340963125228882,0.18863965570926666,0.4640650153160095
11.287438869476318,-0.24242770671844482,-0.8737697601318359,0.4804684519767761,0.8340963125228882,0.18825818598270416,0.46368351578712463
11.307523965835571,-0.24242770671844482,-0.8741512298583984,0.4804684519767761,0.8333333134651184,0.18825818598270416,0.46330204606056213
11.327584505081177,-0.24242770671844482,-0.8741512298583984,0.4804684519767761,0.8333333134651184,0.18787670135498047,0.46330204606056213
11.347672700881958,-0.24242770671844482,-0.8741512298583984,0.4808499217033386,0.8333333134651184,0.18787670135498047,0.46292057633399963
11.367748260498047,-0.24204623699188232,-0.8749141693115234,0.481612890958786,0.8329518437385559,0.18711376190185547,0.46253910660743713
11.388008832931519,-0.24090181291103363,-0.8749141693115234,0.481612890958786,0.8325703740119934,0.18787670135498047,0.46215763688087463
11.40815782546997,-0.24052032828330994,-0.8749141693115234,0.4819943606853485,0.8318074345588684,0.18635080754756927,0.46101319789886475
11.42818808555603,-0.24052032828330994,-0.8752956390380859,0.482375830411911,0.8306630253791809,0.18711376190185547,0.46063172817230225
11.448288679122925,-0.24052032828330994,-0.8752956390380859,0.482375830411911,0.8299000263214111,0.18787670135498047,0.45986875891685486
11.468357563018799,-0.24052032828330994,-0.8760585784912109,0.4827573001384735,0.8295185565948486,0.18787670135498047,0.45986875891685486
11.488432884216309,-0.24052032828330994,-0.8760585784912109,0.4827573001384735,0.8295185565948486,0.18749523162841797,0.45986875891685486
11.508511066436768,-0.24052032828330994,-0.8760585784912109,0.4835202693939209,0.8291370868682861,0.18558785319328308,0.45948728919029236
11.529566287994385,-0.24052032828330994,-0.8764400482177734,0.4835202693939209,0.8291370868682861,0.18596932291984558,0.45910581946372986
11.549654483795166,-0.24052032828330994,-0.8768215179443359,0.4839017391204834,0.8287556171417236,0.18635080754756927,0.45872434973716736
11.569707870483398,-0.24013885855674744,-0.8768215179443359,0.4846646785736084,0.8287556171417236,0.18711376190185547,0.45796138048171997
11.58979606628418,-0.24013885855674744,-0.8772030472755432,0.4846646785736084,0.8272297382354736,0.18711376190185547,0.45757991075515747
11.609870910644531,-0.24013885855674744,-0.8772030472755432,0.4846646785736084,0.8257037997245789,0.18635080754756927,0.45719844102859497
11.62994909286499,-0.24013885855674744,-0.8772030472755432,0.4846646785736084,0.8260852694511414,0.18673227727413177,0.45719844102859497
11.650086879730225,-0.23937590420246124,-0.8772030472755432,0.4854276478290558,0.8257037997245789,0.18596932291984558,0.45681697130203247
11.670108556747437,-0.23937590420246124,-0.8775845170021057,0.4858091175556183,0.8257037997245789,0.18635080754756927,0.45681697130203247
11.69022798538208,-0.23937590420246124,-0.8779659867286682,0.4858091175556183,0.8253223299980164,0.18673227727413177,0.45643550157546997
11.710337162017822,-0.23937590420246124,-0.8783474564552307,0.4865720570087433,0.8249408602714539,0.18596932291984558,0.45643550157546997
11.730439186096191,-0.23937590420246124,-0.8783474564552307,0.4865720570087433,0.8234149813652039,0.18635080754756927,0.4560540020465851
11.750506401062012,-0.23899443447589874,-0.8787289261817932,0.4865720570087433,0.8222705721855164,0.18596932291984558,0.4556725323200226
11.770599603652954,-0.23899443447589874,-0.8791103959083557,0.4869535267353058,0.8222705721855164,0.18673227727413177,0.4552910625934601
11.790681600570679,-0.23861294984817505,-0.8791103959083557,0.4877164959907532,0.8218890428543091,0.1848248988389969,0.4549095928668976
11.810738563537598,-0.23861294984817505,-0.8791103959083557,0.4877164959907532,0.8218890428543091,0.1848248988389969,0.4545281231403351
11.830830335617065,-0.23823148012161255,-0.8791103959083557,0.4877164959907532,0.8211261034011841,0.18558785319328308,0.4533836841583252
11.850891351699829,-0.23823148012161255,-0.8794918656349182,0.4884794354438782,0.8207446336746216,0.18596932291984558,0.4530022144317627
11.870972633361816,-0.23823148012161255,-0.8794918656349182,0.4884794354438782,0.8196002244949341,0.18596932291984558,0.4526207447052002
11.891035556793213,-0.23823148012161255,-0.8802548050880432,0.4888609051704407,0.8188372850418091,0.18520638346672058,0.4522392749786377
11.911107778549194,-0.23823148012161255,-0.8802548050880432,0.4888609051704407,0.8188372850418091,0.18558785319328308,0.4522392749786377
11.931178331375122,-0.23785001039505005,-0.8802548050880432,0.4888609051704407,0.8184558153152466,0.1848248988389969,0.4514763057231903
11.951233148574829,-0.23785001039505005,-0.8806362748146057,0.4892423748970032,0.8184558153152466,0.1848248988389969,0.4507133662700653
11.971314430236816,-0.23746852576732635,-0.8813992738723755,0.49000534415245056,0.8180742859840393,0.1848248988389969,0.4499503970146179
11.991368055343628,-0.23746852576732635,-0.8813992738723755,0.49038681387901306,0.8180742859840393,0.18596932291984558,0.4495689272880554
12.01145601272583,-0.23746852576732635,-0.8813992738723755,0.49038681387901306,0.8176928162574768,0.18558785319328308,0.4495689272880554
12.031516313552856,-0.23708705604076385,-0.8813992738723755,0.49076828360557556,0.8173113465309143,0.18520638346672058,0.4491874575614929
12.051595687866211,-0.23708705604076385,-0.881780743598938,0.49076828360557556,0.8169298768043518,0.18558785319328308,0.4491874575614929
12.07166600227356,-0.23708705604076385,-0.8821622133255005,0.49114975333213806,0.8157854676246643,0.18520638346672058,0.4488059878349304
12.09171438217163,-0.23670557141304016,-0.8821622133255005,0.49153125286102295,0.8150225281715393,0.18520638346672058,0.4484245181083679
12.111802577972412,-0.23632410168647766,-0.8821622133255005,0.49191272258758545,0.8150225281715393,0.1844434291124344,0.4484245181083679
12.13186001777649,-0.23632410168647766,-0.882543683052063,0.49229419231414795,0.8146410584449768,0.1848248988389969,0.44804301857948303
12.15193796157837,-0.23632410168647766,-0.882543683052063,0.49229419231414795,0.8142595291137695,0.18520638346672058,0.44728007912635803
12.171998023986816,-0.23594263195991516,-0.882543683052063,0.49267566204071045,0.813878059387207,0.1848248988389969,0.44651713967323303
12.192079305648804,-0.23594263195991516,-0.883306622505188,0.49267566204071045,0.8127336502075195,0.18520638346672058,0.44575417041778564
12.212157487869263,-0.23594263195991516,-0.883306622505188,0.49305713176727295,0.811589241027832,0.1848248988389969,0.44575417041778564
12.232202291488647,-0.23556114733219147,-0.8836880922317505,0.49305713176727295,0.811589241027832,0.1840619444847107,0.44537270069122314
12.252298831939697,-0.23517967760562897,-0.8836880922317505,0.49305713176727295,0.8112077713012695,0.1840619444847107,0.44499123096466064
12.272345542907715,-0.23517967760562897,-0.884069561958313,0.49420157074928284,0.8112077713012695,0.1840619444847107,0.44499123096466064
12.292432069778442,-0.23517967760562897,-0.8844510316848755,0.49420157074928284,0.810826301574707,0.18520638346672058,0.44422826170921326
12.312512159347534,-0.23479819297790527,-0.8844510316848755,0.49496451020240784,0.8104447722434998,0.1836804747581482,0.44384679198265076
12.332579851150513,-0.23479819297790527,-0.8844510316848755,0.49496451020240784,0.8104447722434998,0.1848248988389969,0.44308385252952576
12.35269045829773,-0.23441672325134277,-0.8844510316848755,0.4953460097312927,0.8104447722434998,0.1840619444847107,0.44270238280296326
12.372727870941162,-0.23403525352478027,-0.8848325610160828,0.4957274794578552,0.8100633025169373,0.1836804747581482,0.44232088327407837
12.392814874649048,-0.23403525352478027,-0.8852140307426453,0.4961089491844177,0.8096818327903748,0.1840619444847107,0.44193941354751587
12.412881135940552,-0.23365376889705658,-0.8855955004692078,0.4968718886375427,0.8089188933372498,0.1836804747581482,0.44155794382095337
12.432964086532593,-0.23289081454277039,-0.8855955004692078,0.4968718886375427,0.8070115447044373,0.1832990050315857,0.44117647409439087
12.45305323600769,-0.23289081454277039,-0.8859769701957703,0.4968718886375427,0.8070115447044373,0.1836804747581482,0.44079500436782837
12.473128318786621,-0.23289081454277039,-0.8859769701957703,0.4972533881664276,0.8070115447044373,0.1840619444847107,0.4404135048389435
12.49320387840271,-0.23289081454277039,-0.8863584399223328,0.4972533881664276,0.8070115447044373,0.1836804747581482,0.440032035112381
12.513255834579468,-0.23289081454277039,-0.8863584399223328,0.4976348578929901,0.80663001537323,0.1832990050315857,0.440032035112381
12.533345222473145,-0.23289081454277039,-0.8863584399223328,0.4980163276195526,0.8062485456466675,0.182917520403862,0.4396505653858185
12.553416728973389,-0.23289081454277039,-0.8867399096488953,0.4987792670726776,0.8062485456466675,0.182917520403862,0.438506156206131
12.573494672775269,-0.23289081454277039,-0.8867399096488953,0.4987792670726776,0.8054856061935425,0.1840619444847107,0.4381246566772461
12.59357500076294,-0.23289081454277039,-0.8867399096488953,0.4991607666015625,0.804341197013855,0.1836804747581482,0.4381246566772461
12.613653421401978,-0.23289081454277039,-0.8875028491020203,0.4991607666015625,0.80357825756073,0.1832990050315857,0.4377431869506836
12.63373589515686,-0.23212787508964539,-0.8878843188285828,0.4991607666015625,0.80357825756073,0.1832990050315857,0.4373617172241211
12.653784990310669,-0.23212787508964539,-0.8882657885551453,0.499542236328125,0.8031967878341675,0.1825360506772995,0.4373617172241211
12.673877477645874,-0.23212787508964539,-0.8882657885551453,0.4999237060546875,0.8031967878341675,0.1832990050315857,0.4369802474975586
12.693942070007324,-0.23212787508964539,-0.8886472582817078,0.5006866455078125,0.802815318107605,0.1825360506772995,0.4369802474975586
12.714031457901001,-0.23212787508964539,-0.8886472582817078,0.501068115234375,0.8024337887763977,0.1832990050315857,0.4362172782421112
12.734113454818726,-0.23212787508964539,-0.8886472582817078,0.5014495849609375,0.8016708493232727,0.182917520403862,0.4358358085155487
12.754189491271973,-0.23212787508964539,-0.8886472582817078,0.5014495849609375,0.8005264401435852,0.1825360506772995,0.4354543387889862
12.774264812469482,-0.2313649207353592,-0.8894102573394775,0.5014495849609375,0.7997635006904602,0.1825360506772995,0.4346913993358612
12.79431700706482,-0.2309834510087967,-0.88979172706604,0.5022125840187073,0.7997635006904602,0.182154580950737,0.4346913993358612
12.81440782546997,-0.2309834510087967,-0.88979172706604,0.5022125840187073,0.7993820309638977,0.1825360506772995,0.4343098998069763
12.834472894668579,-0.2302204966545105,-0.88979172706604,0.5029755234718323,0.7990005612373352,0.182154580950737,0.4339284300804138
12.854561805725098,-0.2302204966545105,-0.8901731967926025,0.5033569931983948,0.7990005612373352,0.182917520403862,0.4335469603538513
12.87464690208435,-0.2302204966545105,-0.890554666519165,0.5033569931983948,0.7986190319061279,0.1825360506772995,0.4331654906272888
12.894713878631592,-0.2302204966545105,-0.8909361362457275,0.5033569931983948,0.7970931529998779,0.1825360506772995,0.4331654906272888
12.914787530899048,-0.2302204966545105,-0.8909361362457275,0.5037384629249573,0.7955672740936279,0.1813916265964508,0.43240252137184143
12.93484115600586,-0.2302204966545105,-0.89131760597229,0.5041199326515198,0.7955672740936279,0.1810101419687271,0.43240252137184143
12.954940557479858,-0.2302204966545105,-0.8916990756988525,0.5045014023780823,0.7951858043670654,0.1813916265964508,0.43163958191871643
12.975000143051147,-0.2298390120267868,-0.8916990756988525,0.5048828721046448,0.7951858043670654,0.182154580950737,0.43087664246559143
12.995089292526245,-0.2298390120267868,-0.8916990756988525,0.5048828721046448,0.7944228053092957,0.1817730963230133,0.43049514293670654
13.01516842842102,-0.2298390120267868,-0.892080545425415,0.5052643418312073,0.7932783961296082,0.1813916265964508,0.43011367321014404
13.035370349884033,-0.2294575423002243,-0.892080545425415,0.5052643418312073,0.7925154566764832,0.1813916265964508,0.43011367321014404
13.055460929870605,-0.2286945879459381,-0.892080545425415,0.5052643418312073,0.7925154566764832,0.1806286722421646,0.42973220348358154
13.075511932373047,-0.2286945879459381,-0.8924620151519775,0.5056458115577698,0.7925154566764832,0.1813916265964508,0.42973220348358154
13.09560251235962,-0.2286945879459381,-0.8928435444831848,0.506027340888977,0.7921339869499207,0.1817730963230133,0.42935073375701904
13.115672588348389,-0.22793163359165192,-0.8932250142097473,0.5064088106155396,0.7917525172233582,0.1806286722421646,0.42896926403045654
13.135748624801636,-0.22793163359165192,-0.8932250142097473,0.5064088106155396,0.7917525172233582,0.1813916265964508,0.42820629477500916
13.155826807022095,-0.22793163359165192,-0.8936064839363098,0.5071717500686646,0.7917525172233582,0.1806286722421646,0.42744335532188416
13.176865100860596,-0.22793163359165192,-0.8939879536628723,0.507553219795227,0.7913710474967957,0.1813916265964508,0.42706188559532166
13.196974754333496,-0.22793163359165192,-0.8939879536628723,0.507553219795227,0.7906080484390259,0.1802472025156021,0.42668038606643677
13.21703028678894,-0.22793163359165192,-0.8939879536628723,0.508316159248352,0.7898451089859009,0.1802472025156021,0.42668038606643677
13.237112045288086,-0.22793163359165192,-0.8939879536628723,0.5086976289749146,0.7883192300796509,0.1802472025156021,0.42591744661331177
13.257197618484497,-0.22793163359165192,-0.8939879536628723,0.509079098701477,0.7883192300796509,0.17986571788787842,0.42553597688674927
13.277280569076538,-0.22755016386508942,-0.8943694233894348,0.509079098701477,0.7883192300796509,0.1806286722421646,0.42515450716018677
13.29735779762268,-0.22716869413852692,-0.8947508931159973,0.5094605684280396,0.7879377603530884,0.1802472025156021,0.4240100681781769
13.31751561164856,-0.22678720951080322,-0.8951323628425598,0.5098420977592468,0.7879377603530884,0.17948424816131592,0.4232471287250519
13.337608337402344,-0.22678720951080322,-0.8951323628425598,0.5098420977592468,0.7871748208999634,0.17948424816131592,0.4232471287250519
13.357656240463257,-0.22640573978424072,-0.8955138325691223,0.5106050372123718,0.7864118218421936,0.17948424816131592,0.4228656589984894
13.377734422683716,-0.22602425515651703,-0.8958953022956848,0.5109865069389343,0.7852674126625061,0.17986571788787842,0.4224841594696045
13.397809743881226,-0.22564278542995453,-0.8958953022956848,0.5113679766654968,0.7852674126625061,0.17986571788787842,0.422102689743042
13.417904376983643,-0.22564278542995453,-0.8958953022956848,0.5117494463920593,0.7848859429359436,0.17986571788787842,0.422102689743042
13.437987327575684,-0.22564278542995453,-0.8962767720222473,0.5117494463920593,0.7848859429359436,0.17948424816131592,0.421339750289917
13.457993030548096,-0.22602425515651703,-0.8962767720222473,0.5117494463920593,0.7848859429359436,0.17910276353359222,0.421339750289917
13.478084802627563,-0.22602425515651703,-0.8966583013534546,0.5121309161186218,0.7845044732093811,0.17948424816131592,0.4205767810344696
13.498134136199951,-0.22564278542995453,-0.8970397710800171,0.5128938555717468,0.7845044732093811,0.17872129380702972,0.4201953113079071
13.518229722976685,-0.22564278542995453,-0.8970397710800171,0.5128938555717468,0.7837415337562561,0.17833982408046722,0.4198138415813446
13.538302659988403,-0.22564278542995453,-0.8970397710800171,0.5136567950248718,0.7837415337562561,0.17795833945274353,0.4194323718547821
13.5583815574646,-0.22564278542995453,-0.8970397710800171,0.5136567950248718,0.7833600640296936,0.17948424816131592,0.4190509021282196
13.578466415405273,-0.22526131570339203,-0.8974212408065796,0.5140383243560791,0.7829785346984863,0.17872129380702972,0.4186694025993347
13.598523616790771,-0.22526131570339203,-0.8981841802597046,0.5140383243560791,0.7818341255187988,0.17910276353359222,0.4186694025993347
13.61861777305603,-0.22487983107566833,-0.8981841802597046,0.5148012638092041,0.7810711860656738,0.17719538509845734,0.4182879328727722
13.63867473602295,-0.22449836134910583,-0.8985656499862671,0.5151827335357666,0.7810711860656738,0.17681391537189484,0.4179064631462097
13.658765316009521,-0.22449836134910583,-0.8989471197128296,0.5151827335357666,0.7806897163391113,0.17795833945274353,0.4175249934196472
13.678863763809204,-0.22449836134910583,-0.8989471197128296,0.5159456729888916,0.7806897163391113,0.17795833945274353,0.41638055443763733
13.698915243148804,-0.22449836134910583,-0.8989471197128296,0.5159456729888916,0.7803082466125488,0.17833982408046722,0.41561761498451233
13.718991041183472,-0.22373540699481964,-0.8989471197128296,0.5159456729888916,0.7803082466125488,0.17795833945274353,0.41523614525794983
13.73903751373291,-0.22373540699481964,-0.8993285894393921,0.5163271427154541,0.7799267768859863,0.17795833945274353,0.41523614525794983
13.759130001068115,-0.22373540699481964,-0.8993285894393921,0.5167086124420166,0.778019368648529,0.17719538509845734,0.41523614525794983
13.779182434082031,-0.22335393726825714,-0.9000915288925171,0.5170900821685791,0.777256429195404,0.17795833945274353,0.41447317600250244
13.799269199371338,-0.22335393726825714,-0.9004730582237244,0.5170900821685791,0.777256429195404,0.17872129380702972,0.41447317600250244
13.819358587265015,-0.22335393726825714,-0.9008545279502869,0.5174715518951416,0.777256429195404,0.17757686972618103,0.41371023654937744
13.839433193206787,-0.22297245264053345,-0.9012359976768494,0.5178530812263489,0.7768749594688416,0.17795833945274353,0.41332876682281494
13.859519958496094,-0.22297245264053345,-0.9012359976768494,0.5178530812263489,0.776493489742279,0.17719538509845734,0.41294726729393005
13.87957239151001,-0.22259098291397095,-0.9012359976768494,0.5182345509529114,0.7761120200157166,0.17681391537189484,0.41256579756736755
13.899669408798218,-0.22259098291397095,-0.9012359976768494,0.5186160206794739,0.7749675512313843,0.17757686972618103,0.41218432784080505
13.919723987579346,-0.22259098291397095,-0.9016174674034119,0.5193789601325989,0.7734416723251343,0.17719538509845734,0.41180285811424255
13.939807653427124,-0.22259098291397095,-0.9019989371299744,0.5193789601325989,0.7734416723251343,0.17833982408046722,0.41142138838768005
13.959893703460693,-0.22220951318740845,-0.9023804068565369,0.5197604298591614,0.7734416723251343,0.17757686972618103,0.41103988885879517
13.979972839355469,-0.22220951318740845,-0.9023804068565369,0.5197604298591614,0.7730602025985718,0.17643244564533234,0.41103988885879517
14.000058650970459,-0.22182802855968475,-0.9023804068565369,0.5197604298591614,0.7726787328720093,0.17605096101760864,0.41103988885879517
14.020116090774536,-0.22144655883312225,-0.9027618765830994,0.5201418995857239,0.7719157934188843,0.17643244564533234,0.41065841913223267
14.040205478668213,-0.22144655883312225,-0.9031433463096619,0.5201418995857239,0.770008385181427,0.17681391537189484,0.41027694940567017
14.060262680053711,-0.22144655883312225,-0.9031433463096619,0.5212863087654114,0.770008385181427,0.17605096101760864,0.4091325104236603
14.080353021621704,-0.22144655883312225,-0.9035248160362244,0.5212863087654114,0.769245445728302,0.17643244564533234,0.4083695709705353
14.10042428970337,-0.22106507420539856,-0.9035248160362244,0.5212863087654114,0.769245445728302,0.17566949129104614,0.4079881012439728
14.120508670806885,-0.22068360447883606,-0.9035248160362244,0.5216678380966187,0.7688639760017395,0.17605096101760864,0.4076066315174103
14.140581369400024,-0.22068360447883606,-0.9042877554893494,0.5220493078231812,0.768482506275177,0.17566949129104614,0.4072251319885254
14.160645484924316,-0.22068360447883606,-0.9042877554893494,0.5220493078231812,0.767719566822052,0.17605096101760864,0.4072251319885254
14.180745363235474,-0.22068360447883606,-0.9042877554893494,0.5224307775497437,0.7658121585845947,0.17566949129104614,0.4068436622619629
14.200809478759766,-0.22030213475227356,-0.9046692848205566,0.5231937170028687,0.7661936283111572,0.17566949129104614,0.4064621925354004
