liuyurong129/humanoid-gym/humanoid/data/actual_q_20250522-231822.csv
timestamp,joint_1,joint_2,joint_3,joint_4,joint_5,joint_6
4.00543212890625e-05,0.00019073777366429567,0.17414358258247375,-0.0871671661734581,-0.00019073777366429567,0.00019073777366429567,-0.00019073777366429567
0.020198583602905273,0.00019073777366429567,0.15316243469715118,-0.07839322835206985,-0.00019073777366429567,-0.00019073777366429567,-0.00019073777366429567
0.04021930694580078,0.00019073777366429567,0.12951095402240753,-0.06771191209554672,-0.000572213320992887,0.000572213320992887,-0.00019073777366429567
0.060278892517089844,0.00019073777366429567,0.11272602528333664,-0.06084534898400307,-0.00019073777366429567,0.0024795911740511656,-0.00019073777366429567
0.08035087585449219,0.00019073777366429567,0.10738536715507507,-0.057793546468019485,-0.00019073777366429567,0.00019073777366429567,-0.00019073777366429567
0.10042548179626465,0.000572213320992887,0.09212634712457657,-0.04482337832450867,-0.00019073777366429567,-0.000572213320992887,-0.00019073777366429567
0.12049078941345215,0.000572213320992887,0.07495994865894318,-0.030708782374858856,-0.00019073777366429567,0.0013351644156500697,-0.00019073777366429567
0.1405620574951172,0.0009536888683214784,0.06160829961299896,-0.013160906732082367,0.000572213320992887,0.0020981156267225742,-0.000572213320992887
0.16063404083251953,0.0024795911740511656,0.04787518084049225,-0.00019073777366429567,0.0009536888683214784,0.0032425422687083483,-0.00019073777366429567
0.1806952953338623,0.0024795911740511656,0.024605173617601395,0.023079270496964455,0.0024795911740511656,0.0032425422687083483,-0.0009536888683214784
0.20073771476745605,0.0024795911740511656,-0.0009536888683214784,0.039101243019104004,0.00476844422519207,0.013542382046580315,-0.0013351644156500697
0.2208261489868164,0.004386968910694122,-0.016975661739706993,0.05855649709701538,0.005531395319849253,0.009727626107633114,-0.0020981156267225742
0.24089527130126953,0.00476844422519207,-0.04482337832450867,0.07953765243291855,0.00858320016413927,0.01583123579621315,-0.002861066721379757
0.2609744071960449,0.00476844422519207,-0.06504157930612564,0.09288929402828217,0.010109102353453636,0.018501564860343933,-0.002861066721379757
0.2810394763946533,0.005149920005351305,-0.0875486359000206,0.11005569249391556,0.01430533267557621,0.024605173617601395,-0.0032425422687083483
0.3010861873626709,0.00476844422519207,-0.10624094307422638,0.11959258466959,0.016212711110711098,0.02536812424659729,-0.0032425422687083483
0.3211648464202881,0.00476844422519207,-0.12722209095954895,0.1348516047000885,0.01926451548933983,0.026512550190091133,-0.0036240178160369396
0.34123706817626953,0.00476844422519207,-0.1520180106163025,0.14629587531089783,0.021171892061829567,0.02880140393972397,-0.004005493130534887
0.3613162040710449,0.005912871100008488,-0.16384375095367432,0.15659570693969727,0.02193484455347061,0.02994582988321781,-0.00476844422519207
0.38138675689697266,0.005149920005351305,-0.1844434291124344,0.17032882571220398,0.024605173617601395,0.029564354568719864,-0.00476844422519207
0.40145158767700195,0.004386968910694122,-0.1958876997232437,0.1806286722421646,0.02689402550458908,0.03032730519771576,-0.005149920005351305
0.4215240478515625,0.004386968910694122,-0.21076524257659912,0.19321736693382263,0.02841992862522602,0.030708782374858856,-0.005912871100008488
0.4415872097015381,0.00476844422519207,-0.22335393726825714,0.20313572883605957,0.03032730519771576,0.03032730519771576,-0.005912871100008488
0.4616851806640625,0.00476844422519207,-0.23403525352478027,0.2153429538011551,0.03147173300385475,0.02994582988321781,-0.006294346414506435
0.48174238204956055,0.004386968910694122,-0.25196459889411926,0.22716869413852692,0.03452353551983833,0.032616160809993744,-0.006294346414506435
0.5018634796142578,0.00476844422519207,-0.2626459002494812,0.23708705604076385,0.03490501269698143,0.03452353551983833,-0.006294346414506435
0.5219097137451172,0.00476844422519207,-0.2767605185508728,0.248531311750412,0.03795681521296501,0.03528648987412453,-0.00667582219466567
0.5420303344726562,0.004386968910694122,-0.28591591119766235,0.25616082549095154,0.038719769567251205,0.03528648987412453,-0.00667582219466567
0.5620660781860352,0.004386968910694122,-0.2954528033733368,0.26722362637519836,0.04100862145423889,0.03604944050312042,-0.007057297509163618
0.5821278095245361,0.004005493130534887,-0.308804452419281,0.2767605185508728,0.04253452271223068,0.037193864583969116,-0.007057297509163618
0.6022074222564697,0.0036240178160369396,-0.31643396615982056,0.28706035017967224,0.043678950518369675,0.03681239113211632,-0.007057297509163618
0.6222739219665527,0.0036240178160369396,-0.33054855465888977,0.2965972423553467,0.04558632895350456,0.03795681521296501,-0.007438773289322853
0.6423847675323486,0.0036240178160369396,-0.3377965986728668,0.30308231711387634,0.04596780240535736,0.039101243019104004,-0.007438773289322853
0.6624724864959717,0.002861066721379757,-0.35000380873680115,0.31414511799812317,0.048256658017635345,0.03833829239010811,-0.008201723918318748
0.6825451850891113,0.0024795911740511656,-0.3595407009124756,0.3213931620121002,0.04940108209848404,0.04100862145423889,-0.00858320016413927
0.7026755809783936,0.002861066721379757,-0.36640727519989014,0.33169299364089966,0.050164032727479935,0.042153049260377884,-0.009346150793135166
0.722710132598877,0.0024795911740511656,-0.37975889444351196,0.3416113555431366,0.05283436179161072,0.04444190114736557,-0.010109102353453636
0.7427968978881836,0.0020981156267225742,-0.3847180902957916,0.34962233901023865,0.05359731614589691,0.04406042397022247,-0.010109102353453636
0.7628729343414307,0.0020981156267225742,-0.39692530035972595,0.3583962619304657,0.0551232174038887,0.04634927958250046,-0.01125352829694748
0.7829341888427734,0.001716639962978661,-0.4026474356651306,0.36526283621788025,0.056267641484737396,0.04749370738863945,-0.01125352829694748
0.8031013011932373,0.001716639962978661,-0.41180285811424255,0.3744182586669922,0.05703059583902359,0.04787518084049225,-0.011635004542768002
0.8230893611907959,0.0009536888683214784,-0.4228656589984894,0.3843366205692291,0.05893797054886818,0.048638131469488144,-0.012397955171763897
0.8432714939117432,0.000572213320992887,-0.43049514293670654,0.39425498247146606,0.05970092490315437,0.050164032727479935,-0.013542382046580315
0.8633508682250977,-0.00019073777366429567,-0.4404135048389435,0.4056992530822754,0.06198977679014206,0.05207141116261482,-0.013923857361078262
0.8833889961242676,-0.000572213320992887,-0.44651713967323303,0.41256579756736755,0.06351567804813385,0.05130846053361893,-0.013923857361078262
0.9034562110900879,-0.000572213320992887,-0.4552910625934601,0.4240100681781769,0.06466010212898254,0.05130846053361893,-0.01430533267557621
0.9235305786132812,-0.0009536888683214784,-0.46330204606056213,0.4335469603538513,0.06618601083755493,0.05245288833975792,-0.014686808921396732
0.9435937404632568,-0.0013351644156500697,-0.4694056510925293,0.44499123096466064,0.06809338182210922,0.05207141116261482,-0.014686808921396732
0.9636573791503906,-0.0020981156267225742,-0.47932401299476624,0.4556725323200226,0.07038223743438721,0.053215838968753815,-0.015449759550392628
0.9837386608123779,-0.0024795911740511656,-0.4880979657173157,0.4694056510925293,0.0715266615152359,0.05283436179161072,-0.016212711110711098
1.003873586654663,-0.0036240178160369396,-0.4987792670726776,0.4835202693939209,0.07534141838550568,0.053215838968753815,-0.018120087683200836
1.0238864421844482,-0.00476844422519207,-0.5064088106155396,0.49229419231414795,0.07610437273979187,0.05283436179161072,-0.018501564860343933
1.0439136028289795,-0.00476844422519207,-0.5144197940826416,0.5045014023780823,0.07877469807863235,0.05245288833975792,-0.01888304017484188
1.0639851093292236,-0.005912871100008488,-0.5247195959091187,0.5144197940826416,0.07991912961006165,0.05359731614589691,-0.01926451548933983
1.0840418338775635,-0.007057297509163618,-0.5331120491027832,0.5289158225059509,0.08144503086805344,0.053215838968753815,-0.021171892061829567
1.1041154861450195,-0.0078202486038208,-0.5472266674041748,0.54112309217453,0.08411535620689392,0.0558861680328846,-0.02231631986796856
1.124178409576416,-0.0078202486038208,-0.5563820600509644,0.5525673031806946,0.08564125746488571,0.0555046908557415,-0.02231631986796856
1.1442506313323975,-0.007438773289322853,-0.5685893297195435,0.5670633912086487,0.0883115902543068,0.0555046908557415,-0.022697795182466507
1.1643590927124023,-0.0078202486038208,-0.5773632526397705,0.5758373141288757,0.09021896868944168,0.05741206929087639,-0.023079270496964455
1.1844875812530518,-0.007438773289322853,-0.5872815847396851,0.5914778113365173,0.09327077120542526,0.05664911866188049,-0.025749599561095238
1.2044754028320312,-0.007438773289322853,-0.5991073250770569,0.6033035516738892,0.09479667246341705,0.05893797054886818,-0.025749599561095238
1.2246041297912598,-0.007438773289322853,-0.6067368388175964,0.6174181699752808,0.09746700525283813,0.05893797054886818,-0.026131074875593185
1.2447335720062256,-0.007438773289322853,-0.619325578212738,0.6319142580032349,0.10090028494596481,0.06008239835500717,-0.027656977996230125
1.264744520187378,-0.0078202486038208,-0.6292439103126526,0.6448844075202942,0.1024261862039566,0.06084534898400307,-0.029182879254221916
1.2848503589630127,-0.007438773289322853,-0.6422140598297119,0.6631952524185181,0.10585946589708328,0.06008239835500717,-0.02994582988321781
1.304898738861084,-0.0078202486038208,-0.6548027992248535,0.6769283413887024,0.10929274559020996,0.06160829961299896,-0.030708782374858856
1.3249638080596924,-0.0078202486038208,-0.6654840707778931,0.6948577165603638,0.11158160120248795,0.06046387553215027,-0.031090257689356804
1.3450298309326172,-0.0078202486038208,-0.6795986890792847,0.7104982137680054,0.11692225188016891,0.06237125024199486,-0.032616160809993744
1.3651022911071777,-0.00858320016413927,-0.6921873688697815,0.726138710975647,0.1199740618467331,0.06275273114442825,-0.03299763426184654
1.3852081298828125,-0.008964675478637218,-0.7070649266242981,0.7459754347801208,0.12493324279785156,0.06275273114442825,-0.034142062067985535
1.4052720069885254,-0.009727626107633114,-0.7200350761413574,0.7589455842971802,0.12874799966812134,0.06275273114442825,-0.03452353551983833
1.4254975318908691,-0.009727626107633114,-0.732623815536499,0.7806897163391113,0.1329442262649536,0.06351567804813385,-0.03681239113211632
1.445469617843628,-0.010109102353453636,-0.7478827834129333,0.7944228053092957,0.13866636157035828,0.06466010212898254,-0.03795681521296501
1.465538501739502,-0.010490577667951584,-0.7608529925346375,0.8157854676246643,0.14248111844062805,0.06389715522527695,-0.039101243019104004
1.485607385635376,-0.010872052982449532,-0.7818341255187988,0.8382925391197205,0.1520180106163025,0.06809338182210922,-0.042153049260377884
1.5056955814361572,-0.010872052982449532,-0.7955672740936279,0.8554589152336121,0.15583276748657227,0.06847485899925232,-0.042153049260377884
1.5258455276489258,-0.01125352829694748,-0.8142595291137695,0.8794918656349182,0.164988175034523,0.0707637146115303,-0.04787518084049225
1.5459468364715576,-0.01201647985726595,-0.8325703740119934,0.8981841802597046,0.16956588625907898,0.071908138692379,-0.050164032727479935
1.5660285949707031,-0.011635004542768002,-0.84897381067276,0.9237430095672607,0.17681391537189484,0.071908138692379,-0.05397878959774971
1.5860590934753418,-0.011635004542768002,-0.8710994124412537,0.9435797929763794,0.18520638346672058,0.07419699430465698,-0.056267641484737396
1.6062569618225098,-0.01201647985726595,-0.8878843188285828,0.9699015617370605,0.19054703414440155,0.07343403995037079,-0.05855649709701538
1.626312017440796,-0.01201647985726595,-0.9103913903236389,0.9931715726852417,0.20237277448177338,0.07610437273979187,-0.06351567804813385
1.6463358402252197,-0.012397955171763897,-0.9290837049484253,1.0149157047271729,0.20847637951374054,0.07686731964349747,-0.06389715522527695
1.6664090156555176,-0.012779430486261845,-0.9481574892997742,1.042763352394104,0.21877622604370117,0.07724879682064056,-0.06847485899925232
1.686488151550293,-0.012397955171763897,-0.968757152557373,1.0633630752563477,0.22564278542995453,0.07877469807863235,-0.0707637146115303
1.7066755294799805,-0.012397955171763897,-0.9874494671821594,1.0919737815856934,0.23403525352478027,0.07839322835206985,-0.07572289556264877
1.7266592979431152,-0.012397955171763897,-1.0152971744537354,1.124399185180664,0.24319066107273102,0.08030059933662415,-0.08068207651376724
1.7467341423034668,-0.012397955171763897,-1.0385671854019165,1.1541543006896973,0.25310903787612915,0.08030059933662415,-0.08297093212604523
1.766817569732666,-0.012397955171763897,-1.0637445449829102,1.195353627204895,0.26760509610176086,0.07991912961006165,-0.0883115902543068
1.7868833541870117,-0.012397955171763897,-1.0923552513122559,1.2319753170013428,0.2782863974571228,0.07953765243291855,-0.09174486994743347
1.807013750076294,-0.012397955171763897,-1.114099383354187,1.270504355430603,0.2943083941936493,0.07915617525577545,-0.09822995215654373
1.8274509906768799,-0.01201647985726595,-1.1415655612945557,1.3017853498458862,0.3126192092895508,0.07763027399778366,-0.10624094307422638
1.8475780487060547,-0.01201647985726595,-1.1598763465881348,1.3250553607940674,0.32673379778862,0.07801175117492676,-0.11158160120248795
1.867638111114502,-0.01201647985726595,-1.1766613721847534,1.348706841468811,0.3397039771080017,0.06542305648326874,-0.1192111074924469
1.8877136707305908,-0.011635004542768002,-1.2006943225860596,1.3704508543014526,0.35229265689849854,0.06313420087099075,-0.12645913660526276
1.9078783988952637,-0.010109102353453636,-1.2190051078796387,1.3879988193511963,0.361829549074173,0.057793546468019485,-0.13179980218410492
1.9278490543365479,-0.009346150793135166,-1.2350270748138428,1.406691074371338,0.3744182586669922,0.05359731614589691,-0.13866636157035828
1.9479432106018066,-0.00858320016413927,-1.2495231628417969,1.4223315715789795,0.37823301553726196,0.04291599988937378,-0.14209964871406555
1.9679794311523438,-0.00667582219466567,-1.263256311416626,1.437972068786621,0.387006938457489,0.035667963325977325,-0.14782176911830902
1.9881560802459717,-0.005912871100008488,-1.276607871055603,1.4547569751739502,0.39578089118003845,0.0394827201962471,-0.1516365259885788
2.0081887245178223,-0.005531395319849253,-1.2850003242492676,1.4723048210144043,0.4003585875034332,0.03833829239010811,-0.15545128285884857
2.028289556503296,-0.004005493130534887,-1.2968261241912842,1.486419439315796,0.4056992530822754,0.040245670825242996,-0.15926603972911835
2.0483922958374023,-0.0032425422687083483,-1.3075073957443237,1.4990081787109375,0.41180285811424255,0.04634927958250046,-0.16193637251853943
2.068467855453491,-0.0032425422687083483,-1.3208590745925903,1.513885736465454,0.41599908471107483,0.05207141116261482,-0.1646067053079605
2.088550090789795,-0.001716639962978661,-1.3315403461456299,1.5241855382919312,0.4186694025993347,0.048638131469488144,-0.1661325991153717
2.1086905002593994,-0.001716639962978661,-1.3403143882751465,1.5337224006652832,0.4217212200164795,0.043678950518369675,-0.1680399775505066
2.128723382949829,-0.0024795911740511656,-1.3471808433532715,1.5440223217010498,0.4236285984516144,0.03643091395497322,-0.16956588625907898
2.148864984512329,-0.0032425422687083483,-1.352521538734436,1.5539406538009644,0.42629891633987427,0.03376058489084244,-0.17147326469421387
2.168894052505493,-0.004005493130534887,-1.359006643295288,1.563858985900879,0.42935073375701904,0.035667963325977325,-0.17261768877506256
2.1889708042144775,-0.006294346414506435,-1.3635843992233276,1.5714884996414185,0.4327840209007263,0.038719769567251205,-0.17376211285591125
2.2090160846710205,-0.004386968910694122,-1.3693064451217651,1.577592134475708,0.4350728690624237,0.04139009863138199,-0.17528800666332245
2.2291135787963867,-0.004386968910694122,-1.3765544891357422,1.5836957693099976,0.4373617172241211,0.04100862145423889,-0.17643244564533234
2.24916934967041,-0.0036240178160369396,-1.3860913515090942,1.589417815208435,0.4381246566772461,0.042153049260377884,-0.17719538509845734
2.269256114959717,-0.0032425422687083483,-1.3925764560699463,1.596665859222412,0.4381246566772461,0.040245670825242996,-0.17910276353359222
2.2893595695495605,-0.0009536888683214784,-1.3971542119979858,1.6000992059707642,0.4377431869506836,0.03528648987412453,-0.1802472025156021
2.3094217777252197,-0.001716639962978661,-1.3998245000839233,1.6050583124160767,0.4388876259326935,0.03337911143898964,-0.1802472025156021
2.3294930458068848,-0.0020981156267225742,-1.4024949073791504,1.6115434169769287,0.440032035112381,0.03833829239010811,-0.1810101419687271
2.3495402336120605,-0.0024795911740511656,-1.403639316558838,1.6184099912643433,0.44193941354751587,0.04139009863138199,-0.1813916265964508
2.369624614715576,-0.004005493130534887,-1.405928134918213,1.6241321563720703,0.44270238280296326,0.04177157208323479,-0.182154580950737
2.3896877765655518,-0.005531395319849253,-1.409742832183838,1.6241321563720703,0.44346532225608826,0.045204851776361465,-0.1832990050315857
2.409754991531372,-0.005531395319849253,-1.4101243019104004,1.6294728517532349,0.44460976123809814,0.04329747334122658,-0.1832990050315857
2.4298243522644043,-0.00476844422519207,-1.4150835275650024,1.6317616701126099,0.44460976123809814,0.040245670825242996,-0.182917520403862
2.449887752532959,-0.004386968910694122,-1.422713041305542,1.6313802003860474,0.44460976123809814,0.038719769567251205,-0.1832990050315857
2.4699549674987793,-0.004005493130534887,-1.428435206413269,1.6306172609329224,0.44460976123809814,0.03604944050312042,-0.1832990050315857
2.490013837814331,-0.0024795911740511656,-1.4288166761398315,1.6355763673782349,0.44460976123809814,0.03032730519771576,-0.1832990050315857
2.5100905895233154,-0.0009536888683214784,-1.4288166761398315,1.639009714126587,0.44460976123809814,0.02689402550458908,-0.1832990050315857
2.530160665512085,-0.0009536888683214784,-1.425764799118042,1.6439688205718994,0.44460976123809814,0.02727550081908703,-0.1836804747581482
2.5502357482910156,-0.0009536888683214784,-1.426146388053894,1.6458762884140015,0.44460976123809814,0.03337911143898964,-0.1836804747581482
2.5703043937683105,-0.0020981156267225742,-1.425764799118042,1.6474021673202515,0.44499123096466064,0.0398641936480999,-0.1836804747581482
2.5903549194335938,-0.0024795911740511656,-1.4272907972335815,1.648546576499939,0.44499123096466064,0.04253452271223068,-0.1836804747581482
2.6104369163513184,-0.0024795911740511656,-1.429961085319519,1.6496909856796265,0.44499123096466064,0.04253452271223068,-0.1840619444847107
2.630509614944458,-0.0020981156267225742,-1.4337759017944336,1.6504539251327515,0.44499123096466064,0.04100862145423889,-0.1836804747581482
2.6505813598632812,-0.001716639962978661,-1.437972068786621,1.6512168645858765,0.44460976123809814,0.03757534176111221,-0.1836804747581482
2.6706724166870117,-0.0020981156267225742,-1.4414052963256836,1.6504539251327515,0.44460976123809814,0.024986648932099342,-0.1836804747581482
2.6907336711883545,-0.0024795911740511656,-1.4421683549880981,1.6523613929748535,0.44460976123809814,0.01773861236870289,-0.1832990050315857
2.710914134979248,-0.002861066721379757,-1.439497947692871,1.6546502113342285,0.44460976123809814,0.01926451548933983,-0.1836804747581482
2.730966329574585,-0.004005493130534887,-1.434157371520996,1.6561760902404785,0.44460976123809814,0.02193484455347061,-0.1832990050315857
2.751056432723999,-0.005531395319849253,-1.4288166761398315,1.658846378326416,0.44499123096466064,0.028038453310728073,-0.1832990050315857
2.771162509918213,-0.0024795911740511656,-1.4326313734054565,1.6561760902404785,0.44499123096466064,0.03490501269698143,-0.1836804747581482
2.791274309158325,-0.0032425422687083483,-1.430724024772644,1.662279725074768,0.44499123096466064,0.037193864583969116,-0.1832990050315857
2.8113622665405273,-0.0020981156267225742,-1.4333943128585815,1.661516785621643,0.44460976123809814,0.0394827201962471,-0.1836804747581482
2.8315505981445312,-0.00019073777366429567,-1.4375905990600586,1.6603723764419556,0.44460976123809814,0.04406042397022247,-0.1836804747581482
2.8517074584960938,-0.000572213320992887,-1.4433127641677856,1.6599907875061035,0.44460976123809814,0.04329747334122658,-0.1836804747581482
2.871706247329712,-0.001716639962978661,-1.4448386430740356,1.6599907875061035,0.44384679198265076,0.034142062067985535,-0.1836804747581482
2.8917901515960693,-0.0024795911740511656,-1.4467459917068481,1.659609317779541,0.44308385252952576,0.01888304017484188,-0.1836804747581482
2.911890745162964,-0.004386968910694122,-1.4463645219802856,1.6634241342544556,0.44384679198265076,0.020027466118335724,-0.182917520403862
2.9319612979888916,-0.005531395319849253,-1.4383535385131836,1.663805603981018,0.44422826170921326,0.02536812424659729,-0.1825360506772995
2.9520156383514404,-0.005912871100008488,-1.429961085319519,1.666094422340393,0.44422826170921326,0.026131074875593185,-0.182917520403862
2.9720585346221924,-0.004005493130534887,-1.4303425550460815,1.6641870737075806,0.44422826170921326,0.02994582988321781,-0.182917520403862
2.9921469688415527,-0.0032425422687083483,-1.432249903678894,1.6634241342544556,0.44460976123809814,0.035667963325977325,-0.182917520403862
3.012211799621582,-0.0020981156267225742,-1.436446189880371,1.666094422340393,0.44422826170921326,0.039101243019104004,-0.182917520403862
3.032280445098877,0.00019073777366429567,-1.441023826599121,1.666094422340393,0.44422826170921326,0.04596780240535736,-0.182917520403862
3.052356243133545,0.000572213320992887,-1.4467459917068481,1.6618982553482056,0.44422826170921326,0.046730753034353256,-0.182917520403862
3.072483777999878,-0.000572213320992887,-1.4494163990020752,1.6618982553482056,0.44079500436782837,0.03795681521296501,-0.182917520403862
3.092557430267334,-0.000572213320992887,-1.4543755054473877,1.6603723764419556,0.4404135048389435,0.024223696440458298,-0.182917520403862
3.1125941276550293,-0.002861066721379757,-1.4555199146270752,1.6641870737075806,0.4404135048389435,0.02079041674733162,-0.182917520403862
3.1326844692230225,-0.005149920005351305,-1.4494163990020752,1.6680018901824951,0.44079500436782837,0.02193484455347061,-0.1825360506772995
3.1527063846588135,-0.005531395319849253,-1.437209129333496,1.6680018901824951,0.44079500436782837,0.02040894143283367,-0.1813916265964508
3.172774314880371,-0.006294346414506435,-1.422713041305542,1.6680018901824951,0.44117647409439087,0.019645990803837776,-0.1802472025156021
3.1928391456604004,-0.005531395319849253,-1.41775381565094,1.665331482887268,0.44117647409439087,0.02536812424659729,-0.1802472025156021
3.212907314300537,-0.0036240178160369396,-1.41165030002594,1.662279725074768,0.44117647409439087,0.028038453310728073,-0.1802472025156021
3.2329916954040527,-0.0009536888683214784,-1.4120317697525024,1.6584649085998535,0.44117647409439087,0.03299763426184654,-0.1802472025156021
3.2530651092529297,-0.00019073777366429567,-1.4215686321258545,1.658846378326416,0.44117647409439087,0.03833829239010811,-0.1802472025156021
3.2731404304504395,0.0009536888683214784,-1.428435206413269,1.6603723764419556,0.44079500436782837,0.048256658017635345,-0.1802472025156021
3.293208122253418,0.001716639962978661,-1.432249903678894,1.6611353158950806,0.440032035112381,0.043678950518369675,-0.1806286722421646
3.3132967948913574,0.000572213320992887,-1.439497947692871,1.6577019691467285,0.4365987777709961,0.029564354568719864,-0.1806286722421646
3.3333826065063477,-0.00019073777366429567,-1.4452201128005981,1.657320499420166,0.4373617172241211,0.023460745811462402,-0.1802472025156021
3.353423833847046,-0.0036240178160369396,-1.4440757036209106,1.658083438873291,0.4377431869506836,0.023460745811462402,-0.1802472025156021
3.373502016067505,-0.005149920005351305,-1.4391164779663086,1.659609317779541,0.438506156206131,0.010872052982449532,-0.17948424816131592
3.3936004638671875,-0.005149920005351305,-1.435683250427246,1.6603723764419556,0.4388876259326935,0.016594186425209045,-0.17986571788787842
3.413667917251587,-0.0036240178160369396,-1.4337759017944336,1.662279725074768,0.4404135048389435,0.026512550190091133,-0.17986571788787842
3.4338033199310303,-0.0020981156267225742,-1.437209129333496,1.6618982553482056,0.44155794382095337,0.028038453310728073,-0.17910276353359222
3.4538321495056152,-0.001716639962978661,-1.4360647201538086,1.6649500131607056,0.44117647409439087,0.02880140393972397,-0.17910276353359222
3.4739739894866943,-0.000572213320992887,-1.439497947692871,1.6657129526138306,0.44079500436782837,0.032616160809993744,-0.17910276353359222
3.493971824645996,0.000572213320992887,-1.4463645219802856,1.662279725074768,0.44079500436782837,0.03681239113211632,-0.17910276353359222
3.5140540599823,0.0036240178160369396,-1.4520866870880127,1.6599907875061035,0.4404135048389435,0.03490501269698143,-0.17910276353359222
3.5341110229492188,0.0024795911740511656,-1.4513237476348877,1.6611353158950806,0.440032035112381,0.03185320645570755,-0.17910276353359222
3.5541791915893555,0.0013351644156500697,-1.4513237476348877,1.662279725074768,0.439269095659256,0.030708782374858856,-0.17910276353359222
3.574430227279663,-0.000572213320992887,-1.4448386430740356,1.6664758920669556,0.439269095659256,0.035667963325977325,-0.17910276353359222
3.5943901538848877,-0.0013351644156500697,-1.4398794174194336,1.666094422340393,0.4396505653858185,0.037193864583969116,-0.17910276353359222
3.6145198345184326,-0.00476844422519207,-1.4337759017944336,1.666857361793518,0.44079500436782837,0.03757534176111221,-0.17910276353359222
3.634535074234009,-0.004386968910694122,-1.437972068786621,1.665331482887268,0.44079500436782837,0.038719769567251205,-0.17910276353359222
3.6546261310577393,-0.00476844422519207,-1.4368276596069336,1.6672388315200806,0.44079500436782837,0.03795681521296501,-0.17910276353359222
3.6746954917907715,-0.004386968910694122,-1.4375905990600586,1.6683833599090576,0.44079500436782837,0.03795681521296501,-0.17910276353359222
3.6947741508483887,-0.0036240178160369396,-1.4452201128005981,1.663805603981018,0.4404135048389435,0.03604944050312042,-0.17910276353359222
3.7148351669311523,-0.0013351644156500697,-1.4513237476348877,1.660753846168518,0.440032035112381,0.03528648987412453,-0.17910276353359222
3.7349436283111572,0.000572213320992887,-1.4551384449005127,1.6584649085998535,0.440032035112381,0.03147173300385475,-0.17910276353359222
3.7550249099731445,0.0009536888683214784,-1.4566643238067627,1.6584649085998535,0.439269095659256,0.02536812424659729,-0.17910276353359222
3.7750918865203857,-0.000572213320992887,-1.4559013843536377,1.6626611948013306,0.4388876259326935,0.026131074875593185,-0.17910276353359222
3.7951605319976807,-0.000572213320992887,-1.4456015825271606,1.6657129526138306,0.439269095659256,0.03337911143898964,-0.17910276353359222
3.815314531326294,-0.002861066721379757,-1.434920310974121,1.6664758920669556,0.4396505653858185,0.03032730519771576,-0.17910276353359222
3.835336446762085,-0.004386968910694122,-1.4246203899383545,1.665331482887268,0.439269095659256,0.034142062067985535,-0.17948424816131592
3.85540509223938,-0.004386968910694122,-1.420424222946167,1.6634241342544556,0.4396505653858185,0.040245670825242996,-0.17910276353359222
3.8754777908325195,-0.0036240178160369396,-1.424238920211792,1.660753846168518,0.4404135048389435,0.04139009863138199,-0.17910276353359222
3.895582437515259,-0.0036240178160369396,-1.4280537366867065,1.663805603981018,0.4404135048389435,0.04749370738863945,-0.17910276353359222
3.9156336784362793,-0.0032425422687083483,-1.4311054944992065,1.6641870737075806,0.4404135048389435,0.05245288833975792,-0.17948424816131592
3.935702085494995,-0.0020981156267225742,-1.4375905990600586,1.660753846168518,0.4396505653858185,0.04711223021149635,-0.17948424816131592
3.955775022506714,-0.001716639962978661,-1.4452201128005981,1.6592278480529785,0.4369802474975586,0.03185320645570755,-0.17948424816131592
3.975860595703125,-0.002861066721379757,-1.4505608081817627,1.6592278480529785,0.4369802474975586,0.02536812424659729,-0.17948424816131592
3.9959747791290283,-0.00476844422519207,-1.4532310962677002,1.6626611948013306,0.4373617172241211,0.023079270496964455,-0.17910276353359222
4.016031742095947,-0.005912871100008488,-1.4497978687286377,1.6680018901824951,0.4373617172241211,0.01926451548933983,-0.17910276353359222
4.036173582077026,-0.007057297509163618,-1.4345388412475586,1.6695277690887451,0.4377431869506836,0.01888304017484188,-0.17910276353359222
4.056248664855957,-0.005531395319849253,-1.431486964225769,1.6664758920669556,0.4377431869506836,0.020027466118335724,-0.17910276353359222
4.076295852661133,-0.0036240178160369396,-1.4311054944992065,1.6664758920669556,0.438506156206131,0.02689402550458908,-0.17910276353359222
4.096361875534058,-0.0020981156267225742,-1.433012843132019,1.6706721782684326,0.4381246566772461,0.03490501269698143,-0.17948424816131592
4.1164329051971436,-0.000572213320992887,-1.4375905990600586,1.6687648296356201,0.4381246566772461,0.045204851776361465,-0.17948424816131592
4.136503458023071,0.000572213320992887,-1.4425498247146606,1.6664758920669556,0.4377431869506836,0.04291599988937378,-0.17948424816131592
