liuyurong129/humanoid-gym/humanoid/data/actual_q_20250522-231942.csv
timestamp,joint_1,joint_2,joint_3,joint_4,joint_5,joint_6
3.600120544433594e-05,0.00019073777366429567,0.17414358258247375,-0.0871671661734581,-0.00019073777366429567,-0.00019073777366429567,-0.00019073777366429567
0.02014756202697754,0.00019073777366429567,0.15392538905143738,-0.07953765243291855,0.00019073777366429567,-0.000572213320992887,-0.00019073777366429567
0.0402681827545166,-0.00019073777366429567,0.13027389347553253,-0.06733043491840363,0.00019073777366429567,0.000572213320992887,-0.00019073777366429567
0.060278892517089844,-0.00019073777366429567,0.11310750246047974,-0.06084534898400307,0.00019073777366429567,0.0013351644156500697,-0.00019073777366429567
0.08035445213317871,0.00019073777366429567,0.10662241280078888,-0.057793546468019485,0.00019073777366429567,0.00019073777366429567,-0.00019073777366429567
0.10043215751647949,0.0032425422687083483,0.08182650804519653,-0.04482337832450867,0.0013351644156500697,-0.001716639962978661,0.00019073777366429567
0.12049460411071777,0.00476844422519207,0.06046387553215027,-0.03490501269698143,0.0036240178160369396,0.0024795911740511656,0.000572213320992887
0.14066767692565918,0.007057297509163618,0.042153049260377884,-0.023079270496964455,0.007438773289322853,0.001716639962978661,0.0013351644156500697
0.1606752872467041,0.009727626107633114,0.026131074875593185,-0.016212711110711098,0.009346150793135166,0.0020981156267225742,0.0024795911740511656
0.18074703216552734,0.009727626107633114,-0.0036240178160369396,-0.0013351644156500697,0.01506828423589468,0.004005493130534887,0.0036240178160369396
0.20079731941223145,0.01125352829694748,-0.03490501269698143,0.01125352829694748,0.019645990803837776,0.014686808921396732,0.00476844422519207
0.2208855152130127,0.015449759550392628,-0.05207141116261482,0.020027466118335724,0.02384222112596035,0.012397955171763897,0.005531395319849253
0.24103498458862305,0.016212711110711098,-0.08487831056118011,0.03299763426184654,0.02841992862522602,0.019645990803837776,0.008201723918318748
0.2610585689544678,0.016212711110711098,-0.11272602528333664,0.043678950518369675,0.03299763426184654,0.027656977996230125,0.009727626107633114
0.28122663497924805,0.02040894143283367,-0.14362554252147675,0.05664911866188049,0.040627144277095795,0.03528648987412453,0.012779430486261845
0.3012669086456299,0.024223696440458298,-0.1684214472770691,0.06389715522527695,0.045204851776361465,0.035667963325977325,0.01583123579621315
0.3213338851928711,0.024605173617601395,-0.20351719856262207,0.07839322835206985,0.05207141116261482,0.039101243019104004,0.016975661739706993
0.34139108657836914,0.028038453310728073,-0.23823148012161255,0.09060044586658478,0.056267641484737396,0.04940108209848404,0.019645990803837776
0.3615562915802002,0.03452353551983833,-0.2622644305229187,0.10204470902681351,0.06427863240242004,0.04634927958250046,0.023079270496964455
0.38161563873291016,0.03643091395497322,-0.30041199922561646,0.11463340371847153,0.0722896158695221,0.05207141116261482,0.02841992862522602
0.4017171859741211,0.03833829239010811,-0.3286411762237549,0.12531471252441406,0.07801175117492676,0.05703059583902359,0.03032730519771576
0.42177700996398926,0.04329747334122658,-0.3706035017967224,0.13942931592464447,0.08869306743144989,0.061226826161146164,0.035667963325977325
0.4419121742248535,0.04634927958250046,-0.4007400572299957,0.1493476778268814,0.09555962681770325,0.06351567804813385,0.040245670825242996
0.4620373249053955,0.04787518084049225,-0.4343098998069763,0.16308079659938812,0.10509651154279709,0.06351567804813385,0.042153049260377884
0.4820594787597656,0.048638131469488144,-0.4705500900745392,0.17605096101760864,0.11234454810619354,0.07305257022380829,0.04444190114736557
0.5021412372589111,0.05092698708176613,-0.4968718886375427,0.18825818598270416,0.12149996310472488,0.07305257022380829,0.046730753034353256
0.5222117900848389,0.05130846053361893,-0.534637987613678,0.20313572883605957,0.13179980218410492,0.07915617525577545,0.049782559275627136
0.542304277420044,0.05092698708176613,-0.5594338774681091,0.212672621011734,0.1363775134086609,0.08258945494890213,0.053215838968753815
0.5624716281890869,0.05359731614589691,-0.5888075232505798,0.22602425515651703,0.14591439068317413,0.08335240930318832,0.05436026677489281
0.5824933052062988,0.05359731614589691,-0.613603413105011,0.23594263195991516,0.1512550562620163,0.0883115902543068,0.05741206929087639
0.6025989055633545,0.056267641484737396,-0.6353475451469421,0.248531311750412,0.15926603972911835,0.08525978773832321,0.059319447726011276
0.622622013092041,0.056267641484737396,-0.6586175560951233,0.2603570520877838,0.1646067053079605,0.08869306743144989,0.061226826161146164
0.6427147388458252,0.058175019919872284,-0.6731135845184326,0.27065691351890564,0.16956588625907898,0.0871671661734581,0.06427863240242004
0.6628580093383789,0.058175019919872284,-0.6891355514526367,0.2817196846008301,0.17643244564533234,0.08907453715801239,0.06504157930612564
0.6828920841217041,0.058175019919872284,-0.698291003704071,0.290112167596817,0.1802472025156021,0.09060044586658478,0.06618601083755493
0.7029685974121094,0.06008239835500717,-0.7055390477180481,0.30003052949905396,0.18749523162841797,0.08945601433515549,0.06580453366041183
0.7230572700500488,0.06046387553215027,-0.7127870321273804,0.3084229826927185,0.19169145822525024,0.09021896868944168,0.06733043491840363
0.7431247234344482,0.06237125024199486,-0.7154573798179626,0.31681543588638306,0.1977950781583786,0.0871671661734581,0.06809338182210922
0.7631707191467285,0.06389715522527695,-0.7185091972351074,0.32520791888237,0.20313572883605957,0.09136339277029037,0.06771191209554672
0.7833740711212158,0.06580453366041183,-0.7185091972351074,0.33283740282058716,0.20809490978717804,0.09212634712457657,0.06923781335353851
0.8034255504608154,0.06885633617639542,-0.7177462577819824,0.3412298858165741,0.2149614691734314,0.09365224838256836,0.06847485899925232
0.8235194683074951,0.06961929053068161,-0.7169833183288574,0.34695202112197876,0.21953918039798737,0.09670405089855194,0.06961929053068161
0.8435826301574707,0.07343403995037079,-0.7150759100914001,0.3542000353336334,0.22678720951080322,0.09632257372140884,0.06923781335353851
0.8637142181396484,0.07381551712751389,-0.7112611532211304,0.36259251832962036,0.23212787508964539,0.1031891331076622,0.0711451917886734
0.8837971687316895,0.07572289556264877,-0.7082093358039856,0.369840532541275,0.23823148012161255,0.10090028494596481,0.071908138692379
0.9038643836975098,0.07763027399778366,-0.7021057605743408,0.3770885765552521,0.2447165697813034,0.10929274559020996,0.0722896158695221
0.92397141456604,0.08030059933662415,-0.697528064250946,0.3843366205692291,0.2504386901855469,0.11005569249391556,0.07343403995037079
0.9440467357635498,0.08068207651376724,-0.691042959690094,0.3923476040363312,0.2584496736526489,0.11425192654132843,0.07343403995037079
0.9641196727752686,0.08106355369091034,-0.6845578551292419,0.39845120906829834,0.2630273997783661,0.1192111074924469,0.07534141838550568
0.9841935634613037,0.08258945494890213,-0.6788357496261597,0.4068436622619629,0.27065691351890564,0.1199740618467331,0.07572289556264877
1.0042524337768555,0.08411535620689392,-0.6692988276481628,0.41485464572906494,0.2782863974571228,0.12684062123298645,0.07648584991693497
1.0243496894836426,0.08564125746488571,-0.6620507836341858,0.4232471287250519,0.28706035017967224,0.12493324279785156,0.07915617525577545
1.0444118976593018,0.08907453715801239,-0.6517509818077087,0.43163958191871643,0.2973601818084717,0.13065537810325623,0.08106355369091034
1.0644793510437012,0.09174486994743347,-0.6433585286140442,0.440032035112381,0.3061341345310211,0.1325627565383911,0.08335240930318832
1.0845465660095215,0.09632257372140884,-0.6342030763626099,0.4491874575614929,0.31757840514183044,0.13218127191066742,0.08373387902975082
1.1046173572540283,0.10013733059167862,-0.6242847442626953,0.45757991075515747,0.3255893886089325,0.13828489184379578,0.0875486359000206
1.1246886253356934,0.10509651154279709,-0.6174181699752808,0.4667353332042694,0.3374151289463043,0.135233074426651,0.0883115902543068
1.1447882652282715,0.11005569249391556,-0.6063553690910339,0.47779813408851624,0.35038527846336365,0.13866636157035828,0.09288929402828217
1.164942741394043,0.11501488089561462,-0.5983443856239319,0.4884794354438782,0.36411839723587036,0.13866636157035828,0.09555962681770325
1.1850035190582275,0.1192111074924469,-0.5918593406677246,0.4987792670726776,0.37823301553726196,0.13752193748950958,0.09975585341453552
1.2050750255584717,0.12302586436271667,-0.5865186452865601,0.507553219795227,0.3919661343097687,0.1367589831352234,0.1035706102848053
1.225142002105713,0.12531471252441406,-0.5849927663803101,0.5148012638092041,0.4060807228088379,0.12912946939468384,0.11043716967105865
1.2452125549316406,0.12684062123298645,-0.5830853581428528,0.5231937170028687,0.4175249934196472,0.12836651504039764,0.11501488089561462
1.2653090953826904,0.12912946939468384,-0.5830853581428528,0.5289158225059509,0.4335469603538513,0.1184481605887413,0.12302586436271667
1.2854766845703125,0.12951095402240753,-0.5846112966537476,0.5334935784339905,0.44766154885292053,0.10738536715507507,0.12912946939468384
1.305586338043213,0.12989242374897003,-0.5869001150131226,0.5357823967933655,0.45872434973716736,0.1035706102848053,0.135233074426651
1.3256721496582031,0.12951095402240753,-0.5888075232505798,0.5376898050308228,0.4720759987831116,0.09212634712457657,0.14133669435977936
1.3457396030426025,0.12951095402240753,-0.5914778113365173,0.5380712747573853,0.4839017391204834,0.08602273464202881,0.1489662081003189
1.3658092021942139,0.12951095402240753,-0.5930037498474121,0.5388342142105103,0.49496451020240784,0.07915617525577545,0.15354390442371368
1.385883092880249,0.12951095402240753,-0.5956740379333496,0.5407415628433228,0.5048828721046448,0.07724879682064056,0.15583276748657227
1.4059865474700928,0.12951095402240753,-0.5971999764442444,0.54264897108078,0.5117494463920593,0.07724879682064056,0.16117341816425323
1.4260108470916748,0.12836651504039764,-0.5991073250770569,0.5445563197135925,0.5224307775497437,0.07801175117492676,0.16346226632595062
1.4460999965667725,0.12722209095954895,-0.6010147333145142,0.5464637279510498,0.5277714133262634,0.07839322835206985,0.1661325991153717
1.466160774230957,0.12607766687870026,-0.6033035516738892,0.5476081371307373,0.5334935784339905,0.07953765243291855,0.16880293190479279
1.486234188079834,0.12493324279785156,-0.6052109599113464,0.5487525463104248,0.5388342142105103,0.07763027399778366,0.17109178006649017
1.5063042640686035,0.12378881871700287,-0.6074998378753662,0.5491340756416321,0.543411910533905,0.07610437273979187,0.17338064312934875
1.5264215469360352,0.12226291000843048,-0.6101701259613037,0.5506599545478821,0.5479896068572998,0.071908138692379,0.17605096101760864
1.5464611053466797,0.12111848592758179,-0.612077534198761,0.5521858334541321,0.5518043637275696,0.0715266615152359,0.17757686972618103
1.5665054321289062,0.1199740618467331,-0.6139848828315735,0.5537117719650269,0.5544747114181519,0.0707637146115303,0.17757686972618103
1.586609125137329,0.11959258466959,-0.6162737607955933,0.5560005903244019,0.5582894682884216,0.0715266615152359,0.17795833945274353
1.6066694259643555,0.1180666834115982,-0.6185625791549683,0.5575265288352966,0.5605783462524414,0.0722896158695221,0.1802472025156021
1.6267426013946533,0.11768520623445511,-0.620851457118988,0.5590524077415466,0.5632486343383789,0.071908138692379,0.1810101419687271
1.6468141078948975,0.11577782779932022,-0.6235218048095703,0.5601968169212341,0.5659189820289612,0.0715266615152359,0.182917520403862
1.6668832302093506,0.11577782779932022,-0.6258106231689453,0.5621042251586914,0.5685893297195435,0.07038223743438721,0.18520638346672058
1.686952829360962,0.11425192654132843,-0.6280995011329651,0.5640115737915039,0.5716410875320435,0.0707637146115303,0.18520638346672058
1.7070178985595703,0.11348897218704224,-0.6292439103126526,0.5655375123023987,0.5731670260429382,0.0711451917886734,0.18520638346672058
1.727156162261963,0.11234454810619354,-0.6311513185501099,0.5670633912086487,0.5750743746757507,0.0715266615152359,0.18520638346672058
1.7472765445709229,0.11120012402534485,-0.6334401369094849,0.5682078003883362,0.5766003131866455,0.071908138692379,0.18558785319328308
1.767305612564087,0.11005569249391556,-0.6357290148735046,0.5701152086257935,0.577744722366333,0.071908138692379,0.18558785319328308
1.787374496459961,0.10852979123592377,-0.6391623020172119,0.5708781480789185,0.5796520709991455,0.0715266615152359,0.18558785319328308
1.80778169631958,0.10738536715507507,-0.6414511203765869,0.5724040865898132,0.5804150700569153,0.07000076025724411,0.18635080754756927
1.8278701305389404,0.10547798871994019,-0.6448844075202942,0.5746929049491882,0.5819409489631653,0.07000076025724411,0.18673227727413177
1.8479206562042236,0.1039520874619484,-0.6467918157577515,0.576218843460083,0.5834668278694153,0.07038223743438721,0.18673227727413177
1.868001937866211,0.10166323184967041,-0.6498435735702515,0.578507661819458,0.5842298269271851,0.06961929053068161,0.18749523162841797
1.8880703449249268,0.10128175467252731,-0.6528953909873962,0.580033540725708,0.5853742361068726,0.07038223743438721,0.18711376190185547
1.9081518650054932,0.10128175467252731,-0.6540398001670837,0.5815594792366028,0.5872815847396851,0.07000076025724411,0.18749523162841797
1.9283077716827393,0.10128175467252731,-0.655947208404541,0.5823224186897278,0.5876630544662476,0.06656748056411743,0.18749523162841797
1.9483282566070557,0.10128175467252731,-0.6578545570373535,0.5838482975959778,0.5884260535240173,0.06809338182210922,0.18749523162841797
1.9684150218963623,0.10090028494596481,-0.6597619652748108,0.5857557058334351,0.5891889929771423,0.0707637146115303,0.18749523162841797
1.9885139465332031,0.10013733059167862,-0.6616693139076233,0.5876630544662476,0.5907148718833923,0.071908138692379,0.18711376190185547
2.0085599422454834,0.09937438368797302,-0.6639581918716431,0.5899519324302673,0.5914778113365173,0.071908138692379,0.18711376190185547
2.0286996364593506,0.09899290651082993,-0.6658655405044556,0.5907148718833923,0.5922408103942871,0.0711451917886734,0.18673227727413177
2.048771381378174,0.09784847497940063,-0.6673914790153503,0.5922408103942871,0.5933852195739746,0.0707637146115303,0.18673227727413177
2.0688180923461914,0.09670405089855194,-0.6704432964324951,0.5937666893005371,0.5949110984802246,0.0707637146115303,0.18673227727413177
2.0888619422912598,0.09555962681770325,-0.6727321147918701,0.5952925682067871,0.5952925682067871,0.0711451917886734,0.18635080754756927
2.1089372634887695,0.09517814964056015,-0.6761654019355774,0.5971999764442444,0.5960555672645569,0.0707637146115303,0.18635080754756927
2.1290035247802734,0.09479667246341705,-0.6788357496261597,0.5983443856239319,0.5975814461708069,0.071908138692379,0.18596932291984558
2.149082899093628,0.09403372555971146,-0.6807430982589722,0.5998703241348267,0.5987258553504944,0.071908138692379,0.18596932291984558
2.169154644012451,0.09403372555971146,-0.6822690367698669,0.6010147333145142,0.5987258553504944,0.0711451917886734,0.18520638346672058
2.1892037391662598,0.09403372555971146,-0.6837949156761169,0.6021591424942017,0.5991073250770569,0.07267109304666519,0.1844434291124344
2.20930814743042,0.09288929402828217,-0.6849393248558044,0.6044480204582214,0.5994887948036194,0.07267109304666519,0.1840619444847107
2.2293596267700195,0.09212634712457657,-0.6860837936401367,0.6055924296379089,0.6002517938613892,0.07267109304666519,0.1832990050315857
2.249460220336914,0.09174486994743347,-0.6876096725463867,0.6074998378753662,0.6010147333145142,0.07267109304666519,0.1832990050315857
2.269551992416382,0.09060044586658478,-0.689517080783844,0.6086442470550537,0.6021591424942017,0.07305257022380829,0.182154580950737
2.289591073989868,0.08945601433515549,-0.691042959690094,0.6101701259613037,0.6021591424942017,0.0722896158695221,0.1806286722421646
2.309661626815796,0.08907453715801239,-0.6929503083229065,0.6116960644721985,0.6025406122207642,0.0711451917886734,0.1802472025156021
2.329702615737915,0.08869306743144989,-0.6944762468338013,0.613603413105011,0.6029220819473267,0.07038223743438721,0.17986571788787842
2.349834680557251,0.0875486359000206,-0.6960021257400513,0.6155108213424683,0.6029220819473267,0.0711451917886734,0.17910276353359222
2.3698747158050537,0.0875486359000206,-0.697528064250946,0.6170367002487183,0.6033035516738892,0.071908138692379,0.17833982408046722
2.3899426460266113,0.0871671661734581,-0.7001983523368835,0.619325578212738,0.6036850810050964,0.0715266615152359,0.17757686972618103
2.4100139141082764,0.086785688996315,-0.7032501697540283,0.620851457118988,0.6036850810050964,0.0715266615152359,0.17681391537189484
2.4300806522369385,0.086785688996315,-0.7059205174446106,0.621614396572113,0.6044480204582214,0.0711451917886734,0.17643244564533234
2.4501659870147705,0.086785688996315,-0.7082093358039856,0.6227588057518005,0.6048294901847839,0.0707637146115303,0.17566949129104614
2.4702212810516357,0.0864042118191719,-0.7101167440414429,0.6239032745361328,0.6059738993644714,0.0707637146115303,0.17490653693675995
2.4903488159179688,0.08525978773832321,-0.7116426229476929,0.6254291534423828,0.6063553690910339,0.07038223743438721,0.17414358258247375
2.510408401489258,0.08487831056118011,-0.7120240926742554,0.6261920928955078,0.6071183085441589,0.07038223743438721,0.17414358258247375
2.5304596424102783,0.08373387902975082,-0.7131685614585876,0.6284809708595276,0.6078813076019287,0.07038223743438721,0.17376211285591125
2.5505785942077637,0.08258945494890213,-0.7143129706382751,0.6300068497657776,0.6094071865081787,0.0715266615152359,0.17338064312934875
2.570615768432617,0.08144503086805344,-0.7158388495445251,0.6315327882766724,0.6097886562347412,0.071908138692379,0.17299915850162506
2.5907678604125977,0.08068207651376724,-0.7173647880554199,0.6322957277297974,0.6105515956878662,0.0715266615152359,0.17299915850162506
2.6108269691467285,0.08068207651376724,-0.7188906669616699,0.6334401369094849,0.6109330654144287,0.0707637146115303,0.17299915850162506
2.6309351921081543,0.08068207651376724,-0.7204165458679199,0.6345845460891724,0.6116960644721985,0.07038223743438721,0.17299915850162506
2.650998592376709,0.08030059933662415,-0.7219424843788147,0.6364919543266296,0.6124590039253235,0.0707637146115303,0.17261768877506256
2.6710593700408936,0.07991912961006165,-0.724612832069397,0.6380178332328796,0.6132219433784485,0.0715266615152359,0.17223620414733887
2.6911370754241943,0.07953765243291855,-0.7265201807022095,0.6399252414703369,0.613603413105011,0.071908138692379,0.17147326469421387
2.7112514972686768,0.07953765243291855,-0.7280460596084595,0.6406881809234619,0.614366352558136,0.0711451917886734,0.17147326469421387
2.7314298152923584,0.07877469807863235,-0.7295719981193542,0.6414511203765869,0.6147478222846985,0.07038223743438721,0.17147326469421387
2.751452684402466,0.07801175117492676,-0.7318608164787292,0.6425955891609192,0.6162737607955933,0.07000076025724411,0.17147326469421387
2.7714827060699463,0.07763027399778366,-0.734149694442749,0.6445029377937317,0.6174181699752808,0.07038223743438721,0.17071031033992767
2.7915713787078857,0.07724879682064056,-0.735675573348999,0.6456473469734192,0.6177996397018433,0.06961929053068161,0.17032882571220398
2.811631679534912,0.07648584991693497,-0.7372015118598938,0.647173285484314,0.6177996397018433,0.06733043491840363,0.16994735598564148
2.831697702407837,0.07648584991693497,-0.7391088604927063,0.6483176946640015,0.6181811094284058,0.06733043491840363,0.16956588625907898
2.851893186569214,0.07572289556264877,-0.7402533292770386,0.6490806341171265,0.6185625791549683,0.06733043491840363,0.16918440163135529
2.8719773292541504,0.07495994865894318,-0.7413977384567261,0.650225043296814,0.6185625791549683,0.06618601083755493,0.16880293190479279
2.8920388221740723,0.07381551712751389,-0.7433050870895386,0.650225043296814,0.6185625791549683,0.06618601083755493,0.16880293190479279
2.9121253490448,0.07305257022380829,-0.7448310256004333,0.6517509818077087,0.6189440488815308,0.06504157930612564,0.1684214472770691
2.932183265686035,0.07267109304666519,-0.7463569045066833,0.6525139212608337,0.619325578212738,0.06466010212898254,0.1684214472770691
2.952263832092285,0.07267109304666519,-0.7475013136863708,0.654421329498291,0.6204699873924255,0.06351567804813385,0.1680399775505066
2.972322463989258,0.0722896158695221,-0.7490272521972656,0.6563286781311035,0.6212329268455505,0.06466010212898254,0.1680399775505066
2.9923696517944336,0.0722896158695221,-0.7505531311035156,0.6586175560951233,0.621614396572113,0.06618601083755493,0.1672770231962204
3.0124552249908447,0.0722896158695221,-0.7516975402832031,0.6609063744544983,0.6219958662986755,0.06961929053068161,0.1665140837430954
3.03252911567688,0.0722896158695221,-0.7536049485206604,0.6631952524185181,0.6219958662986755,0.0715266615152359,0.1657511293888092
3.0525968074798584,0.0722896158695221,-0.7536049485206604,0.6631952524185181,0.6219958662986755,0.07343403995037079,0.1653696447610855
3.0727057456970215,0.0722896158695221,-0.7536049485206604,0.6631952524185181,0.622377336025238,0.0707637146115303,0.1653696447610855
3.092761993408203,0.0715266615152359,-0.7543678879737854,0.6631952524185181,0.622377336025238,0.0707637146115303,0.1653696447610855
3.1128334999084473,0.0711451917886734,-0.7562752962112427,0.6643396615982056,0.622377336025238,0.07038223743438721,0.164988175034523
3.1328847408294678,0.07038223743438721,-0.7581826448440552,0.6654840707778931,0.6235218048095703,0.06923781335353851,0.1646067053079605
3.1529629230499268,0.07000076025724411,-0.7612344622612,0.6673914790153503,0.6246662139892578,0.06923781335353851,0.16422522068023682
3.1730315685272217,0.06885633617639542,-0.763523280620575,0.6685358881950378,0.6250476837158203,0.06961929053068161,0.16384375095367432
3.1931161880493164,0.06847485899925232,-0.7654306888580322,0.6700618267059326,0.6254291534423828,0.06961929053068161,0.16308079659938812
3.2132937908172607,0.06809338182210922,-0.7669565677642822,0.6715877056121826,0.6258106231689453,0.06961929053068161,0.16231784224510193
3.2332851886749268,0.06809338182210922,-0.7681010365486145,0.6731135845184326,0.6265735626220703,0.07000076025724411,0.16155488789081573
3.253347635269165,0.06733043491840363,-0.770008385181427,0.6750209927558899,0.6273365616798401,0.0715266615152359,0.16117341816425323
3.273397922515869,0.06733043491840363,-0.770771324634552,0.6761654019355774,0.6280995011329651,0.0715266615152359,0.16079194843769073
3.293548345565796,0.06733043491840363,-0.7722972631454468,0.6776912808418274,0.6284809708595276,0.0711451917886734,0.16041046380996704
3.313581705093384,0.06694895774126053,-0.7738231420516968,0.6792172193527222,0.6288624405860901,0.0715266615152359,0.16002899408340454
3.333646774291992,0.06618601083755493,-0.7753490209579468,0.6799801588058472,0.6292439103126526,0.0715266615152359,0.15964750945568085
3.353733539581299,0.06618601083755493,-0.776493489742279,0.6811245679855347,0.6300068497657776,0.0711451917886734,0.15926603972911835
3.3739287853240967,0.06542305648326874,-0.778019368648529,0.6818875670433044,0.6303883194923401,0.07267109304666519,0.15888457000255585
3.3940398693084717,0.06504157930612564,-0.7795453071594238,0.6830319762229919,0.6307697892189026,0.0722896158695221,0.15850308537483215
3.414090633392334,0.06389715522527695,-0.7810711860656738,0.6841763854026794,0.6315327882766724,0.0722896158695221,0.15850308537483215
3.4341635704040527,0.06313420087099075,-0.7825970649719238,0.6860837936401367,0.6319142580032349,0.07381551712751389,0.15812161564826965
3.454331159591675,0.06275273114442825,-0.7837415337562561,0.6868467330932617,0.6322957277297974,0.07381551712751389,0.15812161564826965
3.4743285179138184,0.06275273114442825,-0.7845044732093811,0.6883726119995117,0.6326771974563599,0.07267109304666519,0.15812161564826965
3.4943926334381104,0.06275273114442825,-0.7860303521156311,0.6898985505104065,0.6330586671829224,0.07457847148180008,0.15774014592170715
3.5144407749176025,0.06237125024199486,-0.7871748208999634,0.6914244294166565,0.6334401369094849,0.07457847148180008,0.15735866129398346
3.5345277786254883,0.06237125024199486,-0.7883192300796509,0.692568838596344,0.6338216066360474,0.07457847148180008,0.15697719156742096
3.554593563079834,0.06237125024199486,-0.7890821695327759,0.693331778049469,0.6342030763626099,0.07495994865894318,0.15659570693969727
3.5746676921844482,0.06237125024199486,-0.7902265787124634,0.6944762468338013,0.6345845460891724,0.07495994865894318,0.15545128285884857
3.594759225845337,0.06198977679014206,-0.7917525172233582,0.6956206560134888,0.6353475451469421,0.07495994865894318,0.15392538905143738
3.614833116531372,0.06198977679014206,-0.7921339869499207,0.6960021257400513,0.6357290148735046,0.07610437273979187,0.15354390442371368
3.634880304336548,0.06160829961299896,-0.7932783961296082,0.6963835954666138,0.6361104846000671,0.07495994865894318,0.15316243469715118
3.654921531677246,0.061226826161146164,-0.7948042750358582,0.6971465349197388,0.6364919543266296,0.07610437273979187,0.152399480342865
3.6750190258026123,0.061226826161146164,-0.7967116832733154,0.6979095339775085,0.6368734240531921,0.07648584991693497,0.1516365259885788
3.6951053142547607,0.06084534898400307,-0.7978560924530029,0.698291003704071,0.6372548937797546,0.07763027399778366,0.1512550562620163
3.7151718139648438,0.06046387553215027,-0.7993820309638977,0.6994354128837585,0.6372548937797546,0.07724879682064056,0.1508735716342926
3.7352473735809326,0.06008239835500717,-0.8009079098701477,0.7021057605743408,0.6383993029594421,0.07801175117492676,0.1508735716342926
3.7553815841674805,0.06008239835500717,-0.8016708493232727,0.7036316394805908,0.6395437717437744,0.07839322835206985,0.1504921019077301
3.7753779888153076,0.05970092490315437,-0.802815318107605,0.7055390477180481,0.6399252414703369,0.07877469807863235,0.1504921019077301
3.7954659461975098,0.05970092490315437,-0.804341197013855,0.7070649266242981,0.6403067111968994,0.07915617525577545,0.1504921019077301
3.815491199493408,0.05855649709701538,-0.8062485456466675,0.7082093358039856,0.6406881809234619,0.07877469807863235,0.1501106321811676
3.835557699203491,0.05855649709701538,-0.8077744841575623,0.7089722752571106,0.6410696506500244,0.07839322835206985,0.1501106321811676
3.855623483657837,0.058175019919872284,-0.8093003630638123,0.7093538045883179,0.6414511203765869,0.07801175117492676,0.1501106321811676
3.875696897506714,0.058175019919872284,-0.8112077713012695,0.7104982137680054,0.6422140598297119,0.07686731964349747,0.1497291475534439
3.895864725112915,0.058175019919872284,-0.812352180480957,0.7124055624008179,0.6429770588874817,0.07648584991693497,0.1497291475534439
3.915936231613159,0.058175019919872284,-0.813878059387207,0.7139315009117126,0.6437399983406067,0.07648584991693497,0.1493476778268814
3.936004877090454,0.058175019919872284,-0.813878059387207,0.7150759100914001,0.6437399983406067,0.07724879682064056,0.1493476778268814
3.956070899963379,0.058175019919872284,-0.8150225281715393,0.7166017889976501,0.6445029377937317,0.07724879682064056,0.1489662081003189
3.9761643409729004,0.058175019919872284,-0.8173113465309143,0.7188906669616699,0.6448844075202942,0.07801175117492676,0.14858472347259521
3.9962360858917236,0.058175019919872284,-0.8192187547683716,0.7207980751991272,0.6456473469734192,0.07801175117492676,0.14705882966518402
4.016304016113281,0.057793546468019485,-0.8211261034011841,0.7219424843788147,0.6464102864265442,0.07801175117492676,0.14667734503746033
4.036348342895508,0.057793546468019485,-0.8222705721855164,0.7230868935585022,0.6467918157577515,0.07724879682064056,0.14629587531089783
4.056432247161865,0.05741206929087639,-0.8241779208183289,0.7238498330116272,0.647173285484314,0.07686731964349747,0.14629587531089783
4.076497554779053,0.05703059583902359,-0.8260852694511414,0.725375771522522,0.647173285484314,0.07686731964349747,0.14591439068317413
4.096593856811523,0.05664911866188049,-0.8272297382354736,0.726138710975647,0.647173285484314,0.07610437273979187,0.14591439068317413
4.116725206375122,0.056267641484737396,-0.8283741474151611,0.726901650428772,0.647173285484314,0.0722896158695221,0.14553292095661163
4.136746644973755,0.0558861680328846,-0.8295185565948486,0.7280460596084595,0.647173285484314,0.0711451917886734,0.14553292095661163
4.156808137893677,0.0558861680328846,-0.8310444951057434,0.7288090586662292,0.647173285484314,0.07038223743438721,0.14515145123004913
4.176855564117432,0.0555046908557415,-0.8321889042854309,0.7299534678459167,0.6475547552108765,0.06809338182210922,0.14476996660232544
4.1969592571258545,0.0555046908557415,-0.8333333134651184,0.7310978770256042,0.6475547552108765,0.06885633617639542,0.14400701224803925
4.2170090675354,0.0555046908557415,-0.8337147831916809,0.7318608164787292,0.6483176946640015,0.06923781335353851,0.14400701224803925
4.237072467803955,0.0551232174038887,-0.8344777822494507,0.734149694442749,0.648699164390564,0.07000076025724411,0.14362554252147675
4.257140159606934,0.054741740226745605,-0.8356221914291382,0.7352941036224365,0.6498435735702515,0.0715266615152359,0.14324407279491425
4.277209758758545,0.054741740226745605,-0.8363851308822632,0.7364385724067688,0.6506065726280212,0.071908138692379,0.14286258816719055
4.297271966934204,0.054741740226745605,-0.8375295400619507,0.7375829815864563,0.6513695120811462,0.071908138692379,0.14286258816719055
4.3173439502716064,0.05436026677489281,-0.838674008846283,0.7383459210395813,0.6517509818077087,0.0722896158695221,0.14248111844062805
4.337420701980591,0.05359731614589691,-0.8405813574790955,0.7394903302192688,0.6525139212608337,0.0722896158695221,0.14248111844062805
4.357505559921265,0.05359731614589691,-0.8428702354431152,0.7398717999458313,0.6528953909873962,0.07305257022380829,0.14209964871406555
4.377563953399658,0.05359731614589691,-0.8447775840759277,0.7398717999458313,0.6536583304405212,0.07381551712751389,0.14248111844062805
4.397662878036499,0.05359731614589691,-0.8463035225868225,0.7402533292770386,0.6540398001670837,0.07343403995037079,0.14209964871406555
4.417695999145508,0.05359731614589691,-0.8470664620399475,0.7406347990036011,0.6540398001670837,0.07381551712751389,0.14209964871406555
4.437814950942993,0.05359731614589691,-0.848210871219635,0.7421606779098511,0.654421329498291,0.07305257022380829,0.14171816408634186
4.457839250564575,0.053215838968753815,-0.84897381067276,0.7433050870895386,0.6548027992248535,0.07534141838550568,0.14133669435977936
4.477973699569702,0.05283436179161072,-0.8501182794570923,0.7452124953269958,0.6548027992248535,0.07686731964349747,0.14095520973205566
4.498125791549683,0.05245288833975792,-0.8508812189102173,0.7467383742332458,0.655184268951416,0.07877469807863235,0.13981078565120697
4.518143653869629,0.05245288833975792,-0.8508812189102173,0.7471198439598083,0.6548027992248535,0.07953765243291855,0.13866636157035828
4.538215160369873,0.05207141116261482,-0.8520256280899048,0.7478827834129333,0.6548027992248535,0.07953765243291855,0.13790340721607208
4.558283090591431,0.051689937710762024,-0.8527885675430298,0.7486457824707031,0.655184268951416,0.08220797777175903,0.1367589831352234
4.5784010887146,0.051689937710762024,-0.8539330363273621,0.7505531311035156,0.6548027992248535,0.08335240930318832,0.1356145590543747
4.598451137542725,0.051689937710762024,-0.8550774455070496,0.7520790696144104,0.655184268951416,0.08449683338403702,0.135233074426651
4.618589878082275,0.051689937710762024,-0.8558403849601746,0.7539864182472229,0.6555657386779785,0.08525978773832321,0.135233074426651
4.6386682987213135,0.051689937710762024,-0.8569847941398621,0.7547493577003479,0.6563286781311035,0.08564125746488571,0.135233074426651
4.658810138702393,0.051689937710762024,-0.8581292629241943,0.7562752962112427,0.6578545570373535,0.08525978773832321,0.1348516047000885
4.678851127624512,0.051689937710762024,-0.8592736721038818,0.7566567659378052,0.6586175560951233,0.08487831056118011,0.1348516047000885
4.698880672454834,0.05130846053361893,-0.8607995510101318,0.7574197053909302,0.6589990258216858,0.08335240930318832,0.1348516047000885
4.718962669372559,0.05130846053361893,-0.8627069592475891,0.7585641145706177,0.6597619652748108,0.08144503086805344,0.1348516047000885
4.739031076431274,0.05092698708176613,-0.8646143078804016,0.7593270540237427,0.6605249047279358,0.08068207651376724,0.134470134973526
4.759099006652832,0.05092698708176613,-0.8657587766647339,0.7600900530815125,0.6616693139076233,0.07953765243291855,0.134470134973526
4.779170274734497,0.05054550990462303,-0.8665217161178589,0.7608529925346375,0.6620507836341858,0.07801175117492676,0.134470134973526
4.799365282058716,0.05054550990462303,-0.8676661252975464,0.7623788714408875,0.6624323129653931,0.07763027399778366,0.1340886503458023
4.8195717334747314,0.05054550990462303,-0.8684290647506714,0.7631418108940125,0.6624323129653931,0.07648584991693497,0.1340886503458023
4.839643478393555,0.05054550990462303,-0.8688105344772339,0.7642862796783447,0.6628137826919556,0.07648584991693497,0.1337071806192398
4.859673261642456,0.05054550990462303,-0.8695735335350037,0.7665750980377197,0.6628137826919556,0.07648584991693497,0.1337071806192398
4.8797314167022705,0.05054550990462303,-0.8699550032615662,0.7673380374908447,0.6631952524185181,0.07648584991693497,0.1333257108926773
4.8998332023620605,0.05054550990462303,-0.8699550032615662,0.768482506275177,0.6631952524185181,0.07648584991693497,0.1333257108926773
4.919916868209839,0.05054550990462303,-0.8710994124412537,0.7696269154548645,0.6635767221450806,0.07724879682064056,0.1325627565383911
4.939961671829224,0.050164032727479935,-0.8718623518943787,0.7711527943611145,0.6635767221450806,0.07763027399778366,0.13218127191066742
4.9600670337677,0.050164032727479935,-0.8733882904052734,0.7715343236923218,0.6643396615982056,0.07724879682064056,0.13179980218410492
4.980135679244995,0.049782559275627136,-0.8741512298583984,0.7715343236923218,0.6651026010513306,0.07686731964349747,0.13179980218410492
5.000246524810791,0.04940108209848404,-0.8752956390380859,0.7726787328720093,0.6654840707778931,0.07534141838550568,0.13141833245754242
5.020352363586426,0.048638131469488144,-0.8772030472755432,0.7738231420516968,0.6658655405044556,0.07648584991693497,0.13103684782981873
5.040437936782837,0.048256658017635345,-0.8783474564552307,0.7749675512313843,0.6662470698356628,0.07724879682064056,0.13065537810325623
5.060521841049194,0.04787518084049225,-0.8794918656349182,0.775730550289154,0.6670100092887878,0.07724879682064056,0.13027389347553253
5.080548524856567,0.04749370738863945,-0.8813992738723755,0.776493489742279,0.6673914790153503,0.07724879682064056,0.12951095402240753
5.100716829299927,0.04749370738863945,-0.8836880922317505,0.7776378989219666,0.6677729487419128,0.07572289556264877,0.12912946939468384
5.120757579803467,0.04749370738863945,-0.8852140307426453,0.7784008383750916,0.6685358881950378,0.07648584991693497,0.12836651504039764
5.140819311141968,0.04749370738863945,-0.8863584399223328,0.7791637778282166,0.6692988276481628,0.07610437273979187,0.12798504531383514
5.160886287689209,0.04711223021149635,-0.8867399096488953,0.7799267768859863,0.6696802973747253,0.07648584991693497,0.12760357558727264
5.1809563636779785,0.04711223021149635,-0.8875028491020203,0.7810711860656738,0.6696802973747253,0.07801175117492676,0.12760357558727264
5.201055526733398,0.04634927958250046,-0.8878843188285828,0.7818341255187988,0.6700618267059326,0.07877469807863235,0.12722209095954895
5.221097946166992,0.04634927958250046,-0.8886472582817078,0.7822155952453613,0.6700618267059326,0.07915617525577545,0.12684062123298645
5.241188287734985,0.04634927958250046,-0.8894102573394775,0.7829785346984863,0.6700618267059326,0.07724879682064056,0.12722209095954895
5.261427402496338,0.04634927958250046,-0.8909361362457275,0.7837415337562561,0.6704432964324951,0.07839322835206985,0.12684062123298645
5.281346559524536,0.04634927958250046,-0.8916990756988525,0.7852674126625061,0.6708247661590576,0.07763027399778366,0.12684062123298645
5.301436901092529,0.04634927958250046,-0.892080545425415,0.7860303521156311,0.6712062358856201,0.07839322835206985,0.12607766687870026
5.321482181549072,0.04634927958250046,-0.8924620151519775,0.7875562906265259,0.6719691753387451,0.07839322835206985,0.12531471252441406
5.341562747955322,0.04634927958250046,-0.8939879536628723,0.7890821695327759,0.6727321147918701,0.07915617525577545,0.12455176562070847
5.3616907596588135,0.04634927958250046,-0.8947508931159973,0.7902265787124634,0.6731135845184326,0.08144503086805344,0.12378881871700287
5.381717205047607,0.04634927958250046,-0.8958953022956848,0.7906080484390259,0.6738765835762024,0.08106355369091034,0.12378881871700287
5.4018714427948,0.04634927958250046,-0.8966583013534546,0.7917525172233582,0.6742580533027649,0.07953765243291855,0.12302586436271667
5.421886205673218,0.04634927958250046,-0.8981841802597046,0.7925154566764832,0.6742580533027649,0.07991912961006165,0.12302586436271667
5.44205379486084,0.04634927958250046,-0.8985656499862671,0.7940413355827332,0.6746395230293274,0.07991912961006165,0.12264438718557358
5.46207070350647,0.04634927958250046,-0.8989471197128296,0.7948042750358582,0.6754024624824524,0.08144503086805344,0.12188144028186798
5.4822142124176025,0.04634927958250046,-0.8997100591659546,0.7959487438201904,0.6757839322090149,0.08182650804519653,0.12149996310472488
5.502231597900391,0.04634927958250046,-0.9000915288925171,0.7963302135467529,0.6761654019355774,0.08297093212604523,0.12073700875043869
5.522302865982056,0.04634927958250046,-0.9008545279502869,0.7963302135467529,0.6765468716621399,0.08373387902975082,0.1203555315732956
5.5423808097839355,0.04634927958250046,-0.9012359976768494,0.7967116832733154,0.6765468716621399,0.08297093212604523,0.1203555315732956
5.562449932098389,0.04596780240535736,-0.9023804068565369,0.7978560924530029,0.6769283413887024,0.08220797777175903,0.1203555315732956
5.582528114318848,0.04596780240535736,-0.9031433463096619,0.7986190319061279,0.6769283413887024,0.08297093212604523,0.1199740618467331
5.602580785751343,0.04558632895350456,-0.9035248160362244,0.7990005612373352,0.6773098111152649,0.08297093212604523,0.1199740618467331
5.622697591781616,0.04558632895350456,-0.9042877554893494,0.8001449704170227,0.6773098111152649,0.08182650804519653,0.11959258466959
5.642868995666504,0.045204851776361465,-0.9046692848205566,0.8009079098701477,0.6773098111152649,0.08297093212604523,0.1192111074924469
5.662870645523071,0.04444190114736557,-0.9054322242736816,0.8020523190498352,0.6776912808418274,0.08258945494890213,0.1188296303153038
5.682943344116211,0.04406042397022247,-0.9058136940002441,0.8020523190498352,0.6776912808418274,0.08220797777175903,0.1184481605887413
5.703064441680908,0.04406042397022247,-0.9061951637268066,0.802815318107605,0.6776912808418274,0.08182650804519653,0.1180666834115982
5.723149299621582,0.043678950518369675,-0.9073395729064941,0.8039597272872925,0.6780728101730347,0.08182650804519653,0.11730372905731201
5.743306636810303,0.043678950518369675,-0.9084840416908264,0.8047226667404175,0.6780728101730347,0.08220797777175903,0.11692225188016891
5.763391971588135,0.04329747334122658,-0.9092469811439514,0.805867075920105,0.6784542798995972,0.08258945494890213,0.11615930497646332
5.783499479293823,0.04329747334122658,-0.9100099205970764,0.80663001537323,0.6788357496261597,0.08220797777175903,0.11615930497646332
5.803551197052002,0.04329747334122658,-0.9115357995033264,0.8081559538841248,0.6792172193527222,0.08220797777175903,0.11577782779932022
5.823612213134766,0.04329747334122658,-0.9130617380142212,0.8093003630638123,0.6803616285324097,0.08258945494890213,0.11577782779932022
5.843655824661255,0.04329747334122658,-0.9142061471939087,0.810826301574707,0.6807430982589722,0.08297093212604523,0.11577782779932022
5.86379337310791,0.04329747334122658,-0.9149690866470337,0.812352180480957,0.6811245679855347,0.08335240930318832,0.11539635062217712
5.883859157562256,0.04329747334122658,-0.9157320261001587,0.813115119934082,0.6811245679855347,0.08297093212604523,0.11501488089561462
5.90391731262207,0.04329747334122658,-0.916876494884491,0.8142595291137695,0.6815060377120972,0.08258945494890213,0.11501488089561462
5.9240007400512695,0.04329747334122658,-0.917639434337616,0.8154039978981018,0.6818875670433044,0.08297093212604523,0.11463340371847153
5.944090366363525,0.04329747334122658,-0.9187838435173035,0.8165484070777893,0.6822690367698669,0.08335240930318832,0.11425192654132843
5.9641571044921875,0.04329747334122658,-0.9195467829704285,0.8173113465309143,0.6826505064964294,0.08335240930318832,0.11348897218704224
5.984264850616455,0.04329747334122658,-0.9203097820281982,0.8173113465309143,0.6830319762229919,0.08297093212604523,0.11348897218704224
6.004303932189941,0.04329747334122658,-0.9210727214813232,0.8184558153152466,0.6837949156761169,0.08220797777175903,0.11348897218704224
6.024415016174316,0.04329747334122658,-0.9222171306610107,0.8184558153152466,0.6841763854026794,0.08220797777175903,0.11272602528333664
6.044447422027588,0.04329747334122658,-0.9229800701141357,0.8192187547683716,0.6841763854026794,0.08220797777175903,0.11272602528333664
6.06451940536499,0.04329747334122658,-0.9237430095672607,0.8192187547683716,0.6841763854026794,0.08182650804519653,0.11234454810619354
6.084569931030273,0.04291599988937378,-0.924124538898468,0.8192187547683716,0.6845578551292419,0.08258945494890213,0.11234454810619354
6.104682683944702,0.04291599988937378,-0.924887478351593,0.8199816942214966,0.6845578551292419,0.08220797777175903,0.11196307092905045
6.124772548675537,0.04291599988937378,-0.925650417804718,0.8203631639480591,0.6845578551292419,0.08258945494890213,0.11158160120248795
6.144821643829346,0.04291599988937378,-0.9260318875312805,0.8207446336746216,0.6845578551292419,0.08258945494890213,0.11120012402534485
6.164903163909912,0.04253452271223068,-0.926413357257843,0.8211261034011841,0.6845578551292419,0.08220797777175903,0.11081864684820175
6.1849610805511475,0.042153049260377884,-0.9279392957687378,0.8226520419120789,0.6849393248558044,0.08258945494890213,0.11005569249391556
6.205030679702759,0.042153049260377884,-0.9298466444015503,0.8237964510917664,0.6853207945823669,0.08335240930318832,0.10929274559020996
6.22507381439209,0.042153049260377884,-0.9313725233078003,0.8253223299980164,0.6853207945823669,0.08373387902975082,0.10891126841306686
6.245159149169922,0.042153049260377884,-0.9325169920921326,0.8260852694511414,0.6857023239135742,0.08487831056118011,0.10852979123592377
6.265224933624268,0.04177157208323479,-0.9340428709983826,0.8268482685089111,0.6860837936401367,0.08487831056118011,0.10776684433221817
6.2853102684021,0.04139009863138199,-0.9355688095092773,0.8276112079620361,0.6868467330932617,0.08564125746488571,0.10738536715507507
6.305375337600708,0.04139009863138199,-0.9363317489624023,0.8287556171417236,0.6872282028198242,0.08564125746488571,0.10662241280078888
6.3254477977752686,0.04139009863138199,-0.9367132186889648,0.8295185565948486,0.6876096725463867,0.08564125746488571,0.10662241280078888
6.345509052276611,0.04139009863138199,-0.9374761581420898,0.8306630253791809,0.6879911422729492,0.08564125746488571,0.10624094307422638
6.365550756454468,0.04100862145423889,-0.9378576278686523,0.8314259648323059,0.6883726119995117,0.08564125746488571,0.10585946589708328
6.385735988616943,0.04139009863138199,-0.9386205673217773,0.8325703740119934,0.6883726119995117,0.08602273464202881,0.10585946589708328
6.405754089355469,0.04139009863138199,-0.9390020370483398,0.8333333134651184,0.6883726119995117,0.08564125746488571,0.10585946589708328
6.425816774368286,0.04139009863138199,-0.9397650361061096,0.8340963125228882,0.6883726119995117,0.086785688996315,0.10547798871994019
6.445889234542847,0.04139009863138199,-0.9401465058326721,0.8352407217025757,0.6883726119995117,0.0871671661734581,0.10509651154279709
6.466077566146851,0.04139009863138199,-0.9405279755592346,0.8360036611557007,0.6887540817260742,0.0871671661734581,0.10509651154279709
6.486158847808838,0.04139009863138199,-0.9412909150123596,0.8367666006088257,0.6887540817260742,0.0875486359000206,0.10471503436565399
6.506235361099243,0.04100862145423889,-0.9416723847389221,0.8371480703353882,0.6891355514526367,0.0879301130771637,0.10471503436565399
6.526299715042114,0.04100862145423889,-0.9424353241920471,0.837911069393158,0.689517080783844,0.0871671661734581,0.10509651154279709
6.546430587768555,0.04100862145423889,-0.9431982636451721,0.8382925391197205,0.6898985505104065,0.0871671661734581,0.10471503436565399
6.566457509994507,0.04100862145423889,-0.9439612627029419,0.8390554785728455,0.691042959690094,0.086785688996315,0.10471503436565399
6.586525201797485,0.04100862145423889,-0.9447242021560669,0.8398184180259705,0.6914244294166565,0.0871671661734581,0.10433356463909149
6.606765985488892,0.04100862145423889,-0.9447242021560669,0.840962827205658,0.691805899143219,0.086785688996315,0.1039520874619484
6.62685489654541,0.04100862145423889,-0.9458686113357544,0.841725766658783,0.6921873688697815,0.0871671661734581,0.1035706102848053
6.64691686630249,0.04100862145423889,-0.9466315507888794,0.8428702354431152,0.692568838596344,0.0875486359000206,0.1028076633810997
6.666992664337158,0.04100862145423889,-0.9470130205154419,0.8432517051696777,0.692568838596344,0.086785688996315,0.10204470902681351
6.687061786651611,0.04100862145423889,-0.9481574892997742,0.8440146446228027,0.6929503083229065,0.0864042118191719,0.10204470902681351
6.70723819732666,0.04100862145423889,-0.9489204287528992,0.8443961143493652,0.693331778049469,0.086785688996315,0.10166323184967041
6.727252006530762,0.04100862145423889,-0.9496833682060242,0.84592205286026,0.6940947771072388,0.0864042118191719,0.10166323184967041
6.747327566146851,0.040627144277095795,-0.9500648379325867,0.8463035225868225,0.6948577165603638,0.0864042118191719,0.10128175467252731
6.767409563064575,0.040245670825242996,-0.9508277773857117,0.8470664620399475,0.6952391862869263,0.086785688996315,0.10090028494596481
6.787524938583374,0.040245670825242996,-0.9515907764434814,0.8478294014930725,0.6956206560134888,0.086785688996315,0.10090028494596481
6.807547569274902,0.040245670825242996,-0.9523537158966064,0.8485923409461975,0.6960021257400513,0.086785688996315,0.10090028494596481
6.82761812210083,0.040245670825242996,-0.952735185623169,0.8485923409461975,0.6960021257400513,0.0864042118191719,0.10051880776882172
6.847687244415283,0.040245670825242996,-0.9538795948028564,0.8497368097305298,0.6960021257400513,0.08564125746488571,0.10051880776882172
6.867756605148315,0.040245670825242996,-0.9546425342559814,0.8504997491836548,0.6963835954666138,0.0864042118191719,0.09975585341453552
6.887799978256226,0.040245670825242996,-0.955024003982544,0.8512626886367798,0.6967650651931763,0.0864042118191719,0.09937438368797302
6.90788197517395,0.040245670825242996,-0.9554055333137512,0.8520256280899048,0.6967650651931763,0.0864042118191719,0.09899290651082993
6.9279420375823975,0.040245670825242996,-0.9561684727668762,0.8527885675430298,0.697528064250946,0.086785688996315,0.09861142933368683
6.948076009750366,0.0398641936480999,-0.9569314122200012,0.8535515666007996,0.6979095339775085,0.0864042118191719,0.09861142933368683
6.968242406845093,0.0398641936480999,-0.9573128819465637,0.8535515666007996,0.698291003704071,0.0864042118191719,0.09822995215654373
6.988224267959595,0.0398641936480999,-0.9580758213996887,0.8543145060539246,0.6986724734306335,0.0864042118191719,0.09822995215654373
7.008291721343994,0.0398641936480999,-0.9588387608528137,0.8554589152336121,0.699053943157196,0.0864042118191719,0.09784847497940063
7.028368711471558,0.0398641936480999,-0.959220290184021,0.8558403849601746,0.699053943157196,0.086785688996315,0.09784847497940063
7.048476219177246,0.0398641936480999,-0.9603646993637085,0.8566033244132996,0.6994354128837585,0.0864042118191719,0.09784847497940063
7.068526268005371,0.039101243019104004,-0.9611276388168335,0.8577477931976318,0.6994354128837585,0.0871671661734581,0.09746700525283813
7.088601589202881,0.039101243019104004,-0.961509108543396,0.8585107326507568,0.6994354128837585,0.0871671661734581,0.09708552807569504
7.108655691146851,0.039101243019104004,-0.962272047996521,0.8588922023773193,0.699816882610321,0.086785688996315,0.09708552807569504
7.12873911857605,0.039101243019104004,-0.9630350470542908,0.8596551418304443,0.699816882610321,0.086785688996315,0.09708552807569504
7.1487977504730225,0.039101243019104004,-0.9634165167808533,0.8604180812835693,0.7001983523368835,0.086785688996315,0.09670405089855194
7.168838739395142,0.039101243019104004,-0.9641794562339783,0.8607995510101318,0.7001983523368835,0.086785688996315,0.09632257372140884
7.188922166824341,0.039101243019104004,-0.9645609259605408,0.8615625500679016,0.700579822063446,0.086785688996315,0.09555962681770325
7.208991765975952,0.039101243019104004,-0.9653238654136658,0.8619440197944641,0.700579822063446,0.086785688996315,0.09479667246341705
7.229062080383301,0.039101243019104004,-0.9653238654136658,0.8619440197944641,0.700579822063446,0.086785688996315,0.09479667246341705
7.249171018600464,0.039101243019104004,-0.9668498039245605,0.8630884289741516,0.7017242908477783,0.0871671661734581,0.09403372555971146
7.269276857376099,0.039101243019104004,-0.967231273651123,0.8638513684272766,0.7024872303009033,0.086785688996315,0.09403372555971146
7.2893242835998535,0.039101243019104004,-0.9683756828308105,0.8646143078804016,0.7028687000274658,0.086785688996315,0.09403372555971146
7.3093695640563965,0.039101243019104004,-0.968757152557373,0.8653773069381714,0.7028687000274658,0.0871671661734581,0.09365224838256836
7.3294517993927,0.039101243019104004,-0.9691386222839355,0.8661402463912964,0.7028687000274658,0.0864042118191719,0.09327077120542526
7.3496716022491455,0.039101243019104004,-0.9699015617370605,0.8665217161178589,0.7032501697540283,0.0879301130771637,0.09288929402828217
7.3696253299713135,0.038719769567251205,-0.9706645011901855,0.8672846555709839,0.7032501697540283,0.0879301130771637,0.09250781685113907
7.389700651168823,0.038719769567251205,-0.9710460305213928,0.8680475950241089,0.7036316394805908,0.0871671661734581,0.09212634712457657
7.409745931625366,0.038719769567251205,-0.9718089699745178,0.8684290647506714,0.7040131092071533,0.0875486359000206,0.09174486994743347
7.429853916168213,0.03833829239010811,-0.9721904397010803,0.8688105344772339,0.7040131092071533,0.086785688996315,0.09136339277029037
7.449939489364624,0.03833829239010811,-0.9729533791542053,0.8695735335350037,0.7043945789337158,0.0871671661734581,0.09098191559314728
7.469996452331543,0.03795681521296501,-0.9737163186073303,0.8703364729881287,0.7047760486602783,0.0871671661734581,0.09098191559314728
7.490096569061279,0.03795681521296501,-0.9740977883338928,0.8707179427146912,0.7051575779914856,0.0871671661734581,0.09098191559314728
7.510148048400879,0.03795681521296501,-0.9748607873916626,0.8714808821678162,0.7055390477180481,0.086785688996315,0.09060044586658478
7.530217170715332,0.03795681521296501,-0.9756237268447876,0.8730067610740662,0.7059205174446106,0.0875486359000206,0.09060044586658478
7.550275087356567,0.03795681521296501,-0.9760051965713501,0.8733882904052734,0.7063019871711731,0.08869306743144989,0.09021896868944168
7.5703444480896,0.03795681521296501,-0.9760051965713501,0.8733882904052734,0.7063019871711731,0.0879301130771637,0.09021896868944168
7.5904364585876465,0.03795681521296501,-0.9771496057510376,0.8745326995849609,0.7063019871711731,0.0879301130771637,0.08983749151229858
7.61047887802124,0.03795681521296501,-0.9779125452041626,0.8752956390380859,0.7066834568977356,0.08869306743144989,0.08945601433515549
7.630554437637329,0.03795681521296501,-0.9782940149307251,0.8752956390380859,0.7066834568977356,0.0879301130771637,0.08945601433515549
7.650620460510254,0.03795681521296501,-0.9790570139884949,0.8760585784912109,0.7066834568977356,0.0875486359000206,0.08907453715801239
7.670704126358032,0.03795681521296501,-0.9798199534416199,0.8772030472755432,0.7066834568977356,0.0879301130771637,0.08869306743144989
7.690759181976318,0.03795681521296501,-0.9802014231681824,0.8775845170021057,0.7070649266242981,0.0883115902543068,0.0879301130771637
7.710856676101685,0.03795681521296501,-0.9809643626213074,0.8779659867286682,0.7070649266242981,0.0883115902543068,0.0871671661734581
7.730926990509033,0.03795681521296501,-0.9817273020744324,0.8787289261817932,0.7070649266242981,0.0879301130771637,0.0871671661734581
7.751010417938232,0.03757534176111221,-0.9821087718009949,0.8794918656349182,0.7074463963508606,0.0883115902543068,0.086785688996315
7.771077871322632,0.037193864583969116,-0.9824903011322021,0.8794918656349182,0.7074463963508606,0.0883115902543068,0.0864042118191719
7.791139602661133,0.037193864583969116,-0.9832532405853271,0.8806362748146057,0.7078278660774231,0.0883115902543068,0.0864042118191719
7.811206102371216,0.037193864583969116,-0.9840161800384521,0.881017804145813,0.7082093358039856,0.08869306743144989,0.08602273464202881
7.831262111663818,0.03681239113211632,-0.9840161800384521,0.8813992738723755,0.7082093358039856,0.0883115902543068,0.08602273464202881
7.851340293884277,0.03681239113211632,-0.9847791194915771,0.881780743598938,0.7089722752571106,0.0883115902543068,0.08564125746488571
7.871466398239136,0.03681239113211632,-0.9855420589447021,0.8829251527786255,0.7089722752571106,0.0883115902543068,0.08564125746488571
7.891509294509888,0.03681239113211632,-0.9863049983978271,0.883306622505188,0.7097352743148804,0.08907453715801239,0.08487831056118011
7.911606788635254,0.03681239113211632,-0.9863049983978271,0.8836880922317505,0.7101167440414429,0.08869306743144989,0.08487831056118011
7.931637763977051,0.03681239113211632,-0.9874494671821594,0.8848325610160828,0.7104982137680054,0.08869306743144989,0.08449683338403702
7.951720952987671,0.03681239113211632,-0.9878309369087219,0.8852140307426453,0.7104982137680054,0.08945601433515549,0.08373387902975082
7.97188138961792,0.03681239113211632,-0.9882124066352844,0.8855955004692078,0.7108796834945679,0.08945601433515549,0.08335240930318832
7.991907596588135,0.03681239113211632,-0.9885938763618469,0.8859769701957703,0.7108796834945679,0.08869306743144989,0.08335240930318832
8.01200532913208,0.03681239113211632,-0.9893568158149719,0.8867399096488953,0.7108796834945679,0.08869306743144989,0.08297093212604523
8.032079696655273,0.03681239113211632,-0.9901197552680969,0.8875028491020203,0.7112611532211304,0.08945601433515549,0.08297093212604523
8.052263498306274,0.03681239113211632,-0.9905012845993042,0.8878843188285828,0.7112611532211304,0.08907453715801239,0.08297093212604523
8.07233190536499,0.03681239113211632,-0.9905012845993042,0.8882657885551453,0.7116426229476929,0.08907453715801239,0.08258945494890213
8.092396259307861,0.03643091395497322,-0.9912642240524292,0.8894102573394775,0.7116426229476929,0.08907453715801239,0.08258945494890213
8.112494707107544,0.03604944050312042,-0.9920271635055542,0.88979172706604,0.7120240926742554,0.08983749151229858,0.08220797777175903
8.132553577423096,0.03604944050312042,-0.9924086332321167,0.8901731967926025,0.7127870321273804,0.08945601433515549,0.08220797777175903
8.152629137039185,0.03604944050312042,-0.9931715726852417,0.890554666519165,0.7131685614585876,0.08907453715801239,0.08220797777175903
8.172704219818115,0.03604944050312042,-0.9935530424118042,0.89131760597229,0.7131685614585876,0.08869306743144989,0.08182650804519653
8.192769289016724,0.03604944050312042,-0.994316041469574,0.892080545425415,0.7135500311851501,0.08869306743144989,0.08182650804519653
8.212834358215332,0.03604944050312042,-0.994316041469574,0.892080545425415,0.7139315009117126,0.08945601433515549,0.08144503086805344
8.232955932617188,0.03604944050312042,-0.995078980922699,0.8932250142097473,0.7139315009117126,0.08945601433515549,0.08106355369091034
8.252990245819092,0.03604944050312042,-0.9954604506492615,0.8936064839363098,0.7139315009117126,0.08983749151229858,0.08068207651376724
8.273059844970703,0.03604944050312042,-0.996604859828949,0.8939879536628723,0.7139315009117126,0.08945601433515549,0.07991912961006165
8.293166160583496,0.03604944050312042,-0.996604859828949,0.8943694233894348,0.7143129706382751,0.08945601433515549,0.07991912961006165
8.313190937042236,0.03604944050312042,-0.9977492690086365,0.8951323628425598,0.7143129706382751,0.08869306743144989,0.07953765243291855
8.333276271820068,0.03604944050312042,-0.9981307983398438,0.8955138325691223,0.7143129706382751,0.08945601433515549,0.07915617525577545
8.353350400924683,0.03604944050312042,-0.9985122680664062,0.8962767720222473,0.7146944403648376,0.08945601433515549,0.07877469807863235
8.373435497283936,0.03604944050312042,-0.9985122680664062,0.8966583013534546,0.7146944403648376,0.08945601433515549,0.07877469807863235
8.39354157447815,0.03604944050312042,-0.9996566772460938,0.8974212408065796,0.7146944403648376,0.08945601433515549,0.07877469807863235
8.413605690002441,0.03604944050312042,-1.0000381469726562,0.8978027105331421,0.7150759100914001,0.09021896868944168,0.07839322835206985
8.4336576461792,0.03604944050312042,-1.0004196166992188,0.8981841802597046,0.7150759100914001,0.09021896868944168,0.07839322835206985
8.45370364189148,0.03604944050312042,-1.0008010864257812,0.8985656499862671,0.7150759100914001,0.08945601433515549,0.07801175117492676
8.473785400390625,0.03604944050312042,-1.0015640258789062,0.8993285894393921,0.7154573798179626,0.08907453715801239,0.07801175117492676
8.49385666847229,0.03604944050312042,-1.0019454956054688,0.9000915288925171,0.7158388495445251,0.09021896868944168,0.07724879682064056
8.513919830322266,0.03604944050312042,-1.0027084350585938,0.9004730582237244,0.7158388495445251,0.08983749151229858,0.07686731964349747
8.533992767333984,0.03604944050312042,-1.0027084350585938,0.9012359976768494,0.7166017889976501,0.08983749151229858,0.07686731964349747
8.554057836532593,0.03604944050312042,-1.0034713745117188,0.9016174674034119,0.7169833183288574,0.08983749151229858,0.07648584991693497
8.574185132980347,0.035667963325977325,-1.0038528442382812,0.9023804068565369,0.7173647880554199,0.08983749151229858,0.07572289556264877
8.594171285629272,0.035667963325977325,-1.0046159029006958,0.9023804068565369,0.7177462577819824,0.09021896868944168,0.07534141838550568
8.614241361618042,0.035667963325977325,-1.0049973726272583,0.9031433463096619,0.7177462577819824,0.08983749151229858,0.07534141838550568
8.634362936019897,0.035667963325977325,-1.0057603120803833,0.9035248160362244,0.7177462577819824,0.08983749151229858,0.07534141838550568
8.654398918151855,0.035667963325977325,-1.0057603120803833,0.9042877554893494,0.7181277275085449,0.08983749151229858,0.07495994865894318
8.674458026885986,0.03528648987412453,-1.0061417818069458,0.9046692848205566,0.7181277275085449,0.09021896868944168,0.07457847148180008
8.6945321559906,0.03528648987412453,-1.0065232515335083,0.9050507545471191,0.7185091972351074,0.09021896868944168,0.07457847148180008
8.714657306671143,0.03528648987412453,-1.0069047212600708,0.9058136940002441,0.7185091972351074,0.09060044586658478,0.07419699430465698
8.734692096710205,0.03490501269698143,-1.0076676607131958,0.9061951637268066,0.7188906669616699,0.08983749151229858,0.07419699430465698
8.754768371582031,0.03490501269698143,-1.0080491304397583,0.9065766334533691,0.7192721366882324,0.09021896868944168,0.07419699430465698
8.774848461151123,0.03490501269698143,-1.0080491304397583,0.9069581031799316,0.7192721366882324,0.09021896868944168,0.07381551712751389
8.794913530349731,0.03490501269698143,-1.0088120698928833,0.9077210426330566,0.7196536064147949,0.08983749151229858,0.07381551712751389
8.815011501312256,0.03490501269698143,-1.0095750093460083,0.9084840416908264,0.7200350761413574,0.09060044586658478,0.07343403995037079
8.835084438323975,0.03490501269698143,-1.0099564790725708,0.9088655114173889,0.7204165458679199,0.09136339277029037,0.07305257022380829
8.855167150497437,0.03490501269698143,-1.0099564790725708,0.9092469811439514,0.7204165458679199,0.09098191559314728,0.07267109304666519
8.875266075134277,0.03490501269698143,-1.0107194185256958,0.9100099205970764,0.7207980751991272,0.09060044586658478,0.0722896158695221
8.895330667495728,0.03490501269698143,-1.0111008882522583,0.9103913903236389,0.7211795449256897,0.09098191559314728,0.071908138692379
8.91540241241455,0.03490501269698143,-1.0118639469146729,0.9103913903236389,0.7211795449256897,0.09060044586658478,0.071908138692379
8.935485363006592,0.03490501269698143,-1.0122454166412354,0.9111543297767639,0.7211795449256897,0.09098191559314728,0.0715266615152359
8.955570936203003,0.03452353551983833,-1.0130083560943604,0.9119172692298889,0.7211795449256897,0.09060044586658478,0.0715266615152359
8.975602388381958,0.03452353551983833,-1.0130083560943604,0.9119172692298889,0.7215610146522522,0.09098191559314728,0.0715266615152359
8.995710849761963,0.03452353551983833,-1.0130083560943604,0.9122987985610962,0.7215610146522522,0.09060044586658478,0.0711451917886734
9.015840768814087,0.03376058489084244,-1.0141527652740479,0.9126802682876587,0.7215610146522522,0.09098191559314728,0.0711451917886734
9.035861253738403,0.03376058489084244,-1.0145342350006104,0.9138246774673462,0.7219424843788147,0.09212634712457657,0.0707637146115303
9.055985689163208,0.03376058489084244,-1.0149157047271729,0.9138246774673462,0.7219424843788147,0.09212634712457657,0.0707637146115303
9.076024770736694,0.03376058489084244,-1.0149157047271729,0.9142061471939087,0.7219424843788147,0.09174486994743347,0.07038223743438721
9.096097469329834,0.03376058489084244,-1.0152971744537354,0.9145876169204712,0.7219424843788147,0.09098191559314728,0.07038223743438721
9.116158723831177,0.03376058489084244,-1.0160601139068604,0.9149690866470337,0.7223239541053772,0.09136339277029037,0.07000076025724411
9.136321067810059,0.03376058489084244,-1.0168230533599854,0.916113555431366,0.7223239541053772,0.09174486994743347,0.07000076025724411
9.156336545944214,0.03376058489084244,-1.0172045230865479,0.9164950251579285,0.7223239541053772,0.09212634712457657,0.06923781335353851
9.176426410675049,0.03376058489084244,-1.0172045230865479,0.916876494884491,0.7227054238319397,0.09136339277029037,0.06885633617639542
9.196495771408081,0.03376058489084244,-1.0179674625396729,0.916876494884491,0.7230868935585022,0.09136339277029037,0.06847485899925232
9.216567516326904,0.03376058489084244,-1.0183489322662354,0.9180209040641785,0.7230868935585022,0.09174486994743347,0.06809338182210922
9.236734867095947,0.03376058489084244,-1.0191118717193604,0.918402373790741,0.7234683632850647,0.09174486994743347,0.06771191209554672
9.256721258163452,0.03376058489084244,-1.0191118717193604,0.9187838435173035,0.7238498330116272,0.09136339277029037,0.06771191209554672
9.276796102523804,0.03376058489084244,-1.0194933414459229,0.9187838435173035,0.7242313027381897,0.09136339277029037,0.06733043491840363
9.296864032745361,0.03376058489084244,-1.019874930381775,0.919165313243866,0.7249943017959595,0.09136339277029037,0.06733043491840363
9.316935062408447,0.03376058489084244,-1.0202564001083374,0.9203097820281982,0.7249943017959595,0.09174486994743347,0.06694895774126053
9.337012767791748,0.03376058489084244,-1.0210193395614624,0.9206912517547607,0.725375771522522,0.09174486994743347,0.06694895774126053
9.35707712173462,0.03376058489084244,-1.021400809288025,0.9210727214813232,0.725375771522522,0.09136339277029037,0.06694895774126053
9.377147436141968,0.03376058489084244,-1.021400809288025,0.9210727214813232,0.725375771522522,0.09136339277029037,0.06656748056411743
9.39719557762146,0.03376058489084244,-1.0217822790145874,0.9214541912078857,0.725375771522522,0.09136339277029037,0.06656748056411743
9.417304039001465,0.03376058489084244,-1.0225452184677124,0.9225986003875732,0.725375771522522,0.09136339277029037,0.06618601083755493
9.437390804290771,0.03376058489084244,-1.0225452184677124,0.9229800701141357,0.7257572412490845,0.09212634712457657,0.06542305648326874
9.45741319656372,0.03376058489084244,-1.022926688194275,0.9229800701141357,0.7257572412490845,0.09174486994743347,0.06504157930612564
9.477485179901123,0.03376058489084244,-1.0233081579208374,0.9233615398406982,0.7257572412490845,0.09212634712457657,0.06466010212898254
9.497556686401367,0.03376058489084244,-1.0240710973739624,0.924124538898468,0.7257572412490845,0.09174486994743347,0.06466010212898254
9.517659425735474,0.03376058489084244,-1.024452567100525,0.9245060086250305,0.726138710975647,0.09174486994743347,0.06427863240242004
9.537750482559204,0.03376058489084244,-1.0248340368270874,0.9245060086250305,0.726138710975647,0.09174486994743347,0.06427863240242004
9.557826280593872,0.03376058489084244,-1.02521550655365,0.924887478351593,0.726138710975647,0.09136339277029037,0.06427863240242004
9.577868223190308,0.03376058489084244,-1.0255969762802124,0.925650417804718,0.7265201807022095,0.09174486994743347,0.06389715522527695
9.597938060760498,0.03376058489084244,-1.0255969762802124,0.9260318875312805,0.726901650428772,0.09136339277029037,0.06389715522527695
9.618030548095703,0.03376058489084244,-1.0263599157333374,0.926413357257843,0.726901650428772,0.09174486994743347,0.06351567804813385
9.63821530342102,0.03376058489084244,-1.0267413854599,0.927176296710968,0.7272831201553345,0.09250781685113907,0.06351567804813385
9.658366680145264,0.03376058489084244,-1.0271228551864624,0.927176296710968,0.727664589881897,0.09250781685113907,0.06351567804813385
9.6783766746521,0.03376058489084244,-1.0275044441223145,0.927176296710968,0.7280460596084595,0.09250781685113907,0.06313420087099075
9.698506116867065,0.03376058489084244,-1.027885913848877,0.9283207654953003,0.7280460596084595,0.09212634712457657,0.06313420087099075
9.718552827835083,0.03376058489084244,-1.028648853302002,0.9283207654953003,0.728427529335022,0.09212634712457657,0.06275273114442825
9.738752841949463,0.03337911143898964,-1.028648853302002,0.9290837049484253,0.7288090586662292,0.09288929402828217,0.06275273114442825
9.758896827697754,0.03337911143898964,-1.0290303230285645,0.9290837049484253,0.7288090586662292,0.09288929402828217,0.06275273114442825
9.778992891311646,0.03299763426184654,-1.029411792755127,0.9294651746749878,0.7288090586662292,0.09250781685113907,0.06237125024199486
9.799110174179077,0.03299763426184654,-1.0297932624816895,0.9302281141281128,0.7288090586662292,0.09250781685113907,0.06237125024199486
9.819133758544922,0.03299763426184654,-1.030174732208252,0.9306095838546753,0.7291905283927917,0.09174486994743347,0.06160829961299896
9.839227676391602,0.03299763426184654,-1.0305562019348145,0.9313725233078003,0.7291905283927917,0.09174486994743347,0.061226826161146164
9.859368562698364,0.03299763426184654,-1.030937671661377,0.9313725233078003,0.7291905283927917,0.09212634712457657,0.06084534898400307
9.879492044448853,0.03299763426184654,-1.0313191413879395,0.9317540526390076,0.7291905283927917,0.09212634712457657,0.06046387553215027
9.899506092071533,0.03299763426184654,-1.031700611114502,0.9321355223655701,0.7295719981193542,0.09212634712457657,0.06046387553215027
9.91952633857727,0.03299763426184654,-1.031700611114502,0.9328984618186951,0.7295719981193542,0.09212634712457657,0.06008239835500717
9.939607858657837,0.03299763426184654,-1.0320820808410645,0.9332799315452576,0.7295719981193542,0.09212634712457657,0.06008239835500717
9.959770917892456,0.03299763426184654,-1.0328450202941895,0.9336614012718201,0.7295719981193542,0.09250781685113907,0.05970092490315437
9.979771852493286,0.03299763426184654,-1.0328450202941895,0.9340428709983826,0.7299534678459167,0.09365224838256836,0.05970092490315437
9.999870777130127,0.03299763426184654,-1.0336079597473145,0.9344243407249451,0.7299534678459167,0.09250781685113907,0.05970092490315437
10.019969463348389,0.03299763426184654,-1.033989429473877,0.9348058104515076,0.7303349375724792,0.09288929402828217,0.059319447726011276
10.040016651153564,0.03299763426184654,-1.033989429473877,0.9348058104515076,0.7303349375724792,0.09250781685113907,0.059319447726011276
10.060070991516113,0.03299763426184654,-1.034752368927002,0.9355688095092773,0.7303349375724792,0.09250781685113907,0.05893797054886818
10.080215215682983,0.03299763426184654,-1.0351338386535645,0.9355688095092773,0.7307164072990417,0.09365224838256836,0.05855649709701538
10.10024094581604,0.032616160809993744,-1.0351338386535645,0.9359502792358398,0.7310978770256042,0.09327077120542526,0.058175019919872284
10.120302677154541,0.032616160809993744,-1.035896897315979,0.9363317489624023,0.7314793467521667,0.09250781685113907,0.057793546468019485
10.140371322631836,0.032616160809993744,-1.0362783670425415,0.9374761581420898,0.7318608164787292,0.09288929402828217,0.05741206929087639
10.160442113876343,0.032616160809993744,-1.036659836769104,0.9374761581420898,0.7322422862052917,0.09288929402828217,0.05703059583902359
10.18050742149353,0.032616160809993744,-1.036659836769104,0.9378576278686523,0.7322422862052917,0.09288929402828217,0.05664911866188049
10.20057201385498,0.032616160809993744,-1.0370413064956665,0.9378576278686523,0.732623815536499,0.09288929402828217,0.05664911866188049
10.220693826675415,0.032616160809993744,-1.0370413064956665,0.9386205673217773,0.7322422862052917,0.09212634712457657,0.05664911866188049
10.240763902664185,0.032616160809993744,-1.0378042459487915,0.9390020370483398,0.732623815536499,0.09327077120542526,0.056267641484737396
10.260828018188477,0.03223468363285065,-1.0378042459487915,0.9393835067749023,0.732623815536499,0.09288929402828217,0.056267641484737396
10.280952215194702,0.03185320645570755,-1.038185715675354,0.9397650361061096,0.732623815536499,0.09288929402828217,0.056267641484737396
10.301031589508057,0.03147173300385475,-1.0385671854019165,0.9397650361061096,0.7330052852630615,0.09288929402828217,0.0558861680328846
10.321128845214844,0.03147173300385475,-1.038948655128479,0.9405279755592346,0.7330052852630615,0.09288929402828217,0.0558861680328846
10.341190099716187,0.03147173300385475,-1.0393301248550415,0.9409094452857971,0.7330052852630615,0.09250781685113907,0.0558861680328846
10.361257553100586,0.03147173300385475,-1.039711594581604,0.9409094452857971,0.733386754989624,0.09250781685113907,0.0555046908557415
10.381355285644531,0.03185320645570755,-1.0400930643081665,0.9412909150123596,0.733386754989624,0.09327077120542526,0.0555046908557415
10.401434421539307,0.03185320645570755,-1.0400930643081665,0.9416723847389221,0.733386754989624,0.09327077120542526,0.0555046908557415
10.421544075012207,0.03185320645570755,-1.040474534034729,0.9420538544654846,0.733386754989624,0.09327077120542526,0.0551232174038887
10.441606283187866,0.03185320645570755,-1.041237473487854,0.9428167939186096,0.733386754989624,0.09327077120542526,0.0551232174038887
10.46172833442688,0.03185320645570755,-1.0416189432144165,0.9428167939186096,0.7337682247161865,0.09327077120542526,0.054741740226745605
10.481784343719482,0.03185320645570755,-1.0416189432144165,0.9431982636451721,0.7337682247161865,0.09288929402828217,0.054741740226745605
10.501872539520264,0.03147173300385475,-1.042000412940979,0.9431982636451721,0.734149694442749,0.09288929402828217,0.05436026677489281
10.521962881088257,0.03147173300385475,-1.042000412940979,0.9439612627029419,0.734149694442749,0.09288929402828217,0.05397878959774971
10.542021036148071,0.03147173300385475,-1.042000412940979,0.9439612627029419,0.734149694442749,0.09288929402828217,0.053215838968753815
10.562079668045044,0.03032730519771576,-1.0416189432144165,0.9451056718826294,0.7345311641693115,0.09288929402828217,0.05283436179161072
10.582124471664429,0.029182879254221916,-1.0408560037612915,0.9458686113357544,0.7345311641693115,0.09365224838256836,0.05245288833975792
10.602283477783203,0.02727550081908703,-1.0393301248550415,0.9462500810623169,0.734912633895874,0.09365224838256836,0.05245288833975792
10.622302770614624,0.024986648932099342,-1.0378042459487915,0.9473945498466492,0.7352941036224365,0.09288929402828217,0.05245288833975792
10.642399787902832,0.02193484455347061,-1.0355154275894165,0.9485389590263367,0.735675573348999,0.09327077120542526,0.05207141116261482
10.66246747970581,0.020027466118335724,-1.033226490020752,0.9496833682060242,0.7360570430755615,0.09212634712457657,0.05207141116261482
10.682521343231201,0.016594186425209045,-1.0313191413879395,0.9504463076591492,0.7364385724067688,0.09136339277029037,0.051689937710762024
10.702739238739014,0.013542382046580315,-1.0290303230285645,0.951209306716919,0.7364385724067688,0.09136339277029037,0.05130846053361893
10.722723245620728,0.011635004542768002,-1.0267413854599,0.9523537158966064,0.7364385724067688,0.08907453715801239,0.05092698708176613
10.74283742904663,0.008201723918318748,-1.0240710973739624,0.953498125076294,0.7364385724067688,0.08945601433515549,0.05092698708176613
10.76289677619934,0.00667582219466567,-1.0217822790145874,0.954261064529419,0.7364385724067688,0.08945601433515549,0.050164032727479935
10.783008813858032,0.002861066721379757,-1.0183489322662354,0.9557870030403137,0.7364385724067688,0.08983749151229858,0.04940108209848404
10.803067207336426,-0.0009536888683214784,-1.0156786441802979,0.9565499424934387,0.7364385724067688,0.09021896868944168,0.048638131469488144
10.8231041431427,-0.004005493130534887,-1.0137712955474854,0.9576943516731262,0.7364385724067688,0.08907453715801239,0.048256658017635345
10.843286275863647,-0.007438773289322853,-1.0114823579788208,0.9580758213996887,0.7372015118598938,0.0879301130771637,0.048638131469488144
10.863296747207642,-0.010109102353453636,-1.0091935396194458,0.9588387608528137,0.7368200421333313,0.086785688996315,0.048256658017635345
10.883361339569092,-0.013160906732082367,-1.0065232515335083,0.959983229637146,0.7372015118598938,0.08525978773832321,0.048256658017635345
10.90343952178955,-0.01506828423589468,-1.0038528442382812,0.960746169090271,0.7372015118598938,0.08564125746488571,0.04787518084049225
10.923507690429688,-0.019645990803837776,-1.0004196166992188,0.962272047996521,0.7368200421333313,0.086785688996315,0.04749370738863945
10.943609714508057,-0.02231631986796856,-0.997367799282074,0.9634165167808533,0.7372015118598938,0.0871671661734581,0.04749370738863945
10.963647365570068,-0.024986648932099342,-0.9954604506492615,0.9645609259605408,0.7368200421333313,0.0871671661734581,0.046730753034353256
10.983813285827637,-0.029182879254221916,-0.9927901029586792,0.9653238654136658,0.7372015118598938,0.0871671661734581,0.046730753034353256
11.003936529159546,-0.03032730519771576,-0.9908827543258667,0.9660868048667908,0.7372015118598938,0.08449683338403702,0.04634927958250046
11.023955345153809,-0.03528648987412453,-0.9878309369087219,0.967231273651123,0.7375829815864563,0.08487831056118011,0.04634927958250046
11.043998003005981,-0.03757534176111221,-0.9855420589447021,0.967994213104248,0.7375829815864563,0.08487831056118011,0.04596780240535736
11.0640709400177,-0.04100862145423889,-0.9832532405853271,0.968757152557373,0.7375829815864563,0.08525978773832321,0.04558632895350456
11.084131240844727,-0.04406042397022247,-0.9805828928947449,0.9699015617370605,0.7379644513130188,0.08525978773832321,0.045204851776361465
11.104279279708862,-0.04596780240535736,-0.9786755442619324,0.970283031463623,0.7379644513130188,0.08449683338403702,0.04482337832450867
11.124298572540283,-0.049782559275627136,-0.9763866662979126,0.9710460305213928,0.7383459210395813,0.08487831056118011,0.045204851776361465
11.14436936378479,-0.05130846053361893,-0.9737163186073303,0.9714275002479553,0.7383459210395813,0.08449683338403702,0.045204851776361465
11.164448976516724,-0.054741740226745605,-0.9710460305213928,0.9725719094276428,0.7387273907661438,0.08411535620689392,0.04482337832450867
11.18448543548584,-0.05741206929087639,-0.9691386222839355,0.9729533791542053,0.7391088604927063,0.08411535620689392,0.04482337832450867
11.204552173614502,-0.06008239835500717,-0.967231273651123,0.9740977883338928,0.7394903302192688,0.08297093212604523,0.04482337832450867
11.224672317504883,-0.06351567804813385,-0.9649423956871033,0.9752422571182251,0.7402533292770386,0.08106355369091034,0.04482337832450867
11.244669198989868,-0.06618601083755493,-0.9630350470542908,0.9756237268447876,0.7402533292770386,0.08106355369091034,0.04482337832450867
11.264754295349121,-0.06885633617639542,-0.960746169090271,0.9760051965713501,0.7406347990036011,0.07953765243291855,0.04482337832450867
11.284825325012207,-0.0715266615152359,-0.9596017599105835,0.9767681360244751,0.7406347990036011,0.07915617525577545,0.04444190114736557
11.304979085922241,-0.07343403995037079,-0.9569314122200012,0.9775310754776001,0.7406347990036011,0.07953765243291855,0.04444190114736557
11.325038194656372,-0.07572289556264877,-0.9538795948028564,0.9779125452041626,0.7410162687301636,0.07915617525577545,0.04444190114736557
11.345092058181763,-0.07839322835206985,-0.9523537158966064,0.9786755442619324,0.7410162687301636,0.07877469807863235,0.04406042397022247
11.365183353424072,-0.08068207651376724,-0.9504463076591492,0.9794384837150574,0.7410162687301636,0.07877469807863235,0.04406042397022247
11.385219812393188,-0.08297093212604523,-0.9489204287528992,0.9798199534416199,0.7410162687301636,0.07915617525577545,0.04329747334122658
11.405317068099976,-0.0864042118191719,-0.9473945498466492,0.9805828928947449,0.7410162687301636,0.07877469807863235,0.04329747334122658
11.425398349761963,-0.0875486359000206,-0.9458686113357544,0.9813458323478699,0.7413977384567261,0.07763027399778366,0.04291599988937378
11.445479393005371,-0.09021896868944168,-0.9439612627029419,0.9813458323478699,0.7417792081832886,0.07763027399778366,0.04253452271223068
11.465582370758057,-0.09327077120542526,-0.9412909150123596,0.9824903011322021,0.7421606779098511,0.07724879682064056,0.042153049260377884
11.48561978340149,-0.09479667246341705,-0.9393835067749023,0.9828717708587646,0.7425421476364136,0.07763027399778366,0.04139009863138199
11.505698204040527,-0.09708552807569504,-0.9378576278686523,0.9832532405853271,0.7429236173629761,0.07724879682064056,0.04139009863138199
11.525774240493774,-0.09899290651082993,-0.9363317489624023,0.9836347103118896,0.7433050870895386,0.07724879682064056,0.040627144277095795
11.545840501785278,-0.10128175467252731,-0.9351872801780701,0.9847791194915771,0.7433050870895386,0.07724879682064056,0.040627144277095795
11.565916061401367,-0.1024261862039566,-0.9336614012718201,0.9847791194915771,0.7436865568161011,0.07724879682064056,0.040627144277095795
11.58598017692566,-0.10509651154279709,-0.9321355223655701,0.9847791194915771,0.7436865568161011,0.07610437273979187,0.040627144277095795
11.60605263710022,-0.10776684433221817,-0.9306095838546753,0.9855420589447021,0.7440680265426636,0.07419699430465698,0.040627144277095795
11.626100301742554,-0.10929274559020996,-0.9290837049484253,0.9855420589447021,0.7440680265426636,0.07305257022380829,0.040245670825242996
11.646183252334595,-0.11120012402534485,-0.9275577664375305,0.9863049983978271,0.7444495558738708,0.0711451917886734,0.040245670825242996
11.666265964508057,-0.11387044936418533,-0.9260318875312805,0.9866865277290344,0.7444495558738708,0.071908138692379,0.0398641936480999
11.686329364776611,-0.11501488089561462,-0.9245060086250305,0.9870679974555969,0.7448310256004333,0.07305257022380829,0.0398641936480999
11.706454992294312,-0.11692225188016891,-0.9225986003875732,0.9870679974555969,0.7448310256004333,0.0722896158695221,0.0398641936480999
11.726490497589111,-0.1188296303153038,-0.9214541912078857,0.9874494671821594,0.7448310256004333,0.0715266615152359,0.0398641936480999
11.746562004089355,-0.12111848592758179,-0.9195467829704285,0.9878309369087219,0.7452124953269958,0.0715266615152359,0.0394827201962471
11.766605615615845,-0.12226291000843048,-0.918402373790741,0.9885938763618469,0.7455939650535583,0.0715266615152359,0.0394827201962471
11.786690473556519,-0.12417028844356537,-0.9172579646110535,0.9889753460884094,0.7463569045066833,0.0715266615152359,0.0394827201962471
11.806760787963867,-0.12569619715213776,-0.9164950251579285,0.9889753460884094,0.7471198439598083,0.0707637146115303,0.0394827201962471
11.826833009719849,-0.12760357558727264,-0.9145876169204712,0.9893568158149719,0.7475013136863708,0.07038223743438721,0.039101243019104004
11.846900463104248,-0.12951095402240753,-0.9130617380142212,0.9897382855415344,0.7478827834129333,0.07038223743438721,0.039101243019104004
11.866966485977173,-0.13141833245754242,-0.9122987985610962,0.9897382855415344,0.7478827834129333,0.0707637146115303,0.038719769567251205
11.887031555175781,-0.1325627565383911,-0.9111543297767639,0.9897382855415344,0.7482643127441406,0.07038223743438721,0.03795681521296501
11.907080888748169,-0.1348516047000885,-0.9100099205970764,0.9905012845993042,0.7482643127441406,0.07038223743438721,0.03795681521296501
11.927164077758789,-0.1363775134086609,-0.9088655114173889,0.9908827543258667,0.7482643127441406,0.07000076025724411,0.03795681521296501
11.947233438491821,-0.13790340721607208,-0.9081025123596191,0.9908827543258667,0.7486457824707031,0.06923781335353851,0.03795681521296501
11.967302322387695,-0.13866636157035828,-0.9061951637268066,0.9912642240524292,0.7486457824707031,0.06923781335353851,0.03757534176111221
11.987404108047485,-0.14057374000549316,-0.9054322242736816,0.9916456937789917,0.7486457824707031,0.06771191209554672,0.03757534176111221
12.007538557052612,-0.14171816408634186,-0.9042877554893494,0.9916456937789917,0.7490272521972656,0.06771191209554672,0.03757534176111221
12.027589082717896,-0.14324407279491425,-0.9031433463096619,0.9916456937789917,0.7494087219238281,0.06771191209554672,0.03757534176111221
12.047664403915405,-0.14400701224803925,-0.9019989371299744,0.9916456937789917,0.7494087219238281,0.06618601083755493,0.037193864583969116
12.067736387252808,-0.14591439068317413,-0.9008545279502869,0.9916456937789917,0.7497901916503906,0.06694895774126053,0.037193864583969116
12.087806463241577,-0.14667734503746033,-0.8997100591659546,0.9916456937789917,0.7501716613769531,0.06580453366041183,0.037193864583969116
12.10787582397461,-0.14858472347259521,-0.8985656499862671,0.9916456937789917,0.7509346008300781,0.06618601083755493,0.037193864583969116
12.12794303894043,-0.1497291475534439,-0.8978027105331421,0.9916456937789917,0.7513160705566406,0.06427863240242004,0.037193864583969116
12.148027181625366,-0.1512550562620163,-0.8970397710800171,0.9916456937789917,0.7513160705566406,0.06389715522527695,0.03681239113211632
12.168173789978027,-0.1527809500694275,-0.8958953022956848,0.9916456937789917,0.7516975402832031,0.06313420087099075,0.03681239113211632
12.188258171081543,-0.15392538905143738,-0.8943694233894348,0.9916456937789917,0.7516975402832031,0.06275273114442825,0.03643091395497322
12.208312034606934,-0.15545128285884857,-0.8932250142097473,0.9920271635055542,0.7516975402832031,0.06313420087099075,0.03643091395497322
12.228385925292969,-0.15659570693969727,-0.8916990756988525,0.9920271635055542,0.7516975402832031,0.06351567804813385,0.03643091395497322
12.248491764068604,-0.15812161564826965,-0.890554666519165,0.9924086332321167,0.7516975402832031,0.06351567804813385,0.03643091395497322
12.268565654754639,-0.15850308537483215,-0.8901731967926025,0.9927901029586792,0.7520790696144104,0.06351567804813385,0.03643091395497322
12.288639545440674,-0.16041046380996704,-0.8894102573394775,0.9927901029586792,0.7520790696144104,0.06389715522527695,0.03604944050312042
12.308730363845825,-0.16155488789081573,-0.8894102573394775,0.9927901029586792,0.7524605393409729,0.06313420087099075,0.035667963325977325
12.328825235366821,-0.16308079659938812,-0.8886472582817078,0.9927901029586792,0.7524605393409729,0.06351567804813385,0.03528648987412453
12.348965406417847,-0.16422522068023682,-0.8878843188285828,0.9927901029586792,0.7524605393409729,0.06275273114442825,0.03452353551983833
12.368971824645996,-0.1653696447610855,-0.8871213793754578,0.9927901029586792,0.7528420090675354,0.06313420087099075,0.034142062067985535
12.389048099517822,-0.1672770231962204,-0.8859769701957703,0.9927901029586792,0.7532234787940979,0.06351567804813385,0.034142062067985535
12.40911340713501,-0.1680399775505066,-0.8852140307426453,0.9927901029586792,0.7539864182472229,0.06313420087099075,0.03376058489084244
12.42917537689209,-0.16994735598564148,-0.8844510316848755,0.9927901029586792,0.7547493577003479,0.06351567804813385,0.03337911143898964
12.449279308319092,-0.17223620414733887,-0.883306622505188,0.9927901029586792,0.7551308274269104,0.06275273114442825,0.03299763426184654
12.469340801239014,-0.17414358258247375,-0.8821622133255005,0.9924086332321167,0.7555122971534729,0.06237125024199486,0.032616160809993744
12.489413499832153,-0.17528800666332245,-0.881017804145813,0.9927901029586792,0.7558938264846802,0.06237125024199486,0.03185320645570755
12.50949740409851,-0.17681391537189484,-0.8798733353614807,0.9927901029586792,0.7562752962112427,0.06313420087099075,0.031090257689356804
12.5296630859375,-0.17719538509845734,-0.8791103959083557,0.9927901029586792,0.7566567659378052,0.06237125024199486,0.030708782374858856
12.549799919128418,-0.17719538509845734,-0.8791103959083557,0.9927901029586792,0.7570382356643677,0.06237125024199486,0.030708782374858856
12.569842338562012,-0.17719538509845734,-0.8791103959083557,0.9924086332321167,0.7570382356643677,0.06160829961299896,0.030708782374858856
12.589902877807617,-0.17719538509845734,-0.8787289261817932,0.9924086332321167,0.7570382356643677,0.06160829961299896,0.03032730519771576
12.609980583190918,-0.17719538509845734,-0.8783474564552307,0.9916456937789917,0.7570382356643677,0.06160829961299896,0.03032730519771576
12.630147695541382,-0.17719538509845734,-0.8779659867286682,0.9912642240524292,0.7570382356643677,0.061226826161146164,0.03032730519771576
12.650157690048218,-0.17795833945274353,-0.8772030472755432,0.9908827543258667,0.7570382356643677,0.06198977679014206,0.03032730519771576
12.670209646224976,-0.17910276353359222,-0.8768215179443359,0.9908827543258667,0.7570382356643677,0.06160829961299896,0.03032730519771576
12.690340995788574,-0.1806286722421646,-0.8764400482177734,0.9908827543258667,0.7578011751174927,0.06008239835500717,0.03032730519771576
12.710386514663696,-0.182154580950737,-0.8760585784912109,0.9908827543258667,0.7578011751174927,0.05893797054886818,0.03032730519771576
12.73046326637268,-0.1840619444847107,-0.8756771087646484,0.9908827543258667,0.7581826448440552,0.05741206929087639,0.03032730519771576
12.750532150268555,-0.18520638346672058,-0.8749141693115234,0.9908827543258667,0.7581826448440552,0.05703059583902359,0.02994582988321781
12.770608186721802,-0.18520638346672058,-0.8745326995849609,0.9908827543258667,0.7585641145706177,0.056267641484737396,0.02994582988321781
12.790769815444946,-0.18596932291984558,-0.8737697601318359,0.9908827543258667,0.7585641145706177,0.0558861680328846,0.02994582988321781
12.810760498046875,-0.18635080754756927,-0.8737697601318359,0.9908827543258667,0.7589455842971802,0.056267641484737396,0.02994582988321781
12.830893516540527,-0.18635080754756927,-0.8730067610740662,0.9908827543258667,0.7589455842971802,0.05664911866188049,0.02994582988321781
12.851049184799194,-0.18635080754756927,-0.8726252913475037,0.9905012845993042,0.7589455842971802,0.056267641484737396,0.02994582988321781
12.871076107025146,-0.18673227727413177,-0.8722438216209412,0.9905012845993042,0.7589455842971802,0.0558861680328846,0.02994582988321781
12.891137838363647,-0.18749523162841797,-0.8714808821678162,0.9905012845993042,0.7589455842971802,0.0558861680328846,0.02994582988321781
12.91128921508789,-0.18787670135498047,-0.8707179427146912,0.9897382855415344,0.7593270540237427,0.0551232174038887,0.02994582988321781
12.931374073028564,-0.18902114033699036,-0.8695735335350037,0.9893568158149719,0.7593270540237427,0.0558861680328846,0.02994582988321781
12.951478242874146,-0.18940261006355286,-0.8691920638084412,0.9893568158149719,0.7593270540237427,0.0555046908557415,0.02994582988321781
12.971547365188599,-0.18940261006355286,-0.8688105344772339,0.9889753460884094,0.7597085237503052,0.0551232174038887,0.02994582988321781
12.991688013076782,-0.18978407979011536,-0.8684290647506714,0.9885938763618469,0.7597085237503052,0.0551232174038887,0.02994582988321781
13.011724472045898,-0.19054703414440155,-0.8684290647506714,0.9885938763618469,0.7597085237503052,0.0555046908557415,0.02994582988321781
13.031779766082764,-0.19092851877212524,-0.8684290647506714,0.9885938763618469,0.7597085237503052,0.0555046908557415,0.02994582988321781
13.05193543434143,-0.19130998849868774,-0.8676661252975464,0.9885938763618469,0.7600900530815125,0.0555046908557415,0.02994582988321781
13.072060585021973,-0.19169145822525024,-0.8665217161178589,0.9885938763618469,0.7600900530815125,0.0551232174038887,0.02994582988321781
13.092097520828247,-0.19283588230609894,-0.8649957776069641,0.9885938763618469,0.760471522808075,0.0555046908557415,0.02994582988321781
13.1121666431427,-0.19398032128810883,-0.8634698987007141,0.9885938763618469,0.760471522808075,0.0555046908557415,0.02994582988321781
13.132274150848389,-0.19474326074123383,-0.8623254895210266,0.9885938763618469,0.760471522808075,0.0555046908557415,0.02994582988321781
13.152320623397827,-0.1966506391763687,-0.8611810207366943,0.9885938763618469,0.7608529925346375,0.0555046908557415,0.029564354568719864
13.1723952293396,-0.1966506391763687,-0.8611810207366943,0.9882124066352844,0.7608529925346375,0.0551232174038887,0.029564354568719864
13.192439317703247,-0.1966506391763687,-0.8611810207366943,0.9882124066352844,0.7616159319877625,0.0551232174038887,0.029564354568719864
13.212525129318237,-0.1966506391763687,-0.8611810207366943,0.9874494671821594,0.7623788714408875,0.0555046908557415,0.029564354568719864
13.232601165771484,-0.1966506391763687,-0.8611810207366943,0.9874494671821594,0.76276034116745,0.054741740226745605,0.029564354568719864
13.252664566040039,-0.1966506391763687,-0.8611810207366943,0.9870679974555969,0.76276034116745,0.0551232174038887,0.029564354568719864
13.272754192352295,-0.1966506391763687,-0.8611810207366943,0.9866865277290344,0.7631418108940125,0.0551232174038887,0.029564354568719864
13.292810440063477,-0.1966506391763687,-0.8611810207366943,0.9866865277290344,0.7631418108940125,0.054741740226745605,0.029564354568719864
13.312927007675171,-0.1970321238040924,-0.8611810207366943,0.9866865277290344,0.7631418108940125,0.0551232174038887,0.029564354568719864
13.332950592041016,-0.1977950781583786,-0.8607995510101318,0.9866865277290344,0.763523280620575,0.054741740226745605,0.029564354568719864
13.35303020477295,-0.1981765478849411,-0.8607995510101318,0.9866865277290344,0.763523280620575,0.05436026677489281,0.029564354568719864
13.373096704483032,-0.1985580176115036,-0.8607995510101318,0.9866865277290344,0.763523280620575,0.054741740226745605,0.029182879254221916
13.393179178237915,-0.1993209719657898,-0.8600366115570068,0.9863049983978271,0.763523280620575,0.05436026677489281,0.029182879254221916
13.413259744644165,-0.2004653960466385,-0.8600366115570068,0.9863049983978271,0.7639048099517822,0.05436026677489281,0.029182879254221916
13.43330192565918,-0.20122835040092468,-0.8592736721038818,0.9863049983978271,0.7642862796783447,0.054741740226745605,0.029182879254221916
13.453440189361572,-0.20160982012748718,-0.8588922023773193,0.9863049983978271,0.7646677494049072,0.053215838968753815,0.029182879254221916
13.473467350006104,-0.20199130475521088,-0.8581292629241943,0.9855420589447021,0.7654306888580322,0.05245288833975792,0.02880140393972397
13.493542432785034,-0.20237277448177338,-0.8577477931976318,0.9851605892181396,0.7661936283111572,0.05245288833975792,0.02880140393972397
13.513611793518066,-0.20351719856262207,-0.8569847941398621,0.9843976497650146,0.7661936283111572,0.051689937710762024,0.02841992862522602
13.53368067741394,-0.20389868319034576,-0.8566033244132996,0.9843976497650146,0.7665750980377197,0.05092698708176613,0.028038453310728073
13.553772211074829,-0.20389868319034576,-0.8562218546867371,0.9843976497650146,0.7665750980377197,0.05130846053361893,0.028038453310728073
13.57381558418274,-0.20389868319034576,-0.8550774455070496,0.9843976497650146,0.7669565677642822,0.05130846053361893,0.028038453310728073
13.593921422958374,-0.20428015291690826,-0.8539330363273621,0.9843976497650146,0.7669565677642822,0.05130846053361893,0.027656977996230125
13.614052057266235,-0.20504310727119446,-0.8524070978164673,0.9840161800384521,0.7669565677642822,0.051689937710762024,0.02727550081908703
13.634077310562134,-0.20504310727119446,-0.8524070978164673,0.9836347103118896,0.7669565677642822,0.05245288833975792,0.026512550190091133
13.654158592224121,-0.20580606162548065,-0.8524070978164673,0.9836347103118896,0.7673380374908447,0.05245288833975792,0.026512550190091133
13.674225807189941,-0.20618753135204315,-0.8520256280899048,0.9832532405853271,0.7673380374908447,0.05207141116261482,0.026512550190091133
13.694297313690186,-0.20733195543289185,-0.8520256280899048,0.9828717708587646,0.7673380374908447,0.05207141116261482,0.026131074875593185
13.714481353759766,-0.20809490978717804,-0.8520256280899048,0.9828717708587646,0.7673380374908447,0.05207141116261482,0.026131074875593185
13.734673976898193,-0.20847637951374054,-0.8520256280899048,0.9824903011322021,0.7673380374908447,0.051689937710762024,0.025749599561095238
13.754677534103394,-0.20847637951374054,-0.8516441583633423,0.9824903011322021,0.7681010365486145,0.051689937710762024,0.025749599561095238
13.774746894836426,-0.20923933386802673,-0.8516441583633423,0.9824903011322021,0.7688639760017395,0.05245288833975792,0.025749599561095238
13.794827461242676,-0.20923933386802673,-0.8508812189102173,0.9824903011322021,0.7696269154548645,0.051689937710762024,0.025749599561095238
13.814892530441284,-0.20923933386802673,-0.8508812189102173,0.9821087718009949,0.770008385181427,0.051689937710762024,0.025749599561095238
13.834968328475952,-0.20923933386802673,-0.8508812189102173,0.9821087718009949,0.7703898549079895,0.05207141116261482,0.025749599561095238
13.855010986328125,-0.20923933386802673,-0.8504997491836548,0.9821087718009949,0.7703898549079895,0.05245288833975792,0.025749599561095238
13.875097274780273,-0.20923933386802673,-0.8501182794570923,0.9813458323478699,0.770771324634552,0.05245288833975792,0.025749599561095238
13.895159482955933,-0.20962081849575043,-0.8497368097305298,0.9813458323478699,0.770771324634552,0.05092698708176613,0.025749599561095238
13.915266036987305,-0.21038375794887543,-0.8497368097305298,0.9809643626213074,0.7715343236923218,0.051689937710762024,0.025749599561095238
13.935317754745483,-0.21038375794887543,-0.8497368097305298,0.9809643626213074,0.7715343236923218,0.051689937710762024,0.025749599561095238
13.95538854598999,-0.21038375794887543,-0.8493552803993225,0.9805828928947449,0.7722972631454468,0.05130846053361893,0.025749599561095238
13.975472211837769,-0.21076524257659912,-0.84897381067276,0.9802014231681824,0.7730602025985718,0.05130846053361893,0.025749599561095238
13.995505094528198,-0.21114671230316162,-0.8485923409461975,0.9802014231681824,0.7734416723251343,0.05092698708176613,0.025749599561095238
14.015592813491821,-0.21114671230316162,-0.8485923409461975,0.9794384837150574,0.7738231420516968,0.05207141116261482,0.025749599561095238
14.03567099571228,-0.21114671230316162,-0.8478294014930725,0.9794384837150574,0.7738231420516968,0.051689937710762024,0.025749599561095238
14.055738925933838,-0.21114671230316162,-0.8478294014930725,0.9790570139884949,0.7738231420516968,0.05092698708176613,0.025749599561095238
14.075810194015503,-0.21152819693088531,-0.8478294014930725,0.9790570139884949,0.7742046117782593,0.05130846053361893,0.025749599561095238
14.095898151397705,-0.21152819693088531,-0.84744793176651,0.9790570139884949,0.7742046117782593,0.05130846053361893,0.025749599561095238
14.11595368385315,-0.21190966665744781,-0.8470664620399475,0.9782940149307251,0.7742046117782593,0.05130846053361893,0.025749599561095238
14.136019229888916,-0.21229113638401031,-0.846684992313385,0.9782940149307251,0.7745860815048218,0.05054550990462303,0.02536812424659729
14.156093835830688,-0.212672621011734,-0.846684992313385,0.9782940149307251,0.7745860815048218,0.05054550990462303,0.02536812424659729
14.176164150238037,-0.2134355753660202,-0.8463035225868225,0.9782940149307251,0.7749675512313843,0.05130846053361893,0.02536812424659729
14.196229934692383,-0.2134355753660202,-0.84592205286026,0.9775310754776001,0.7749675512313843,0.05092698708176613,0.024986648932099342
14.216300010681152,-0.2134355753660202,-0.8455405235290527,0.9771496057510376,0.7753490209579468,0.050164032727479935,0.024986648932099342
14.236371994018555,-0.2134355753660202,-0.8455405235290527,0.9771496057510376,0.7753490209579468,0.04940108209848404,0.024605173617601395
14.256431579589844,-0.2138170450925827,-0.8455405235290527,0.9771496057510376,0.775730550289154,0.049782559275627136,0.024223696440458298
14.276511192321777,-0.2141985148191452,-0.8447775840759277,0.9763866662979126,0.7761120200157166,0.049782559275627136,0.024223696440458298
14.29657769203186,-0.2141985148191452,-0.8443961143493652,0.9763866662979126,0.776493489742279,0.049782559275627136,0.02384222112596035
14.316655158996582,-0.2145799994468689,-0.8443961143493652,0.9763866662979126,0.777256429195404,0.049782559275627136,0.02384222112596035
14.336716651916504,-0.2157244235277176,-0.8443961143493652,0.9760051965713501,0.7776378989219666,0.050164032727479935,0.02384222112596035
14.35678482055664,-0.2157244235277176,-0.8436331748962402,0.9756237268447876,0.7776378989219666,0.049782559275627136,0.023460745811462402
14.376861095428467,-0.2157244235277176,-0.8436331748962402,0.9752422571182251,0.7776378989219666,0.04940108209848404,0.023460745811462402
14.39694094657898,-0.2157244235277176,-0.8436331748962402,0.9752422571182251,0.7776378989219666,0.04901960864663124,0.023460745811462402
14.417054653167725,-0.2157244235277176,-0.8436331748962402,0.9752422571182251,0.7776378989219666,0.04901960864663124,0.023460745811462402
14.437127113342285,-0.2161058932542801,-0.8432517051696777,0.9748607873916626,0.778019368648529,0.04940108209848404,0.023460745811462402
14.457198858261108,-0.2161058932542801,-0.8424887657165527,0.9744792580604553,0.778019368648529,0.04940108209848404,0.023460745811462402
14.477339029312134,-0.2161058932542801,-0.8421072959899902,0.9740977883338928,0.778019368648529,0.049782559275627136,0.023079270496964455
14.497367858886719,-0.21648737788200378,-0.841725766658783,0.9740977883338928,0.7784008383750916,0.049782559275627136,0.023079270496964455
14.517422914505005,-0.21648737788200378,-0.841725766658783,0.9740977883338928,0.7784008383750916,0.04940108209848404,0.023079270496964455
14.537507772445679,-0.21648737788200378,-0.8413442969322205,0.9740977883338928,0.778782308101654,0.048638131469488144,0.023079270496964455
14.557597398757935,-0.21686884760856628,-0.8413442969322205,0.9733348488807678,0.778782308101654,0.04940108209848404,0.023079270496964455
14.577656507492065,-0.21763180196285248,-0.8405813574790955,0.9725719094276428,0.7791637778282166,0.049782559275627136,0.023079270496964455
