liuyurong129/humanoid-gym/humanoid/data/actual_q_20250521-001014.csv
timestamp,joint_1,joint_2,joint_3,joint_4,joint_5,joint_6
3.266334533691406e-05,-0.00019073777366429567,0.002861066721379757,-0.0013351644156500697,-0.00019073777366429567,0.00019073777366429567,-0.00019073777366429567
0.02011251449584961,-0.00019073777366429567,0.0024795911740511656,-0.0013351644156500697,-0.00019073777366429567,0.00019073777366429567,-0.00019073777366429567
0.04022049903869629,-0.00019073777366429567,0.001716639962978661,-0.0013351644156500697,-0.00019073777366429567,0.00019073777366429567,-0.00019073777366429567
0.060272216796875,-0.00019073777366429567,0.001716639962978661,-0.0013351644156500697,-0.00019073777366429567,0.00019073777366429567,-0.00019073777366429567
0.08033919334411621,0.000572213320992887,0.0009536888683214784,-0.00019073777366429567,-0.00019073777366429567,-0.00019073777366429567,-0.00019073777366429567
0.10048389434814453,0.002861066721379757,-0.001716639962978661,0.0020981156267225742,-0.00019073777366429567,-0.00019073777366429567,-0.00019073777366429567
0.12053155899047852,0.00476844422519207,-0.005531395319849253,0.004005493130534887,-0.00019073777366429567,-0.00019073777366429567,-0.000572213320992887
0.1406099796295166,0.007057297509163618,-0.008964675478637218,0.00667582219466567,-0.00019073777366429567,-0.00019073777366429567,-0.0013351644156500697
0.16069293022155762,0.009346150793135166,-0.013542382046580315,0.008964675478637218,-0.00019073777366429567,0.00019073777366429567,-0.0024795911740511656
0.1807708740234375,0.01125352829694748,-0.01773861236870289,0.010872052982449532,-0.00019073777366429567,0.000572213320992887,-0.0036240178160369396
0.20083832740783691,0.013160906732082367,-0.02079041674733162,0.013160906732082367,-0.00019073777366429567,0.0009536888683214784,-0.0036240178160369396
0.220916748046875,0.014686808921396732,-0.024605173617601395,0.01506828423589468,-0.00019073777366429567,0.0009536888683214784,-0.004005493130534887
0.24095845222473145,0.016212711110711098,-0.029182879254221916,0.01735713705420494,-0.00019073777366429567,0.001716639962978661,-0.005912871100008488
0.2610588073730469,0.018120087683200836,-0.03337911143898964,0.02040894143283367,-0.00019073777366429567,0.001716639962978661,-0.006294346414506435
0.2811462879180908,0.020027466118335724,-0.037193864583969116,0.023079270496964455,-0.00019073777366429567,0.001716639962978661,-0.00667582219466567
0.3012349605560303,0.021553369238972664,-0.04177157208323479,0.024986648932099342,-0.00019073777366429567,0.001716639962978661,-0.007057297509163618
0.32129716873168945,0.02384222112596035,-0.04711223021149635,0.026512550190091133,-0.00019073777366429567,0.0020981156267225742,-0.007438773289322853
0.3413729667663574,0.026512550190091133,-0.053215838968753815,0.02880140393972397,-0.00019073777366429567,0.0020981156267225742,-0.008201723918318748
0.36145782470703125,0.029182879254221916,-0.058175019919872284,0.02994582988321781,-0.00019073777366429567,0.0020981156267225742,-0.008964675478637218
0.38153624534606934,0.031090257689356804,-0.06237125024199486,0.032616160809993744,-0.00019073777366429567,0.0024795911740511656,-0.010490577667951584
0.4016296863555908,0.032616160809993744,-0.06618601083755493,0.03490501269698143,-0.00019073777366429567,0.002861066721379757,-0.01125352829694748
0.4216604232788086,0.03452353551983833,-0.0707637146115303,0.03757534176111221,-0.00019073777366429567,0.0032425422687083483,-0.012397955171763897
0.44182538986206055,0.03681239113211632,-0.07495994865894318,0.0398641936480999,-0.000572213320992887,0.0032425422687083483,-0.013542382046580315
0.4619150161743164,0.0394827201962471,-0.08030059933662415,0.04291599988937378,-0.00019073777366429567,0.0032425422687083483,-0.01430533267557621
0.4819779396057129,0.042153049260377884,-0.08564125746488571,0.04558632895350456,-0.00019073777366429567,0.0036240178160369396,-0.01430533267557621
0.5020854473114014,0.04444190114736557,-0.09174486994743347,0.046730753034353256,-0.000572213320992887,0.004005493130534887,-0.01506828423589468
0.5221359729766846,0.04634927958250046,-0.09746700525283813,0.048638131469488144,-0.000572213320992887,0.004386968910694122,-0.015449759550392628
0.5422580242156982,0.048638131469488144,-0.1028076633810997,0.05092698708176613,-0.000572213320992887,0.005149920005351305,-0.016212711110711098
0.562333345413208,0.05092698708176613,-0.10585946589708328,0.05436026677489281,-0.000572213320992887,0.005531395319849253,-0.01773861236870289
0.582385778427124,0.053215838968753815,-0.10929274559020996,0.05703059583902359,-0.000572213320992887,0.007057297509163618,-0.018501564860343933
0.6024260520935059,0.0558861680328846,-0.11310750246047974,0.06008239835500717,-0.000572213320992887,0.007057297509163618,-0.019645990803837776
0.6226394176483154,0.05855649709701538,-0.11692225188016891,0.06275273114442825,-0.000572213320992887,0.007438773289322853,-0.021171892061829567
0.6427252292633057,0.06008239835500717,-0.12073700875043869,0.06580453366041183,-0.000572213320992887,0.0078202486038208,-0.02231631986796856
0.6627945899963379,0.06198977679014206,-0.12722209095954895,0.06809338182210922,-0.0009536888683214784,0.0078202486038208,-0.022697795182466507
0.6828606128692627,0.06542305648326874,-0.1329442262649536,0.0707637146115303,-0.0009536888683214784,0.008201723918318748,-0.023079270496964455
0.7029595375061035,0.06733043491840363,-0.13828489184379578,0.07267109304666519,-0.0009536888683214784,0.00858320016413927,-0.024223696440458298
0.7230985164642334,0.06961929053068161,-0.14248111844062805,0.07572289556264877,-0.0009536888683214784,0.00858320016413927,-0.025749599561095238
0.7431716918945312,0.0711451917886734,-0.14591439068317413,0.07801175117492676,-0.0013351644156500697,0.008964675478637218,-0.026512550190091133
0.7632434368133545,0.07381551712751389,-0.1497291475534439,0.07991912961006165,-0.0013351644156500697,0.009346150793135166,-0.02841992862522602
0.7832815647125244,0.07686731964349747,-0.15430685877799988,0.08297093212604523,-0.001716639962978661,0.010109102353453636,-0.03032730519771576
0.803363561630249,0.07991912961006165,-0.16002899408340454,0.08602273464202881,-0.001716639962978661,0.010109102353453636,-0.030708782374858856
0.8234302997589111,0.08258945494890213,-0.1661325991153717,0.08869306743144989,-0.0020981156267225742,0.010872052982449532,-0.03223468363285065
0.843498945236206,0.08487831056118011,-0.17261768877506256,0.09136339277029037,-0.0020981156267225742,0.010872052982449532,-0.03337911143898964
0.863579511642456,0.0879301130771637,-0.17872129380702972,0.09441519528627396,-0.002861066721379757,0.010872052982449532,-0.03376058489084244
0.8836591243743896,0.09060044586658478,-0.1836804747581482,0.09822995215654373,-0.0032425422687083483,0.01125352829694748,-0.034142062067985535
0.9037411212921143,0.09403372555971146,-0.18978407979011536,0.10204470902681351,-0.004005493130534887,0.011635004542768002,-0.035667963325977325
0.9237918853759766,0.09632257372140884,-0.19359883666038513,0.10547798871994019,-0.004005493130534887,0.01201647985726595,-0.03681239113211632
0.9438514709472656,0.09822995215654373,-0.1985580176115036,0.10776684433221817,-0.004386968910694122,0.01201647985726595,-0.03757534176111221
0.9640123844146729,0.10166323184967041,-0.20504310727119446,0.11120012402534485,-0.004386968910694122,0.012397955171763897,-0.038719769567251205
0.984095573425293,0.10547798871994019,-0.21229113638401031,0.11577782779932022,-0.004386968910694122,0.013160906732082367,-0.040627144277095795
1.004164218902588,0.10891126841306686,-0.21915769577026367,0.11959258466959,-0.00476844422519207,0.013923857361078262,-0.04100862145423889
1.0242350101470947,0.11158160120248795,-0.22564278542995453,0.12264438718557358,-0.00476844422519207,0.016212711110711098,-0.04177157208323479
1.0444905757904053,0.11501488089561462,-0.2309834510087967,0.12645913660526276,-0.005149920005351305,0.016975661739706993,-0.043678950518369675
1.064579963684082,0.11768520623445511,-0.23594263195991516,0.13065537810325623,-0.005531395319849253,0.01888304017484188,-0.045204851776361465
1.0846610069274902,0.1199740618467331,-0.23937590420246124,0.1337071806192398,-0.005531395319849253,0.01888304017484188,-0.04711223021149635
1.104722499847412,0.12378881871700287,-0.24280919134616852,0.1367589831352234,-0.006294346414506435,0.01926451548933983,-0.048638131469488144
1.1248233318328857,0.12645913660526276,-0.2466239482164383,0.13981078565120697,-0.007057297509163618,0.01926451548933983,-0.04940108209848404
1.1449153423309326,0.12912946939468384,-0.25158312916755676,0.14324407279491425,-0.007438773289322853,0.02040894143283367,-0.05092698708176613
1.1650028228759766,0.13179980218410492,-0.2569237947463989,0.14629587531089783,-0.0078202486038208,0.02193484455347061,-0.05245288833975792
1.1851541996002197,0.1356145590543747,-0.2622644305229187,0.1508735716342926,-0.0078202486038208,0.022697795182466507,-0.053215838968753815
1.2057063579559326,0.13981078565120697,-0.26836803555488586,0.15506981313228607,-0.008201723918318748,0.022697795182466507,-0.0555046908557415
1.225790023803711,0.14362554252147675,-0.2725642919540405,0.15964750945568085,-0.008201723918318748,0.023079270496964455,-0.05664911866188049
1.245868444442749,0.14629587531089783,-0.2763790488243103,0.16422522068023682,-0.008201723918318748,0.023460745811462402,-0.05893797054886818
1.265998363494873,0.1501106321811676,-0.2794308364391327,0.1684214472770691,-0.00858320016413927,0.025749599561095238,-0.05970092490315437
1.2860467433929443,0.15545128285884857,-0.28400853276252747,0.17452506721019745,-0.008964675478637218,0.026512550190091133,-0.06046387553215027
1.3061461448669434,0.15964750945568085,-0.28820478916168213,0.1802472025156021,-0.008964675478637218,0.026512550190091133,-0.06237125024199486
1.3262276649475098,0.16308079659938812,-0.2931639552116394,0.1848248988389969,-0.009727626107633114,0.02689402550458908,-0.06389715522527695
1.3462765216827393,0.1672770231962204,-0.2977416515350342,0.19016556441783905,-0.010490577667951584,0.02689402550458908,-0.06580453366041183
1.366325855255127,0.17109178006649017,-0.30308231711387634,0.1966506391763687,-0.011635004542768002,0.02689402550458908,-0.06771191209554672
1.3864080905914307,0.17605096101760864,-0.308041512966156,0.20313572883605957,-0.011635004542768002,0.02727550081908703,-0.06961929053068161
1.406527042388916,0.1813916265964508,-0.3130006790161133,0.21000228822231293,-0.012397955171763897,0.027656977996230125,-0.071908138692379
1.4265620708465576,0.18787670135498047,-0.31795987486839294,0.21686884760856628,-0.012779430486261845,0.027656977996230125,-0.07534141838550568
1.4466125965118408,0.19474326074123383,-0.32673379778862,0.22602425515651703,-0.013160906732082367,0.027656977996230125,-0.07801175117492676
1.4667301177978516,0.20122835040092468,-0.33665215969085693,0.23403525352478027,-0.013542382046580315,0.028038453310728073,-0.08068207651376724
1.4868929386138916,0.20695048570632935,-0.34924086928367615,0.24128328263759613,-0.01506828423589468,0.027656977996230125,-0.08373387902975082
1.5069000720977783,0.2130540907382965,-0.36411839723587036,0.2504386901855469,-0.01583123579621315,0.029182879254221916,-0.086785688996315
1.527425765991211,0.21953918039798737,-0.3770885765552521,0.2603570520877838,-0.016594186425209045,0.02994582988321781,-0.09021896868944168
1.5475208759307861,0.22526131570339203,-0.3889143168926239,0.27103838324546814,-0.01735713705420494,0.030708782374858856,-0.09288929402828217
1.5676295757293701,0.230601966381073,-0.39883267879486084,0.2801937758922577,-0.01888304017484188,0.03147173300385475,-0.09517814964056015
1.5876548290252686,0.23632410168647766,-0.41294726729393005,0.290875107049942,-0.019645990803837776,0.03337911143898964,-0.09975585341453552
1.6077244281768799,0.24128328263759613,-0.4240100681781769,0.30117493867874146,-0.020027466118335724,0.03528648987412453,-0.1028076633810997
1.6278798580169678,0.2462424635887146,-0.4365987777709961,0.3122377395629883,-0.020027466118335724,0.035667963325977325,-0.10585946589708328
1.6479182243347168,0.2508201599121094,-0.4510948359966278,0.3221561014652252,-0.02040894143283367,0.03604944050312042,-0.11081864684820175
1.6680004596710205,0.25425344705581665,-0.46368351578712463,0.33093002438545227,-0.021553369238972664,0.03643091395497322,-0.11348897218704224
1.688033103942871,0.2588311731815338,-0.4732204079627991,0.3412298858165741,-0.022697795182466507,0.037193864583969116,-0.11730372905731201
1.7081329822540283,0.2626459002494812,-0.47932401299476624,0.34924086928367615,-0.023460745811462402,0.037193864583969116,-0.1203555315732956
1.728222131729126,0.26760509610176086,-0.4797055125236511,0.3572518527507782,-0.024605173617601395,0.037193864583969116,-0.12226291000843048
1.7483758926391602,0.27218279242515564,-0.47589075565338135,0.36373692750930786,-0.02536812424659729,0.037193864583969116,-0.12607766687870026
1.7683897018432617,0.2767605185508728,-0.4678797721862793,0.3694590628147125,-0.02689402550458908,0.03757534176111221,-0.13027389347553253
1.7885355949401855,0.2813382148742676,-0.4560540020465851,0.3732738196849823,-0.02727550081908703,0.03795681521296501,-0.1367589831352234
1.808661937713623,0.28439003229141235,-0.44117647409439087,0.3747997283935547,-0.027656977996230125,0.03757534176111221,-0.14171816408634186
1.8287484645843506,0.28629741072654724,-0.42820629477500916,0.3751811981201172,-0.02841992862522602,0.04100862145423889,-0.14744029939174652
1.8488047122955322,0.28782328963279724,-0.41485464572906494,0.3747997283935547,-0.03032730519771576,0.040627144277095795,-0.15354390442371368
1.8689725399017334,0.2904936373233795,-0.39463645219802856,0.3725108802318573,-0.03185320645570755,0.042153049260377884,-0.16117341816425323
1.889148235321045,0.2912565767765045,-0.37861448526382446,0.3694590628147125,-0.03452353551983833,0.04406042397022247,-0.1672770231962204
1.9092445373535156,0.2912565767765045,-0.36297398805618286,0.36640727519989014,-0.035667963325977325,0.045204851776361465,-0.17414358258247375
1.9292418956756592,0.2912565767765045,-0.34580758213996887,0.36259251832962036,-0.03795681521296501,0.04596780240535736,-0.1802472025156021
1.9492967128753662,0.2912565767765045,-0.3290226459503174,0.3545815348625183,-0.04139009863138199,0.045204851776361465,-0.18673227727413177
1.9694173336029053,0.2912565767765045,-0.31681543588638306,0.34618905186653137,-0.04482337832450867,0.04444190114736557,-0.19359883666038513
1.989495038986206,0.290875107049942,-0.308041512966156,0.3381780683994293,-0.04596780240535736,0.04406042397022247,-0.1981765478849411
2.0095725059509277,0.290875107049942,-0.30231937766075134,0.33016708493232727,-0.046730753034353256,0.04406042397022247,-0.20160982012748718
2.029629707336426,0.2904936373233795,-0.2962157726287842,0.3213931620121002,-0.04787518084049225,0.04482337832450867,-0.20695048570632935
2.0497121810913086,0.2904936373233795,-0.2931639552116394,0.3107118308544159,-0.050164032727479935,0.04482337832450867,-0.21190966665744781
2.0698134899139404,0.2904936373233795,-0.2927824854850769,0.30193790793418884,-0.05207141116261482,0.04482337832450867,-0.21801327168941498
2.0899271965026855,0.2904936373233795,-0.2973601818084717,0.2958342730998993,-0.053215838968753815,0.045204851776361465,-0.22182802855968475
2.109959840774536,0.2904936373233795,-0.3091859221458435,0.290875107049942,-0.05397878959774971,0.04444190114736557,-0.22640573978424072
2.130047082901001,0.2904936373233795,-0.33054855465888977,0.28858625888824463,-0.054741740226745605,0.04291599988937378,-0.23517967760562897
2.1501383781433105,0.28973066806793213,-0.3553444743156433,0.28973066806793213,-0.05664911866188049,0.042153049260377884,-0.2447165697813034
2.170197010040283,0.28858625888824463,-0.3763256371021271,0.2924010157585144,-0.058175019919872284,0.040627144277095795,-0.25616082549095154
2.190251350402832,0.28629741072654724,-0.3919661343097687,0.29812315106391907,-0.06313420087099075,0.03681239113211632,-0.27065691351890564
2.210362672805786,0.28400853276252747,-0.4037918746471405,0.309567391872406,-0.06656748056411743,0.03528648987412453,-0.28515297174453735
2.2304108142852783,0.28248265385627747,-0.4091325104236603,0.3236820101737976,-0.06809338182210922,0.03452353551983833,-0.29812315106391907
2.250516414642334,0.28286412358283997,-0.41027694940567017,0.3370336592197418,-0.06809338182210922,0.030708782374858856,-0.309567391872406
2.270571708679199,0.28439003229141235,-0.4068436622619629,0.34618905186653137,-0.06771191209554672,0.02727550081908703,-0.3229190409183502
2.2908108234405518,0.28934919834136963,-0.4003585875034332,0.35038527846336365,-0.06771191209554672,0.021553369238972664,-0.3374151289463043
2.310934066772461,0.2950713336467743,-0.39425498247146606,0.34962233901023865,-0.06771191209554672,0.01773861236870289,-0.35191118717193604
2.330981969833374,0.2977416515350342,-0.3904402256011963,0.34618905186653137,-0.06771191209554672,0.016212711110711098,-0.36488136649131775
2.351048707962036,0.29812315106391907,-0.3896772861480713,0.3442816734313965,-0.06771191209554672,0.01888304017484188,-0.3778515160083771
2.371096134185791,0.29964902997016907,-0.3912031650543213,0.3427557647228241,-0.06771191209554672,0.02536812424659729,-0.3912031650543213
2.391158103942871,0.30270084738731384,-0.3934920132160187,0.3419928252696991,-0.06733043491840363,0.02536812424659729,-0.4015030264854431
2.4112634658813477,0.30384528636932373,-0.3931105434894562,0.3416113555431366,-0.06656748056411743,0.02384222112596035,-0.41065841913223267
2.431309700012207,0.30346378684043884,-0.3915846347808838,0.3423742949962616,-0.06389715522527695,0.02040894143283367,-0.4179064631462097
2.4514319896698,0.30308231711387634,-0.3892957866191864,0.3435187339782715,-0.06237125024199486,0.01583123579621315,-0.4224841594696045
2.4717133045196533,0.30308231711387634,-0.3873884081840515,0.344663143157959,-0.05893797054886818,0.009727626107633114,-0.42782482504844666
2.4918034076690674,0.30308231711387634,-0.3866254687309265,0.344663143157959,-0.0558861680328846,0.005531395319849253,-0.4331654906272888
2.5118703842163086,0.30308231711387634,-0.387006938457489,0.343900203704834,-0.0551232174038887,0.0013351644156500697,-0.4373617172241211
2.5319347381591797,0.30346378684043884,-0.387006938457489,0.3427557647228241,-0.053215838968753815,0.000572213320992887,-0.44270238280296326
2.5519819259643555,0.30498969554901123,-0.3881513774394989,0.3423742949962616,-0.05207141116261482,0.00019073777366429567,-0.44613564014434814
2.572089433670044,0.3057526648044586,-0.3892957866191864,0.3423742949962616,-0.05092698708176613,0.0013351644156500697,-0.4518577754497528
2.59214448928833,0.3061341345310211,-0.3896772861480713,0.3427557647228241,-0.050164032727479935,0.0032425422687083483,-0.4552910625934601
2.6122424602508545,0.3061341345310211,-0.3896772861480713,0.3427557647228241,-0.04787518084049225,0.0078202486038208,-0.45681697130203247
2.6323049068450928,0.3061341345310211,-0.3889143168926239,0.343137264251709,-0.046730753034353256,0.009346150793135166,-0.45872434973716736
2.6524806022644043,0.3061341345310211,-0.3889143168926239,0.343137264251709,-0.04558632895350456,0.010109102353453636,-0.46101319789886475
2.6725013256073,0.3061341345310211,-0.3892957866191864,0.343137264251709,-0.04444190114736557,0.00858320016413927,-0.46101319789886475
2.6925430297851562,0.3061341345310211,-0.3892957866191864,0.343137264251709,-0.04329747334122658,0.00667582219466567,-0.46292057633399963
2.7126052379608154,0.3061341345310211,-0.3892957866191864,0.3435187339782715,-0.04253452271223068,0.005912871100008488,-0.465209424495697
2.732684850692749,0.3061341345310211,-0.3892957866191864,0.3435187339782715,-0.04139009863138199,0.0032425422687083483,-0.4663538634777069
2.7527685165405273,0.3061341345310211,-0.3892957866191864,0.343900203704834,-0.04100862145423889,0.0036240178160369396,-0.4682612419128418
2.772829294204712,0.3065156042575836,-0.3892957866191864,0.3442816734313965,-0.040245670825242996,0.0036240178160369396,-0.4686427116394043
2.792884111404419,0.3068970739841461,-0.3892957866191864,0.3442816734313965,-0.0394827201962471,0.0036240178160369396,-0.4697871506214142
2.8129749298095703,0.3072785437107086,-0.3892957866191864,0.3442816734313965,-0.03833829239010811,0.004005493130534887,-0.4716945290565491
2.8331069946289062,0.3072785437107086,-0.3892957866191864,0.3442816734313965,-0.03757534176111221,0.004386968910694122,-0.4716945290565491
2.8531675338745117,0.3072785437107086,-0.3892957866191864,0.3442816734313965,-0.037193864583969116,0.00667582219466567,-0.4716945290565491
2.8731911182403564,0.3072785437107086,-0.3892957866191864,0.3442816734313965,-0.037193864583969116,0.007438773289322853,-0.4724574685096741
2.893336296081543,0.3072785437107086,-0.3896772861480713,0.3442816734313965,-0.03681239113211632,0.007057297509163618,-0.47436484694480896
2.913383960723877,0.3072785437107086,-0.3900587558746338,0.3442816734313965,-0.03643091395497322,0.007057297509163618,-0.47589075565338135
2.933464765548706,0.3072785437107086,-0.3900587558746338,0.3442816734313965,-0.035667963325977325,0.006294346414506435,-0.47589075565338135
2.953571081161499,0.3072785437107086,-0.3900587558746338,0.3442816734313965,-0.03528648987412453,0.005531395319849253,-0.47550925612449646
2.9736292362213135,0.3072785437107086,-0.3900587558746338,0.3442816734313965,-0.03452353551983833,0.00476844422519207,-0.47550925612449646
2.993734836578369,0.3072785437107086,-0.3900587558746338,0.3442816734313965,-0.03452353551983833,0.005149920005351305,-0.47589075565338135
3.0137903690338135,0.3072785437107086,-0.3900587558746338,0.3442816734313965,-0.034142062067985535,0.005149920005351305,-0.47589075565338135
3.033834934234619,0.3072785437107086,-0.3900587558746338,0.3442816734313965,-0.034142062067985535,0.005912871100008488,-0.47589075565338135
3.0539402961730957,0.3072785437107086,-0.3900587558746338,0.3442816734313965,-0.034142062067985535,0.005912871100008488,-0.47627222537994385
3.074007272720337,0.3072785437107086,-0.3900587558746338,0.344663143157959,-0.034142062067985535,0.005912871100008488,-0.47665369510650635
3.0940873622894287,0.3068970739841461,-0.3900587558746338,0.3442816734313965,-0.03376058489084244,0.005912871100008488,-0.47665369510650635
3.1141514778137207,0.3068970739841461,-0.3900587558746338,0.3442816734313965,-0.03376058489084244,0.005912871100008488,-0.47665369510650635
3.134281635284424,0.3068970739841461,-0.3900587558746338,0.3442816734313965,-0.03376058489084244,0.005531395319849253,-0.47703516483306885
3.154383420944214,0.3068970739841461,-0.3900587558746338,0.3442816734313965,-0.03376058489084244,0.005912871100008488,-0.47741663455963135
3.174448251724243,0.3068970739841461,-0.3900587558746338,0.344663143157959,-0.03376058489084244,0.005912871100008488,-0.47779813408851624
3.1945338249206543,0.3068970739841461,-0.3900587558746338,0.344663143157959,-0.03337911143898964,0.005912871100008488,-0.47779813408851624
3.2146127223968506,0.3068970739841461,-0.3900587558746338,0.344663143157959,-0.03337911143898964,0.005912871100008488,-0.47779813408851624
3.234680414199829,0.3068970739841461,-0.3900587558746338,0.344663143157959,-0.03337911143898964,0.005912871100008488,-0.47779813408851624
3.254748582839966,0.3068970739841461,-0.3900587558746338,0.344663143157959,-0.03337911143898964,0.005912871100008488,-0.47779813408851624
3.2748208045959473,0.3068970739841461,-0.3900587558746338,0.344663143157959,-0.03337911143898964,0.005912871100008488,-0.47779813408851624
3.2948660850524902,0.3068970739841461,-0.3900587558746338,0.344663143157959,-0.03299763426184654,0.005912871100008488,-0.47779813408851624
3.3149654865264893,0.3068970739841461,-0.3900587558746338,0.344663143157959,-0.03299763426184654,0.005912871100008488,-0.47779813408851624
3.3350346088409424,0.3068970739841461,-0.3900587558746338,0.344663143157959,-0.03299763426184654,0.005912871100008488,-0.47817960381507874
3.3551013469696045,0.3068970739841461,-0.3900587558746338,0.344663143157959,-0.03299763426184654,0.005912871100008488,-0.47779813408851624
3.3754308223724365,0.3068970739841461,-0.3900587558746338,0.344663143157959,-0.03299763426184654,0.006294346414506435,-0.47779813408851624
3.395535945892334,0.3068970739841461,-0.3900587558746338,0.344663143157959,-0.03299763426184654,0.006294346414506435,-0.47779813408851624
3.4156317710876465,0.3068970739841461,-0.3900587558746338,0.344663143157959,-0.03299763426184654,0.005912871100008488,-0.47817960381507874
3.4356677532196045,0.3065156042575836,-0.3900587558746338,0.344663143157959,-0.032616160809993744,0.005912871100008488,-0.47779813408851624
3.4558253288269043,0.3057526648044586,-0.3900587558746338,0.344663143157959,-0.032616160809993744,0.00667582219466567,-0.47817960381507874
3.4759156703948975,0.3057526648044586,-0.3900587558746338,0.344663143157959,-0.032616160809993744,0.00667582219466567,-0.47817960381507874
3.4959843158721924,0.3057526648044586,-0.3900587558746338,0.344663143157959,-0.032616160809993744,0.00667582219466567,-0.47817960381507874
3.5160629749298096,0.3057526648044586,-0.3900587558746338,0.344663143157959,-0.03223468363285065,0.00667582219466567,-0.47817960381507874
3.5361404418945312,0.3057526648044586,-0.3900587558746338,0.34504464268684387,-0.03223468363285065,0.006294346414506435,-0.47817960381507874
3.5562527179718018,0.3061341345310211,-0.3900587558746338,0.34504464268684387,-0.03223468363285065,0.00667582219466567,-0.47817960381507874
3.576345920562744,0.3061341345310211,-0.3900587558746338,0.34504464268684387,-0.03185320645570755,0.00667582219466567,-0.47817960381507874
3.5963797569274902,0.3061341345310211,-0.3900587558746338,0.34504464268684387,-0.03185320645570755,0.00667582219466567,-0.47817960381507874
3.616445779800415,0.3065156042575836,-0.3900587558746338,0.34504464268684387,-0.03185320645570755,0.00667582219466567,-0.47817960381507874
3.636536121368408,0.3065156042575836,-0.3900587558746338,0.34504464268684387,-0.03185320645570755,0.00667582219466567,-0.47817960381507874
3.656604290008545,0.3068970739841461,-0.3900587558746338,0.34504464268684387,-0.03185320645570755,0.006294346414506435,-0.47817960381507874
3.6766512393951416,0.3068970739841461,-0.3900587558746338,0.34504464268684387,-0.03185320645570755,0.00667582219466567,-0.47817960381507874
3.6967430114746094,0.3068970739841461,-0.3900587558746338,0.34504464268684387,-0.03185320645570755,0.00667582219466567,-0.47817960381507874
3.716817617416382,0.3068970739841461,-0.3900587558746338,0.34504464268684387,-0.03185320645570755,0.00667582219466567,-0.47817960381507874
3.736872911453247,0.3068970739841461,-0.3900587558746338,0.34504464268684387,-0.03185320645570755,0.00667582219466567,-0.47817960381507874
3.756967782974243,0.3068970739841461,-0.3900587558746338,0.34504464268684387,-0.03185320645570755,0.00667582219466567,-0.47817960381507874
3.7770912647247314,0.3068970739841461,-0.3900587558746338,0.34504464268684387,-0.03185320645570755,0.006294346414506435,-0.47817960381507874
3.7971200942993164,0.3068970739841461,-0.3900587558746338,0.344663143157959,-0.03185320645570755,0.006294346414506435,-0.47817960381507874
3.8171706199645996,0.3068970739841461,-0.3904402256011963,0.344663143157959,-0.03185320645570755,0.006294346414506435,-0.47817960381507874
3.8372554779052734,0.3068970739841461,-0.3915846347808838,0.344663143157959,-0.03223468363285065,0.006294346414506435,-0.47817960381507874
3.857327461242676,0.3068970739841461,-0.3923476040363312,0.344663143157959,-0.03185320645570755,0.00667582219466567,-0.47856107354164124
3.877448081970215,0.3068970739841461,-0.3927290737628937,0.344663143157959,-0.03185320645570755,0.00667582219466567,-0.47856107354164124
3.897475242614746,0.3068970739841461,-0.3931105434894562,0.344663143157959,-0.03223468363285065,0.006294346414506435,-0.47856107354164124
3.9175868034362793,0.3068970739841461,-0.3931105434894562,0.344663143157959,-0.03223468363285065,0.00667582219466567,-0.47856107354164124
3.937747001647949,0.3068970739841461,-0.3927290737628937,0.344663143157959,-0.03223468363285065,0.006294346414506435,-0.47856107354164124
3.957848072052002,0.3068970739841461,-0.3927290737628937,0.344663143157959,-0.03185320645570755,0.006294346414506435,-0.47856107354164124
3.977841854095459,0.3068970739841461,-0.3923476040363312,0.34504464268684387,-0.03223468363285065,0.00667582219466567,-0.47856107354164124
3.998004913330078,0.3068970739841461,-0.3919661343097687,0.34504464268684387,-0.03223468363285065,0.006294346414506435,-0.47856107354164124
4.01809287071228,0.3068970739841461,-0.3919661343097687,0.34542611241340637,-0.03223468363285065,0.006294346414506435,-0.47894254326820374
4.038161039352417,0.3068970739841461,-0.3919661343097687,0.34542611241340637,-0.03223468363285065,0.00667582219466567,-0.47894254326820374
4.058251619338989,0.3068970739841461,-0.3912031650543213,0.34542611241340637,-0.03223468363285065,0.006294346414506435,-0.47894254326820374
4.078310966491699,0.3068970739841461,-0.3912031650543213,0.34542611241340637,-0.03223468363285065,0.006294346414506435,-0.47894254326820374
4.098571062088013,0.3068970739841461,-0.3912031650543213,0.34542611241340637,-0.03223468363285065,0.006294346414506435,-0.47894254326820374
4.1187169551849365,0.3068970739841461,-0.3908216953277588,0.34542611241340637,-0.03223468363285065,0.00667582219466567,-0.47894254326820374
4.13882303237915,0.3068970739841461,-0.3908216953277588,0.34542611241340637,-0.03223468363285065,0.006294346414506435,-0.47894254326820374
4.158847808837891,0.3068970739841461,-0.3908216953277588,0.34542611241340637,-0.03223468363285065,0.006294346414506435,-0.47894254326820374
4.178955316543579,0.3068970739841461,-0.3908216953277588,0.34542611241340637,-0.03223468363285065,0.006294346414506435,-0.47894254326820374
4.199033737182617,0.3068970739841461,-0.3908216953277588,0.34542611241340637,-0.03223468363285065,0.006294346414506435,-0.47894254326820374
4.2191033363342285,0.3068970739841461,-0.3908216953277588,0.34542611241340637,-0.03223468363285065,0.006294346414506435,-0.47894254326820374
4.239139556884766,0.3068970739841461,-0.3904402256011963,0.34542611241340637,-0.03223468363285065,0.006294346414506435,-0.47894254326820374
4.259269714355469,0.3068970739841461,-0.3900587558746338,0.34504464268684387,-0.03223468363285065,0.006294346414506435,-0.47894254326820374
4.2794318199157715,0.3068970739841461,-0.3900587558746338,0.34504464268684387,-0.03223468363285065,0.006294346414506435,-0.47894254326820374
4.299564838409424,0.3068970739841461,-0.3900587558746338,0.34504464268684387,-0.03223468363285065,0.006294346414506435,-0.47856107354164124
4.319587707519531,0.3068970739841461,-0.3900587558746338,0.344663143157959,-0.03223468363285065,0.006294346414506435,-0.47856107354164124
4.339715003967285,0.3068970739841461,-0.3900587558746338,0.344663143157959,-0.03223468363285065,0.006294346414506435,-0.47894254326820374
4.359757423400879,0.3068970739841461,-0.3900587558746338,0.344663143157959,-0.03223468363285065,0.006294346414506435,-0.47894254326820374
4.379830837249756,0.3068970739841461,-0.3900587558746338,0.344663143157959,-0.03223468363285065,0.006294346414506435,-0.47856107354164124
4.39991307258606,0.3068970739841461,-0.3900587558746338,0.344663143157959,-0.03223468363285065,0.006294346414506435,-0.47856107354164124
4.4202659130096436,0.3068970739841461,-0.3900587558746338,0.344663143157959,-0.03223468363285065,0.006294346414506435,-0.47894254326820374
4.440312623977661,0.3068970739841461,-0.3900587558746338,0.344663143157959,-0.03223468363285065,0.006294346414506435,-0.47856107354164124
4.460409641265869,0.3068970739841461,-0.3900587558746338,0.344663143157959,-0.03223468363285065,0.006294346414506435,-0.47894254326820374
4.480476140975952,0.3068970739841461,-0.3900587558746338,0.344663143157959,-0.03223468363285065,0.006294346414506435,-0.47894254326820374
4.50055193901062,0.3068970739841461,-0.3900587558746338,0.344663143157959,-0.03223468363285065,0.006294346414506435,-0.47856107354164124
4.52068018913269,0.3065156042575836,-0.3900587558746338,0.344663143157959,-0.03223468363285065,0.006294346414506435,-0.47894254326820374
4.5407562255859375,0.3061341345310211,-0.3900587558746338,0.344663143157959,-0.03223468363285065,0.006294346414506435,-0.47856107354164124
4.560794115066528,0.3057526648044586,-0.3900587558746338,0.344663143157959,-0.03223468363285065,0.006294346414506435,-0.47856107354164124
4.580878019332886,0.3057526648044586,-0.3900587558746338,0.344663143157959,-0.03223468363285065,0.006294346414506435,-0.47856107354164124
4.600938558578491,0.3057526648044586,-0.3900587558746338,0.344663143157959,-0.03223468363285065,0.005149920005351305,-0.47856107354164124
4.621026277542114,0.3057526648044586,-0.3900587558746338,0.344663143157959,-0.03223468363285065,0.00476844422519207,-0.47894254326820374
4.641100645065308,0.3057526648044586,-0.3900587558746338,0.344663143157959,-0.03223468363285065,0.00476844422519207,-0.47856107354164124
4.661242485046387,0.3057526648044586,-0.3900587558746338,0.344663143157959,-0.03223468363285065,0.00476844422519207,-0.47856107354164124
4.68135142326355,0.3061341345310211,-0.3900587558746338,0.344663143157959,-0.03223468363285065,0.005149920005351305,-0.47856107354164124
4.701440095901489,0.3061341345310211,-0.3900587558746338,0.344663143157959,-0.03223468363285065,0.005531395319849253,-0.47856107354164124
4.7214930057525635,0.3061341345310211,-0.3900587558746338,0.344663143157959,-0.03223468363285065,0.005531395319849253,-0.47856107354164124
4.741539716720581,0.3068970739841461,-0.3900587558746338,0.344663143157959,-0.03223468363285065,0.005531395319849253,-0.47856107354164124
4.761622667312622,0.3068970739841461,-0.3900587558746338,0.344663143157959,-0.03223468363285065,0.005531395319849253,-0.47856107354164124
4.781690359115601,0.3068970739841461,-0.3900587558746338,0.344663143157959,-0.03223468363285065,0.005531395319849253,-0.47894254326820374
4.801762580871582,0.3068970739841461,-0.3900587558746338,0.344663143157959,-0.03223468363285065,0.006294346414506435,-0.47856107354164124
4.822022438049316,0.3068970739841461,-0.3900587558746338,0.344663143157959,-0.03223468363285065,0.006294346414506435,-0.47856107354164124
4.84211277961731,0.3072785437107086,-0.3900587558746338,0.344663143157959,-0.03223468363285065,0.00667582219466567,-0.47856107354164124
4.86218523979187,0.3068970739841461,-0.3900587558746338,0.344663143157959,-0.03223468363285065,0.006294346414506435,-0.47856107354164124
4.8822925090789795,0.3068970739841461,-0.3900587558746338,0.344663143157959,-0.03223468363285065,0.006294346414506435,-0.47856107354164124
4.902458429336548,0.3068970739841461,-0.3900587558746338,0.344663143157959,-0.03223468363285065,0.006294346414506435,-0.47856107354164124
4.9224865436553955,0.3068970739841461,-0.3900587558746338,0.344663143157959,-0.03223468363285065,0.006294346414506435,-0.47856107354164124
4.942582845687866,0.3072785437107086,-0.3900587558746338,0.344663143157959,-0.03223468363285065,0.006294346414506435,-0.47856107354164124
4.962607145309448,0.3072785437107086,-0.3900587558746338,0.344663143157959,-0.03223468363285065,0.006294346414506435,-0.47856107354164124
4.9826905727386475,0.3068970739841461,-0.3900587558746338,0.344663143157959,-0.03223468363285065,0.006294346414506435,-0.47856107354164124
5.0027806758880615,0.3068970739841461,-0.3900587558746338,0.344663143157959,-0.03223468363285065,0.006294346414506435,-0.47856107354164124
5.02284574508667,0.3068970739841461,-0.3900587558746338,0.344663143157959,-0.03223468363285065,0.006294346414506435,-0.47856107354164124
5.042996644973755,0.3072785437107086,-0.3904402256011963,0.344663143157959,-0.03223468363285065,0.006294346414506435,-0.47856107354164124
5.063079357147217,0.3068970739841461,-0.3915846347808838,0.344663143157959,-0.03223468363285065,0.006294346414506435,-0.47856107354164124
5.0831849575042725,0.3068970739841461,-0.3927290737628937,0.34504464268684387,-0.03223468363285065,0.006294346414506435,-0.47856107354164124
5.103224754333496,0.3068970739841461,-0.39539939165115356,0.34504464268684387,-0.03223468363285065,0.006294346414506435,-0.47856107354164124
5.123297452926636,0.3068970739841461,-0.39654383063316345,0.34542611241340637,-0.03223468363285065,0.006294346414506435,-0.47856107354164124
5.143362045288086,0.3068970739841461,-0.39578089118003845,0.34542611241340637,-0.03223468363285065,0.006294346414506435,-0.47856107354164124
5.1634321212768555,0.3068970739841461,-0.39463645219802856,0.34542611241340637,-0.03223468363285065,0.005912871100008488,-0.47856107354164124
5.183488607406616,0.3068970739841461,-0.3927290737628937,0.34657052159309387,-0.032616160809993744,0.005912871100008488,-0.47856107354164124
5.203568458557129,0.3068970739841461,-0.3919661343097687,0.34657052159309387,-0.03223468363285065,0.005912871100008488,-0.47856107354164124
5.223703622817993,0.3068970739841461,-0.3919661343097687,0.34657052159309387,-0.03223468363285065,0.006294346414506435,-0.47856107354164124
5.24376106262207,0.3068970739841461,-0.3919661343097687,0.34618905186653137,-0.03223468363285065,0.006294346414506435,-0.47856107354164124
5.263844728469849,0.3068970739841461,-0.3919661343097687,0.34542611241340637,-0.03223468363285065,0.006294346414506435,-0.47856107354164124
5.283928632736206,0.3068970739841461,-0.3915846347808838,0.34542611241340637,-0.03223468363285065,0.006294346414506435,-0.47856107354164124
5.303981065750122,0.3068970739841461,-0.3912031650543213,0.34542611241340637,-0.03223468363285065,0.005912871100008488,-0.47894254326820374
5.32404351234436,0.3068970739841461,-0.3908216953277588,0.34542611241340637,-0.03223468363285065,0.005912871100008488,-0.47856107354164124
5.34408974647522,0.3068970739841461,-0.3908216953277588,0.34542611241340637,-0.03223468363285065,0.005912871100008488,-0.47856107354164124
5.364178895950317,0.3068970739841461,-0.3908216953277588,0.34542611241340637,-0.03223468363285065,0.006294346414506435,-0.47856107354164124
5.384246826171875,0.3068970739841461,-0.3908216953277588,0.34504464268684387,-0.03223468363285065,0.006294346414506435,-0.47856107354164124
5.404316425323486,0.3068970739841461,-0.3908216953277588,0.34504464268684387,-0.03223468363285065,0.006294346414506435,-0.47856107354164124
5.424388885498047,0.3068970739841461,-0.3904402256011963,0.34504464268684387,-0.03223468363285065,0.006294346414506435,-0.47856107354164124
5.444485425949097,0.3068970739841461,-0.3900587558746338,0.34504464268684387,-0.03223468363285065,0.005912871100008488,-0.47856107354164124
5.464578628540039,0.3068970739841461,-0.3900587558746338,0.34504464268684387,-0.03223468363285065,0.005912871100008488,-0.47856107354164124
5.484619379043579,0.3068970739841461,-0.3900587558746338,0.34504464268684387,-0.03223468363285065,0.006294346414506435,-0.47856107354164124
5.504672527313232,0.3068970739841461,-0.3900587558746338,0.344663143157959,-0.03223468363285065,0.006294346414506435,-0.47856107354164124
5.524757385253906,0.3068970739841461,-0.3900587558746338,0.344663143157959,-0.03223468363285065,0.006294346414506435,-0.47856107354164124
5.544835090637207,0.3068970739841461,-0.3900587558746338,0.344663143157959,-0.03223468363285065,0.006294346414506435,-0.47856107354164124
5.564905881881714,0.3068970739841461,-0.3900587558746338,0.344663143157959,-0.03223468363285065,0.005912871100008488,-0.47856107354164124
5.584986686706543,0.3068970739841461,-0.3900587558746338,0.344663143157959,-0.03223468363285065,0.005912871100008488,-0.47856107354164124
5.605215072631836,0.3068970739841461,-0.3900587558746338,0.344663143157959,-0.03223468363285065,0.005912871100008488,-0.47856107354164124
5.625298976898193,0.3068970739841461,-0.3900587558746338,0.344663143157959,-0.03223468363285065,0.006294346414506435,-0.47856107354164124
5.645382642745972,0.3068970739841461,-0.3900587558746338,0.344663143157959,-0.03223468363285065,0.006294346414506435,-0.47856107354164124
5.665449142456055,0.3068970739841461,-0.3900587558746338,0.344663143157959,-0.03223468363285065,0.006294346414506435,-0.47856107354164124
5.685973167419434,0.3065156042575836,-0.3900587558746338,0.344663143157959,-0.03223468363285065,0.005912871100008488,-0.47856107354164124
5.706057786941528,0.3057526648044586,-0.3900587558746338,0.344663143157959,-0.03223468363285065,0.00667582219466567,-0.47856107354164124
5.726125717163086,0.3057526648044586,-0.3900587558746338,0.344663143157959,-0.03223468363285065,0.005912871100008488,-0.47856107354164124
5.746197938919067,0.3057526648044586,-0.3900587558746338,0.344663143157959,-0.03223468363285065,0.005912871100008488,-0.47856107354164124
5.7666425704956055,0.3057526648044586,-0.3900587558746338,0.344663143157959,-0.03223468363285065,0.005912871100008488,-0.47856107354164124
5.786781549453735,0.3057526648044586,-0.3900587558746338,0.344663143157959,-0.03223468363285065,0.005912871100008488,-0.47856107354164124
5.806896924972534,0.3057526648044586,-0.3900587558746338,0.344663143157959,-0.03223468363285065,0.005912871100008488,-0.47856107354164124
5.826999187469482,0.3057526648044586,-0.3900587558746338,0.344663143157959,-0.03223468363285065,0.005912871100008488,-0.47856107354164124
5.847116947174072,0.3057526648044586,-0.3900587558746338,0.344663143157959,-0.03223468363285065,0.005912871100008488,-0.47856107354164124
5.867173194885254,0.3057526648044586,-0.3900587558746338,0.344663143157959,-0.03223468363285065,0.005912871100008488,-0.47856107354164124
5.8872315883636475,0.3057526648044586,-0.3900587558746338,0.344663143157959,-0.03223468363285065,0.005912871100008488,-0.47856107354164124
5.907293319702148,0.3057526648044586,-0.3900587558746338,0.344663143157959,-0.03223468363285065,0.005912871100008488,-0.47856107354164124
5.92739725112915,0.3057526648044586,-0.3900587558746338,0.344663143157959,-0.032616160809993744,0.005912871100008488,-0.47856107354164124
5.947483062744141,0.3057526648044586,-0.3900587558746338,0.344663143157959,-0.03223468363285065,0.005912871100008488,-0.47856107354164124
5.9675843715667725,0.3057526648044586,-0.3900587558746338,0.344663143157959,-0.03223468363285065,0.005912871100008488,-0.47856107354164124
5.987652778625488,0.3057526648044586,-0.3900587558746338,0.344663143157959,-0.032616160809993744,0.005912871100008488,-0.47856107354164124
6.008097171783447,0.3057526648044586,-0.3900587558746338,0.344663143157959,-0.032616160809993744,0.005912871100008488,-0.47856107354164124
6.02827787399292,0.3057526648044586,-0.3900587558746338,0.344663143157959,-0.032616160809993744,0.005912871100008488,-0.47856107354164124
6.048327445983887,0.3057526648044586,-0.3900587558746338,0.344663143157959,-0.032616160809993744,0.005912871100008488,-0.47856107354164124
6.0683581829071045,0.3061341345310211,-0.3900587558746338,0.344663143157959,-0.03299763426184654,0.005912871100008488,-0.47856107354164124
6.0884175300598145,0.3061341345310211,-0.3904402256011963,0.344663143157959,-0.03299763426184654,0.005912871100008488,-0.47856107354164124
6.108494281768799,0.3061341345310211,-0.3904402256011963,0.344663143157959,-0.03299763426184654,0.005912871100008488,-0.47856107354164124
6.128565549850464,0.3068970739841461,-0.3919661343097687,0.344663143157959,-0.03299763426184654,0.005912871100008488,-0.47856107354164124
6.1486287117004395,0.3072785437107086,-0.39463645219802856,0.344663143157959,-0.032616160809993744,0.005912871100008488,-0.47856107354164124
6.19079065322876,0.3072785437107086,-0.39578089118003845,0.344663143157959,-0.03299763426184654,0.005912871100008488,-0.47856107354164124
6.21086311340332,0.3072785437107086,-0.4015030264854431,0.344663143157959,-0.03299763426184654,0.006294346414506435,-0.47856107354164124
6.2309417724609375,0.3072785437107086,-0.39921414852142334,0.34504464268684387,-0.03299763426184654,0.005912871100008488,-0.47856107354164124
6.251028299331665,0.3072785437107086,-0.39654383063316345,0.34580758213996887,-0.03299763426184654,0.005149920005351305,-0.47856107354164124
6.27122163772583,0.3072785437107086,-0.39463645219802856,0.34695202112197876,-0.03299763426184654,0.004386968910694122,-0.47856107354164124
6.291304111480713,0.3072785437107086,-0.3931105434894562,0.34771496057510376,-0.03299763426184654,0.00476844422519207,-0.47817960381507874
6.311474323272705,0.3072785437107086,-0.3927290737628937,0.34695202112197876,-0.03299763426184654,0.00476844422519207,-0.47817960381507874
6.331501483917236,0.3072785437107086,-0.3915846347808838,0.34657052159309387,-0.03299763426184654,0.005149920005351305,-0.47856107354164124
6.3515706062316895,0.3072785437107086,-0.3923476040363312,0.34580758213996887,-0.03299763426184654,0.005531395319849253,-0.47856107354164124
6.371623277664185,0.3072785437107086,-0.3919661343097687,0.34542611241340637,-0.03299763426184654,0.006294346414506435,-0.47856107354164124
6.391709804534912,0.3072785437107086,-0.3919661343097687,0.344663143157959,-0.03299763426184654,0.005531395319849253,-0.47856107354164124
6.411767959594727,0.3072785437107086,-0.3919661343097687,0.344663143157959,-0.03299763426184654,0.005912871100008488,-0.47817960381507874
6.4320068359375,0.3072785437107086,-0.3919661343097687,0.344663143157959,-0.03299763426184654,0.006294346414506435,-0.47856107354164124
6.452180624008179,0.3072785437107086,-0.3919661343097687,0.3442816734313965,-0.03299763426184654,0.00667582219466567,-0.47856107354164124
6.4722230434417725,0.3072785437107086,-0.3919661343097687,0.3442816734313965,-0.03299763426184654,0.007057297509163618,-0.47856107354164124
6.492286205291748,0.3072785437107086,-0.3919661343097687,0.3442816734313965,-0.03299763426184654,0.007057297509163618,-0.47856107354164124
6.512419939041138,0.3072785437107086,-0.3919661343097687,0.3442816734313965,-0.03299763426184654,0.007057297509163618,-0.47856107354164124
6.532502174377441,0.3072785437107086,-0.3919661343097687,0.3442816734313965,-0.03299763426184654,0.007057297509163618,-0.47856107354164124
6.5525712966918945,0.3072785437107086,-0.3919661343097687,0.3442816734313965,-0.03299763426184654,0.007057297509163618,-0.47856107354164124
6.572643518447876,0.3072785437107086,-0.3919661343097687,0.3442816734313965,-0.03299763426184654,0.007057297509163618,-0.47856107354164124
6.592704772949219,0.3068970739841461,-0.3919661343097687,0.3442816734313965,-0.03337911143898964,0.007057297509163618,-0.47856107354164124
6.61279821395874,0.3068970739841461,-0.3919661343097687,0.3442816734313965,-0.03337911143898964,0.007057297509163618,-0.47856107354164124
6.632863521575928,0.3068970739841461,-0.3915846347808838,0.3442816734313965,-0.03299763426184654,0.007057297509163618,-0.47856107354164124
6.653017282485962,0.3068970739841461,-0.3912031650543213,0.3442816734313965,-0.03337911143898964,0.00667582219466567,-0.47856107354164124
6.673095703125,0.3068970739841461,-0.3912031650543213,0.3442816734313965,-0.03337911143898964,0.007057297509163618,-0.47856107354164124
6.693299770355225,0.3068970739841461,-0.3912031650543213,0.3442816734313965,-0.03299763426184654,0.007057297509163618,-0.47856107354164124
6.713382959365845,0.3068970739841461,-0.3912031650543213,0.3442816734313965,-0.03337911143898964,0.007057297509163618,-0.47856107354164124
6.733485221862793,0.3065156042575836,-0.3908216953277588,0.344663143157959,-0.03299763426184654,0.007057297509163618,-0.47856107354164124
6.753544807434082,0.3057526648044586,-0.3908216953277588,0.344663143157959,-0.03299763426184654,0.007057297509163618,-0.47856107354164124
6.773608207702637,0.3057526648044586,-0.3908216953277588,0.344663143157959,-0.03337911143898964,0.006294346414506435,-0.47856107354164124
6.793819189071655,0.3057526648044586,-0.3908216953277588,0.344663143157959,-0.03299763426184654,0.006294346414506435,-0.47856107354164124
6.8139142990112305,0.3057526648044586,-0.3908216953277588,0.344663143157959,-0.03299763426184654,0.006294346414506435,-0.47856107354164124
6.833985805511475,0.3057526648044586,-0.3908216953277588,0.344663143157959,-0.03299763426184654,0.006294346414506435,-0.47856107354164124
6.854068994522095,0.3057526648044586,-0.3908216953277588,0.344663143157959,-0.03337911143898964,0.006294346414506435,-0.47856107354164124
6.874109983444214,0.3057526648044586,-0.3908216953277588,0.344663143157959,-0.03337911143898964,0.00667582219466567,-0.47856107354164124
6.894198179244995,0.3057526648044586,-0.3908216953277588,0.344663143157959,-0.03337911143898964,0.00667582219466567,-0.47856107354164124
6.91425633430481,0.3057526648044586,-0.3908216953277588,0.34504464268684387,-0.03337911143898964,0.00667582219466567,-0.47856107354164124
6.934330463409424,0.3057526648044586,-0.3908216953277588,0.34504464268684387,-0.03337911143898964,0.006294346414506435,-0.47856107354164124
6.954499006271362,0.3057526648044586,-0.3908216953277588,0.34504464268684387,-0.03299763426184654,0.006294346414506435,-0.47856107354164124
6.974589109420776,0.3057526648044586,-0.3908216953277588,0.34504464268684387,-0.03337911143898964,0.006294346414506435,-0.47856107354164124
6.994703531265259,0.3057526648044586,-0.3908216953277588,0.34504464268684387,-0.03337911143898964,0.006294346414506435,-0.47856107354164124
7.014771461486816,0.3057526648044586,-0.3908216953277588,0.34504464268684387,-0.03337911143898964,0.006294346414506435,-0.47856107354164124
7.035037279129028,0.3057526648044586,-0.3908216953277588,0.34504464268684387,-0.03337911143898964,0.006294346414506435,-0.47856107354164124
7.055125951766968,0.3061341345310211,-0.3908216953277588,0.34504464268684387,-0.03337911143898964,0.006294346414506435,-0.47856107354164124
7.075162887573242,0.3061341345310211,-0.3908216953277588,0.34504464268684387,-0.03337911143898964,0.005912871100008488,-0.47856107354164124
7.095312833786011,0.3061341345310211,-0.3908216953277588,0.34504464268684387,-0.03337911143898964,0.005912871100008488,-0.47856107354164124
7.115302562713623,0.3068970739841461,-0.3908216953277588,0.34504464268684387,-0.03299763426184654,0.005912871100008488,-0.47856107354164124
7.135388135910034,0.3072785437107086,-0.3908216953277588,0.34504464268684387,-0.03299763426184654,0.005912871100008488,-0.47856107354164124
7.1554131507873535,0.3072785437107086,-0.3900587558746338,0.34504464268684387,-0.03337911143898964,0.005912871100008488,-0.47856107354164124
7.175506353378296,0.3072785437107086,-0.3900587558746338,0.34504464268684387,-0.03299763426184654,0.006294346414506435,-0.47856107354164124
7.195541858673096,0.3072785437107086,-0.3900587558746338,0.34504464268684387,-0.03299763426184654,0.006294346414506435,-0.47856107354164124
7.21562933921814,0.3072785437107086,-0.3900587558746338,0.34504464268684387,-0.03299763426184654,0.005912871100008488,-0.47856107354164124
7.235718011856079,0.3072785437107086,-0.3900587558746338,0.34504464268684387,-0.03299763426184654,0.005531395319849253,-0.47856107354164124
7.255908012390137,0.3072785437107086,-0.3900587558746338,0.34504464268684387,-0.03299763426184654,0.005149920005351305,-0.47856107354164124
7.275821208953857,0.3072785437107086,-0.3900587558746338,0.344663143157959,-0.03299763426184654,0.005149920005351305,-0.47856107354164124
7.295925140380859,0.3068970739841461,-0.3900587558746338,0.344663143157959,-0.03299763426184654,0.005149920005351305,-0.47856107354164124
7.3160154819488525,0.3072785437107086,-0.3900587558746338,0.344663143157959,-0.03299763426184654,0.005149920005351305,-0.47856107354164124
7.33608865737915,0.3072785437107086,-0.3900587558746338,0.344663143157959,-0.03299763426184654,0.005531395319849253,-0.47856107354164124
7.356143951416016,0.3072785437107086,-0.3900587558746338,0.344663143157959,-0.03299763426184654,0.005531395319849253,-0.47856107354164124
7.376256942749023,0.3072785437107086,-0.3900587558746338,0.344663143157959,-0.03299763426184654,0.005149920005351305,-0.47856107354164124
7.396307468414307,0.3072785437107086,-0.3900587558746338,0.344663143157959,-0.03299763426184654,0.005531395319849253,-0.47856107354164124
7.4163901805877686,0.3072785437107086,-0.3900587558746338,0.344663143157959,-0.03299763426184654,0.005531395319849253,-0.47856107354164124
7.436438322067261,0.3068970739841461,-0.3900587558746338,0.344663143157959,-0.03299763426184654,0.005531395319849253,-0.47856107354164124
7.456538438796997,0.3072785437107086,-0.3900587558746338,0.344663143157959,-0.03299763426184654,0.005531395319849253,-0.47856107354164124
7.47659969329834,0.3068970739841461,-0.3900587558746338,0.344663143157959,-0.03299763426184654,0.005531395319849253,-0.47856107354164124
7.496670484542847,0.3072785437107086,-0.3900587558746338,0.344663143157959,-0.03299763426184654,0.005531395319849253,-0.47856107354164124
7.516735315322876,0.3072785437107086,-0.3900587558746338,0.344663143157959,-0.03299763426184654,0.005531395319849253,-0.47856107354164124
7.536929368972778,0.3068970739841461,-0.3900587558746338,0.344663143157959,-0.03299763426184654,0.005531395319849253,-0.47856107354164124
7.556974649429321,0.3068970739841461,-0.3900587558746338,0.344663143157959,-0.03299763426184654,0.005531395319849253,-0.47856107354164124
7.577033042907715,0.3068970739841461,-0.3900587558746338,0.344663143157959,-0.03299763426184654,0.005531395319849253,-0.47856107354164124
7.59728217124939,0.3068970739841461,-0.3900587558746338,0.344663143157959,-0.03299763426184654,0.005531395319849253,-0.47856107354164124
7.6174256801605225,0.3068970739841461,-0.3900587558746338,0.344663143157959,-0.03299763426184654,0.005531395319849253,-0.47856107354164124
7.63749098777771,0.3068970739841461,-0.3900587558746338,0.344663143157959,-0.03299763426184654,0.005912871100008488,-0.47856107354164124
7.657530784606934,0.3068970739841461,-0.3900587558746338,0.344663143157959,-0.03299763426184654,0.005912871100008488,-0.47856107354164124
7.67770528793335,0.3068970739841461,-0.3900587558746338,0.344663143157959,-0.03299763426184654,0.005912871100008488,-0.47856107354164124
7.697856664657593,0.3068970739841461,-0.3900587558746338,0.344663143157959,-0.03299763426184654,0.005912871100008488,-0.47856107354164124
7.717933893203735,0.3068970739841461,-0.3900587558746338,0.344663143157959,-0.03299763426184654,0.005912871100008488,-0.47856107354164124
7.737999439239502,0.3068970739841461,-0.3900587558746338,0.344663143157959,-0.03299763426184654,0.005912871100008488,-0.47856107354164124
7.758072376251221,0.3068970739841461,-0.3900587558746338,0.344663143157959,-0.03299763426184654,0.005912871100008488,-0.47856107354164124
7.778180837631226,0.3068970739841461,-0.3900587558746338,0.344663143157959,-0.032616160809993744,0.005912871100008488,-0.47856107354164124
7.798323631286621,0.3068970739841461,-0.3900587558746338,0.344663143157959,-0.032616160809993744,0.005912871100008488,-0.47856107354164124
7.818329334259033,0.3068970739841461,-0.3900587558746338,0.344663143157959,-0.03299763426184654,0.005912871100008488,-0.47856107354164124
7.838387966156006,0.3068970739841461,-0.3900587558746338,0.344663143157959,-0.032616160809993744,0.005912871100008488,-0.47856107354164124
7.858506917953491,0.3068970739841461,-0.3900587558746338,0.344663143157959,-0.03299763426184654,0.005912871100008488,-0.47856107354164124
7.878579378128052,0.3068970739841461,-0.3900587558746338,0.344663143157959,-0.032616160809993744,0.005912871100008488,-0.47856107354164124
7.898663759231567,0.3068970739841461,-0.3900587558746338,0.344663143157959,-0.032616160809993744,0.005912871100008488,-0.47856107354164124
7.918704509735107,0.3068970739841461,-0.3900587558746338,0.344663143157959,-0.032616160809993744,0.005912871100008488,-0.47856107354164124
7.93879771232605,0.3068970739841461,-0.3900587558746338,0.344663143157959,-0.032616160809993744,0.005912871100008488,-0.47856107354164124
7.958954811096191,0.3068970739841461,-0.3900587558746338,0.344663143157959,-0.032616160809993744,0.005912871100008488,-0.47856107354164124
7.978987216949463,0.3068970739841461,-0.3900587558746338,0.344663143157959,-0.032616160809993744,0.006294346414506435,-0.47856107354164124
7.999023199081421,0.3068970739841461,-0.3900587558746338,0.344663143157959,-0.032616160809993744,0.005912871100008488,-0.47856107354164124
8.019116401672363,0.3065156042575836,-0.3900587558746338,0.344663143157959,-0.032616160809993744,0.005912871100008488,-0.47856107354164124
8.039150476455688,0.3061341345310211,-0.3900587558746338,0.344663143157959,-0.032616160809993744,0.006294346414506435,-0.47856107354164124
8.059206485748291,0.3057526648044586,-0.3900587558746338,0.344663143157959,-0.032616160809993744,0.007057297509163618,-0.47856107354164124
8.079854965209961,0.3057526648044586,-0.3900587558746338,0.344663143157959,-0.032616160809993744,0.00667582219466567,-0.47856107354164124
8.099939107894897,0.3057526648044586,-0.3900587558746338,0.344663143157959,-0.032616160809993744,0.006294346414506435,-0.47856107354164124
8.120018482208252,0.3057526648044586,-0.3900587558746338,0.344663143157959,-0.03223468363285065,0.006294346414506435,-0.47856107354164124
8.140108585357666,0.3057526648044586,-0.3900587558746338,0.344663143157959,-0.03223468363285065,0.006294346414506435,-0.47856107354164124
8.160284519195557,0.3061341345310211,-0.3904402256011963,0.34504464268684387,-0.03223468363285065,0.00667582219466567,-0.47856107354164124
8.180380582809448,0.3061341345310211,-0.3912031650543213,0.34504464268684387,-0.03223468363285065,0.00667582219466567,-0.47856107354164124
8.200442790985107,0.3061341345310211,-0.3919661343097687,0.34504464268684387,-0.03223468363285065,0.00667582219466567,-0.47856107354164124
8.220519304275513,0.3061341345310211,-0.39387351274490356,0.34542611241340637,-0.03223468363285065,0.00667582219466567,-0.47856107354164124
8.240561723709106,0.3065156042575836,-0.39425498247146606,0.34542611241340637,-0.03223468363285065,0.00667582219466567,-0.47856107354164124
8.260623455047607,0.3068970739841461,-0.39425498247146606,0.34542611241340637,-0.03223468363285065,0.005912871100008488,-0.47856107354164124
8.280718088150024,0.3072785437107086,-0.39387351274490356,0.34542611241340637,-0.03223468363285065,0.005912871100008488,-0.47856107354164124
8.300808906555176,0.3072785437107086,-0.3934920132160187,0.34542611241340637,-0.03223468363285065,0.006294346414506435,-0.47856107354164124
8.32086992263794,0.3072785437107086,-0.3923476040363312,0.34542611241340637,-0.03185320645570755,0.00667582219466567,-0.47856107354164124
8.340956926345825,0.3072785437107086,-0.3915846347808838,0.34542611241340637,-0.03223468363285065,0.00667582219466567,-0.47856107354164124
8.361055612564087,0.3072785437107086,-0.3915846347808838,0.34542611241340637,-0.03185320645570755,0.006294346414506435,-0.47856107354164124
8.381114959716797,0.3072785437107086,-0.3912031650543213,0.34542611241340637,-0.03185320645570755,0.006294346414506435,-0.47856107354164124
8.40119457244873,0.3072785437107086,-0.3912031650543213,0.34542611241340637,-0.03223468363285065,0.006294346414506435,-0.47856107354164124
8.421489715576172,0.3072785437107086,-0.3908216953277588,0.34542611241340637,-0.03185320645570755,0.005912871100008488,-0.47856107354164124
8.44157338142395,0.3072785437107086,-0.3908216953277588,0.34542611241340637,-0.03185320645570755,0.006294346414506435,-0.47856107354164124
8.461641311645508,0.3072785437107086,-0.3908216953277588,0.34542611241340637,-0.03223468363285065,0.006294346414506435,-0.47856107354164124
8.481709241867065,0.3072785437107086,-0.3908216953277588,0.34542611241340637,-0.03185320645570755,0.006294346414506435,-0.47856107354164124
8.501758575439453,0.3072785437107086,-0.3908216953277588,0.34504464268684387,-0.03223468363285065,0.006294346414506435,-0.47856107354164124
8.521855115890503,0.3072785437107086,-0.3904402256011963,0.34504464268684387,-0.03223468363285065,0.006294346414506435,-0.47856107354164124
8.541924476623535,0.3072785437107086,-0.3900587558746338,0.344663143157959,-0.03223468363285065,0.005912871100008488,-0.47856107354164124
8.56205153465271,0.3072785437107086,-0.3900587558746338,0.344663143157959,-0.03223468363285065,0.005912871100008488,-0.47856107354164124
8.582056760787964,0.3068970739841461,-0.3900587558746338,0.344663143157959,-0.03223468363285065,0.005912871100008488,-0.47856107354164124
8.602185249328613,0.3068970739841461,-0.3900587558746338,0.344663143157959,-0.03223468363285065,0.006294346414506435,-0.47856107354164124
8.622293949127197,0.3072785437107086,-0.3900587558746338,0.344663143157959,-0.03223468363285065,0.006294346414506435,-0.47856107354164124
8.642354726791382,0.3068970739841461,-0.3900587558746338,0.344663143157959,-0.03223468363285065,0.006294346414506435,-0.47856107354164124
8.662415742874146,0.3068970739841461,-0.3900587558746338,0.344663143157959,-0.03223468363285065,0.005912871100008488,-0.47856107354164124
8.682579517364502,0.3068970739841461,-0.3900587558746338,0.344663143157959,-0.03223468363285065,0.005912871100008488,-0.47856107354164124
8.70273733139038,0.3068970739841461,-0.3900587558746338,0.344663143157959,-0.03223468363285065,0.005912871100008488,-0.47856107354164124
8.722797393798828,0.3068970739841461,-0.3900587558746338,0.344663143157959,-0.03185320645570755,0.005912871100008488,-0.47856107354164124
8.742868900299072,0.3068970739841461,-0.3900587558746338,0.344663143157959,-0.03223468363285065,0.006294346414506435,-0.47856107354164124
8.762901782989502,0.3068970739841461,-0.3900587558746338,0.344663143157959,-0.03223468363285065,0.006294346414506435,-0.47856107354164124
8.782984972000122,0.3068970739841461,-0.3900587558746338,0.344663143157959,-0.03223468363285065,0.005912871100008488,-0.47856107354164124
8.803052186965942,0.3068970739841461,-0.3900587558746338,0.344663143157959,-0.03223468363285065,0.005912871100008488,-0.47856107354164124
8.82310175895691,0.3068970739841461,-0.3900587558746338,0.344663143157959,-0.03223468363285065,0.005912871100008488,-0.47856107354164124
8.843134880065918,0.3068970739841461,-0.3900587558746338,0.344663143157959,-0.03223468363285065,0.005912871100008488,-0.47856107354164124
8.863230466842651,0.3068970739841461,-0.3900587558746338,0.344663143157959,-0.03223468363285065,0.005912871100008488,-0.47856107354164124
8.883305549621582,0.3068970739841461,-0.3900587558746338,0.344663143157959,-0.03223468363285065,0.005912871100008488,-0.47856107354164124
8.903364181518555,0.3065156042575836,-0.3900587558746338,0.344663143157959,-0.03223468363285065,0.006294346414506435,-0.47856107354164124
8.923478364944458,0.3065156042575836,-0.3900587558746338,0.344663143157959,-0.03223468363285065,0.006294346414506435,-0.47856107354164124
8.943524837493896,0.3065156042575836,-0.3900587558746338,0.344663143157959,-0.03223468363285065,0.005912871100008488,-0.47856107354164124
8.96358609199524,0.3065156042575836,-0.3900587558746338,0.344663143157959,-0.03223468363285065,0.005912871100008488,-0.47856107354164124
8.983652591705322,0.3065156042575836,-0.3900587558746338,0.344663143157959,-0.03223468363285065,0.005912871100008488,-0.47856107354164124
9.003700494766235,0.3065156042575836,-0.3900587558746338,0.344663143157959,-0.03223468363285065,0.005912871100008488,-0.47856107354164124
9.023785829544067,0.3065156042575836,-0.3900587558746338,0.344663143157959,-0.03223468363285065,0.006294346414506435,-0.47856107354164124
9.043868064880371,0.3065156042575836,-0.3900587558746338,0.344663143157959,-0.03223468363285065,0.006294346414506435,-0.47856107354164124
9.063936710357666,0.3065156042575836,-0.3900587558746338,0.344663143157959,-0.03223468363285065,0.006294346414506435,-0.47856107354164124
9.084012985229492,0.3065156042575836,-0.3900587558746338,0.344663143157959,-0.03223468363285065,0.006294346414506435,-0.47856107354164124
9.104082822799683,0.3065156042575836,-0.3900587558746338,0.344663143157959,-0.03223468363285065,0.006294346414506435,-0.47856107354164124
9.124147653579712,0.3065156042575836,-0.3900587558746338,0.344663143157959,-0.03223468363285065,0.006294346414506435,-0.47856107354164124
9.144202470779419,0.3065156042575836,-0.3900587558746338,0.344663143157959,-0.03223468363285065,0.006294346414506435,-0.47856107354164124
9.164407014846802,0.3065156042575836,-0.3900587558746338,0.344663143157959,-0.03223468363285065,0.006294346414506435,-0.47856107354164124
9.184504747390747,0.3065156042575836,-0.3900587558746338,0.344663143157959,-0.03223468363285065,0.006294346414506435,-0.47856107354164124
9.204567193984985,0.3065156042575836,-0.3900587558746338,0.344663143157959,-0.03223468363285065,0.005912871100008488,-0.47856107354164124
9.224637269973755,0.3065156042575836,-0.3900587558746338,0.344663143157959,-0.03223468363285065,0.006294346414506435,-0.47856107354164124
9.244717359542847,0.3065156042575836,-0.3900587558746338,0.344663143157959,-0.03223468363285065,0.006294346414506435,-0.47856107354164124
9.264820337295532,0.3065156042575836,-0.3900587558746338,0.344663143157959,-0.03223468363285065,0.006294346414506435,-0.47856107354164124
9.284913063049316,0.3065156042575836,-0.3900587558746338,0.34504464268684387,-0.03223468363285065,0.006294346414506435,-0.47856107354164124
9.30514669418335,0.3065156042575836,-0.3900587558746338,0.344663143157959,-0.03223468363285065,0.006294346414506435,-0.47856107354164124
9.32510256767273,0.3065156042575836,-0.3904402256011963,0.34504464268684387,-0.03223468363285065,0.006294346414506435,-0.47856107354164124
9.345210313796997,0.3065156042575836,-0.3919661343097687,0.34504464268684387,-0.03223468363285065,0.006294346414506435,-0.47856107354164124
9.365329504013062,0.3065156042575836,-0.3927290737628937,0.34504464268684387,-0.03223468363285065,0.006294346414506435,-0.47856107354164124
9.385364294052124,0.3065156042575836,-0.39501792192459106,0.34542611241340637,-0.03223468363285065,0.006294346414506435,-0.47856107354164124
9.405437231063843,0.3065156042575836,-0.39654383063316345,0.34542611241340637,-0.03223468363285065,0.006294346414506435,-0.47856107354164124
9.425581693649292,0.3068970739841461,-0.39692530035972595,0.34542611241340637,-0.03223468363285065,0.006294346414506435,-0.47856107354164124
9.445676803588867,0.3068970739841461,-0.39578089118003845,0.34542611241340637,-0.03223468363285065,0.006294346414506435,-0.47856107354164124
9.465693712234497,0.3068970739841461,-0.39501792192459106,0.34580758213996887,-0.03223468363285065,0.005912871100008488,-0.47856107354164124
9.485772371292114,0.3065156042575836,-0.39387351274490356,0.34695202112197876,-0.03223468363285065,0.005912871100008488,-0.47856107354164124
9.505906820297241,0.3068970739841461,-0.3931105434894562,0.34695202112197876,-0.03223468363285065,0.006294346414506435,-0.47856107354164124
9.525989532470703,0.3068970739841461,-0.3923476040363312,0.34657052159309387,-0.03223468363285065,0.005912871100008488,-0.47856107354164124
9.546093702316284,0.3068970739841461,-0.3919661343097687,0.34657052159309387,-0.03223468363285065,0.006294346414506435,-0.47856107354164124
9.566195964813232,0.3068970739841461,-0.3919661343097687,0.34618905186653137,-0.03223468363285065,0.006294346414506435,-0.47856107354164124
9.586211204528809,0.3068970739841461,-0.3915846347808838,0.34618905186653137,-0.03223468363285065,0.005912871100008488,-0.47856107354164124
9.606348037719727,0.3068970739841461,-0.3912031650543213,0.34618905186653137,-0.03223468363285065,0.005912871100008488,-0.47856107354164124
9.626388549804688,0.3068970739841461,-0.3908216953277588,0.34542611241340637,-0.03223468363285065,0.005912871100008488,-0.47856107354164124
9.646459579467773,0.3065156042575836,-0.3908216953277588,0.34542611241340637,-0.03223468363285065,0.005912871100008488,-0.47856107354164124
9.666619062423706,0.3068970739841461,-0.3908216953277588,0.34504464268684387,-0.03223468363285065,0.006294346414506435,-0.47856107354164124
9.686784744262695,0.3068970739841461,-0.3908216953277588,0.34504464268684387,-0.03223468363285065,0.006294346414506435,-0.47856107354164124
9.706788778305054,0.3068970739841461,-0.3908216953277588,0.34504464268684387,-0.03223468363285065,0.006294346414506435,-0.47856107354164124
9.726853370666504,0.3068970739841461,-0.3908216953277588,0.34504464268684387,-0.03223468363285065,0.006294346414506435,-0.47856107354164124
9.746915817260742,0.3068970739841461,-0.3900587558746338,0.34504464268684387,-0.03223468363285065,0.005912871100008488,-0.47856107354164124
9.767011642456055,0.3068970739841461,-0.3900587558746338,0.344663143157959,-0.03223468363285065,0.005912871100008488,-0.47856107354164124
9.787126064300537,0.3068970739841461,-0.3900587558746338,0.344663143157959,-0.03223468363285065,0.006294346414506435,-0.47856107354164124
9.807199239730835,0.3068970739841461,-0.3900587558746338,0.344663143157959,-0.03223468363285065,0.006294346414506435,-0.47856107354164124
9.82722544670105,0.3068970739841461,-0.3900587558746338,0.34504464268684387,-0.03223468363285065,0.006294346414506435,-0.47856107354164124
9.847286701202393,0.3068970739841461,-0.3900587558746338,0.344663143157959,-0.03223468363285065,0.005912871100008488,-0.47856107354164124
9.867378950119019,0.3068970739841461,-0.3900587558746338,0.344663143157959,-0.03223468363285065,0.005912871100008488,-0.47856107354164124
9.887449741363525,0.3068970739841461,-0.3900587558746338,0.344663143157959,-0.03223468363285065,0.005912871100008488,-0.47856107354164124
9.907518863677979,0.3068970739841461,-0.3900587558746338,0.344663143157959,-0.03223468363285065,0.005912871100008488,-0.47856107354164124
9.927754402160645,0.3068970739841461,-0.3900587558746338,0.344663143157959,-0.03223468363285065,0.006294346414506435,-0.47856107354164124
9.94789171218872,0.3068970739841461,-0.3900587558746338,0.344663143157959,-0.03223468363285065,0.006294346414506435,-0.47856107354164124
9.967927932739258,0.3068970739841461,-0.3900587558746338,0.344663143157959,-0.03223468363285065,0.005912871100008488,-0.47856107354164124
9.988119125366211,0.3068970739841461,-0.3900587558746338,0.344663143157959,-0.03223468363285065,0.005912871100008488,-0.47856107354164124
10.00814175605774,0.3068970739841461,-0.3900587558746338,0.344663143157959,-0.03223468363285065,0.005912871100008488,-0.47856107354164124
10.02821660041809,0.3068970739841461,-0.3900587558746338,0.344663143157959,-0.03223468363285065,0.005912871100008488,-0.47856107354164124
10.048355102539062,0.3068970739841461,-0.3900587558746338,0.344663143157959,-0.03223468363285065,0.006294346414506435,-0.47856107354164124
10.068379878997803,0.3068970739841461,-0.3900587558746338,0.344663143157959,-0.03223468363285065,0.006294346414506435,-0.47856107354164124
10.088426113128662,0.3068970739841461,-0.3900587558746338,0.344663143157959,-0.03223468363285065,0.006294346414506435,-0.47856107354164124
10.108511924743652,0.3068970739841461,-0.3900587558746338,0.344663143157959,-0.03223468363285065,0.005912871100008488,-0.47856107354164124
10.128577470779419,0.3068970739841461,-0.3900587558746338,0.344663143157959,-0.03223468363285065,0.005912871100008488,-0.47856107354164124
10.148664236068726,0.3068970739841461,-0.3900587558746338,0.344663143157959,-0.03223468363285065,0.005912871100008488,-0.47856107354164124
10.168715715408325,0.3068970739841461,-0.3900587558746338,0.344663143157959,-0.03223468363285065,0.005912871100008488,-0.47856107354164124
10.188812494277954,0.3068970739841461,-0.3900587558746338,0.344663143157959,-0.03223468363285065,0.005912871100008488,-0.47856107354164124
10.208872556686401,0.3068970739841461,-0.3900587558746338,0.344663143157959,-0.03223468363285065,0.006294346414506435,-0.47856107354164124
10.228962659835815,0.3068970739841461,-0.3900587558746338,0.344663143157959,-0.03223468363285065,0.006294346414506435,-0.47856107354164124
10.249002695083618,0.3068970739841461,-0.3900587558746338,0.344663143157959,-0.03223468363285065,0.006294346414506435,-0.47856107354164124
10.2691068649292,0.3068970739841461,-0.3900587558746338,0.344663143157959,-0.03223468363285065,0.005912871100008488,-0.47856107354164124
10.28916597366333,0.3068970739841461,-0.3900587558746338,0.344663143157959,-0.03223468363285065,0.005912871100008488,-0.47856107354164124
10.309215784072876,0.3068970739841461,-0.3900587558746338,0.344663143157959,-0.03223468363285065,0.006294346414506435,-0.47856107354164124
10.329280853271484,0.3068970739841461,-0.3900587558746338,0.344663143157959,-0.03223468363285065,0.005912871100008488,-0.47856107354164124
10.349370241165161,0.3068970739841461,-0.3900587558746338,0.344663143157959,-0.03223468363285065,0.006294346414506435,-0.47856107354164124
10.369452714920044,0.3068970739841461,-0.3900587558746338,0.344663143157959,-0.03223468363285065,0.005912871100008488,-0.47856107354164124
10.38954758644104,0.3068970739841461,-0.3900587558746338,0.344663143157959,-0.03223468363285065,0.005912871100008488,-0.47856107354164124
10.409604549407959,0.3068970739841461,-0.3900587558746338,0.344663143157959,-0.03223468363285065,0.005912871100008488,-0.47856107354164124
10.429741144180298,0.3068970739841461,-0.3900587558746338,0.344663143157959,-0.03223468363285065,0.005912871100008488,-0.47856107354164124
10.449757099151611,0.3068970739841461,-0.3900587558746338,0.344663143157959,-0.03223468363285065,0.006294346414506435,-0.47856107354164124
10.46980333328247,0.3068970739841461,-0.3900587558746338,0.344663143157959,-0.03223468363285065,0.005912871100008488,-0.47856107354164124
10.489858627319336,0.3068970739841461,-0.3900587558746338,0.344663143157959,-0.03223468363285065,0.006294346414506435,-0.47856107354164124
10.509940385818481,0.3068970739841461,-0.3900587558746338,0.344663143157959,-0.03223468363285065,0.006294346414506435,-0.47856107354164124
10.530054807662964,0.3068970739841461,-0.3900587558746338,0.344663143157959,-0.03223468363285065,0.005912871100008488,-0.47856107354164124
10.55013632774353,0.3068970739841461,-0.3900587558746338,0.344663143157959,-0.03223468363285065,0.005912871100008488,-0.47856107354164124
10.570186376571655,0.3068970739841461,-0.3900587558746338,0.344663143157959,-0.03223468363285065,0.005912871100008488,-0.47856107354164124
10.590279340744019,0.3068970739841461,-0.3900587558746338,0.344663143157959,-0.03223468363285065,0.006294346414506435,-0.47856107354164124
10.61035418510437,0.3068970739841461,-0.3904402256011963,0.344663143157959,-0.03223468363285065,0.006294346414506435,-0.47856107354164124
10.630426406860352,0.3068970739841461,-0.3904402256011963,0.344663143157959,-0.03223468363285065,0.006294346414506435,-0.47856107354164124
10.650466442108154,0.3068970739841461,-0.3904402256011963,0.344663143157959,-0.03223468363285065,0.006294346414506435,-0.47856107354164124
10.67063045501709,0.3068970739841461,-0.3908216953277588,0.344663143157959,-0.03223468363285065,0.005912871100008488,-0.47856107354164124
10.690721035003662,0.3068970739841461,-0.3919661343097687,0.344663143157959,-0.03223468363285065,0.005912871100008488,-0.47856107354164124
10.710781335830688,0.3068970739841461,-0.3923476040363312,0.34504464268684387,-0.03223468363285065,0.006294346414506435,-0.47856107354164124
10.730945587158203,0.3068970739841461,-0.3923476040363312,0.34504464268684387,-0.03223468363285065,0.006294346414506435,-0.47856107354164124
10.751238346099854,0.3068970739841461,-0.3919661343097687,0.34504464268684387,-0.03223468363285065,0.006294346414506435,-0.47856107354164124
10.771340370178223,0.3068970739841461,-0.3919661343097687,0.34504464268684387,-0.03223468363285065,0.006294346414506435,-0.47856107354164124
10.79141902923584,0.3068970739841461,-0.3915846347808838,0.34542611241340637,-0.03223468363285065,0.006294346414506435,-0.47856107354164124
10.8114755153656,0.3068970739841461,-0.3912031650543213,0.34542611241340637,-0.03223468363285065,0.006294346414506435,-0.47856107354164124
10.831519842147827,0.3068970739841461,-0.3912031650543213,0.34504464268684387,-0.03223468363285065,0.006294346414506435,-0.47856107354164124
10.85167384147644,0.3068970739841461,-0.3912031650543213,0.34542611241340637,-0.03223468363285065,0.006294346414506435,-0.47856107354164124
10.871702194213867,0.3068970739841461,-0.3912031650543213,0.34542611241340637,-0.03223468363285065,0.006294346414506435,-0.47817960381507874
10.891768217086792,0.3068970739841461,-0.3908216953277588,0.34504464268684387,-0.03223468363285065,0.006294346414506435,-0.47856107354164124
10.911817789077759,0.3068970739841461,-0.3908216953277588,0.34504464268684387,-0.03223468363285065,0.006294346414506435,-0.47856107354164124
10.93192458152771,0.3068970739841461,-0.3908216953277588,0.34542611241340637,-0.03223468363285065,0.006294346414506435,-0.47856107354164124
10.952015399932861,0.3068970739841461,-0.3908216953277588,0.34504464268684387,-0.03223468363285065,0.006294346414506435,-0.47856107354164124
10.972244501113892,0.3068970739841461,-0.3908216953277588,0.34504464268684387,-0.03223468363285065,0.006294346414506435,-0.47856107354164124
10.992231845855713,0.3068970739841461,-0.3900587558746338,0.34504464268684387,-0.03223468363285065,0.006294346414506435,-0.47856107354164124
11.012267827987671,0.3068970739841461,-0.3900587558746338,0.34504464268684387,-0.032616160809993744,0.005912871100008488,-0.47856107354164124
11.03235411643982,0.3068970739841461,-0.3900587558746338,0.34504464268684387,-0.03223468363285065,0.005912871100008488,-0.47856107354164124
11.052428007125854,0.3068970739841461,-0.3900587558746338,0.34504464268684387,-0.03223468363285065,0.006294346414506435,-0.47856107354164124
11.07248568534851,0.3068970739841461,-0.3900587558746338,0.344663143157959,-0.032616160809993744,0.006294346414506435,-0.47856107354164124
11.092540264129639,0.3068970739841461,-0.3900587558746338,0.344663143157959,-0.03223468363285065,0.006294346414506435,-0.47856107354164124
11.112629413604736,0.3068970739841461,-0.3900587558746338,0.344663143157959,-0.032616160809993744,0.005912871100008488,-0.47856107354164124
11.132711410522461,0.3068970739841461,-0.3900587558746338,0.344663143157959,-0.032616160809993744,0.005912871100008488,-0.47856107354164124
11.152814626693726,0.3068970739841461,-0.3900587558746338,0.344663143157959,-0.03223468363285065,0.005912871100008488,-0.47856107354164124
11.172839164733887,0.3068970739841461,-0.3900587558746338,0.344663143157959,-0.03223468363285065,0.005912871100008488,-0.47856107354164124
11.193089723587036,0.3068970739841461,-0.3900587558746338,0.344663143157959,-0.03223468363285065,0.006294346414506435,-0.47856107354164124
11.21316909790039,0.3068970739841461,-0.3900587558746338,0.344663143157959,-0.03223468363285065,0.006294346414506435,-0.47856107354164124
11.23324728012085,0.3065156042575836,-0.3900587558746338,0.344663143157959,-0.03223468363285065,0.005912871100008488,-0.47856107354164124
11.253320932388306,0.3065156042575836,-0.3900587558746338,0.344663143157959,-0.03223468363285065,0.005912871100008488,-0.47856107354164124
11.273393154144287,0.3068970739841461,-0.3900587558746338,0.344663143157959,-0.03223468363285065,0.005912871100008488,-0.47856107354164124
11.293487787246704,0.3068970739841461,-0.3900587558746338,0.344663143157959,-0.03223468363285065,0.005912871100008488,-0.47817960381507874
11.313559293746948,0.3068970739841461,-0.3900587558746338,0.344663143157959,-0.03223468363285065,0.006294346414506435,-0.47856107354164124
11.333662748336792,0.3068970739841461,-0.3900587558746338,0.344663143157959,-0.03223468363285065,0.005912871100008488,-0.47817960381507874
11.353728771209717,0.3068970739841461,-0.3900587558746338,0.344663143157959,-0.03223468363285065,0.006294346414506435,-0.47856107354164124
11.374225854873657,0.3068970739841461,-0.3900587558746338,0.344663143157959,-0.03223468363285065,0.006294346414506435,-0.47856107354164124
11.394310474395752,0.3068970739841461,-0.3900587558746338,0.344663143157959,-0.03223468363285065,0.005912871100008488,-0.47817960381507874
11.414372682571411,0.3068970739841461,-0.3900587558746338,0.344663143157959,-0.03223468363285065,0.005912871100008488,-0.47817960381507874
11.434444189071655,0.3068970739841461,-0.3900587558746338,0.344663143157959,-0.03223468363285065,0.006294346414506435,-0.47856107354164124
11.45449948310852,0.3068970739841461,-0.3900587558746338,0.344663143157959,-0.03223468363285065,0.005912871100008488,-0.47856107354164124
11.47458815574646,0.3068970739841461,-0.3900587558746338,0.344663143157959,-0.032616160809993744,0.005912871100008488,-0.47856107354164124
11.4946928024292,0.3065156042575836,-0.3900587558746338,0.344663143157959,-0.03223468363285065,0.006294346414506435,-0.47856107354164124
11.514752626419067,0.3065156042575836,-0.3900587558746338,0.344663143157959,-0.032616160809993744,0.005912871100008488,-0.47817960381507874
11.53479528427124,0.3057526648044586,-0.3900587558746338,0.344663143157959,-0.03223468363285065,0.006294346414506435,-0.47856107354164124
11.554876565933228,0.30498969554901123,-0.3900587558746338,0.344663143157959,-0.03223468363285065,0.00667582219466567,-0.47817960381507874
11.574949264526367,0.30422675609588623,-0.3900587558746338,0.344663143157959,-0.03223468363285065,0.006294346414506435,-0.47817960381507874
11.595017194747925,0.30308231711387634,-0.3900587558746338,0.344663143157959,-0.03223468363285065,0.005912871100008488,-0.47817960381507874
11.615070104598999,0.30231937766075134,-0.3900587558746338,0.3442816734313965,-0.03223468363285065,0.005531395319849253,-0.47817960381507874
11.63518500328064,0.30079346895217896,-0.3900587558746338,0.3442816734313965,-0.03223468363285065,0.005912871100008488,-0.47779813408851624
11.655271291732788,0.29964902997016907,-0.3900587558746338,0.3442816734313965,-0.03223468363285065,0.005912871100008488,-0.47779813408851624
11.675350189208984,0.29926756024360657,-0.3900587558746338,0.3442816734313965,-0.03223468363285065,0.004386968910694122,-0.47779813408851624
11.695513486862183,0.2977416515350342,-0.3900587558746338,0.3435187339782715,-0.03223468363285065,0.004005493130534887,-0.47779813408851624
11.715646982192993,0.2977416515350342,-0.3900587558746338,0.343137264251709,-0.03223468363285065,0.0036240178160369396,-0.47779813408851624
11.735728979110718,0.2969787120819092,-0.3900587558746338,0.3427557647228241,-0.03185320645570755,0.0036240178160369396,-0.47741663455963135
11.75579309463501,0.2962157726287842,-0.3900587558746338,0.3423742949962616,-0.03185320645570755,0.0036240178160369396,-0.47703516483306885
11.77584958076477,0.2954528033733368,-0.3900587558746338,0.3423742949962616,-0.03147173300385475,0.004386968910694122,-0.47703516483306885
11.795909643173218,0.2943083941936493,-0.3896772861480713,0.3423742949962616,-0.030708782374858856,0.004386968910694122,-0.47627222537994385
11.816004514694214,0.2931639552116394,-0.3896772861480713,0.3423742949962616,-0.03032730519771576,0.004005493130534887,-0.47589075565338135
11.836018562316895,0.2924010157585144,-0.3896772861480713,0.3423742949962616,-0.03032730519771576,0.0036240178160369396,-0.47550925612449646
11.856087446212769,0.2920195460319519,-0.3896772861480713,0.3419928252696991,-0.02994582988321781,0.0032425422687083483,-0.47550925612449646
11.87618088722229,0.290112167596817,-0.3896772861480713,0.3419928252696991,-0.02994582988321781,0.0032425422687083483,-0.47550925612449646
11.896316051483154,0.290112167596817,-0.3889143168926239,0.3412298858165741,-0.029564354568719864,0.0032425422687083483,-0.47512778639793396
11.916407346725464,0.28896772861480713,-0.3889143168926239,0.3412298858165741,-0.029564354568719864,0.0032425422687083483,-0.47474631667137146
11.936511993408203,0.28820478916168213,-0.3889143168926239,0.3412298858165741,-0.029564354568719864,0.004005493130534887,-0.47474631667137146
11.956557512283325,0.28706035017967224,-0.3889143168926239,0.3412298858165741,-0.029182879254221916,0.0036240178160369396,-0.47474631667137146
11.976624250411987,0.28591591119766235,-0.3885328471660614,0.3408484160900116,-0.02880140393972397,0.004005493130534887,-0.47474631667137146
11.99670958518982,0.28477150201797485,-0.3885328471660614,0.3404669165611267,-0.02841992862522602,0.0036240178160369396,-0.47436484694480896
12.016790866851807,0.28400853276252747,-0.3877699077129364,0.3404669165611267,-0.028038453310728073,0.002861066721379757,-0.47398337721824646
12.036879301071167,0.28324559330940247,-0.3877699077129364,0.3400854468345642,-0.027656977996230125,0.002861066721379757,-0.4736018776893616
12.056915521621704,0.28286412358283997,-0.3877699077129364,0.3400854468345642,-0.02727550081908703,0.002861066721379757,-0.4732204079627991
12.077015161514282,0.2817196846008301,-0.3873884081840515,0.3400854468345642,-0.02689402550458908,0.002861066721379757,-0.4728389382362366
12.097084283828735,0.2805752754211426,-0.387006938457489,0.3393225073814392,-0.026512550190091133,0.0032425422687083483,-0.4724574685096741
12.117144107818604,0.2798123061656952,-0.387006938457489,0.3393225073814392,-0.026512550190091133,0.0036240178160369396,-0.4720759987831116
12.137189388275146,0.2786678969860077,-0.387006938457489,0.3389410376548767,-0.026512550190091133,0.0032425422687083483,-0.4716945290565491
12.157273530960083,0.2771419882774353,-0.387006938457489,0.3389410376548767,-0.026512550190091133,0.0032425422687083483,-0.4713130295276642
12.177368402481079,0.2759975492954254,-0.3866254687309265,0.3389410376548767,-0.026131074875593185,0.0032425422687083483,-0.4709315598011017
12.197492837905884,0.2756160795688629,-0.3866254687309265,0.3389410376548767,-0.025749599561095238,0.0020981156267225742,-0.4709315598011017
12.217506170272827,0.2748531401157379,-0.3858625292778015,0.3385595381259918,-0.025749599561095238,0.001716639962978661,-0.4705500900745392
12.237634420394897,0.273708701133728,-0.3854810297489166,0.3381780683994293,-0.025749599561095238,0.001716639962978661,-0.4705500900745392
12.257691383361816,0.2725642919540405,-0.3854810297489166,0.3381780683994293,-0.02536812424659729,0.001716639962978661,-0.4701686203479767
12.277776956558228,0.27141985297203064,-0.3854810297489166,0.3381780683994293,-0.024986648932099342,0.0020981156267225742,-0.4701686203479767
12.297837495803833,0.27027541399002075,-0.3850995600223541,0.3377965986728668,-0.024986648932099342,0.0024795911740511656,-0.4697871506214142
12.317959070205688,0.26951247453689575,-0.3847180902957916,0.3374151289463043,-0.024223696440458298,0.002861066721379757,-0.4694056510925293
12.338021755218506,0.26836803555488586,-0.3847180902957916,0.3370336592197418,-0.02384222112596035,0.0020981156267225742,-0.4686427116394043
12.358076810836792,0.26798656582832336,-0.3847180902957916,0.3370336592197418,-0.023079270496964455,0.0013351644156500697,-0.4678797721862793
12.37813925743103,0.2660791873931885,-0.3847180902957916,0.3370336592197418,-0.022697795182466507,0.0013351644156500697,-0.4678797721862793
12.398289442062378,0.264934778213501,-0.3843366205692291,0.3370336592197418,-0.022697795182466507,0.0009536888683214784,-0.4678797721862793
12.418423414230347,0.2637903392314911,-0.38357365131378174,0.3370336592197418,-0.02231631986796856,0.001716639962978661,-0.4674982726573944
12.438452243804932,0.2634088695049286,-0.38357365131378174,0.33665215969085693,-0.02231631986796856,0.0009536888683214784,-0.4674982726573944
12.45856523513794,0.2626459002494812,-0.38357365131378174,0.33627068996429443,-0.02193484455347061,0.0009536888683214784,-0.4674982726573944
12.478657960891724,0.2615014910697937,-0.38319218158721924,0.33627068996429443,-0.021553369238972664,0.0009536888683214784,-0.4671168029308319
12.498714923858643,0.2607385218143463,-0.38281071186065674,0.33588922023773193,-0.021171892061829567,0.0009536888683214784,-0.4671168029308319
12.518803834915161,0.2603570520877838,-0.38281071186065674,0.33588922023773193,-0.02079041674733162,0.0009536888683214784,-0.4671168029308319
12.538863182067871,0.2592126429080963,-0.38281071186065674,0.33550775051116943,-0.020027466118335724,0.0013351644156500697,-0.4667353332042694
12.558966875076294,0.2584496736526489,-0.38281071186065674,0.33550775051116943,-0.019645990803837776,0.0009536888683214784,-0.4667353332042694
12.579085350036621,0.2569237947463989,-0.38242924213409424,0.33512628078460693,-0.01926451548933983,0.0009536888683214784,-0.4663538634777069
12.59915041923523,0.25577935576438904,-0.38242924213409424,0.33474478125572205,-0.01926451548933983,0.0009536888683214784,-0.4659723937511444
12.619179964065552,0.25501641631126404,-0.38242924213409424,0.33474478125572205,-0.01888304017484188,0.0009536888683214784,-0.4659723937511444
12.639448404312134,0.25425344705581665,-0.38204777240753174,0.33474478125572205,-0.01888304017484188,0.00019073777366429567,-0.465209424495697
12.659525156021118,0.25349050760269165,-0.38166627287864685,0.33436331152915955,-0.018501564860343933,0.00019073777366429567,-0.464446485042572
12.679591178894043,0.25272753834724426,-0.38128480315208435,0.33398184180259705,-0.018501564860343933,0.00019073777366429567,-0.46368351578712463
12.69965386390686,0.25158312916755676,-0.38166627287864685,0.33398184180259705,-0.018501564860343933,0.00019073777366429567,-0.46368351578712463
12.719983339309692,0.2500572204589844,-0.38166627287864685,0.33360037207603455,-0.018120087683200836,0.0009536888683214784,-0.46330204606056213
12.740093469619751,0.24891279637813568,-0.38128480315208435,0.33321890234947205,-0.018120087683200836,0.000572213320992887,-0.46330204606056213
12.760155439376831,0.2481498420238495,-0.38052186369895935,0.33283740282058716,-0.01773861236870289,0.0009536888683214784,-0.46292057633399963
12.780259132385254,0.2470054179430008,-0.38052186369895935,0.33283740282058716,-0.01773861236870289,-0.00019073777366429567,-0.46292057633399963
12.800406694412231,0.2466239482164383,-0.38052186369895935,0.33283740282058716,-0.01773861236870289,0.00019073777366429567,-0.46292057633399963
12.82051134109497,0.2454795092344284,-0.38052186369895935,0.33207446336746216,-0.016975661739706993,0.00019073777366429567,-0.46215763688087463
12.840600728988647,0.2447165697813034,-0.37975889444351196,0.33207446336746216,-0.016594186425209045,0.00019073777366429567,-0.46177613735198975
12.860686779022217,0.24357213079929352,-0.37975889444351196,0.33207446336746216,-0.01583123579621315,0.00019073777366429567,-0.46139466762542725
12.880937337875366,0.24204623699188232,-0.37975889444351196,0.33207446336746216,-0.015449759550392628,0.00019073777366429567,-0.46063172817230225
12.901044845581055,0.24090181291103363,-0.37937742471694946,0.33169299364089966,-0.01506828423589468,0.0009536888683214784,-0.46063172817230225
12.921095848083496,0.23937590420246124,-0.37899595499038696,0.33169299364089966,-0.01506828423589468,0.00019073777366429567,-0.46025025844573975
12.941150188446045,0.23937590420246124,-0.37861448526382446,0.33169299364089966,-0.01506828423589468,-0.00019073777366429567,-0.46025025844573975
12.961239337921143,0.23823148012161255,-0.37861448526382446,0.33093002438545227,-0.014686808921396732,-0.00019073777366429567,-0.45986875891685486
12.981322288513184,0.23708705604076385,-0.37861448526382446,0.33093002438545227,-0.014686808921396732,-0.00019073777366429567,-0.45986875891685486
13.001412391662598,0.23632410168647766,-0.37861448526382446,0.33054855465888977,-0.013923857361078262,-0.00019073777366429567,-0.45986875891685486
13.021483421325684,0.23441672325134277,-0.37861448526382446,0.33054855465888977,-0.013923857361078262,0.00019073777366429567,-0.45948728919029236
13.041560649871826,0.23327229917049408,-0.37823301553726196,0.33054855465888977,-0.013160906732082367,0.000572213320992887,-0.45948728919029236
13.061670064926147,0.23250934481620789,-0.3778515160083771,0.33016708493232727,-0.012779430486261845,-0.00019073777366429567,-0.45910581946372986
13.081718683242798,0.23212787508964539,-0.3774700462818146,0.33016708493232727,-0.011635004542768002,-0.00019073777366429567,-0.45910581946372986
13.101755857467651,0.2313649207353592,-0.3774700462818146,0.33016708493232727,-0.01125352829694748,-0.00019073777366429567,-0.45872434973716736
13.12185287475586,0.2302204966545105,-0.3774700462818146,0.32978561520576477,-0.01125352829694748,-0.00019073777366429567,-0.45872434973716736
13.141951560974121,0.2290760725736618,-0.3770885765552521,0.32978561520576477,-0.010872052982449532,-0.00019073777366429567,-0.45834288001060486
13.162019729614258,0.2283131182193756,-0.3770885765552521,0.32978561520576477,-0.010872052982449532,-0.00019073777366429567,-0.45834288001060486
13.182092189788818,0.22678720951080322,-0.3767071068286896,0.32940414547920227,-0.010490577667951584,0.00019073777366429567,-0.45796138048171997
13.202202558517456,0.22564278542995453,-0.3763256371021271,0.32940414547920227,-0.010490577667951584,-0.000572213320992887,-0.45757991075515747
13.222320318222046,0.22487983107566833,-0.3763256371021271,0.32940414547920227,-0.010109102353453636,-0.00019073777366429567,-0.45681697130203247
13.242340087890625,0.22411687672138214,-0.3763256371021271,0.3286411762237549,-0.009727626107633114,-0.000572213320992887,-0.45643550157546997
13.262389421463013,0.22259098291397095,-0.3755626678466797,0.3278782367706299,-0.009346150793135166,-0.000572213320992887,-0.45643550157546997
13.282469034194946,0.22182802855968475,-0.3755626678466797,0.3278782367706299,-0.008964675478637218,-0.000572213320992887,-0.45643550157546997
13.30253267288208,0.22068360447883606,-0.3751811981201172,0.3278782367706299,-0.008201723918318748,-0.000572213320992887,-0.4560540020465851
13.322600603103638,0.21915769577026367,-0.3751811981201172,0.3278782367706299,-0.0078202486038208,-0.000572213320992887,-0.4556725323200226
13.342657089233398,0.21763180196285248,-0.3747997283935547,0.3274967670440674,-0.007438773289322853,-0.000572213320992887,-0.4556725323200226
13.362743377685547,0.21725031733512878,-0.3744182586669922,0.3274967670440674,-0.007438773289322853,-0.000572213320992887,-0.4556725323200226
13.382809400558472,0.21648737788200378,-0.3744182586669922,0.3271152675151825,-0.007057297509163618,-0.000572213320992887,-0.4552910625934601
13.4028959274292,0.2153429538011551,-0.3744182586669922,0.32673379778862,-0.007057297509163618,-0.000572213320992887,-0.4549095928668976
13.423031091690063,0.2138170450925827,-0.3744182586669922,0.32673379778862,-0.00667582219466567,-0.000572213320992887,-0.4545281231403351
13.443144083023071,0.212672621011734,-0.3740367889404297,0.3263523280620575,-0.00667582219466567,-0.000572213320992887,-0.4537651538848877
13.463151931762695,0.21190966665744781,-0.3732738196849823,0.3263523280620575,-0.005912871100008488,-0.000572213320992887,-0.4530022144317627
13.483210325241089,0.21076524257659912,-0.3728923499584198,0.325970858335495,-0.005531395319849253,-0.0009536888683214784,-0.4530022144317627
13.50388503074646,0.21000228822231293,-0.3725108802318573,0.325970858335495,-0.00476844422519207,-0.0009536888683214784,-0.4526207447052002
13.524047136306763,0.20923933386802673,-0.3725108802318573,0.3255893886089325,-0.004005493130534887,-0.0009536888683214784,-0.4526207447052002
13.544124603271484,0.20771344006061554,-0.3725108802318573,0.3255893886089325,-0.004005493130534887,-0.0009536888683214784,-0.4522392749786377
13.564171075820923,0.20580606162548065,-0.3725108802318573,0.32520791888237,-0.004005493130534887,-0.0009536888683214784,-0.4522392749786377
13.58420443534851,0.20504310727119446,-0.3721294105052948,0.3248264193534851,-0.0036240178160369396,-0.0009536888683214784,-0.4522392749786377
13.60434341430664,0.20466163754463196,-0.3721294105052948,0.3244449496269226,-0.0032425422687083483,-0.0013351644156500697,-0.4518577754497528
13.62438154220581,0.20313572883605957,-0.3721294105052948,0.3244449496269226,-0.0032425422687083483,-0.0013351644156500697,-0.4518577754497528
13.644423961639404,0.20237277448177338,-0.3713664412498474,0.3244449496269226,-0.0032425422687083483,-0.0013351644156500697,-0.4518577754497528
13.664506912231445,0.20122835040092468,-0.3709849715232849,0.3244449496269226,-0.002861066721379757,-0.0013351644156500697,-0.4514763057231903
13.684592962265015,0.200083926320076,-0.3709849715232849,0.3244449496269226,-0.0024795911740511656,-0.0013351644156500697,-0.4510948359966278
13.70466661453247,0.1993209719657898,-0.3702220320701599,0.3240634799003601,-0.001716639962978661,-0.0013351644156500697,-0.4507133662700653
13.724745035171509,0.1981765478849411,-0.3702220320701599,0.3236820101737976,-0.0013351644156500697,-0.001716639962978661,-0.4507133662700653
13.744791269302368,0.1966506391763687,-0.3702220320701599,0.3236820101737976,-0.0009536888683214784,-0.0013351644156500697,-0.4503318965435028
13.764898300170898,0.19550621509552002,-0.3702220320701599,0.3233005404472351,-0.000572213320992887,-0.0020981156267225742,-0.4499503970146179
13.784941673278809,0.19550621509552002,-0.3702220320701599,0.3233005404472351,-0.00019073777366429567,-0.0020981156267225742,-0.4495689272880554
13.805010318756104,0.19474326074123383,-0.369840532541275,0.3233005404472351,0.00019073777366429567,-0.0024795911740511656,-0.4488059878349304
13.825080394744873,0.19321736693382263,-0.3694590628147125,0.3229190409183502,0.00019073777366429567,-0.0024795911740511656,-0.4488059878349304
13.845158338546753,0.19169145822525024,-0.3686961233615875,0.3225375711917877,0.000572213320992887,-0.002861066721379757,-0.4484245181083679
13.865222692489624,0.19016556441783905,-0.3686961233615875,0.3221561014652252,0.000572213320992887,-0.002861066721379757,-0.4484245181083679
13.885302066802979,0.18902114033699036,-0.368314653635025,0.3225375711917877,0.0009536888683214784,-0.002861066721379757,-0.4484245181083679
13.905426025390625,0.18825818598270416,-0.368314653635025,0.3221561014652252,0.0013351644156500697,-0.0032425422687083483,-0.44804301857948303
13.925623416900635,0.18787670135498047,-0.36793315410614014,0.3221561014652252,0.0020981156267225742,-0.0036240178160369396,-0.44766154885292053
13.94562554359436,0.18635080754756927,-0.36793315410614014,0.3221561014652252,0.0024795911740511656,-0.0036240178160369396,-0.44728007912635803
13.965723991394043,0.18558785319328308,-0.36793315410614014,0.3213931620121002,0.0032425422687083483,-0.0036240178160369396,-0.44689860939979553
13.985832452774048,0.1844434291124344,-0.36793315410614014,0.3213931620121002,0.0032425422687083483,-0.0036240178160369396,-0.44575417041778564
14.005936622619629,0.1836804747581482,-0.36717021465301514,0.32101166248321533,0.0032425422687083483,-0.0036240178160369396,-0.44537270069122314
14.025990962982178,0.1825360506772995,-0.36678874492645264,0.32063019275665283,0.004005493130534887,-0.0036240178160369396,-0.44499123096466064
14.046038150787354,0.1813916265964508,-0.36678874492645264,0.32063019275665283,0.004005493130534887,-0.004005493130534887,-0.44460976123809814
14.06612777709961,0.1810101419687271,-0.36640727519989014,0.32024872303009033,0.004005493130534887,-0.004005493130534887,-0.44460976123809814
14.08622407913208,0.1802472025156021,-0.36602577567100525,0.32024872303009033,0.004386968910694122,-0.004005493130534887,-0.44422826170921326
14.10629391670227,0.17910276353359222,-0.36602577567100525,0.32024872303009033,0.00476844422519207,-0.004005493130534887,-0.44422826170921326
14.12645149230957,0.17833982408046722,-0.36602577567100525,0.32024872303009033,0.00476844422519207,-0.004005493130534887,-0.44384679198265076
14.146874189376831,0.17681391537189484,-0.36602577567100525,0.32024872303009033,0.005531395319849253,-0.004005493130534887,-0.44384679198265076
14.166963338851929,0.17566949129104614,-0.36564430594444275,0.31986725330352783,0.006294346414506435,-0.004005493130534887,-0.44346532225608826
14.187034130096436,0.17414358258247375,-0.36488136649131775,0.31948578357696533,0.007057297509163618,-0.004005493130534887,-0.44308385252952576
