liuyurong129/humanoid-gym/humanoid/data/actual_q_20250521-035621.csv
timestamp,joint_1,joint_2,joint_3,joint_4,joint_5,joint_6
4.887580871582031e-05,-0.00019073777366429567,0.001716639962978661,-0.0013351644156500697,-0.00019073777366429567,-0.00019073777366429567,-0.000572213320992887
0.020142555236816406,-0.00019073777366429567,0.001716639962978661,-0.0013351644156500697,-0.00019073777366429567,0.00019073777366429567,-0.000572213320992887
0.040213584899902344,-0.00019073777366429567,0.001716639962978661,-0.0013351644156500697,-0.00019073777366429567,-0.00019073777366429567,-0.000572213320992887
0.06027507781982422,-0.00019073777366429567,0.0013351644156500697,-0.0013351644156500697,-0.00019073777366429567,-0.00019073777366429567,-0.000572213320992887
0.08033871650695801,-0.00019073777366429567,0.0009536888683214784,-0.000572213320992887,-0.00019073777366429567,-0.00019073777366429567,-0.000572213320992887
0.1004183292388916,-0.00019073777366429567,-0.00019073777366429567,-0.00019073777366429567,-0.00019073777366429567,-0.00019073777366429567,-0.000572213320992887
0.12050342559814453,-0.002861066721379757,-0.008964675478637218,0.0009536888683214784,-0.00019073777366429567,-0.00019073777366429567,-0.000572213320992887
0.14057159423828125,-0.010109102353453636,-0.02536812424659729,0.0036240178160369396,-0.00019073777366429567,0.005149920005351305,-0.000572213320992887
0.16063618659973145,-0.024986648932099342,-0.04787518084049225,0.008201723918318748,0.00019073777366429567,0.009346150793135166,-0.0024795911740511656
0.18074750900268555,-0.05893797054886818,-0.0875486359000206,0.024986648932099342,0.0013351644156500697,0.021553369238972664,-0.007057297509163618
0.20084095001220703,-0.09670405089855194,-0.1348516047000885,0.05245288833975792,0.0032425422687083483,0.040245670825242996,-0.014686808921396732
0.2209165096282959,-0.12836651504039764,-0.17910276353359222,0.08030059933662415,0.004386968910694122,0.048638131469488144,-0.021553369238972664
0.24097776412963867,-0.15926603972911835,-0.21725031733512878,0.11387044936418533,0.00476844422519207,0.049782559275627136,-0.023079270496964455
0.2610790729522705,-0.1844434291124344,-0.2481498420238495,0.14324407279491425,0.005531395319849253,0.04787518084049225,-0.025749599561095238
0.28114986419677734,-0.20504310727119446,-0.2809567451477051,0.17414358258247375,0.00667582219466567,0.048256658017635345,-0.02841992862522602
0.3017256259918213,-0.22220951318740845,-0.308804452419281,0.1974135935306549,0.007438773289322853,0.04940108209848404,-0.03032730519771576
0.3218190670013428,-0.23823148012161255,-0.33436331152915955,0.2161058932542801,0.007057297509163618,0.0555046908557415,-0.03299763426184654
0.3418912887573242,-0.25158312916755676,-0.3603036403656006,0.2302204966545105,0.007057297509163618,0.06618601083755493,-0.03604944050312042
0.3620133399963379,-0.2660791873931885,-0.3900587558746338,0.24357213079929352,0.007057297509163618,0.08144503086805344,-0.0394827201962471
0.3821089267730713,-0.2809567451477051,-0.4186694025993347,0.2588311731815338,0.007057297509163618,0.09479667246341705,-0.04406042397022247
0.4021944999694824,-0.2946898639202118,-0.44804301857948303,0.27180132269859314,0.007057297509163618,0.10662241280078888,-0.050164032727479935
0.4224848747253418,-0.3091859221458435,-0.47817960381507874,0.28667888045310974,0.00667582219466567,0.11348897218704224,-0.0555046908557415
0.44264841079711914,-0.32063019275665283,-0.5033569931983948,0.30155640840530396,0.007057297509163618,0.12111848592758179,-0.06046387553215027
0.46266698837280273,-0.32940414547920227,-0.5247195959091187,0.3114747703075409,0.007438773289322853,0.12684062123298645,-0.06389715522527695
0.48273801803588867,-0.3370336592197418,-0.5449378490447998,0.32024872303009033,0.007438773289322853,0.13218127191066742,-0.06771191209554672
0.5028152465820312,-0.344663143157959,-0.5643930435180664,0.32940414547920227,0.008201723918318748,0.1363775134086609,-0.071908138692379
0.5228853225708008,-0.35152971744537354,-0.5819409489631653,0.33474478125572205,0.009346150793135166,0.14324407279491425,-0.07877469807863235
0.542933464050293,-0.3568703830242157,-0.5998703241348267,0.3400854468345642,0.010109102353453636,0.1527809500694275,-0.08487831056118011
0.563173770904541,-0.361829549074173,-0.615129292011261,0.3442816734313965,0.01125352829694748,0.16117341816425323,-0.09021896868944168
0.5832562446594238,-0.36564430594444275,-0.6311513185501099,0.3526741564273834,0.01201647985726595,0.16956588625907898,-0.09555962681770325
0.6033275127410889,-0.36793315410614014,-0.6460288166999817,0.3599221706390381,0.01430533267557621,0.1825360506772995,-0.1035706102848053
0.6239078044891357,-0.3702220320701599,-0.6612878441810608,0.36755168437957764,0.01773861236870289,0.19207294285297394,-0.11120012402534485
0.6440038681030273,-0.3732738196849823,-0.6761654019355774,0.3755626678466797,0.020027466118335724,0.2004653960466385,-0.11768520623445511
0.6640689373016357,-0.3744182586669922,-0.690280020236969,0.38204777240753174,0.023079270496964455,0.21038375794887543,-0.12569619715213776
0.6841216087341309,-0.3755626678466797,-0.7051575779914856,0.3892957866191864,0.026131074875593185,0.21877622604370117,-0.134470134973526
0.7042093276977539,-0.3767071068286896,-0.7207980751991272,0.39921414852142334,0.027656977996230125,0.2309834510087967,-0.14286258816719055
0.7243621349334717,-0.3763256371021271,-0.7330052852630615,0.4087510406970978,0.030708782374858856,0.24090181291103363,-0.1512550562620163
0.7443768978118896,-0.3763256371021271,-0.7452124953269958,0.4194323718547821,0.03528648987412453,0.25349050760269165,-0.16117341816425323
0.7644712924957275,-0.3763256371021271,-0.7585641145706177,0.43163958191871643,0.043678950518369675,0.26798656582832336,-0.17338064312934875
0.7845420837402344,-0.3763256371021271,-0.7715343236923218,0.44270238280296326,0.05283436179161072,0.28629741072654724,-0.18596932291984558
0.8045945167541504,-0.3763256371021271,-0.7829785346984863,0.4518577754497528,0.059319447726011276,0.30117493867874146,-0.1962691694498062
0.824678897857666,-0.3763256371021271,-0.7959487438201904,0.46292057633399963,0.06427863240242004,0.31834134459495544,-0.20847637951374054
0.8447515964508057,-0.3759441375732422,-0.8081559538841248,0.4728389382362366,0.0722896158695221,0.33093002438545227,-0.22220951318740845
0.8648209571838379,-0.3751811981201172,-0.8169298768043518,0.4804684519767761,0.08182650804519653,0.34847790002822876,-0.23670557141304016
0.8850457668304443,-0.3736552894115448,-0.8264667987823486,0.49038681387901306,0.09021896868944168,0.36259251832962036,-0.2508201599121094
0.9051189422607422,-0.3728923499584198,-0.8398184180259705,0.5006866455078125,0.10051880776882172,0.3778515160083771,-0.26836803555488586
0.9251773357391357,-0.3728923499584198,-0.8501182794570923,0.508316159248352,0.11310750246047974,0.39501792192459106,-0.28286412358283997
0.9455077648162842,-0.3706035017967224,-0.8573662638664246,0.5163271427154541,0.1203555315732956,0.4045548141002655,-0.2965972423553467
0.9655892848968506,-0.3706035017967224,-0.8710994124412537,0.5212863087654114,0.12493324279785156,0.4186694025993347,-0.3114747703075409
0.9856700897216797,-0.3709849715232849,-0.884069561958313,0.5281528830528259,0.1367589831352234,0.4350728690624237,-0.32673379778862
1.0057868957519531,-0.3706035017967224,-0.8939879536628723,0.5376898050308228,0.14133669435977936,0.44079500436782837,-0.33321890234947205
1.025876760482788,-0.3702220320701599,-0.9054322242736816,0.5460822582244873,0.14209964871406555,0.4488059878349304,-0.34580758213996887
1.0459544658660889,-0.369840532541275,-0.9206912517547607,0.5556191205978394,0.15583276748657227,0.465209424495697,-0.3595407009124756
1.0659997463226318,-0.3694590628147125,-0.9306095838546753,0.5655375123023987,0.16918440163135529,0.4736018776893616,-0.36373692750930786
1.086094617843628,-0.3686961233615875,-0.9393835067749023,0.5750743746757507,0.17338064312934875,0.4804684519767761,-0.3706035017967224
1.1061639785766602,-0.368314653635025,-0.9493018984794617,0.5807965397834778,0.17605096101760864,0.4873350262641907,-0.38014039397239685
1.1262714862823486,-0.36793315410614014,-0.9641794562339783,0.5838482975959778,0.18558785319328308,0.50030517578125,-0.386243999004364
1.1463651657104492,-0.36793315410614014,-0.9744792580604553,0.5933852195739746,0.19092851877212524,0.5102235674858093,-0.3904402256011963
1.1664402484893799,-0.36602577567100525,-0.9908827543258667,0.6040665507316589,0.1962691694498062,0.5159456729888916,-0.4007400572299957
1.1864895820617676,-0.36411839723587036,-1.0008010864257812,0.6116960644721985,0.1993209719657898,0.5205233693122864,-0.4037918746471405
1.206571102142334,-0.36373692750930786,-1.0061417818069458,0.6219958662986755,0.1970321238040924,0.5205233693122864,-0.4091325104236603
1.2266719341278076,-0.36373692750930786,-1.0172045230865479,0.6292439103126526,0.20389868319034576,0.5308232307434082,-0.422102689743042
1.2467384338378906,-0.36373692750930786,-1.0271228551864624,0.6380178332328796,0.21839475631713867,0.5403600931167603,-0.4236285984516144
1.2669920921325684,-0.36373692750930786,-1.0313191413879395,0.6475547552108765,0.22411687672138214,0.54112309217453,-0.42553597688674927
1.2870864868164062,-0.36373692750930786,-1.0393301248550415,0.6521324515342712,0.22335393726825714,0.5491340756416321,-0.4335469603538513
1.3071563243865967,-0.36373692750930786,-1.0538262128829956,0.6570916175842285,0.2286945879459381,0.5590524077415466,-0.4404135048389435
1.3272323608398438,-0.36373692750930786,-1.0641260147094727,0.6654840707778931,0.23517967760562897,0.5643930435180664,-0.44232088327407837
1.3473889827728271,-0.361829549074173,-1.0721369981765747,0.6731135845184326,0.23556114733219147,0.5659189820289612,-0.44575417041778564
1.3674767017364502,-0.3614480793476105,-1.0786221027374268,0.6780728101730347,0.2298390120267868,0.5655375123023987,-0.4507133662700653
1.3875062465667725,-0.3614480793476105,-1.0893033742904663,0.6830319762229919,0.24166475236415863,0.5750743746757507,-0.45948728919029236
1.4076123237609863,-0.361066609621048,-1.0950255393981934,0.692568838596344,0.2573052644729614,0.5846112966537476,-0.45910581946372986
1.42793869972229,-0.3606851398944855,-1.0976959466934204,0.7024872303009033,0.2588311731815338,0.5857557058334351,-0.46101319789886475
1.4479987621307373,-0.3606851398944855,-1.103417992591858,0.7059205174446106,0.2599755823612213,0.5880445837974548,-0.4682612419128418
1.4681134223937988,-0.3603036403656006,-1.114862322807312,0.7093538045883179,0.26760509610176086,0.6010147333145142,-0.4709315598011017
1.488166332244873,-0.3603036403656006,-1.1240177154541016,0.7162203192710876,0.2740901708602905,0.6040665507316589,-0.4720759987831116
1.5082159042358398,-0.3587777614593506,-1.1316472291946411,0.7234683632850647,0.26836803555488586,0.5971999764442444,-0.4732204079627991
1.528320550918579,-0.3564889132976532,-1.1381323337554932,0.7257572412490845,0.27027541399002075,0.6010147333145142,-0.4808499217033386
1.5484459400177002,-0.3580147922039032,-1.1430914402008057,0.7345311641693115,0.2790493667125702,0.6116960644721985,-0.4804684519767761
1.568481683731079,-0.3545815348625183,-1.1472877264022827,0.7413977384567261,0.28324559330940247,0.6097886562347412,-0.4804684519767761
1.58860182762146,-0.3545815348625183,-1.1522468328475952,0.7471198439598083,0.2924010157585144,0.615129292011261,-0.4835202693939209
1.6086888313293457,-0.3538185656070709,-1.1556801795959473,0.7536049485206604,0.30041199922561646,0.6288624405860901,-0.4850461483001709
1.6287922859191895,-0.3534370958805084,-1.1617838144302368,0.7600900530815125,0.30231937766075134,0.6261920928955078,-0.4850461483001709
1.6488842964172363,-0.3526741564273834,-1.1701762676239014,0.7639048099517822,0.30117493867874146,0.6296253800392151,-0.4892423748970032
1.6689329147338867,-0.35152971744537354,-1.1743724346160889,0.7681010365486145,0.30384528636932373,0.6284809708595276,-0.49153125286102295
1.6889829635620117,-0.3534370958805084,-1.1789501905441284,0.7734416723251343,0.2969787120819092,0.6219958662986755,-0.49229419231414795
1.7092084884643555,-0.3542000353336334,-1.1869611740112305,0.776493489742279,0.30231937766075134,0.6280995011329651,-0.4999237060546875
1.7292931079864502,-0.3538185656070709,-1.19306480884552,0.7810711860656738,0.31948578357696533,0.6376363635063171,-0.4999237060546875
1.7495508193969727,-0.3538185656070709,-1.196879506111145,0.7864118218421936,0.3271152675151825,0.6353475451469421,-0.4972533881664276
1.769608736038208,-0.3538185656070709,-1.198405385017395,0.7928969264030457,0.31490805745124817,0.6315327882766724,-0.499542236328125
1.7896995544433594,-0.3538185656070709,-1.2087053060531616,0.7967116832733154,0.31605249643325806,0.6395437717437744,-0.5071717500686646
1.8097732067108154,-0.35229265689849854,-1.2136644124984741,0.8016708493232727,0.325970858335495,0.648699164390564,-0.5052643418312073
1.830376148223877,-0.35114824771881104,-1.2205309867858887,0.8104447722434998,0.3217746317386627,0.6433585286140442,-0.5037384629249573
1.8504879474639893,-0.35038527846336365,-1.2212939262390137,0.813115119934082,0.31872281432151794,0.6464102864265442,-0.5106050372123718
1.870544672012329,-0.35000380873680115,-1.2293049097061157,0.8176928162574768,0.32673379778862,0.6517509818077087,-0.509079098701477
1.8905973434448242,-0.34924086928367615,-1.2331197261810303,0.8192187547683716,0.33550775051116943,0.6563286781311035,-0.5086976289749146
1.9107015132904053,-0.34924086928367615,-1.2350270748138428,0.8264667987823486,0.33131152391433716,0.650225043296814,-0.5052643418312073
1.9307734966278076,-0.34924086928367615,-1.2426565885543823,0.8295185565948486,0.33054855465888977,0.6513695120811462,-0.5121309161186218
1.9508485794067383,-0.34924086928367615,-1.2453268766403198,0.8314259648323059,0.3416113555431366,0.6597619652748108,-0.5094605684280396
1.970982313156128,-0.34924086928367615,-1.2514305114746094,0.8375295400619507,0.3385595381259918,0.650225043296814,-0.5052643418312073
1.9910144805908203,-0.34962233901023865,-1.2533378601074219,0.837911069393158,0.33436331152915955,0.6563286781311035,-0.5132753252983093
2.011086940765381,-0.34924086928367615,-1.2571526765823364,0.840199887752533,0.3419928252696991,0.6582360863685608,-0.5102235674858093
2.0311472415924072,-0.34924086928367615,-1.257534146308899,0.846684992313385,0.3374151289463043,0.654421329498291,-0.5086976289749146
2.051241874694824,-0.34924086928367615,-1.265545129776001,0.8478294014930725,0.343900203704834,0.6628137826919556,-0.5144197940826416
2.0713157653808594,-0.34885939955711365,-1.272030234336853,0.8524070978164673,0.3561074137687683,0.6738765835762024,-0.5121309161186218
2.091369152069092,-0.34809643030166626,-1.270504355430603,0.8573662638664246,0.3538185656070709,0.6681544184684753,-0.5113679766654968
2.111456871032715,-0.34809643030166626,-1.2731746435165405,0.8600366115570068,0.3442816734313965,0.6563286781311035,-0.5167086124420166
2.1315255165100098,-0.34657052159309387,-1.2754634618759155,0.8592736721038818,0.34924086928367615,0.6631952524185181,-0.5201418995857239
2.1515843868255615,-0.34580758213996887,-1.27775239944458,0.8619440197944641,0.3583962619304657,0.6628137826919556,-0.5170900821685791
2.171672821044922,-0.34695202112197876,-1.27927827835083,0.8688105344772339,0.3530556261539459,0.6563286781311035,-0.5151827335357666
2.191753625869751,-0.34695202112197876,-1.2861448526382446,0.8699550032615662,0.3572518527507782,0.6647211313247681,-0.5209048390388489
2.211820363998413,-0.34580758213996887,-1.2869077920913696,0.8730067610740662,0.36526283621788025,0.6734950542449951,-0.5197604298591614
2.231910467147827,-0.34580758213996887,-1.2891966104507446,0.8764400482177734,0.361066609621048,0.6612878441810608,-0.5167086124420166
2.251997947692871,-0.34618905186653137,-1.2891966104507446,0.8764400482177734,0.3599221706390381,0.6692988276481628,-0.5228122472763062
2.2720491886138916,-0.344663143157959,-1.2907224893569946,0.8775845170021057,0.3713664412498474,0.6708247661590576,-0.5193789601325989
2.2921295166015625,-0.3442816734313965,-1.2903410196304321,0.882543683052063,0.3694590628147125,0.6708247661590576,-0.5174715518951416
2.3122053146362305,-0.3442816734313965,-1.2911039590835571,0.8844510316848755,0.3709849715232849,0.6635767221450806,-0.5193789601325989
2.3322744369506836,-0.3442816734313965,-1.2884336709976196,0.8844510316848755,0.3706035017967224,0.6662470698356628,-0.5178530812263489
2.353381633758545,-0.3442816734313965,-1.2891966104507446,0.8863584399223328,0.3767071068286896,0.6700618267059326,-0.5189974904060364
2.3734962940216064,-0.3442816734313965,-1.2941558361053467,0.889028787612915,0.37899595499038696,0.6712062358856201,-0.5189974904060364
2.393609046936035,-0.343900203704834,-1.2953002452850342,0.8909361362457275,0.38281071186065674,0.6727321147918701,-0.5193789601325989
2.413642644882202,-0.343900203704834,-1.2941558361053467,0.8909361362457275,0.3759441375732422,0.6605249047279358,-0.5163271427154541
2.4337353706359863,-0.344663143157959,-1.3029297590255737,0.8916990756988525,0.3702220320701599,0.6654840707778931,-0.5224307775497437
2.453810691833496,-0.3442816734313965,-1.3063629865646362,0.8936064839363098,0.3839551508426666,0.6765468716621399,-0.5216678380966187
2.473897695541382,-0.3442816734313965,-1.3025482892990112,0.8970397710800171,0.37861448526382446,0.6582360863685608,-0.5167086124420166
2.4939873218536377,-0.3442816734313965,-1.3059815168380737,0.8974212408065796,0.3721294105052948,0.6616693139076233,-0.5251010656356812
2.5140891075134277,-0.3442816734313965,-1.3048371076583862,0.8985656499862671,0.3900587558746338,0.6727321147918701,-0.5220493078231812
2.5341415405273438,-0.3442816734313965,-1.3033112287521362,0.9023804068565369,0.38281071186065674,0.6589990258216858,-0.5167086124420166
2.55425763130188,-0.3442816734313965,-1.3090333938598633,0.9050507545471191,0.37899595499038696,0.6624323129653931,-0.5235751867294312
2.5743367671966553,-0.3435187339782715,-1.3094148635864258,0.9042877554893494,0.3919661343097687,0.6692988276481628,-0.5216678380966187
2.59439754486084,-0.3427557647228241,-1.3082703351974487,0.9065766334533691,0.3885328471660614,0.6570916175842285,-0.5155642032623291
2.614487886428833,-0.3442816734313965,-1.3128480911254883,0.9088655114173889,0.3767071068286896,0.6570916175842285,-0.5193789601325989
2.6345365047454834,-0.343900203704834,-1.3132295608520508,0.9077210426330566,0.3850995600223541,0.6651026010513306,-0.5220493078231812
2.654597759246826,-0.3435187339782715,-1.3124666213989258,0.9096284508705139,0.3896772861480713,0.6589990258216858,-0.5170900821685791
2.674692392349243,-0.34580758213996887,-1.3151369094848633,0.9126802682876587,0.37899595499038696,0.6589990258216858,-0.5189974904060364
2.6947615146636963,-0.34542611241340637,-1.3185702562332153,0.9100099205970764,0.3866254687309265,0.6696802973747253,-0.5224307775497437
2.7148334980010986,-0.34618905186653137,-1.3204776048660278,0.9119172692298889,0.39501792192459106,0.6696802973747253,-0.5178530812263489
2.735137701034546,-0.34657052159309387,-1.3220034837722778,0.9138246774673462,0.3847180902957916,0.6631952524185181,-0.5182345509529114
2.755228042602539,-0.34657052159309387,-1.3311588764190674,0.9122987985610962,0.3873884081840515,0.6700618267059326,-0.5231937170028687
2.7752926349639893,-0.34618905186653137,-1.3315403461456299,0.9142061471939087,0.39425498247146606,0.6761654019355774,-0.5201418995857239
2.795764446258545,-0.34618905186653137,-1.3319218158721924,0.916113555431366,0.38281071186065674,0.6654840707778931,-0.5205233693122864
2.8158719539642334,-0.34657052159309387,-1.3353551626205444,0.9149690866470337,0.3889143168926239,0.6754024624824524,-0.5266270041465759
2.8359384536743164,-0.34504464268684387,-1.3345922231674194,0.9164950251579285,0.4026474356651306,0.6811245679855347,-0.5205233693122864
2.8559892177581787,-0.34657052159309387,-1.3338292837142944,0.9203097820281982,0.3931105434894562,0.6742580533027649,-0.5212863087654114
2.8760831356048584,-0.344663143157959,-1.3345922231674194,0.9180209040641785,0.4022659659385681,0.6857023239135742,-0.5258640646934509
2.8961925506591797,-0.343900203704834,-1.3323034048080444,0.919165313243866,0.41638055443763733,0.6822690367698669,-0.5193789601325989
2.9162631034851074,-0.343137264251709,-1.3303959369659424,0.9210727214813232,0.4087510406970978,0.6754024624824524,-0.5197604298591614
2.9364514350891113,-0.3427557647228241,-1.335736632347107,0.9214541912078857,0.4087510406970978,0.6807430982589722,-0.5231937170028687
2.9564547538757324,-0.3419928252696991,-1.335736632347107,0.9245060086250305,0.41599908471107483,0.6826505064964294,-0.5212863087654114
2.976543664932251,-0.3419928252696991,-1.337262511253357,0.9260318875312805,0.4072251319885254,0.6685358881950378,-0.5216678380966187
2.996638536453247,-0.3419928252696991,-1.3361181020736694,0.9229800701141357,0.4076066315174103,0.6761654019355774,-0.5251010656356812
3.0167109966278076,-0.3423742949962616,-1.3384069204330444,0.9237430095672607,0.41142138838768005,0.6803616285324097,-0.5197604298591614
3.0367679595947266,-0.3423742949962616,-1.340695858001709,0.926413357257843,0.41103988885879517,0.6799801588058472,-0.5209048390388489
3.0568647384643555,-0.3419928252696991,-1.341458797454834,0.927176296710968,0.41599908471107483,0.6826505064964294,-0.5224307775497437
3.0769317150115967,-0.3419928252696991,-1.339551329612732,0.927176296710968,0.41332876682281494,0.6799801588058472,-0.5201418995857239
3.0970141887664795,-0.3423742949962616,-1.3418402671813965,0.9279392957687378,0.4072251319885254,0.6807430982589722,-0.5235751867294312
3.1171369552612305,-0.3419928252696991,-1.349469780921936,0.9283207654953003,0.4175249934196472,0.6868467330932617,-0.5243381261825562
3.1372265815734863,-0.3419928252696991,-1.349469780921936,0.9306095838546753,0.4198138415813446,0.6849393248558044,-0.5193789601325989
3.1573646068573,-0.3419928252696991,-1.348706841468811,0.9306095838546753,0.4068436622619629,0.6731135845184326,-0.5216678380966187
3.1778242588043213,-0.3423742949962616,-1.3551918268203735,0.9294651746749878,0.4087510406970978,0.6769283413887024,-0.5258640646934509
3.197965621948242,-0.3419928252696991,-1.352521538734436,0.9309910535812378,0.4186694025993347,0.6811245679855347,-0.5224307775497437
3.2180187702178955,-0.3423742949962616,-1.352521538734436,0.9340428709983826,0.41103988885879517,0.6761654019355774,-0.5205233693122864
3.2380690574645996,-0.3419928252696991,-1.3578622341156006,0.9336614012718201,0.41676202416419983,0.6845578551292419,-0.5254825949668884
3.258167266845703,-0.3412298858165741,-1.3544288873672485,0.9348058104515076,0.4247730076313019,0.6834134459495544,-0.5178530812263489
3.2782645225524902,-0.3419928252696991,-1.358243703842163,0.9378576278686523,0.4083695709705353,0.6780728101730347,-0.5228122472763062
3.2983052730560303,-0.3416113555431366,-1.360532522201538,0.9336614012718201,0.4182879328727722,0.6872282028198242,-0.5262455344200134
3.318396806716919,-0.3400854468345642,-1.358243703842163,0.9306095838546753,0.42744335532188416,0.6818875670433044,-0.5167086124420166
3.338463306427002,-0.3419928252696991,-1.357480764389038,0.9340428709983826,0.4209582805633545,0.6761654019355774,-0.5201418995857239
3.358640432357788,-0.3419928252696991,-1.359769582748413,0.9351872801780701,0.4236285984516144,0.6815060377120972,-0.5235751867294312
3.3787357807159424,-0.3412298858165741,-1.3586251735687256,0.9336614012718201,0.438506156206131,0.6879911422729492,-0.5228122472763062
3.398766040802002,-0.3412298858165741,-1.3578622341156006,0.9367132186889648,0.4381246566772461,0.6815060377120972,-0.5189974904060364
3.418821096420288,-0.3423742949962616,-1.360532522201538,0.9382390975952148,0.42515450716018677,0.6834134459495544,-0.5239566564559937
3.4390811920166016,-0.3393225073814392,-1.3624398708343506,0.9359502792358398,0.4346913993358612,0.6887540817260742,-0.5247195959091187
3.459179162979126,-0.3374151289463043,-1.3570992946624756,0.9374761581420898,0.43163958191871643,0.6776912808418274,-0.5163271427154541
3.4792861938476562,-0.3393225073814392,-1.3563363552093506,0.9393835067749023,0.41676202416419983,0.6734950542449951,-0.5216678380966187
3.4994466304779053,-0.3404669165611267,-1.3601510524749756,0.9420538544654846,0.4201953113079071,0.6837949156761169,-0.5243381261825562
3.5195374488830566,-0.3385595381259918,-1.3563363552093506,0.9401465058326721,0.43125811219215393,0.6887540817260742,-0.5243381261825562
3.539613962173462,-0.3385595381259918,-1.352521538734436,0.9370946884155273,0.43125811219215393,0.6780728101730347,-0.5205233693122864
3.5597124099731445,-0.3412298858165741,-1.3551918268203735,0.9367132186889648,0.422102689743042,0.6807430982589722,-0.5258640646934509
3.5797665119171143,-0.3385595381259918,-1.3586251735687256,0.9332799315452576,0.4362172782421112,0.6883726119995117,-0.5262455344200134
3.599839448928833,-0.3389410376548767,-1.3555734157562256,0.9348058104515076,0.4354543387889862,0.6757839322090149,-0.5182345509529114
3.619919538497925,-0.3393225073814392,-1.360532522201538,0.9351872801780701,0.4228656589984894,0.6715877056121826,-0.5224307775497437
3.6399831771850586,-0.3389410376548767,-1.362821340560913,0.9359502792358398,0.43049514293670654,0.6860837936401367,-0.5251010656356812
3.6600186824798584,-0.3385595381259918,-1.3651102781295776,0.9412909150123596,0.4327840209007263,0.6799801588058472,-0.5193789601325989
3.680088758468628,-0.3381780683994293,-1.3651102781295776,0.9409094452857971,0.4228656589984894,0.6757839322090149,-0.5270084738731384
3.700507640838623,-0.3393225073814392,-1.3708323240280151,0.9378576278686523,0.42896926403045654,0.6891355514526367,-0.5281528830528259
3.720607280731201,-0.3397039771080017,-1.3708323240280151,0.9386205673217773,0.4331654906272888,0.6940947771072388,-0.5235751867294312
3.7406907081604004,-0.3393225073814392,-1.3719768524169922,0.9412909150123596,0.4217212200164795,0.6830319762229919,-0.5235751867294312
3.760791301727295,-0.3400854468345642,-1.3742656707763672,0.9405279755592346,0.4232471287250519,0.6845578551292419,-0.5277714133262634
3.780879259109497,-0.3400854468345642,-1.3723583221435547,0.9420538544654846,0.42553597688674927,0.6837949156761169,-0.5231937170028687
3.801044225692749,-0.3400854468345642,-1.3719768524169922,0.9431982636451721,0.4198138415813446,0.6746395230293274,-0.5247195959091187
3.8211774826049805,-0.3400854468345642,-1.3754100799560547,0.9431982636451721,0.42515450716018677,0.6837949156761169,-0.5277714133262634
3.841261148452759,-0.3404669165611267,-1.3761730194091797,0.9443427324295044,0.4354543387889862,0.6937133073806763,-0.5266270041465759
3.8613409996032715,-0.3400854468345642,-1.3738842010498047,0.9473945498466492,0.4343098998069763,0.6883726119995117,-0.5224307775497437
3.8816120624542236,-0.3400854468345642,-1.3765544891357422,0.9477760195732117,0.422102689743042,0.6811245679855347,-0.5247195959091187
3.901702404022217,-0.3400854468345642,-1.3773174285888672,0.9454871416091919,0.42896926403045654,0.690280020236969,-0.5281528830528259
3.921783447265625,-0.3397039771080017,-1.3792248964309692,0.9477760195732117,0.43049514293670654,0.6845578551292419,-0.5228122472763062
3.942124128341675,-0.3393225073814392,-1.3769359588623047,0.9496833682060242,0.4209582805633545,0.6776912808418274,-0.5239566564559937
3.9622843265533447,-0.3393225073814392,-1.3818951845169067,0.9481574892997742,0.4247730076313019,0.6830319762229919,-0.5281528830528259
3.9823217391967773,-0.3393225073814392,-1.3826581239700317,0.9496833682060242,0.4346913993358612,0.691805899143219,-0.5266270041465759
4.002382040023804,-0.3389410376548767,-1.3773174285888672,0.951972246170044,0.43163958191871643,0.6876096725463867,-0.5224307775497437
4.022475242614746,-0.3393225073814392,-1.3792248964309692,0.9523537158966064,0.4232471287250519,0.6849393248558044,-0.5262455344200134
4.042561292648315,-0.3389410376548767,-1.3811322450637817,0.9504463076591492,0.42896926403045654,0.6929503083229065,-0.5273899435997009
4.062612056732178,-0.3389410376548767,-1.3830395936965942,0.9500648379325867,0.43202105164527893,0.692568838596344,-0.5224307775497437
4.082741022109985,-0.3389410376548767,-1.3822766542434692,0.9546425342559814,0.4201953113079071,0.6830319762229919,-0.5228122472763062
4.102796792984009,-0.3389410376548767,-1.3864728212356567,0.9523537158966064,0.4186694025993347,0.6815060377120972,-0.5296788215637207
4.122849464416504,-0.3393225073814392,-1.3914320468902588,0.9504463076591492,0.42744335532188416,0.691805899143219,-0.5273899435997009
4.142945051193237,-0.3393225073814392,-1.3895246982574463,0.951972246170044,0.42706188559532166,0.6853207945823669,-0.5258640646934509
4.1631269454956055,-0.3393225073814392,-1.3914320468902588,0.951972246170044,0.41485464572906494,0.6742580533027649,-0.5254825949668884
4.183124780654907,-0.3393225073814392,-1.3921949863433838,0.952735185623169,0.41599908471107483,0.6849393248558044,-0.5292973518371582
4.203225135803223,-0.3389410376548767,-1.3857098817825317,0.9538795948028564,0.4236285984516144,0.6830319762229919,-0.5251010656356812
4.223285436630249,-0.3393225073814392,-1.3853284120559692,0.9561684727668762,0.41332876682281494,0.6811245679855347,-0.5243381261825562
4.243347644805908,-0.3385595381259918,-1.3868544101715088,0.953498125076294,0.4190509021282196,0.691042959690094,-0.5270084738731384
4.263439178466797,-0.3377965986728668,-1.3845654726028442,0.9531166553497314,0.42973220348358154,0.6898985505104065,-0.5193789601325989
4.283515453338623,-0.3385595381259918,-1.3845654726028442,0.9565499424934387,0.4190509021282196,0.6807430982589722,-0.5209048390388489
4.303561687469482,-0.3389410376548767,-1.3853284120559692,0.9561684727668762,0.41523614525794983,0.6845578551292419,-0.5270084738731384
4.323716163635254,-0.3370336592197418,-1.3838025331497192,0.953498125076294,0.42553597688674927,0.690280020236969,-0.5266270041465759
4.343807220458984,-0.3400854468345642,-1.3864728212356567,0.9576943516731262,0.4232471287250519,0.6803616285324097,-0.5205233693122864
4.363879680633545,-0.3408484160900116,-1.3868544101715088,0.9576943516731262,0.41561761498451233,0.6834134459495544,-0.5258640646934509
4.383944272994995,-0.33588922023773193,-1.3853284120559692,0.9473945498466492,0.43125811219215393,0.6818875670433044,-0.5251010656356812
4.404094219207764,-0.33665215969085693,-1.3796063661575317,0.9431982636451721,0.43049514293670654,0.6780728101730347,-0.5155642032623291
4.424189329147339,-0.3385595381259918,-1.3788433074951172,0.9458686113357544,0.4171435236930847,0.6750209927558899,-0.5197604298591614
4.44439697265625,-0.3370336592197418,-1.3841840028762817,0.9489204287528992,0.41599908471107483,0.6788357496261597,-0.5220493078231812
4.4644951820373535,-0.33474478125572205,-1.3803693056106567,0.9470130205154419,0.4346913993358612,0.6811245679855347,-0.5201418995857239
4.4845664501190186,-0.33550775051116943,-1.3746471405029297,0.9470130205154419,0.42820629477500916,0.6738765835762024,-0.5159456729888916
4.504633188247681,-0.3374151289463043,-1.3750286102294922,0.9531166553497314,0.4182879328727722,0.6788357496261597,-0.5193789601325989
4.524718999862671,-0.33665215969085693,-1.3776988983154297,0.951209306716919,0.42782482504844666,0.6853207945823669,-0.5216678380966187
4.5447916984558105,-0.33474478125572205,-1.3723583221435547,0.9462500810623169,0.44384679198265076,0.6811245679855347,-0.5186160206794739
4.5648510456085205,-0.3389410376548767,-1.3681620359420776,0.9477760195732117,0.4331654906272888,0.6734950542449951,-0.5170900821685791
4.584960699081421,-0.3412298858165741,-1.3738842010498047,0.951209306716919,0.4186694025993347,0.6837949156761169,-0.5262455344200134
4.605018615722656,-0.3370336592197418,-1.3765544891357422,0.9489204287528992,0.42782482504844666,0.6879911422729492,-0.5228122472763062
4.625072717666626,-0.3370336592197418,-1.3757915496826172,0.9481574892997742,0.43011367321014404,0.6780728101730347,-0.5170900821685791
4.645161390304565,-0.3397039771080017,-1.3742656707763672,0.9515907764434814,0.41180285811424255,0.6708247661590576,-0.5197604298591614
4.665240526199341,-0.3389410376548767,-1.3773174285888672,0.951972246170044,0.4083695709705353,0.6738765835762024,-0.5247195959091187
4.685295104980469,-0.3389410376548767,-1.3796063661575317,0.9515907764434814,0.422102689743042,0.6807430982589722,-0.5228122472763062
4.705408811569214,-0.3389410376548767,-1.3727397918701172,0.9538795948028564,0.4228656589984894,0.6803616285324097,-0.5197604298591614
4.725443601608276,-0.3393225073814392,-1.3715953826904297,0.953498125076294,0.41638055443763733,0.6757839322090149,-0.5224307775497437
4.745494604110718,-0.3393225073814392,-1.3735027313232422,0.9523537158966064,0.4201953113079071,0.6818875670433044,-0.5224307775497437
4.765739917755127,-0.3393225073814392,-1.3712139129638672,0.9523537158966064,0.42744335532188416,0.6864652633666992,-0.5216678380966187
4.78582763671875,-0.3389410376548767,-1.3715953826904297,0.9531166553497314,0.4228656589984894,0.6784542798995972,-0.5189974904060364
4.805910348892212,-0.3393225073814392,-1.3735027313232422,0.952735185623169,0.4179064631462097,0.6822690367698669,-0.5239566564559937
4.825987100601196,-0.3389410376548767,-1.3712139129638672,0.951209306716919,0.42668038606643677,0.6826505064964294,-0.5220493078231812
4.846058130264282,-0.3389410376548767,-1.3670176267623901,0.953498125076294,0.4205767810344696,0.6780728101730347,-0.5193789601325989
4.866177797317505,-0.3389410376548767,-1.3689249753952026,0.9508277773857117,0.421339750289917,0.6776912808418274,-0.5228122472763062
4.8871541023254395,-0.3393225073814392,-1.3727397918701172,0.9504463076591492,0.42668038606643677,0.6853207945823669,-0.5216678380966187
4.9072465896606445,-0.3389410376548767,-1.3662546873092651,0.952735185623169,0.42782482504844666,0.6811245679855347,-0.5182345509529114
4.927321195602417,-0.3393225073814392,-1.3658732175827026,0.951209306716919,0.4182879328727722,0.6708247661590576,-0.5212863087654114
4.947380542755127,-0.3393225073814392,-1.3666361570358276,0.9496833682060242,0.42820629477500916,0.6841763854026794,-0.5228122472763062
4.9674859046936035,-0.3389410376548767,-1.3647288084030151,0.9531166553497314,0.42896926403045654,0.6788357496261597,-0.5167086124420166
4.987556457519531,-0.3389410376548767,-1.3662546873092651,0.952735185623169,0.4243915379047394,0.6738765835762024,-0.5220493078231812
5.007635116577148,-0.3389410376548767,-1.3693064451217651,0.9493018984794617,0.43125811219215393,0.6860837936401367,-0.5216678380966187
5.027723550796509,-0.3389410376548767,-1.3662546873092651,0.9481574892997742,0.4339284300804138,0.6849393248558044,-0.5174715518951416
5.04782772064209,-0.3400854468345642,-1.3715953826904297,0.9504463076591492,0.421339750289917,0.6757839322090149,-0.5197604298591614
5.067891597747803,-0.3393225073814392,-1.3723583221435547,0.9489204287528992,0.42553597688674927,0.6803616285324097,-0.5239566564559937
5.087965250015259,-0.3381780683994293,-1.3731212615966797,0.9489204287528992,0.42706188559532166,0.6681544184684753,-0.5167086124420166
5.10813045501709,-0.3400854468345642,-1.3719768524169922,0.951209306716919,0.4232471287250519,0.6643396615982056,-0.5220493078231812
5.128141403198242,-0.3397039771080017,-1.3750286102294922,0.9489204287528992,0.43087664246559143,0.6723506450653076,-0.5235751867294312
5.149096250534058,-0.3397039771080017,-1.3761730194091797,0.9481574892997742,0.4404135048389435,0.6811245679855347,-0.5220493078231812
5.16918420791626,-0.3393225073814392,-1.3731212615966797,0.9508277773857117,0.4369802474975586,0.6761654019355774,-0.5193789601325989
5.189254283905029,-0.3393225073814392,-1.3784618377685547,0.9504463076591492,0.42820629477500916,0.6734950542449951,-0.5235751867294312
5.209327936172485,-0.3389410376548767,-1.3815137147903442,0.9508277773857117,0.4327840209007263,0.6864652633666992,-0.5235751867294312
5.229412078857422,-0.3374151289463043,-1.3822766542434692,0.954261064529419,0.4247730076313019,0.6754024624824524,-0.5201418995857239
5.249511480331421,-0.3385595381259918,-1.3841840028762817,0.9531166553497314,0.4194323718547821,0.6731135845184326,-0.5273899435997009
5.269567489624023,-0.3381780683994293,-1.3822766542434692,0.951972246170044,0.42820629477500916,0.6799801588058472,-0.5247195959091187
5.289641618728638,-0.3370336592197418,-1.3742656707763672,0.953498125076294,0.42744335532188416,0.6723506450653076,-0.5201418995857239
5.309714317321777,-0.3397039771080017,-1.3750286102294922,0.9557870030403137,0.4205767810344696,0.6723506450653076,-0.5239566564559937
5.329771041870117,-0.3370336592197418,-1.3792248964309692,0.9515907764434814,0.4327840209007263,0.6864652633666992,-0.5251010656356812
5.3499205112457275,-0.33627068996429443,-1.3784618377685547,0.9489204287528992,0.4484245181083679,0.6876096725463867,-0.5193789601325989
5.369995355606079,-0.33627068996429443,-1.3754100799560547,0.9496833682060242,0.44651713967323303,0.6807430982589722,-0.5205233693122864
5.390082597732544,-0.3389410376548767,-1.3788433074951172,0.9523537158966064,0.42858776450157166,0.6807430982589722,-0.5216678380966187
5.410443067550659,-0.3377965986728668,-1.3864728212356567,0.952735185623169,0.43125811219215393,0.6860837936401367,-0.5243381261825562
5.430540084838867,-0.33588922023773193,-1.3826581239700317,0.9538795948028564,0.4343098998069763,0.6811245679855347,-0.5197604298591614
5.450664281845093,-0.3397039771080017,-1.3845654726028442,0.9565499424934387,0.4228656589984894,0.6799801588058472,-0.5220493078231812
5.470736980438232,-0.3377965986728668,-1.3872358798980713,0.953498125076294,0.4331654906272888,0.6929503083229065,-0.5258640646934509
5.490849494934082,-0.33588922023773193,-1.3811322450637817,0.951209306716919,0.44804301857948303,0.6818875670433044,-0.5167086124420166
5.510969161987305,-0.3419928252696991,-1.3834210634231567,0.959983229637146,0.42858776450157166,0.6731135845184326,-0.5186160206794739
5.5310163497924805,-0.3427557647228241,-1.3887617588043213,0.9653238654136658,0.42591744661331177,0.6883726119995117,-0.5270084738731384
5.551113128662109,-0.3393225073814392,-1.3860913515090942,0.9641794562339783,0.4354543387889862,0.691805899143219,-0.5251010656356812
5.571183204650879,-0.3416113555431366,-1.3838025331497192,0.967231273651123,0.42820629477500916,0.6792172193527222,-0.5224307775497437
5.5912394523620605,-0.34885939955711365,-1.3914320468902588,0.9721904397010803,0.4182879328727722,0.6929503083229065,-0.5296788215637207
5.6113433837890625,-0.3427557647228241,-1.3941023349761963,0.9668498039245605,0.4327840209007263,0.7082093358039856,-0.5304417610168457
5.6314377784729,-0.3389410376548767,-1.3910505771636963,0.9630350470542908,0.44193941354751587,0.692568838596344,-0.5201418995857239
5.651484727859497,-0.3397039771080017,-1.3853284120559692,0.9626535177230835,0.42668038606643677,0.6750209927558899,-0.5231937170028687
5.672332525253296,-0.3435187339782715,-1.3925764560699463,0.9664682745933533,0.41485464572906494,0.6830319762229919,-0.5251010656356812
5.692507743835449,-0.3419928252696991,-1.3948653936386108,0.9668498039245605,0.42591744661331177,0.6914244294166565,-0.5258640646934509
5.712547540664673,-0.3419928252696991,-1.3910505771636963,0.9691386222839355,0.4247730076313019,0.6834134459495544,-0.5201418995857239
5.732723236083984,-0.344663143157959,-1.3941023349761963,0.9710460305213928,0.41103988885879517,0.6815060377120972,-0.5231937170028687
5.752809524536133,-0.3427557647228241,-1.3929579257965088,0.9676127433776855,0.421339750289917,0.6921873688697815,-0.5258640646934509
5.773025989532471,-0.343137264251709,-1.3902876377105713,0.9676127433776855,0.42820629477500916,0.6834134459495544,-0.5170900821685791
5.793003797531128,-0.3435187339782715,-1.3845654726028442,0.9676127433776855,0.4179064631462097,0.6750209927558899,-0.5201418995857239
5.813094854354858,-0.34542611241340637,-1.3872358798980713,0.9653238654136658,0.4182879328727722,0.6815060377120972,-0.5220493078231812
5.833183288574219,-0.3427557647228241,-1.3826581239700317,0.9649423956871033,0.4240100681781769,0.6822690367698669,-0.5201418995857239
5.853240013122559,-0.34618905186653137,-1.3792248964309692,0.967994213104248,0.41638055443763733,0.6734950542449951,-0.5193789601325989
5.873338460922241,-0.34733349084854126,-1.3807507753372192,0.9660868048667908,0.41638055443763733,0.6860837936401367,-0.5235751867294312
5.89351224899292,-0.34542611241340637,-1.3796063661575317,0.9630350470542908,0.43049514293670654,0.6960021257400513,-0.5220493078231812
5.913578987121582,-0.34542611241340637,-1.3754100799560547,0.9626535177230835,0.43011367321014404,0.689517080783844,-0.5159456729888916
5.933651685714722,-0.34580758213996887,-1.3815137147903442,0.962272047996521,0.421339750289917,0.6837949156761169,-0.5216678380966187
5.953725337982178,-0.34618905186653137,-1.3822766542434692,0.9611276388168335,0.42858776450157166,0.6883726119995117,-0.5220493078231812
5.97378134727478,-0.34657052159309387,-1.3780803680419922,0.9618905782699585,0.41638055443763733,0.6681544184684753,-0.5167086124420166
5.993880033493042,-0.34733349084854126,-1.3815137147903442,0.961509108543396,0.4064621925354004,0.6727321147918701,-0.5266270041465759
6.0139479637146,-0.34657052159309387,-1.3818951845169067,0.960746169090271,0.4205767810344696,0.6876096725463867,-0.5243381261825562
6.03402853012085,-0.34618905186653137,-1.3803693056106567,0.9634165167808533,0.42591744661331177,0.6845578551292419,-0.5209048390388489
6.054121494293213,-0.34657052159309387,-1.3822766542434692,0.9641794562339783,0.41409170627593994,0.6837949156761169,-0.5247195959091187
6.074187278747559,-0.34504464268684387,-1.3818951845169067,0.960746169090271,0.4175249934196472,0.6914244294166565,-0.5281528830528259
6.09424352645874,-0.343900203704834,-1.3826581239700317,0.9603646993637085,0.4179064631462097,0.6876096725463867,-0.5235751867294312
6.114354848861694,-0.34504464268684387,-1.3815137147903442,0.9645609259605408,0.4056992530822754,0.6788357496261597,-0.5239566564559937
6.134413480758667,-0.344663143157959,-1.3841840028762817,0.9637979865074158,0.4076066315174103,0.6811245679855347,-0.5296788215637207
6.154470682144165,-0.3442816734313965,-1.3803693056106567,0.9626535177230835,0.4175249934196472,0.6834134459495544,-0.5277714133262634
6.174561977386475,-0.34504464268684387,-1.3822766542434692,0.9641794562339783,0.41294726729393005,0.6773098111152649,-0.5247195959091187
6.194653749465942,-0.34580758213996887,-1.3796063661575317,0.9630350470542908,0.4175249934196472,0.6883726119995117,-0.5289158225059509
6.214728116989136,-0.34542611241340637,-1.3811322450637817,0.9637979865074158,0.42629891633987427,0.6822690367698669,-0.5235751867294312
6.2352118492126465,-0.34618905186653137,-1.3765544891357422,0.9645609259605408,0.4087510406970978,0.6742580533027649,-0.5239566564559937
6.255303621292114,-0.34657052159309387,-1.3776988983154297,0.9626535177230835,0.4053177833557129,0.6731135845184326,-0.5266270041465759
6.275399208068848,-0.34618905186653137,-1.3776988983154297,0.9603646993637085,0.41103988885879517,0.6784542798995972,-0.5247195959091187
6.295529127120972,-0.34618905186653137,-1.3761730194091797,0.959220290184021,0.41294726729393005,0.6795986890792847,-0.5239566564559937
6.315624713897705,-0.34657052159309387,-1.3765544891357422,0.9588387608528137,0.4087510406970978,0.6738765835762024,-0.5231937170028687
6.335697174072266,-0.34542611241340637,-1.3727397918701172,0.9569314122200012,0.40951400995254517,0.6834134459495544,-0.5266270041465759
6.355750322341919,-0.3442816734313965,-1.3708323240280151,0.9580758213996887,0.4182879328727722,0.6776912808418274,-0.5231937170028687
6.375852346420288,-0.3442816734313965,-1.3719768524169922,0.959983229637146,0.41332876682281494,0.6773098111152649,-0.5239566564559937
6.395933628082275,-0.3442816734313965,-1.3715953826904297,0.9576943516731262,0.4182879328727722,0.6795986890792847,-0.5254825949668884
6.415990114212036,-0.3442816734313965,-1.3689249753952026,0.9576943516731262,0.41523614525794983,0.6757839322090149,-0.5209048390388489
6.4360809326171875,-0.3442816734313965,-1.3719768524169922,0.9576943516731262,0.41065841913223267,0.6742580533027649,-0.5243381261825562
6.4561567306518555,-0.343900203704834,-1.3719768524169922,0.9554055333137512,0.4217212200164795,0.6818875670433044,-0.5262455344200134
6.4762187004089355,-0.343900203704834,-1.3685435056686401,0.9557870030403137,0.4217212200164795,0.6750209927558899,-0.5201418995857239
6.496307134628296,-0.3442816734313965,-1.3647288084030151,0.9554055333137512,0.41065841913223267,0.6654840707778931,-0.5220493078231812
6.516386032104492,-0.343900203704834,-1.3632028102874756,0.9523537158966064,0.41447317600250244,0.6750209927558899,-0.5243381261825562
6.5364415645599365,-0.343900203704834,-1.3616769313812256,0.954261064529419,0.42706188559532166,0.6834134459495544,-0.5220493078231812
6.556529998779297,-0.3427557647228241,-1.3601510524749756,0.955024003982544,0.4224841594696045,0.6811245679855347,-0.5209048390388489
6.576609373092651,-0.343137264251709,-1.3662546873092651,0.9531166553497314,0.4175249934196472,0.6849393248558044,-0.5251010656356812
6.596659898757935,-0.3423742949962616,-1.3666361570358276,0.9531166553497314,0.4209582805633545,0.6929503083229065,-0.5243381261825562
6.616769313812256,-0.3419928252696991,-1.3735027313232422,0.9538795948028564,0.41447317600250244,0.6780728101730347,-0.5209048390388489
6.636852502822876,-0.3423742949962616,-1.3773174285888672,0.953498125076294,0.4079881012439728,0.6826505064964294,-0.5277714133262634
6.656915903091431,-0.3423742949962616,-1.3757915496826172,0.9538795948028564,0.41218432784080505,0.6757839322090149,-0.5247195959091187
6.676993131637573,-0.3423742949962616,-1.3685435056686401,0.9538795948028564,0.4087510406970978,0.6628137826919556,-0.5228122472763062
6.697067975997925,-0.3427557647228241,-1.3666361570358276,0.952735185623169,0.41103988885879517,0.6677729487419128,-0.5239566564559937
6.717122316360474,-0.34504464268684387,-1.3731212615966797,0.9523537158966064,0.4217212200164795,0.6860837936401367,-0.5235751867294312
6.7372190952301025,-0.34657052159309387,-1.3708323240280151,0.952735185623169,0.4339284300804138,0.6940947771072388,-0.5224307775497437
6.75729513168335,-0.343900203704834,-1.3727397918701172,0.953498125076294,0.43049514293670654,0.690280020236969,-0.5193789601325989
6.777364492416382,-0.3423742949962616,-1.3746471405029297,0.953498125076294,0.4232471287250519,0.6879911422729492,-0.5258640646934509
6.7974207401275635,-0.3423742949962616,-1.3803693056106567,0.9538795948028564,0.4190509021282196,0.6822690367698669,-0.5231937170028687
6.8175671100616455,-0.3416113555431366,-1.3754100799560547,0.953498125076294,0.41638055443763733,0.6784542798995972,-0.5231937170028687
6.837722063064575,-0.3423742949962616,-1.3746471405029297,0.9538795948028564,0.41409170627593994,0.6765468716621399,-0.5231937170028687
6.857872486114502,-0.3423742949962616,-1.3765544891357422,0.9538795948028564,0.42591744661331177,0.6837949156761169,-0.5251010656356812
6.877891302108765,-0.3423742949962616,-1.3719768524169922,0.9565499424934387,0.4350728690624237,0.6876096725463867,-0.5209048390388489
6.897942781448364,-0.3423742949962616,-1.3651102781295776,0.9561684727668762,0.43240252137184143,0.6757839322090149,-0.5201418995857239
6.918059349060059,-0.343137264251709,-1.3647288084030151,0.953498125076294,0.4247730076313019,0.6757839322090149,-0.5212863087654114
6.938155174255371,-0.3427557647228241,-1.3677805662155151,0.953498125076294,0.43125811219215393,0.6883726119995117,-0.5235751867294312
6.958202362060547,-0.3416113555431366,-1.3693064451217651,0.9546425342559814,0.4331654906272888,0.6879911422729492,-0.5197604298591614
6.97832465171814,-0.3412298858165741,-1.3689249753952026,0.9554055333137512,0.4232471287250519,0.6784542798995972,-0.5205233693122864
6.998404026031494,-0.3416113555431366,-1.3715953826904297,0.952735185623169,0.421339750289917,0.6830319762229919,-0.5258640646934509
7.019020080566406,-0.3416113555431366,-1.3723583221435547,0.952735185623169,0.42553597688674927,0.6864652633666992,-0.5231937170028687
7.039121866226196,-0.3412298858165741,-1.3693064451217651,0.9546425342559814,0.4236285984516144,0.6757839322090149,-0.5231937170028687
7.059214115142822,-0.3419928252696991,-1.3681620359420776,0.952735185623169,0.42668038606643677,0.6792172193527222,-0.5247195959091187
7.079285144805908,-0.3423742949962616,-1.3689249753952026,0.9538795948028564,0.43011367321014404,0.6864652633666992,-0.5235751867294312
7.099373817443848,-0.3423742949962616,-1.3696879148483276,0.953498125076294,0.43049514293670654,0.6837949156761169,-0.5235751867294312
7.119428396224976,-0.3419928252696991,-1.3689249753952026,0.952735185623169,0.42782482504844666,0.6818875670433044,-0.5239566564559937
7.1397247314453125,-0.3419928252696991,-1.3700693845748901,0.9515907764434814,0.4236285984516144,0.6818875670433044,-0.5243381261825562
7.159818172454834,-0.3416113555431366,-1.3704508543014526,0.951972246170044,0.421339750289917,0.6818875670433044,-0.5239566564559937
7.179890871047974,-0.3404669165611267,-1.3700693845748901,0.951972246170044,0.4217212200164795,0.6807430982589722,-0.5239566564559937
7.21047043800354,-0.3404669165611267,-1.3700693845748901,0.951972246170044,0.4217212200164795,0.6807430982589722,-0.5239566564559937
7.2305378913879395,-0.3397039771080017,-1.3689249753952026,0.952735185623169,0.42515450716018677,0.6822690367698669,-0.5239566564559937
7.25061559677124,-0.3397039771080017,-1.3689249753952026,0.952735185623169,0.42515450716018677,0.6818875670433044,-0.5239566564559937
7.2713868618011475,-0.3397039771080017,-1.3689249753952026,0.9523537158966064,0.4247730076313019,0.6811245679855347,-0.5239566564559937
7.291483402252197,-0.3393225073814392,-1.3693064451217651,0.9523537158966064,0.4240100681781769,0.6799801588058472,-0.5239566564559937
7.3115739822387695,-0.3389410376548767,-1.3693064451217651,0.951972246170044,0.4236285984516144,0.6795986890792847,-0.5239566564559937
7.331832408905029,-0.3389410376548767,-1.3689249753952026,0.9523537158966064,0.4240100681781769,0.6799801588058472,-0.5239566564559937
7.351953029632568,-0.3389410376548767,-1.3689249753952026,0.951972246170044,0.4240100681781769,0.6803616285324097,-0.5243381261825562
7.372042417526245,-0.3389410376548767,-1.3693064451217651,0.951972246170044,0.4240100681781769,0.6807430982589722,-0.5243381261825562
7.392094373703003,-0.3389410376548767,-1.3693064451217651,0.951972246170044,0.4240100681781769,0.6799801588058472,-0.5243381261825562
7.412208557128906,-0.3389410376548767,-1.3693064451217651,0.951209306716919,0.4240100681781769,0.6792172193527222,-0.5243381261825562
7.432287931442261,-0.3389410376548767,-1.3693064451217651,0.951209306716919,0.4236285984516144,0.6792172193527222,-0.5243381261825562
7.4523561000823975,-0.3389410376548767,-1.3693064451217651,0.951209306716919,0.4243915379047394,0.6795986890792847,-0.5243381261825562
7.472460985183716,-0.3389410376548767,-1.3693064451217651,0.951209306716919,0.4243915379047394,0.6807430982589722,-0.5243381261825562
7.492515325546265,-0.3389410376548767,-1.3693064451217651,0.951209306716919,0.4247730076313019,0.6807430982589722,-0.5243381261825562
7.512580156326294,-0.3389410376548767,-1.3693064451217651,0.951209306716919,0.4243915379047394,0.6807430982589722,-0.5243381261825562
7.533176898956299,-0.3389410376548767,-1.3693064451217651,0.951209306716919,0.4243915379047394,0.6807430982589722,-0.5243381261825562
7.553284645080566,-0.3389410376548767,-1.3693064451217651,0.951209306716919,0.4243915379047394,0.6803616285324097,-0.5243381261825562
7.57337212562561,-0.3389410376548767,-1.3693064451217651,0.951209306716919,0.4243915379047394,0.6803616285324097,-0.5243381261825562
7.5936501026153564,-0.3389410376548767,-1.3693064451217651,0.951209306716919,0.42515450716018677,0.6807430982589722,-0.5243381261825562
7.613771438598633,-0.3389410376548767,-1.3693064451217651,0.951209306716919,0.42553597688674927,0.6807430982589722,-0.5243381261825562
7.633843660354614,-0.3389410376548767,-1.3693064451217651,0.951209306716919,0.42553597688674927,0.6807430982589722,-0.5243381261825562
7.653947114944458,-0.3389410376548767,-1.3693064451217651,0.951209306716919,0.42553597688674927,0.6807430982589722,-0.5243381261825562
7.674036502838135,-0.3385595381259918,-1.3693064451217651,0.951209306716919,0.42553597688674927,0.6807430982589722,-0.5243381261825562
7.6941728591918945,-0.3389410376548767,-1.3693064451217651,0.951209306716919,0.42553597688674927,0.6807430982589722,-0.5243381261825562
7.714198112487793,-0.3389410376548767,-1.3693064451217651,0.951209306716919,0.42553597688674927,0.6811245679855347,-0.5243381261825562
7.734290838241577,-0.3389410376548767,-1.3693064451217651,0.951209306716919,0.42553597688674927,0.6811245679855347,-0.5243381261825562
7.754370212554932,-0.3389410376548767,-1.3693064451217651,0.951209306716919,0.42553597688674927,0.6811245679855347,-0.5247195959091187
7.774439811706543,-0.3389410376548767,-1.3696879148483276,0.951209306716919,0.42553597688674927,0.6811245679855347,-0.5247195959091187
7.794788360595703,-0.3389410376548767,-1.3696879148483276,0.9508277773857117,0.42553597688674927,0.6811245679855347,-0.5247195959091187
7.814874649047852,-0.3389410376548767,-1.3696879148483276,0.9508277773857117,0.42553597688674927,0.6811245679855347,-0.5247195959091187
7.834961891174316,-0.3385595381259918,-1.3696879148483276,0.9508277773857117,0.42553597688674927,0.6811245679855347,-0.5247195959091187
7.855093479156494,-0.3385595381259918,-1.3700693845748901,0.9508277773857117,0.42553597688674927,0.6815060377120972,-0.5247195959091187
7.875186443328857,-0.3385595381259918,-1.3693064451217651,0.9508277773857117,0.42553597688674927,0.6815060377120972,-0.5243381261825562
7.89525294303894,-0.3381780683994293,-1.3693064451217651,0.9504463076591492,0.42553597688674927,0.6807430982589722,-0.5247195959091187
7.915328502655029,-0.3381780683994293,-1.3693064451217651,0.9504463076591492,0.42553597688674927,0.6815060377120972,-0.5247195959091187
7.935425519943237,-0.3381780683994293,-1.3693064451217651,0.9504463076591492,0.42591744661331177,0.6815060377120972,-0.5247195959091187
7.955501079559326,-0.3381780683994293,-1.3693064451217651,0.9504463076591492,0.42591744661331177,0.6818875670433044,-0.5247195959091187
7.975571155548096,-0.3381780683994293,-1.3693064451217651,0.9508277773857117,0.42591744661331177,0.6818875670433044,-0.5247195959091187
7.995752334594727,-0.3381780683994293,-1.3693064451217651,0.9508277773857117,0.42591744661331177,0.6811245679855347,-0.5247195959091187
8.015812158584595,-0.3381780683994293,-1.3693064451217651,0.9508277773857117,0.42591744661331177,0.6811245679855347,-0.5247195959091187
8.035965919494629,-0.3381780683994293,-1.3693064451217651,0.9508277773857117,0.42591744661331177,0.6811245679855347,-0.5247195959091187
8.05605697631836,-0.3381780683994293,-1.3693064451217651,0.9508277773857117,0.42591744661331177,0.6815060377120972,-0.5247195959091187
8.076119899749756,-0.3381780683994293,-1.3693064451217651,0.9508277773857117,0.42591744661331177,0.6815060377120972,-0.5247195959091187
8.096208810806274,-0.3381780683994293,-1.3693064451217651,0.9508277773857117,0.42591744661331177,0.6815060377120972,-0.5247195959091187
8.116359949111938,-0.3381780683994293,-1.3693064451217651,0.9508277773857117,0.42591744661331177,0.6815060377120972,-0.5247195959091187
8.136353969573975,-0.3381780683994293,-1.3693064451217651,0.9508277773857117,0.42591744661331177,0.6815060377120972,-0.5247195959091187
8.156444311141968,-0.3381780683994293,-1.3693064451217651,0.9508277773857117,0.42591744661331177,0.6815060377120972,-0.5247195959091187
8.176758527755737,-0.3381780683994293,-1.3693064451217651,0.9508277773857117,0.42591744661331177,0.6815060377120972,-0.5247195959091187
8.19676923751831,-0.3381780683994293,-1.3693064451217651,0.9508277773857117,0.42591744661331177,0.6815060377120972,-0.5247195959091187
8.216862916946411,-0.3381780683994293,-1.3693064451217651,0.9508277773857117,0.42591744661331177,0.6815060377120972,-0.5247195959091187
8.236941576004028,-0.3381780683994293,-1.3693064451217651,0.9508277773857117,0.42591744661331177,0.6815060377120972,-0.5247195959091187
8.256995916366577,-0.3381780683994293,-1.3696879148483276,0.9508277773857117,0.42591744661331177,0.6815060377120972,-0.5247195959091187
8.27711033821106,-0.3381780683994293,-1.3693064451217651,0.951209306716919,0.42591744661331177,0.6815060377120972,-0.5247195959091187
8.297194004058838,-0.3381780683994293,-1.3696879148483276,0.9508277773857117,0.42591744661331177,0.6815060377120972,-0.5247195959091187
8.317281246185303,-0.3381780683994293,-1.3696879148483276,0.951209306716919,0.42591744661331177,0.6815060377120972,-0.5247195959091187
8.337356090545654,-0.3381780683994293,-1.3696879148483276,0.951209306716919,0.42629891633987427,0.6815060377120972,-0.5247195959091187
8.357476949691772,-0.3381780683994293,-1.3696879148483276,0.951209306716919,0.42591744661331177,0.6815060377120972,-0.5247195959091187
8.377493381500244,-0.3381780683994293,-1.3700693845748901,0.951209306716919,0.42629891633987427,0.6818875670433044,-0.5247195959091187
8.397591829299927,-0.3381780683994293,-1.3700693845748901,0.951209306716919,0.42629891633987427,0.6818875670433044,-0.5247195959091187
8.417665481567383,-0.3381780683994293,-1.3700693845748901,0.951209306716919,0.42629891633987427,0.6815060377120972,-0.5247195959091187
8.437841176986694,-0.3381780683994293,-1.3700693845748901,0.951209306716919,0.42629891633987427,0.6815060377120972,-0.5247195959091187
8.457858800888062,-0.3381780683994293,-1.3700693845748901,0.951209306716919,0.42629891633987427,0.6815060377120972,-0.5247195959091187
8.47794795036316,-0.3381780683994293,-1.3700693845748901,0.951209306716919,0.42629891633987427,0.6818875670433044,-0.5247195959091187
8.498376369476318,-0.3381780683994293,-1.3700693845748901,0.951209306716919,0.42668038606643677,0.6815060377120972,-0.5247195959091187
8.518485069274902,-0.3381780683994293,-1.3700693845748901,0.951209306716919,0.42629891633987427,0.6818875670433044,-0.5247195959091187
8.538542985916138,-0.3381780683994293,-1.3700693845748901,0.951209306716919,0.42668038606643677,0.6815060377120972,-0.5247195959091187
8.558728694915771,-0.3381780683994293,-1.3700693845748901,0.951209306716919,0.42668038606643677,0.6815060377120972,-0.5247195959091187
8.578824520111084,-0.3381780683994293,-1.3700693845748901,0.951209306716919,0.42668038606643677,0.6815060377120972,-0.5247195959091187
8.598882913589478,-0.3381780683994293,-1.3700693845748901,0.9515907764434814,0.42668038606643677,0.6818875670433044,-0.5247195959091187
8.619208812713623,-0.3381780683994293,-1.3700693845748901,0.9515907764434814,0.42668038606643677,0.6818875670433044,-0.5247195959091187
8.63930344581604,-0.3381780683994293,-1.3700693845748901,0.9515907764434814,0.42629891633987427,0.6818875670433044,-0.5247195959091187
8.659376621246338,-0.3381780683994293,-1.3700693845748901,0.9515907764434814,0.42668038606643677,0.6815060377120972,-0.5247195959091187
8.679616451263428,-0.3385595381259918,-1.3700693845748901,0.9515907764434814,0.42668038606643677,0.6815060377120972,-0.5247195959091187
8.699735641479492,-0.3389410376548767,-1.3700693845748901,0.9515907764434814,0.42668038606643677,0.6815060377120972,-0.5247195959091187
8.719782829284668,-0.3389410376548767,-1.3700693845748901,0.9515907764434814,0.42668038606643677,0.6818875670433044,-0.5247195959091187
8.739984273910522,-0.3389410376548767,-1.3700693845748901,0.9515907764434814,0.42668038606643677,0.6818875670433044,-0.5247195959091187
8.760095596313477,-0.3393225073814392,-1.3700693845748901,0.9515907764434814,0.42668038606643677,0.6815060377120972,-0.5247195959091187
8.780229568481445,-0.3389410376548767,-1.3700693845748901,0.9515907764434814,0.42668038606643677,0.6818875670433044,-0.5247195959091187
8.80032205581665,-0.3389410376548767,-1.3700693845748901,0.9515907764434814,0.42668038606643677,0.6818875670433044,-0.5247195959091187
8.820408821105957,-0.3389410376548767,-1.3700693845748901,0.9515907764434814,0.42668038606643677,0.6818875670433044,-0.5247195959091187
8.840486288070679,-0.3389410376548767,-1.3700693845748901,0.9515907764434814,0.42668038606643677,0.6822690367698669,-0.5247195959091187
8.8605797290802,-0.3389410376548767,-1.3704508543014526,0.9515907764434814,0.42668038606643677,0.6822690367698669,-0.5247195959091187
8.88066029548645,-0.3389410376548767,-1.3704508543014526,0.9515907764434814,0.42668038606643677,0.6822690367698669,-0.5247195959091187
8.900737762451172,-0.3389410376548767,-1.3704508543014526,0.9515907764434814,0.42668038606643677,0.6822690367698669,-0.5247195959091187
8.92080569267273,-0.3389410376548767,-1.3704508543014526,0.951209306716919,0.42668038606643677,0.6818875670433044,-0.5247195959091187
8.940885782241821,-0.3389410376548767,-1.3704508543014526,0.951209306716919,0.42668038606643677,0.6818875670433044,-0.5247195959091187
8.960966348648071,-0.3389410376548767,-1.3704508543014526,0.951209306716919,0.42668038606643677,0.6818875670433044,-0.5247195959091187
8.981025695800781,-0.3389410376548767,-1.3704508543014526,0.951209306716919,0.42668038606643677,0.6822690367698669,-0.5247195959091187
9.001328706741333,-0.3389410376548767,-1.3704508543014526,0.951209306716919,0.42668038606643677,0.6822690367698669,-0.5247195959091187
9.021406173706055,-0.3389410376548767,-1.3704508543014526,0.951209306716919,0.42668038606643677,0.6822690367698669,-0.5247195959091187
9.041471242904663,-0.3389410376548767,-1.3704508543014526,0.951209306716919,0.42668038606643677,0.6822690367698669,-0.5247195959091187
9.061594247817993,-0.3389410376548767,-1.3704508543014526,0.951209306716919,0.42668038606643677,0.6822690367698669,-0.5247195959091187
9.081692457199097,-0.3389410376548767,-1.3704508543014526,0.951209306716919,0.42668038606643677,0.6822690367698669,-0.5247195959091187
9.101765394210815,-0.3389410376548767,-1.3704508543014526,0.951209306716919,0.42668038606643677,0.6822690367698669,-0.5247195959091187
9.121876955032349,-0.3389410376548767,-1.3704508543014526,0.9515907764434814,0.42668038606643677,0.6822690367698669,-0.5247195959091187
9.141979455947876,-0.3389410376548767,-1.3704508543014526,0.951209306716919,0.42668038606643677,0.6822690367698669,-0.5247195959091187
9.162062883377075,-0.3389410376548767,-1.3704508543014526,0.951209306716919,0.42668038606643677,0.6822690367698669,-0.5247195959091187
9.182209014892578,-0.3385595381259918,-1.3704508543014526,0.951209306716919,0.42668038606643677,0.6822690367698669,-0.5247195959091187
9.20229983329773,-0.3385595381259918,-1.3704508543014526,0.951209306716919,0.42668038606643677,0.6822690367698669,-0.5247195959091187
9.222378015518188,-0.3385595381259918,-1.3704508543014526,0.9515907764434814,0.42668038606643677,0.6822690367698669,-0.5247195959091187
9.242551326751709,-0.3381780683994293,-1.3708323240280151,0.9515907764434814,0.42668038606643677,0.6822690367698669,-0.5247195959091187
9.26268744468689,-0.3381780683994293,-1.3704508543014526,0.9515907764434814,0.42668038606643677,0.6822690367698669,-0.5247195959091187
9.282768487930298,-0.3381780683994293,-1.3704508543014526,0.9515907764434814,0.42668038606643677,0.6815060377120972,-0.5247195959091187
9.303056716918945,-0.3381780683994293,-1.3704508543014526,0.9515907764434814,0.42706188559532166,0.6826505064964294,-0.5247195959091187
9.323140621185303,-0.3381780683994293,-1.3704508543014526,0.951972246170044,0.42706188559532166,0.6826505064964294,-0.5247195959091187
9.343154907226562,-0.3381780683994293,-1.3704508543014526,0.951972246170044,0.42706188559532166,0.6822690367698669,-0.5247195959091187
9.363252878189087,-0.3381780683994293,-1.3704508543014526,0.951972246170044,0.42744335532188416,0.6822690367698669,-0.5247195959091187
9.383321523666382,-0.3381780683994293,-1.3704508543014526,0.951972246170044,0.42744335532188416,0.6822690367698669,-0.5247195959091187
9.403373718261719,-0.3381780683994293,-1.3704508543014526,0.951972246170044,0.42744335532188416,0.6818875670433044,-0.5247195959091187
9.423466444015503,-0.3381780683994293,-1.3704508543014526,0.951972246170044,0.42744335532188416,0.6818875670433044,-0.5247195959091187
9.443541049957275,-0.3381780683994293,-1.3704508543014526,0.951972246170044,0.42706188559532166,0.6818875670433044,-0.5247195959091187
9.46387004852295,-0.3381780683994293,-1.3704508543014526,0.951972246170044,0.42744335532188416,0.6822690367698669,-0.5247195959091187
9.483959436416626,-0.3381780683994293,-1.3704508543014526,0.951972246170044,0.42744335532188416,0.6822690367698669,-0.5247195959091187
9.504039764404297,-0.3381780683994293,-1.3704508543014526,0.951972246170044,0.42744335532188416,0.6822690367698669,-0.5247195959091187
9.52409052848816,-0.3381780683994293,-1.3704508543014526,0.951972246170044,0.42744335532188416,0.6818875670433044,-0.5247195959091187
9.544177770614624,-0.3381780683994293,-1.3700693845748901,0.951972246170044,0.42706188559532166,0.6818875670433044,-0.5247195959091187
9.564248323440552,-0.3381780683994293,-1.3700693845748901,0.951972246170044,0.42744335532188416,0.6818875670433044,-0.5247195959091187
9.584298372268677,-0.3381780683994293,-1.3700693845748901,0.951972246170044,0.42706188559532166,0.6818875670433044,-0.5247195959091187
9.60453748703003,-0.3381780683994293,-1.3700693845748901,0.9515907764434814,0.42706188559532166,0.6818875670433044,-0.5247195959091187
9.624640226364136,-0.3381780683994293,-1.3700693845748901,0.9515907764434814,0.42744335532188416,0.6818875670433044,-0.5247195959091187
9.644723176956177,-0.3381780683994293,-1.3700693845748901,0.951209306716919,0.42706188559532166,0.6818875670433044,-0.5247195959091187
9.665215730667114,-0.3381780683994293,-1.3700693845748901,0.951209306716919,0.42706188559532166,0.6818875670433044,-0.5247195959091187
9.68530821800232,-0.3381780683994293,-1.3700693845748901,0.951209306716919,0.42706188559532166,0.6818875670433044,-0.5247195959091187
9.705389738082886,-0.3381780683994293,-1.3700693845748901,0.951209306716919,0.42706188559532166,0.6818875670433044,-0.5247195959091187
9.725579738616943,-0.3381780683994293,-1.3700693845748901,0.951209306716919,0.42706188559532166,0.6818875670433044,-0.5247195959091187
9.745665788650513,-0.3381780683994293,-1.3700693845748901,0.9515907764434814,0.42706188559532166,0.6818875670433044,-0.5247195959091187
9.765737771987915,-0.3381780683994293,-1.3700693845748901,0.951209306716919,0.42706188559532166,0.6818875670433044,-0.5247195959091187
9.785796403884888,-0.3381780683994293,-1.3700693845748901,0.9515907764434814,0.42706188559532166,0.6818875670433044,-0.5247195959091187
9.80588412284851,-0.3381780683994293,-1.3700693845748901,0.9515907764434814,0.42706188559532166,0.6822690367698669,-0.5247195959091187
9.825953960418701,-0.3381780683994293,-1.3700693845748901,0.9515907764434814,0.42706188559532166,0.6822690367698669,-0.5247195959091187
9.846078157424927,-0.3381780683994293,-1.3700693845748901,0.9515907764434814,0.42706188559532166,0.6818875670433044,-0.5247195959091187
9.86619257926941,-0.3381780683994293,-1.3700693845748901,0.9515907764434814,0.42706188559532166,0.6822690367698669,-0.5247195959091187
9.886289119720459,-0.3381780683994293,-1.3700693845748901,0.9515907764434814,0.42706188559532166,0.6818875670433044,-0.5247195959091187
9.906370878219604,-0.3381780683994293,-1.3700693845748901,0.9515907764434814,0.42706188559532166,0.6818875670433044,-0.5247195959091187
9.926469326019287,-0.3381780683994293,-1.3700693845748901,0.9515907764434814,0.42706188559532166,0.6822690367698669,-0.5247195959091187
9.946569681167603,-0.3381780683994293,-1.3700693845748901,0.9515907764434814,0.42706188559532166,0.6818875670433044,-0.5247195959091187
9.966633319854736,-0.3381780683994293,-1.3700693845748901,0.9515907764434814,0.42706188559532166,0.6822690367698669,-0.5247195959091187
9.98669147491455,-0.3381780683994293,-1.3700693845748901,0.9515907764434814,0.42706188559532166,0.6822690367698669,-0.5247195959091187
10.006773233413696,-0.3381780683994293,-1.3700693845748901,0.9515907764434814,0.42706188559532166,0.6818875670433044,-0.5247195959091187
10.026888847351074,-0.3381780683994293,-1.3700693845748901,0.9515907764434814,0.42706188559532166,0.6818875670433044,-0.5247195959091187
10.046964406967163,-0.3381780683994293,-1.3700693845748901,0.9515907764434814,0.42706188559532166,0.6822690367698669,-0.5247195959091187
10.067033052444458,-0.3381780683994293,-1.3700693845748901,0.9515907764434814,0.42706188559532166,0.6822690367698669,-0.5247195959091187
10.08710503578186,-0.3381780683994293,-1.3700693845748901,0.9515907764434814,0.42668038606643677,0.6822690367698669,-0.5247195959091187
10.107195377349854,-0.3381780683994293,-1.3700693845748901,0.9515907764434814,0.42668038606643677,0.6822690367698669,-0.5247195959091187
10.127718925476074,-0.3381780683994293,-1.3700693845748901,0.9515907764434814,0.42706188559532166,0.6822690367698669,-0.5247195959091187
10.147812128067017,-0.3381780683994293,-1.3700693845748901,0.9515907764434814,0.42706188559532166,0.6822690367698669,-0.5247195959091187
10.1679105758667,-0.3381780683994293,-1.3704508543014526,0.9515907764434814,0.42706188559532166,0.6822690367698669,-0.5247195959091187
10.187958240509033,-0.3381780683994293,-1.3704508543014526,0.9515907764434814,0.42668038606643677,0.6822690367698669,-0.5247195959091187
10.208057641983032,-0.3381780683994293,-1.3704508543014526,0.9515907764434814,0.42668038606643677,0.6822690367698669,-0.5247195959091187
10.228212833404541,-0.3381780683994293,-1.3704508543014526,0.9515907764434814,0.42706188559532166,0.6822690367698669,-0.5247195959091187
10.248358488082886,-0.3381780683994293,-1.3704508543014526,0.9515907764434814,0.42706188559532166,0.6822690367698669,-0.5247195959091187
10.26843547821045,-0.3381780683994293,-1.3704508543014526,0.9515907764434814,0.42668038606643677,0.6822690367698669,-0.5247195959091187
10.288467407226562,-0.3381780683994293,-1.3704508543014526,0.9515907764434814,0.42706188559532166,0.6822690367698669,-0.5247195959091187
10.308513164520264,-0.3381780683994293,-1.3704508543014526,0.9515907764434814,0.42668038606643677,0.6822690367698669,-0.5247195959091187
10.32861614227295,-0.3381780683994293,-1.3700693845748901,0.9515907764434814,0.42706188559532166,0.6822690367698669,-0.5247195959091187
10.348744630813599,-0.3381780683994293,-1.3700693845748901,0.9515907764434814,0.42668038606643677,0.6822690367698669,-0.5247195959091187
10.368767738342285,-0.3381780683994293,-1.3700693845748901,0.9515907764434814,0.42668038606643677,0.6822690367698669,-0.5247195959091187
10.38972282409668,-0.3381780683994293,-1.3700693845748901,0.9515907764434814,0.42668038606643677,0.6822690367698669,-0.5247195959091187
10.409832239151001,-0.3381780683994293,-1.3700693845748901,0.9515907764434814,0.42668038606643677,0.6822690367698669,-0.5247195959091187
10.429885625839233,-0.3381780683994293,-1.3700693845748901,0.9515907764434814,0.42668038606643677,0.6822690367698669,-0.5247195959091187
10.449939727783203,-0.3385595381259918,-1.3700693845748901,0.9515907764434814,0.42668038606643677,0.6822690367698669,-0.5247195959091187
10.470032691955566,-0.3385595381259918,-1.3700693845748901,0.9515907764434814,0.42668038606643677,0.6822690367698669,-0.5247195959091187
10.49010181427002,-0.3385595381259918,-1.3700693845748901,0.9515907764434814,0.42668038606643677,0.6822690367698669,-0.5247195959091187
10.510158061981201,-0.3385595381259918,-1.3700693845748901,0.9515907764434814,0.42668038606643677,0.6822690367698669,-0.5247195959091187
10.530790090560913,-0.3385595381259918,-1.3700693845748901,0.9515907764434814,0.42668038606643677,0.6822690367698669,-0.5247195959091187
10.550879716873169,-0.3385595381259918,-1.3700693845748901,0.9515907764434814,0.42668038606643677,0.6822690367698669,-0.5247195959091187
10.570947408676147,-0.3385595381259918,-1.3700693845748901,0.9515907764434814,0.42668038606643677,0.6822690367698669,-0.5247195959091187
10.591005086898804,-0.3385595381259918,-1.3700693845748901,0.9515907764434814,0.42668038606643677,0.6822690367698669,-0.5247195959091187
10.611096858978271,-0.3385595381259918,-1.3700693845748901,0.9515907764434814,0.42668038606643677,0.6822690367698669,-0.5247195959091187
10.631168842315674,-0.3389410376548767,-1.3700693845748901,0.9515907764434814,0.42668038606643677,0.6822690367698669,-0.5247195959091187
10.651223182678223,-0.3389410376548767,-1.3700693845748901,0.9515907764434814,0.42668038606643677,0.6822690367698669,-0.5247195959091187
10.671317338943481,-0.3393225073814392,-1.3700693845748901,0.9515907764434814,0.42668038606643677,0.6822690367698669,-0.5247195959091187
10.691402912139893,-0.3389410376548767,-1.3700693845748901,0.9515907764434814,0.42668038606643677,0.6822690367698669,-0.5247195959091187
10.71148133277893,-0.3393225073814392,-1.3700693845748901,0.9515907764434814,0.42668038606643677,0.6822690367698669,-0.5247195959091187
10.73169493675232,-0.3393225073814392,-1.3700693845748901,0.9515907764434814,0.42668038606643677,0.6822690367698669,-0.5247195959091187
10.751797676086426,-0.3389410376548767,-1.3700693845748901,0.9515907764434814,0.42629891633987427,0.6822690367698669,-0.5247195959091187
10.771886348724365,-0.3389410376548767,-1.3700693845748901,0.951209306716919,0.42668038606643677,0.6826505064964294,-0.5247195959091187
10.791942834854126,-0.3389410376548767,-1.3700693845748901,0.9515907764434814,0.42668038606643677,0.6826505064964294,-0.5247195959091187
10.812026262283325,-0.3389410376548767,-1.3700693845748901,0.951209306716919,0.42668038606643677,0.6826505064964294,-0.5247195959091187
10.832098007202148,-0.3389410376548767,-1.3704508543014526,0.9515907764434814,0.42668038606643677,0.6822690367698669,-0.5247195959091187
10.852149486541748,-0.3389410376548767,-1.3700693845748901,0.951209306716919,0.42668038606643677,0.6822690367698669,-0.5247195959091187
10.8722403049469,-0.3389410376548767,-1.3700693845748901,0.9515907764434814,0.42668038606643677,0.6822690367698669,-0.5247195959091187
10.892330408096313,-0.3389410376548767,-1.3700693845748901,0.9515907764434814,0.42668038606643677,0.6822690367698669,-0.5247195959091187
10.912369728088379,-0.3389410376548767,-1.3700693845748901,0.951209306716919,0.42668038606643677,0.6826505064964294,-0.5247195959091187
10.932474851608276,-0.3389410376548767,-1.3700693845748901,0.951209306716919,0.42668038606643677,0.6822690367698669,-0.5247195959091187
10.952532052993774,-0.3389410376548767,-1.3700693845748901,0.951209306716919,0.42668038606643677,0.6822690367698669,-0.5247195959091187
10.97258996963501,-0.3389410376548767,-1.3700693845748901,0.951209306716919,0.42668038606643677,0.6826505064964294,-0.5247195959091187
10.992679834365845,-0.3389410376548767,-1.3704508543014526,0.951209306716919,0.42668038606643677,0.6822690367698669,-0.5247195959091187
11.012743949890137,-0.3389410376548767,-1.3700693845748901,0.951209306716919,0.42668038606643677,0.6822690367698669,-0.5247195959091187
11.03280520439148,-0.3389410376548767,-1.3700693845748901,0.951209306716919,0.42668038606643677,0.6822690367698669,-0.5247195959091187
11.053160429000854,-0.3389410376548767,-1.3700693845748901,0.951209306716919,0.42668038606643677,0.6822690367698669,-0.5247195959091187
11.07324743270874,-0.3389410376548767,-1.3700693845748901,0.951209306716919,0.42668038606643677,0.6822690367698669,-0.5247195959091187
11.093320846557617,-0.3389410376548767,-1.3700693845748901,0.951209306716919,0.42668038606643677,0.6822690367698669,-0.5247195959091187
11.113388538360596,-0.3389410376548767,-1.3700693845748901,0.951209306716919,0.42668038606643677,0.6822690367698669,-0.5247195959091187
11.133491516113281,-0.3389410376548767,-1.3700693845748901,0.951209306716919,0.42668038606643677,0.6822690367698669,-0.5247195959091187
11.153565883636475,-0.3389410376548767,-1.3700693845748901,0.951209306716919,0.42668038606643677,0.6822690367698669,-0.5247195959091187
11.173839569091797,-0.3385595381259918,-1.3700693845748901,0.951209306716919,0.42668038606643677,0.6822690367698669,-0.5247195959091187
11.193930387496948,-0.3385595381259918,-1.3700693845748901,0.951209306716919,0.42668038606643677,0.6822690367698669,-0.5247195959091187
11.21400785446167,-0.3385595381259918,-1.3700693845748901,0.951209306716919,0.42668038606643677,0.6822690367698669,-0.5247195959091187
11.234067440032959,-0.3381780683994293,-1.3696879148483276,0.951209306716919,0.42668038606643677,0.6822690367698669,-0.5247195959091187
11.254151344299316,-0.3381780683994293,-1.3693064451217651,0.951209306716919,0.42668038606643677,0.6822690367698669,-0.5247195959091187
11.274231910705566,-0.3381780683994293,-1.3693064451217651,0.951209306716919,0.42668038606643677,0.6830319762229919,-0.5247195959091187
11.294299602508545,-0.3381780683994293,-1.3693064451217651,0.951209306716919,0.42668038606643677,0.6830319762229919,-0.5247195959091187
11.314383506774902,-0.3381780683994293,-1.3693064451217651,0.951209306716919,0.42668038606643677,0.6830319762229919,-0.5247195959091187
11.334452152252197,-0.3381780683994293,-1.3696879148483276,0.951209306716919,0.42668038606643677,0.6826505064964294,-0.5247195959091187
11.354515075683594,-0.3381780683994293,-1.3696879148483276,0.951209306716919,0.42668038606643677,0.6822690367698669,-0.5247195959091187
11.374685287475586,-0.3381780683994293,-1.3696879148483276,0.951209306716919,0.42668038606643677,0.6822690367698669,-0.5247195959091187
11.394777297973633,-0.3381780683994293,-1.3700693845748901,0.951209306716919,0.42668038606643677,0.6830319762229919,-0.5247195959091187
11.4148530960083,-0.3381780683994293,-1.3700693845748901,0.951209306716919,0.42668038606643677,0.6826505064964294,-0.5247195959091187
11.435019969940186,-0.3381780683994293,-1.3704508543014526,0.9508277773857117,0.42591744661331177,0.6822690367698669,-0.5247195959091187
11.455107688903809,-0.3381780683994293,-1.3704508543014526,0.9504463076591492,0.42591744661331177,0.6822690367698669,-0.5247195959091187
11.475171327590942,-0.3381780683994293,-1.3704508543014526,0.9500648379325867,0.42629891633987427,0.6822690367698669,-0.5247195959091187
11.495400667190552,-0.3381780683994293,-1.3700693845748901,0.9500648379325867,0.42591744661331177,0.6822690367698669,-0.5247195959091187
11.515527486801147,-0.3381780683994293,-1.3704508543014526,0.9500648379325867,0.42629891633987427,0.6822690367698669,-0.5247195959091187
11.53557538986206,-0.3381780683994293,-1.3704508543014526,0.9500648379325867,0.42591744661331177,0.6822690367698669,-0.5247195959091187
11.555628538131714,-0.3381780683994293,-1.3704508543014526,0.9500648379325867,0.42591744661331177,0.6822690367698669,-0.5247195959091187
11.575722455978394,-0.3381780683994293,-1.3700693845748901,0.9504463076591492,0.42629891633987427,0.6822690367698669,-0.5247195959091187
11.595812797546387,-0.3381780683994293,-1.3700693845748901,0.9504463076591492,0.42591744661331177,0.6822690367698669,-0.5247195959091187
11.615849733352661,-0.3381780683994293,-1.3704508543014526,0.9504463076591492,0.42629891633987427,0.6822690367698669,-0.5247195959091187
11.635944604873657,-0.3381780683994293,-1.3700693845748901,0.9504463076591492,0.42591744661331177,0.6822690367698669,-0.5247195959091187
11.656023740768433,-0.3381780683994293,-1.3700693845748901,0.9504463076591492,0.42591744661331177,0.6822690367698669,-0.5247195959091187
11.676077842712402,-0.3381780683994293,-1.3700693845748901,0.9508277773857117,0.42591744661331177,0.6822690367698669,-0.5247195959091187
11.69616961479187,-0.3381780683994293,-1.3700693845748901,0.951209306716919,0.42591744661331177,0.6818875670433044,-0.5247195959091187
11.716243505477905,-0.3381780683994293,-1.3700693845748901,0.951209306716919,0.42629891633987427,0.6822690367698669,-0.5247195959091187
11.736324548721313,-0.3381780683994293,-1.3693064451217651,0.951209306716919,0.42591744661331177,0.6822690367698669,-0.5247195959091187
11.756397724151611,-0.3381780683994293,-1.3693064451217651,0.951209306716919,0.42591744661331177,0.6822690367698669,-0.5247195959091187
11.776513814926147,-0.3381780683994293,-1.3693064451217651,0.951209306716919,0.42629891633987427,0.6822690367698669,-0.5247195959091187
11.796551704406738,-0.3381780683994293,-1.3693064451217651,0.9508277773857117,0.42591744661331177,0.6818875670433044,-0.5247195959091187
11.81663465499878,-0.3381780683994293,-1.3693064451217651,0.9508277773857117,0.42591744661331177,0.6818875670433044,-0.5247195959091187
11.8367178440094,-0.3381780683994293,-1.3693064451217651,0.951209306716919,0.42629891633987427,0.6818875670433044,-0.5247195959091187
11.856773376464844,-0.3381780683994293,-1.3693064451217651,0.951209306716919,0.42629891633987427,0.6818875670433044,-0.5247195959091187
11.876859903335571,-0.3381780683994293,-1.3693064451217651,0.9508277773857117,0.42629891633987427,0.6818875670433044,-0.5247195959091187
11.896949768066406,-0.3381780683994293,-1.3693064451217651,0.951209306716919,0.42629891633987427,0.6818875670433044,-0.5247195959091187
11.91704797744751,-0.3381780683994293,-1.3693064451217651,0.951209306716919,0.42629891633987427,0.6818875670433044,-0.5247195959091187
11.93713927268982,-0.3381780683994293,-1.3693064451217651,0.9508277773857117,0.42629891633987427,0.6818875670433044,-0.5247195959091187
11.95719838142395,-0.3381780683994293,-1.3693064451217651,0.9508277773857117,0.42629891633987427,0.6818875670433044,-0.5247195959091187
11.977338075637817,-0.3381780683994293,-1.3693064451217651,0.9508277773857117,0.42629891633987427,0.6818875670433044,-0.5247195959091187
11.99741792678833,-0.3381780683994293,-1.3693064451217651,0.9508277773857117,0.42629891633987427,0.6818875670433044,-0.5247195959091187
12.01750135421753,-0.3381780683994293,-1.3693064451217651,0.9508277773857117,0.42629891633987427,0.6822690367698669,-0.5247195959091187
12.037570476531982,-0.3381780683994293,-1.3693064451217651,0.9508277773857117,0.42629891633987427,0.6818875670433044,-0.5247195959091187
12.05765175819397,-0.3381780683994293,-1.3693064451217651,0.951209306716919,0.42629891633987427,0.6818875670433044,-0.5247195959091187
12.077712059020996,-0.3381780683994293,-1.3693064451217651,0.951209306716919,0.42591744661331177,0.6818875670433044,-0.5247195959091187
12.097776412963867,-0.3393225073814392,-1.3696879148483276,0.9500648379325867,0.42668038606643677,0.6818875670433044,-0.5247195959091187
12.117964506149292,-0.3389410376548767,-1.3696879148483276,0.9477760195732117,0.42782482504844666,0.6830319762229919,-0.5243381261825562
12.137959003448486,-0.3393225073814392,-1.3693064451217651,0.9454871416091919,0.42973220348358154,0.6826505064964294,-0.5235751867294312
12.15803050994873,-0.3393225073814392,-1.3696879148483276,0.9416723847389221,0.43163958191871643,0.6811245679855347,-0.5228122472763062
12.178115606307983,-0.3393225073814392,-1.3696879148483276,0.9378576278686523,0.4327840209007263,0.6795986890792847,-0.5216678380966187
12.198185205459595,-0.3393225073814392,-1.3696879148483276,0.9332799315452576,0.4343098998069763,0.6795986890792847,-0.5197604298591614
12.21829628944397,-0.3389410376548767,-1.3700693845748901,0.9290837049484253,0.4362172782421112,0.6792172193527222,-0.5182345509529114
12.238413333892822,-0.3389410376548767,-1.3700693845748901,0.9233615398406982,0.438506156206131,0.6784542798995972,-0.5151827335357666
12.258493900299072,-0.3389410376548767,-1.3693064451217651,0.916876494884491,0.44308385252952576,0.6795986890792847,-0.5117494463920593
12.278551578521729,-0.3389410376548767,-1.3689249753952026,0.9088655114173889,0.44651713967323303,0.6795986890792847,-0.5079346895217896
12.298620223999023,-0.3389410376548767,-1.3685435056686401,0.9000915288925171,0.44766154885292053,0.6784542798995972,-0.5041199326515198
12.318739175796509,-0.3389410376548767,-1.3677805662155151,0.890554666519165,0.4507133662700653,0.6754024624824524,-0.5006866455078125
12.3388671875,-0.3389410376548767,-1.3670176267623901,0.8821622133255005,0.4518577754497528,0.6731135845184326,-0.4968718886375427
12.358994960784912,-0.3389410376548767,-1.3670176267623901,0.8741512298583984,0.4533836841583252,0.6704432964324951,-0.49343863129615784
12.379157543182373,-0.3389410376548767,-1.3666361570358276,0.8657587766647339,0.4541466534137726,0.6677729487419128,-0.4892423748970032
12.399203538894653,-0.3385595381259918,-1.3658732175827026,0.8596551418304443,0.45796138048171997,0.6651026010513306,-0.4850461483001709
12.419264554977417,-0.3385595381259918,-1.3651102781295776,0.8535515666007996,0.46025025844573975,0.6631952524185181,-0.4808499217033386
12.439348936080933,-0.3381780683994293,-1.3639658689498901,0.8470664620399475,0.464446485042572,0.6620507836341858,-0.47817960381507874
12.45942759513855,-0.3370336592197418,-1.362821340560913,0.840962827205658,0.4694056510925293,0.6609063744544983,-0.47436484694480896
12.479468822479248,-0.33588922023773193,-1.362058401107788,0.8356221914291382,0.4736018776893616,0.6612878441810608,-0.4709315598011017
12.499562978744507,-0.33474478125572205,-1.3609139919281006,0.8287556171417236,0.47589075565338135,0.6601434350013733,-0.4648279547691345
12.519655466079712,-0.33436331152915955,-1.359769582748413,0.8226520419120789,0.47894254326820374,0.6586175560951233,-0.46253910660743713
12.53974199295044,-0.33398184180259705,-1.359006643295288,0.8176928162574768,0.4804684519767761,0.656710147857666,-0.45834288001060486
12.559792041778564,-0.33360037207603455,-1.358243703842163,0.8119707107543945,0.4842832088470459,0.655947208404541,-0.4549095928668976
12.57988429069519,-0.33321890234947205,-1.356717824935913,0.80510413646698,0.4877164959907532,0.6548027992248535,-0.4507133662700653
12.599973201751709,-0.33283740282058716,-1.355954885482788,0.8001449704170227,0.49305713176727295,0.6536583304405212,-0.44651713967323303
12.620036363601685,-0.33245593309402466,-1.354810357093811,0.7963302135467529,0.4983977973461151,0.6525139212608337,-0.44079500436782837
12.64016056060791,-0.33169299364089966,-1.3536659479141235,0.7909895181655884,0.5037384629249573,0.6509880423545837,-0.4354543387889862
12.660227298736572,-0.33131152391433716,-1.352521538734436,0.7867932915687561,0.5079346895217896,0.6506065726280212,-0.43049514293670654
12.680262088775635,-0.32940414547920227,-1.351758599281311,0.7837415337562561,0.5121309161186218,0.648699164390564,-0.42706188559532166
12.700350284576416,-0.3274967670440674,-1.350995659828186,0.7806897163391113,0.5163271427154541,0.6464102864265442,-0.422102689743042
12.72042989730835,-0.32520791888237,-1.3498512506484985,0.777256429195404,0.5216678380966187,0.6464102864265442,-0.41561761498451233
12.740488290786743,-0.3221561014652252,-1.348706841468811,0.7742046117782593,0.5281528830528259,0.6467918157577515,-0.40951400995254517
12.76060152053833,-0.31986725330352783,-1.3471808433532715,0.7715343236923218,0.5331120491027832,0.6464102864265442,-0.4026474356651306
12.780714988708496,-0.31834134459495544,-1.346036434173584,0.7688639760017395,0.5373083353042603,0.6456473469734192,-0.39654383063316345
12.800749778747559,-0.31757840514183044,-1.3456549644470215,0.7669565677642822,0.543411910533905,0.6452658772468567,-0.3919661343097687
12.820861577987671,-0.31681543588638306,-1.3441290855407715,0.7650492191314697,0.5498970150947571,0.6445029377937317,-0.3854810297489166
12.840926170349121,-0.31528952717781067,-1.342221736907959,0.7623788714408875,0.5567635893821716,0.6433585286140442,-0.37861448526382446
12.861019372940063,-0.31452658772468567,-1.3410773277282715,0.7600900530815125,0.5663004517555237,0.6414511203765869,-0.3717479109764099
12.881092309951782,-0.3130006790161133,-1.338788390159607,0.7574197053909302,0.5766003131866455,0.6380178332328796,-0.36488136649131775
12.901188611984253,-0.3122377395629883,-1.3353551626205444,0.7528420090675354,0.5842298269271851,0.6361104846000671,-0.3568703830242157
12.921257495880127,-0.3110933005809784,-1.332684874534607,0.7494087219238281,0.5914778113365173,0.6353475451469421,-0.34809643030166626
12.941545963287354,-0.308804452419281,-1.3307774066925049,0.7455939650535583,0.6006332635879517,0.6349660754203796,-0.3408484160900116
12.961645603179932,-0.3072785437107086,-1.3281071186065674,0.7421606779098511,0.6090257167816162,0.6349660754203796,-0.33245593309402466
12.981708288192749,-0.30498969554901123,-1.3261997699737549,0.7394903302192688,0.6170367002487183,0.6319142580032349,-0.3233005404472351
13.00175929069519,-0.30422675609588623,-1.3239108324050903,0.7372015118598938,0.6269550919532776,0.6319142580032349,-0.31567102670669556
13.02184772491455,-0.30270084738731384,-1.3208590745925903,0.7337682247161865,0.6353475451469421,0.6303883194923401,-0.3057526648044586
13.041921377182007,-0.30231937766075134,-1.3181887865066528,0.7310978770256042,0.6433585286140442,0.6292439103126526,-0.2954528033733368
13.062002897262573,-0.30270084738731384,-1.3170443773269653,0.728427529335022,0.6521324515342712,0.6292439103126526,-0.28629741072654724
13.082095623016357,-0.30193790793418884,-1.3151369094848633,0.7249943017959595,0.6616693139076233,0.6280995011329651,-0.2756160795688629
13.102169036865234,-0.30041199922561646,-1.3124666213989258,0.7215610146522522,0.6708247661590576,0.6250476837158203,-0.2637903392314911
13.122255802154541,-0.30003052949905396,-1.3097963333129883,0.7188906669616699,0.6807430982589722,0.6212329268455505,-0.25120165944099426
13.142330169677734,-0.29850462079048157,-1.3071259260177612,0.7158388495445251,0.689517080783844,0.619325578212738,-0.23823148012161255
13.162399530410767,-0.2973601818084717,-1.3040741682052612,0.7127870321273804,0.6994354128837585,0.6197070479393005,-0.22755016386508942
13.182465553283691,-0.2962157726287842,-1.3021668195724487,0.7108796834945679,0.7089722752571106,0.620088517665863,-0.2145799994468689
13.2026948928833,-0.2954528033733368,-1.2994964122772217,0.7082093358039856,0.7185091972351074,0.6197070479393005,-0.20275425910949707
13.222804546356201,-0.2946898639202118,-1.2979705333709717,0.7051575779914856,0.727664589881897,0.619325578212738,-0.19245441257953644
13.242860078811646,-0.2927824854850769,-1.2945373058319092,0.7017242908477783,0.7383459210395813,0.6166552305221558,-0.1810101419687271
13.26299238204956,-0.2920195460319519,-1.2907224893569946,0.6994354128837585,0.7440680265426636,0.6074998378753662,-0.1684214472770691
13.283082962036133,-0.2920195460319519,-1.2899595499038696,0.6952391862869263,0.7520790696144104,0.6048294901847839,-0.16117341816425323
13.303170919418335,-0.290875107049942,-1.2861448526382446,0.6929503083229065,0.7623788714408875,0.6105515956878662,-0.1527809500694275
13.323321104049683,-0.28973066806793213,-1.27927827835083,0.691042959690094,0.7673380374908447,0.5971999764442444,-0.13981078565120697
13.343443632125854,-0.290112167596817,-1.2788968086242676,0.6872282028198242,0.768482506275177,0.5956740379333496,-0.1367589831352234
13.363503456115723,-0.28782328963279724,-1.27927827835083,0.6841763854026794,0.7829785346984863,0.6036850810050964,-0.13141833245754242
13.38361144065857,-0.28744181990623474,-1.274319052696228,0.6841763854026794,0.7902265787124634,0.5964370369911194,-0.12073700875043869
13.403706789016724,-0.28782328963279724,-1.272030234336853,0.6826505064964294,0.7871748208999634,0.5819409489631653,-0.11615930497646332
13.423789501190186,-0.28744181990623474,-1.2701228857040405,0.6788357496261597,0.7928969264030457,0.5869001150131226,-0.11272602528333664
13.443886995315552,-0.28591591119766235,-1.265545129776001,0.6754024624824524,0.8031967878341675,0.5846112966537476,-0.10585946589708328
13.463964462280273,-0.28629741072654724,-1.263256311416626,0.6738765835762024,0.8024337887763977,0.5746929049491882,-0.09899290651082993
13.484038352966309,-0.28591591119766235,-1.264782190322876,0.6692988276481628,0.8081559538841248,0.5838482975959778,-0.09899290651082993
13.504127025604248,-0.28477150201797485,-1.262493371963501,0.6670100092887878,0.8165484070777893,0.5815594792366028,-0.09479667246341705
13.524204969406128,-0.28400853276252747,-1.261730432510376,0.6658655405044556,0.813878059387207,0.5609598159790039,-0.0879301130771637
13.544281482696533,-0.28400853276252747,-1.2586785554885864,0.6635767221450806,0.8150225281715393,0.5651560425758362,-0.0879301130771637
13.564361810684204,-0.28362706303596497,-1.2594414949417114,0.6628137826919556,0.8211261034011841,0.5651560425758362,-0.08487831056118011
13.584800958633423,-0.28286412358283997,-1.2586785554885864,0.6589990258216858,0.8241779208183289,0.5670633912086487,-0.08144503086805344
13.604897499084473,-0.28324559330940247,-1.260585904121399,0.6589990258216858,0.8260852694511414,0.5556191205978394,-0.07801175117492676
13.624992609024048,-0.2821011543273926,-1.2594414949417114,0.6548027992248535,0.8310444951057434,0.5628671646118164,-0.07801175117492676
13.645054817199707,-0.2790493667125702,-1.2518119812011719,0.650225043296814,0.8367666006088257,0.5518043637275696,-0.07305257022380829
13.665143251419067,-0.28477150201797485,-1.2521934509277344,0.6506065726280212,0.8325703740119934,0.5502784848213196,-0.07038223743438721
13.6852126121521,-0.28324559330940247,-1.254482388496399,0.6475547552108765,0.837911069393158,0.5647745728492737,-0.0707637146115303
13.705266237258911,-0.2817196846008301,-1.256008267402649,0.6490806341171265,0.8424887657165527,0.5716410875320435,-0.06809338182210922
13.725410223007202,-0.2798123061656952,-1.2499046325683594,0.648699164390564,0.840962827205658,0.569733738899231,-0.06580453366041183
13.745442390441895,-0.2794308364391327,-1.2506675720214844,0.647173285484314,0.8421072959899902,0.5594338774681091,-0.06618601083755493
13.765480756759644,-0.2794308364391327,-1.2479972839355469,0.6448844075202942,0.8432517051696777,0.5659189820289612,-0.06504157930612564
13.785566091537476,-0.2782863974571228,-1.2476158142089844,0.6429770588874817,0.846684992313385,0.5571450591087341,-0.06198977679014206
13.805657148361206,-0.2801937758922577,-1.2479972839355469,0.6406881809234619,0.8485923409461975,0.5682078003883362,-0.06313420087099075
13.825705766677856,-0.2782863974571228,-1.2499046325683594,0.6414511203765869,0.8531700372695923,0.5670633912086487,-0.061226826161146164
13.84587836265564,-0.2782863974571228,-1.2491416931152344,0.6410696506500244,0.8524070978164673,0.5571450591087341,-0.05970092490315437
13.865980386734009,-0.2782863974571228,-1.2487602233886719,0.6380178332328796,0.8566033244132996,0.5579079985618591,-0.059319447726011276
13.885989427566528,-0.2786678969860077,-1.2483787536621094,0.6376363635063171,0.8558403849601746,0.5556191205978394,-0.058175019919872284
13.906079769134521,-0.2782863974571228,-1.2495231628417969,0.6368734240531921,0.8573662638664246,0.5556191205978394,-0.058175019919872284
13.926326990127563,-0.2782863974571228,-1.2502861022949219,0.6357290148735046,0.8600366115570068,0.5571450591087341,-0.057793546468019485
13.946383237838745,-0.2763790488243103,-1.2502861022949219,0.6357290148735046,0.8604180812835693,0.5518043637275696,-0.058175019919872284
13.966461181640625,-0.2763790488243103,-1.2502861022949219,0.6353475451469421,0.8611810207366943,0.5498970150947571,-0.05741206929087639
13.986536026000977,-0.2763790488243103,-1.2510490417480469,0.6342030763626099,0.8634698987007141,0.5506599545478821,-0.05664911866188049
14.006591558456421,-0.2763790488243103,-1.2514305114746094,0.6334401369094849,0.8638513684272766,0.5521858334541321,-0.05664911866188049
14.026668071746826,-0.2763790488243103,-1.2525749206542969,0.6334401369094849,0.8646143078804016,0.5518043637275696,-0.05664911866188049
14.046735286712646,-0.2763790488243103,-1.2537193298339844,0.6334401369094849,0.8649957776069641,0.5518043637275696,-0.05664911866188049
14.066794157028198,-0.2756160795688629,-1.2533378601074219,0.6334401369094849,0.8661402463912964,0.5483710765838623,-0.056267641484737396
14.086888074874878,-0.2756160795688629,-1.2537193298339844,0.6330586671829224,0.8672846555709839,0.5487525463104248,-0.0558861680328846
14.106953620910645,-0.2756160795688629,-1.254482388496399,0.6334401369094849,0.8688105344772339,0.5498970150947571,-0.0558861680328846
14.12700891494751,-0.2752346098423004,-1.254482388496399,0.6334401369094849,0.8707179427146912,0.5502784848213196,-0.0555046908557415
14.147185325622559,-0.2744716703891754,-1.2556267976760864,0.6334401369094849,0.8710994124412537,0.5498970150947571,-0.0555046908557415
14.167215824127197,-0.2740901708602905,-1.2556267976760864,0.6338216066360474,0.8714808821678162,0.5483710765838623,-0.0551232174038887
14.187294960021973,-0.2740901708602905,-1.256008267402649,0.6338216066360474,0.8714808821678162,0.5472266674041748,-0.0551232174038887
14.207524061203003,-0.2740901708602905,-1.256771206855774,0.6338216066360474,0.8718623518943787,0.5476081371307373,-0.0551232174038887
14.227599859237671,-0.2740901708602905,-1.257534146308899,0.6342030763626099,0.8730067610740662,0.5479896068572998,-0.054741740226745605
14.247674465179443,-0.273708701133728,-1.257534146308899,0.6345845460891724,0.8737697601318359,0.5483710765838623,-0.054741740226745605
14.267830610275269,-0.273708701133728,-1.2579156160354614,0.6345845460891724,0.8741512298583984,0.5457007884979248,-0.054741740226745605
14.288037538528442,-0.273708701133728,-1.258297085762024,0.6345845460891724,0.8741512298583984,0.5437933802604675,-0.05397878959774971
14.30800986289978,-0.273708701133728,-1.258297085762024,0.6345845460891724,0.8741512298583984,0.54264897108078,-0.05359731614589691
14.328127384185791,-0.2733272314071655,-1.2586785554885864,0.6345845460891724,0.8741512298583984,0.54264897108078,-0.05359731614589691
14.348215818405151,-0.2733272314071655,-1.2586785554885864,0.6345845460891724,0.8741512298583984,0.5430304408073425,-0.05359731614589691
14.368266344070435,-0.273708701133728,-1.259060025215149,0.6349660754203796,0.8745326995849609,0.5430304408073425,-0.05359731614589691
14.388350248336792,-0.273708701133728,-1.2594414949417114,0.6353475451469421,0.8745326995849609,0.5430304408073425,-0.05359731614589691
14.408431768417358,-0.273708701133728,-1.260585904121399,0.6353475451469421,0.8745326995849609,0.5422675013542175,-0.05359731614589691
14.428483486175537,-0.273708701133728,-1.260585904121399,0.6353475451469421,0.8745326995849609,0.5422675013542175,-0.053215838968753815
14.448708295822144,-0.273708701133728,-1.261730432510376,0.6353475451469421,0.8745326995849609,0.541886031627655,-0.053215838968753815
14.468696594238281,-0.2733272314071655,-1.261730432510376,0.6357290148735046,0.8745326995849609,0.541886031627655,-0.053215838968753815
14.48872995376587,-0.2733272314071655,-1.2621119022369385,0.6357290148735046,0.8745326995849609,0.5403600931167603,-0.053215838968753815
14.50881290435791,-0.2733272314071655,-1.262493371963501,0.6357290148735046,0.8745326995849609,0.5403600931167603,-0.053215838968753815
14.528888463973999,-0.273708701133728,-1.262493371963501,0.6357290148735046,0.8745326995849609,0.5399786233901978,-0.053215838968753815
14.548944234848022,-0.2733272314071655,-1.262493371963501,0.6364919543266296,0.8749141693115234,0.5399786233901978,-0.053215838968753815
14.569033861160278,-0.2733272314071655,-1.2628748416900635,0.6364919543266296,0.8752956390380859,0.5403600931167603,-0.053215838968753815
14.589107990264893,-0.2733272314071655,-1.2636377811431885,0.6368734240531921,0.8752956390380859,0.541886031627655,-0.053215838968753815
14.6091947555542,-0.2733272314071655,-1.2644007205963135,0.6372548937797546,0.8752956390380859,0.541886031627655,-0.053215838968753815
14.629499673843384,-0.2733272314071655,-1.264782190322876,0.6376363635063171,0.8752956390380859,0.5415045619010925,-0.053215838968753815
