liuyurong129/humanoid-gym/humanoid/data/actual_q_20250523-025946.csv
timestamp,joint_1,joint_2,joint_3,joint_4,joint_5,joint_6
5.3882598876953125e-05,-0.0009536888683214784,0.16155488789081573,-0.08258945494890213,0.00019073777366429567,0.0009536888683214784,-0.00019073777366429567
0.020117759704589844,-0.0013351644156500697,0.13904783129692078,-0.07267109304666519,0.00019073777366429567,0.00019073777366429567,-0.00019073777366429567
0.04018545150756836,-0.0009536888683214784,0.1184481605887413,-0.06313420087099075,-0.00019073777366429567,0.0013351644156500697,-0.00019073777366429567
0.060245513916015625,-0.000572213320992887,0.10624094307422638,-0.05855649709701538,0.00019073777366429567,-0.00019073777366429567,-0.00019073777366429567
0.08029723167419434,-0.0013351644156500697,0.09784847497940063,-0.05283436179161072,-0.00019073777366429567,0.00019073777366429567,-0.00019073777366429567
0.10038948059082031,-0.0013351644156500697,0.0864042118191719,-0.0398641936480999,0.00019073777366429567,0.000572213320992887,-0.00019073777366429567
0.12046241760253906,-0.0009536888683214784,0.0715266615152359,-0.02231631986796856,0.00019073777366429567,0.000572213320992887,0.0013351644156500697
0.14052653312683105,-0.0013351644156500697,0.05054550990462303,0.0032425422687083483,0.000572213320992887,0.0013351644156500697,0.005149920005351305
0.16063690185546875,-0.0013351644156500697,0.024223696440458298,0.03337911143898964,0.001716639962978661,0.0032425422687083483,0.010872052982449532
0.1807699203491211,-0.0013351644156500697,-0.005912871100008488,0.06351567804813385,0.004005493130534887,0.00476844422519207,0.01888304017484188
0.20077252388000488,-0.0013351644156500697,-0.03757534176111221,0.09136339277029037,0.00667582219466567,0.008964675478637218,0.027656977996230125
0.22087883949279785,-0.001716639962978661,-0.0711451917886734,0.1199740618467331,0.008964675478637218,0.011635004542768002,0.03681239113211632
0.24095821380615234,-0.0032425422687083483,-0.10433356463909149,0.14858472347259521,0.012397955171763897,0.01430533267557621,0.046730753034353256
0.2610323429107666,-0.0036240178160369396,-0.12912946939468384,0.16880293190479279,0.016594186425209045,0.01888304017484188,0.0558861680328846
0.2810847759246826,-0.0032425422687083483,-0.1527809500694275,0.18825818598270416,0.02040894143283367,0.02079041674733162,0.06618601083755493
0.30118656158447266,-0.0032425422687083483,-0.17071031033992767,0.20199130475521088,0.026131074875593185,0.023460745811462402,0.07724879682064056
0.3212714195251465,-0.0032425422687083483,-0.182154580950737,0.21763180196285248,0.03147173300385475,0.02689402550458908,0.0875486359000206
0.3414478302001953,-0.0032425422687083483,-0.19130998849868774,0.2298390120267868,0.03795681521296501,0.027656977996230125,0.09822995215654373
0.36153554916381836,-0.0032425422687083483,-0.1997024416923523,0.23785001039505005,0.043678950518369675,0.02994582988321781,0.10776684433221817
0.3816263675689697,-0.0032425422687083483,-0.20733195543289185,0.24967575073242188,0.04940108209848404,0.03185320645570755,0.11730372905731201
0.40169334411621094,-0.0032425422687083483,-0.21686884760856628,0.2576867341995239,0.0551232174038887,0.03299763426184654,0.12607766687870026
0.42175960540771484,-0.0032425422687083483,-0.22411687672138214,0.2653162479400635,0.061226826161146164,0.035667963325977325,0.1340886503458023
0.44199657440185547,-0.0032425422687083483,-0.230601966381073,0.2733272314071655,0.06580453366041183,0.03833829239010811,0.14171816408634186
0.4620838165283203,-0.0032425422687083483,-0.23708705604076385,0.2782863974571228,0.0715266615152359,0.03833829239010811,0.1489662081003189
0.4821784496307373,-0.0032425422687083483,-0.24242770671844482,0.28706035017967224,0.07686731964349747,0.039101243019104004,0.15545128285884857
0.5021989345550537,-0.002861066721379757,-0.248531311750412,0.291638046503067,0.08220797777175903,0.0394827201962471,0.16193637251853943
0.522284746170044,-0.0024795911740511656,-0.25158312916755676,0.30003052949905396,0.0879301130771637,0.04177157208323479,0.1676585078239441
0.5424320697784424,-0.001716639962978661,-0.2569237947463989,0.30460822582244873,0.09250781685113907,0.04177157208323479,0.17376211285591125
0.5624501705169678,-0.0009536888683214784,-0.2622644305229187,0.3076600432395935,0.09861142933368683,0.04329747334122658,0.17910276353359222
0.5824987888336182,-0.00019073777366429567,-0.2641718089580536,0.31834134459495544,0.1035706102848053,0.04444190114736557,0.18520638346672058
0.6025936603546143,0.00019073777366429567,-0.273708701133728,0.31567102670669556,0.10738536715507507,0.045204851776361465,0.18940261006355286
0.6226565837860107,-0.00019073777366429567,-0.2801937758922577,0.3221561014652252,0.11310750246047974,0.046730753034353256,0.19283588230609894
0.6427254676818848,0.00019073777366429567,-0.28706035017967224,0.3263523280620575,0.11539635062217712,0.04787518084049225,0.1981765478849411
0.6629998683929443,0.0024795911740511656,-0.2904936373233795,0.33093002438545227,0.1199740618467331,0.048256658017635345,0.20237277448177338
0.6829988956451416,0.002861066721379757,-0.2954528033733368,0.33512628078460693,0.12111848592758179,0.04558632895350456,0.20618753135204315
0.7030799388885498,0.004005493130534887,-0.29888609051704407,0.3381780683994293,0.12531471252441406,0.04787518084049225,0.20923933386802673
0.7232029438018799,0.0036240178160369396,-0.29926756024360657,0.34924086928367615,0.12912946939468384,0.048638131469488144,0.21190966665744781
0.7432739734649658,0.004005493130534887,-0.30460822582244873,0.34657052159309387,0.1333257108926773,0.049782559275627136,0.2145799994468689
0.7633812427520752,0.004005493130534887,-0.30498969554901123,0.34657052159309387,0.13752193748950958,0.05283436179161072,0.21725031733512878
0.7835001945495605,0.0036240178160369396,-0.308804452419281,0.35076677799224854,0.13981078565120697,0.053215838968753815,0.22030213475227356
0.8035783767700195,0.004386968910694122,-0.3118562698364258,0.35152971744537354,0.14171816408634186,0.05283436179161072,0.22220951318740845
0.8237183094024658,0.004005493130534887,-0.31795987486839294,0.3572518527507782,0.14248111844062805,0.053215838968753815,0.22449836134910583
0.8437919616699219,0.004386968910694122,-0.32024872303009033,0.3583962619304657,0.14286258816719055,0.05245288833975792,0.22602425515651703
0.8639426231384277,0.004386968910694122,-0.31910428404808044,0.36373692750930786,0.14515145123004913,0.05359731614589691,0.2286945879459381
0.884066104888916,0.004386968910694122,-0.32101166248321533,0.36564430594444275,0.1493476778268814,0.05359731614589691,0.2317463904619217
0.9041709899902344,0.00476844422519207,-0.3213931620121002,0.3706035017967224,0.15354390442371368,0.05741206929087639,0.23365376889705658
0.9241867065429688,0.00476844422519207,-0.3221561014652252,0.3770885765552521,0.15774014592170715,0.057793546468019485,0.23746852576732635
0.944270133972168,0.005531395319849253,-0.3278782367706299,0.3706035017967224,0.15812161564826965,0.058175019919872284,0.23937590420246124
0.9643411636352539,0.005912871100008488,-0.33169299364089966,0.3721294105052948,0.15888457000255585,0.06275273114442825,0.23975738883018494
0.9844424724578857,0.005531395319849253,-0.33588922023773193,0.3740367889404297,0.15735866129398346,0.05893797054886818,0.24128328263759613
1.0045080184936523,0.008201723918318748,-0.3385595381259918,0.3740367889404297,0.15812161564826965,0.06008239835500717,0.24090181291103363
1.0245916843414307,0.0078202486038208,-0.3374151289463043,0.38357365131378174,0.15812161564826965,0.059319447726011276,0.24204623699188232
1.0446827411651611,0.008201723918318748,-0.3397039771080017,0.37899595499038696,0.16079194843769073,0.06084534898400307,0.24357213079929352
1.0648181438446045,0.0078202486038208,-0.3374151289463043,0.3866254687309265,0.1661325991153717,0.06504157930612564,0.2447165697813034
1.084834098815918,0.005912871100008488,-0.33665215969085693,0.3904402256011963,0.16918440163135529,0.06237125024199486,0.2500572204589844
1.105046033859253,0.006294346414506435,-0.3374151289463043,0.3919661343097687,0.17032882571220398,0.06504157930612564,0.24929426610469818
1.1251304149627686,0.005912871100008488,-0.3408484160900116,0.39463645219802856,0.17223620414733887,0.06733043491840363,0.2500572204589844
1.1451706886291504,0.006294346414506435,-0.3419928252696991,0.3934920132160187,0.17223620414733887,0.06427863240242004,0.2504386901855469
1.165353775024414,0.006294346414506435,-0.34504464268684387,0.39501792192459106,0.17223620414733887,0.06504157930612564,0.25120165944099426
1.1854681968688965,0.006294346414506435,-0.34580758213996887,0.39730677008628845,0.17223620414733887,0.06466010212898254,0.25158312916755676
1.2056212425231934,0.006294346414506435,-0.34542611241340637,0.3999771177768707,0.17261768877506256,0.06733043491840363,0.25196459889411926
1.2256155014038086,0.005912871100008488,-0.34542611241340637,0.4007400572299957,0.17605096101760864,0.06809338182210922,0.25272753834724426
1.2456796169281006,0.005912871100008488,-0.344663143157959,0.4022659659385681,0.17910276353359222,0.06847485899925232,0.25387197732925415
1.265817642211914,0.005912871100008488,-0.34542611241340637,0.4030289053916931,0.1825360506772995,0.06923781335353851,0.25539788603782654
1.2858846187591553,0.005912871100008488,-0.34618905186653137,0.4030289053916931,0.1840619444847107,0.06771191209554672,0.25577935576438904
1.3060359954833984,0.005912871100008488,-0.34847790002822876,0.4030289053916931,0.1836804747581482,0.06809338182210922,0.25577935576438904
1.3260605335235596,0.006294346414506435,-0.35114824771881104,0.4037918746471405,0.1832990050315857,0.06733043491840363,0.25577935576438904
1.3461332321166992,0.006294346414506435,-0.35191118717193604,0.4072251319885254,0.1832990050315857,0.06771191209554672,0.25577935576438904
1.3661820888519287,0.006294346414506435,-0.3526741564273834,0.4079881012439728,0.1840619444847107,0.06923781335353851,0.25654229521751404
1.386261224746704,0.006294346414506435,-0.35229265689849854,0.41027694940567017,0.18558785319328308,0.07038223743438721,0.25654229521751404
1.4063310623168945,0.006294346414506435,-0.35229265689849854,0.41027694940567017,0.18711376190185547,0.071908138692379,0.2573052644729614
1.4264500141143799,0.005912871100008488,-0.3526741564273834,0.41027694940567017,0.18863965570926666,0.071908138692379,0.2588311731815338
1.4464795589447021,0.006294346414506435,-0.3526741564273834,0.40951400995254517,0.18863965570926666,0.0715266615152359,0.2592126429080963
1.4665603637695312,0.006294346414506435,-0.3549630045890808,0.4083695709705353,0.18825818598270416,0.0715266615152359,0.2592126429080963
1.486670970916748,0.006294346414506435,-0.3568703830242157,0.41142138838768005,0.18787670135498047,0.0707637146115303,0.2592126429080963
1.5068347454071045,0.006294346414506435,-0.3583962619304657,0.41180285811424255,0.18787670135498047,0.0711451917886734,0.2588311731815338
1.5268495082855225,0.005912871100008488,-0.3576333224773407,0.41332876682281494,0.18825818598270416,0.0715266615152359,0.2592126429080963
1.5470075607299805,0.005912871100008488,-0.3576333224773407,0.41447317600250244,0.18940261006355286,0.071908138692379,0.2592126429080963
1.567011833190918,0.005912871100008488,-0.3572518527507782,0.41447317600250244,0.19130998849868774,0.07305257022380829,0.2592126429080963
1.5871071815490723,0.006294346414506435,-0.3561074137687683,0.41409170627593994,0.19169145822525024,0.07267109304666519,0.2592126429080963
1.6071562767028809,0.006294346414506435,-0.3557259440422058,0.41332876682281494,0.19130998849868774,0.071908138692379,0.2595941126346588
1.627244234085083,0.006294346414506435,-0.3580147922039032,0.41256579756736755,0.19130998849868774,0.0722896158695221,0.2592126429080963
1.6473846435546875,0.006294346414506435,-0.3591592311859131,0.41485464572906494,0.19130998849868774,0.0722896158695221,0.2595941126346588
1.667421817779541,0.006294346414506435,-0.3599221706390381,0.41523614525794983,0.19092851877212524,0.0722896158695221,0.2595941126346588
1.6875286102294922,0.006294346414506435,-0.3591592311859131,0.41561761498451233,0.19130998849868774,0.07267109304666519,0.2595941126346588
1.7075965404510498,0.005912871100008488,-0.3583962619304657,0.41676202416419983,0.19207294285297394,0.07305257022380829,0.2599755823612213
1.727661371231079,0.005912871100008488,-0.3583962619304657,0.41676202416419983,0.19245441257953644,0.07305257022380829,0.2599755823612213
1.7477295398712158,0.005912871100008488,-0.3583962619304657,0.41676202416419983,0.19245441257953644,0.07267109304666519,0.2599755823612213
1.7678494453430176,0.005912871100008488,-0.3587777614593506,0.41638055443763733,0.19245441257953644,0.07267109304666519,0.2603570520877838
1.7879619598388672,0.005912871100008488,-0.361066609621048,0.41638055443763733,0.19207294285297394,0.07267109304666519,0.2603570520877838
1.8080286979675293,0.005912871100008488,-0.361066609621048,0.41676202416419983,0.19207294285297394,0.07267109304666519,0.2603570520877838
1.828200340270996,0.006294346414506435,-0.361066609621048,0.41676202416419983,0.19207294285297394,0.07267109304666519,0.2607385218143463
1.8483366966247559,0.005912871100008488,-0.361066609621048,0.4179064631462097,0.19245441257953644,0.07343403995037079,0.2618829607963562
1.8684163093566895,0.005912871100008488,-0.361066609621048,0.4186694025993347,0.19359883666038513,0.07419699430465698,0.2622644305229187
1.888523817062378,0.006294346414506435,-0.3606851398944855,0.4186694025993347,0.19474326074123383,0.07419699430465698,0.2626459002494812
1.9086174964904785,0.005912871100008488,-0.3606851398944855,0.4186694025993347,0.19512474536895752,0.07419699430465698,0.2626459002494812
1.9286959171295166,0.006294346414506435,-0.361066609621048,0.4186694025993347,0.19512474536895752,0.07419699430465698,0.2626459002494812
1.9487583637237549,0.006294346414506435,-0.36297398805618286,0.4186694025993347,0.19512474536895752,0.07457847148180008,0.2626459002494812
1.9688217639923096,0.006294346414506435,-0.36297398805618286,0.4186694025993347,0.19512474536895752,0.07457847148180008,0.2626459002494812
1.9889216423034668,0.006294346414506435,-0.36297398805618286,0.4186694025993347,0.19512474536895752,0.07457847148180008,0.2626459002494812
2.0090155601501465,0.006294346414506435,-0.36297398805618286,0.4194323718547821,0.19550621509552002,0.07495994865894318,0.2626459002494812
2.0290894508361816,0.005912871100008488,-0.36297398805618286,0.4194323718547821,0.19550621509552002,0.07495994865894318,0.2626459002494812
2.049145460128784,0.006294346414506435,-0.36297398805618286,0.4194323718547821,0.1958876997232437,0.07457847148180008,0.2626459002494812
2.0696053504943848,0.006294346414506435,-0.36297398805618286,0.4198138415813446,0.1958876997232437,0.07457847148180008,0.2622644305229187
2.089690685272217,0.006294346414506435,-0.36335545778274536,0.4198138415813446,0.1958876997232437,0.07457847148180008,0.2626459002494812
2.1097776889801025,0.006294346414506435,-0.36411839723587036,0.4198138415813446,0.1958876997232437,0.07495994865894318,0.2622644305229187
2.1298298835754395,0.005912871100008488,-0.36411839723587036,0.4198138415813446,0.1958876997232437,0.07534141838550568,0.2626459002494812
2.149907350540161,0.006294346414506435,-0.36411839723587036,0.4198138415813446,0.1962691694498062,0.07495994865894318,0.2626459002494812
2.1699845790863037,0.006294346414506435,-0.36411839723587036,0.4201953113079071,0.1966506391763687,0.07495994865894318,0.2626459002494812
2.1900620460510254,0.005912871100008488,-0.36488136649131775,0.4201953113079071,0.1970321238040924,0.07534141838550568,0.2626459002494812
2.210125207901001,0.006294346414506435,-0.36526283621788025,0.4205767810344696,0.1974135935306549,0.07495994865894318,0.2626459002494812
2.2301979064941406,0.006294346414506435,-0.36717021465301514,0.4209582805633545,0.1977950781583786,0.07495994865894318,0.2626459002494812
2.2502617835998535,0.006294346414506435,-0.36793315410614014,0.4217212200164795,0.1977950781583786,0.07495994865894318,0.2622644305229187
2.2703208923339844,0.006294346414506435,-0.36907759308815,0.4224841594696045,0.1981765478849411,0.07534141838550568,0.2622644305229187
2.290494203567505,0.006294346414506435,-0.369840532541275,0.4228656589984894,0.1981765478849411,0.07534141838550568,0.2626459002494812
2.310556173324585,0.006294346414506435,-0.369840532541275,0.4228656589984894,0.1981765478849411,0.07495994865894318,0.2622644305229187
2.3308446407318115,0.006294346414506435,-0.369840532541275,0.4228656589984894,0.1981765478849411,0.07495994865894318,0.2622644305229187
2.350808620452881,0.006294346414506435,-0.369840532541275,0.4228656589984894,0.1981765478849411,0.07495994865894318,0.2622644305229187
2.370871067047119,0.006294346414506435,-0.369840532541275,0.4228656589984894,0.1981765478849411,0.07495994865894318,0.2622644305229187
2.3909389972686768,0.006294346414506435,-0.369840532541275,0.4228656589984894,0.1981765478849411,0.07495994865894318,0.2622644305229187
2.411156415939331,0.006294346414506435,-0.369840532541275,0.4228656589984894,0.1981765478849411,0.07495994865894318,0.2622644305229187
2.431244373321533,0.006294346414506435,-0.369840532541275,0.4228656589984894,0.1981765478849411,0.07495994865894318,0.2622644305229187
2.451421022415161,0.006294346414506435,-0.369840532541275,0.4228656589984894,0.1981765478849411,0.07495994865894318,0.2622644305229187
2.471435546875,0.006294346414506435,-0.369840532541275,0.4228656589984894,0.1981765478849411,0.07457847148180008,0.2622644305229187
2.4916093349456787,0.006294346414506435,-0.369840532541275,0.4228656589984894,0.1981765478849411,0.07495994865894318,0.2622644305229187
2.511725902557373,0.006294346414506435,-0.369840532541275,0.4232471287250519,0.1981765478849411,0.07457847148180008,0.2622644305229187
2.5317540168762207,0.006294346414506435,-0.369840532541275,0.4236285984516144,0.1981765478849411,0.07457847148180008,0.2622644305229187
2.5518391132354736,0.006294346414506435,-0.369840532541275,0.4236285984516144,0.1981765478849411,0.07495994865894318,0.2622644305229187
2.571929931640625,0.006294346414506435,-0.369840532541275,0.4240100681781769,0.1985580176115036,0.07495994865894318,0.2622644305229187
2.591998815536499,0.006294346414506435,-0.36907759308815,0.4240100681781769,0.1985580176115036,0.07495994865894318,0.2622644305229187
2.6120498180389404,0.006294346414506435,-0.36907759308815,0.4240100681781769,0.1985580176115036,0.07495994865894318,0.2622644305229187
2.6321375370025635,0.007057297509163618,-0.36907759308815,0.4240100681781769,0.1985580176115036,0.07495994865894318,0.2618829607963562
2.652211904525757,0.007438773289322853,-0.36907759308815,0.4240100681781769,0.1985580176115036,0.07419699430465698,0.2618829607963562
2.672300338745117,0.007438773289322853,-0.36907759308815,0.4240100681781769,0.1989395022392273,0.07419699430465698,0.2618829607963562
2.6923317909240723,0.007438773289322853,-0.36907759308815,0.4240100681781769,0.1989395022392273,0.07457847148180008,0.2618829607963562
2.7124204635620117,0.007438773289322853,-0.36907759308815,0.4240100681781769,0.1989395022392273,0.07457847148180008,0.2618829607963562
2.7325692176818848,0.007438773289322853,-0.36907759308815,0.4240100681781769,0.1989395022392273,0.07457847148180008,0.2618829607963562
2.75258469581604,0.007438773289322853,-0.36907759308815,0.4240100681781769,0.1989395022392273,0.07457847148180008,0.2618829607963562
2.772722005844116,0.007438773289322853,-0.36907759308815,0.4243915379047394,0.1989395022392273,0.07457847148180008,0.2618829607963562
2.7928810119628906,0.007438773289322853,-0.36907759308815,0.4243915379047394,0.1989395022392273,0.07457847148180008,0.2618829607963562
2.8129615783691406,0.007438773289322853,-0.36907759308815,0.4243915379047394,0.1993209719657898,0.07457847148180008,0.2618829607963562
2.8329665660858154,0.007438773289322853,-0.36907759308815,0.4243915379047394,0.1993209719657898,0.07457847148180008,0.2615014910697937
2.85305118560791,0.007438773289322853,-0.36907759308815,0.4247730076313019,0.1993209719657898,0.07457847148180008,0.2615014910697937
2.873196601867676,0.007438773289322853,-0.36907759308815,0.4243915379047394,0.1993209719657898,0.07457847148180008,0.2615014910697937
2.8932414054870605,0.0078202486038208,-0.36907759308815,0.4243915379047394,0.1993209719657898,0.07419699430465698,0.2615014910697937
2.9133002758026123,0.008201723918318748,-0.36907759308815,0.4243915379047394,0.1997024416923523,0.07419699430465698,0.2611200213432312
2.9334282875061035,0.008201723918318748,-0.36907759308815,0.4243915379047394,0.1997024416923523,0.07419699430465698,0.2611200213432312
2.953469753265381,0.008201723918318748,-0.36907759308815,0.4243915379047394,0.1997024416923523,0.07419699430465698,0.2611200213432312
2.97353196144104,0.008201723918318748,-0.36907759308815,0.4243915379047394,0.200083926320076,0.07419699430465698,0.2611200213432312
2.993626117706299,0.008201723918318748,-0.36907759308815,0.4243915379047394,0.200083926320076,0.07419699430465698,0.2611200213432312
3.0137126445770264,0.008201723918318748,-0.36907759308815,0.4243915379047394,0.200083926320076,0.07419699430465698,0.2611200213432312
3.03383207321167,0.008201723918318748,-0.36907759308815,0.4243915379047394,0.200083926320076,0.07419699430465698,0.2607385218143463
3.0538601875305176,0.008201723918318748,-0.36907759308815,0.4247730076313019,0.200083926320076,0.07419699430465698,0.2607385218143463
3.0740034580230713,0.008201723918318748,-0.36907759308815,0.4247730076313019,0.200083926320076,0.07419699430465698,0.2603570520877838
3.094045877456665,0.008201723918318748,-0.36907759308815,0.4247730076313019,0.2004653960466385,0.07419699430465698,0.2603570520877838
3.1141741275787354,0.008201723918318748,-0.36907759308815,0.4247730076313019,0.2004653960466385,0.07419699430465698,0.2599755823612213
3.134396553039551,0.008201723918318748,-0.36907759308815,0.4247730076313019,0.2004653960466385,0.07419699430465698,0.2595941126346588
3.1546154022216797,0.008201723918318748,-0.36907759308815,0.4247730076313019,0.20084688067436218,0.07381551712751389,0.2592126429080963
3.174607515335083,0.008201723918318748,-0.36907759308815,0.4247730076313019,0.20084688067436218,0.07381551712751389,0.2592126429080963
3.194681167602539,0.008201723918318748,-0.36907759308815,0.4247730076313019,0.20084688067436218,0.07381551712751389,0.2592126429080963
3.214871406555176,0.008201723918318748,-0.36907759308815,0.4247730076313019,0.20084688067436218,0.07381551712751389,0.2595941126346588
3.234915256500244,0.008201723918318748,-0.36907759308815,0.42515450716018677,0.20084688067436218,0.07381551712751389,0.2592126429080963
3.2549731731414795,0.008201723918318748,-0.36907759308815,0.42515450716018677,0.20084688067436218,0.07381551712751389,0.2595941126346588
3.275023937225342,0.008201723918318748,-0.36907759308815,0.42515450716018677,0.20084688067436218,0.07381551712751389,0.2592126429080963
3.2950940132141113,0.008201723918318748,-0.36907759308815,0.42515450716018677,0.20084688067436218,0.07381551712751389,0.2592126429080963
3.315206289291382,0.008201723918318748,-0.36907759308815,0.42515450716018677,0.20084688067436218,0.07381551712751389,0.2592126429080963
3.3352763652801514,0.008201723918318748,-0.36907759308815,0.42515450716018677,0.20122835040092468,0.07381551712751389,0.2592126429080963
3.3554649353027344,0.00858320016413927,-0.36907759308815,0.42515450716018677,0.20122835040092468,0.07381551712751389,0.2592126429080963
3.375614881515503,0.00858320016413927,-0.36907759308815,0.42553597688674927,0.20122835040092468,0.07381551712751389,0.2592126429080963
3.3957881927490234,0.00858320016413927,-0.36907759308815,0.42553597688674927,0.20122835040092468,0.07381551712751389,0.2592126429080963
3.415814161300659,0.008201723918318748,-0.36907759308815,0.42553597688674927,0.20122835040092468,0.07381551712751389,0.2592126429080963
3.4358468055725098,0.00858320016413927,-0.36907759308815,0.42553597688674927,0.20122835040092468,0.07381551712751389,0.2592126429080963
3.455977439880371,0.00858320016413927,-0.36907759308815,0.42553597688674927,0.20122835040092468,0.07381551712751389,0.2592126429080963
3.4760923385620117,0.00858320016413927,-0.36907759308815,0.42553597688674927,0.20122835040092468,0.07343403995037079,0.2592126429080963
3.4961085319519043,0.00858320016413927,-0.36907759308815,0.42553597688674927,0.20122835040092468,0.07343403995037079,0.2592126429080963
3.5162265300750732,0.00858320016413927,-0.36907759308815,0.42553597688674927,0.20160982012748718,0.07343403995037079,0.2592126429080963
3.5362601280212402,0.00858320016413927,-0.36907759308815,0.42553597688674927,0.20160982012748718,0.07343403995037079,0.2592126429080963
3.556361675262451,0.00858320016413927,-0.36907759308815,0.42553597688674927,0.20160982012748718,0.07343403995037079,0.2592126429080963
3.5765178203582764,0.00858320016413927,-0.36907759308815,0.42553597688674927,0.20160982012748718,0.07343403995037079,0.2588311731815338
3.596561908721924,0.00858320016413927,-0.3694590628147125,0.42553597688674927,0.20160982012748718,0.07343403995037079,0.2592126429080963
3.6166892051696777,0.009346150793135166,-0.3694590628147125,0.42553597688674927,0.20122835040092468,0.07305257022380829,0.2592126429080963
3.6369011402130127,0.009346150793135166,-0.3702220320701599,0.42591744661331177,0.20160982012748718,0.07305257022380829,0.2592126429080963
3.657076835632324,0.009346150793135166,-0.3713664412498474,0.42591744661331177,0.20160982012748718,0.07343403995037079,0.2592126429080963
3.6771302223205566,0.009346150793135166,-0.3709849715232849,0.42629891633987427,0.20160982012748718,0.07343403995037079,0.2588311731815338
3.697153091430664,0.009346150793135166,-0.3713664412498474,0.42591744661331177,0.20160982012748718,0.07343403995037079,0.2588311731815338
3.717268705368042,0.009346150793135166,-0.3713664412498474,0.42629891633987427,0.20160982012748718,0.07305257022380829,0.2588311731815338
3.7373175621032715,0.009346150793135166,-0.3713664412498474,0.42629891633987427,0.20160982012748718,0.07305257022380829,0.2588311731815338
3.757384777069092,0.009346150793135166,-0.3713664412498474,0.42629891633987427,0.20160982012748718,0.07305257022380829,0.2588311731815338
3.777479410171509,0.009346150793135166,-0.3713664412498474,0.42629891633987427,0.20160982012748718,0.07305257022380829,0.2588311731815338
3.7975564002990723,0.009346150793135166,-0.3709849715232849,0.42629891633987427,0.20160982012748718,0.07305257022380829,0.2588311731815338
3.817737340927124,0.009346150793135166,-0.3713664412498474,0.42629891633987427,0.20160982012748718,0.07305257022380829,0.2588311731815338
3.837744951248169,0.009346150793135166,-0.3713664412498474,0.42591744661331177,0.20160982012748718,0.07305257022380829,0.2588311731815338
3.8578310012817383,0.009346150793135166,-0.3709849715232849,0.42591744661331177,0.20160982012748718,0.07305257022380829,0.2588311731815338
3.8779349327087402,0.009346150793135166,-0.3709849715232849,0.42591744661331177,0.20122835040092468,0.07305257022380829,0.2588311731815338
3.8980038166046143,0.009346150793135166,-0.3709849715232849,0.42591744661331177,0.20160982012748718,0.07305257022380829,0.2588311731815338
3.918227195739746,0.009346150793135166,-0.3709849715232849,0.42629891633987427,0.20122835040092468,0.07305257022380829,0.2588311731815338
3.938324451446533,0.009346150793135166,-0.3709849715232849,0.42629891633987427,0.20122835040092468,0.07305257022380829,0.2588311731815338
3.958467721939087,0.009346150793135166,-0.3709849715232849,0.42629891633987427,0.20122835040092468,0.07305257022380829,0.2588311731815338
3.9784886837005615,0.009346150793135166,-0.3709849715232849,0.42629891633987427,0.20122835040092468,0.07305257022380829,0.2588311731815338
3.99857759475708,0.009346150793135166,-0.3709849715232849,0.42629891633987427,0.20122835040092468,0.07305257022380829,0.2588311731815338
4.018656492233276,0.009346150793135166,-0.3709849715232849,0.42668038606643677,0.20122835040092468,0.07305257022380829,0.2588311731815338
4.038768291473389,0.009346150793135166,-0.3709849715232849,0.42668038606643677,0.20122835040092468,0.07305257022380829,0.2588311731815338
4.05889368057251,0.009346150793135166,-0.3709849715232849,0.42668038606643677,0.20122835040092468,0.07305257022380829,0.2588311731815338
4.0789875984191895,0.009346150793135166,-0.3709849715232849,0.42668038606643677,0.20122835040092468,0.07305257022380829,0.2588311731815338
4.099171161651611,0.009346150793135166,-0.3709849715232849,0.42668038606643677,0.20122835040092468,0.07305257022380829,0.2588311731815338
4.119274854660034,0.009346150793135166,-0.3709849715232849,0.42668038606643677,0.20122835040092468,0.07305257022380829,0.2588311731815338
4.139303684234619,0.009346150793135166,-0.3709849715232849,0.42668038606643677,0.20122835040092468,0.07305257022380829,0.2588311731815338
4.159350633621216,0.009346150793135166,-0.3706035017967224,0.42668038606643677,0.20122835040092468,0.07343403995037079,0.2588311731815338
4.179555654525757,0.009346150793135166,-0.3709849715232849,0.42668038606643677,0.20122835040092468,0.07343403995037079,0.2588311731815338
4.199644088745117,0.009346150793135166,-0.3709849715232849,0.42668038606643677,0.20122835040092468,0.07305257022380829,0.2588311731815338
4.219740390777588,0.009346150793135166,-0.3706035017967224,0.42668038606643677,0.20122835040092468,0.07305257022380829,0.2588311731815338
4.239791393280029,0.009346150793135166,-0.3706035017967224,0.42668038606643677,0.20122835040092468,0.07305257022380829,0.2588311731815338
4.259944438934326,0.009346150793135166,-0.3706035017967224,0.42668038606643677,0.20122835040092468,0.07305257022380829,0.2584496736526489
4.279999732971191,0.009346150793135166,-0.3706035017967224,0.42668038606643677,0.20122835040092468,0.07343403995037079,0.2588311731815338
4.3000648021698,0.009346150793135166,-0.3706035017967224,0.42668038606643677,0.20122835040092468,0.07343403995037079,0.2588311731815338
4.3201093673706055,0.009346150793135166,-0.3706035017967224,0.42668038606643677,0.20122835040092468,0.07343403995037079,0.2584496736526489
4.3401877880096436,0.009346150793135166,-0.3706035017967224,0.42668038606643677,0.20122835040092468,0.07343403995037079,0.2588311731815338
4.3602776527404785,0.009346150793135166,-0.3706035017967224,0.42668038606643677,0.20122835040092468,0.07343403995037079,0.2588311731815338
4.380324125289917,0.009346150793135166,-0.3706035017967224,0.42668038606643677,0.20122835040092468,0.07305257022380829,0.2584496736526489
4.400374174118042,0.009346150793135166,-0.3706035017967224,0.42668038606643677,0.20122835040092468,0.07343403995037079,0.2584496736526489
4.420465707778931,0.009346150793135166,-0.3706035017967224,0.42668038606643677,0.20122835040092468,0.07305257022380829,0.2584496736526489
4.440587759017944,0.009346150793135166,-0.3706035017967224,0.42668038606643677,0.20122835040092468,0.07343403995037079,0.2584496736526489
4.46063494682312,0.009346150793135166,-0.3706035017967224,0.42668038606643677,0.20122835040092468,0.07343403995037079,0.2584496736526489
4.4806904792785645,0.009346150793135166,-0.3706035017967224,0.42668038606643677,0.20122835040092468,0.07343403995037079,0.2588311731815338
4.500776529312134,0.009346150793135166,-0.3706035017967224,0.42668038606643677,0.20122835040092468,0.07343403995037079,0.2584496736526489
4.52087140083313,0.009346150793135166,-0.3706035017967224,0.42668038606643677,0.20122835040092468,0.07343403995037079,0.2584496736526489
4.540959119796753,0.009346150793135166,-0.3706035017967224,0.42668038606643677,0.20122835040092468,0.07305257022380829,0.2584496736526489
4.561105489730835,0.009346150793135166,-0.3706035017967224,0.42668038606643677,0.20122835040092468,0.07305257022380829,0.2584496736526489
4.581187963485718,0.009346150793135166,-0.3706035017967224,0.42668038606643677,0.20122835040092468,0.07305257022380829,0.2588311731815338
4.601266622543335,0.009346150793135166,-0.3706035017967224,0.42668038606643677,0.20122835040092468,0.07343403995037079,0.2588311731815338
4.621313810348511,0.009346150793135166,-0.3706035017967224,0.42668038606643677,0.20122835040092468,0.07343403995037079,0.2588311731815338
4.64140772819519,0.009346150793135166,-0.3706035017967224,0.42668038606643677,0.20122835040092468,0.07343403995037079,0.2588311731815338
4.661562919616699,0.009346150793135166,-0.3706035017967224,0.42629891633987427,0.20122835040092468,0.07305257022380829,0.2588311731815338
4.6815571784973145,0.009346150793135166,-0.3706035017967224,0.42668038606643677,0.20122835040092468,0.07305257022380829,0.2588311731815338
4.70166277885437,0.009346150793135166,-0.3706035017967224,0.42629891633987427,0.20122835040092468,0.07343403995037079,0.2588311731815338
4.721762180328369,0.009346150793135166,-0.3706035017967224,0.42629891633987427,0.20122835040092468,0.07343403995037079,0.2588311731815338
4.741852283477783,0.009346150793135166,-0.3706035017967224,0.42629891633987427,0.20122835040092468,0.07343403995037079,0.2588311731815338
4.761905908584595,0.009346150793135166,-0.3706035017967224,0.42629891633987427,0.20122835040092468,0.07305257022380829,0.2584496736526489
4.782046318054199,0.009346150793135166,-0.3702220320701599,0.42629891633987427,0.20122835040092468,0.07305257022380829,0.2588311731815338
4.802138805389404,0.009346150793135166,-0.3702220320701599,0.42629891633987427,0.20122835040092468,0.07305257022380829,0.2588311731815338
4.8222246170043945,0.009346150793135166,-0.3702220320701599,0.42629891633987427,0.20122835040092468,0.07305257022380829,0.2588311731815338
4.842303276062012,0.009346150793135166,-0.3702220320701599,0.42629891633987427,0.20122835040092468,0.07343403995037079,0.2588311731815338
4.86254096031189,0.009346150793135166,-0.3702220320701599,0.42629891633987427,0.20122835040092468,0.07343403995037079,0.2588311731815338
4.8827064037323,0.009346150793135166,-0.3702220320701599,0.42629891633987427,0.20122835040092468,0.07343403995037079,0.2588311731815338
4.902825593948364,0.009346150793135166,-0.3702220320701599,0.42629891633987427,0.20122835040092468,0.07305257022380829,0.2588311731815338
4.9227659702301025,0.009346150793135166,-0.3702220320701599,0.42629891633987427,0.20122835040092468,0.07305257022380829,0.2588311731815338
4.942850351333618,0.009346150793135166,-0.3702220320701599,0.42629891633987427,0.20122835040092468,0.07305257022380829,0.2588311731815338
4.9629127979278564,0.009346150793135166,-0.3702220320701599,0.42629891633987427,0.20122835040092468,0.07305257022380829,0.2588311731815338
4.982988119125366,0.009346150793135166,-0.3702220320701599,0.42629891633987427,0.20122835040092468,0.07305257022380829,0.2588311731815338
5.003064870834351,0.009346150793135166,-0.3702220320701599,0.42591744661331177,0.20122835040092468,0.07305257022380829,0.2584496736526489
5.023245334625244,0.009346150793135166,-0.3702220320701599,0.42591744661331177,0.20122835040092468,0.07305257022380829,0.2584496736526489
5.043296575546265,0.009346150793135166,-0.3702220320701599,0.42591744661331177,0.20122835040092468,0.07343403995037079,0.2588311731815338
5.063322305679321,0.009346150793135166,-0.3702220320701599,0.42591744661331177,0.20122835040092468,0.07305257022380829,0.2588311731815338
5.083545207977295,0.009346150793135166,-0.3702220320701599,0.42591744661331177,0.20122835040092468,0.07343403995037079,0.2588311731815338
5.10363507270813,0.009346150793135166,-0.3702220320701599,0.42629891633987427,0.20122835040092468,0.07305257022380829,0.2584496736526489
5.123701333999634,0.009346150793135166,-0.3702220320701599,0.42591744661331177,0.20122835040092468,0.07305257022380829,0.2584496736526489
5.143749475479126,0.009346150793135166,-0.3702220320701599,0.42591744661331177,0.20122835040092468,0.07305257022380829,0.2584496736526489
5.163836240768433,0.009346150793135166,-0.3702220320701599,0.42591744661331177,0.20122835040092468,0.07305257022380829,0.2588311731815338
5.18392539024353,0.009346150793135166,-0.3702220320701599,0.42591744661331177,0.20122835040092468,0.07305257022380829,0.2584496736526489
5.20399284362793,0.009346150793135166,-0.3702220320701599,0.42591744661331177,0.20122835040092468,0.07305257022380829,0.2584496736526489
5.224122047424316,0.009346150793135166,-0.3702220320701599,0.42591744661331177,0.20122835040092468,0.07305257022380829,0.2584496736526489
5.244192838668823,0.009346150793135166,-0.3702220320701599,0.42591744661331177,0.20122835040092468,0.07305257022380829,0.2584496736526489
5.264401197433472,0.009346150793135166,-0.3702220320701599,0.42591744661331177,0.20122835040092468,0.07305257022380829,0.2584496736526489
5.284440517425537,0.009346150793135166,-0.3702220320701599,0.42553597688674927,0.20122835040092468,0.07305257022380829,0.2584496736526489
5.304486036300659,0.009346150793135166,-0.3702220320701599,0.42553597688674927,0.20122835040092468,0.07305257022380829,0.2584496736526489
5.324584245681763,0.009346150793135166,-0.3702220320701599,0.42553597688674927,0.20122835040092468,0.07305257022380829,0.2584496736526489
5.344690561294556,0.009346150793135166,-0.3702220320701599,0.42553597688674927,0.20122835040092468,0.07305257022380829,0.2584496736526489
5.364733695983887,0.009346150793135166,-0.3702220320701599,0.42553597688674927,0.20122835040092468,0.07305257022380829,0.2584496736526489
5.384829759597778,0.009346150793135166,-0.3702220320701599,0.42591744661331177,0.20122835040092468,0.07305257022380829,0.2584496736526489
5.404897212982178,0.009346150793135166,-0.3702220320701599,0.42591744661331177,0.20122835040092468,0.07305257022380829,0.2584496736526489
5.425028085708618,0.009346150793135166,-0.3702220320701599,0.42591744661331177,0.20122835040092468,0.07305257022380829,0.2584496736526489
5.445052146911621,0.009346150793135166,-0.3702220320701599,0.42591744661331177,0.20122835040092468,0.07305257022380829,0.2584496736526489
5.465203523635864,0.009346150793135166,-0.3702220320701599,0.42553597688674927,0.20122835040092468,0.07305257022380829,0.2584496736526489
5.485304355621338,0.009346150793135166,-0.3702220320701599,0.42591744661331177,0.20122835040092468,0.07305257022380829,0.2584496736526489
5.505325794219971,0.009346150793135166,-0.3702220320701599,0.42553597688674927,0.20122835040092468,0.07305257022380829,0.2584496736526489
5.525442838668823,0.009346150793135166,-0.3702220320701599,0.42553597688674927,0.20122835040092468,0.07305257022380829,0.2584496736526489
5.545527219772339,0.009346150793135166,-0.3702220320701599,0.42591744661331177,0.20122835040092468,0.07305257022380829,0.2584496736526489
5.565605401992798,0.009346150793135166,-0.3702220320701599,0.42591744661331177,0.20122835040092468,0.07305257022380829,0.2584496736526489
5.585641860961914,0.009346150793135166,-0.3702220320701599,0.42591744661331177,0.20122835040092468,0.07305257022380829,0.2584496736526489
5.6058900356292725,0.009346150793135166,-0.3702220320701599,0.42591744661331177,0.20122835040092468,0.07305257022380829,0.2584496736526489
5.626027345657349,0.009346150793135166,-0.3702220320701599,0.42591744661331177,0.20122835040092468,0.07305257022380829,0.2584496736526489
5.646115064620972,0.009346150793135166,-0.3702220320701599,0.42591744661331177,0.20122835040092468,0.07305257022380829,0.2584496736526489
5.666224956512451,0.009346150793135166,-0.3702220320701599,0.42591744661331177,0.20122835040092468,0.07305257022380829,0.2584496736526489
5.6862640380859375,0.009346150793135166,-0.3702220320701599,0.42591744661331177,0.20122835040092468,0.07305257022380829,0.2584496736526489
5.7063374519348145,0.009346150793135166,-0.3702220320701599,0.42591744661331177,0.20122835040092468,0.07305257022380829,0.2584496736526489
5.726443529129028,0.009346150793135166,-0.3702220320701599,0.42591744661331177,0.20122835040092468,0.07305257022380829,0.2584496736526489
5.746537446975708,0.009346150793135166,-0.3702220320701599,0.42591744661331177,0.20122835040092468,0.07305257022380829,0.2584496736526489
5.766683340072632,0.009346150793135166,-0.3702220320701599,0.42591744661331177,0.20122835040092468,0.07305257022380829,0.2584496736526489
5.786726474761963,0.009346150793135166,-0.3702220320701599,0.42591744661331177,0.20122835040092468,0.07305257022380829,0.2584496736526489
5.806792259216309,0.009346150793135166,-0.3702220320701599,0.42591744661331177,0.20122835040092468,0.07305257022380829,0.2584496736526489
5.826979637145996,0.009346150793135166,-0.3702220320701599,0.42591744661331177,0.20122835040092468,0.07305257022380829,0.2584496736526489
5.847100019454956,0.009346150793135166,-0.3702220320701599,0.42591744661331177,0.20122835040092468,0.07305257022380829,0.2584496736526489
5.867141962051392,0.009346150793135166,-0.3702220320701599,0.42591744661331177,0.20122835040092468,0.07305257022380829,0.2584496736526489
5.887313604354858,0.009346150793135166,-0.3702220320701599,0.42591744661331177,0.20122835040092468,0.07305257022380829,0.2584496736526489
5.907447099685669,0.009346150793135166,-0.3702220320701599,0.42629891633987427,0.20122835040092468,0.07305257022380829,0.2584496736526489
5.927603006362915,0.009346150793135166,-0.3702220320701599,0.42591744661331177,0.20122835040092468,0.07305257022380829,0.2584496736526489
5.947622299194336,0.009346150793135166,-0.3702220320701599,0.42629891633987427,0.20122835040092468,0.07305257022380829,0.2584496736526489
5.967689752578735,0.009346150793135166,-0.3702220320701599,0.42629891633987427,0.20122835040092468,0.07305257022380829,0.2584496736526489
5.987756013870239,0.009346150793135166,-0.3702220320701599,0.42629891633987427,0.20122835040092468,0.07305257022380829,0.2584496736526489
6.0078535079956055,0.009346150793135166,-0.3702220320701599,0.42629891633987427,0.20122835040092468,0.07305257022380829,0.2584496736526489
6.027916193008423,0.009346150793135166,-0.3702220320701599,0.42629891633987427,0.20122835040092468,0.07305257022380829,0.2584496736526489
6.0480875968933105,0.009346150793135166,-0.3702220320701599,0.42629891633987427,0.20122835040092468,0.07305257022380829,0.2584496736526489
6.0681469440460205,0.009346150793135166,-0.3702220320701599,0.42629891633987427,0.20122835040092468,0.07305257022380829,0.2584496736526489
6.088164329528809,0.009346150793135166,-0.3702220320701599,0.42629891633987427,0.20122835040092468,0.07305257022380829,0.2584496736526489
6.108922243118286,0.009346150793135166,-0.3702220320701599,0.42629891633987427,0.20122835040092468,0.07343403995037079,0.2584496736526489
6.129019260406494,0.009346150793135166,-0.3702220320701599,0.42629891633987427,0.20122835040092468,0.07305257022380829,0.2584496736526489
6.149087905883789,0.009346150793135166,-0.3702220320701599,0.42629891633987427,0.20122835040092468,0.07305257022380829,0.2584496736526489
6.169219493865967,0.009346150793135166,-0.3702220320701599,0.42629891633987427,0.20122835040092468,0.07305257022380829,0.2584496736526489
6.189334154129028,0.009346150793135166,-0.3702220320701599,0.42629891633987427,0.20122835040092468,0.07305257022380829,0.2584496736526489
6.2093422412872314,0.009346150793135166,-0.3702220320701599,0.42629891633987427,0.20122835040092468,0.07305257022380829,0.2584496736526489
6.229413747787476,0.009346150793135166,-0.3702220320701599,0.42629891633987427,0.20122835040092468,0.07305257022380829,0.2584496736526489
6.249456882476807,0.009346150793135166,-0.3702220320701599,0.42629891633987427,0.20122835040092468,0.07305257022380829,0.2584496736526489
6.269546985626221,0.009346150793135166,-0.3702220320701599,0.42629891633987427,0.20122835040092468,0.07305257022380829,0.2584496736526489
6.289614200592041,0.009346150793135166,-0.3702220320701599,0.42629891633987427,0.20122835040092468,0.07305257022380829,0.2584496736526489
6.309718608856201,0.009346150793135166,-0.3702220320701599,0.42629891633987427,0.20122835040092468,0.07305257022380829,0.2584496736526489
6.329816818237305,0.009346150793135166,-0.3702220320701599,0.42629891633987427,0.20122835040092468,0.07305257022380829,0.2584496736526489
6.349908113479614,0.009346150793135166,-0.3702220320701599,0.42629891633987427,0.20122835040092468,0.07305257022380829,0.2584496736526489
6.370008230209351,0.009346150793135166,-0.3702220320701599,0.42629891633987427,0.20122835040092468,0.07305257022380829,0.2584496736526489
6.390106439590454,0.009346150793135166,-0.3702220320701599,0.42629891633987427,0.20122835040092468,0.07305257022380829,0.2584496736526489
6.410210132598877,0.009346150793135166,-0.3702220320701599,0.42629891633987427,0.20122835040092468,0.07305257022380829,0.2584496736526489
6.430304765701294,0.009346150793135166,-0.3702220320701599,0.42629891633987427,0.20122835040092468,0.07305257022380829,0.2584496736526489
6.450413942337036,0.009346150793135166,-0.3702220320701599,0.42629891633987427,0.20122835040092468,0.07305257022380829,0.2584496736526489
6.470480442047119,0.009346150793135166,-0.3702220320701599,0.42629891633987427,0.20122835040092468,0.07305257022380829,0.2584496736526489
6.490593194961548,0.009346150793135166,-0.3702220320701599,0.42629891633987427,0.20122835040092468,0.07305257022380829,0.2584496736526489
6.510715961456299,0.009346150793135166,-0.3702220320701599,0.42629891633987427,0.20122835040092468,0.07305257022380829,0.2584496736526489
6.530747175216675,0.009346150793135166,-0.3702220320701599,0.42629891633987427,0.20122835040092468,0.07305257022380829,0.2584496736526489
6.55077052116394,0.009346150793135166,-0.3702220320701599,0.42629891633987427,0.20122835040092468,0.07305257022380829,0.2584496736526489
6.570856809616089,0.009346150793135166,-0.3702220320701599,0.42629891633987427,0.20122835040092468,0.07305257022380829,0.2584496736526489
6.590925931930542,0.009346150793135166,-0.3702220320701599,0.42629891633987427,0.20122835040092468,0.07305257022380829,0.2584496736526489
6.611032009124756,0.009346150793135166,-0.3702220320701599,0.42629891633987427,0.20122835040092468,0.07305257022380829,0.2584496736526489
6.631183624267578,0.009346150793135166,-0.3702220320701599,0.42629891633987427,0.20122835040092468,0.07305257022380829,0.2584496736526489
6.6512579917907715,0.009346150793135166,-0.3702220320701599,0.42629891633987427,0.20122835040092468,0.07305257022380829,0.2584496736526489
6.671328067779541,0.009346150793135166,-0.3702220320701599,0.42629891633987427,0.20122835040092468,0.07305257022380829,0.2584496736526489
6.691370010375977,0.009346150793135166,-0.3702220320701599,0.42629891633987427,0.20122835040092468,0.07305257022380829,0.2584496736526489
6.711458444595337,0.009346150793135166,-0.3702220320701599,0.42629891633987427,0.20122835040092468,0.07343403995037079,0.2584496736526489
6.731522798538208,0.009346150793135166,-0.3702220320701599,0.42629891633987427,0.20122835040092468,0.07305257022380829,0.2584496736526489
6.751567363739014,0.009346150793135166,-0.3702220320701599,0.42629891633987427,0.20122835040092468,0.07305257022380829,0.2584496736526489
6.771634101867676,0.009346150793135166,-0.3702220320701599,0.42629891633987427,0.20122835040092468,0.07305257022380829,0.2584496736526489
6.791722774505615,0.009346150793135166,-0.3702220320701599,0.42629891633987427,0.20122835040092468,0.07343403995037079,0.2584496736526489
6.81179141998291,0.009346150793135166,-0.3702220320701599,0.42629891633987427,0.20122835040092468,0.07343403995037079,0.2584496736526489
6.831835508346558,0.009346150793135166,-0.3702220320701599,0.42629891633987427,0.20122835040092468,0.07305257022380829,0.2584496736526489
6.851929187774658,0.009346150793135166,-0.3702220320701599,0.42629891633987427,0.20122835040092468,0.07343403995037079,0.2584496736526489
6.872014284133911,0.009346150793135166,-0.3702220320701599,0.42629891633987427,0.20122835040092468,0.07343403995037079,0.2584496736526489
6.892082452774048,0.009346150793135166,-0.3702220320701599,0.42629891633987427,0.20122835040092468,0.07343403995037079,0.2584496736526489
6.912132978439331,0.009346150793135166,-0.3702220320701599,0.42629891633987427,0.20122835040092468,0.07343403995037079,0.2584496736526489
6.932231664657593,0.009346150793135166,-0.3702220320701599,0.42629891633987427,0.20122835040092468,0.07343403995037079,0.2584496736526489
6.95230507850647,0.009346150793135166,-0.3702220320701599,0.42629891633987427,0.20122835040092468,0.07343403995037079,0.2584496736526489
6.9723639488220215,0.009346150793135166,-0.3702220320701599,0.42629891633987427,0.20122835040092468,0.07343403995037079,0.2584496736526489
6.992502450942993,0.009346150793135166,-0.3702220320701599,0.42629891633987427,0.20122835040092468,0.07305257022380829,0.2584496736526489
7.012589931488037,0.009346150793135166,-0.3702220320701599,0.42629891633987427,0.20122835040092468,0.07343403995037079,0.2584496736526489
7.032791376113892,0.009346150793135166,-0.3702220320701599,0.42629891633987427,0.20122835040092468,0.07343403995037079,0.2584496736526489
7.0527427196502686,0.009346150793135166,-0.3702220320701599,0.42629891633987427,0.20122835040092468,0.07343403995037079,0.2584496736526489
7.073044538497925,0.009346150793135166,-0.3702220320701599,0.42629891633987427,0.20122835040092468,0.07343403995037079,0.2584496736526489
7.093133449554443,0.009346150793135166,-0.3702220320701599,0.42629891633987427,0.20122835040092468,0.07343403995037079,0.2584496736526489
7.11320948600769,0.009346150793135166,-0.3702220320701599,0.42629891633987427,0.20122835040092468,0.07343403995037079,0.2584496736526489
7.133249521255493,0.009346150793135166,-0.3702220320701599,0.42629891633987427,0.20122835040092468,0.07343403995037079,0.2584496736526489
7.1534423828125,0.009346150793135166,-0.3702220320701599,0.42629891633987427,0.20122835040092468,0.07305257022380829,0.2584496736526489
7.17345666885376,0.009346150793135166,-0.3702220320701599,0.42629891633987427,0.20122835040092468,0.07305257022380829,0.2584496736526489
7.193519353866577,0.009346150793135166,-0.3702220320701599,0.42629891633987427,0.20122835040092468,0.07343403995037079,0.2584496736526489
7.2136054039001465,0.009346150793135166,-0.3702220320701599,0.42629891633987427,0.20122835040092468,0.07343403995037079,0.2584496736526489
7.2336814403533936,0.009346150793135166,-0.3702220320701599,0.42629891633987427,0.20122835040092468,0.07343403995037079,0.2584496736526489
7.253793954849243,0.009346150793135166,-0.3702220320701599,0.42629891633987427,0.20160982012748718,0.07343403995037079,0.2584496736526489
7.273826837539673,0.009346150793135166,-0.3702220320701599,0.42629891633987427,0.20122835040092468,0.07343403995037079,0.2584496736526489
7.2939417362213135,0.009346150793135166,-0.3702220320701599,0.42629891633987427,0.20122835040092468,0.07343403995037079,0.2584496736526489
7.314021825790405,0.009346150793135166,-0.3702220320701599,0.42629891633987427,0.20122835040092468,0.07343403995037079,0.2584496736526489
7.334115743637085,0.009346150793135166,-0.3702220320701599,0.42629891633987427,0.20122835040092468,0.07343403995037079,0.2584496736526489
7.354189395904541,0.009346150793135166,-0.3702220320701599,0.42629891633987427,0.20122835040092468,0.07343403995037079,0.2584496736526489
7.374250173568726,0.009346150793135166,-0.3702220320701599,0.42629891633987427,0.20122835040092468,0.07343403995037079,0.2584496736526489
7.394316673278809,0.009346150793135166,-0.3702220320701599,0.42629891633987427,0.20122835040092468,0.07343403995037079,0.2584496736526489
7.414383172988892,0.009346150793135166,-0.3706035017967224,0.42629891633987427,0.20122835040092468,0.07343403995037079,0.2584496736526489
7.434466600418091,0.009346150793135166,-0.3702220320701599,0.42629891633987427,0.20122835040092468,0.07343403995037079,0.2584496736526489
7.454530715942383,0.009346150793135166,-0.3702220320701599,0.42629891633987427,0.20122835040092468,0.07343403995037079,0.2584496736526489
7.474599838256836,0.009346150793135166,-0.3706035017967224,0.42629891633987427,0.20122835040092468,0.07343403995037079,0.2584496736526489
7.49472188949585,0.009346150793135166,-0.3709849715232849,0.42629891633987427,0.20122835040092468,0.07343403995037079,0.2584496736526489
7.5151755809783936,0.009346150793135166,-0.3709849715232849,0.42629891633987427,0.20122835040092468,0.07343403995037079,0.2584496736526489
7.535290479660034,0.009346150793135166,-0.3709849715232849,0.42629891633987427,0.20122835040092468,0.07343403995037079,0.2584496736526489
7.555483102798462,0.009346150793135166,-0.3709849715232849,0.42629891633987427,0.20122835040092468,0.07343403995037079,0.2584496736526489
7.57548975944519,0.009346150793135166,-0.3709849715232849,0.42668038606643677,0.20122835040092468,0.07343403995037079,0.2584496736526489
7.595552682876587,0.009346150793135166,-0.3709849715232849,0.42668038606643677,0.20122835040092468,0.07343403995037079,0.2584496736526489
7.615623712539673,0.009346150793135166,-0.3709849715232849,0.42668038606643677,0.20122835040092468,0.07343403995037079,0.2584496736526489
7.6544482707977295,0.009346150793135166,-0.3709849715232849,0.42668038606643677,0.20122835040092468,0.07343403995037079,0.2584496736526489
7.67453670501709,0.009346150793135166,-0.3709849715232849,0.42668038606643677,0.20122835040092468,0.07343403995037079,0.2584496736526489
7.69465708732605,0.009346150793135166,-0.3709849715232849,0.42668038606643677,0.20160982012748718,0.07343403995037079,0.2584496736526489
7.714714527130127,0.009346150793135166,-0.3709849715232849,0.42668038606643677,0.20160982012748718,0.07343403995037079,0.2584496736526489
7.734959602355957,0.009346150793135166,-0.3709849715232849,0.42668038606643677,0.20160982012748718,0.07343403995037079,0.2584496736526489
7.755049467086792,0.009346150793135166,-0.3709849715232849,0.42668038606643677,0.20160982012748718,0.07343403995037079,0.2584496736526489
7.7750563621521,0.009346150793135166,-0.3709849715232849,0.42668038606643677,0.20160982012748718,0.07343403995037079,0.2584496736526489
7.795088529586792,0.009346150793135166,-0.3709849715232849,0.42668038606643677,0.20160982012748718,0.07343403995037079,0.2584496736526489
7.8151750564575195,0.009346150793135166,-0.3709849715232849,0.42668038606643677,0.20160982012748718,0.07305257022380829,0.2584496736526489
7.835259675979614,0.009346150793135166,-0.3709849715232849,0.42668038606643677,0.20160982012748718,0.07343403995037079,0.2584496736526489
7.856511116027832,0.009346150793135166,-0.3709849715232849,0.42668038606643677,0.20160982012748718,0.07343403995037079,0.2584496736526489
7.876633405685425,0.009346150793135166,-0.3709849715232849,0.42668038606643677,0.20160982012748718,0.07343403995037079,0.2584496736526489
7.896685600280762,0.009346150793135166,-0.3709849715232849,0.42668038606643677,0.20160982012748718,0.07343403995037079,0.2584496736526489
7.9168031215667725,0.009346150793135166,-0.3709849715232849,0.42668038606643677,0.20160982012748718,0.07343403995037079,0.2584496736526489
7.936835050582886,0.009346150793135166,-0.3709849715232849,0.42668038606643677,0.20160982012748718,0.07343403995037079,0.2584496736526489
7.9569196701049805,0.009346150793135166,-0.3709849715232849,0.42668038606643677,0.20160982012748718,0.07343403995037079,0.2584496736526489
7.9769980907440186,0.009346150793135166,-0.3709849715232849,0.42668038606643677,0.20160982012748718,0.07343403995037079,0.2584496736526489
7.997058153152466,0.009346150793135166,-0.3709849715232849,0.42668038606643677,0.20160982012748718,0.07343403995037079,0.2584496736526489
8.017274856567383,0.009346150793135166,-0.3709849715232849,0.42668038606643677,0.20160982012748718,0.07343403995037079,0.2584496736526489
8.037376642227173,0.009346150793135166,-0.3709849715232849,0.42668038606643677,0.20160982012748718,0.07343403995037079,0.2584496736526489
8.057416677474976,0.009346150793135166,-0.3709849715232849,0.42668038606643677,0.20160982012748718,0.07343403995037079,0.2584496736526489
8.077978134155273,0.009346150793135166,-0.3706035017967224,0.42668038606643677,0.20160982012748718,0.07343403995037079,0.2584496736526489
8.09816837310791,0.009346150793135166,-0.3706035017967224,0.42668038606643677,0.20160982012748718,0.07343403995037079,0.2584496736526489
8.118261098861694,0.009346150793135166,-0.3706035017967224,0.42668038606643677,0.20160982012748718,0.07343403995037079,0.2584496736526489
8.138277292251587,0.009346150793135166,-0.3706035017967224,0.42668038606643677,0.20160982012748718,0.07343403995037079,0.2584496736526489
8.158350706100464,0.009346150793135166,-0.3706035017967224,0.42668038606643677,0.20160982012748718,0.07343403995037079,0.2584496736526489
8.178462743759155,0.009346150793135166,-0.3706035017967224,0.42668038606643677,0.20160982012748718,0.07343403995037079,0.2584496736526489
8.198562145233154,0.009346150793135166,-0.3706035017967224,0.42668038606643677,0.20160982012748718,0.07343403995037079,0.2584496736526489
8.218607425689697,0.009346150793135166,-0.3706035017967224,0.42668038606643677,0.20160982012748718,0.07343403995037079,0.2584496736526489
8.23875379562378,0.009346150793135166,-0.3706035017967224,0.42668038606643677,0.20160982012748718,0.07343403995037079,0.2584496736526489
8.258944749832153,0.009346150793135166,-0.3706035017967224,0.42668038606643677,0.20160982012748718,0.07343403995037079,0.2584496736526489
8.279142379760742,0.009346150793135166,-0.3706035017967224,0.42668038606643677,0.20160982012748718,0.07343403995037079,0.2584496736526489
8.299137115478516,0.009346150793135166,-0.3706035017967224,0.42668038606643677,0.20160982012748718,0.07343403995037079,0.2584496736526489
8.319225072860718,0.009346150793135166,-0.3706035017967224,0.42668038606643677,0.20160982012748718,0.07343403995037079,0.2584496736526489
8.339342832565308,0.009346150793135166,-0.3706035017967224,0.42668038606643677,0.20160982012748718,0.07343403995037079,0.2584496736526489
8.359384775161743,0.009346150793135166,-0.3706035017967224,0.42668038606643677,0.20160982012748718,0.07343403995037079,0.2584496736526489
8.379640817642212,0.009346150793135166,-0.3706035017967224,0.42668038606643677,0.20160982012748718,0.07343403995037079,0.2584496736526489
8.399881362915039,0.009346150793135166,-0.3706035017967224,0.42668038606643677,0.20160982012748718,0.07343403995037079,0.2584496736526489
8.419877529144287,0.009346150793135166,-0.3706035017967224,0.42668038606643677,0.20160982012748718,0.07343403995037079,0.2584496736526489
8.440083980560303,0.009346150793135166,-0.3706035017967224,0.42668038606643677,0.20160982012748718,0.07343403995037079,0.2584496736526489
8.460163593292236,0.009346150793135166,-0.3706035017967224,0.42668038606643677,0.20160982012748718,0.07343403995037079,0.2584496736526489
8.480241537094116,0.009346150793135166,-0.3706035017967224,0.42668038606643677,0.20160982012748718,0.07343403995037079,0.2584496736526489
8.500294923782349,0.009346150793135166,-0.3706035017967224,0.42668038606643677,0.20160982012748718,0.07343403995037079,0.2584496736526489
8.520377397537231,0.009346150793135166,-0.3706035017967224,0.42668038606643677,0.20160982012748718,0.07343403995037079,0.2584496736526489
8.540460586547852,0.009346150793135166,-0.3706035017967224,0.42668038606643677,0.20160982012748718,0.07343403995037079,0.2584496736526489
8.560506343841553,0.009346150793135166,-0.3706035017967224,0.42668038606643677,0.20160982012748718,0.07343403995037079,0.2584496736526489
8.580573081970215,0.009346150793135166,-0.3706035017967224,0.42668038606643677,0.20160982012748718,0.07343403995037079,0.2584496736526489
8.600679397583008,0.009346150793135166,-0.3706035017967224,0.42668038606643677,0.20160982012748718,0.07343403995037079,0.2584496736526489
8.620783805847168,0.009346150793135166,-0.3706035017967224,0.42668038606643677,0.20160982012748718,0.07343403995037079,0.2584496736526489
8.640808343887329,0.009346150793135166,-0.3706035017967224,0.42668038606643677,0.20160982012748718,0.07343403995037079,0.2584496736526489
8.660891771316528,0.009346150793135166,-0.3706035017967224,0.42668038606643677,0.20160982012748718,0.07343403995037079,0.2584496736526489
8.680960893630981,0.009346150793135166,-0.3706035017967224,0.42668038606643677,0.20160982012748718,0.07343403995037079,0.2584496736526489
8.701033115386963,0.009346150793135166,-0.3706035017967224,0.42668038606643677,0.20160982012748718,0.07343403995037079,0.2584496736526489
8.721086502075195,0.009346150793135166,-0.3706035017967224,0.42668038606643677,0.20160982012748718,0.07343403995037079,0.2584496736526489
8.741169929504395,0.009346150793135166,-0.3706035017967224,0.42668038606643677,0.20160982012748718,0.07343403995037079,0.2584496736526489
8.761239290237427,0.009346150793135166,-0.3706035017967224,0.42668038606643677,0.20160982012748718,0.07343403995037079,0.2584496736526489
8.7812979221344,0.009346150793135166,-0.3706035017967224,0.42668038606643677,0.20160982012748718,0.07343403995037079,0.2584496736526489
8.801487922668457,0.009346150793135166,-0.3706035017967224,0.42668038606643677,0.20160982012748718,0.07343403995037079,0.2584496736526489
8.821595191955566,0.009346150793135166,-0.3706035017967224,0.42668038606643677,0.20160982012748718,0.07343403995037079,0.2584496736526489
8.841627359390259,0.009346150793135166,-0.3706035017967224,0.42668038606643677,0.20160982012748718,0.07343403995037079,0.2584496736526489
8.861684322357178,0.009346150793135166,-0.3706035017967224,0.42668038606643677,0.20160982012748718,0.07343403995037079,0.2584496736526489
8.881774187088013,0.009346150793135166,-0.3706035017967224,0.42668038606643677,0.20160982012748718,0.07343403995037079,0.2584496736526489
8.90183973312378,0.009346150793135166,-0.3706035017967224,0.42668038606643677,0.20160982012748718,0.07343403995037079,0.2584496736526489
8.921958446502686,0.009346150793135166,-0.3706035017967224,0.42668038606643677,0.20160982012748718,0.07343403995037079,0.2584496736526489
8.94253420829773,0.009346150793135166,-0.3706035017967224,0.42668038606643677,0.20160982012748718,0.07343403995037079,0.2584496736526489
8.962729215621948,0.009346150793135166,-0.3706035017967224,0.42668038606643677,0.20160982012748718,0.07343403995037079,0.2584496736526489
8.982832193374634,0.009346150793135166,-0.3706035017967224,0.42668038606643677,0.20160982012748718,0.07343403995037079,0.2584496736526489
9.002856731414795,0.009346150793135166,-0.3706035017967224,0.42668038606643677,0.20160982012748718,0.07343403995037079,0.2584496736526489
9.023016929626465,0.009346150793135166,-0.3706035017967224,0.42668038606643677,0.20160982012748718,0.07343403995037079,0.2584496736526489
9.043146133422852,0.009346150793135166,-0.3706035017967224,0.42668038606643677,0.20160982012748718,0.07343403995037079,0.2584496736526489
9.06324815750122,0.009346150793135166,-0.3706035017967224,0.42668038606643677,0.20160982012748718,0.07343403995037079,0.2584496736526489
9.083337545394897,0.009346150793135166,-0.3706035017967224,0.42668038606643677,0.20160982012748718,0.07343403995037079,0.2584496736526489
9.10350513458252,0.009346150793135166,-0.3706035017967224,0.42668038606643677,0.20160982012748718,0.07343403995037079,0.2584496736526489
9.123542785644531,0.009346150793135166,-0.3706035017967224,0.42668038606643677,0.20160982012748718,0.07305257022380829,0.2584496736526489
9.143580436706543,0.009346150793135166,-0.3706035017967224,0.42668038606643677,0.20160982012748718,0.07343403995037079,0.2584496736526489
9.163710355758667,0.009346150793135166,-0.3706035017967224,0.42668038606643677,0.20160982012748718,0.07343403995037079,0.2584496736526489
9.183769702911377,0.009346150793135166,-0.3706035017967224,0.42668038606643677,0.20160982012748718,0.07343403995037079,0.2584496736526489
9.20391583442688,0.009346150793135166,-0.3706035017967224,0.42668038606643677,0.20160982012748718,0.07343403995037079,0.2584496736526489
9.223949193954468,0.009346150793135166,-0.3706035017967224,0.42668038606643677,0.20160982012748718,0.07305257022380829,0.2584496736526489
9.244056701660156,0.009346150793135166,-0.3706035017967224,0.42668038606643677,0.20160982012748718,0.07343403995037079,0.2584496736526489
9.264092206954956,0.009346150793135166,-0.3706035017967224,0.42668038606643677,0.20160982012748718,0.07343403995037079,0.2584496736526489
9.284174680709839,0.009346150793135166,-0.3706035017967224,0.42629891633987427,0.20160982012748718,0.07305257022380829,0.2584496736526489
9.304264545440674,0.009346150793135166,-0.3706035017967224,0.42591744661331177,0.20160982012748718,0.07305257022380829,0.2584496736526489
9.324331521987915,0.009346150793135166,-0.3706035017967224,0.42591744661331177,0.20160982012748718,0.07305257022380829,0.2584496736526489
9.344441175460815,0.009346150793135166,-0.3706035017967224,0.42591744661331177,0.20160982012748718,0.07305257022380829,0.2584496736526489
9.364481687545776,0.009346150793135166,-0.3706035017967224,0.42591744661331177,0.20160982012748718,0.07305257022380829,0.2584496736526489
9.38459062576294,0.009346150793135166,-0.3706035017967224,0.42591744661331177,0.20160982012748718,0.07305257022380829,0.2584496736526489
9.404676675796509,0.009346150793135166,-0.3706035017967224,0.42591744661331177,0.20160982012748718,0.07305257022380829,0.2584496736526489
9.424774408340454,0.009346150793135166,-0.3706035017967224,0.42591744661331177,0.20160982012748718,0.07305257022380829,0.2584496736526489
9.444899320602417,0.009346150793135166,-0.3706035017967224,0.42591744661331177,0.20160982012748718,0.07305257022380829,0.2584496736526489
9.465014457702637,0.009346150793135166,-0.3706035017967224,0.42591744661331177,0.20160982012748718,0.07305257022380829,0.2584496736526489
9.48507022857666,0.009346150793135166,-0.3706035017967224,0.42591744661331177,0.20160982012748718,0.07305257022380829,0.2584496736526489
9.505126953125,0.009346150793135166,-0.3706035017967224,0.42591744661331177,0.20160982012748718,0.07305257022380829,0.2584496736526489
9.525229930877686,0.009346150793135166,-0.3706035017967224,0.42591744661331177,0.20160982012748718,0.07305257022380829,0.2584496736526489
9.545292615890503,0.009346150793135166,-0.3706035017967224,0.42591744661331177,0.20160982012748718,0.07305257022380829,0.2584496736526489
9.565394878387451,0.009346150793135166,-0.3706035017967224,0.42629891633987427,0.20160982012748718,0.07305257022380829,0.2584496736526489
9.585471153259277,0.009346150793135166,-0.3706035017967224,0.42591744661331177,0.20160982012748718,0.07305257022380829,0.2584496736526489
9.60559630393982,0.009346150793135166,-0.3706035017967224,0.42629891633987427,0.20160982012748718,0.07305257022380829,0.2584496736526489
9.625648975372314,0.009346150793135166,-0.3706035017967224,0.42629891633987427,0.20160982012748718,0.07305257022380829,0.2584496736526489
9.645745038986206,0.009346150793135166,-0.3702220320701599,0.42629891633987427,0.20160982012748718,0.07305257022380829,0.2584496736526489
9.665870428085327,0.009346150793135166,-0.3706035017967224,0.42629891633987427,0.20160982012748718,0.07305257022380829,0.2584496736526489
9.685945510864258,0.009346150793135166,-0.3706035017967224,0.42629891633987427,0.20160982012748718,0.07305257022380829,0.2584496736526489
9.706001996994019,0.009346150793135166,-0.3706035017967224,0.42629891633987427,0.20160982012748718,0.07305257022380829,0.2584496736526489
9.726057767868042,0.009346150793135166,-0.3706035017967224,0.42629891633987427,0.20160982012748718,0.07305257022380829,0.2584496736526489
9.746134042739868,0.009346150793135166,-0.3706035017967224,0.42629891633987427,0.20160982012748718,0.07305257022380829,0.2584496736526489
9.766243696212769,0.009346150793135166,-0.3706035017967224,0.42629891633987427,0.20160982012748718,0.07305257022380829,0.2584496736526489
9.786315679550171,0.009346150793135166,-0.3706035017967224,0.42629891633987427,0.20160982012748718,0.07305257022380829,0.2584496736526489
9.806661128997803,0.009346150793135166,-0.3706035017967224,0.42668038606643677,0.20160982012748718,0.07305257022380829,0.2584496736526489
9.826849699020386,0.009346150793135166,-0.3706035017967224,0.42668038606643677,0.20160982012748718,0.07305257022380829,0.2584496736526489
9.846884965896606,0.009346150793135166,-0.3706035017967224,0.42668038606643677,0.20160982012748718,0.07305257022380829,0.2584496736526489
9.86693024635315,0.009346150793135166,-0.3706035017967224,0.42668038606643677,0.20160982012748718,0.07305257022380829,0.2584496736526489
9.886976957321167,0.009346150793135166,-0.3706035017967224,0.42668038606643677,0.20160982012748718,0.07305257022380829,0.2584496736526489
9.907061576843262,0.009346150793135166,-0.3706035017967224,0.42668038606643677,0.20160982012748718,0.07305257022380829,0.2584496736526489
9.927161931991577,0.009346150793135166,-0.3706035017967224,0.42668038606643677,0.20160982012748718,0.07305257022380829,0.2584496736526489
9.947205781936646,0.009346150793135166,-0.3706035017967224,0.42668038606643677,0.20160982012748718,0.07305257022380829,0.2584496736526489
9.967347145080566,0.009346150793135166,-0.3706035017967224,0.42668038606643677,0.20160982012748718,0.07305257022380829,0.2584496736526489
9.987429857254028,0.009346150793135166,-0.3706035017967224,0.42668038606643677,0.20160982012748718,0.07305257022380829,0.2584496736526489
10.007589101791382,0.009346150793135166,-0.3706035017967224,0.42668038606643677,0.20160982012748718,0.07305257022380829,0.2584496736526489
10.027815580368042,0.009346150793135166,-0.3706035017967224,0.42668038606643677,0.20160982012748718,0.07305257022380829,0.2584496736526489
10.047901153564453,0.009346150793135166,-0.3706035017967224,0.42668038606643677,0.20160982012748718,0.07305257022380829,0.2584496736526489
10.067970037460327,0.009346150793135166,-0.3706035017967224,0.42668038606643677,0.20160982012748718,0.07305257022380829,0.2584496736526489
10.088046789169312,0.009346150793135166,-0.3706035017967224,0.42668038606643677,0.20160982012748718,0.07305257022380829,0.2584496736526489
10.108246326446533,0.009346150793135166,-0.3706035017967224,0.42668038606643677,0.20160982012748718,0.07305257022380829,0.2584496736526489
10.128397226333618,0.009346150793135166,-0.3706035017967224,0.42668038606643677,0.20160982012748718,0.07305257022380829,0.2584496736526489
10.148487567901611,0.009346150793135166,-0.3706035017967224,0.42668038606643677,0.20160982012748718,0.07305257022380829,0.2584496736526489
10.168577671051025,0.009346150793135166,-0.3706035017967224,0.42668038606643677,0.20160982012748718,0.07305257022380829,0.2584496736526489
10.188684463500977,0.009346150793135166,-0.3706035017967224,0.42668038606643677,0.20160982012748718,0.07305257022380829,0.2584496736526489
10.208908796310425,0.009346150793135166,-0.3706035017967224,0.42668038606643677,0.20160982012748718,0.07305257022380829,0.2584496736526489
10.22891879081726,0.009346150793135166,-0.3706035017967224,0.42668038606643677,0.20160982012748718,0.07305257022380829,0.2584496736526489
10.248967170715332,0.009346150793135166,-0.3706035017967224,0.42668038606643677,0.20160982012748718,0.07305257022380829,0.2584496736526489
10.269060611724854,0.009346150793135166,-0.3706035017967224,0.42668038606643677,0.20160982012748718,0.07305257022380829,0.2584496736526489
10.289103269577026,0.009346150793135166,-0.3706035017967224,0.42668038606643677,0.20160982012748718,0.07343403995037079,0.2584496736526489
10.309271335601807,0.009346150793135166,-0.3706035017967224,0.42668038606643677,0.20160982012748718,0.07343403995037079,0.2584496736526489
10.329398393630981,0.009346150793135166,-0.3706035017967224,0.42668038606643677,0.20160982012748718,0.07343403995037079,0.2584496736526489
10.34947657585144,0.009346150793135166,-0.3706035017967224,0.42668038606643677,0.20160982012748718,0.07343403995037079,0.2584496736526489
10.36955189704895,0.009346150793135166,-0.3706035017967224,0.42668038606643677,0.20160982012748718,0.07343403995037079,0.2584496736526489
10.389761447906494,0.009346150793135166,-0.3706035017967224,0.42668038606643677,0.20160982012748718,0.07343403995037079,0.2584496736526489
10.409902095794678,0.009346150793135166,-0.3706035017967224,0.42668038606643677,0.20160982012748718,0.07343403995037079,0.2584496736526489
10.429965734481812,0.009346150793135166,-0.3706035017967224,0.42668038606643677,0.20160982012748718,0.07343403995037079,0.2584496736526489
10.450061321258545,0.009346150793135166,-0.3706035017967224,0.42668038606643677,0.20160982012748718,0.07343403995037079,0.2584496736526489
10.470186948776245,0.009346150793135166,-0.3706035017967224,0.42668038606643677,0.20160982012748718,0.07343403995037079,0.2584496736526489
10.490249395370483,0.009346150793135166,-0.3706035017967224,0.42668038606643677,0.20160982012748718,0.07343403995037079,0.2584496736526489
10.510311841964722,0.009346150793135166,-0.3706035017967224,0.42668038606643677,0.20160982012748718,0.07343403995037079,0.2584496736526489
10.530358076095581,0.009346150793135166,-0.3706035017967224,0.42668038606643677,0.20160982012748718,0.07343403995037079,0.2584496736526489
10.550447225570679,0.009346150793135166,-0.3706035017967224,0.42668038606643677,0.20160982012748718,0.07343403995037079,0.2584496736526489
10.570515632629395,0.009346150793135166,-0.3706035017967224,0.42668038606643677,0.20160982012748718,0.07343403995037079,0.2584496736526489
10.590583562850952,0.009346150793135166,-0.3706035017967224,0.42668038606643677,0.20160982012748718,0.07343403995037079,0.2584496736526489
10.610649347305298,0.009346150793135166,-0.3706035017967224,0.42668038606643677,0.20160982012748718,0.07343403995037079,0.2584496736526489
10.630734205245972,0.009346150793135166,-0.3706035017967224,0.42668038606643677,0.20160982012748718,0.07343403995037079,0.2584496736526489
10.65079379081726,0.009346150793135166,-0.3706035017967224,0.42668038606643677,0.20160982012748718,0.07343403995037079,0.2584496736526489
10.670847415924072,0.009346150793135166,-0.3706035017967224,0.42668038606643677,0.20160982012748718,0.07343403995037079,0.2584496736526489
10.690925359725952,0.009346150793135166,-0.3706035017967224,0.42668038606643677,0.20160982012748718,0.07343403995037079,0.2584496736526489
10.71100640296936,0.009346150793135166,-0.3706035017967224,0.42668038606643677,0.20160982012748718,0.07343403995037079,0.2584496736526489
10.731040954589844,0.009346150793135166,-0.3706035017967224,0.42668038606643677,0.20160982012748718,0.07343403995037079,0.2584496736526489
10.75122594833374,0.009346150793135166,-0.3706035017967224,0.42668038606643677,0.20160982012748718,0.07343403995037079,0.2584496736526489
10.771321773529053,0.009346150793135166,-0.3706035017967224,0.42668038606643677,0.20160982012748718,0.07343403995037079,0.2584496736526489
10.791401863098145,0.009346150793135166,-0.3706035017967224,0.42668038606643677,0.20160982012748718,0.07343403995037079,0.2584496736526489
10.811472415924072,0.009346150793135166,-0.3706035017967224,0.42668038606643677,0.20160982012748718,0.07343403995037079,0.2584496736526489
10.831574440002441,0.009346150793135166,-0.3706035017967224,0.42668038606643677,0.20160982012748718,0.07343403995037079,0.2584496736526489
10.851651906967163,0.009346150793135166,-0.3706035017967224,0.42668038606643677,0.20160982012748718,0.07343403995037079,0.2584496736526489
10.87167763710022,0.009346150793135166,-0.3706035017967224,0.42668038606643677,0.20160982012748718,0.07343403995037079,0.2584496736526489
10.891733169555664,0.009346150793135166,-0.3706035017967224,0.42668038606643677,0.20160982012748718,0.07343403995037079,0.2584496736526489
10.911918640136719,0.009346150793135166,-0.3706035017967224,0.42668038606643677,0.20160982012748718,0.07343403995037079,0.2584496736526489
10.931987047195435,0.009346150793135166,-0.3706035017967224,0.42668038606643677,0.20160982012748718,0.07343403995037079,0.2584496736526489
10.951961994171143,0.009346150793135166,-0.3706035017967224,0.42668038606643677,0.20160982012748718,0.07343403995037079,0.2584496736526489
10.972051620483398,0.009346150793135166,-0.3706035017967224,0.42668038606643677,0.20160982012748718,0.07343403995037079,0.2584496736526489
10.992152214050293,0.009346150793135166,-0.3706035017967224,0.42668038606643677,0.20160982012748718,0.07343403995037079,0.2584496736526489
11.012182712554932,0.009346150793135166,-0.3706035017967224,0.42668038606643677,0.20160982012748718,0.07343403995037079,0.2584496736526489
11.032771587371826,0.009346150793135166,-0.3706035017967224,0.42668038606643677,0.20160982012748718,0.07343403995037079,0.2584496736526489
11.052932262420654,0.009346150793135166,-0.3706035017967224,0.42668038606643677,0.20160982012748718,0.07343403995037079,0.2584496736526489
11.073085308074951,0.009346150793135166,-0.3706035017967224,0.42668038606643677,0.20160982012748718,0.07343403995037079,0.2584496736526489
11.09307312965393,0.009346150793135166,-0.3706035017967224,0.42668038606643677,0.20160982012748718,0.07343403995037079,0.2584496736526489
11.113207340240479,0.009346150793135166,-0.3706035017967224,0.42668038606643677,0.20160982012748718,0.07343403995037079,0.2584496736526489
11.133298635482788,0.009346150793135166,-0.3706035017967224,0.42668038606643677,0.20160982012748718,0.07343403995037079,0.2584496736526489
11.15339183807373,0.009346150793135166,-0.3706035017967224,0.42668038606643677,0.20160982012748718,0.07343403995037079,0.2584496736526489
11.173506736755371,0.009346150793135166,-0.3706035017967224,0.42668038606643677,0.20160982012748718,0.07343403995037079,0.2584496736526489
11.193716049194336,0.009346150793135166,-0.3706035017967224,0.42668038606643677,0.20160982012748718,0.07343403995037079,0.2584496736526489
11.213724851608276,0.009346150793135166,-0.3706035017967224,0.42668038606643677,0.20160982012748718,0.07343403995037079,0.2584496736526489
11.233785152435303,0.009346150793135166,-0.3706035017967224,0.42668038606643677,0.20160982012748718,0.07343403995037079,0.2584496736526489
11.254410743713379,0.009346150793135166,-0.3706035017967224,0.42668038606643677,0.20160982012748718,0.07343403995037079,0.2584496736526489
11.274471044540405,0.009346150793135166,-0.3706035017967224,0.42668038606643677,0.20160982012748718,0.07343403995037079,0.2584496736526489
11.294552564620972,0.009346150793135166,-0.3706035017967224,0.42668038606643677,0.20160982012748718,0.07343403995037079,0.2584496736526489
11.314671039581299,0.009346150793135166,-0.3706035017967224,0.42668038606643677,0.20160982012748718,0.07343403995037079,0.2584496736526489
11.33472204208374,0.009346150793135166,-0.3706035017967224,0.42668038606643677,0.20160982012748718,0.07343403995037079,0.2584496736526489
11.354865074157715,0.009346150793135166,-0.3706035017967224,0.42668038606643677,0.20160982012748718,0.07343403995037079,0.2584496736526489
11.374955177307129,0.009346150793135166,-0.3706035017967224,0.42668038606643677,0.20160982012748718,0.07343403995037079,0.2584496736526489
11.395004034042358,0.009346150793135166,-0.3706035017967224,0.42668038606643677,0.20160982012748718,0.07343403995037079,0.2584496736526489
11.415157079696655,0.009346150793135166,-0.3706035017967224,0.42668038606643677,0.20160982012748718,0.07343403995037079,0.2584496736526489
11.435147047042847,0.009346150793135166,-0.3706035017967224,0.42668038606643677,0.20160982012748718,0.07343403995037079,0.2584496736526489
11.455309629440308,0.009346150793135166,-0.3706035017967224,0.42668038606643677,0.20160982012748718,0.07343403995037079,0.2584496736526489
11.475299835205078,0.009346150793135166,-0.3706035017967224,0.42668038606643677,0.20160982012748718,0.07343403995037079,0.2584496736526489
11.495422124862671,0.009346150793135166,-0.3706035017967224,0.42668038606643677,0.20160982012748718,0.07305257022380829,0.2584496736526489
11.51548981666565,0.009346150793135166,-0.3706035017967224,0.42668038606643677,0.20160982012748718,0.07343403995037079,0.2584496736526489
11.535580396652222,0.009346150793135166,-0.3706035017967224,0.42668038606643677,0.20160982012748718,0.07343403995037079,0.2584496736526489
11.555678844451904,0.009346150793135166,-0.3706035017967224,0.42668038606643677,0.20160982012748718,0.07343403995037079,0.2584496736526489
11.575763940811157,0.009346150793135166,-0.3706035017967224,0.42668038606643677,0.20160982012748718,0.07305257022380829,0.2584496736526489
11.595842838287354,0.009346150793135166,-0.3706035017967224,0.42668038606643677,0.20160982012748718,0.07343403995037079,0.2584496736526489
11.6159086227417,0.009346150793135166,-0.3706035017967224,0.42668038606643677,0.20160982012748718,0.07343403995037079,0.2584496736526489
11.635981321334839,0.009346150793135166,-0.3706035017967224,0.42668038606643677,0.20160982012748718,0.07305257022380829,0.2584496736526489
11.656110763549805,0.009346150793135166,-0.3706035017967224,0.42668038606643677,0.20160982012748718,0.07343403995037079,0.2584496736526489
11.676167488098145,0.009346150793135166,-0.3706035017967224,0.42668038606643677,0.20160982012748718,0.07343403995037079,0.2584496736526489
11.696812629699707,0.009346150793135166,-0.3706035017967224,0.42668038606643677,0.20160982012748718,0.07343403995037079,0.2584496736526489
11.716893672943115,0.009346150793135166,-0.3706035017967224,0.42668038606643677,0.20160982012748718,0.07343403995037079,0.2584496736526489
11.73697805404663,0.009346150793135166,-0.3706035017967224,0.42668038606643677,0.20160982012748718,0.07343403995037079,0.2584496736526489
11.75711727142334,0.009346150793135166,-0.3706035017967224,0.42668038606643677,0.20160982012748718,0.07343403995037079,0.2584496736526489
11.777123212814331,0.009346150793135166,-0.3709849715232849,0.42668038606643677,0.20160982012748718,0.07305257022380829,0.2584496736526489
11.79720950126648,0.009346150793135166,-0.3725108802318573,0.42668038606643677,0.20237277448177338,0.07343403995037079,0.2588311731815338
11.817355871200562,0.009346150793135166,-0.3747997283935547,0.42668038606643677,0.20313572883605957,0.07343403995037079,0.2592126429080963
11.8373863697052,0.009346150793135166,-0.37861448526382446,0.42706188559532166,0.20389868319034576,0.07343403995037079,0.2595941126346588
11.857464075088501,0.009346150793135166,-0.3847180902957916,0.42706188559532166,0.20504310727119446,0.07343403995037079,0.2618829607963562
11.877554178237915,0.009346150793135166,-0.3908216953277588,0.42744335532188416,0.20771344006061554,0.07343403995037079,0.2637903392314911
11.897668600082397,0.009346150793135166,-0.39578089118003845,0.42858776450157166,0.20923933386802673,0.07305257022380829,0.26684215664863586
11.917959451675415,0.009346150793135166,-0.404173344373703,0.42896926403045654,0.21076524257659912,0.07267109304666519,0.26951247453689575
11.93803858757019,0.009346150793135166,-0.41371023654937744,0.43011367321014404,0.21190966665744781,0.07267109304666519,0.27180132269859314
11.958203315734863,0.009346150793135166,-0.4247730076313019,0.43049514293670654,0.2134355753660202,0.0722896158695221,0.2748531401157379
11.97820520401001,0.009346150793135166,-0.4377431869506836,0.43125811219215393,0.2149614691734314,0.0722896158695221,0.2786678969860077
11.998281478881836,0.009346150793135166,-0.4514763057231903,0.43202105164527893,0.21725031733512878,0.0722896158695221,0.2817196846008301
12.01835036277771,0.009346150793135166,-0.46368351578712463,0.4343098998069763,0.21839475631713867,0.0722896158695221,0.28553444147109985
12.038455724716187,0.009346150793135166,-0.4736018776893616,0.4362172782421112,0.21953918039798737,0.0722896158695221,0.28896772861480713
12.058579444885254,0.009346150793135166,-0.4861905872821808,0.4381246566772461,0.22106507420539856,0.071908138692379,0.2904936373233795
12.078752994537354,0.009346150793135166,-0.5014495849609375,0.44079500436782837,0.22220951318740845,0.0722896158695221,0.2931639552116394
12.098886966705322,0.009346150793135166,-0.5159456729888916,0.44384679198265076,0.22335393726825714,0.071908138692379,0.2962157726287842
12.1189706325531,0.009346150793135166,-0.5304417610168457,0.44575417041778564,0.22526131570339203,0.0715266615152359,0.29850462079048157
12.139074563980103,0.009346150793135166,-0.5415045619010925,0.44804301857948303,0.22678720951080322,0.0715266615152359,0.30155640840530396
12.15912652015686,0.009346150793135166,-0.5487525463104248,0.4510948359966278,0.22793163359165192,0.0715266615152359,0.30498969554901123
12.17918348312378,0.009346150793135166,-0.5521858334541321,0.4526207447052002,0.2298390120267868,0.0711451917886734,0.309567391872406
12.199445247650146,0.009346150793135166,-0.5563820600509644,0.4556725323200226,0.23250934481620789,0.0711451917886734,0.31376364827156067
12.21941614151001,0.009346150793135166,-0.5582894682884216,0.45757991075515747,0.23479819297790527,0.0715266615152359,0.31834134459495544
12.239675045013428,0.009346150793135166,-0.5590524077415466,0.46025025844573975,0.23670557141304016,0.0715266615152359,0.3233005404472351
12.259846925735474,0.009346150793135166,-0.5598153471946716,0.46292057633399963,0.23861294984817505,0.071908138692379,0.32673379778862
12.27990174293518,0.009346150793135166,-0.5601968169212341,0.465209424495697,0.24052032828330994,0.071908138692379,0.32978561520576477
12.299948453903198,0.009346150793135166,-0.5609598159790039,0.4663538634777069,0.24242770671844482,0.0715266615152359,0.33436331152915955
12.320029735565186,0.008964675478637218,-0.5617227554321289,0.4671168029308319,0.2447165697813034,0.071908138692379,0.3389410376548767
12.34010624885559,0.008964675478637218,-0.5632486343383789,0.4686427116394043,0.2466239482164383,0.0715266615152359,0.3427557647228241
12.360149621963501,0.008201723918318748,-0.5640115737915039,0.4697871506214142,0.248531311750412,0.0711451917886734,0.34695202112197876
12.380239248275757,0.0078202486038208,-0.5655375123023987,0.4705500900745392,0.25158312916755676,0.0715266615152359,0.35114824771881104
12.400305032730103,0.0078202486038208,-0.5666819214820862,0.4728389382362366,0.25387197732925415,0.0711451917886734,0.3557259440422058
12.42040205001831,0.0078202486038208,-0.5674448609352112,0.47436484694480896,0.25616082549095154,0.07038223743438721,0.3606851398944855
12.440508604049683,0.007057297509163618,-0.5682078003883362,0.47550925612449646,0.2592126429080963,0.07038223743438721,0.36526283621788025
12.46054458618164,0.007057297509163618,-0.5693522691726685,0.47741663455963135,0.2618829607963562,0.07038223743438721,0.3694590628147125
12.48059892654419,0.007057297509163618,-0.570496678352356,0.47894254326820374,0.2634088695049286,0.07000076025724411,0.3744182586669922
12.500686168670654,0.007057297509163618,-0.572022557258606,0.4800869822502136,0.2660791873931885,0.06961929053068161,0.37899595499038696
12.520843267440796,0.007057297509163618,-0.5739299654960632,0.4819943606853485,0.26760509610176086,0.06961929053068161,0.38319218158721924
12.540918111801147,0.007057297509163618,-0.5750743746757507,0.482375830411911,0.27027541399002075,0.06961929053068161,0.3881513774394989
12.560958623886108,0.007057297509163618,-0.5766003131866455,0.4839017391204834,0.27180132269859314,0.06961929053068161,0.39425498247146606
12.581109046936035,0.007057297509163618,-0.578507661819458,0.4861905872821808,0.2748531401157379,0.06923781335353851,0.39883267879486084
12.601136445999146,0.007057297509163618,-0.5796520709991455,0.4877164959907532,0.2771419882774353,0.06923781335353851,0.404173344373703
12.630028486251831,0.007057297509163618,-0.5807965397834778,0.49076828360557556,0.2809567451477051,0.06923781335353851,0.41256579756736755
12.650101661682129,0.007057297509163618,-0.5830853581428528,0.49420157074928284,0.28400853276252747,0.06847485899925232,0.4198138415813446
12.67020297050476,0.007057297509163618,-0.5857557058334351,0.4980163276195526,0.28896772861480713,0.06809338182210922,0.42896926403045654
12.690454244613647,0.007057297509163618,-0.5888075232505798,0.501068115234375,0.2931639552116394,0.06885633617639542,0.4377431869506836
12.710546016693115,0.00667582219466567,-0.5918593406677246,0.5037384629249573,0.2965972423553467,0.06885633617639542,0.44575417041778564
12.730699062347412,0.005912871100008488,-0.5945296287536621,0.506790280342102,0.29850462079048157,0.06885633617639542,0.4507133662700653
12.750732660293579,0.005912871100008488,-0.5968185067176819,0.5079346895217896,0.30079346895217896,0.06847485899925232,0.4560540020465851
12.770790815353394,0.005912871100008488,-0.5987258553504944,0.5094605684280396,0.30308231711387634,0.06809338182210922,0.46177613735198975
12.790911674499512,0.005912871100008488,-0.6010147333145142,0.5113679766654968,0.3057526648044586,0.06809338182210922,0.4674982726573944
12.81095838546753,0.005531395319849253,-0.6021591424942017,0.5121309161186218,0.308041512966156,0.06771191209554672,0.4732204079627991
12.831594944000244,0.00476844422519207,-0.6036850810050964,0.5136567950248718,0.3118562698364258,0.06847485899925232,0.47932401299476624
12.851687669754028,0.004386968910694122,-0.6048294901847839,0.5144197940826416,0.31452658772468567,0.06885633617639542,0.4846646785736084
12.871752500534058,0.004005493130534887,-0.6055924296379089,0.5159456729888916,0.31643396615982056,0.06847485899925232,0.49153125286102295
12.891802549362183,0.004005493130534887,-0.6067368388175964,0.5170900821685791,0.31948578357696533,0.06809338182210922,0.4980163276195526
12.911909580230713,0.004005493130534887,-0.6094071865081787,0.5193789601325989,0.3225375711917877,0.06809338182210922,0.5037384629249573
12.93209981918335,0.004005493130534887,-0.6109330654144287,0.5216678380966187,0.3244449496269226,0.06809338182210922,0.5113679766654968
12.952069282531738,0.004005493130534887,-0.612077534198761,0.5231937170028687,0.3274967670440674,0.06809338182210922,0.5189974904060364
12.972174882888794,0.004005493130534887,-0.613603413105011,0.5247195959091187,0.33054855465888977,0.06847485899925232,0.5262455344200134
12.99224328994751,0.004005493130534887,-0.6158922910690308,0.5270084738731384,0.33398184180259705,0.06885633617639542,0.5327305793762207
13.012292623519897,0.004005493130534887,-0.6174181699752808,0.5277714133262634,0.3370336592197418,0.06923781335353851,0.5395971536636353
13.032398223876953,0.0036240178160369396,-0.619325578212738,0.5296788215637207,0.3412298858165741,0.06923781335353851,0.5483710765838623
13.052483320236206,0.0032425422687083483,-0.622377336025238,0.5323491096496582,0.344663143157959,0.06885633617639542,0.5560005903244019
13.072582244873047,0.0024795911740511656,-0.6242847442626953,0.533875048160553,0.35000380873680115,0.06923781335353851,0.5640115737915039
13.092991352081299,0.0024795911740511656,-0.6254291534423828,0.5357823967933655,0.3545815348625183,0.06961929053068161,0.5731670260429382
13.113179922103882,0.001716639962978661,-0.6273365616798401,0.5376898050308228,0.361066609621048,0.06961929053068161,0.5819409489631653
13.133213758468628,0.001716639962978661,-0.6288624405860901,0.5395971536636353,0.36564430594444275,0.06961929053068161,0.5918593406677246
13.153262853622437,0.001716639962978661,-0.6303883194923401,0.5407415628433228,0.3706035017967224,0.0707637146115303,0.6021591424942017
13.173348426818848,0.0009536888683214784,-0.6319142580032349,0.5422675013542175,0.3755626678466797,0.0715266615152359,0.6116960644721985
13.193532705307007,0.00019073777366429567,-0.6342030763626099,0.5437933802604675,0.37861448526382446,0.071908138692379,0.6219958662986755
13.213481903076172,-0.000572213320992887,-0.6361104846000671,0.5457007884979248,0.38281071186065674,0.07343403995037079,0.6326771974563599
13.233648538589478,-0.0009536888683214784,-0.6380178332328796,0.5472266674041748,0.3873884081840515,0.07495994865894318,0.6433585286140442
13.253779888153076,-0.0013351644156500697,-0.6403067111968994,0.5498970150947571,0.3923476040363312,0.07534141838550568,0.6555657386779785
13.273828983306885,-0.0013351644156500697,-0.6414511203765869,0.5510414242744446,0.39730677008628845,0.07572289556264877,0.6673914790153503
13.294114351272583,-0.0013351644156500697,-0.6425955891609192,0.5521858334541321,0.4022659659385681,0.07648584991693497,0.6799801588058472
13.314241647720337,-0.0020981156267225742,-0.6445029377937317,0.5533303022384644,0.4076066315174103,0.07801175117492676,0.6921873688697815
13.334294080734253,-0.0036240178160369396,-0.6456473469734192,0.5540932416915894,0.41409170627593994,0.08144503086805344,0.7066834568977356
13.354332447052002,-0.0032425422687083483,-0.6460288166999817,0.5537117719650269,0.4205767810344696,0.08449683338403702,0.7196536064147949
13.374438762664795,-0.0036240178160369396,-0.6467918157577515,0.5540932416915894,0.42553597688674927,0.086785688996315,0.732623815536499
13.394582033157349,-0.0036240178160369396,-0.6475547552108765,0.5548561811447144,0.42973220348358154,0.0871671661734581,0.7459754347801208
13.414572954177856,-0.004005493130534887,-0.648699164390564,0.5552376508712769,0.4346913993358612,0.09098191559314728,0.7581826448440552
13.434655666351318,-0.00476844422519207,-0.649462103843689,0.5560005903244019,0.4396505653858185,0.09479667246341705,0.7711527943611145
13.454795360565186,-0.005531395319849253,-0.650225043296814,0.5567635893821716,0.44422826170921326,0.09822995215654373,0.7848859429359436
13.474804639816284,-0.005912871100008488,-0.6513695120811462,0.5571450591087341,0.4488059878349304,0.10013733059167862,0.7970931529998779
13.494877815246582,-0.007057297509163618,-0.6517509818077087,0.5575265288352966,0.4533836841583252,0.1031891331076622,0.8100633025169373
13.515052080154419,-0.0078202486038208,-0.6528953909873962,0.5575265288352966,0.45796138048171997,0.10585946589708328,0.8215075731277466
13.535096645355225,-0.008964675478637218,-0.6536583304405212,0.5575265288352966,0.46139466762542725,0.10814831405878067,0.8329518437385559
13.55521273612976,-0.009727626107633114,-0.6540398001670837,0.5575265288352966,0.4648279547691345,0.10967422276735306,0.8440146446228027
13.575237512588501,-0.010490577667951584,-0.654421329498291,0.5575265288352966,0.4678797721862793,0.11120012402534485,0.8550774455070496
13.595332384109497,-0.011635004542768002,-0.6548027992248535,0.5575265288352966,0.4716945290565491,0.11539635062217712,0.8653773069381714
13.615387439727783,-0.013160906732082367,-0.6555657386779785,0.5575265288352966,0.47398337721824646,0.11959258466959,0.8745326995849609
13.635475635528564,-0.013923857361078262,-0.655947208404541,0.5575265288352966,0.47741663455963135,0.12378881871700287,0.884069561958313
13.655702352523804,-0.014686808921396732,-0.656710147857666,0.5575265288352966,0.4800869822502136,0.12684062123298645,0.8936064839363098
13.67569375038147,-0.015449759550392628,-0.657473087310791,0.5575265288352966,0.4819943606853485,0.12989242374897003,0.9023804068565369
13.695775270462036,-0.016212711110711098,-0.6578545570373535,0.5575265288352966,0.4846646785736084,0.1329442262649536,0.9103913903236389
13.715881824493408,-0.01735713705420494,-0.6578545570373535,0.5575265288352966,0.4877164959907532,0.1348516047000885,0.9187838435173035
13.735913038253784,-0.018120087683200836,-0.6578545570373535,0.5567635893821716,0.48962387442588806,0.13866636157035828,0.9260318875312805
13.756194591522217,-0.018501564860343933,-0.6582360863685608,0.5567635893821716,0.49191272258758545,0.13981078565120697,0.9332799315452576
13.776333093643188,-0.019645990803837776,-0.6582360863685608,0.5563820600509644,0.49420157074928284,0.14209964871406555,0.9405279755592346
13.796360492706299,-0.020027466118335724,-0.6582360863685608,0.5548561811447144,0.4957274794578552,0.14667734503746033,0.9466315507888794
13.816434144973755,-0.021171892061829567,-0.6582360863685608,0.5548561811447144,0.4968718886375427,0.14744029939174652,0.952735185623169
13.836541891098022,-0.02193484455347061,-0.6589990258216858,0.5544747114181519,0.4980163276195526,0.1504921019077301,0.9584572911262512
13.856616020202637,-0.02231631986796856,-0.6589990258216858,0.5548561811447144,0.4987792670726776,0.15316243469715118,0.9649423956871033
13.876770734786987,-0.022697795182466507,-0.6589990258216858,0.5544747114181519,0.50030517578125,0.15468832850456238,0.9706645011901855
13.896868228912354,-0.023460745811462402,-0.6589990258216858,0.5537117719650269,0.5025940537452698,0.15774014592170715,0.9748607873916626
13.917051553726196,-0.024605173617601395,-0.6589990258216858,0.5537117719650269,0.5033569931983948,0.16041046380996704,0.9802014231681824
13.937131881713867,-0.02536812424659729,-0.6589990258216858,0.5521858334541321,0.5045014023780823,0.16079194843769073,0.9851605892181396
13.957193374633789,-0.02536812424659729,-0.6586175560951233,0.5521858334541321,0.5052643418312073,0.16079194843769073,0.9901197552680969
13.977233171463013,-0.025749599561095238,-0.6586175560951233,0.5506599545478821,0.5052643418312073,0.16193637251853943,0.9946975111961365
13.997308254241943,-0.026512550190091133,-0.657473087310791,0.5506599545478821,0.5056458115577698,0.16308079659938812,0.9985122680664062
14.017420291900635,-0.02689402550458908,-0.6570916175842285,0.5495155453681946,0.506027340888977,0.1657511293888092,1.0027084350585938
14.037494897842407,-0.028038453310728073,-0.657473087310791,0.5495155453681946,0.5064088106155396,0.1680399775505066,1.0069047212600708
14.057554721832275,-0.02841992862522602,-0.6570916175842285,0.5479896068572998,0.5079346895217896,0.17223620414733887,1.0103379487991333
14.077620029449463,-0.02880140393972397,-0.656710147857666,0.5476081371307373,0.5086976289749146,0.17223620414733887,1.0149157047271729
14.097790479660034,-0.02880140393972397,-0.656710147857666,0.5460822582244873,0.5094605684280396,0.17338064312934875,1.0183489322662354
14.11821699142456,-0.029564354568719864,-0.656710147857666,0.5464637279510498,0.5086976289749146,0.17261768877506256,1.02216374874115
14.138267755508423,-0.029564354568719864,-0.6563286781311035,0.5457007884979248,0.509079098701477,0.17338064312934875,1.024452567100525
14.158430814743042,-0.03032730519771576,-0.6555657386779785,0.5449378490447998,0.509079098701477,0.17299915850162506,1.0267413854599
14.178460836410522,-0.03032730519771576,-0.6548027992248535,0.5449378490447998,0.5094605684280396,0.17490653693675995,1.0297932624816895
14.198508024215698,-0.030708782374858856,-0.6548027992248535,0.54417484998703,0.5094605684280396,0.17605096101760864,1.033226490020752
14.2186279296875,-0.030708782374858856,-0.654421329498291,0.5430304408073425,0.5106050372123718,0.17872129380702972,1.0355154275894165
14.238691806793213,-0.03185320645570755,-0.654421329498291,0.54264897108078,0.5102235674858093,0.17910276353359222,1.038948655128479
14.258760452270508,-0.03185320645570755,-0.6540398001670837,0.5422675013542175,0.5102235674858093,0.1802472025156021,1.0416189432144165
14.278918743133545,-0.03185320645570755,-0.6536583304405212,0.541886031627655,0.509079098701477,0.17910276353359222,1.044670820236206
14.299022912979126,-0.03185320645570755,-0.6532768607139587,0.5403600931167603,0.5098420977592468,0.1806286722421646,1.046196699142456
14.31904411315918,-0.032616160809993744,-0.6528953909873962,0.54112309217453,0.5098420977592468,0.1825360506772995,1.048485517501831
14.339114665985107,-0.032616160809993744,-0.6525139212608337,0.5399786233901978,0.5106050372123718,0.182917520403862,1.050774335861206
14.359171867370605,-0.03376058489084244,-0.6525139212608337,0.5392156839370728,0.5106050372123718,0.1840619444847107,1.052681803703308
14.379239082336426,-0.03452353551983833,-0.6525139212608337,0.5380712747573853,0.5113679766654968,0.1844434291124344,1.0553520917892456
14.399537801742554,-0.03452353551983833,-0.6521324515342712,0.5376898050308228,0.5106050372123718,0.1836804747581482,1.056496500968933
14.41966700553894,-0.03452353551983833,-0.6517509818077087,0.536926805973053,0.5102235674858093,0.1836804747581482,1.0591669082641602
14.43972635269165,-0.03452353551983833,-0.6513695120811462,0.536163866519928,0.5102235674858093,0.1840619444847107,1.0610742568969727
