liuyurong129/humanoid-gym/humanoid/data/actual_q_20250523-020542.csv
timestamp,joint_1,joint_2,joint_3,joint_4,joint_5,joint_6
0.00017881393432617188,-0.00019073777366429567,0.0024795911740511656,-0.001716639962978661,-0.00019073777366429567,-0.00019073777366429567,-0.00019073777366429567
0.020252227783203125,-0.00019073777366429567,0.001716639962978661,-0.001716639962978661,-0.00019073777366429567,-0.00019073777366429567,-0.00019073777366429567
0.040338993072509766,-0.00019073777366429567,0.001716639962978661,-0.0013351644156500697,-0.00019073777366429567,-0.00019073777366429567,-0.000572213320992887
0.060405731201171875,-0.00019073777366429567,0.001716639962978661,-0.0009536888683214784,-0.00019073777366429567,-0.00019073777366429567,-0.00019073777366429567
0.08048415184020996,-0.00019073777366429567,-0.0013351644156500697,0.0020981156267225742,-0.00019073777366429567,-0.00019073777366429567,-0.00019073777366429567
0.1005239486694336,-0.00019073777366429567,-0.009727626107633114,0.007438773289322853,-0.00019073777366429567,-0.000572213320992887,-0.00019073777366429567
0.12064003944396973,-0.00019073777366429567,-0.021553369238972664,0.013160906732082367,-0.00019073777366429567,0.00019073777366429567,-0.00019073777366429567
0.14071273803710938,0.00019073777366429567,-0.02880140393972397,0.016212711110711098,-0.00019073777366429567,0.00019073777366429567,-0.00019073777366429567
0.16081023216247559,-0.00019073777366429567,-0.03376058489084244,0.016212711110711098,-0.00019073777366429567,-0.00019073777366429567,-0.00019073777366429567
0.1808490753173828,-0.00019073777366429567,-0.03833829239010811,0.015449759550392628,-0.00019073777366429567,-0.000572213320992887,-0.00019073777366429567
0.20105981826782227,0.00019073777366429567,-0.04291599988937378,0.015449759550392628,-0.00019073777366429567,-0.00019073777366429567,-0.00019073777366429567
0.22107982635498047,0.00019073777366429567,-0.04596780240535736,0.01583123579621315,-0.00019073777366429567,-0.000572213320992887,-0.00019073777366429567
0.24111008644104004,0.00019073777366429567,-0.048638131469488144,0.01583123579621315,-0.00019073777366429567,-0.000572213320992887,-0.00019073777366429567
0.2611656188964844,0.0009536888683214784,-0.05092698708176613,0.016975661739706993,-0.00019073777366429567,-0.000572213320992887,-0.00019073777366429567
0.28125810623168945,0.0009536888683214784,-0.05283436179161072,0.01773861236870289,-0.00019073777366429567,-0.00019073777366429567,0.00019073777366429567
0.3013784885406494,0.0009536888683214784,-0.0551232174038887,0.018120087683200836,-0.00019073777366429567,-0.00019073777366429567,-0.00019073777366429567
0.32140231132507324,0.0009536888683214784,-0.05703059583902359,0.018501564860343933,-0.00019073777366429567,-0.00019073777366429567,-0.00019073777366429567
0.3416557312011719,0.0009536888683214784,-0.05970092490315437,0.01888304017484188,-0.00019073777366429567,-0.00019073777366429567,-0.00019073777366429567
0.3616921901702881,0.0009536888683214784,-0.06275273114442825,0.01888304017484188,-0.00019073777366429567,-0.00019073777366429567,-0.00019073777366429567
0.3817265033721924,0.0009536888683214784,-0.06580453366041183,0.01888304017484188,-0.00019073777366429567,-0.00019073777366429567,-0.00019073777366429567
0.40178990364074707,0.0009536888683214784,-0.06847485899925232,0.01926451548933983,-0.00019073777366429567,-0.000572213320992887,-0.00019073777366429567
0.42186951637268066,0.0013351644156500697,-0.07038223743438721,0.019645990803837776,-0.00019073777366429567,-0.000572213320992887,-0.00019073777366429567
0.4420351982116699,0.0013351644156500697,-0.0722896158695221,0.019645990803837776,-0.00019073777366429567,-0.000572213320992887,-0.00019073777366429567
0.46210169792175293,0.0020981156267225742,-0.07381551712751389,0.019645990803837776,-0.00019073777366429567,-0.000572213320992887,-0.00019073777366429567
0.48214173316955566,0.0020981156267225742,-0.07572289556264877,0.020027466118335724,-0.00019073777366429567,-0.00019073777366429567,-0.00019073777366429567
0.5022766590118408,0.0020981156267225742,-0.07763027399778366,0.02040894143283367,-0.00019073777366429567,-0.00019073777366429567,-0.00019073777366429567
0.5223300457000732,0.0020981156267225742,-0.07953765243291855,0.021553369238972664,-0.00019073777366429567,-0.00019073777366429567,0.00019073777366429567
0.5424330234527588,0.0020981156267225742,-0.08335240930318832,0.02193484455347061,-0.00019073777366429567,-0.00019073777366429567,-0.00019073777366429567
0.5625033378601074,0.0020981156267225742,-0.08602273464202881,0.022697795182466507,-0.00019073777366429567,-0.00019073777366429567,0.00019073777366429567
0.582648515701294,0.0020981156267225742,-0.0875486359000206,0.023079270496964455,-0.00019073777366429567,-0.000572213320992887,-0.00019073777366429567
0.6026713848114014,0.0020981156267225742,-0.08983749151229858,0.023079270496964455,-0.00019073777366429567,-0.000572213320992887,0.00019073777366429567
0.6228113174438477,0.0020981156267225742,-0.09288929402828217,0.023079270496964455,-0.00019073777366429567,-0.000572213320992887,0.00019073777366429567
0.6429333686828613,0.0020981156267225742,-0.09708552807569504,0.02384222112596035,-0.00019073777366429567,-0.000572213320992887,0.00019073777366429567
0.6629879474639893,0.0024795911740511656,-0.10090028494596481,0.024223696440458298,-0.00019073777366429567,-0.00019073777366429567,0.00019073777366429567
0.683086633682251,0.0032425422687083483,-0.1035706102848053,0.024986648932099342,-0.00019073777366429567,-0.000572213320992887,0.00019073777366429567
0.7032098770141602,0.0032425422687083483,-0.10585946589708328,0.02536812424659729,-0.00019073777366429567,-0.00019073777366429567,0.00019073777366429567
0.7232711315155029,0.0032425422687083483,-0.10776684433221817,0.026131074875593185,-0.00019073777366429567,-0.00019073777366429567,0.00019073777366429567
0.7434802055358887,0.0032425422687083483,-0.11005569249391556,0.026131074875593185,-0.00019073777366429567,-0.00019073777366429567,0.00019073777366429567
0.7636640071868896,0.0032425422687083483,-0.11348897218704224,0.026512550190091133,-0.00019073777366429567,-0.000572213320992887,0.00019073777366429567
0.783724308013916,0.0032425422687083483,-0.11692225188016891,0.02727550081908703,-0.00019073777366429567,-0.000572213320992887,0.00019073777366429567
0.8038055896759033,0.0032425422687083483,-0.1203555315732956,0.02727550081908703,-0.00019073777366429567,-0.000572213320992887,0.00019073777366429567
0.8238892555236816,0.0032425422687083483,-0.12378881871700287,0.027656977996230125,-0.00019073777366429567,-0.000572213320992887,0.00019073777366429567
0.8439645767211914,0.0032425422687083483,-0.12645913660526276,0.028038453310728073,-0.00019073777366429567,-0.000572213320992887,0.00019073777366429567
0.8640804290771484,0.0032425422687083483,-0.12951095402240753,0.02841992862522602,-0.00019073777366429567,-0.000572213320992887,0.00019073777366429567
0.8841216564178467,0.0036240178160369396,-0.1333257108926773,0.029182879254221916,-0.00019073777366429567,-0.000572213320992887,0.00019073777366429567
0.9042108058929443,0.004005493130534887,-0.1371404528617859,0.02994582988321781,-0.00019073777366429567,-0.000572213320992887,0.00019073777366429567
0.9243206977844238,0.004005493130534887,-0.14171816408634186,0.03032730519771576,-0.00019073777366429567,-0.00019073777366429567,0.00019073777366429567
0.9443924427032471,0.004005493130534887,-0.14515145123004913,0.030708782374858856,-0.00019073777366429567,-0.00019073777366429567,0.00019073777366429567
0.9644579887390137,0.004005493130534887,-0.1489662081003189,0.031090257689356804,-0.00019073777366429567,-0.00019073777366429567,0.00019073777366429567
0.984670877456665,0.004005493130534887,-0.1520180106163025,0.03185320645570755,-0.00019073777366429567,-0.000572213320992887,0.00019073777366429567
1.0046029090881348,0.004005493130534887,-0.15545128285884857,0.03223468363285065,-0.00019073777366429567,-0.000572213320992887,0.00019073777366429567
1.0246634483337402,0.004005493130534887,-0.15926603972911835,0.032616160809993744,0.00019073777366429567,-0.000572213320992887,0.00019073777366429567
1.044783353805542,0.004005493130534887,-0.16346226632595062,0.03337911143898964,-0.00019073777366429567,-0.000572213320992887,0.00019073777366429567
1.0648794174194336,0.004005493130534887,-0.1665140837430954,0.034142062067985535,-0.00019073777366429567,-0.000572213320992887,0.00019073777366429567
1.0849337577819824,0.004005493130534887,-0.1680399775505066,0.034142062067985535,-0.00019073777366429567,-0.00019073777366429567,0.00019073777366429567
1.1052958965301514,0.004386968910694122,-0.17299915850162506,0.03452353551983833,-0.00019073777366429567,-0.000572213320992887,0.00019073777366429567
1.1253950595855713,0.004386968910694122,-0.17795833945274353,0.035667963325977325,0.00019073777366429567,-0.000572213320992887,0.00019073777366429567
1.145592212677002,0.004386968910694122,-0.182917520403862,0.03643091395497322,-0.00019073777366429567,-0.000572213320992887,0.00019073777366429567
1.1656055450439453,0.00476844422519207,-0.18787670135498047,0.037193864583969116,-0.00019073777366429567,-0.000572213320992887,0.000572213320992887
1.1856575012207031,0.005149920005351305,-0.19169145822525024,0.03795681521296501,-0.00019073777366429567,-0.0009536888683214784,0.00019073777366429567
1.2057182788848877,0.005149920005351305,-0.19512474536895752,0.039101243019104004,0.00019073777366429567,-0.000572213320992887,0.00019073777366429567
1.225834608078003,0.005149920005351305,-0.1977950781583786,0.0398641936480999,0.00019073777366429567,-0.000572213320992887,0.00019073777366429567
1.2458784580230713,0.005149920005351305,-0.20084688067436218,0.040627144277095795,0.00019073777366429567,-0.000572213320992887,0.000572213320992887
1.2659690380096436,0.005149920005351305,-0.20580606162548065,0.04100862145423889,0.00019073777366429567,-0.000572213320992887,0.000572213320992887
1.2860779762268066,0.005149920005351305,-0.21114671230316162,0.04177157208323479,0.00019073777366429567,-0.000572213320992887,0.000572213320992887
1.3061249256134033,0.005149920005351305,-0.21686884760856628,0.042153049260377884,0.00019073777366429567,-0.000572213320992887,0.000572213320992887
1.3262708187103271,0.005531395319849253,-0.22373540699481964,0.04329747334122658,0.00019073777366429567,-0.000572213320992887,0.000572213320992887
1.346449375152588,0.005912871100008488,-0.2294575423002243,0.04482337832450867,0.00019073777366429567,-0.0009536888683214784,0.000572213320992887
1.366513967514038,0.006294346414506435,-0.23441672325134277,0.04558632895350456,0.00019073777366429567,-0.0009536888683214784,0.000572213320992887
1.3865232467651367,0.006294346414506435,-0.23937590420246124,0.04634927958250046,0.00019073777366429567,-0.0009536888683214784,0.000572213320992887
1.406611442565918,0.006294346414506435,-0.247768372297287,0.04787518084049225,0.00019073777366429567,-0.000572213320992887,0.000572213320992887
1.426698923110962,0.006294346414506435,-0.2580682039260864,0.04940108209848404,0.00019073777366429567,-0.000572213320992887,0.000572213320992887
1.4467742443084717,0.00667582219466567,-0.26836803555488586,0.05054550990462303,0.00019073777366429567,-0.000572213320992887,0.000572213320992887
1.4668998718261719,0.007438773289322853,-0.2801937758922577,0.051689937710762024,0.00019073777366429567,-0.000572213320992887,0.0009536888683214784
1.4871275424957275,0.007438773289322853,-0.290112167596817,0.05397878959774971,0.00019073777366429567,-0.0009536888683214784,0.0009536888683214784
1.5073494911193848,0.007438773289322853,-0.30079346895217896,0.05703059583902359,0.00019073777366429567,-0.0009536888683214784,0.0009536888683214784
1.5272822380065918,0.007438773289322853,-0.3114747703075409,0.06046387553215027,0.00019073777366429567,-0.0009536888683214784,0.0009536888683214784
1.5474224090576172,0.007438773289322853,-0.3278782367706299,0.06580453366041183,0.00019073777366429567,-0.0009536888683214784,0.0013351644156500697
1.5674405097961426,0.007438773289322853,-0.34962233901023865,0.0722896158695221,0.000572213320992887,-0.0009536888683214784,0.001716639962978661
1.5874974727630615,0.007438773289322853,-0.3717479109764099,0.07801175117492676,0.000572213320992887,-0.000572213320992887,0.0020981156267225742
1.6077618598937988,0.008201723918318748,-0.3908216953277588,0.08602273464202881,0.000572213320992887,-0.001716639962978661,0.002861066721379757
1.6278817653656006,0.00858320016413927,-0.4056992530822754,0.09479667246341705,0.000572213320992887,-0.0024795911740511656,0.0032425422687083483
1.6479296684265137,0.00858320016413927,-0.4201953113079071,0.1024261862039566,0.0009536888683214784,-0.0024795911740511656,0.0036240178160369396
1.6680335998535156,0.009346150793135166,-0.4335469603538513,0.11120012402534485,0.0013351644156500697,-0.0032425422687083483,0.004005493130534887
1.688094139099121,0.009727626107633114,-0.4514763057231903,0.12417028844356537,0.001716639962978661,-0.0032425422687083483,0.004005493130534887
1.7081804275512695,0.010109102353453636,-0.4713130295276642,0.1371404528617859,0.002861066721379757,-0.0032425422687083483,0.004005493130534887
1.728264331817627,0.010490577667951584,-0.49153125286102295,0.1489662081003189,0.004005493130534887,-0.0036240178160369396,0.00476844422519207
1.7483062744140625,0.010490577667951584,-0.5132753252983093,0.16193637251853943,0.004386968910694122,-0.0036240178160369396,0.00476844422519207
1.7684826850891113,0.010109102353453636,-0.533875048160553,0.17719538509845734,0.00476844422519207,-0.0032425422687083483,0.005149920005351305
1.7886486053466797,0.010490577667951584,-0.5521858334541321,0.19283588230609894,0.00476844422519207,-0.0032425422687083483,0.005531395319849253
1.808685302734375,0.010490577667951584,-0.5701152086257935,0.20656901597976685,0.005149920005351305,-0.0036240178160369396,0.00667582219466567
1.8287632465362549,0.010490577667951584,-0.5891889929771423,0.22259098291397095,0.00667582219466567,-0.004005493130534887,0.0078202486038208
1.8488588333129883,0.010872052982449532,-0.6094071865081787,0.24128328263759613,0.007438773289322853,-0.004005493130534887,0.008201723918318748
1.8689420223236084,0.011635004542768002,-0.6292439103126526,0.2584496736526489,0.0078202486038208,-0.004005493130534887,0.008201723918318748
1.8890256881713867,0.011635004542768002,-0.6490806341171265,0.273708701133728,0.0078202486038208,-0.004005493130534887,0.00858320016413927
1.9090561866760254,0.011635004542768002,-0.6704432964324951,0.2912565767765045,0.008201723918318748,-0.004386968910694122,0.008964675478637218
1.929152488708496,0.01201647985726595,-0.6898985505104065,0.3076600432395935,0.00858320016413927,-0.004386968910694122,0.009346150793135166
1.9492347240447998,0.012397955171763897,-0.7066834568977356,0.32101166248321533,0.008964675478637218,-0.004386968910694122,0.009727626107633114
1.9692883491516113,0.012397955171763897,-0.7223239541053772,0.3412298858165741,0.010109102353453636,-0.005912871100008488,0.01125352829694748
1.9893510341644287,0.012397955171763897,-0.7410162687301636,0.3572518527507782,0.01125352829694748,-0.006294346414506435,0.01201647985726595
2.0094289779663086,0.012779430486261845,-0.7608529925346375,0.3767071068286896,0.01201647985726595,-0.005912871100008488,0.012397955171763897
2.029496669769287,0.012779430486261845,-0.7814526557922363,0.3927290737628937,0.012397955171763897,-0.00667582219466567,0.013160906732082367
2.0495500564575195,0.012779430486261845,-0.8012893795967102,0.41180285811424255,0.013542382046580315,-0.00667582219466567,0.01430533267557621
2.0697367191314697,0.012397955171763897,-0.8237964510917664,0.4346913993358612,0.01506828423589468,-0.00667582219466567,0.015449759550392628
2.089823007583618,0.012779430486261845,-0.8436331748962402,0.45643550157546997,0.01583123579621315,-0.00667582219466567,0.01583123579621315
2.1099190711975098,0.013542382046580315,-0.8615625500679016,0.4808499217033386,0.016212711110711098,-0.00667582219466567,0.016975661739706993
2.1299870014190674,0.014686808921396732,-0.883306622505188,0.5079346895217896,0.016975661739706993,-0.0078202486038208,0.018501564860343933
2.1500494480133057,0.014686808921396732,-0.9035248160362244,0.5331120491027832,0.01888304017484188,-0.0078202486038208,0.01926451548933983
2.1701412200927734,0.01506828423589468,-0.9218356609344482,0.5556191205978394,0.019645990803837776,-0.0078202486038208,0.020027466118335724
2.1902387142181396,0.01506828423589468,-0.9382390975952148,0.578507661819458,0.02193484455347061,-0.007438773289322853,0.021171892061829567
2.2103021144866943,0.015449759550392628,-0.9554055333137512,0.5998703241348267,0.023460745811462402,-0.007438773289322853,0.022697795182466507
2.2306969165802,0.01583123579621315,-0.9729533791542053,0.6227588057518005,0.024605173617601395,-0.0078202486038208,0.023079270496964455
2.2508046627044678,0.01583123579621315,-0.9882124066352844,0.6452658772468567,0.026131074875593185,-0.007438773289322853,0.023460745811462402
2.270897626876831,0.01583123579621315,-1.0000381469726562,0.6658655405044556,0.02689402550458908,-0.007438773289322853,0.02384222112596035
2.2909440994262695,0.015449759550392628,-1.0114823579788208,0.6898985505104065,0.02727550081908703,-0.007438773289322853,0.024986648932099342
2.311030626296997,0.01583123579621315,-1.022926688194275,0.7146944403648376,0.02880140393972397,-0.007438773289322853,0.026131074875593185
2.3310952186584473,0.01583123579621315,-1.0320820808410645,0.7383459210395813,0.031090257689356804,-0.007438773289322853,0.02689402550458908
2.3511757850646973,0.01583123579621315,-1.042763352394104,0.761997401714325,0.03299763426184654,-0.007438773289322853,0.02727550081908703
2.371222972869873,0.01583123579621315,-1.056496500968933,0.7902265787124634,0.03452353551983833,-0.007438773289322853,0.028038453310728073
2.39131236076355,0.01583123579621315,-1.0698481798171997,0.812352180480957,0.03528648987412453,-0.007057297509163618,0.029182879254221916
2.4114365577697754,0.01583123579621315,-1.0828183889389038,0.8333333134651184,0.03681239113211632,-0.007438773289322853,0.03032730519771576
2.4314937591552734,0.01583123579621315,-1.0965514183044434,0.8516441583633423,0.03795681521296501,-0.007057297509163618,0.031090257689356804
2.451584577560425,0.01583123579621315,-1.110666036605835,0.8722438216209412,0.0394827201962471,-0.007057297509163618,0.03147173300385475
2.4717702865600586,0.01583123579621315,-1.124399185180664,0.89131760597229,0.04139009863138199,-0.007057297509163618,0.03337911143898964
2.4919016361236572,0.01583123579621315,-1.1350804567337036,0.9069581031799316,0.04253452271223068,-0.00667582219466567,0.034142062067985535
2.511867046356201,0.015449759550392628,-1.1415655612945557,0.9206912517547607,0.04406042397022247,-0.00667582219466567,0.03490501269698143
2.531967878341675,0.015449759550392628,-1.1449989080429077,0.9336614012718201,0.045204851776361465,-0.005912871100008488,0.035667963325977325
2.55202579498291,0.015449759550392628,-1.1449989080429077,0.9435797929763794,0.04596780240535736,-0.006294346414506435,0.03681239113211632
2.5720932483673096,0.015449759550392628,-1.1438543796539307,0.9508277773857117,0.046730753034353256,-0.006294346414506435,0.03757534176111221
2.5921666622161865,0.015449759550392628,-1.1430914402008057,0.9576943516731262,0.04940108209848404,-0.005912871100008488,0.03795681521296501
2.6123294830322266,0.014686808921396732,-1.1419470310211182,0.9641794562339783,0.05130846053361893,-0.005149920005351305,0.038719769567251205
2.6324431896209717,0.01430533267557621,-1.1411840915679932,0.967231273651123,0.05245288833975792,-0.004005493130534887,0.0398641936480999
2.652449131011963,0.013923857361078262,-1.1411840915679932,0.9683756828308105,0.053215838968753815,-0.002861066721379757,0.04177157208323479
2.6724934577941895,0.013542382046580315,-1.1411840915679932,0.968757152557373,0.05359731614589691,-0.002861066721379757,0.042153049260377884
2.692643880844116,0.013160906732082367,-1.1411840915679932,0.968757152557373,0.05436026677489281,-0.002861066721379757,0.04253452271223068
2.7126753330230713,0.013160906732082367,-1.1411840915679932,0.968757152557373,0.054741740226745605,-0.002861066721379757,0.04291599988937378
2.732743740081787,0.012397955171763897,-1.1408026218414307,0.968757152557373,0.0558861680328846,-0.002861066721379757,0.043678950518369675
2.7528674602508545,0.012397955171763897,-1.1400396823883057,0.9691386222839355,0.05664911866188049,-0.0020981156267225742,0.04482337832450867
2.772913932800293,0.01201647985726595,-1.1388952732086182,0.9691386222839355,0.05703059583902359,-0.0020981156267225742,0.045204851776361465
2.7930784225463867,0.01201647985726595,-1.1377508640289307,0.9691386222839355,0.05703059583902359,-0.0024795911740511656,0.045204851776361465
2.813161849975586,0.011635004542768002,-1.1373693943023682,0.9691386222839355,0.05703059583902359,-0.0020981156267225742,0.045204851776361465
2.8331878185272217,0.01125352829694748,-1.1358433961868286,0.9691386222839355,0.05741206929087639,-0.001716639962978661,0.045204851776361465
2.853250026702881,0.011635004542768002,-1.1354619264602661,0.9691386222839355,0.05741206929087639,-0.0020981156267225742,0.045204851776361465
2.873478889465332,0.011635004542768002,-1.1350804567337036,0.9691386222839355,0.057793546468019485,-0.001716639962978661,0.045204851776361465
2.89349627494812,0.01125352829694748,-1.1346989870071411,0.9691386222839355,0.058175019919872284,-0.0013351644156500697,0.045204851776361465
2.9136013984680176,0.01125352829694748,-1.1343175172805786,0.9691386222839355,0.05855649709701538,-0.0013351644156500697,0.04558632895350456
2.9336469173431396,0.01125352829694748,-1.1343175172805786,0.9691386222839355,0.05855649709701538,-0.0013351644156500697,0.04558632895350456
2.9537222385406494,0.01125352829694748,-1.1339360475540161,0.9691386222839355,0.05893797054886818,-0.0013351644156500697,0.04558632895350456
2.9737930297851562,0.01125352829694748,-1.1331731081008911,0.9691386222839355,0.05893797054886818,-0.0013351644156500697,0.04558632895350456
2.993915557861328,0.01125352829694748,-1.1327916383743286,0.9691386222839355,0.05893797054886818,-0.0013351644156500697,0.04558632895350456
3.013979196548462,0.01125352829694748,-1.1327916383743286,0.9691386222839355,0.05893797054886818,-0.0013351644156500697,0.04558632895350456
3.034080982208252,0.01125352829694748,-1.1324101686477661,0.9691386222839355,0.059319447726011276,-0.0013351644156500697,0.04558632895350456
3.0541841983795166,0.01125352829694748,-1.1324101686477661,0.9691386222839355,0.059319447726011276,-0.0013351644156500697,0.04558632895350456
3.0742740631103516,0.01125352829694748,-1.1320286989212036,0.9691386222839355,0.059319447726011276,-0.0013351644156500697,0.04558632895350456
3.0943493843078613,0.010872052982449532,-1.1316472291946411,0.9691386222839355,0.059319447726011276,-0.0013351644156500697,0.04558632895350456
3.1145095825195312,0.010490577667951584,-1.1308842897415161,0.9691386222839355,0.059319447726011276,-0.0009536888683214784,0.04558632895350456
3.1345741748809814,0.010490577667951584,-1.1305028200149536,0.9691386222839355,0.059319447726011276,-0.000572213320992887,0.04558632895350456
3.1547346115112305,0.010490577667951584,-1.1297398805618286,0.9691386222839355,0.059319447726011276,-0.0009536888683214784,0.04558632895350456
3.174827814102173,0.010490577667951584,-1.1293584108352661,0.9691386222839355,0.05970092490315437,-0.0013351644156500697,0.04558632895350456
3.194934844970703,0.010109102353453636,-1.1289769411087036,0.9691386222839355,0.05970092490315437,-0.0009536888683214784,0.04558632895350456
3.2149698734283447,0.010109102353453636,-1.1289769411087036,0.9691386222839355,0.05970092490315437,-0.0009536888683214784,0.04558632895350456
3.2350707054138184,0.010109102353453636,-1.1285953521728516,0.9691386222839355,0.05970092490315437,-0.0009536888683214784,0.04558632895350456
3.2551262378692627,0.010109102353453636,-1.128213882446289,0.9691386222839355,0.05970092490315437,-0.0009536888683214784,0.04558632895350456
3.275191307067871,0.010109102353453636,-1.1278324127197266,0.9691386222839355,0.05970092490315437,-0.000572213320992887,0.04558632895350456
3.2952511310577393,0.010109102353453636,-1.127450942993164,0.9691386222839355,0.05970092490315437,-0.000572213320992887,0.04558632895350456
3.315384864807129,0.010109102353453636,-1.1270694732666016,0.9691386222839355,0.05970092490315437,-0.0009536888683214784,0.04558632895350456
3.3354218006134033,0.010109102353453636,-1.1263065338134766,0.9691386222839355,0.05970092490315437,-0.0009536888683214784,0.04558632895350456
3.3554999828338623,0.010109102353453636,-1.1263065338134766,0.9691386222839355,0.05970092490315437,-0.0009536888683214784,0.04558632895350456
3.3756184577941895,0.009727626107633114,-1.1255435943603516,0.9691386222839355,0.05970092490315437,-0.0009536888683214784,0.04558632895350456
3.395695209503174,0.009346150793135166,-1.1247806549072266,0.9691386222839355,0.05970092490315437,-0.0009536888683214784,0.04558632895350456
3.415825605392456,0.009346150793135166,-1.124399185180664,0.9691386222839355,0.05970092490315437,-0.0009536888683214784,0.04558632895350456
3.4358503818511963,0.009346150793135166,-1.124399185180664,0.9691386222839355,0.05970092490315437,-0.0009536888683214784,0.04558632895350456
3.4559357166290283,0.009346150793135166,-1.123636245727539,0.9691386222839355,0.05970092490315437,-0.0009536888683214784,0.04558632895350456
3.4761998653411865,0.009346150793135166,-1.1232547760009766,0.9691386222839355,0.05970092490315437,-0.0009536888683214784,0.04558632895350456
3.496154546737671,0.009346150793135166,-1.1232547760009766,0.9691386222839355,0.05970092490315437,-0.0009536888683214784,0.04558632895350456
3.516235828399658,0.009346150793135166,-1.122873306274414,0.9691386222839355,0.05970092490315437,-0.0009536888683214784,0.04558632895350456
3.536341428756714,0.009346150793135166,-1.122110366821289,0.9691386222839355,0.05970092490315437,-0.0009536888683214784,0.04558632895350456
3.556445837020874,0.009346150793135166,-1.1217288970947266,0.9691386222839355,0.05970092490315437,-0.0009536888683214784,0.04558632895350456
3.5765411853790283,0.009346150793135166,-1.1217288970947266,0.9691386222839355,0.06008239835500717,-0.0009536888683214784,0.04558632895350456
3.5967018604278564,0.008964675478637218,-1.120965838432312,0.9691386222839355,0.05970092490315437,-0.0009536888683214784,0.04558632895350456
3.6167147159576416,0.008964675478637218,-1.1205843687057495,0.9691386222839355,0.06008239835500717,-0.0009536888683214784,0.04558632895350456
3.6368298530578613,0.008964675478637218,-1.120202898979187,0.9691386222839355,0.06008239835500717,-0.0009536888683214784,0.04558632895350456
3.6569137573242188,0.00858320016413927,-1.120202898979187,0.9691386222839355,0.06008239835500717,-0.0009536888683214784,0.04558632895350456
3.677096128463745,0.008201723918318748,-1.1198214292526245,0.9691386222839355,0.06008239835500717,-0.000572213320992887,0.04558632895350456
3.697089672088623,0.008201723918318748,-1.119439959526062,0.9691386222839355,0.06008239835500717,-0.000572213320992887,0.04558632895350456
3.7176432609558105,0.008201723918318748,-1.1190584897994995,0.9691386222839355,0.06008239835500717,-0.0013351644156500697,0.04558632895350456
3.737766981124878,0.008201723918318748,-1.118677020072937,0.9691386222839355,0.06008239835500717,-0.0013351644156500697,0.04558632895350456
3.7578580379486084,0.008201723918318748,-1.1182955503463745,0.9691386222839355,0.06008239835500717,-0.0013351644156500697,0.04558632895350456
3.7778995037078857,0.008201723918318748,-1.117914080619812,0.9691386222839355,0.06008239835500717,-0.0013351644156500697,0.04558632895350456
3.7979629039764404,0.008201723918318748,-1.117914080619812,0.9691386222839355,0.06008239835500717,-0.0009536888683214784,0.04558632895350456
3.81815505027771,0.008201723918318748,-1.117914080619812,0.9691386222839355,0.06008239835500717,-0.0009536888683214784,0.04558632895350456
3.838200330734253,0.008201723918318748,-1.117151141166687,0.9691386222839355,0.06008239835500717,-0.0009536888683214784,0.04558632895350456
3.8582358360290527,0.008201723918318748,-1.1167696714401245,0.9691386222839355,0.06008239835500717,-0.0009536888683214784,0.04558632895350456
3.878359317779541,0.008201723918318748,-1.116388201713562,0.9691386222839355,0.06008239835500717,-0.0009536888683214784,0.04558632895350456
3.898470878601074,0.0078202486038208,-1.1160067319869995,0.9691386222839355,0.06008239835500717,-0.0009536888683214784,0.04558632895350456
3.918543815612793,0.0078202486038208,-1.1152437925338745,0.9691386222839355,0.06008239835500717,-0.0009536888683214784,0.04558632895350456
3.9386394023895264,0.007438773289322853,-1.114862322807312,0.9691386222839355,0.06008239835500717,-0.0009536888683214784,0.04558632895350456
3.9587063789367676,0.007438773289322853,-1.114862322807312,0.9691386222839355,0.06008239835500717,-0.0009536888683214784,0.04558632895350456
3.9788005352020264,0.007438773289322853,-1.1144808530807495,0.9691386222839355,0.06008239835500717,-0.0009536888683214784,0.04558632895350456
3.9988670349121094,0.007438773289322853,-1.114099383354187,0.9691386222839355,0.06046387553215027,-0.0013351644156500697,0.04558632895350456
4.0189292430877686,0.007057297509163618,-1.1137179136276245,0.9691386222839355,0.06008239835500717,-0.0013351644156500697,0.04558632895350456
4.038984298706055,0.007057297509163618,-1.113336443901062,0.9691386222839355,0.06046387553215027,-0.0013351644156500697,0.04558632895350456
4.059086799621582,0.007057297509163618,-1.1125733852386475,0.9691386222839355,0.06046387553215027,-0.0013351644156500697,0.04558632895350456
4.079159259796143,0.007057297509163618,-1.112191915512085,0.9691386222839355,0.06046387553215027,-0.0013351644156500697,0.04558632895350456
4.099205255508423,0.007057297509163618,-1.112191915512085,0.9691386222839355,0.06046387553215027,-0.0009536888683214784,0.04558632895350456
4.119292259216309,0.007057297509163618,-1.1118104457855225,0.9691386222839355,0.06046387553215027,-0.0009536888683214784,0.04558632895350456
4.139441251754761,0.007057297509163618,-1.11142897605896,0.9691386222839355,0.06046387553215027,-0.0009536888683214784,0.04558632895350456
4.159523248672485,0.007057297509163618,-1.11142897605896,0.9691386222839355,0.06046387553215027,-0.0009536888683214784,0.04558632895350456
4.1795525550842285,0.007057297509163618,-1.110666036605835,0.9691386222839355,0.06046387553215027,-0.0009536888683214784,0.04558632895350456
4.199639558792114,0.007057297509163618,-1.1102845668792725,0.9691386222839355,0.06046387553215027,-0.0013351644156500697,0.04558632895350456
4.219694137573242,0.007057297509163618,-1.1095216274261475,0.9691386222839355,0.06046387553215027,-0.0009536888683214784,0.04558632895350456
4.239778995513916,0.007057297509163618,-1.109140157699585,0.9691386222839355,0.06046387553215027,-0.0009536888683214784,0.04558632895350456
4.259872913360596,0.007057297509163618,-1.10837721824646,0.9691386222839355,0.06046387553215027,-0.0009536888683214784,0.04558632895350456
4.27995753288269,0.007057297509163618,-1.1079957485198975,0.9691386222839355,0.06084534898400307,-0.0009536888683214784,0.04558632895350456
4.300029993057251,0.00667582219466567,-1.107614278793335,0.9691386222839355,0.06084534898400307,-0.0009536888683214784,0.04558632895350456
4.320183038711548,0.00667582219466567,-1.1072328090667725,0.9691386222839355,0.06084534898400307,-0.0009536888683214784,0.04558632895350456
4.340678691864014,0.006294346414506435,-1.1072328090667725,0.9691386222839355,0.06084534898400307,-0.0009536888683214784,0.04558632895350456
4.360860824584961,0.006294346414506435,-1.1064698696136475,0.9691386222839355,0.06084534898400307,-0.0009536888683214784,0.04558632895350456
4.380893707275391,0.005912871100008488,-1.106088399887085,0.9691386222839355,0.06084534898400307,-0.0013351644156500697,0.04558632895350456
4.4009315967559814,0.005912871100008488,-1.1057069301605225,0.9691386222839355,0.06084534898400307,-0.0013351644156500697,0.04558632895350456
4.421403884887695,0.005912871100008488,-1.1053253412246704,0.9691386222839355,0.06084534898400307,-0.0013351644156500697,0.04558632895350456
4.441601276397705,0.005912871100008488,-1.104943871498108,0.9691386222839355,0.06084534898400307,-0.0013351644156500697,0.04558632895350456
4.461616516113281,0.005912871100008488,-1.104180932044983,0.9691386222839355,0.061226826161146164,-0.0013351644156500697,0.04558632895350456
4.481670379638672,0.005912871100008488,-1.104180932044983,0.9691386222839355,0.06084534898400307,-0.0013351644156500697,0.04558632895350456
4.501747369766235,0.005912871100008488,-1.1037994623184204,0.9691386222839355,0.061226826161146164,-0.0009536888683214784,0.04558632895350456
4.521838903427124,0.005912871100008488,-1.103417992591858,0.9691386222839355,0.061226826161146164,-0.0009536888683214784,0.04558632895350456
4.54198956489563,0.005912871100008488,-1.1030365228652954,0.9691386222839355,0.061226826161146164,-0.0009536888683214784,0.04558632895350456
4.5619728565216064,0.005912871100008488,-1.1030365228652954,0.9691386222839355,0.061226826161146164,-0.0009536888683214784,0.04558632895350456
4.582149982452393,0.005531395319849253,-1.1030365228652954,0.9691386222839355,0.061226826161146164,-0.0009536888683214784,0.04558632895350456
4.602200031280518,0.005149920005351305,-1.1022735834121704,0.968757152557373,0.061226826161146164,-0.0009536888683214784,0.04558632895350456
4.622260808944702,0.005149920005351305,-1.101892113685608,0.968757152557373,0.06160829961299896,-0.0013351644156500697,0.04558632895350456
4.642325401306152,0.005149920005351305,-1.101892113685608,0.9691386222839355,0.06160829961299896,-0.0013351644156500697,0.04558632895350456
4.6624181270599365,0.005149920005351305,-1.101129174232483,0.968757152557373,0.06198977679014206,-0.0013351644156500697,0.04558632895350456
4.682569742202759,0.005149920005351305,-1.1007477045059204,0.9691386222839355,0.06237125024199486,-0.0013351644156500697,0.04558632895350456
4.702611207962036,0.005149920005351305,-1.100366234779358,0.968757152557373,0.06237125024199486,-0.0013351644156500697,0.04558632895350456
4.7232794761657715,0.005149920005351305,-1.0999847650527954,0.968757152557373,0.06275273114442825,-0.0013351644156500697,0.04558632895350456
4.743471145629883,0.005149920005351305,-1.099603295326233,0.968757152557373,0.06313420087099075,-0.0013351644156500697,0.04558632895350456
4.763660192489624,0.005149920005351305,-1.0992218255996704,0.9691386222839355,0.06313420087099075,-0.0009536888683214784,0.04558632895350456
4.783854246139526,0.00476844422519207,-1.098840355873108,0.968757152557373,0.06313420087099075,-0.0009536888683214784,0.04558632895350456
4.803967714309692,0.00476844422519207,-1.098077416419983,0.968757152557373,0.06313420087099075,-0.0009536888683214784,0.04558632895350456
4.824077844619751,0.00476844422519207,-1.0976959466934204,0.968757152557373,0.06313420087099075,-0.0013351644156500697,0.04558632895350456
4.8441736698150635,0.00476844422519207,-1.0973143577575684,0.968757152557373,0.06351567804813385,-0.0013351644156500697,0.04558632895350456
4.864238977432251,0.004386968910694122,-1.0969328880310059,0.968757152557373,0.06351567804813385,-0.0013351644156500697,0.04558632895350456
4.884294033050537,0.004005493130534887,-1.0969328880310059,0.968757152557373,0.06351567804813385,-0.0009536888683214784,0.04558632895350456
4.904374837875366,0.004005493130534887,-1.0965514183044434,0.9683756828308105,0.06351567804813385,-0.0009536888683214784,0.04558632895350456
4.924451112747192,0.004005493130534887,-1.0961699485778809,0.9683756828308105,0.06351567804813385,-0.0013351644156500697,0.04558632895350456
4.944528818130493,0.004005493130534887,-1.0957884788513184,0.9683756828308105,0.06351567804813385,-0.001716639962978661,0.04558632895350456
4.96474814414978,0.004005493130534887,-1.0954070091247559,0.9683756828308105,0.06389715522527695,-0.001716639962978661,0.04558632895350456
4.984760284423828,0.004005493130534887,-1.0954070091247559,0.9683756828308105,0.06389715522527695,-0.0013351644156500697,0.04558632895350456
5.005099534988403,0.004005493130534887,-1.0946440696716309,0.9683756828308105,0.06389715522527695,-0.0013351644156500697,0.04558632895350456
5.025178670883179,0.004005493130534887,-1.0938811302185059,0.9683756828308105,0.06389715522527695,-0.0013351644156500697,0.04558632895350456
5.045283794403076,0.004005493130534887,-1.0934996604919434,0.9683756828308105,0.06389715522527695,-0.0013351644156500697,0.04558632895350456
5.065321445465088,0.004005493130534887,-1.0927367210388184,0.9683756828308105,0.06389715522527695,-0.0013351644156500697,0.04558632895350456
5.085399389266968,0.004005493130534887,-1.0919737815856934,0.9683756828308105,0.06389715522527695,-0.0013351644156500697,0.04558632895350456
5.105467796325684,0.0036240178160369396,-1.0912108421325684,0.9683756828308105,0.06389715522527695,-0.0013351644156500697,0.04558632895350456
5.125535488128662,0.0036240178160369396,-1.0908293724060059,0.9683756828308105,0.06427863240242004,-0.0013351644156500697,0.04558632895350456
5.145649194717407,0.0036240178160369396,-1.0908293724060059,0.9683756828308105,0.06427863240242004,-0.0013351644156500697,0.04558632895350456
5.165696144104004,0.0032425422687083483,-1.0908293724060059,0.9683756828308105,0.06427863240242004,-0.0013351644156500697,0.04558632895350456
5.1857590675354,0.0032425422687083483,-1.0900664329528809,0.9683756828308105,0.06427863240242004,-0.0013351644156500697,0.04558632895350456
5.205822706222534,0.002861066721379757,-1.0896848440170288,0.9683756828308105,0.06427863240242004,-0.001716639962978661,0.04558632895350456
5.225909471511841,0.002861066721379757,-1.0893033742904663,0.9683756828308105,0.06427863240242004,-0.001716639962978661,0.04558632895350456
5.246047258377075,0.002861066721379757,-1.0885404348373413,0.9683756828308105,0.06427863240242004,-0.001716639962978661,0.04558632895350456
5.266089200973511,0.002861066721379757,-1.0885404348373413,0.9683756828308105,0.06427863240242004,-0.001716639962978661,0.04558632895350456
5.2861528396606445,0.002861066721379757,-1.0881589651107788,0.9683756828308105,0.06466010212898254,-0.001716639962978661,0.04558632895350456
5.306230306625366,0.002861066721379757,-1.0877774953842163,0.9683756828308105,0.06466010212898254,-0.0013351644156500697,0.04558632895350456
5.326336622238159,0.002861066721379757,-1.0873960256576538,0.9683756828308105,0.06466010212898254,-0.001716639962978661,0.04558632895350456
5.346391201019287,0.002861066721379757,-1.0870145559310913,0.9683756828308105,0.06466010212898254,-0.0013351644156500697,0.04558632895350456
5.366503953933716,0.002861066721379757,-1.0866330862045288,0.9683756828308105,0.06466010212898254,-0.0013351644156500697,0.04558632895350456
5.386570692062378,0.002861066721379757,-1.0862516164779663,0.9683756828308105,0.06466010212898254,-0.0013351644156500697,0.04558632895350456
5.406644105911255,0.002861066721379757,-1.0854886770248413,0.9683756828308105,0.06504157930612564,-0.0013351644156500697,0.04558632895350456
5.42671799659729,0.002861066721379757,-1.0854886770248413,0.9683756828308105,0.06504157930612564,-0.001716639962978661,0.04558632895350456
5.447297096252441,0.0024795911740511656,-1.0851072072982788,0.9683756828308105,0.06504157930612564,-0.001716639962978661,0.04558632895350456
5.467526912689209,0.0024795911740511656,-1.0847257375717163,0.9683756828308105,0.06542305648326874,-0.001716639962978661,0.04558632895350456
5.487574577331543,0.0024795911740511656,-1.0843442678451538,0.9683756828308105,0.06542305648326874,-0.001716639962978661,0.04558632895350456
5.5076985359191895,0.0020981156267225742,-1.0839627981185913,0.9683756828308105,0.06580453366041183,-0.0013351644156500697,0.04558632895350456
5.527822494506836,0.0020981156267225742,-1.0835813283920288,0.967994213104248,0.06618601083755493,-0.0013351644156500697,0.04558632895350456
5.547999858856201,0.0020981156267225742,-1.0828183889389038,0.9683756828308105,0.06656748056411743,-0.001716639962978661,0.04558632895350456
5.568021059036255,0.001716639962978661,-1.0824369192123413,0.9683756828308105,0.06694895774126053,-0.001716639962978661,0.04558632895350456
5.588067054748535,0.001716639962978661,-1.0820554494857788,0.9683756828308105,0.06694895774126053,-0.001716639962978661,0.04558632895350456
5.608175992965698,0.001716639962978661,-1.0816738605499268,0.967994213104248,0.06694895774126053,-0.0020981156267225742,0.04558632895350456
5.62828254699707,0.001716639962978661,-1.0812923908233643,0.9683756828308105,0.06694895774126053,-0.001716639962978661,0.04558632895350456
5.648423194885254,0.001716639962978661,-1.0809109210968018,0.967994213104248,0.06694895774126053,-0.001716639962978661,0.04558632895350456
5.668459415435791,0.001716639962978661,-1.0805294513702393,0.9683756828308105,0.06733043491840363,-0.001716639962978661,0.04558632895350456
5.688572406768799,0.001716639962978661,-1.0801479816436768,0.967994213104248,0.06694895774126053,-0.001716639962978661,0.04558632895350456
5.708611011505127,0.001716639962978661,-1.0801479816436768,0.9683756828308105,0.06694895774126053,-0.001716639962978661,0.04558632895350456
5.728663206100464,0.001716639962978661,-1.0793850421905518,0.9683756828308105,0.06694895774126053,-0.001716639962978661,0.04558632895350456
5.7487571239471436,0.0013351644156500697,-1.0790035724639893,0.967994213104248,0.06733043491840363,-0.001716639962978661,0.04558632895350456
5.768830299377441,0.0009536888683214784,-1.0782406330108643,0.967994213104248,0.06733043491840363,-0.001716639962978661,0.04558632895350456
5.788904428482056,0.0009536888683214784,-1.0778591632843018,0.9683756828308105,0.06694895774126053,-0.001716639962978661,0.04558632895350456
5.8089518547058105,0.0009536888683214784,-1.0770962238311768,0.9683756828308105,0.06733043491840363,-0.001716639962978661,0.04558632895350456
5.829185962677002,0.0009536888683214784,-1.0767147541046143,0.967994213104248,0.06733043491840363,-0.0020981156267225742,0.04558632895350456
5.849200963973999,0.0009536888683214784,-1.0763332843780518,0.967994213104248,0.06733043491840363,-0.0020981156267225742,0.04558632895350456
5.869274616241455,0.0009536888683214784,-1.0755703449249268,0.967994213104248,0.06733043491840363,-0.0020981156267225742,0.04558632895350456
5.889303684234619,0.000572213320992887,-1.0751888751983643,0.967994213104248,0.06733043491840363,-0.0020981156267225742,0.04558632895350456
5.9093945026397705,0.000572213320992887,-1.0744259357452393,0.967994213104248,0.06733043491840363,-0.001716639962978661,0.04558632895350456
5.929463624954224,0.000572213320992887,-1.0740443468093872,0.967994213104248,0.06733043491840363,-0.001716639962978661,0.04558632895350456
5.949528932571411,0.000572213320992887,-1.0740443468093872,0.967994213104248,0.06733043491840363,-0.001716639962978661,0.04558632895350456
5.9696056842803955,0.000572213320992887,-1.0740443468093872,0.967994213104248,0.06733043491840363,-0.001716639962978661,0.04558632895350456
5.989672660827637,0.000572213320992887,-1.0732814073562622,0.967994213104248,0.06733043491840363,-0.001716639962978661,0.04558632895350456
6.009738922119141,-0.00019073777366429567,-1.0728999376296997,0.967994213104248,0.06771191209554672,-0.001716639962978661,0.04558632895350456
6.029785394668579,-0.00019073777366429567,-1.0725184679031372,0.967994213104248,0.06771191209554672,-0.001716639962978661,0.04558632895350456
6.049870729446411,-0.00019073777366429567,-1.0721369981765747,0.967994213104248,0.06771191209554672,-0.0020981156267225742,0.04558632895350456
6.069988012313843,-0.00019073777366429567,-1.0713740587234497,0.967994213104248,0.06771191209554672,-0.0020981156267225742,0.04558632895350456
6.090035915374756,-0.00019073777366429567,-1.0709925889968872,0.967994213104248,0.06771191209554672,-0.0024795911740511656,0.04558632895350456
6.110130310058594,-0.00019073777366429567,-1.0709925889968872,0.967994213104248,0.06771191209554672,-0.0020981156267225742,0.04558632895350456
6.130322456359863,-0.00019073777366429567,-1.0702296495437622,0.967994213104248,0.06771191209554672,-0.001716639962978661,0.04558632895350456
6.150381326675415,-0.00019073777366429567,-1.0702296495437622,0.967994213104248,0.06771191209554672,-0.001716639962978661,0.04558632895350456
6.1705543994903564,-0.00019073777366429567,-1.0698481798171997,0.967994213104248,0.06771191209554672,-0.001716639962978661,0.04558632895350456
6.190635681152344,-0.00019073777366429567,-1.0690852403640747,0.967994213104248,0.06771191209554672,-0.001716639962978661,0.04558632895350456
6.210775852203369,-0.00019073777366429567,-1.0687037706375122,0.967994213104248,0.06771191209554672,-0.0020981156267225742,0.04558632895350456
6.230827808380127,-0.000572213320992887,-1.0683223009109497,0.967994213104248,0.06771191209554672,-0.0020981156267225742,0.04558632895350456
6.251015901565552,-0.000572213320992887,-1.0679408311843872,0.967994213104248,0.06771191209554672,-0.0020981156267225742,0.04558632895350456
6.271139621734619,-0.000572213320992887,-1.0671778917312622,0.967994213104248,0.06809338182210922,-0.0020981156267225742,0.04558632895350456
6.2911529541015625,-0.000572213320992887,-1.0671778917312622,0.9676127433776855,0.06809338182210922,-0.0020981156267225742,0.04558632895350456
6.311201095581055,-0.000572213320992887,-1.0667964220046997,0.967231273651123,0.06809338182210922,-0.001716639962978661,0.04558632895350456
6.331294775009155,-0.000572213320992887,-1.0664149522781372,0.967231273651123,0.06809338182210922,-0.001716639962978661,0.04558632895350456
6.3513593673706055,-0.000572213320992887,-1.0660333633422852,0.967231273651123,0.06809338182210922,-0.001716639962978661,0.04558632895350456
6.371412754058838,-0.0009536888683214784,-1.0660333633422852,0.967231273651123,0.06809338182210922,-0.001716639962978661,0.04558632895350456
6.391714572906494,-0.0009536888683214784,-1.0656518936157227,0.967231273651123,0.06809338182210922,-0.001716639962978661,0.04558632895350456
6.411839485168457,-0.0013351644156500697,-1.0648889541625977,0.967231273651123,0.06809338182210922,-0.0020981156267225742,0.04558632895350456
6.431964874267578,-0.0013351644156500697,-1.0645074844360352,0.967231273651123,0.06847485899925232,-0.0024795911740511656,0.04558632895350456
6.4520423412323,-0.0013351644156500697,-1.0641260147094727,0.967231273651123,0.06809338182210922,-0.0020981156267225742,0.04558632895350456
6.4722068309783936,-0.0013351644156500697,-1.0637445449829102,0.967231273651123,0.06847485899925232,-0.0020981156267225742,0.04558632895350456
6.49236536026001,-0.0013351644156500697,-1.0637445449829102,0.967231273651123,0.06847485899925232,-0.0020981156267225742,0.04558632895350456
6.512942790985107,-0.0013351644156500697,-1.0629816055297852,0.967231273651123,0.06847485899925232,-0.0020981156267225742,0.04558632895350456
6.533035755157471,-0.0013351644156500697,-1.0622186660766602,0.967231273651123,0.06847485899925232,-0.001716639962978661,0.04558632895350456
6.553220510482788,-0.0013351644156500697,-1.0618371963500977,0.967231273651123,0.06847485899925232,-0.001716639962978661,0.04558632895350456
6.573214530944824,-0.0013351644156500697,-1.0610742568969727,0.967231273651123,0.06847485899925232,-0.001716639962978661,0.04558632895350456
6.5933310985565186,-0.0013351644156500697,-1.0603113174438477,0.967231273651123,0.06885633617639542,-0.0020981156267225742,0.04558632895350456
6.6133763790130615,-0.001716639962978661,-1.0599298477172852,0.967231273651123,0.06885633617639542,-0.0020981156267225742,0.04558632895350456
6.6334686279296875,-0.0024795911740511656,-1.0595483779907227,0.967231273651123,0.06885633617639542,-0.001716639962978661,0.04558632895350456
6.653536319732666,-0.0024795911740511656,-1.0595483779907227,0.967231273651123,0.06885633617639542,-0.001716639962978661,0.04558632895350456
6.673681974411011,-0.0024795911740511656,-1.0591669082641602,0.9668498039245605,0.06885633617639542,-0.0024795911740511656,0.04558632895350456
6.6937949657440186,-0.0024795911740511656,-1.0584038496017456,0.9668498039245605,0.06923781335353851,-0.0024795911740511656,0.04558632895350456
6.7138447761535645,-0.0024795911740511656,-1.058022379875183,0.9668498039245605,0.06923781335353851,-0.0020981156267225742,0.04558632895350456
6.733932018280029,-0.0024795911740511656,-1.0576409101486206,0.9668498039245605,0.06923781335353851,-0.0020981156267225742,0.04558632895350456
6.754047155380249,-0.0024795911740511656,-1.0568779706954956,0.9668498039245605,0.06923781335353851,-0.0020981156267225742,0.04558632895350456
6.774177551269531,-0.0024795911740511656,-1.056496500968933,0.9668498039245605,0.06961929053068161,-0.0020981156267225742,0.04558632895350456
6.794177293777466,-0.0024795911740511656,-1.056496500968933,0.9668498039245605,0.07000076025724411,-0.0020981156267225742,0.04558632895350456
6.814286231994629,-0.0024795911740511656,-1.0561150312423706,0.9668498039245605,0.07000076025724411,-0.0020981156267225742,0.04558632895350456
6.834413528442383,-0.0024795911740511656,-1.055733561515808,0.9668498039245605,0.07038223743438721,-0.0020981156267225742,0.04558632895350456
6.854425668716431,-0.002861066721379757,-1.054970622062683,0.9668498039245605,0.07038223743438721,-0.0020981156267225742,0.04558632895350456
6.87458348274231,-0.0032425422687083483,-1.054207682609558,0.9668498039245605,0.0707637146115303,-0.0020981156267225742,0.04558632895350456
6.894643068313599,-0.0032425422687083483,-1.0538262128829956,0.9668498039245605,0.0707637146115303,-0.0020981156267225742,0.04558632895350456
6.91470193862915,-0.0032425422687083483,-1.0538262128829956,0.9668498039245605,0.0707637146115303,-0.0020981156267225742,0.04558632895350456
6.934741258621216,-0.0032425422687083483,-1.053444743156433,0.9668498039245605,0.0707637146115303,-0.0020981156267225742,0.04558632895350456
6.954828500747681,-0.0032425422687083483,-1.052681803703308,0.9668498039245605,0.0707637146115303,-0.0024795911740511656,0.04558632895350456
6.974917650222778,-0.0032425422687083483,-1.052681803703308,0.9668498039245605,0.0707637146115303,-0.0024795911740511656,0.04558632895350456
6.994962453842163,-0.0032425422687083483,-1.052681803703308,0.9668498039245605,0.0707637146115303,-0.0020981156267225742,0.04558632895350456
7.015080690383911,-0.0032425422687083483,-1.051918864250183,0.9668498039245605,0.0707637146115303,-0.0020981156267225742,0.04558632895350456
7.035125970840454,-0.0032425422687083483,-1.0515373945236206,0.9668498039245605,0.0711451917886734,-0.0020981156267225742,0.04558632895350456
7.055220603942871,-0.0032425422687083483,-1.0515373945236206,0.9668498039245605,0.0711451917886734,-0.0020981156267225742,0.04558632895350456
7.075257301330566,-0.0032425422687083483,-1.050774335861206,0.9668498039245605,0.0711451917886734,-0.0020981156267225742,0.04558632895350456
7.0953452587127686,-0.0032425422687083483,-1.050011396408081,0.9664682745933533,0.0711451917886734,-0.0024795911740511656,0.04558632895350456
7.115405797958374,-0.0036240178160369396,-1.0496299266815186,0.9660868048667908,0.0711451917886734,-0.0024795911740511656,0.04558632895350456
7.135453701019287,-0.0036240178160369396,-1.0496299266815186,0.9660868048667908,0.0711451917886734,-0.0020981156267225742,0.04558632895350456
7.1555562019348145,-0.0036240178160369396,-1.0488669872283936,0.9660868048667908,0.0711451917886734,-0.0020981156267225742,0.04558632895350456
7.175626277923584,-0.0036240178160369396,-1.048485517501831,0.9660868048667908,0.0711451917886734,-0.0020981156267225742,0.04558632895350456
7.19568943977356,-0.0036240178160369396,-1.0481040477752686,0.9660868048667908,0.0711451917886734,-0.0020981156267225742,0.04558632895350456
7.215786695480347,-0.0036240178160369396,-1.047722578048706,0.9660868048667908,0.0715266615152359,-0.0020981156267225742,0.04558632895350456
7.235943078994751,-0.0036240178160369396,-1.0473411083221436,0.9660868048667908,0.0715266615152359,-0.0020981156267225742,0.04558632895350456
7.256023406982422,-0.004005493130534887,-1.046959638595581,0.9660868048667908,0.0715266615152359,-0.0020981156267225742,0.04558632895350456
7.276041746139526,-0.004386968910694122,-1.0465781688690186,0.9660868048667908,0.0715266615152359,-0.001716639962978661,0.04558632895350456
7.296082973480225,-0.004386968910694122,-1.046196699142456,0.9660868048667908,0.0715266615152359,-0.0020981156267225742,0.04558632895350456
7.316189765930176,-0.004386968910694122,-1.0458152294158936,0.9660868048667908,0.0715266615152359,-0.0024795911740511656,0.04558632895350456
7.336309194564819,-0.004386968910694122,-1.0450522899627686,0.9660868048667908,0.0715266615152359,-0.0024795911740511656,0.04558632895350456
7.356341361999512,-0.004386968910694122,-1.044670820236206,0.9660868048667908,0.0715266615152359,-0.0024795911740511656,0.04558632895350456
7.376399755477905,-0.004386968910694122,-1.043907880783081,0.9660868048667908,0.0715266615152359,-0.0024795911740511656,0.04558632895350456
7.3964924812316895,-0.004386968910694122,-1.0435264110565186,0.9660868048667908,0.0715266615152359,-0.0020981156267225742,0.04558632895350456
7.416591167449951,-0.004386968910694122,-1.043144941329956,0.9660868048667908,0.0715266615152359,-0.0020981156267225742,0.04558632895350456
7.436641693115234,-0.004386968910694122,-1.0423818826675415,0.9660868048667908,0.0715266615152359,-0.001716639962978661,0.04558632895350456
7.4566967487335205,-0.00476844422519207,-1.042000412940979,0.9660868048667908,0.0715266615152359,-0.0020981156267225742,0.04558632895350456
7.476756572723389,-0.004386968910694122,-1.0416189432144165,0.9660868048667908,0.071908138692379,-0.0020981156267225742,0.04558632895350456
7.4968225955963135,-0.00476844422519207,-1.041237473487854,0.9660868048667908,0.071908138692379,-0.0020981156267225742,0.04558632895350456
7.51690673828125,-0.00476844422519207,-1.0408560037612915,0.9660868048667908,0.071908138692379,-0.0020981156267225742,0.04558632895350456
7.537123680114746,-0.00476844422519207,-1.040474534034729,0.9660868048667908,0.071908138692379,-0.0020981156267225742,0.04558632895350456
7.557180166244507,-0.005149920005351305,-1.039711594581604,0.9657053351402283,0.071908138692379,-0.0020981156267225742,0.04558632895350456
7.577288389205933,-0.005149920005351305,-1.0393301248550415,0.9657053351402283,0.071908138692379,-0.0020981156267225742,0.04558632895350456
7.597514867782593,-0.005149920005351305,-1.0393301248550415,0.9657053351402283,0.071908138692379,-0.0020981156267225742,0.04558632895350456
7.617626428604126,-0.005149920005351305,-1.0385671854019165,0.9657053351402283,0.0722896158695221,-0.0020981156267225742,0.04558632895350456
7.637686252593994,-0.005149920005351305,-1.038185715675354,0.9657053351402283,0.071908138692379,-0.0020981156267225742,0.04558632895350456
7.6578733921051025,-0.005531395319849253,-1.0378042459487915,0.9649423956871033,0.0722896158695221,-0.0020981156267225742,0.04558632895350456
7.677858829498291,-0.005531395319849253,-1.037422776222229,0.9649423956871033,0.0722896158695221,-0.0020981156267225742,0.04558632895350456
7.697991132736206,-0.005531395319849253,-1.0370413064956665,0.9649423956871033,0.07267109304666519,-0.0020981156267225742,0.04558632895350456
7.718008279800415,-0.005531395319849253,-1.0370413064956665,0.9649423956871033,0.07267109304666519,-0.0020981156267225742,0.04558632895350456
7.738357782363892,-0.005531395319849253,-1.0362783670425415,0.9649423956871033,0.07305257022380829,-0.0020981156267225742,0.04558632895350456
7.758475065231323,-0.005531395319849253,-1.0355154275894165,0.9649423956871033,0.07305257022380829,-0.0020981156267225742,0.04558632895350456
7.778653144836426,-0.005531395319849253,-1.0351338386535645,0.9649423956871033,0.07343403995037079,-0.0020981156267225742,0.04558632895350456
7.798658847808838,-0.005531395319849253,-1.034752368927002,0.9649423956871033,0.07419699430465698,-0.0020981156267225742,0.04558632895350456
7.818936824798584,-0.005531395319849253,-1.0343708992004395,0.9649423956871033,0.07457847148180008,-0.0020981156267225742,0.04558632895350456
7.839026927947998,-0.005531395319849253,-1.033989429473877,0.9649423956871033,0.07495994865894318,-0.0024795911740511656,0.04558632895350456
7.859130859375,-0.005531395319849253,-1.0336079597473145,0.9649423956871033,0.07495994865894318,-0.0020981156267225742,0.04558632895350456
7.879147529602051,-0.005912871100008488,-1.033226490020752,0.9649423956871033,0.07495994865894318,-0.0020981156267225742,0.04558632895350456
7.899232864379883,-0.005912871100008488,-1.0328450202941895,0.9649423956871033,0.07495994865894318,-0.0020981156267225742,0.04558632895350456
7.9193501472473145,-0.00667582219466567,-1.0320820808410645,0.9649423956871033,0.07495994865894318,-0.0020981156267225742,0.04558632895350456
7.939388275146484,-0.00667582219466567,-1.031700611114502,0.9649423956871033,0.07495994865894318,-0.001716639962978661,0.04558632895350456
7.959473609924316,-0.00667582219466567,-1.030937671661377,0.9649423956871033,0.07534141838550568,-0.0020981156267225742,0.04558632895350456
7.9795613288879395,-0.00667582219466567,-1.030937671661377,0.9645609259605408,0.07534141838550568,-0.0024795911740511656,0.04558632895350456
7.99962854385376,-0.007057297509163618,-1.0305562019348145,0.9645609259605408,0.07534141838550568,-0.0024795911740511656,0.04558632895350456
8.019674062728882,-0.007438773289322853,-1.0297932624816895,0.9645609259605408,0.07534141838550568,-0.0020981156267225742,0.04558632895350456
8.03994369506836,-0.007438773289322853,-1.029411792755127,0.9645609259605408,0.07534141838550568,-0.0024795911740511656,0.04558632895350456
8.060028791427612,-0.007438773289322853,-1.028648853302002,0.9645609259605408,0.07534141838550568,-0.0024795911740511656,0.04558632895350456
8.080098152160645,-0.007438773289322853,-1.0282673835754395,0.9645609259605408,0.07534141838550568,-0.0020981156267225742,0.04558632895350456
8.100157499313354,-0.007438773289322853,-1.0275044441223145,0.9645609259605408,0.07534141838550568,-0.0020981156267225742,0.04558632895350456
8.120225429534912,-0.007438773289322853,-1.0271228551864624,0.9645609259605408,0.07534141838550568,-0.0020981156267225742,0.04558632895350456
8.14039921760559,-0.007438773289322853,-1.0263599157333374,0.9645609259605408,0.07534141838550568,-0.0020981156267225742,0.04558632895350456
8.160449028015137,-0.007438773289322853,-1.0263599157333374,0.9641794562339783,0.07534141838550568,-0.0020981156267225742,0.04558632895350456
8.180497169494629,-0.007438773289322853,-1.0255969762802124,0.9641794562339783,0.07534141838550568,-0.0020981156267225742,0.04558632895350456
8.200608730316162,-0.007438773289322853,-1.0248340368270874,0.9641794562339783,0.07534141838550568,-0.0020981156267225742,0.04558632895350456
8.22074294090271,-0.007438773289322853,-1.024452567100525,0.9641794562339783,0.07534141838550568,-0.0020981156267225742,0.04558632895350456
8.241145372390747,-0.007438773289322853,-1.0240710973739624,0.9641794562339783,0.07534141838550568,-0.0020981156267225742,0.04558632895350456
8.261224031448364,-0.007438773289322853,-1.0233081579208374,0.9641794562339783,0.07572289556264877,-0.0020981156267225742,0.04558632895350456
8.281351804733276,-0.0078202486038208,-1.022926688194275,0.9641794562339783,0.07572289556264877,-0.0020981156267225742,0.04558632895350456
8.3013596534729,-0.0078202486038208,-1.022926688194275,0.9641794562339783,0.07572289556264877,-0.0020981156267225742,0.04558632895350456
8.321445226669312,-0.0078202486038208,-1.0225452184677124,0.9641794562339783,0.07572289556264877,-0.0020981156267225742,0.04558632895350456
8.34151840209961,-0.0078202486038208,-1.0217822790145874,0.9641794562339783,0.07572289556264877,-0.0020981156267225742,0.04558632895350456
8.361631155014038,-0.0078202486038208,-1.021400809288025,0.9641794562339783,0.07572289556264877,-0.0020981156267225742,0.04558632895350456
8.381672382354736,-0.0078202486038208,-1.0210193395614624,0.9641794562339783,0.07610437273979187,-0.0020981156267225742,0.04558632895350456
8.401762008666992,-0.008201723918318748,-1.0202564001083374,0.9641794562339783,0.07610437273979187,-0.0020981156267225742,0.04558632895350456
8.421863555908203,-0.00858320016413927,-1.019874930381775,0.9641794562339783,0.07610437273979187,-0.001716639962978661,0.04558632895350456
8.441889524459839,-0.00858320016413927,-1.0194933414459229,0.9641794562339783,0.07610437273979187,-0.001716639962978661,0.04558632895350456
8.461990118026733,-0.00858320016413927,-1.0187304019927979,0.9637979865074158,0.07610437273979187,-0.0024795911740511656,0.04558632895350456
8.482066631317139,-0.00858320016413927,-1.0183489322662354,0.9637979865074158,0.07648584991693497,-0.0024795911740511656,0.04558632895350456
8.502196550369263,-0.00858320016413927,-1.0179674625396729,0.9637979865074158,0.07648584991693497,-0.0020981156267225742,0.04558632895350456
8.522327899932861,-0.008964675478637218,-1.0172045230865479,0.9637979865074158,0.07648584991693497,-0.0020981156267225742,0.04558632895350456
8.542418479919434,-0.008964675478637218,-1.0164415836334229,0.9637979865074158,0.07648584991693497,-0.0020981156267225742,0.04558632895350456
8.562494277954102,-0.008964675478637218,-1.0160601139068604,0.9637979865074158,0.07686731964349747,-0.0020981156267225742,0.04558632895350456
8.582582473754883,-0.008964675478637218,-1.0160601139068604,0.9637979865074158,0.07686731964349747,-0.001716639962978661,0.04558632895350456
8.602644205093384,-0.008964675478637218,-1.0156786441802979,0.9637979865074158,0.07724879682064056,-0.001716639962978661,0.04558632895350456
8.622735261917114,-0.009346150793135166,-1.0149157047271729,0.9637979865074158,0.07724879682064056,-0.0020981156267225742,0.04558632895350456
8.642812252044678,-0.009727626107633114,-1.0149157047271729,0.9637979865074158,0.07763027399778366,-0.0020981156267225742,0.04558632895350456
8.66286587715149,-0.009727626107633114,-1.0141527652740479,0.9637979865074158,0.07801175117492676,-0.0020981156267225742,0.04558632895350456
8.683008193969727,-0.009727626107633114,-1.0137712955474854,0.9637979865074158,0.07801175117492676,-0.0024795911740511656,0.04558632895350456
8.703057289123535,-0.009727626107633114,-1.0126268863677979,0.9637979865074158,0.07801175117492676,-0.0024795911740511656,0.04558632895350456
8.72318410873413,-0.009727626107633114,-1.0118639469146729,0.9637979865074158,0.07801175117492676,-0.0020981156267225742,0.04558632895350456
8.743427276611328,-0.009727626107633114,-1.0111008882522583,0.9637979865074158,0.07801175117492676,-0.0020981156267225742,0.04558632895350456
8.76359510421753,-0.009727626107633114,-1.0103379487991333,0.9637979865074158,0.07839322835206985,-0.0020981156267225742,0.04558632895350456
8.783639192581177,-0.009727626107633114,-1.0095750093460083,0.9637979865074158,0.07839322835206985,-0.0020981156267225742,0.04558632895350456
8.803730726242065,-0.009727626107633114,-1.0095750093460083,0.9634165167808533,0.07839322835206985,-0.0020981156267225742,0.04558632895350456
8.82378602027893,-0.009727626107633114,-1.0091935396194458,0.9630350470542908,0.07839322835206985,-0.0020981156267225742,0.04558632895350456
8.84385085105896,-0.010109102353453636,-1.0084306001663208,0.9626535177230835,0.07839322835206985,-0.0024795911740511656,0.04558632895350456
8.863937854766846,-0.010109102353453636,-1.0084306001663208,0.9626535177230835,0.07839322835206985,-0.0024795911740511656,0.04558632895350456
8.884101867675781,-0.010109102353453636,-1.0080491304397583,0.9626535177230835,0.07839322835206985,-0.0024795911740511656,0.04558632895350456
8.904142618179321,-0.010490577667951584,-1.0072861909866333,0.9626535177230835,0.07839322835206985,-0.0020981156267225742,0.04558632895350456
8.924192905426025,-0.010490577667951584,-1.0065232515335083,0.9626535177230835,0.07839322835206985,-0.0020981156267225742,0.04558632895350456
8.944272756576538,-0.010872052982449532,-1.0057603120803833,0.9626535177230835,0.07877469807863235,-0.0020981156267225742,0.04558632895350456
8.964484214782715,-0.010872052982449532,-1.0049973726272583,0.9626535177230835,0.07877469807863235,-0.0020981156267225742,0.04558632895350456
8.984503746032715,-0.010872052982449532,-1.0042344331741333,0.9626535177230835,0.07877469807863235,-0.0020981156267225742,0.04558632895350456
9.004546880722046,-0.010872052982449532,-1.0038528442382812,0.9626535177230835,0.07877469807863235,-0.0020981156267225742,0.04558632895350456
9.024694919586182,-0.010872052982449532,-1.0038528442382812,0.9626535177230835,0.07877469807863235,-0.0020981156267225742,0.04596780240535736
9.044767141342163,-0.010872052982449532,-1.0030899047851562,0.962272047996521,0.07877469807863235,-0.0020981156267225742,0.04596780240535736
9.06482219696045,-0.010872052982449532,-1.0023269653320312,0.9618905782699585,0.07877469807863235,-0.0020981156267225742,0.04596780240535736
9.085367441177368,-0.010872052982449532,-1.0019454956054688,0.9618905782699585,0.07877469807863235,-0.0020981156267225742,0.04558632895350456
9.105466604232788,-0.010872052982449532,-1.0015640258789062,0.9618905782699585,0.07877469807863235,-0.0020981156267225742,0.04596780240535736
9.12553334236145,-0.01125352829694748,-1.0004196166992188,0.9618905782699585,0.07915617525577545,-0.0020981156267225742,0.04596780240535736
9.145689487457275,-0.011635004542768002,-1.0000381469726562,0.9618905782699585,0.07915617525577545,-0.0020981156267225742,0.04596780240535736
9.16596007347107,-0.011635004542768002,-0.9996566772460938,0.9618905782699585,0.07915617525577545,-0.0020981156267225742,0.04596780240535736
9.186140298843384,-0.011635004542768002,-0.9988937377929688,0.9618905782699585,0.07915617525577545,-0.0020981156267225742,0.04596780240535736
9.206162691116333,-0.01201647985726595,-0.9981307983398438,0.9618905782699585,0.07915617525577545,-0.0024795911740511656,0.04596780240535736
9.226223230361938,-0.01201647985726595,-0.9977492690086365,0.9618905782699585,0.07915617525577545,-0.0024795911740511656,0.04596780240535736
9.2463059425354,-0.01201647985726595,-0.997367799282074,0.9618905782699585,0.07915617525577545,-0.0024795911740511656,0.04596780240535736
9.266403436660767,-0.01201647985726595,-0.9962233901023865,0.9618905782699585,0.07915617525577545,-0.0020981156267225742,0.04596780240535736
9.28649640083313,-0.01201647985726595,-0.9954604506492615,0.9618905782699585,0.07915617525577545,-0.0020981156267225742,0.04596780240535736
9.306537866592407,-0.01201647985726595,-0.9946975111961365,0.9618905782699585,0.07915617525577545,-0.0020981156267225742,0.04596780240535736
9.326729774475098,-0.012397955171763897,-0.9935530424118042,0.9618905782699585,0.07953765243291855,-0.0020981156267225742,0.04596780240535736
9.346747636795044,-0.012779430486261845,-0.9935530424118042,0.9618905782699585,0.07953765243291855,-0.0020981156267225742,0.04596780240535736
9.367227792739868,-0.012779430486261845,-0.9931715726852417,0.9618905782699585,0.07953765243291855,-0.0020981156267225742,0.04596780240535736
9.387289047241211,-0.012779430486261845,-0.9924086332321167,0.9618905782699585,0.07953765243291855,-0.0024795911740511656,0.04596780240535736
9.407356262207031,-0.012779430486261845,-0.9916456937789917,0.9618905782699585,0.07991912961006165,-0.0024795911740511656,0.04596780240535736
9.427446126937866,-0.012779430486261845,-0.9912642240524292,0.961509108543396,0.07991912961006165,-0.0024795911740511656,0.04596780240535736
9.447648763656616,-0.012779430486261845,-0.9908827543258667,0.961509108543396,0.08030059933662415,-0.0024795911740511656,0.04596780240535736
9.467708826065063,-0.012779430486261845,-0.9901197552680969,0.961509108543396,0.08030059933662415,-0.0020981156267225742,0.04634927958250046
9.487816095352173,-0.012779430486261845,-0.9893568158149719,0.961509108543396,0.08068207651376724,-0.0020981156267225742,0.04596780240535736
9.507883310317993,-0.012779430486261845,-0.9893568158149719,0.961509108543396,0.08068207651376724,-0.0020981156267225742,0.04634927958250046
9.52803087234497,-0.012779430486261845,-0.9889753460884094,0.9611276388168335,0.08106355369091034,-0.0020981156267225742,0.04634927958250046
9.548112869262695,-0.013160906732082367,-0.9878309369087219,0.960746169090271,0.08144503086805344,-0.0024795911740511656,0.04634927958250046
9.568175554275513,-0.013160906732082367,-0.9874494671821594,0.960746169090271,0.08144503086805344,-0.0024795911740511656,0.04634927958250046
9.588423728942871,-0.013923857361078262,-0.9870679974555969,0.960746169090271,0.08182650804519653,-0.0024795911740511656,0.04634927958250046
9.608539342880249,-0.013923857361078262,-0.9863049983978271,0.960746169090271,0.08182650804519653,-0.0020981156267225742,0.04634927958250046
9.628726720809937,-0.013923857361078262,-0.9855420589447021,0.960746169090271,0.08220797777175903,-0.0024795911740511656,0.046730753034353256
9.648732662200928,-0.013923857361078262,-0.9851605892181396,0.960746169090271,0.08220797777175903,-0.0024795911740511656,0.046730753034353256
9.668882846832275,-0.013923857361078262,-0.9843976497650146,0.960746169090271,0.08220797777175903,-0.0024795911740511656,0.046730753034353256
9.688920736312866,-0.013923857361078262,-0.9836347103118896,0.960746169090271,0.08220797777175903,-0.0024795911740511656,0.04711223021149635
9.708989143371582,-0.013923857361078262,-0.9828717708587646,0.960746169090271,0.08220797777175903,-0.0024795911740511656,0.04711223021149635
9.72903561592102,-0.013923857361078262,-0.9828717708587646,0.960746169090271,0.08220797777175903,-0.0024795911740511656,0.04749370738863945
9.749117851257324,-0.01430533267557621,-0.9817273020744324,0.960746169090271,0.08258945494890213,-0.0020981156267225742,0.04787518084049225
9.769189357757568,-0.01430533267557621,-0.9809643626213074,0.9603646993637085,0.08258945494890213,-0.0024795911740511656,0.04787518084049225
9.789239645004272,-0.01506828423589468,-0.9802014231681824,0.960746169090271,0.08258945494890213,-0.0020981156267225742,0.04787518084049225
9.809296369552612,-0.01506828423589468,-0.9798199534416199,0.9603646993637085,0.08258945494890213,-0.0020981156267225742,0.04787518084049225
9.829384565353394,-0.01506828423589468,-0.9790570139884949,0.9603646993637085,0.08258945494890213,-0.0024795911740511656,0.048256658017635345
9.849449396133423,-0.01506828423589468,-0.9782940149307251,0.9603646993637085,0.08297093212604523,-0.0024795911740511656,0.048256658017635345
9.869534492492676,-0.01506828423589468,-0.9775310754776001,0.9603646993637085,0.08297093212604523,-0.002861066721379757,0.048256658017635345
9.889573335647583,-0.01506828423589468,-0.9771496057510376,0.959983229637146,0.08297093212604523,-0.0024795911740511656,0.048256658017635345
9.909662246704102,-0.01506828423589468,-0.9763866662979126,0.959983229637146,0.08297093212604523,-0.0024795911740511656,0.048256658017635345
9.929839134216309,-0.01506828423589468,-0.9756237268447876,0.959983229637146,0.08335240930318832,-0.0020981156267225742,0.048256658017635345
9.949857711791992,-0.01506828423589468,-0.9748607873916626,0.959983229637146,0.08335240930318832,-0.0020981156267225742,0.048256658017635345
9.96993613243103,-0.015449759550392628,-0.9729533791542053,0.9596017599105835,0.08335240930318832,-0.0020981156267225742,0.048256658017635345
9.989991188049316,-0.015449759550392628,-0.9725719094276428,0.959983229637146,0.08373387902975082,-0.0024795911740511656,0.048256658017635345
10.010135650634766,-0.01583123579621315,-0.9718089699745178,0.959983229637146,0.08411535620689392,-0.0020981156267225742,0.048256658017635345
10.03023886680603,-0.01583123579621315,-0.9706645011901855,0.9596017599105835,0.08411535620689392,-0.0024795911740511656,0.048638131469488144
10.050391674041748,-0.01583123579621315,-0.970283031463623,0.959983229637146,0.08449683338403702,-0.002861066721379757,0.048638131469488144
10.070432186126709,-0.016212711110711098,-0.9699015617370605,0.9596017599105835,0.08525978773832321,-0.002861066721379757,0.048638131469488144
10.090636253356934,-0.016212711110711098,-0.968757152557373,0.9596017599105835,0.08564125746488571,-0.0024795911740511656,0.048638131469488144
10.11062216758728,-0.016212711110711098,-0.9676127433776855,0.9596017599105835,0.08602273464202881,-0.0024795911740511656,0.048638131469488144
10.130743026733398,-0.016212711110711098,-0.9664682745933533,0.9596017599105835,0.08602273464202881,-0.0020981156267225742,0.048638131469488144
10.150754928588867,-0.016212711110711098,-0.9657053351402283,0.9596017599105835,0.08602273464202881,-0.0020981156267225742,0.048638131469488144
10.170848608016968,-0.016212711110711098,-0.9653238654136658,0.9596017599105835,0.08602273464202881,-0.0020981156267225742,0.048638131469488144
10.190912961959839,-0.016594186425209045,-0.9645609259605408,0.9596017599105835,0.08602273464202881,-0.0020981156267225742,0.048638131469488144
10.210973024368286,-0.01735713705420494,-0.9637979865074158,0.959220290184021,0.08602273464202881,-0.0020981156267225742,0.048638131469488144
10.231017112731934,-0.01735713705420494,-0.9630350470542908,0.9584572911262512,0.08602273464202881,-0.0024795911740511656,0.04901960864663124
10.251118659973145,-0.01735713705420494,-0.9618905782699585,0.9580758213996887,0.0864042118191719,-0.002861066721379757,0.048638131469488144
10.271188259124756,-0.018120087683200836,-0.960746169090271,0.9576943516731262,0.0864042118191719,-0.0024795911740511656,0.04901960864663124
10.291279077529907,-0.018120087683200836,-0.9596017599105835,0.9576943516731262,0.0864042118191719,-0.0024795911740511656,0.04901960864663124
10.31135630607605,-0.018120087683200836,-0.9580758213996887,0.9576943516731262,0.0864042118191719,-0.0024795911740511656,0.04901960864663124
10.331432580947876,-0.018120087683200836,-0.9569314122200012,0.9576943516731262,0.0864042118191719,-0.0024795911740511656,0.04901960864663124
10.35147738456726,-0.018120087683200836,-0.9561684727668762,0.9576943516731262,0.086785688996315,-0.0020981156267225742,0.04901960864663124
10.371587753295898,-0.018120087683200836,-0.955024003982544,0.9576943516731262,0.086785688996315,-0.0020981156267225742,0.04940108209848404
10.391782522201538,-0.018120087683200836,-0.9531166553497314,0.9576943516731262,0.086785688996315,-0.0020981156267225742,0.04940108209848404
10.411869764328003,-0.018120087683200836,-0.951209306716919,0.9573128819465637,0.0871671661734581,-0.0020981156267225742,0.049782559275627136
10.43191909790039,-0.018501564860343933,-0.9496833682060242,0.9573128819465637,0.0875486359000206,-0.0020981156267225742,0.049782559275627136
10.451994895935059,-0.01888304017484188,-0.9466315507888794,0.9569314122200012,0.08869306743144989,-0.001716639962978661,0.05054550990462303
10.47205638885498,-0.020027466118335724,-0.9458686113357544,0.9569314122200012,0.08983749151229858,-0.0009536888683214784,0.05245288833975792
10.49210524559021,-0.020027466118335724,-0.9470130205154419,0.9569314122200012,0.09136339277029037,0.000572213320992887,0.05359731614589691
10.512462854385376,-0.020027466118335724,-0.9496833682060242,0.9569314122200012,0.09403372555971146,0.0009536888683214784,0.05436026677489281
10.532611608505249,-0.020027466118335724,-0.9538795948028564,0.9576943516731262,0.09441519528627396,0.0009536888683214784,0.0558861680328846
10.552727460861206,-0.020027466118335724,-0.9588387608528137,0.9576943516731262,0.09479667246341705,0.0009536888683214784,0.056267641484737396
10.572747230529785,-0.020027466118335724,-0.9634165167808533,0.9576943516731262,0.09479667246341705,0.0013351644156500697,0.056267641484737396
10.592800617218018,-0.020027466118335724,-0.9691386222839355,0.9576943516731262,0.09517814964056015,0.001716639962978661,0.056267641484737396
10.612908601760864,-0.020027466118335724,-0.9744792580604553,0.9576943516731262,0.09555962681770325,0.0024795911740511656,0.05664911866188049
10.633010149002075,-0.020027466118335724,-0.9775310754776001,0.9576943516731262,0.09632257372140884,0.002861066721379757,0.05664911866188049
10.653041362762451,-0.020027466118335724,-0.9809643626213074,0.9580758213996887,0.09708552807569504,0.002861066721379757,0.05703059583902359
10.673155546188354,-0.020027466118335724,-0.9866865277290344,0.9580758213996887,0.09746700525283813,0.0032425422687083483,0.05741206929087639
10.69322395324707,-0.020027466118335724,-0.9912642240524292,0.9588387608528137,0.09746700525283813,0.0036240178160369396,0.05741206929087639
10.713290214538574,-0.020027466118335724,-0.9946975111961365,0.959220290184021,0.09784847497940063,0.0036240178160369396,0.057793546468019485
10.733407735824585,-0.020027466118335724,-1.0000381469726562,0.9596017599105835,0.09784847497940063,0.0036240178160369396,0.05855649709701538
10.753522157669067,-0.020027466118335724,-1.0053788423538208,0.9596017599105835,0.09784847497940063,0.004005493130534887,0.05970092490315437
10.773637056350708,-0.020027466118335724,-1.0091935396194458,0.959983229637146,0.09822995215654373,0.004386968910694122,0.06008239835500717
10.793737173080444,-0.020027466118335724,-1.0133898258209229,0.960746169090271,0.09861142933368683,0.00476844422519207,0.06046387553215027
10.813794612884521,-0.020027466118335724,-1.019874930381775,0.9611276388168335,0.09861142933368683,0.00476844422519207,0.06046387553215027
10.833933591842651,-0.02040894143283367,-1.0271228551864624,0.962272047996521,0.09937438368797302,0.005149920005351305,0.06084534898400307
10.853938817977905,-0.02040894143283367,-1.033989429473877,0.9630350470542908,0.10128175467252731,0.005149920005351305,0.061226826161146164
10.874128580093384,-0.02040894143283367,-1.043907880783081,0.9637979865074158,0.10204470902681351,0.005531395319849253,0.06275273114442825
10.89433479309082,-0.021171892061829567,-1.056496500968933,0.9660868048667908,0.1035706102848053,0.006294346414506435,0.06466010212898254
10.91435980796814,-0.02231631986796856,-1.0702296495437622,0.9699015617370605,0.10471503436565399,0.008964675478637218,0.06580453366041183
10.934380769729614,-0.024223696440458298,-1.0843442678451538,0.9725719094276428,0.10624094307422638,0.011635004542768002,0.06847485899925232
10.954464673995972,-0.02536812424659729,-1.0961699485778809,0.9748607873916626,0.10738536715507507,0.012397955171763897,0.0707637146115303
10.974534511566162,-0.02536812424659729,-1.1030365228652954,0.9752422571182251,0.10891126841306686,0.01201647985726595,0.0715266615152359
10.994619369506836,-0.025749599561095238,-1.104943871498108,0.9744792580604553,0.10929274559020996,0.010490577667951584,0.0722896158695221
11.014718055725098,-0.025749599561095238,-1.104180932044983,0.9744792580604553,0.10967422276735306,0.010109102353453636,0.07267109304666519
11.034895896911621,-0.026131074875593185,-1.101129174232483,0.9756237268447876,0.11081864684820175,0.01125352829694748,0.07267109304666519
11.054995775222778,-0.026512550190091133,-1.0984588861465454,0.9779125452041626,0.11196307092905045,0.012779430486261845,0.07381551712751389
11.075126886367798,-0.026512550190091133,-1.0957884788513184,0.9794384837150574,0.11310750246047974,0.014686808921396732,0.07534141838550568
11.095289707183838,-0.026512550190091133,-1.0931181907653809,0.9802014231681824,0.11348897218704224,0.016594186425209045,0.07534141838550568
11.115401983261108,-0.02689402550458908,-1.0904479026794434,0.9798199534416199,0.11348897218704224,0.018120087683200836,0.07572289556264877
11.13549017906189,-0.02689402550458908,-1.0904479026794434,0.9794384837150574,0.11387044936418533,0.018120087683200836,0.07610437273979187
11.155559539794922,-0.02727550081908703,-1.0904479026794434,0.9794384837150574,0.11463340371847153,0.019645990803837776,0.07686731964349747
11.17566704750061,-0.027656977996230125,-1.0896848440170288,0.9794384837150574,0.11615930497646332,0.019645990803837776,0.07877469807863235
11.195712804794312,-0.02841992862522602,-1.0885404348373413,0.9798199534416199,0.11768520623445511,0.019645990803837776,0.07953765243291855
11.215849161148071,-0.029182879254221916,-1.0873960256576538,0.9809643626213074,0.1199740618467331,0.020027466118335724,0.08030059933662415
11.235960006713867,-0.02994582988321781,-1.0870145559310913,0.9821087718009949,0.12111848592758179,0.020027466118335724,0.08144503086805344
11.256054639816284,-0.030708782374858856,-1.0866330862045288,0.9836347103118896,0.12264438718557358,0.020027466118335724,0.08258945494890213
11.276076316833496,-0.03147173300385475,-1.0866330862045288,0.9840161800384521,0.12417028844356537,0.020027466118335724,0.08335240930318832
11.296124696731567,-0.032616160809993744,-1.0873960256576538,0.9855420589447021,0.12531471252441406,0.021553369238972664,0.08487831056118011
11.316209077835083,-0.032616160809993744,-1.0881589651107788,0.9863049983978271,0.12760357558727264,0.023460745811462402,0.086785688996315
11.336284399032593,-0.032616160809993744,-1.0900664329528809,0.9885938763618469,0.12951095402240753,0.02384222112596035,0.08869306743144989
11.356462478637695,-0.032616160809993744,-1.0915923118591309,0.9905012845993042,0.13179980218410492,0.02536812424659729,0.09060044586658478
11.376492023468018,-0.03299763426184654,-1.0934996604919434,0.9931715726852417,0.134470134973526,0.02841992862522602,0.09288929402828217
11.39664912223816,-0.03376058489084244,-1.0965514183044434,0.996604859828949,0.1367589831352234,0.03185320645570755,0.09517814964056015
11.416631698608398,-0.034142062067985535,-1.099603295326233,0.9992752075195312,0.13904783129692078,0.03528648987412453,0.09784847497940063
11.436678171157837,-0.03452353551983833,-1.103417992591858,1.0023269653320312,0.14095520973205566,0.038719769567251205,0.09975585341453552
11.456767559051514,-0.03490501269698143,-1.10837721824646,1.0061417818069458,0.14324407279491425,0.04100862145423889,0.10204470902681351
11.476826906204224,-0.03528648987412453,-1.1125733852386475,1.0091935396194458,0.14476996660232544,0.04253452271223068,0.10471503436565399
11.49689245223999,-0.03604944050312042,-1.115625262260437,1.0111008882522583,0.14705882966518402,0.04444190114736557,0.10585946589708328
11.516937732696533,-0.03681239113211632,-1.118677020072937,1.0133898258209229,0.1493476778268814,0.046730753034353256,0.10776684433221817
11.537025690078735,-0.03795681521296501,-1.1205843687057495,1.0156786441802979,0.1508735716342926,0.048638131469488144,0.10929274559020996
11.557184934616089,-0.0394827201962471,-1.1217288970947266,1.0172045230865479,0.15316243469715118,0.04940108209848404,0.11043716967105865
11.577214479446411,-0.040627144277095795,-1.122110366821289,1.0179674625396729,0.15506981313228607,0.049782559275627136,0.11234454810619354
11.597277164459229,-0.04177157208323479,-1.122110366821289,1.0187304019927979,0.15774014592170715,0.049782559275627136,0.11348897218704224
11.617371797561646,-0.04329747334122658,-1.1217288970947266,1.0194933414459229,0.15926603972911835,0.050164032727479935,0.11539635062217712
11.637446641921997,-0.04444190114736557,-1.120965838432312,1.0210193395614624,0.16155488789081573,0.05092698708176613,0.11692225188016891
11.657473087310791,-0.04482337832450867,-1.1205843687057495,1.0217822790145874,0.16346226632595062,0.053215838968753815,0.1184481605887413
11.677591562271118,-0.045204851776361465,-1.1205843687057495,1.0225452184677124,0.1653696447610855,0.0551232174038887,0.1203555315732956
11.697689771652222,-0.04596780240535736,-1.120202898979187,1.022926688194275,0.1668955534696579,0.057793546468019485,0.12226291000843048
11.717800617218018,-0.046730753034353256,-1.1198214292526245,1.0233081579208374,0.16880293190479279,0.061226826161146164,0.12417028844356537
11.737879514694214,-0.04711223021149635,-1.1198214292526245,1.0233081579208374,0.17032882571220398,0.06389715522527695,0.12607766687870026
11.758014440536499,-0.046730753034353256,-1.1198214292526245,1.0233081579208374,0.17223620414733887,0.06504157930612564,0.12798504531383514
11.77807068824768,-0.046730753034353256,-1.120202898979187,1.0236896276474,0.17261768877506256,0.06656748056411743,0.12798504531383514
11.798303842544556,-0.046730753034353256,-1.120202898979187,1.0236896276474,0.17299915850162506,0.06809338182210922,0.12836651504039764
11.818445205688477,-0.046730753034353256,-1.121347427368164,1.024452567100525,0.17299915850162506,0.06847485899925232,0.12836651504039764
11.83850646018982,-0.046730753034353256,-1.1217288970947266,1.024452567100525,0.17299915850162506,0.06885633617639542,0.12874799966812134
11.85853910446167,-0.046730753034353256,-1.122110366821289,1.024452567100525,0.17299915850162506,0.06885633617639542,0.12874799966812134
11.878638505935669,-0.046730753034353256,-1.122873306274414,1.0248340368270874,0.17338064312934875,0.06847485899925232,0.12912946939468384
11.89870834350586,-0.046730753034353256,-1.123636245727539,1.024452567100525,0.17299915850162506,0.06809338182210922,0.12951095402240753
11.918795585632324,-0.046730753034353256,-1.124399185180664,1.0248340368270874,0.17338064312934875,0.06809338182210922,0.13065537810325623
11.938835144042969,-0.04634927958250046,-1.124399185180664,1.0248340368270874,0.17338064312934875,0.06809338182210922,0.13103684782981873
11.958919048309326,-0.04596780240535736,-1.125162124633789,1.0248340368270874,0.17338064312934875,0.06847485899925232,0.13103684782981873
11.978984355926514,-0.04596780240535736,-1.125925064086914,1.02521550655365,0.17338064312934875,0.06847485899925232,0.13103684782981873
11.999035120010376,-0.04558632895350456,-1.125925064086914,1.02521550655365,0.17338064312934875,0.06885633617639542,0.13103684782981873
12.019123077392578,-0.04558632895350456,-1.126688003540039,1.02521550655365,0.17338064312934875,0.06961929053068161,0.13103684782981873
12.039188861846924,-0.04558632895350456,-1.1270694732666016,1.02521550655365,0.17338064312934875,0.06961929053068161,0.13103684782981873
12.059260129928589,-0.04558632895350456,-1.1278324127197266,1.02521550655365,0.17338064312934875,0.06961929053068161,0.13103684782981873
12.079356908798218,-0.04482337832450867,-1.1285953521728516,1.02521550655365,0.17338064312934875,0.06923781335353851,0.13103684782981873
12.099514484405518,-0.04482337832450867,-1.1293584108352661,1.02521550655365,0.17338064312934875,0.06885633617639542,0.13103684782981873
12.11951231956482,-0.04482337832450867,-1.1301213502883911,1.02521550655365,0.17376211285591125,0.06923781335353851,0.13103684782981873
12.139569520950317,-0.04444190114736557,-1.1308842897415161,1.02521550655365,0.17338064312934875,0.06923781335353851,0.13103684782981873
12.15962839126587,-0.04444190114736557,-1.1312657594680786,1.02521550655365,0.17338064312934875,0.06961929053068161,0.13103684782981873
12.179726123809814,-0.04444190114736557,-1.1320286989212036,1.02521550655365,0.17376211285591125,0.07000076025724411,0.13103684782981873
12.19982123374939,-0.04406042397022247,-1.1331731081008911,1.02521550655365,0.17338064312934875,0.07000076025724411,0.13103684782981873
12.219866037368774,-0.04406042397022247,-1.1335545778274536,1.02521550655365,0.17376211285591125,0.07000076025724411,0.13103684782981873
12.239934206008911,-0.043678950518369675,-1.1339360475540161,1.02521550655365,0.17338064312934875,0.07000076025724411,0.13103684782981873
12.260024785995483,-0.043678950518369675,-1.1346989870071411,1.02521550655365,0.17338064312934875,0.07000076025724411,0.13141833245754242
12.280093669891357,-0.043678950518369675,-1.1350804567337036,1.0255969762802124,0.17376211285591125,0.07000076025724411,0.13141833245754242
12.300141096115112,-0.043678950518369675,-1.1354619264602661,1.0255969762802124,0.17376211285591125,0.07000076025724411,0.13103684782981873
12.320228099822998,-0.04329747334122658,-1.1358433961868286,1.02521550655365,0.17376211285591125,0.07038223743438721,0.13141833245754242
12.340301036834717,-0.04253452271223068,-1.1366063356399536,1.0255969762802124,0.17376211285591125,0.07000076025724411,0.13103684782981873
12.360378503799438,-0.04253452271223068,-1.1373693943023682,1.0255969762802124,0.17376211285591125,0.07000076025724411,0.13141833245754242
12.380432605743408,-0.042153049260377884,-1.1377508640289307,1.0255969762802124,0.17376211285591125,0.07038223743438721,0.13141833245754242
12.40051555633545,-0.04177157208323479,-1.1388952732086182,1.0255969762802124,0.17376211285591125,0.07038223743438721,0.13141833245754242
12.420597791671753,-0.04139009863138199,-1.1396582126617432,1.025978446006775,0.17376211285591125,0.0707637146115303,0.13141833245754242
12.440658330917358,-0.040627144277095795,-1.1400396823883057,1.0263599157333374,0.17376211285591125,0.0711451917886734,0.13141833245754242
12.460707187652588,-0.040627144277095795,-1.1404211521148682,1.0263599157333374,0.17414358258247375,0.0707637146115303,0.13179980218410492
12.480838298797607,-0.040627144277095795,-1.1408026218414307,1.0263599157333374,0.17414358258247375,0.0711451917886734,0.13179980218410492
12.50095248222351,-0.040245670825242996,-1.1415655612945557,1.0263599157333374,0.17414358258247375,0.071908138692379,0.13179980218410492
12.52096176147461,-0.040245670825242996,-1.1415655612945557,1.0263599157333374,0.17452506721019745,0.0715266615152359,0.13179980218410492
12.541232347488403,-0.0398641936480999,-1.1423285007476807,1.0263599157333374,0.17452506721019745,0.0715266615152359,0.13179980218410492
12.56133222579956,-0.0398641936480999,-1.1434729099273682,1.0263599157333374,0.17452506721019745,0.0711451917886734,0.13179980218410492
12.581420421600342,-0.0394827201962471,-1.1438543796539307,1.0263599157333374,0.17452506721019745,0.0715266615152359,0.13179980218410492
12.601743221282959,-0.0394827201962471,-1.1446174383163452,1.0263599157333374,0.17490653693675995,0.0715266615152359,0.13179980218410492
12.621954917907715,-0.0394827201962471,-1.1457618474960327,1.0267413854599,0.17490653693675995,0.071908138692379,0.13179980218410492
12.642014980316162,-0.0394827201962471,-1.1465247869491577,1.0267413854599,0.17490653693675995,0.071908138692379,0.13179980218410492
12.662053108215332,-0.039101243019104004,-1.1472877264022827,1.0267413854599,0.17490653693675995,0.071908138692379,0.13179980218410492
12.682170867919922,-0.038719769567251205,-1.1480506658554077,1.0267413854599,0.17528800666332245,0.0715266615152359,0.13179980218410492
12.702306985855103,-0.03833829239010811,-1.1488136053085327,1.0267413854599,0.17528800666332245,0.0715266615152359,0.13218127191066742
12.722359418869019,-0.038719769567251205,-1.1488136053085327,1.0267413854599,0.17566949129104614,0.0715266615152359,0.13218127191066742
12.742624282836914,-0.03833829239010811,-1.1495765447616577,1.0271228551864624,0.17566949129104614,0.071908138692379,0.13218127191066742
12.762715101242065,-0.03795681521296501,-1.1503394842147827,1.0271228551864624,0.17566949129104614,0.071908138692379,0.1325627565383911
12.782854080200195,-0.03757534176111221,-1.1511024236679077,1.0271228551864624,0.17566949129104614,0.071908138692379,0.1325627565383911
12.802858114242554,-0.03757534176111221,-1.1518653631210327,1.0271228551864624,0.17566949129104614,0.0722896158695221,0.1325627565383911
12.822940111160278,-0.03757534176111221,-1.1522468328475952,1.0271228551864624,0.17605096101760864,0.0722896158695221,0.1325627565383911
12.843067407608032,-0.037193864583969116,-1.1530098915100098,1.0271228551864624,0.17605096101760864,0.0722896158695221,0.1329442262649536
12.863163232803345,-0.037193864583969116,-1.1537728309631348,1.0275044441223145,0.17605096101760864,0.0722896158695221,0.1329442262649536
12.883204460144043,-0.03643091395497322,-1.1545357704162598,1.0275044441223145,0.17605096101760864,0.071908138692379,0.1333257108926773
12.90335488319397,-0.03643091395497322,-1.1549172401428223,1.0275044441223145,0.17605096101760864,0.0722896158695221,0.1333257108926773
12.92341923713684,-0.03604944050312042,-1.1556801795959473,1.0275044441223145,0.17605096101760864,0.0722896158695221,0.1337071806192398
12.943500280380249,-0.035667963325977325,-1.1564431190490723,1.0275044441223145,0.17605096101760864,0.0722896158695221,0.1340886503458023
12.963991403579712,-0.035667963325977325,-1.1568245887756348,1.0275044441223145,0.17605096101760864,0.07267109304666519,0.1340886503458023
12.984123706817627,-0.03528648987412453,-1.1575875282287598,1.0275044441223145,0.17643244564533234,0.07305257022380829,0.1340886503458023
13.004220962524414,-0.03528648987412453,-1.1583504676818848,1.0275044441223145,0.17643244564533234,0.07305257022380829,0.134470134973526
13.024234056472778,-0.03452353551983833,-1.1587319374084473,1.0275044441223145,0.17643244564533234,0.07267109304666519,0.134470134973526
13.044348955154419,-0.034142062067985535,-1.1598763465881348,1.0275044441223145,0.17681391537189484,0.07267109304666519,0.134470134973526
13.064472436904907,-0.034142062067985535,-1.1606394052505493,1.027885913848877,0.17681391537189484,0.07305257022380829,0.134470134973526
13.084506511688232,-0.03376058489084244,-1.1610208749771118,1.028648853302002,0.17681391537189484,0.07305257022380829,0.134470134973526
13.104570388793945,-0.03337911143898964,-1.1617838144302368,1.028648853302002,0.17681391537189484,0.07305257022380829,0.134470134973526
13.12472152709961,-0.03337911143898964,-1.1625467538833618,1.028648853302002,0.17719538509845734,0.07305257022380829,0.134470134973526
13.14475393295288,-0.03337911143898964,-1.1629282236099243,1.028648853302002,0.17681391537189484,0.07381551712751389,0.134470134973526
13.164827585220337,-0.03337911143898964,-1.1636911630630493,1.028648853302002,0.17719538509845734,0.07381551712751389,0.1348516047000885
13.184893131256104,-0.03337911143898964,-1.1644541025161743,1.028648853302002,0.17719538509845734,0.07381551712751389,0.1348516047000885
13.2049720287323,-0.03299763426184654,-1.1655985116958618,1.0290303230285645,0.17719538509845734,0.07381551712751389,0.1348516047000885
13.225052833557129,-0.03223468363285065,-1.1663614511489868,1.0290303230285645,0.17719538509845734,0.07343403995037079,0.1348516047000885
13.245152473449707,-0.03223468363285065,-1.1667429208755493,1.029411792755127,0.17719538509845734,0.07343403995037079,0.1348516047000885
13.265254497528076,-0.03223468363285065,-1.1678873300552368,1.029411792755127,0.17719538509845734,0.07419699430465698,0.1348516047000885
13.28538203239441,-0.03185320645570755,-1.1682689189910889,1.029411792755127,0.17757686972618103,0.07495994865894318,0.135233074426651
13.30547308921814,-0.03147173300385475,-1.1686503887176514,1.029411792755127,0.17757686972618103,0.07534141838550568,0.135233074426651
13.325475215911865,-0.03147173300385475,-1.1690318584442139,1.029411792755127,0.17795833945274353,0.07534141838550568,0.135233074426651
13.345561504364014,-0.03147173300385475,-1.1701762676239014,1.029411792755127,0.17795833945274353,0.07572289556264877,0.135233074426651
13.365694046020508,-0.031090257689356804,-1.1713206768035889,1.029411792755127,0.17833982408046722,0.07572289556264877,0.135233074426651
13.385699033737183,-0.030708782374858856,-1.1720836162567139,1.029411792755127,0.17872129380702972,0.07572289556264877,0.135233074426651
13.405827522277832,-0.03032730519771576,-1.1728465557098389,1.029411792755127,0.17910276353359222,0.07534141838550568,0.1356145590543747
13.425882339477539,-0.02994582988321781,-1.1732280254364014,1.029411792755127,0.17910276353359222,0.07534141838550568,0.1356145590543747
13.445961475372314,-0.029564354568719864,-1.1739909648895264,1.029411792755127,0.17910276353359222,0.07572289556264877,0.1356145590543747
13.466110944747925,-0.029564354568719864,-1.1743724346160889,1.0297932624816895,0.17948424816131592,0.07610437273979187,0.1356145590543747
13.486220836639404,-0.029182879254221916,-1.1755168437957764,1.0305562019348145,0.17986571788787842,0.07648584991693497,0.1359960287809372
13.506349802017212,-0.029182879254221916,-1.176279902458191,1.0305562019348145,0.17986571788787842,0.07724879682064056,0.1359960287809372
13.526346683502197,-0.029182879254221916,-1.177042841911316,1.0305562019348145,0.17986571788787842,0.07724879682064056,0.1363775134086609
13.54642915725708,-0.02880140393972397,-1.1781872510910034,1.0305562019348145,0.17986571788787842,0.07724879682064056,0.1363775134086609
13.566490650177002,-0.02841992862522602,-1.1789501905441284,1.0305562019348145,0.1802472025156021,0.07648584991693497,0.1363775134086609
13.586586475372314,-0.02841992862522602,-1.1797131299972534,1.0305562019348145,0.17986571788787842,0.07648584991693497,0.1367589831352234
13.606729984283447,-0.028038453310728073,-1.1804760694503784,1.0305562019348145,0.1802472025156021,0.07686731964349747,0.13752193748950958
13.626874208450317,-0.02727550081908703,-1.1812390089035034,1.0305562019348145,0.1802472025156021,0.07724879682064056,0.13828489184379578
13.64691162109375,-0.02727550081908703,-1.181620478630066,1.0305562019348145,0.1802472025156021,0.07724879682064056,0.13828489184379578
13.667092323303223,-0.02727550081908703,-1.182383418083191,1.0305562019348145,0.1802472025156021,0.07801175117492676,0.13828489184379578
13.687195539474487,-0.02689402550458908,-1.183146357536316,1.030937671661377,0.1802472025156021,0.07877469807863235,0.13828489184379578
13.707281351089478,-0.026512550190091133,-1.1839094161987305,1.030937671661377,0.1802472025156021,0.07877469807863235,0.13866636157035828
13.727366209030151,-0.026131074875593185,-1.184290885925293,1.030937671661377,0.1802472025156021,0.07801175117492676,0.13866636157035828
13.747396469116211,-0.026131074875593185,-1.1846723556518555,1.0313191413879395,0.1802472025156021,0.07839322835206985,0.13866636157035828
13.767484426498413,-0.02536812424659729,-1.1854352951049805,1.031700611114502,0.1806286722421646,0.07877469807863235,0.13866636157035828
13.78755497932434,-0.024986648932099342,-1.1861982345581055,1.0320820808410645,0.1806286722421646,0.07877469807863235,0.13904783129692078
13.807653427124023,-0.024986648932099342,-1.1869611740112305,1.032463550567627,0.1806286722421646,0.07953765243291855,0.13904783129692078
13.827906608581543,-0.024986648932099342,-1.1877241134643555,1.032463550567627,0.1810101419687271,0.07953765243291855,0.13904783129692078
13.848048448562622,-0.024223696440458298,-1.188868522644043,1.032463550567627,0.1810101419687271,0.07915617525577545,0.13904783129692078
13.868102550506592,-0.02384222112596035,-1.1900129318237305,1.032463550567627,0.1810101419687271,0.07953765243291855,0.13904783129692078
13.888141870498657,-0.02384222112596035,-1.1907758712768555,1.032463550567627,0.1810101419687271,0.07953765243291855,0.13942931592464447
13.908229112625122,-0.023460745811462402,-1.191157341003418,1.032463550567627,0.1810101419687271,0.07953765243291855,0.13942931592464447
13.928297758102417,-0.023079270496964455,-1.1919203996658325,1.0328450202941895,0.1813916265964508,0.07953765243291855,0.13942931592464447
13.948389053344727,-0.023079270496964455,-1.19306480884552,1.0328450202941895,0.1813916265964508,0.07953765243291855,0.13981078565120697
13.96846055984497,-0.023079270496964455,-1.1934462785720825,1.0328450202941895,0.1813916265964508,0.07991912961006165,0.13981078565120697
13.988574266433716,-0.022697795182466507,-1.1942092180252075,1.0328450202941895,0.1817730963230133,0.08030059933662415,0.13981078565120697
14.008654832839966,-0.02193484455347061,-1.195353627204895,1.033226490020752,0.1817730963230133,0.07991912961006165,0.14019227027893066
14.028778076171875,-0.02193484455347061,-1.19611656665802,1.033226490020752,0.1817730963230133,0.07991912961006165,0.14019227027893066
14.048775434494019,-0.02193484455347061,-1.1964980363845825,1.0336079597473145,0.182154580950737,0.08030059933662415,0.14057374000549316
14.068870782852173,-0.021553369238972664,-1.196879506111145,1.0336079597473145,0.182154580950737,0.08030059933662415,0.14095520973205566
