liuyurong129/humanoid-gym/humanoid/data/actual_q_20250521-003824.csv
timestamp,joint_1,joint_2,joint_3,joint_4,joint_5,joint_6
6.151199340820312e-05,0.00019073777366429567,0.17414358258247375,-0.086785688996315,-0.00019073777366429567,0.00019073777366429567,-0.00019073777366429567
0.020200252532958984,0.00019073777366429567,0.15506981313228607,-0.07915617525577545,-0.00019073777366429567,0.00019073777366429567,-0.000572213320992887
0.040257930755615234,0.00019073777366429567,0.13179980218410492,-0.06885633617639542,-0.000572213320992887,0.000572213320992887,-0.000572213320992887
0.06030726432800293,-0.00019073777366429567,0.11310750246047974,-0.06084534898400307,-0.00019073777366429567,0.002861066721379757,-0.000572213320992887
0.08058428764343262,-0.00019073777366429567,0.10852979123592377,-0.05970092490315437,-0.00019073777366429567,0.00019073777366429567,-0.000572213320992887
0.10069704055786133,-0.00019073777366429567,0.10852979123592377,-0.058175019919872284,-0.00019073777366429567,0.00019073777366429567,-0.000572213320992887
0.12077069282531738,-0.000572213320992887,0.10852979123592377,-0.0558861680328846,-0.00019073777366429567,0.00019073777366429567,-0.00019073777366429567
0.14114761352539062,-0.000572213320992887,0.10814831405878067,-0.05436026677489281,0.00019073777366429567,-0.00019073777366429567,-0.00019073777366429567
0.16124796867370605,-0.0013351644156500697,0.10662241280078888,-0.053215838968753815,0.0009536888683214784,-0.00019073777366429567,-0.00019073777366429567
0.1813199520111084,-0.0024795911740511656,0.10509651154279709,-0.05283436179161072,0.0013351644156500697,0.00019073777366429567,-0.00019073777366429567
0.20136189460754395,-0.0036240178160369396,0.10433356463909149,-0.05245288833975792,0.0020981156267225742,0.000572213320992887,-0.00019073777366429567
0.221449613571167,-0.00476844422519207,0.1024261862039566,-0.05092698708176613,0.0032425422687083483,0.00019073777366429567,-0.00019073777366429567
0.24152207374572754,-0.005912871100008488,0.10090028494596481,-0.04940108209848404,0.004005493130534887,0.000572213320992887,0.00019073777366429567
0.26161980628967285,-0.006294346414506435,0.10013733059167862,-0.04787518084049225,0.004386968910694122,0.00019073777366429567,0.00019073777366429567
0.28165721893310547,-0.007057297509163618,0.09861142933368683,-0.04634927958250046,0.005531395319849253,0.00019073777366429567,0.000572213320992887
0.3017544746398926,-0.0078202486038208,0.09708552807569504,-0.045204851776361465,0.007057297509163618,0.00019073777366429567,0.000572213320992887
0.3218109607696533,-0.0078202486038208,0.09594109654426575,-0.04482337832450867,0.0078202486038208,-0.00019073777366429567,0.0009536888683214784
0.3419189453125,-0.00858320016413927,0.09479667246341705,-0.043678950518369675,0.008201723918318748,-0.00019073777366429567,0.0009536888683214784
0.36195826530456543,-0.009727626107633114,0.09327077120542526,-0.04253452271223068,0.00858320016413927,0.00019073777366429567,0.0009536888683214784
0.38205909729003906,-0.010872052982449532,0.09212634712457657,-0.040627144277095795,0.009346150793135166,0.00019073777366429567,0.0009536888683214784
0.40212464332580566,-0.01125352829694748,0.09136339277029037,-0.0394827201962471,0.010490577667951584,0.00019073777366429567,0.0013351644156500697
0.4222080707550049,-0.012397955171763897,0.08983749151229858,-0.03833829239010811,0.011635004542768002,0.00019073777366429567,0.0013351644156500697
0.4422476291656494,-0.012779430486261845,0.08869306743144989,-0.03757534176111221,0.01201647985726595,0.00019073777366429567,0.001716639962978661
0.4623401165008545,-0.013923857361078262,0.0871671661734581,-0.03643091395497322,0.01201647985726595,-0.00019073777366429567,0.001716639962978661
0.4824211597442627,-0.01506828423589468,0.0864042118191719,-0.03528648987412453,0.012779430486261845,0.00019073777366429567,0.0020981156267225742
0.5024852752685547,-0.01506828423589468,0.08564125746488571,-0.03452353551983833,0.013923857361078262,-0.00019073777366429567,0.0020981156267225742
0.5225443840026855,-0.01506828423589468,0.08487831056118011,-0.03337911143898964,0.015449759550392628,-0.00019073777366429567,0.002861066721379757
0.5427916049957275,-0.016594186425209045,0.08335240930318832,-0.03223468363285065,0.01583123579621315,-0.00019073777366429567,0.0032425422687083483
0.5628707408905029,-0.01735713705420494,0.08220797777175903,-0.030708782374858856,0.016594186425209045,0.00019073777366429567,0.0036240178160369396
0.5829489231109619,-0.01773861236870289,0.08068207651376724,-0.029564354568719864,0.01735713705420494,0.00019073777366429567,0.004005493130534887
0.6030299663543701,-0.01888304017484188,0.07953765243291855,-0.028038453310728073,0.01888304017484188,-0.00019073777366429567,0.004386968910694122
0.6230940818786621,-0.020027466118335724,0.07877469807863235,-0.026512550190091133,0.01926451548933983,-0.00019073777366429567,0.004386968910694122
0.6433298587799072,-0.02040894143283367,0.07724879682064056,-0.024986648932099342,0.019645990803837776,-0.00019073777366429567,0.004386968910694122
0.6633396148681641,-0.021553369238972664,0.07610437273979187,-0.024223696440458298,0.020027466118335724,-0.00019073777366429567,0.004386968910694122
0.6834161281585693,-0.02231631986796856,0.07457847148180008,-0.023460745811462402,0.021553369238972664,-0.00019073777366429567,0.00476844422519207
0.7035372257232666,-0.023079270496964455,0.07267109304666519,-0.021553369238972664,0.023079270496964455,-0.000572213320992887,0.005149920005351305
0.723607063293457,-0.02384222112596035,0.0711451917886734,-0.02040894143283367,0.02384222112596035,-0.00019073777366429567,0.005149920005351305
0.7440083026885986,-0.024605173617601395,0.06923781335353851,-0.01888304017484188,0.024605173617601395,-0.00019073777366429567,0.005149920005351305
0.7641091346740723,-0.02536812424659729,0.06809338182210922,-0.01735713705420494,0.025749599561095238,-0.00019073777366429567,0.005149920005351305
0.7842485904693604,-0.02689402550458908,0.06656748056411743,-0.01583123579621315,0.026512550190091133,-0.00019073777366429567,0.005531395319849253
0.8042950630187988,-0.027656977996230125,0.06504157930612564,-0.014686808921396732,0.02689402550458908,-0.00019073777366429567,0.005912871100008488
0.8243777751922607,-0.02841992862522602,0.06313420087099075,-0.013160906732082367,0.027656977996230125,-0.00019073777366429567,0.006294346414506435
0.8444457054138184,-0.029182879254221916,0.06160829961299896,-0.011635004542768002,0.02880140393972397,-0.000572213320992887,0.007438773289322853
0.8645191192626953,-0.029182879254221916,0.06084534898400307,-0.010490577667951584,0.02994582988321781,-0.000572213320992887,0.008201723918318748
0.8847148418426514,-0.029564354568719864,0.059319447726011276,-0.009727626107633114,0.030708782374858856,-0.000572213320992887,0.00858320016413927
0.9048161506652832,-0.03032730519771576,0.05741206929087639,-0.008201723918318748,0.03147173300385475,-0.00019073777366429567,0.00858320016413927
0.9248874187469482,-0.03147173300385475,0.0558861680328846,-0.00667582219466567,0.03299763426184654,-0.00019073777366429567,0.00858320016413927
0.94492506980896,-0.03223468363285065,0.05359731614589691,-0.005912871100008488,0.03376058489084244,-0.00019073777366429567,0.008964675478637218
0.9651362895965576,-0.032616160809993744,0.05283436179161072,-0.004386968910694122,0.034142062067985535,-0.00019073777366429567,0.009346150793135166
0.9851329326629639,-0.034142062067985535,0.051689937710762024,-0.002861066721379757,0.03490501269698143,-0.00019073777366429567,0.009727626107633114
1.0051968097686768,-0.03490501269698143,0.05092698708176613,-0.0020981156267225742,0.03528648987412453,-0.000572213320992887,0.010109102353453636
1.0252985954284668,-0.03604944050312042,0.050164032727479935,-0.0009536888683214784,0.037193864583969116,-0.000572213320992887,0.010490577667951584
1.0455758571624756,-0.03681239113211632,0.048256658017635345,0.000572213320992887,0.03795681521296501,-0.0009536888683214784,0.011635004542768002
1.0656721591949463,-0.03681239113211632,0.046730753034353256,0.0024795911740511656,0.039101243019104004,-0.000572213320992887,0.01201647985726595
1.0857505798339844,-0.03681239113211632,0.045204851776361465,0.004005493130534887,0.040245670825242996,-0.000572213320992887,0.01201647985726595
1.105804204940796,-0.037193864583969116,0.04329747334122658,0.005149920005351305,0.04139009863138199,-0.000572213320992887,0.01201647985726595
1.1259031295776367,-0.03833829239010811,0.04100862145423889,0.007057297509163618,0.042153049260377884,-0.00019073777366429567,0.01201647985726595
1.1459534168243408,-0.0394827201962471,0.0394827201962471,0.00858320016413927,0.04253452271223068,-0.00019073777366429567,0.012397955171763897
1.1661145687103271,-0.0398641936480999,0.038719769567251205,0.009346150793135166,0.04406042397022247,-0.00019073777366429567,0.012397955171763897
1.1861340999603271,-0.04100862145423889,0.037193864583969116,0.010490577667951584,0.04558632895350456,-0.0009536888683214784,0.012397955171763897
1.2063236236572266,-0.042153049260377884,0.03490501269698143,0.01201647985726595,0.04634927958250046,-0.0009536888683214784,0.012779430486261845
1.226417064666748,-0.042153049260377884,0.03376058489084244,0.013542382046580315,0.04787518084049225,-0.000572213320992887,0.012779430486261845
1.246509075164795,-0.04253452271223068,0.03299763426184654,0.014686808921396732,0.04901960864663124,-0.000572213320992887,0.012779430486261845
1.2665863037109375,-0.04329747334122658,0.03185320645570755,0.016212711110711098,0.049782559275627136,0.00019073777366429567,0.013160906732082367
1.2866315841674805,-0.04406042397022247,0.02994582988321781,0.01773861236870289,0.050164032727479935,-0.00019073777366429567,0.013160906732082367
1.3067195415496826,-0.04444190114736557,0.027656977996230125,0.020027466118335724,0.051689937710762024,-0.000572213320992887,0.013160906732082367
1.3268311023712158,-0.04482337832450867,0.025749599561095238,0.021553369238972664,0.05283436179161072,-0.00019073777366429567,0.013542382046580315
1.3468618392944336,-0.04558632895350456,0.02384222112596035,0.023079270496964455,0.053215838968753815,-0.000572213320992887,0.014686808921396732
1.3669333457946777,-0.04634927958250046,0.022697795182466507,0.024223696440458298,0.05397878959774971,-0.000572213320992887,0.01506828423589468
1.387019395828247,-0.04711223021149635,0.021553369238972664,0.02536812424659729,0.054741740226745605,-0.000572213320992887,0.01506828423589468
1.4070942401885986,-0.048256658017635345,0.02040894143283367,0.026512550190091133,0.056267641484737396,-0.000572213320992887,0.015449759550392628
1.4272358417510986,-0.048638131469488144,0.01926451548933983,0.02727550081908703,0.05664911866188049,-0.000572213320992887,0.015449759550392628
1.447352409362793,-0.04940108209848404,0.01773861236870289,0.02880140393972397,0.05703059583902359,-0.000572213320992887,0.015449759550392628
1.4674978256225586,-0.049782559275627136,0.01583123579621315,0.030708782374858856,0.05855649709701538,-0.000572213320992887,0.01583123579621315
1.4875245094299316,-0.05054550990462303,0.01430533267557621,0.03223468363285065,0.06008239835500717,-0.000572213320992887,0.01583123579621315
1.507594347000122,-0.05130846053361893,0.013160906732082367,0.03376058489084244,0.06046387553215027,-0.00019073777366429567,0.016212711110711098
1.5276591777801514,-0.051689937710762024,0.010490577667951584,0.03604944050312042,0.061226826161146164,-0.000572213320992887,0.016594186425209045
1.5476813316345215,-0.051689937710762024,0.009346150793135166,0.03833829239010811,0.06198977679014206,-0.000572213320992887,0.016594186425209045
1.5678091049194336,-0.05245288833975792,0.0078202486038208,0.0394827201962471,0.06351567804813385,-0.000572213320992887,0.016975661739706993
1.5878474712371826,-0.05359731614589691,0.005912871100008488,0.040627144277095795,0.06389715522527695,-0.00019073777366429567,0.01735713705420494
1.607926368713379,-0.05436026677489281,0.004005493130534887,0.042153049260377884,0.06466010212898254,-0.000572213320992887,0.01773861236870289
1.6279847621917725,-0.0551232174038887,0.001716639962978661,0.04444190114736557,0.06618601083755493,-0.000572213320992887,0.018501564860343933
1.6480486392974854,-0.0558861680328846,0.000572213320992887,0.04558632895350456,0.06809338182210922,-0.000572213320992887,0.01888304017484188
1.6681008338928223,-0.05664911866188049,-0.001716639962978661,0.04711223021149635,0.06961929053068161,-0.0009536888683214784,0.01926451548933983
1.688201904296875,-0.05703059583902359,-0.004386968910694122,0.04940108209848404,0.0715266615152359,-0.000572213320992887,0.01926451548933983
1.708333969116211,-0.05741206929087639,-0.005912871100008488,0.05130846053361893,0.071908138692379,-0.000572213320992887,0.019645990803837776
1.7284188270568848,-0.05855649709701538,-0.007438773289322853,0.053215838968753815,0.07267109304666519,-0.000572213320992887,0.019645990803837776
1.7485346794128418,-0.05893797054886818,-0.009727626107633114,0.0555046908557415,0.07457847148180008,-0.000572213320992887,0.019645990803837776
1.7686376571655273,-0.05893797054886818,-0.011635004542768002,0.056267641484737396,0.07534141838550568,-0.0009536888683214784,0.020027466118335724
1.7886674404144287,-0.059319447726011276,-0.013923857361078262,0.05741206929087639,0.07648584991693497,-0.0009536888683214784,0.020027466118335724
1.809016466140747,-0.06046387553215027,-0.016594186425209045,0.059319447726011276,0.07839322835206985,-0.000572213320992887,0.020027466118335724
1.8291027545928955,-0.06084534898400307,-0.018501564860343933,0.06084534898400307,0.07915617525577545,-0.000572213320992887,0.02040894143283367
1.8492255210876465,-0.06084534898400307,-0.019645990803837776,0.06237125024199486,0.07915617525577545,-0.000572213320992887,0.02040894143283367
1.8693017959594727,-0.06160829961299896,-0.021171892061829567,0.06313420087099075,0.07991912961006165,-0.0009536888683214784,0.02040894143283367
1.8894245624542236,-0.06275273114442825,-0.023460745811462402,0.06504157930612564,0.08144503086805344,-0.0009536888683214784,0.02079041674733162
1.9095916748046875,-0.06351567804813385,-0.025749599561095238,0.06733043491840363,0.08297093212604523,-0.0009536888683214784,0.021171892061829567
1.9296250343322754,-0.06389715522527695,-0.02727550081908703,0.06923781335353851,0.08373387902975082,-0.0009536888683214784,0.021553369238972664
1.949690341949463,-0.06466010212898254,-0.02880140393972397,0.07038223743438721,0.08487831056118011,-0.0009536888683214784,0.02193484455347061
1.969857931137085,-0.06542305648326874,-0.031090257689356804,0.07267109304666519,0.08602273464202881,-0.0009536888683214784,0.02231631986796856
1.989957571029663,-0.06618601083755493,-0.03337911143898964,0.07495994865894318,0.0864042118191719,-0.000572213320992887,0.023079270496964455
2.010035753250122,-0.06580453366041183,-0.03490501269698143,0.07648584991693497,0.0875486359000206,-0.0013351644156500697,0.023079270496964455
2.030109405517578,-0.06580453366041183,-0.03643091395497322,0.07763027399778366,0.08907453715801239,-0.0013351644156500697,0.023079270496964455
2.050380229949951,-0.06618601083755493,-0.03795681521296501,0.07953765243291855,0.09021896868944168,-0.0013351644156500697,0.023460745811462402
2.0704405307769775,-0.06694895774126053,-0.040245670825242996,0.08144503086805344,0.09136339277029037,-0.0009536888683214784,0.023460745811462402
2.0905356407165527,-0.06809338182210922,-0.04291599988937378,0.08373387902975082,0.09327077120542526,-0.000572213320992887,0.023460745811462402
2.1106910705566406,-0.06847485899925232,-0.04634927958250046,0.08525978773832321,0.09403372555971146,-0.000572213320992887,0.02384222112596035
2.1307404041290283,-0.06885633617639542,-0.04901960864663124,0.0875486359000206,0.09441519528627396,-0.0009536888683214784,0.024223696440458298
2.15080189704895,-0.06923781335353851,-0.05054550990462303,0.08945601433515549,0.09555962681770325,-0.001716639962978661,0.024605173617601395
2.1710574626922607,-0.07000076025724411,-0.051689937710762024,0.09060044586658478,0.09746700525283813,-0.001716639962978661,0.024986648932099342
2.190985679626465,-0.0711451917886734,-0.05436026677489281,0.09250781685113907,0.09822995215654373,-0.0020981156267225742,0.025749599561095238
2.211073875427246,-0.0715266615152359,-0.05664911866188049,0.09517814964056015,0.09975585341453552,-0.0013351644156500697,0.02727550081908703
2.2311604022979736,-0.0715266615152359,-0.05855649709701538,0.09708552807569504,0.10166323184967041,-0.0013351644156500697,0.02727550081908703
2.251262903213501,-0.0722896158695221,-0.06046387553215027,0.09899290651082993,0.10204470902681351,-0.0013351644156500697,0.027656977996230125
2.2714035511016846,-0.07305257022380829,-0.06351567804813385,0.10128175467252731,0.1024261862039566,-0.0009536888683214784,0.027656977996230125
2.29150390625,-0.07305257022380829,-0.06580453366041183,0.1035706102848053,0.10471503436565399,-0.0013351644156500697,0.027656977996230125
2.311558485031128,-0.07305257022380829,-0.06733043491840363,0.10471503436565399,0.10547798871994019,-0.001716639962978661,0.028038453310728073
2.331634044647217,-0.07343403995037079,-0.06923781335353851,0.10624094307422638,0.10624094307422638,-0.001716639962978661,0.028038453310728073
2.3520469665527344,-0.07343403995037079,-0.0707637146115303,0.10738536715507507,0.10814831405878067,-0.001716639962978661,0.028038453310728073
2.3722174167633057,-0.07419699430465698,-0.07305257022380829,0.10929274559020996,0.10929274559020996,-0.001716639962978661,0.02841992862522602
2.392249822616577,-0.07457847148180008,-0.07534141838550568,0.11120012402534485,0.10967422276735306,-0.0009536888683214784,0.02880140393972397
2.41233229637146,-0.07534141838550568,-0.07801175117492676,0.11348897218704224,0.11196307092905045,-0.0009536888683214784,0.029182879254221916
2.43239426612854,-0.07534141838550568,-0.08030059933662415,0.11501488089561462,0.11272602528333664,-0.0013351644156500697,0.02994582988321781
2.452505350112915,-0.07610437273979187,-0.08220797777175903,0.1180666834115982,0.11348897218704224,-0.001716639962978661,0.03032730519771576
2.47257924079895,-0.07686731964349747,-0.08411535620689392,0.1199740618467331,0.11463340371847153,-0.001716639962978661,0.03032730519771576
2.492656707763672,-0.07763027399778366,-0.08525978773832321,0.12149996310472488,0.11615930497646332,-0.0013351644156500697,0.03032730519771576
2.512708902359009,-0.07763027399778366,-0.086785688996315,0.12340734153985977,0.11692225188016891,-0.001716639962978661,0.030708782374858856
2.532811164855957,-0.07801175117492676,-0.08869306743144989,0.12531471252441406,0.11768520623445511,-0.0013351644156500697,0.030708782374858856
2.5528769493103027,-0.07877469807863235,-0.09174486994743347,0.12798504531383514,0.1199740618467331,-0.0013351644156500697,0.030708782374858856
2.5729498863220215,-0.07915617525577545,-0.09403372555971146,0.12989242374897003,0.12073700875043869,-0.0009536888683214784,0.030708782374858856
2.593001127243042,-0.07953765243291855,-0.09708552807569504,0.13218127191066742,0.12188144028186798,-0.0009536888683214784,0.031090257689356804
2.6130645275115967,-0.07953765243291855,-0.09899290651082993,0.1340886503458023,0.12378881871700287,-0.0013351644156500697,0.031090257689356804
2.633166551589966,-0.07991912961006165,-0.10013733059167862,0.1359960287809372,0.12455176562070847,-0.001716639962978661,0.03147173300385475
2.653273820877075,-0.08030059933662415,-0.10128175467252731,0.13790340721607208,0.12607766687870026,-0.001716639962978661,0.031090257689356804
2.6733036041259766,-0.08030059933662415,-0.1031891331076622,0.13904783129692078,0.12760357558727264,-0.001716639962978661,0.03147173300385475
2.6933791637420654,-0.08068207651376724,-0.10547798871994019,0.14095520973205566,0.12836651504039764,-0.0013351644156500697,0.03147173300385475
2.7134833335876465,-0.08106355369091034,-0.10776684433221817,0.14286258816719055,0.12989242374897003,-0.0013351644156500697,0.03185320645570755
2.733578681945801,-0.08144503086805344,-0.11081864684820175,0.14515145123004913,0.13141833245754242,-0.0009536888683214784,0.03185320645570755
2.7536261081695557,-0.08182650804519653,-0.11387044936418533,0.14744029939174652,0.13179980218410492,-0.0013351644156500697,0.03223468363285065
2.7737011909484863,-0.08258945494890213,-0.11615930497646332,0.1501106321811676,0.1329442262649536,-0.0013351644156500697,0.032616160809993744
2.7937729358673096,-0.08335240930318832,-0.1184481605887413,0.1516365259885788,0.1348516047000885,-0.0013351644156500697,0.03337911143898964
2.8138375282287598,-0.08335240930318832,-0.11959258466959,0.1527809500694275,0.1359960287809372,-0.001716639962978661,0.03452353551983833
2.83388352394104,-0.08373387902975082,-0.12188144028186798,0.15430685877799988,0.13790340721607208,-0.0020981156267225742,0.03490501269698143
2.853985071182251,-0.08487831056118011,-0.12531471252441406,0.15697719156742096,0.13904783129692078,-0.0013351644156500697,0.03490501269698143
2.874105930328369,-0.08564125746488571,-0.12836651504039764,0.16002899408340454,0.13981078565120697,-0.0013351644156500697,0.03490501269698143
2.8942341804504395,-0.08564125746488571,-0.13065537810325623,0.16155488789081573,0.14133669435977936,-0.0013351644156500697,0.03528648987412453
2.9142701625823975,-0.08564125746488571,-0.1325627565383911,0.16384375095367432,0.14286258816719055,-0.001716639962978661,0.03528648987412453
2.9343721866607666,-0.08564125746488571,-0.134470134973526,0.1668955534696579,0.14515145123004913,-0.001716639962978661,0.03604944050312042
2.954439401626587,-0.08602273464202881,-0.1359960287809372,0.16880293190479279,0.14667734503746033,-0.0013351644156500697,0.03681239113211632
2.9745144844055176,-0.086785688996315,-0.13790340721607208,0.17109178006649017,0.14782176911830902,-0.0013351644156500697,0.03757534176111221
2.9945764541625977,-0.0875486359000206,-0.14019227027893066,0.17261768877506256,0.1501106321811676,-0.0013351644156500697,0.03757534176111221
3.0146801471710205,-0.0875486359000206,-0.14248111844062805,0.17490653693675995,0.1512550562620163,-0.0013351644156500697,0.03795681521296501
3.034754753112793,-0.0875486359000206,-0.14667734503746033,0.17757686972618103,0.15316243469715118,-0.001716639962978661,0.03795681521296501
3.054825782775879,-0.0875486359000206,-0.1497291475534439,0.17986571788787842,0.15392538905143738,-0.001716639962978661,0.03833829239010811
3.0748913288116455,-0.0875486359000206,-0.152399480342865,0.182154580950737,0.15583276748657227,-0.0020981156267225742,0.03833829239010811
3.0953662395477295,-0.0875486359000206,-0.15354390442371368,0.1836804747581482,0.15735866129398346,-0.001716639962978661,0.03833829239010811
3.1154613494873047,-0.0879301130771637,-0.15545128285884857,0.18635080754756927,0.15812161564826965,-0.001716639962978661,0.03833829239010811
3.13559889793396,-0.0879301130771637,-0.15697719156742096,0.18825818598270416,0.16002899408340454,-0.0013351644156500697,0.03833829239010811
3.1556344032287598,-0.0883115902543068,-0.15926603972911835,0.18978407979011536,0.16155488789081573,-0.0009536888683214784,0.03833829239010811
3.175684928894043,-0.08869306743144989,-0.16193637251853943,0.19169145822525024,0.16231784224510193,-0.0013351644156500697,0.038719769567251205
3.1957755088806152,-0.08945601433515549,-0.16384375095367432,0.19398032128810883,0.1646067053079605,-0.0013351644156500697,0.038719769567251205
3.215850830078125,-0.08983749151229858,-0.1657511293888092,0.1958876997232437,0.1657511293888092,-0.0013351644156500697,0.038719769567251205
3.235902786254883,-0.08983749151229858,-0.16880293190479279,0.1981765478849411,0.1668955534696579,-0.0013351644156500697,0.038719769567251205
3.255964517593384,-0.08983749151229858,-0.17185473442077637,0.200083926320076,0.16880293190479279,-0.001716639962978661,0.039101243019104004
3.276054620742798,-0.09021896868944168,-0.17376211285591125,0.20237277448177338,0.16918440163135529,-0.0009536888683214784,0.039101243019104004
3.2961950302124023,-0.09021896868944168,-0.17605096101760864,0.20389868319034576,0.17185473442077637,-0.0009536888683214784,0.039101243019104004
3.3161964416503906,-0.09098191559314728,-0.17795833945274353,0.20618753135204315,0.17299915850162506,-0.000572213320992887,0.0394827201962471
3.336322069168091,-0.09174486994743347,-0.17948424816131592,0.20847637951374054,0.17490653693675995,-0.000572213320992887,0.0394827201962471
3.356383800506592,-0.09212634712457657,-0.1825360506772995,0.21114671230316162,0.17605096101760864,-0.0013351644156500697,0.0398641936480999
3.3764631748199463,-0.09174486994743347,-0.18520638346672058,0.2130540907382965,0.17719538509845734,-0.0013351644156500697,0.0398641936480999
3.396545171737671,-0.09212634712457657,-0.18673227727413177,0.2149614691734314,0.17948424816131592,-0.001716639962978661,0.040245670825242996
3.4166817665100098,-0.09212634712457657,-0.18978407979011536,0.21801327168941498,0.1810101419687271,-0.001716639962978661,0.04139009863138199
3.4367520809173584,-0.09212634712457657,-0.19321736693382263,0.22030213475227356,0.182917520403862,-0.0009536888683214784,0.04139009863138199
3.456817865371704,-0.09288929402828217,-0.1962691694498062,0.22297245264053345,0.1840619444847107,-0.000572213320992887,0.04177157208323479
3.4768669605255127,-0.09288929402828217,-0.1989395022392273,0.22564278542995453,0.18520638346672058,-0.000572213320992887,0.04177157208323479
3.4970078468322754,-0.09288929402828217,-0.20122835040092468,0.2286945879459381,0.18749523162841797,-0.0009536888683214784,0.04177157208323479
3.517073631286621,-0.09327077120542526,-0.20351719856262207,0.2313649207353592,0.18940261006355286,-0.0013351644156500697,0.042153049260377884
3.5371809005737305,-0.09365224838256836,-0.20542457699775696,0.23327229917049408,0.19130998849868774,-0.0013351644156500697,0.042153049260377884
3.557211399078369,-0.09365224838256836,-0.20885786414146423,0.23517967760562897,0.19169145822525024,-0.0013351644156500697,0.04253452271223068
3.5772817134857178,-0.09403372555971146,-0.21152819693088531,0.23823148012161255,0.19359883666038513,-0.000572213320992887,0.04253452271223068
3.5973594188690186,-0.09403372555971146,-0.2141985148191452,0.24128328263759613,0.19512474536895752,-0.0009536888683214784,0.04253452271223068
3.617464065551758,-0.09403372555971146,-0.21801327168941498,0.24357213079929352,0.1977950781583786,-0.000572213320992887,0.04253452271223068
3.637490749359131,-0.09403372555971146,-0.22106507420539856,0.2466239482164383,0.1993209719657898,-0.000572213320992887,0.04291599988937378
3.6576108932495117,-0.09479667246341705,-0.22449836134910583,0.24967575073242188,0.20160982012748718,-0.0009536888683214784,0.04291599988937378
3.6776857376098633,-0.09479667246341705,-0.22755016386508942,0.25196459889411926,0.20275425910949707,-0.0013351644156500697,0.04329747334122658
3.697749137878418,-0.09479667246341705,-0.2302204966545105,0.25349050760269165,0.20428015291690826,-0.0013351644156500697,0.043678950518369675
3.7177886962890625,-0.09479667246341705,-0.23289081454277039,0.25577935576438904,0.20618753135204315,-0.001716639962978661,0.04482337832450867
3.7379233837127686,-0.09479667246341705,-0.23517967760562897,0.2588311731815338,0.20733195543289185,-0.0013351644156500697,0.045204851776361465
3.757972478866577,-0.09479667246341705,-0.23785001039505005,0.2622644305229187,0.20962081849575043,-0.000572213320992887,0.04558632895350456
3.778080701828003,-0.09479667246341705,-0.24166475236415863,0.264934778213501,0.21152819693088531,-0.0009536888683214784,0.04558632895350456
3.798088312149048,-0.09479667246341705,-0.2447165697813034,0.26722362637519836,0.2138170450925827,-0.0013351644156500697,0.04558632895350456
3.81820011138916,-0.09517814964056015,-0.247768372297287,0.27065691351890564,0.2149614691734314,-0.0009536888683214784,0.04596780240535736
3.838280200958252,-0.09517814964056015,-0.24967575073242188,0.2725642919540405,0.21725031733512878,-0.0013351644156500697,0.04596780240535736
3.8584227561950684,-0.09517814964056015,-0.25310903787612915,0.2759975492954254,0.21877622604370117,-0.0013351644156500697,0.04596780240535736
3.878732681274414,-0.09517814964056015,-0.2569237947463989,0.2794308364391327,0.22106507420539856,-0.0013351644156500697,0.04596780240535736
3.8988444805145264,-0.09517814964056015,-0.2611200213432312,0.28286412358283997,0.22297245264053345,-0.0009536888683214784,0.04596780240535736
3.9188990592956543,-0.09555962681770325,-0.2645532786846161,0.28477150201797485,0.22526131570339203,-0.000572213320992887,0.04596780240535736
3.9389588832855225,-0.09555962681770325,-0.26760509610176086,0.28706035017967224,0.2283131182193756,-0.0009536888683214784,0.04596780240535736
3.9590232372283936,-0.09555962681770325,-0.27103838324546814,0.290112167596817,0.2302204966545105,-0.0009536888683214784,0.04634927958250046
3.9791054725646973,-0.09594109654426575,-0.2740901708602905,0.2935454249382019,0.23289081454277039,-0.000572213320992887,0.04634927958250046
3.9991743564605713,-0.09594109654426575,-0.2759975492954254,0.2958342730998993,0.23556114733219147,-0.0009536888683214784,0.04634927958250046
4.019268035888672,-0.09594109654426575,-0.2794308364391327,0.29812315106391907,0.23746852576732635,-0.0013351644156500697,0.04634927958250046
4.039509057998657,-0.09594109654426575,-0.28248265385627747,0.30117493867874146,0.23975738883018494,-0.0009536888683214784,0.04634927958250046
4.059625864028931,-0.09594109654426575,-0.28515297174453735,0.30384528636932373,0.24204623699188232,-0.000572213320992887,0.04634927958250046
4.079714775085449,-0.09594109654426575,-0.28858625888824463,0.3061341345310211,0.2439536154270172,-0.0009536888683214784,0.04634927958250046
4.099749803543091,-0.09594109654426575,-0.291638046503067,0.308804452419281,0.2458609938621521,-0.000572213320992887,0.046730753034353256
4.119884252548218,-0.09594109654426575,-0.2946898639202118,0.3122377395629883,0.247768372297287,-0.000572213320992887,0.046730753034353256
4.139915466308594,-0.09594109654426575,-0.2977416515350342,0.31490805745124817,0.25120165944099426,-0.0009536888683214784,0.046730753034353256
4.159976959228516,-0.09594109654426575,-0.30041199922561646,0.31681543588638306,0.25310903787612915,-0.0009536888683214784,0.046730753034353256
4.1801652908325195,-0.09594109654426575,-0.30460822582244873,0.31948578357696533,0.25577935576438904,-0.0013351644156500697,0.046730753034353256
4.2002527713775635,-0.09594109654426575,-0.3084229826927185,0.3233005404472351,0.2584496736526489,-0.0009536888683214784,0.046730753034353256
4.220322847366333,-0.09594109654426575,-0.3122377395629883,0.3263523280620575,0.2611200213432312,-0.000572213320992887,0.04711223021149635
4.240403413772583,-0.09594109654426575,-0.31567102670669556,0.33016708493232727,0.2626459002494812,-0.000572213320992887,0.04711223021149635
4.26047945022583,-0.09594109654426575,-0.31872281432151794,0.33283740282058716,0.2653162479400635,-0.0009536888683214784,0.04711223021149635
4.280652284622192,-0.09594109654426575,-0.3217746317386627,0.33627068996429443,0.26722362637519836,-0.000572213320992887,0.04711223021149635
4.3006792068481445,-0.09594109654426575,-0.325970858335495,0.3393225073814392,0.27027541399002075,-0.000572213320992887,0.04711223021149635
4.320727825164795,-0.09555962681770325,-0.32978561520576477,0.3416113555431366,0.2725642919540405,-0.000572213320992887,0.04749370738863945
4.3409974575042725,-0.09555962681770325,-0.33360037207603455,0.344663143157959,0.2748531401157379,-0.0009536888683214784,0.048256658017635345
4.361111640930176,-0.09555962681770325,-0.3374151289463043,0.34809643030166626,0.2779049277305603,-0.0009536888683214784,0.048256658017635345
4.38119649887085,-0.09555962681770325,-0.3412298858165741,0.35114824771881104,0.2813382148742676,-0.0009536888683214784,0.048638131469488144
4.401246786117554,-0.09479667246341705,-0.34542611241340637,0.3542000353336334,0.28515297174453735,-0.0009536888683214784,0.04901960864663124
4.421344041824341,-0.09479667246341705,-0.34924086928367615,0.3576333224773407,0.28782328963279724,-0.000572213320992887,0.04901960864663124
4.441431045532227,-0.09479667246341705,-0.3526741564273834,0.3603036403656006,0.28973066806793213,-0.0009536888683214784,0.04940108209848404
4.461490631103516,-0.09479667246341705,-0.3553444743156433,0.36297398805618286,0.2924010157585144,-0.000572213320992887,0.04940108209848404
4.481580495834351,-0.09479667246341705,-0.3587777614593506,0.36526283621788025,0.2962157726287842,-0.0009536888683214784,0.04940108209848404
4.501631498336792,-0.09479667246341705,-0.36297398805618286,0.3686961233615875,0.29926756024360657,-0.00019073777366429567,0.04940108209848404
4.521726369857788,-0.09479667246341705,-0.36678874492645264,0.3725108802318573,0.30384528636932373,-0.00019073777366429567,0.04940108209848404
4.541802167892456,-0.09479667246341705,-0.3713664412498474,0.3763256371021271,0.308041512966156,-0.0013351644156500697,0.04940108209848404
4.5618510246276855,-0.09479667246341705,-0.3759441375732422,0.37975889444351196,0.3122377395629883,-0.000572213320992887,0.04940108209848404
4.581933498382568,-0.09479667246341705,-0.38128480315208435,0.3847180902957916,0.31490805745124817,-0.000572213320992887,0.04940108209848404
4.602029323577881,-0.09441519528627396,-0.3858625292778015,0.3892957866191864,0.31795987486839294,-0.00019073777366429567,0.04940108209848404
4.6221067905426025,-0.09441519528627396,-0.3900587558746338,0.3923476040363312,0.3213931620121002,-0.000572213320992887,0.04940108209848404
4.6421730518341064,-0.09365224838256836,-0.39539939165115356,0.39616236090660095,0.32520791888237,-0.000572213320992887,0.04940108209848404
4.662254333496094,-0.09288929402828217,-0.4011215269565582,0.4007400572299957,0.3278782367706299,-0.00019073777366429567,0.04940108209848404
4.682361364364624,-0.09250781685113907,-0.4056992530822754,0.4045548141002655,0.33283740282058716,0.00019073777366429567,0.04940108209848404
4.702438831329346,-0.09250781685113907,-0.40989547967910767,0.4076066315174103,0.33665215969085693,-0.000572213320992887,0.04940108209848404
4.722488880157471,-0.09174486994743347,-0.41409170627593994,0.41103988885879517,0.3400854468345642,0.00019073777366429567,0.04940108209848404
4.742576837539673,-0.09136339277029037,-0.4186694025993347,0.41523614525794983,0.343900203704834,0.000572213320992887,0.04940108209848404
4.762673854827881,-0.09098191559314728,-0.4224841594696045,0.4194323718547821,0.34847790002822876,0.00019073777366429567,0.04901960864663124
4.782809257507324,-0.09021896868944168,-0.42706188559532166,0.4228656589984894,0.3530556261539459,-0.00019073777366429567,0.04901960864663124
4.802865743637085,-0.08945601433515549,-0.43202105164527893,0.42629891633987427,0.3576333224773407,-0.00019073777366429567,0.04940108209848404
4.823374032974243,-0.0875486359000206,-0.4377431869506836,0.43087664246559143,0.36297398805618286,0.00019073777366429567,0.04901960864663124
4.843483924865723,-0.086785688996315,-0.44308385252952576,0.4354543387889862,0.36793315410614014,0.0009536888683214784,0.04901960864663124
4.863536357879639,-0.0864042118191719,-0.4488059878349304,0.439269095659256,0.3721294105052948,0.0013351644156500697,0.04901960864663124
4.883638858795166,-0.08564125746488571,-0.4549095928668976,0.44308385252952576,0.37861448526382446,0.002861066721379757,0.048638131469488144
4.9040491580963135,-0.08449683338403702,-0.46177613735198975,0.4488059878349304,0.3866254687309265,0.0024795911740511656,0.048638131469488144
4.924160957336426,-0.08297093212604523,-0.4686427116394043,0.4552910625934601,0.39387351274490356,0.002861066721379757,0.048256658017635345
4.9442243576049805,-0.08144503086805344,-0.47512778639793396,0.46063172817230225,0.4007400572299957,0.0009536888683214784,0.04749370738863945
4.9643168449401855,-0.07991912961006165,-0.481612890958786,0.4648279547691345,0.4072251319885254,0.0020981156267225742,0.046730753034353256
4.984429597854614,-0.07877469807863235,-0.4892423748970032,0.4705500900745392,0.41485464572906494,0.0036240178160369396,0.04558632895350456
5.004510402679443,-0.07763027399778366,-0.4972533881664276,0.47627222537994385,0.4228656589984894,0.0032425422687083483,0.045204851776361465
5.024564266204834,-0.07610437273979187,-0.5048828721046448,0.4808499217033386,0.43240252137184143,0.00476844422519207,0.04406042397022247
5.044708251953125,-0.07381551712751389,-0.5132753252983093,0.4884794354438782,0.44613564014434814,0.004005493130534887,0.04177157208323479
5.06486177444458,-0.071908138692379,-0.5220493078231812,0.4953460097312927,0.46177613735198975,0.004005493130534887,0.038719769567251205
5.08488130569458,-0.07000076025724411,-0.5300602912902832,0.5022125840187073,0.47856107354164124,0.004005493130534887,0.03681239113211632
5.104930877685547,-0.06618601083755493,-0.5392156839370728,0.5094605684280396,0.5018310546875,0.005912871100008488,0.02994582988321781
5.125003099441528,-0.06389715522527695,-0.5449378490447998,0.5132753252983093,0.533875048160553,0.00858320016413927,0.018501564860343933
5.145087242126465,-0.05893797054886818,-0.5460822582244873,0.5163271427154541,0.571259617805481,0.007438773289322853,0.000572213320992887
5.165271043777466,-0.054741740226745605,-0.5445563197135925,0.5140383243560791,0.6059738993644714,0.007438773289322853,-0.02689402550458908
5.185297012329102,-0.0551232174038887,-0.5430304408073425,0.5125123858451843,0.6212329268455505,0.01125352829694748,-0.04444190114736557
5.205368280410767,-0.053215838968753815,-0.5437933802604675,0.5159456729888916,0.6460288166999817,0.010872052982449532,-0.06809338182210922
5.225431442260742,-0.05245288833975792,-0.5468451976776123,0.5140383243560791,0.6662470698356628,0.01583123579621315,-0.08487831056118011
5.245506048202515,-0.05359731614589691,-0.5495155453681946,0.5151827335357666,0.692568838596344,0.015449759550392628,-0.10738536715507507
5.265557050704956,-0.051689937710762024,-0.5548561811447144,0.5212863087654114,0.7127870321273804,0.007057297509163618,-0.12378881871700287
5.28571081161499,-0.04940108209848404,-0.5609598159790039,0.5254825949668884,0.7429236173629761,0.0036240178160369396,-0.1497291475534439
5.3057239055633545,-0.05283436179161072,-0.5643930435180664,0.5300602912902832,0.7726787328720093,0.02231631986796856,-0.17833982408046722
5.325817108154297,-0.053215838968753815,-0.5640115737915039,0.5281528830528259,0.7932783961296082,0.025749599561095238,-0.20389868319034576
5.345891952514648,-0.04940108209848404,-0.5643930435180664,0.5243381261825562,0.8146410584449768,0.03452353551983833,-0.22411687672138214
5.365986108779907,-0.05436026677489281,-0.5647745728492737,0.5266270041465759,0.840962827205658,0.03528648987412453,-0.2447165697813034
5.386090040206909,-0.05092698708176613,-0.5727855563163757,0.5270084738731384,0.8623254895210266,0.03490501269698143,-0.2634088695049286
5.406174421310425,-0.048256658017635345,-0.5819409489631653,0.5308232307434082,0.8760585784912109,0.0394827201962471,-0.2759975492954254
5.426228046417236,-0.04901960864663124,-0.5910963416099548,0.5365453362464905,0.8859769701957703,0.03452353551983833,-0.28248265385627747
5.446326017379761,-0.04901960864663124,-0.5991073250770569,0.5468451976776123,0.890554666519165,0.025749599561095238,-0.28896772861480713
5.466384649276733,-0.04139009863138199,-0.6033035516738892,0.5479896068572998,0.9096284508705139,0.029564354568719864,-0.30384528636932373
5.486469268798828,-0.040245670825242996,-0.6006332635879517,0.5476081371307373,0.925650417804718,0.03452353551983833,-0.3110933005809784
5.506518125534058,-0.04596780240535736,-0.5991073250770569,0.5464637279510498,0.9431982636451721,0.03833829239010811,-0.32101166248321533
5.526636362075806,-0.04787518084049225,-0.5987258553504944,0.5399786233901978,0.9523537158966064,0.04100862145423889,-0.32978561520576477
5.546821594238281,-0.04749370738863945,-0.5987258553504944,0.5392156839370728,0.9676127433776855,0.040245670825242996,-0.3408484160900116
5.566838026046753,-0.048256658017635345,-0.6017776727676392,0.5430304408073425,0.9771496057510376,0.03337911143898964,-0.34542611241340637
5.587360382080078,-0.04940108209848404,-0.6063553690910339,0.5518043637275696,0.9859235286712646,0.02079041674733162,-0.35152971744537354
5.60759162902832,-0.04100862145423889,-0.6109330654144287,0.5544747114181519,1.0008010864257812,0.01926451548933983,-0.36335545778274536
5.627599239349365,-0.03757534176111221,-0.6097886562347412,0.5506599545478821,1.0145342350006104,0.0398641936480999,-0.37937742471694946
5.647728681564331,-0.04634927958250046,-0.6094071865081787,0.5498970150947571,1.0233081579208374,0.045204851776361465,-0.387006938457489
5.667771339416504,-0.04940108209848404,-0.6082627773284912,0.5487525463104248,1.030937671661377,0.04406042397022247,-0.39539939165115356
5.6878626346588135,-0.03757534176111221,-0.6132219433784485,0.5544747114181519,1.048485517501831,0.03643091395497322,-0.4091325104236603
5.707965850830078,-0.03376058489084244,-0.619325578212738,0.5601968169212341,1.0614557266235352,0.03643091395497322,-0.41294726729393005
5.727996349334717,-0.03795681521296501,-0.6246662139892578,0.5628671646118164,1.0690852403640747,0.03757534176111221,-0.4209582805633545
5.748084783554077,-0.043678950518369675,-0.6250476837158203,0.5685893297195435,1.0843442678451538,0.03643091395497322,-0.4377431869506836
5.768198251724243,-0.04444190114736557,-0.6258106231689453,0.5731670260429382,1.0992218255996704,0.027656977996230125,-0.44728007912635803
5.788247346878052,-0.04406042397022247,-0.6258106231689453,0.5746929049491882,1.1022735834121704,0.03757534176111221,-0.4537651538848877
5.808705568313599,-0.04634927958250046,-0.6254291534423828,0.5739299654960632,1.1072328090667725,0.04291599988937378,-0.45757991075515747
5.828795909881592,-0.05245288833975792,-0.6254291534423828,0.5693522691726685,1.112191915512085,0.04482337832450867,-0.46139466762542725
5.848850727081299,-0.050164032727479935,-0.6258106231689453,0.5708781480789185,1.120965838432312,0.03757534176111221,-0.4678797721862793
5.868933916091919,-0.048256658017635345,-0.6284809708595276,0.5754558444023132,1.127450942993164,0.03032730519771576,-0.4701686203479767
5.88897442817688,-0.04901960864663124,-0.6322957277297974,0.5830853581428528,1.1331731081008911,0.023079270496964455,-0.47512778639793396
5.909060478210449,-0.04940108209848404,-0.6338216066360474,0.5846112966537476,1.1427099704742432,0.02880140393972397,-0.4865720570087433
5.929156541824341,-0.05130846053361893,-0.6330586671829224,0.5838482975959778,1.1484321355819702,0.040245670825242996,-0.49114975333213806
5.949223279953003,-0.05397878959774971,-0.6319142580032349,0.5823224186897278,1.1522468328475952,0.04787518084049225,-0.4957274794578552
5.969422101974487,-0.0555046908557415,-0.6345845460891724,0.5807965397834778,1.1644541025161743,0.04787518084049225,-0.5045014023780823
5.989526748657227,-0.0555046908557415,-0.6361104846000671,0.5827038884162903,1.176279902458191,0.03795681521296501,-0.5098420977592468
6.009638547897339,-0.054741740226745605,-0.6414511203765869,0.5891889929771423,1.1835278272628784,0.02689402550458908,-0.5159456729888916
6.029704809188843,-0.05092698708176613,-0.6456473469734192,0.5987258553504944,1.188105583190918,0.02040894143283367,-0.5224307775497437
6.049733638763428,-0.04596780240535736,-0.6452658772468567,0.5991073250770569,1.195353627204895,0.02994582988321781,-0.5350194573402405
6.0698137283325195,-0.04711223021149635,-0.6441214680671692,0.5983443856239319,1.19916832447052,0.040245670825242996,-0.5392156839370728
6.089874744415283,-0.048256658017635345,-0.6433585286140442,0.5971999764442444,1.201075792312622,0.049782559275627136,-0.54417484998703
6.109947443008423,-0.050164032727479935,-0.6433585286140442,0.5933852195739746,1.203364610671997,0.05245288833975792,-0.5472266674041748
6.130006790161133,-0.051689937710762024,-0.6433585286140442,0.5914778113365173,1.2121385335922241,0.04940108209848404,-0.5518043637275696
6.150122404098511,-0.05207141116261482,-0.6456473469734192,0.5926222801208496,1.2163348197937012,0.03757534176111221,-0.5521858334541321
6.17017388343811,-0.053215838968753815,-0.647936224937439,0.5937666893005371,1.2190051078796387,0.025749599561095238,-0.5533303022384644
6.190310716629028,-0.0558861680328846,-0.6483176946640015,0.5956740379333496,1.2201495170593262,0.02231631986796856,-0.5537117719650269
6.2103798389434814,-0.05436026677489281,-0.648699164390564,0.5994887948036194,1.2220568656921387,0.02536812424659729,-0.5548561811447144
6.230478763580322,-0.050164032727479935,-0.648699164390564,0.6010147333145142,1.2304493188858032,0.03757534176111221,-0.5655375123023987
6.250543832778931,-0.050164032727479935,-0.6483176946640015,0.6006332635879517,1.2315938472747803,0.048638131469488144,-0.5655375123023987
6.270606279373169,-0.04901960864663124,-0.6483176946640015,0.5998703241348267,1.2315938472747803,0.05130846053361893,-0.5678263306617737
6.290761232376099,-0.05054550990462303,-0.648699164390564,0.5960555672645569,1.2327382564544678,0.05130846053361893,-0.5693522691726685
6.310873985290527,-0.056267641484737396,-0.6498435735702515,0.5960555672645569,1.2396048307418823,0.04291599988937378,-0.5724040865898132
6.330939054489136,-0.05741206929087639,-0.6509880423545837,0.5968185067176819,1.2422751188278198,0.03337911143898964,-0.5735484957695007
6.3510682582855225,-0.059319447726011276,-0.6513695120811462,0.5983443856239319,1.2457083463668823,0.025749599561095238,-0.5731670260429382
6.3711323738098145,-0.06046387553215027,-0.6513695120811462,0.6017776727676392,1.2472343444824219,0.02536812424659729,-0.5735484957695007
6.391309976577759,-0.05130846053361893,-0.6525139212608337,0.6044480204582214,1.2518119812011719,0.027656977996230125,-0.5781261920928955
6.411336660385132,-0.050164032727479935,-0.6517509818077087,0.6040665507316589,1.2548638582229614,0.04634927958250046,-0.5815594792366028
6.431428909301758,-0.050164032727479935,-0.6513695120811462,0.6036850810050964,1.254482388496399,0.049782559275627136,-0.5842298269271851
6.451466083526611,-0.049782559275627136,-0.6513695120811462,0.6006332635879517,1.254482388496399,0.05054550990462303,-0.5857557058334351
6.471548795700073,-0.0558861680328846,-0.6528953909873962,0.5987258553504944,1.2609673738479614,0.04482337832450867,-0.5903334021568298
6.491699457168579,-0.058175019919872284,-0.654421329498291,0.5991073250770569,1.264019250869751,0.03795681521296501,-0.5910963416099548
6.511794805526733,-0.05855649709701538,-0.655184268951416,0.6002517938613892,1.2659265995025635,0.03032730519771576,-0.5910963416099548
6.531834363937378,-0.059319447726011276,-0.6548027992248535,0.6025406122207642,1.267833948135376,0.02841992862522602,-0.5910963416099548
6.552029609680176,-0.059319447726011276,-0.654421329498291,0.6109330654144287,1.270504355430603,0.027656977996230125,-0.5922408103942871
6.572137355804443,-0.05970092490315437,-0.6548027992248535,0.6132219433784485,1.2724117040634155,0.039101243019104004,-0.5952925682067871
6.5922040939331055,-0.05970092490315437,-0.6540398001670837,0.6124590039253235,1.2724117040634155,0.04940108209848404,-0.5968185067176819
6.612264633178711,-0.05970092490315437,-0.6532768607139587,0.6109330654144287,1.272030234336853,0.05245288833975792,-0.5983443856239319
6.632348537445068,-0.05855649709701538,-0.6536583304405212,0.6063553690910339,1.272793173789978,0.05130846053361893,-0.5991073250770569
6.652411460876465,-0.06237125024199486,-0.655184268951416,0.6113145351409912,1.281567096710205,0.03452353551983833,-0.6029220819473267
6.6724936962127686,-0.06275273114442825,-0.6582360863685608,0.6166552305221558,1.284618854522705,0.026512550190091133,-0.6036850810050964
6.69253134727478,-0.06084534898400307,-0.6586175560951233,0.620851457118988,1.2884336709976196,0.02193484455347061,-0.6059738993644714
6.7126240730285645,-0.06084534898400307,-0.657473087310791,0.620088517665863,1.2926298379898071,0.03376058489084244,-0.613603413105011
6.732682704925537,-0.06198977679014206,-0.6563286781311035,0.6177996397018433,1.2937743663787842,0.04100862145423889,-0.6170367002487183
6.75275731086731,-0.06198977679014206,-0.656710147857666,0.612840473651886,1.2975890636444092,0.04749370738863945,-0.619325578212738
6.772804498672485,-0.06351567804813385,-0.656710147857666,0.6132219433784485,1.3067444562911987,0.04291599988937378,-0.6269550919532776
6.792931079864502,-0.06160829961299896,-0.6597619652748108,0.6162737607955933,1.3117036819458008,0.03299763426184654,-0.6303883194923401
6.812990427017212,-0.059319447726011276,-0.6651026010513306,0.6231403350830078,1.3147554397583008,0.024986648932099342,-0.6353475451469421
6.833105087280273,-0.059319447726011276,-0.6673914790153503,0.6300068497657776,1.3200961351394653,0.018120087683200836,-0.6403067111968994
6.853123664855957,-0.05970092490315437,-0.6658655405044556,0.6311513185501099,1.3208590745925903,0.030708782374858856,-0.6445029377937317
6.873224973678589,-0.06046387553215027,-0.6647211313247681,0.6315327882766724,1.3223849534988403,0.040245670825242996,-0.6460288166999817
6.893288850784302,-0.061226826161146164,-0.6639581918716431,0.6300068497657776,1.3235293626785278,0.04558632895350456,-0.6467918157577515
6.913475751876831,-0.06084534898400307,-0.6628137826919556,0.6265735626220703,1.3239108324050903,0.04634927958250046,-0.647936224937439
6.933471441268921,-0.06313420087099075,-0.6628137826919556,0.6212329268455505,1.3292515277862549,0.04482337832450867,-0.6525139212608337
6.953555345535278,-0.06275273114442825,-0.6654840707778931,0.620851457118988,1.332684874534607,0.02880140393972397,-0.6532768607139587
6.973670244216919,-0.06198977679014206,-0.6681544184684753,0.6212329268455505,1.334973692893982,0.02384222112596035,-0.654421329498291
6.993771076202393,-0.06198977679014206,-0.6677729487419128,0.6219958662986755,1.335736632347107,0.01773861236870289,-0.654421329498291
7.0139899253845215,-0.06351567804813385,-0.6666285395622253,0.6254291534423828,1.335736632347107,0.02079041674733162,-0.655184268951416
7.034104347229004,-0.05970092490315437,-0.6658655405044556,0.6284809708595276,1.3376439809799194,0.024223696440458298,-0.6570916175842285
7.05421781539917,-0.05855649709701538,-0.6651026010513306,0.6292439103126526,1.338788390159607,0.04177157208323479,-0.6609063744544983
7.074203729629517,-0.05855649709701538,-0.6647211313247681,0.6277180314064026,1.3391698598861694,0.048256658017635345,-0.6620507836341858
7.094302654266357,-0.05855649709701538,-0.6647211313247681,0.6235218048095703,1.3391698598861694,0.04558632895350456,-0.6628137826919556
7.11436915397644,-0.06160829961299896,-0.6651026010513306,0.6254291534423828,1.3483253717422485,0.03223468363285065,-0.6670100092887878
7.1344404220581055,-0.06160829961299896,-0.6681544184684753,0.6296253800392151,1.3521400690078735,0.021553369238972664,-0.6673914790153503
7.154510021209717,-0.06046387553215027,-0.6689173579216003,0.6326771974563599,1.355954885482788,0.01430533267557621,-0.6692988276481628
7.174604654312134,-0.056267641484737396,-0.6681544184684753,0.6395437717437744,1.3609139919281006,0.009727626107633114,-0.6712062358856201
7.194745063781738,-0.0551232174038887,-0.6670100092887878,0.6403067111968994,1.3616769313812256,0.030708782374858856,-0.6761654019355774
7.214757204055786,-0.0558861680328846,-0.6662470698356628,0.6406881809234619,1.3616769313812256,0.03681239113211632,-0.6776912808418274
7.2348222732543945,-0.0555046908557415,-0.6654840707778931,0.6399252414703369,1.361295461654663,0.040627144277095795,-0.6792172193527222
7.254887104034424,-0.0551232174038887,-0.6654840707778931,0.6361104846000671,1.361295461654663,0.03604944050312042,-0.6792172193527222
7.274960279464722,-0.0551232174038887,-0.6658655405044556,0.6322957277297974,1.3616769313812256,0.03681239113211632,-0.6811245679855347
7.2950804233551025,-0.0555046908557415,-0.6677729487419128,0.6311513185501099,1.362821340560913,0.022697795182466507,-0.6811245679855347
7.315129518508911,-0.0555046908557415,-0.6692988276481628,0.6311513185501099,1.3639658689498901,0.009346150793135166,-0.6807430982589722
7.3352227210998535,-0.05703059583902359,-0.6692988276481628,0.6326771974563599,1.3651102781295776,0.00667582219466567,-0.6807430982589722
7.355300664901733,-0.058175019919872284,-0.6685358881950378,0.6372548937797546,1.3654917478561401,0.01201647985726595,-0.6811245679855347
7.3753485679626465,-0.05703059583902359,-0.6681544184684753,0.6376363635063171,1.3654917478561401,0.023079270496964455,-0.6830319762229919
7.395738840103149,-0.05664911866188049,-0.6677729487419128,0.6330586671829224,1.3658732175827026,0.03833829239010811,-0.6857023239135742
7.415866851806641,-0.06046387553215027,-0.6677729487419128,0.6273365616798401,1.3673990964889526,0.045204851776361465,-0.6879911422729492
7.435900688171387,-0.06961929053068161,-0.6677729487419128,0.6311513185501099,1.3757915496826172,0.03223468363285065,-0.6906614899635315
7.455994367599487,-0.06923781335353851,-0.6719691753387451,0.6345845460891724,1.3811322450637817,0.02384222112596035,-0.6921873688697815
7.476093053817749,-0.06809338182210922,-0.6754024624824524,0.6380178332328796,1.3841840028762817,0.019645990803837776,-0.692568838596344
7.496210336685181,-0.06771191209554672,-0.6761654019355774,0.6437399983406067,1.3879988193511963,0.008201723918318748,-0.6929503083229065
7.516226053237915,-0.06313420087099075,-0.6761654019355774,0.6464102864265442,1.3883802890777588,0.01506828423589468,-0.6956206560134888
7.536332845687866,-0.06084534898400307,-0.6754024624824524,0.6467918157577515,1.3883802890777588,0.024223696440458298,-0.6971465349197388
7.556396245956421,-0.06046387553215027,-0.6750209927558899,0.6456473469734192,1.3883802890777588,0.03147173300385475,-0.699053943157196
7.5764689445495605,-0.06008239835500717,-0.6750209927558899,0.6418325901031494,1.3883802890777588,0.03299763426184654,-0.7017242908477783
7.596531629562378,-0.06504157930612564,-0.6750209927558899,0.6380178332328796,1.3929579257965088,0.032616160809993744,-0.7051575779914856
7.616653919219971,-0.06771191209554672,-0.6765468716621399,0.6372548937797546,1.3937208652496338,0.01888304017484188,-0.7059205174446106
7.636764764785767,-0.06771191209554672,-0.6773098111152649,0.6372548937797546,1.3956283330917358,0.00858320016413927,-0.7051575779914856
7.65683388710022,-0.06961929053068161,-0.6773098111152649,0.6383993029594421,1.3960098028182983,0.00667582219466567,-0.7051575779914856
7.676940441131592,-0.07038223743438721,-0.6773098111152649,0.6406881809234619,1.3960098028182983,0.013160906732082367,-0.7051575779914856
7.696980953216553,-0.05703059583902359,-0.6769283413887024,0.6429770588874817,1.3979171514511108,0.01926451548933983,-0.7082093358039856
7.717057228088379,-0.05245288833975792,-0.6765468716621399,0.6429770588874817,1.3998245000839233,0.03337911143898964,-0.7101167440414429
7.737128496170044,-0.05207141116261482,-0.6761654019355774,0.6422140598297119,1.3990615606307983,0.03528648987412453,-0.7116426229476929
7.757201194763184,-0.05245288833975792,-0.6765468716621399,0.6391623020172119,1.3990615606307983,0.03299763426184654,-0.7139315009117126
7.777247428894043,-0.05741206929087639,-0.6761654019355774,0.6349660754203796,1.404402256011963,0.03299763426184654,-0.7166017889976501
7.797404050827026,-0.058175019919872284,-0.6765468716621399,0.6342030763626099,1.406691074371338,0.021171892061829567,-0.7173647880554199
7.817427396774292,-0.05855649709701538,-0.6773098111152649,0.6345845460891724,1.4085984230041504,0.015449759550392628,-0.7169833183288574
7.837506532669067,-0.059319447726011276,-0.6773098111152649,0.6361104846000671,1.4101243019104004,0.01201647985726595,-0.7169833183288574
7.8575897216796875,-0.06008239835500717,-0.6773098111152649,0.6414511203765869,1.410887360572815,0.013160906732082367,-0.7173647880554199
7.877671480178833,-0.05207141116261482,-0.6773098111152649,0.6433585286140442,1.4120317697525024,0.023460745811462402,-0.7223239541053772
7.897749662399292,-0.05054550990462303,-0.6769283413887024,0.6433585286140442,1.41317617893219,0.034142062067985535,-0.7227054238319397
7.9178688526153564,-0.048638131469488144,-0.6761654019355774,0.6425955891609192,1.412413239479065,0.03795681521296501,-0.7234683632850647
7.937944412231445,-0.04787518084049225,-0.6761654019355774,0.6399252414703369,1.412413239479065,0.03528648987412453,-0.724612832069397
7.957988739013672,-0.053215838968753815,-0.6765468716621399,0.6376363635063171,1.41317617893219,0.03376058489084244,-0.725375771522522
7.978058099746704,-0.0558861680328846,-0.6773098111152649,0.6372548937797546,1.4135576486587524,0.01888304017484188,-0.7265201807022095
7.9981584548950195,-0.0555046908557415,-0.6776912808418274,0.6380178332328796,1.4143205881118774,0.01506828423589468,-0.726138710975647
8.018234014511108,-0.058175019919872284,-0.6773098111152649,0.6406881809234619,1.41470205783844,0.01583123579621315,-0.7265201807022095
8.038334608078003,-0.05245288833975792,-0.6773098111152649,0.6403067111968994,1.415464997291565,0.01926451548933983,-0.7272831201553345
8.058442115783691,-0.050164032727479935,-0.6765468716621399,0.6391623020172119,1.4158464670181274,0.03757534176111221,-0.7303349375724792
8.078488111495972,-0.05283436179161072,-0.6761654019355774,0.6372548937797546,1.4166094064712524,0.04177157208323479,-0.7314793467521667
8.098598957061768,-0.053215838968753815,-0.6761654019355774,0.6322957277297974,1.4200427532196045,0.04329747334122658,-0.735675573348999
8.118642091751099,-0.05397878959774971,-0.6765468716621399,0.6322957277297974,1.4238574504852295,0.032616160809993744,-0.7375829815864563
8.138713121414185,-0.05436026677489281,-0.6784542798995972,0.6322957277297974,1.4253833293914795,0.024605173617601395,-0.7383459210395813
8.158901929855347,-0.054741740226745605,-0.6784542798995972,0.6342030763626099,1.426909327507019,0.018120087683200836,-0.7387273907661438
8.179017782211304,-0.05664911866188049,-0.6780728101730347,0.6399252414703369,1.4288166761398315,0.020027466118335724,-0.7391088604927063
8.199090480804443,-0.05855649709701538,-0.6780728101730347,0.6425955891609192,1.4288166761398315,0.03147173300385475,-0.7425421476364136
8.219144344329834,-0.05855649709701538,-0.6773098111152649,0.6425955891609192,1.4288166761398315,0.0398641936480999,-0.7452124953269958
8.23925495147705,-0.05855649709701538,-0.6773098111152649,0.6406881809234619,1.429198145866394,0.04482337832450867,-0.7455939650535583
8.259345054626465,-0.05893797054886818,-0.6773098111152649,0.6353475451469421,1.4288166761398315,0.043678950518369675,-0.7467383742332458
8.279393434524536,-0.05893797054886818,-0.6773098111152649,0.6326771974563599,1.4295796155929565,0.03681239113211632,-0.7478827834129333
8.299463033676147,-0.05855649709701538,-0.6788357496261597,0.6322957277297974,1.429961085319519,0.024223696440458298,-0.7478827834129333
8.31956696510315,-0.05855649709701538,-0.6799801588058472,0.6326771974563599,1.4311054944992065,0.016212711110711098,-0.7478827834129333
8.339706182479858,-0.05855649709701538,-0.6795986890792847,0.6342030763626099,1.4318684339523315,0.016594186425209045,-0.7478827834129333
8.35969591140747,-0.05893797054886818,-0.6795986890792847,0.6399252414703369,1.4326313734054565,0.02040894143283367,-0.7482643127441406
8.379757165908813,-0.05855649709701538,-0.6792172193527222,0.6422140598297119,1.4326313734054565,0.03147173300385475,-0.7505531311035156
8.399836301803589,-0.05855649709701538,-0.6780728101730347,0.6422140598297119,1.4326313734054565,0.04253452271223068,-0.7524605393409729
8.420019626617432,-0.05893797054886818,-0.6776912808418274,0.6406881809234619,1.4326313734054565,0.043678950518369675,-0.7536049485206604
8.440019369125366,-0.06084534898400307,-0.6773098111152649,0.6357290148735046,1.433012843132019,0.04253452271223068,-0.7547493577003479
8.460130214691162,-0.06427863240242004,-0.6776912808418274,0.6322957277297974,1.4368276596069336,0.034142062067985535,-0.7566567659378052
8.480255126953125,-0.06504157930612564,-0.6788357496261597,0.6311513185501099,1.438735008239746,0.021171892061829567,-0.7562752962112427
8.500282049179077,-0.06618601083755493,-0.6799801588058472,0.6319142580032349,1.4398794174194336,0.01430533267557621,-0.7562752962112427
8.520352602005005,-0.06771191209554672,-0.6799801588058472,0.6330586671829224,1.4398794174194336,0.014686808921396732,-0.7562752962112427
8.540408611297607,-0.06771191209554672,-0.6792172193527222,0.6361104846000671,1.440260887145996,0.02079041674733162,-0.7566567659378052
8.56050157546997,-0.06084534898400307,-0.6795986890792847,0.6399252414703369,1.440260887145996,0.024605173617601395,-0.7581826448440552
8.580570220947266,-0.05893797054886818,-0.6792172193527222,0.6399252414703369,1.4406423568725586,0.04139009863138199,-0.7597085237503052
8.600722312927246,-0.057793546468019485,-0.6780728101730347,0.6391623020172119,1.4398794174194336,0.045204851776361465,-0.7608529925346375
8.620738506317139,-0.05703059583902359,-0.6780728101730347,0.6353475451469421,1.440260887145996,0.04329747334122658,-0.7623788714408875
8.640822172164917,-0.06084534898400307,-0.6784542798995972,0.6322957277297974,1.4406423568725586,0.038719769567251205,-0.763523280620575
8.660887479782104,-0.06237125024199486,-0.6795986890792847,0.6322957277297974,1.4414052963256836,0.024605173617601395,-0.7639048099517822
8.681002378463745,-0.06389715522527695,-0.6803616285324097,0.6322957277297974,1.4436942338943481,0.016975661739706993,-0.763523280620575
8.701027393341064,-0.06618601083755493,-0.6803616285324097,0.6338216066360474,1.4440757036209106,0.01888304017484188,-0.763523280620575
8.721174955368042,-0.06389715522527695,-0.6795986890792847,0.6406881809234619,1.4444571733474731,0.021171892061829567,-0.763523280620575
8.741237878799438,-0.057793546468019485,-0.6795986890792847,0.6399252414703369,1.4440757036209106,0.03376058489084244,-0.7654306888580322
8.761348485946655,-0.056267641484737396,-0.6792172193527222,0.6353475451469421,1.4448386430740356,0.045204851776361465,-0.7669565677642822
8.781368255615234,-0.0555046908557415,-0.6792172193527222,0.6319142580032349,1.4444571733474731,0.045204851776361465,-0.767719566822052
8.801445722579956,-0.059319447726011276,-0.6792172193527222,0.6296253800392151,1.4448386430740356,0.0398641936480999,-0.768482506275177
8.821509838104248,-0.05970092490315437,-0.6807430982589722,0.6303883194923401,1.4459830522537231,0.03032730519771576,-0.7681010365486145
8.8415846824646,-0.06008239835500717,-0.6822690367698669,0.6303883194923401,1.4471274614334106,0.02040894143283367,-0.7681010365486145
8.861635446548462,-0.06084534898400307,-0.6822690367698669,0.6315327882766724,1.4475089311599731,0.018120087683200836,-0.767719566822052
8.881778478622437,-0.06313420087099075,-0.6815060377120972,0.6357290148735046,1.4478904008865356,0.02193484455347061,-0.767719566822052
8.901818990707397,-0.05855649709701538,-0.6807430982589722,0.6395437717437744,1.4482718706130981,0.027656977996230125,-0.7688639760017395
8.921886205673218,-0.05703059583902359,-0.6795986890792847,0.6403067111968994,1.4486533403396606,0.038719769567251205,-0.7696269154548645
8.941946983337402,-0.056267641484737396,-0.6795986890792847,0.6403067111968994,1.4482718706130981,0.045204851776361465,-0.7715343236923218
8.962018966674805,-0.0551232174038887,-0.6795986890792847,0.6372548937797546,1.4482718706130981,0.043678950518369675,-0.7722972631454468
8.982093095779419,-0.05855649709701538,-0.6792172193527222,0.6342030763626099,1.4497978687286377,0.04444190114736557,-0.7722972631454468
9.002182245254517,-0.06008239835500717,-0.6807430982589722,0.6338216066360474,1.4501793384552002,0.024986648932099342,-0.7742046117782593
9.02223515510559,-0.06084534898400307,-0.6815060377120972,0.6334401369094849,1.4517052173614502,0.01773861236870289,-0.7734416723251343
9.04228162765503,-0.06275273114442825,-0.6818875670433044,0.6345845460891724,1.4517052173614502,0.01735713705420494,-0.7734416723251343
9.062366008758545,-0.06389715522527695,-0.6815060377120972,0.6387808322906494,1.4524681568145752,0.02079041674733162,-0.7734416723251343
9.082459688186646,-0.0558861680328846,-0.6807430982589722,0.6418325901031494,1.4532310962677002,0.024223696440458298,-0.7749675512313843
9.10255217552185,-0.05283436179161072,-0.6803616285324097,0.6422140598297119,1.4551384449005127,0.03795681521296501,-0.7749675512313843
9.122809171676636,-0.051689937710762024,-0.6799801588058472,0.6406881809234619,1.4543755054473877,0.04253452271223068,-0.7768749594688416
9.142906188964844,-0.053215838968753815,-0.6795986890792847,0.6357290148735046,1.4539940357208252,0.04139009863138199,-0.7784008383750916
9.162973880767822,-0.06237125024199486,-0.6803616285324097,0.6338216066360474,1.4562828540802002,0.03452353551983833,-0.7791637778282166
9.18305230140686,-0.06504157930612564,-0.6811245679855347,0.6338216066360474,1.4570459127426147,0.02536812424659729,-0.7803082466125488
9.20310115814209,-0.06694895774126053,-0.6818875670433044,0.6338216066360474,1.4589532613754272,0.016594186425209045,-0.7791637778282166
9.223191499710083,-0.06885633617639542,-0.6818875670433044,0.6353475451469421,1.4608606100082397,0.01773861236870289,-0.778782308101654
9.243249416351318,-0.06847485899925232,-0.6815060377120972,0.6387808322906494,1.4612420797348022,0.01888304017484188,-0.778782308101654
9.263298988342285,-0.061226826161146164,-0.6811245679855347,0.6414511203765869,1.4620050191879272,0.026131074875593185,-0.7791637778282166
9.283405542373657,-0.05970092490315437,-0.6803616285324097,0.6406881809234619,1.4623864889144897,0.039101243019104004,-0.7814526557922363
9.303463697433472,-0.059319447726011276,-0.6803616285324097,0.6383993029594421,1.4620050191879272,0.043678950518369675,-0.7833600640296936
9.32354736328125,-0.06084534898400307,-0.6799801588058472,0.6345845460891724,1.4620050191879272,0.043678950518369675,-0.7845044732093811
9.343610286712646,-0.06313420087099075,-0.6807430982589722,0.6368734240531921,1.4627679586410522,0.029564354568719864,-0.7848859429359436
9.363717794418335,-0.06351567804813385,-0.6826505064964294,0.6403067111968994,1.4631494283676147,0.02079041674733162,-0.7856488823890686
9.383774757385254,-0.06427863240242004,-0.6826505064964294,0.6448844075202942,1.4646753072738647,0.01773861236870289,-0.7852674126625061
9.403837442398071,-0.05664911866188049,-0.6822690367698669,0.647936224937439,1.4654383659362793,0.01926451548933983,-0.7864118218421936
9.423894166946411,-0.053215838968753815,-0.6811245679855347,0.647936224937439,1.4665827751159668,0.03452353551983833,-0.7879377603530884
9.44399905204773,-0.053215838968753815,-0.6799801588058472,0.6475547552108765,1.4662013053894043,0.040627144277095795,-0.7898451089859009
9.464030981063843,-0.0551232174038887,-0.6795986890792847,0.6445029377937317,1.4658198356628418,0.04177157208323479,-0.7921339869499207
9.48411750793457,-0.054741740226745605,-0.6792172193527222,0.6395437717437744,1.4673457145690918,0.040627144277095795,-0.7928969264030457
9.50417423248291,-0.0555046908557415,-0.6807430982589722,0.6399252414703369,1.4692530632019043,0.024223696440458298,-0.7928969264030457
9.524242877960205,-0.0555046908557415,-0.6822690367698669,0.6395437717437744,1.4700160026550293,0.014686808921396732,-0.7928969264030457
9.54433274269104,-0.0558861680328846,-0.6826505064964294,0.6410696506500244,1.4703974723815918,0.010109102353453636,-0.7925154566764832
9.564425230026245,-0.05703059583902359,-0.6815060377120972,0.6441214680671692,1.4703974723815918,0.01430533267557621,-0.7925154566764832
9.584470987319946,-0.0555046908557415,-0.6811245679855347,0.6460288166999817,1.4707789421081543,0.027656977996230125,-0.7936598658561707
9.604600667953491,-0.056267641484737396,-0.6803616285324097,0.6460288166999817,1.4711604118347168,0.03528648987412453,-0.7940413355827332
9.624685525894165,-0.0558861680328846,-0.6799801588058472,0.6437399983406067,1.4711604118347168,0.03757534176111221,-0.7948042750358582
9.644764423370361,-0.06008239835500717,-0.6799801588058472,0.6399252414703369,1.4715418815612793,0.03528648987412453,-0.7959487438201904
9.664827585220337,-0.06847485899925232,-0.6803616285324097,0.6391623020172119,1.4749752283096313,0.024605173617601395,-0.7959487438201904
9.684915542602539,-0.06923781335353851,-0.6822690367698669,0.6391623020172119,1.4753566980361938,0.016594186425209045,-0.7974746227264404
9.705041408538818,-0.0711451917886734,-0.6826505064964294,0.6399252414703369,1.4776455163955688,0.009346150793135166,-0.7970931529998779
9.72512173652649,-0.071908138692379,-0.6822690367698669,0.6406881809234619,1.4776455163955688,0.011635004542768002,-0.7967116832733154
9.745185375213623,-0.06961929053068161,-0.6818875670433044,0.6445029377937317,1.4776455163955688,0.01583123579621315,-0.7967116832733154
9.765239953994751,-0.061226826161146164,-0.6818875670433044,0.6422140598297119,1.4776455163955688,0.03223468363285065,-0.7997635006904602
9.785306692123413,-0.05970092490315437,-0.6818875670433044,0.6410696506500244,1.4784084558486938,0.03376058489084244,-0.7997635006904602
9.80536961555481,-0.06008239835500717,-0.6815060377120972,0.6387808322906494,1.4780269861221313,0.03604944050312042,-0.8009079098701477
9.825422525405884,-0.06275273114442825,-0.6826505064964294,0.6425955891609192,1.4814603328704834,0.021171892061829567,-0.8016708493232727
9.845688581466675,-0.06084534898400307,-0.6837949156761169,0.6467918157577515,1.484130620956421,0.013542382046580315,-0.8016708493232727
9.865663528442383,-0.06275273114442825,-0.6834134459495544,0.6498435735702515,1.484893560409546,0.007057297509163618,-0.8020523190498352
9.885793685913086,-0.06427863240242004,-0.6822690367698669,0.6483176946640015,1.4845120906829834,0.020027466118335724,-0.8047226667404175
9.905789852142334,-0.06542305648326874,-0.6795986890792847,0.648699164390564,1.487945318222046,0.025749599561095238,-0.8089188933372498
9.925893068313599,-0.06580453366041183,-0.6799801588058472,0.6517509818077087,1.4932860136032104,0.01926451548933983,-0.8100633025169373
9.946043729782104,-0.06542305648326874,-0.6807430982589722,0.6532768607139587,1.4940489530563354,0.026131074875593185,-0.8119707107543945
9.966071128845215,-0.06466010212898254,-0.6807430982589722,0.6498435735702515,1.4948118925094604,0.03223468363285065,-0.8146410584449768
9.986114025115967,-0.06504157930612564,-0.6803616285324097,0.6513695120811462,1.4997711181640625,0.020027466118335724,-0.8161669373512268
10.006345510482788,-0.05664911866188049,-0.6826505064964294,0.6563286781311035,1.5005340576171875,0.010109102353453636,-0.8180742859840393
10.02636432647705,-0.05397878959774971,-0.6837949156761169,0.654421329498291,1.5005340576171875,0.023460745811462402,-0.8211261034011841
10.046432256698608,-0.05703059583902359,-0.6826505064964294,0.6528953909873962,1.5005340576171875,0.02841992862522602,-0.8218890428543091
10.066501140594482,-0.058175019919872284,-0.6841763854026794,0.655184268951416,1.5005340576171875,0.02231631986796856,-0.8241779208183289
10.086588859558105,-0.05397878959774971,-0.6830319762229919,0.6517509818077087,1.5020599365234375,0.030708782374858856,-0.8253223299980164
10.106673240661621,-0.05397878959774971,-0.6845578551292419,0.6513695120811462,1.505874752998352,0.024986648932099342,-0.8268482685089111
10.126704692840576,-0.05855649709701538,-0.6849393248558044,0.6548027992248535,1.5077821016311646,0.015449759550392628,-0.8272297382354736
10.146885395050049,-0.05207141116261482,-0.6845578551292419,0.656710147857666,1.508163571357727,0.010109102353453636,-0.8283741474151611
10.166886806488037,-0.04139009863138199,-0.6822690367698669,0.6548027992248535,1.508163571357727,0.020027466118335724,-0.8306630253791809
10.186964511871338,-0.042153049260377884,-0.6788357496261597,0.6521324515342712,1.508926510810852,0.024223696440458298,-0.8310444951057434
10.207010746002197,-0.04253452271223068,-0.6773098111152649,0.649462103843689,1.508163571357727,0.02880140393972397,-0.8348592519760132
10.227091789245605,-0.04749370738863945,-0.6773098111152649,0.6441214680671692,1.508163571357727,0.02994582988321781,-0.8352407217025757
10.247194766998291,-0.05054550990462303,-0.6776912808418274,0.6437399983406067,1.508163571357727,0.022697795182466507,-0.8356221914291382
10.267270803451538,-0.051689937710762024,-0.6784542798995972,0.6441214680671692,1.508926510810852,0.01430533267557621,-0.8352407217025757
10.287328720092773,-0.05283436179161072,-0.6792172193527222,0.6452658772468567,1.5108338594436646,0.005912871100008488,-0.8352407217025757
10.307478189468384,-0.0558861680328846,-0.6795986890792847,0.648699164390564,1.511215329170227,0.007057297509163618,-0.8348592519760132
10.327507257461548,-0.05397878959774971,-0.6799801588058472,0.6517509818077087,1.511215329170227,0.008964675478637218,-0.8352407217025757
10.347596883773804,-0.05207141116261482,-0.6792172193527222,0.650225043296814,1.511215329170227,0.028038453310728073,-0.8367666006088257
10.367674827575684,-0.05130846053361893,-0.6780728101730347,0.6506065726280212,1.5108338594436646,0.031090257689356804,-0.8375295400619507
10.387738227844238,-0.05130846053361893,-0.6780728101730347,0.6483176946640015,1.510452389717102,0.028038453310728073,-0.838674008846283
10.407798051834106,-0.0558861680328846,-0.6780728101730347,0.6452658772468567,1.511215329170227,0.02880140393972397,-0.8382925391197205
10.427890539169312,-0.058175019919872284,-0.6795986890792847,0.6433585286140442,1.5108338594436646,0.01583123579621315,-0.8390554785728455
10.44850206375122,-0.05855649709701538,-0.6803616285324097,0.6437399983406067,1.5115967988967896,0.004386968910694122,-0.8382925391197205
10.468581199645996,-0.06008239835500717,-0.6803616285324097,0.6452658772468567,1.5119783878326416,0.005149920005351305,-0.8382925391197205
10.488672733306885,-0.06237125024199486,-0.6803616285324097,0.6490806341171265,1.5119783878326416,0.007438773289322853,-0.8382925391197205
10.508777618408203,-0.06084534898400307,-0.6799801588058472,0.6517509818077087,1.5119783878326416,0.016975661739706993,-0.838674008846283
10.528924703598022,-0.06046387553215027,-0.6795986890792847,0.6517509818077087,1.5119783878326416,0.03032730519771576,-0.839436948299408
10.549007892608643,-0.06046387553215027,-0.6795986890792847,0.6498435735702515,1.5115967988967896,0.03490501269698143,-0.840199887752533
10.569133281707764,-0.06084534898400307,-0.6795986890792847,0.6456473469734192,1.5115967988967896,0.035667963325977325,-0.841725766658783
10.589175939559937,-0.06198977679014206,-0.6799801588058472,0.6422140598297119,1.5119783878326416,0.03032730519771576,-0.8421072959899902
10.609231948852539,-0.06275273114442825,-0.6822690367698669,0.6418325901031494,1.5127413272857666,0.018501564860343933,-0.841725766658783
10.629328727722168,-0.06313420087099075,-0.6830319762229919,0.6425955891609192,1.5142672061920166,0.010872052982449532,-0.841725766658783
10.649397373199463,-0.06504157930612564,-0.6826505064964294,0.6441214680671692,1.514648675918579,0.01201647985726595,-0.841725766658783
10.669507265090942,-0.06466010212898254,-0.6818875670433044,0.6467918157577515,1.514648675918579,0.01583123579621315,-0.8421072959899902
10.689919233322144,-0.06008239835500717,-0.6815060377120972,0.650225043296814,1.514648675918579,0.02689402550458908,-0.8424887657165527
10.7101149559021,-0.05855649709701538,-0.6815060377120972,0.6490806341171265,1.514648675918579,0.03833829239010811,-0.8428702354431152
10.73010802268982,-0.05855649709701538,-0.6811245679855347,0.6467918157577515,1.5142672061920166,0.04100862145423889,-0.8440146446228027
10.750185251235962,-0.06084534898400307,-0.6803616285324097,0.6445029377937317,1.514648675918579,0.040627144277095795,-0.8443961143493652
10.770245552062988,-0.06542305648326874,-0.6818875670433044,0.648699164390564,1.516937494277954,0.02231631986796856,-0.8440146446228027
10.790319442749023,-0.06504157930612564,-0.6841763854026794,0.6532768607139587,1.5180819034576416,0.016594186425209045,-0.8443961143493652
10.810389280319214,-0.06084534898400307,-0.6837949156761169,0.6586175560951233,1.519226312637329,0.009727626107633114,-0.8440146446228027
10.830450296401978,-0.0558861680328846,-0.6830319762229919,0.6593804955482483,1.5188448429107666,0.02193484455347061,-0.8451590538024902
10.850562572479248,-0.05664911866188049,-0.6815060377120972,0.657473087310791,1.5188448429107666,0.031090257689356804,-0.8451590538024902
10.870665788650513,-0.05703059583902359,-0.6811245679855347,0.6548027992248535,1.5180819034576416,0.035667963325977325,-0.8463035225868225
10.89077877998352,-0.05855649709701538,-0.6795986890792847,0.6532768607139587,1.5188448429107666,0.03528648987412453,-0.84592205286026
10.910802125930786,-0.06313420087099075,-0.6807430982589722,0.6555657386779785,1.5196079015731812,0.022697795182466507,-0.8463035225868225
10.931078672409058,-0.06084534898400307,-0.6834134459495544,0.657473087310791,1.5199893712997437,0.01430533267557621,-0.8463035225868225
10.951163530349731,-0.061226826161146164,-0.6834134459495544,0.6651026010513306,1.5218967199325562,0.008201723918318748,-0.84592205286026
10.9712495803833,-0.061226826161146164,-0.6830319762229919,0.6692988276481628,1.5218967199325562,0.009346150793135166,-0.846684992313385
10.99130654335022,-0.06084534898400307,-0.6811245679855347,0.6696802973747253,1.5222781896591187,0.025749599561095238,-0.8470664620399475
11.011547327041626,-0.06084534898400307,-0.6799801588058472,0.6696802973747253,1.5218967199325562,0.03528648987412453,-0.848210871219635
11.031676530838013,-0.06084534898400307,-0.6792172193527222,0.6681544184684753,1.5218967199325562,0.03528648987412453,-0.84897381067276
11.05175256729126,-0.06046387553215027,-0.6795986890792847,0.6643396615982056,1.5218967199325562,0.03223468363285065,-0.8493552803993225
11.071785926818848,-0.06046387553215027,-0.6799801588058472,0.6639581918716431,1.5230411291122437,0.02384222112596035,-0.8493552803993225
11.092116117477417,-0.057793546468019485,-0.6834134459495544,0.6666285395622253,1.5234225988388062,0.009727626107633114,-0.8493552803993225
11.112169742584229,-0.0555046908557415,-0.6849393248558044,0.6719691753387451,1.5241855382919312,0.004386968910694122,-0.8493552803993225
11.132307052612305,-0.058175019919872284,-0.6845578551292419,0.6731135845184326,1.5245670080184937,0.01125352829694748,-0.8497368097305298
11.15234375,-0.058175019919872284,-0.6822690367698669,0.6727321147918701,1.5238040685653687,0.027656977996230125,-0.8516441583633423
11.172406673431396,-0.05855649709701538,-0.6815060377120972,0.6719691753387451,1.5241855382919312,0.037193864583969116,-0.8516441583633423
11.192546606063843,-0.05855649709701538,-0.6815060377120972,0.6692988276481628,1.5241855382919312,0.039101243019104004,-0.8524070978164673
11.212549209594727,-0.06084534898400307,-0.6815060377120972,0.6635767221450806,1.5241855382919312,0.035667963325977325,-0.8524070978164673
11.232671022415161,-0.06160829961299896,-0.6822690367698669,0.6658655405044556,1.5268558263778687,0.023079270496964455,-0.8524070978164673
11.252799034118652,-0.06084534898400307,-0.6849393248558044,0.6700618267059326,1.5283818244934082,0.0078202486038208,-0.8524070978164673
11.272915124893188,-0.06046387553215027,-0.6857023239135742,0.6738765835762024,1.5291447639465332,0.006294346414506435,-0.8520256280899048
11.293004035949707,-0.059319447726011276,-0.6857023239135742,0.6742580533027649,1.5295262336730957,0.00667582219466567,-0.8520256280899048
11.31302523612976,-0.05855649709701538,-0.6837949156761169,0.6723506450653076,1.5291447639465332,0.027656977996230125,-0.8535515666007996
11.333140850067139,-0.05855649709701538,-0.6834134459495544,0.6704432964324951,1.5291447639465332,0.035667963325977325,-0.8535515666007996
11.353203058242798,-0.05893797054886818,-0.6834134459495544,0.6651026010513306,1.5287632942199707,0.037193864583969116,-0.8539330363273621
11.373281955718994,-0.06504157930612564,-0.6834134459495544,0.6620507836341858,1.5299077033996582,0.03452353551983833,-0.8539330363273621
11.393348455429077,-0.06809338182210922,-0.6853207945823669,0.6624323129653931,1.5299077033996582,0.022697795182466507,-0.8546959757804871
11.41351580619812,-0.06847485899925232,-0.6872282028198242,0.6620507836341858,1.5306706428527832,0.01125352829694748,-0.8535515666007996
11.433746576309204,-0.07000076025724411,-0.6872282028198242,0.6624323129653931,1.5310521125793457,0.007057297509163618,-0.8535515666007996
11.453747749328613,-0.0711451917886734,-0.6864652633666992,0.6651026010513306,1.5318150520324707,0.012397955171763897,-0.8535515666007996
11.473834753036499,-0.05741206929087639,-0.6853207945823669,0.6662470698356628,1.5318150520324707,0.02079041674733162,-0.8539330363273621
11.493896245956421,-0.05283436179161072,-0.6853207945823669,0.6666285395622253,1.5341038703918457,0.03337911143898964,-0.8535515666007996
11.514012098312378,-0.05283436179161072,-0.6857023239135742,0.6662470698356628,1.5329594612121582,0.03604944050312042,-0.8546959757804871
11.53409481048584,-0.05245288833975792,-0.6857023239135742,0.6639581918716431,1.5321965217590332,0.03376058489084244,-0.8569847941398621
11.554150104522705,-0.05893797054886818,-0.6857023239135742,0.6582360863685608,1.5333409309387207,0.031090257689356804,-0.8573662638664246
11.57453966140747,-0.061226826161146164,-0.6860837936401367,0.657473087310791,1.5333409309387207,0.018120087683200836,-0.8573662638664246
11.594627141952515,-0.06160829961299896,-0.6868467330932617,0.657473087310791,1.5341038703918457,0.008964675478637218,-0.8566033244132996
11.614749193191528,-0.06389715522527695,-0.6879911422729492,0.6582360863685608,1.5348668098449707,0.010490577667951584,-0.8562218546867371
11.634800434112549,-0.06504157930612564,-0.6879911422729492,0.6589990258216858,1.5348668098449707,0.018501564860343933,-0.8566033244132996
11.654849290847778,-0.06542305648326874,-0.6876096725463867,0.6593804955482483,1.5344853401184082,0.026131074875593185,-0.8566033244132996
11.675050258636475,-0.06542305648326874,-0.6879911422729492,0.6601434350013733,1.5341038703918457,0.027656977996230125,-0.8573662638664246
11.69505786895752,-0.06504157930612564,-0.6883726119995117,0.6601434350013733,1.5337224006652832,0.02689402550458908,-0.8577477931976318
11.715125799179077,-0.06275273114442825,-0.6906614899635315,0.6601434350013733,1.5337224006652832,0.02384222112596035,-0.8581292629241943
11.73521375656128,-0.06275273114442825,-0.6929503083229065,0.6601434350013733,1.5337224006652832,0.02231631986796856,-0.8581292629241943
11.755357503890991,-0.06313420087099075,-0.6944762468338013,0.6601434350013733,1.5333409309387207,0.018501564860343933,-0.8585107326507568
11.775391578674316,-0.06351567804813385,-0.6952391862869263,0.6601434350013733,1.5333409309387207,0.018120087683200836,-0.8585107326507568
11.795496702194214,-0.06618601083755493,-0.6960021257400513,0.6605249047279358,1.5333409309387207,0.02040894143283367,-0.8588922023773193
11.81552267074585,-0.06618601083755493,-0.6967650651931763,0.6609063744544983,1.5325779914855957,0.024223696440458298,-0.8604180812835693
11.83575987815857,-0.06618601083755493,-0.697528064250946,0.6609063744544983,1.5325779914855957,0.02536812424659729,-0.8604180812835693
11.855687141418457,-0.06618601083755493,-0.6986724734306335,0.6612878441810608,1.5318150520324707,0.024986648932099342,-0.8607995510101318
11.87575888633728,-0.06580453366041183,-0.6994354128837585,0.6609063744544983,1.5295262336730957,0.024605173617601395,-0.8607995510101318
11.896096467971802,-0.06580453366041183,-0.7009612917900085,0.6612878441810608,1.5287632942199707,0.023460745811462402,-0.8611810207366943
11.916212797164917,-0.06580453366041183,-0.7021057605743408,0.6612878441810608,1.5283818244934082,0.022697795182466507,-0.8615625500679016
11.93630051612854,-0.06580453366041183,-0.7028687000274658,0.6612878441810608,1.5283818244934082,0.02231631986796856,-0.8615625500679016
11.956457376480103,-0.06618601083755493,-0.7036316394805908,0.6612878441810608,1.5276188850402832,0.023079270496964455,-0.8615625500679016
11.976513624191284,-0.06618601083755493,-0.7047760486602783,0.6612878441810608,1.5268558263778687,0.023460745811462402,-0.8615625500679016
11.996587991714478,-0.06694895774126053,-0.7059205174446106,0.6616693139076233,1.5260928869247437,0.024605173617601395,-0.8623254895210266
12.016655921936035,-0.06656748056411743,-0.7070649266242981,0.6624323129653931,1.5257114171981812,0.023460745811462402,-0.8630884289741516
12.036729097366333,-0.06656748056411743,-0.7085908055305481,0.6624323129653931,1.5249484777450562,0.02384222112596035,-0.8638513684272766
12.056900978088379,-0.06694895774126053,-0.7097352743148804,0.6624323129653931,1.5245670080184937,0.024605173617601395,-0.8642328381538391
12.076995372772217,-0.06733043491840363,-0.7108796834945679,0.6624323129653931,1.5230411291122437,0.024605173617601395,-0.8642328381538391
12.097058773040771,-0.06809338182210922,-0.7116426229476929,0.6628137826919556,1.5222781896591187,0.024223696440458298,-0.8646143078804016
12.117459774017334,-0.06809338182210922,-0.7131685614585876,0.6631952524185181,1.5218967199325562,0.024986648932099342,-0.8649957776069641
12.137611627578735,-0.06847485899925232,-0.7154573798179626,0.6631952524185181,1.5215152502059937,0.02536812424659729,-0.8653773069381714
12.157707214355469,-0.06885633617639542,-0.7162203192710876,0.6631952524185181,1.5207523107528687,0.024986648932099342,-0.8653773069381714
12.17775559425354,-0.06885633617639542,-0.7169833183288574,0.6635767221450806,1.519226312637329,0.024986648932099342,-0.8661402463912964
12.197856187820435,-0.06885633617639542,-0.7185091972351074,0.6635767221450806,1.518463373184204,0.024986648932099342,-0.8672846555709839
12.217918395996094,-0.06923781335353851,-0.7196536064147949,0.6643396615982056,1.517700433731079,0.024986648932099342,-0.8680475950241089
12.238005638122559,-0.06923781335353851,-0.7204165458679199,0.6643396615982056,1.517700433731079,0.02536812424659729,-0.8680475950241089
12.258065223693848,-0.07038223743438721,-0.7215610146522522,0.6643396615982056,1.516937494277954,0.025749599561095238,-0.8684290647506714
12.278149127960205,-0.0711451917886734,-0.7227054238319397,0.6647211313247681,1.5165560245513916,0.025749599561095238,-0.8684290647506714
12.29822301864624,-0.0711451917886734,-0.7238498330116272,0.6647211313247681,1.5150301456451416,0.025749599561095238,-0.8688105344772339
12.318307876586914,-0.0711451917886734,-0.7249943017959595,0.6647211313247681,1.514648675918579,0.02536812424659729,-0.8688105344772339
12.338348627090454,-0.0711451917886734,-0.7265201807022095,0.6651026010513306,1.5142672061920166,0.025749599561095238,-0.8691920638084412
12.358505249023438,-0.0711451917886734,-0.727664589881897,0.6651026010513306,1.513122797012329,0.025749599561095238,-0.8699550032615662
12.378557443618774,-0.0711451917886734,-0.7288090586662292,0.6654840707778931,1.5119783878326416,0.025749599561095238,-0.8703364729881287
12.39862608909607,-0.0711451917886734,-0.7299534678459167,0.6654840707778931,1.5100709199905396,0.026131074875593185,-0.8714808821678162
12.418730974197388,-0.0715266615152359,-0.7307164072990417,0.6654840707778931,1.509689450263977,0.026131074875593185,-0.8714808821678162
12.438828945159912,-0.07267109304666519,-0.7318608164787292,0.6658655405044556,1.5093079805374146,0.026131074875593185,-0.8714808821678162
12.458886861801147,-0.07305257022380829,-0.7330052852630615,0.6662470698356628,1.508163571357727,0.02536812424659729,-0.8714808821678162
12.47896432876587,-0.07305257022380829,-0.734149694442749,0.6666285395622253,1.5070191621780396,0.025749599561095238,-0.8718623518943787
12.499216556549072,-0.07305257022380829,-0.7345311641693115,0.6666285395622253,1.506637692451477,0.026512550190091133,-0.8722438216209412
12.519309759140015,-0.07305257022380829,-0.7360570430755615,0.6670100092887878,1.5062562227249146,0.026512550190091133,-0.8722438216209412
12.539382457733154,-0.07305257022380829,-0.7372015118598938,0.6670100092887878,1.505111813545227,0.026512550190091133,-0.8726252913475037
12.559453248977661,-0.07305257022380829,-0.7387273907661438,0.6673914790153503,1.5035858154296875,0.026512550190091133,-0.8730067610740662
12.579514980316162,-0.07305257022380829,-0.7402533292770386,0.6673914790153503,1.50244140625,0.026131074875593185,-0.8733882904052734
12.599709272384644,-0.07343403995037079,-0.7413977384567261,0.6673914790153503,1.50244140625,0.026131074875593185,-0.8737697601318359
12.619809865951538,-0.07343403995037079,-0.7429236173629761,0.6677729487419128,1.5020599365234375,0.026512550190091133,-0.8741512298583984
12.639857292175293,-0.07381551712751389,-0.7433050870895386,0.6685358881950378,1.50091552734375,0.026512550190091133,-0.8749141693115234
12.659889936447144,-0.07419699430465698,-0.7444495558738708,0.6689173579216003,1.500152587890625,0.02689402550458908,-0.8752956390380859
12.679994344711304,-0.07419699430465698,-0.7455939650535583,0.6692988276481628,1.4993896484375,0.02689402550458908,-0.8760585784912109
12.70004677772522,-0.07419699430465698,-0.7463569045066833,0.6692988276481628,1.4990081787109375,0.02727550081908703,-0.8760585784912109
12.72012972831726,-0.07457847148180008,-0.7475013136863708,0.6692988276481628,1.498626708984375,0.02689402550458908,-0.8764400482177734
12.740200519561768,-0.07534141838550568,-0.7482643127441406,0.6692988276481628,1.4982452392578125,0.02689402550458908,-0.8764400482177734
12.760287761688232,-0.07534141838550568,-0.7494087219238281,0.6696802973747253,1.4974822998046875,0.02727550081908703,-0.8768215179443359
12.780396699905396,-0.07572289556264877,-0.7509346008300781,0.6696802973747253,1.495956301689148,0.02689402550458908,-0.8775845170021057
12.80043911933899,-0.07572289556264877,-0.7516975402832031,0.6700618267059326,1.495193362236023,0.02689402550458908,-0.8783474564552307
12.82052493095398,-0.07648584991693497,-0.7532234787940979,0.6704432964324951,1.4948118925094604,0.02727550081908703,-0.8787289261817932
12.840652465820312,-0.07648584991693497,-0.7543678879737854,0.6708247661590576,1.493667483329773,0.027656977996230125,-0.8791103959083557
12.860680103302002,-0.07648584991693497,-0.7555122971534729,0.6712062358856201,1.4925230741500854,0.02727550081908703,-0.8794918656349182
12.880746126174927,-0.07763027399778366,-0.7566567659378052,0.6715877056121826,1.4917601346969604,0.027656977996230125,-0.8798733353614807
12.900956869125366,-0.07724879682064056,-0.7574197053909302,0.6715877056121826,1.491378664970398,0.028038453310728073,-0.8798733353614807
12.921060562133789,-0.07763027399778366,-0.7589455842971802,0.6715877056121826,1.4909971952438354,0.028038453310728073,-0.8802548050880432
12.941147327423096,-0.07763027399778366,-0.7597085237503052,0.6715877056121826,1.4902342557907104,0.028038453310728073,-0.8806362748146057
12.961211681365967,-0.07801175117492676,-0.7608529925346375,0.6719691753387451,1.4887083768844604,0.028038453310728073,-0.8806362748146057
12.98130202293396,-0.07839322835206985,-0.761997401714325,0.6727321147918701,1.487945318222046,0.028038453310728073,-0.881780743598938
13.001372575759888,-0.07839322835206985,-0.763523280620575,0.6731135845184326,1.487182378768921,0.029182879254221916,-0.882543683052063
13.021467447280884,-0.07839322835206985,-0.7646677494049072,0.6734950542449951,1.4868009090423584,0.029182879254221916,-0.8829251527786255
13.041501760482788,-0.07877469807863235,-0.7654306888580322,0.6734950542449951,1.4852750301361084,0.029182879254221916,-0.8829251527786255
13.061606407165527,-0.07953765243291855,-0.7665750980377197,0.6734950542449951,1.484130620956421,0.029564354568719864,-0.883306622505188
13.081695318222046,-0.07953765243291855,-0.7681010365486145,0.6738765835762024,1.4837491512298584,0.02994582988321781,-0.8836880922317505
13.101821899414062,-0.07953765243291855,-0.7688639760017395,0.6738765835762024,1.4829862117767334,0.02994582988321781,-0.884069561958313
13.12187147140503,-0.07953765243291855,-0.770008385181427,0.6742580533027649,1.4822232723236084,0.02994582988321781,-0.8848325610160828
13.141939640045166,-0.07953765243291855,-0.7715343236923218,0.6746395230293274,1.4806973934173584,0.029564354568719864,-0.8852140307426453
13.16204047203064,-0.08030059933662415,-0.7726787328720093,0.6754024624824524,1.4799343347549438,0.03032730519771576,-0.8863584399223328
13.182129383087158,-0.08030059933662415,-0.7734416723251343,0.6757839322090149,1.4795528650283813,0.03032730519771576,-0.8867399096488953
13.202442407608032,-0.08068207651376724,-0.7745860815048218,0.6757839322090149,1.4784084558486938,0.03147173300385475,-0.8871213793754578
13.222529411315918,-0.08068207651376724,-0.7768749594688416,0.6757839322090149,1.4765011072158813,0.032616160809993744,-0.8875028491020203
13.242598295211792,-0.08068207651376724,-0.778019368648529,0.6761654019355774,1.4757381677627563,0.032616160809993744,-0.8875028491020203
13.262672901153564,-0.08068207651376724,-0.7791637778282166,0.6761654019355774,1.4745937585830688,0.03223468363285065,-0.8878843188285828
13.282844305038452,-0.08144503086805344,-0.7810711860656738,0.6769283413887024,1.4730678796768188,0.03223468363285065,-0.8882657885551453
13.302951574325562,-0.08144503086805344,-0.7822155952453613,0.6773098111152649,1.4726864099502563,0.03299763426184654,-0.889028787612915
13.323011875152588,-0.08144503086805344,-0.7829785346984863,0.6776912808418274,1.4726864099502563,0.03299763426184654,-0.8894102573394775
13.343063116073608,-0.08220797777175903,-0.7841230034828186,0.6776912808418274,1.4719233512878418,0.03299763426184654,-0.88979172706604
13.36318588256836,-0.08258945494890213,-0.7848859429359436,0.6780728101730347,1.4703974723815918,0.034142062067985535,-0.8901731967926025
13.383281469345093,-0.08258945494890213,-0.7860303521156311,0.6784542798995972,1.4692530632019043,0.03337911143898964,-0.890554666519165
13.403369903564453,-0.08258945494890213,-0.7875562906265259,0.6792172193527222,1.4688715934753418,0.03337911143898964,-0.890554666519165
13.42341136932373,-0.08297093212604523,-0.7887006998062134,0.6795986890792847,1.4677271842956543,0.03452353551983833,-0.8909361362457275
13.443466901779175,-0.08297093212604523,-0.7898451089859009,0.6795986890792847,1.4665827751159668,0.03452353551983833,-0.89131760597229
13.463563442230225,-0.08335240930318832,-0.7909895181655884,0.6799801588058472,1.4654383659362793,0.034142062067985535,-0.8916990756988525
13.483720779418945,-0.08335240930318832,-0.7921339869499207,0.6799801588058472,1.4650568962097168,0.034142062067985535,-0.8924620151519775
13.503772258758545,-0.08373387902975082,-0.7932783961296082,0.6803616285324097,1.4646753072738647,0.03452353551983833,-0.8932250142097473
13.523771047592163,-0.08487831056118011,-0.7948042750358582,0.6811245679855347,1.4635308980941772,0.03376058489084244,-0.8939879536628723
13.543875694274902,-0.08487831056118011,-0.7959487438201904,0.6811245679855347,1.4620050191879272,0.03452353551983833,-0.8943694233894348
13.56395149230957,-0.08525978773832321,-0.7970931529998779,0.6815060377120972,1.4616235494613647,0.034142062067985535,-0.8947508931159973
13.584007978439331,-0.08525978773832321,-0.7974746227264404,0.6815060377120972,1.4612420797348022,0.03452353551983833,-0.8947508931159973
13.60405158996582,-0.08564125746488571,-0.7990005612373352,0.6818875670433044,1.4600976705551147,0.03490501269698143,-0.8955138325691223
13.624158382415771,-0.08564125746488571,-0.8005264401435852,0.6822690367698669,1.4585717916488647,0.03528648987412453,-0.8955138325691223
13.64425253868103,-0.08564125746488571,-0.8016708493232727,0.6830319762229919,1.4578088521957397,0.035667963325977325,-0.8966583013534546
13.66433572769165,-0.08564125746488571,-0.802815318107605,0.6834134459495544,1.4574273824691772,0.03490501269698143,-0.8970397710800171
13.684375047683716,-0.08564125746488571,-0.80357825756073,0.6834134459495544,1.4570459127426147,0.03528648987412453,-0.8974212408065796
13.70449447631836,-0.08564125746488571,-0.8047226667404175,0.6841763854026794,1.4562828540802002,0.03528648987412453,-0.8978027105331421
13.724648714065552,-0.08602273464202881,-0.80663001537323,0.6845578551292419,1.4543755054473877,0.03681239113211632,-0.8981841802597046
13.744681358337402,-0.086785688996315,-0.8073930144309998,0.6853207945823669,1.4539940357208252,0.037193864583969116,-0.8981841802597046
13.764741897583008,-0.086785688996315,-0.8085374236106873,0.6857023239135742,1.4528496265411377,0.03757534176111221,-0.8985656499862671
13.784843921661377,-0.086785688996315,-0.8104447722434998,0.6860837936401367,1.4513237476348877,0.037193864583969116,-0.8985656499862671
13.80496096611023,-0.086785688996315,-0.811589241027832,0.6864652633666992,1.4501793384552002,0.03757534176111221,-0.8993285894393921
13.825013160705566,-0.0871671661734581,-0.8119707107543945,0.6864652633666992,1.4497978687286377,0.03757534176111221,-0.8997100591659546
13.845094680786133,-0.0875486359000206,-0.8134965896606445,0.6864652633666992,1.4490348100662231,0.03757534176111221,-0.9000915288925171
13.86522626876831,-0.0875486359000206,-0.8154039978981018,0.6872282028198242,1.4475089311599731,0.03757534176111221,-0.9012359976768494
13.885312795639038,-0.0875486359000206,-0.8161669373512268,0.6876096725463867,1.4467459917068481,0.03795681521296501,-0.9019989371299744
13.905324459075928,-0.0875486359000206,-0.8169298768043518,0.6879911422729492,1.4463645219802856,0.03795681521296501,-0.9023804068565369
13.925451517105103,-0.0875486359000206,-0.8180742859840393,0.6883726119995117,1.4456015825271606,0.03795681521296501,-0.9023804068565369
13.945574760437012,-0.0879301130771637,-0.8196002244949341,0.6887540817260742,1.4440757036209106,0.039101243019104004,-0.9027618765830994
13.965636253356934,-0.0879301130771637,-0.8207446336746216,0.6887540817260742,1.4429312944412231,0.0398641936480999,-0.9035248160362244
13.986427068710327,-0.0879301130771637,-0.8222705721855164,0.689517080783844,1.4421683549880981,0.040245670825242996,-0.9039062857627869
14.006544828414917,-0.0879301130771637,-0.8237964510917664,0.690280020236969,1.441023826599121,0.04100862145423889,-0.9042877554893494
14.02660083770752,-0.0883115902543068,-0.8249408602714539,0.6906614899635315,1.439497947692871,0.04100862145423889,-0.9050507545471191
14.046806573867798,-0.08869306743144989,-0.8257037997245789,0.6906614899635315,1.4391164779663086,0.04177157208323479,-0.9054322242736816
14.066787242889404,-0.08869306743144989,-0.8268482685089111,0.691042959690094,1.4383535385131836,0.04177157208323479,-0.9054322242736816
14.08692455291748,-0.08907453715801239,-0.8287556171417236,0.6914244294166565,1.4375905990600586,0.04177157208323479,-0.9058136940002441
14.106975555419922,-0.08945601433515549,-0.8295185565948486,0.691805899143219,1.4360647201538086,0.042153049260377884,-0.9058136940002441
14.127033472061157,-0.08945601433515549,-0.8310444951057434,0.6921873688697815,1.4353017807006836,0.042153049260377884,-0.9061951637268066
14.147288084030151,-0.08983749151229858,-0.8321889042854309,0.692568838596344,1.434920310974121,0.04253452271223068,-0.9065766334533691
14.167282104492188,-0.08983749151229858,-0.8337147831916809,0.6929503083229065,1.434157371520996,0.04291599988937378,-0.9069581031799316
14.187347412109375,-0.08983749151229858,-0.8344777822494507,0.693331778049469,1.4326313734054565,0.04253452271223068,-0.9073395729064941
14.207391500473022,-0.08983749151229858,-0.8356221914291382,0.6937133073806763,1.4311054944992065,0.04291599988937378,-0.9084840416908264
14.227456092834473,-0.08983749151229858,-0.8367666006088257,0.6944762468338013,1.429961085319519,0.04444190114736557,-0.9092469811439514
14.24763822555542,-0.09021896868944168,-0.837911069393158,0.6948577165603638,1.428435206413269,0.04406042397022247,-0.9096284508705139
