liuyurong129/humanoid-gym/humanoid/data/actual_q_20250521-035415.csv
timestamp,joint_1,joint_2,joint_3,joint_4,joint_5,joint_6
0.0001361370086669922,0.000572213320992887,0.1665140837430954,-0.08297093212604523,-0.00019073777366429567,0.00019073777366429567,0.00019073777366429567
0.020226001739501953,0.000572213320992887,0.14286258816719055,-0.07305257022380829,0.00019073777366429567,-0.000572213320992887,0.00019073777366429567
0.04030418395996094,-0.00019073777366429567,0.12149996310472488,-0.06351567804813385,-0.00019073777366429567,0.001716639962978661,0.00019073777366429567
0.060364723205566406,0.00019073777366429567,0.10776684433221817,-0.05703059583902359,-0.00019073777366429567,0.0013351644156500697,0.00019073777366429567
0.08043193817138672,0.00019073777366429567,0.09784847497940063,-0.05092698708176613,-0.00019073777366429567,0.00019073777366429567,0.00019073777366429567
0.10050821304321289,-0.00019073777366429567,0.08907453715801239,-0.045204851776361465,-0.00019073777366429567,0.00019073777366429567,0.00019073777366429567
0.12061953544616699,-0.005149920005351305,0.07724879682064056,-0.03643091395497322,0.00019073777366429567,0.0009536888683214784,0.00019073777366429567
0.1406712532043457,-0.01125352829694748,0.06733043491840363,-0.030708782374858856,0.00019073777366429567,0.004386968910694122,0.00019073777366429567
0.16072297096252441,-0.019645990803837776,0.054741740226745605,-0.026131074875593185,0.00019073777366429567,0.00476844422519207,0.00019073777366429567
0.18082427978515625,-0.03299763426184654,0.037193864583969116,-0.018120087683200836,0.00019073777366429567,0.006294346414506435,-0.00019073777366429567
0.20091962814331055,-0.04940108209848404,0.01926451548933983,-0.00858320016413927,0.0009536888683214784,0.007438773289322853,-0.000572213320992887
0.22095370292663574,-0.071908138692379,-0.002861066721379757,0.004005493130534887,0.0020981156267225742,0.009346150793135166,-0.0009536888683214784
0.24105048179626465,-0.10471503436565399,-0.03681239113211632,0.02841992862522602,0.004386968910694122,0.013923857361078262,-0.004005493130534887
0.26112842559814453,-0.14286258816719055,-0.07572289556264877,0.058175019919872284,0.007057297509163618,0.02079041674733162,-0.007057297509163618
0.28119659423828125,-0.182154580950737,-0.1184481605887413,0.09555962681770325,0.008964675478637218,0.029182879254221916,-0.00858320016413927
0.3013150691986084,-0.2153429538011551,-0.15964750945568085,0.13141833245754242,0.011635004542768002,0.02880140393972397,-0.011635004542768002
0.3214094638824463,-0.2500572204589844,-0.1993209719657898,0.17032882571220398,0.012397955171763897,0.02880140393972397,-0.012779430486261845
0.34146666526794434,-0.28362706303596497,-0.2317463904619217,0.20389868319034576,0.01506828423589468,0.02994582988321781,-0.014686808921396732
0.36151576042175293,-0.3130006790161133,-0.2626459002494812,0.23823148012161255,0.01506828423589468,0.03376058489084244,-0.016212711110711098
0.38161540031433105,-0.3393225073814392,-0.2904936373233795,0.26989394426345825,0.01583123579621315,0.0398641936480999,-0.01773861236870289
0.4016880989074707,-0.36373692750930786,-0.31757840514183044,0.30041199922561646,0.01583123579621315,0.04749370738863945,-0.02040894143283367
0.42177271842956543,-0.387006938457489,-0.3427557647228241,0.33245593309402466,0.016594186425209045,0.05664911866188049,-0.024223696440458298
0.4418513774871826,-0.4064621925354004,-0.36678874492645264,0.36259251832962036,0.01773861236870289,0.06313420087099075,-0.026512550190091133
0.46192336082458496,-0.4228656589984894,-0.3912031650543213,0.3877699077129364,0.01926451548933983,0.0715266615152359,-0.02880140393972397
0.4820070266723633,-0.4396505653858185,-0.41523614525794983,0.41332876682281494,0.020027466118335724,0.07839322835206985,-0.03147173300385475
0.5021064281463623,-0.4560540020465851,-0.4381246566772461,0.4365987777709961,0.02193484455347061,0.0879301130771637,-0.034142062067985535
0.5221695899963379,-0.4705500900745392,-0.46025025844573975,0.4549095928668976,0.022697795182466507,0.09899290651082993,-0.03643091395497322
0.5423555374145508,-0.4858091175556183,-0.4842832088470459,0.47436484694480896,0.023460745811462402,0.10891126841306686,-0.038719769567251205
0.5624470710754395,-0.499542236328125,-0.5056458115577698,0.49038681387901306,0.02384222112596035,0.11387044936418533,-0.04139009863138199
0.5825085639953613,-0.5140383243560791,-0.5231937170028687,0.5033569931983948,0.024986648932099342,0.11692225188016891,-0.043678950518369675
0.6025683879852295,-0.5258640646934509,-0.5395971536636353,0.5125123858451843,0.02689402550458908,0.12378881871700287,-0.04711223021149635
0.6226530075073242,-0.5373083353042603,-0.5540932416915894,0.5220493078231812,0.02994582988321781,0.12798504531383514,-0.049782559275627136
0.6427466869354248,-0.5453193187713623,-0.5666819214820862,0.5270084738731384,0.03223468363285065,0.1333257108926773,-0.051689937710762024
0.6628060340881348,-0.5529488325119019,-0.5807965397834778,0.5304417610168457,0.03452353551983833,0.14133669435977936,-0.05359731614589691
0.6828954219818115,-0.5605783462524414,-0.5949110984802246,0.5334935784339905,0.037193864583969116,0.14629587531089783,-0.05741206929087639
0.7029752731323242,-0.5701152086257935,-0.6078813076019287,0.535400927066803,0.03833829239010811,0.15506981313228607,-0.06046387553215027
0.7231729030609131,-0.5796520709991455,-0.6177996397018433,0.5357823967933655,0.040627144277095795,0.16155488789081573,-0.06237125024199486
0.7432293891906738,-0.5869001150131226,-0.6280995011329651,0.5376898050308228,0.04177157208323479,0.16918440163135529,-0.06504157930612564
0.763298749923706,-0.5910963416099548,-0.6364919543266296,0.5399786233901978,0.045204851776361465,0.1806286722421646,-0.06809338182210922
0.7833936214447021,-0.5941481590270996,-0.6456473469734192,0.54264897108078,0.04787518084049225,0.18673227727413177,-0.07000076025724411
0.8035337924957275,-0.5987258553504944,-0.6540398001670837,0.5453193187713623,0.051689937710762024,0.19321736693382263,-0.07343403995037079
0.8235683441162109,-0.6029220819473267,-0.6601434350013733,0.5472266674041748,0.05397878959774971,0.1958876997232437,-0.07648584991693497
0.8439967632293701,-0.6063553690910339,-0.6673914790153503,0.5487525463104248,0.05664911866188049,0.20428015291690826,-0.07953765243291855
0.8640849590301514,-0.6090257167816162,-0.6765468716621399,0.5514228940010071,0.05893797054886818,0.21038375794887543,-0.08144503086805344
0.884211540222168,-0.6101701259613037,-0.6841763854026794,0.5544747114181519,0.06046387553215027,0.21686884760856628,-0.08335240930318832
0.9042472839355469,-0.6113145351409912,-0.692568838596344,0.5575265288352966,0.06275273114442825,0.22259098291397095,-0.086785688996315
0.9243483543395996,-0.6113145351409912,-0.7021057605743408,0.5624856948852539,0.06466010212898254,0.22602425515651703,-0.0879301130771637
0.9444410800933838,-0.612077534198761,-0.7093538045883179,0.5670633912086487,0.06733043491840363,0.23212787508964539,-0.09212634712457657
0.964486837387085,-0.613603413105011,-0.7154573798179626,0.569733738899231,0.0711451917886734,0.23823148012161255,-0.09517814964056015
0.9852371215820312,-0.615129292011261,-0.7223239541053772,0.5739299654960632,0.07381551712751389,0.2450980395078659,-0.09784847497940063
1.005324363708496,-0.6162737607955933,-0.7299534678459167,0.579270601272583,0.07686731964349747,0.25310903787612915,-0.10204470902681351
1.0253872871398926,-0.6170367002487183,-0.7360570430755615,0.5838482975959778,0.08106355369091034,0.2599755823612213,-0.10509651154279709
1.0454471111297607,-0.6181811094284058,-0.7421606779098511,0.5876630544662476,0.08449683338403702,0.26684215664863586,-0.10891126841306686
1.0655372142791748,-0.6185625791549683,-0.7494087219238281,0.5926222801208496,0.0875486359000206,0.27065691351890564,-0.11120012402534485
1.0856492519378662,-0.6185625791549683,-0.7566567659378052,0.5979629158973694,0.08983749151229858,0.2748531401157379,-0.11387044936418533
1.105696439743042,-0.6185625791549683,-0.7623788714408875,0.6013962030410767,0.09327077120542526,0.2798123061656952,-0.11692225188016891
1.125802755355835,-0.6185625791549683,-0.7688639760017395,0.6059738993644714,0.09441519528627396,0.28706035017967224,-0.1199740618467331
1.145885944366455,-0.619325578212738,-0.7761120200157166,0.6124590039253235,0.09594109654426575,0.2943083941936493,-0.12264438718557358
1.1659533977508545,-0.6197070479393005,-0.7822155952453613,0.6166552305221558,0.10090028494596481,0.30155640840530396,-0.12607766687870026
1.1860322952270508,-0.6204699873924255,-0.7883192300796509,0.6212329268455505,0.10433356463909149,0.3103303611278534,-0.12836651504039764
1.2061164379119873,-0.6204699873924255,-0.7951858043670654,0.6273365616798401,0.10624094307422638,0.31528952717781067,-0.13141833245754242
1.2261710166931152,-0.6204699873924255,-0.8005264401435852,0.6319142580032349,0.10967422276735306,0.3213931620121002,-0.1356145590543747
1.2463312149047852,-0.620851457118988,-0.8073930144309998,0.6376363635063171,0.11463340371847153,0.32673379778862,-0.13904783129692078
1.266420841217041,-0.621614396572113,-0.8142595291137695,0.6437399983406067,0.1192111074924469,0.33207446336746216,-0.14209964871406555
1.2864887714385986,-0.622377336025238,-0.8180742859840393,0.6490806341171265,0.12340734153985977,0.3393225073814392,-0.14553292095661163
1.3066694736480713,-0.6227588057518005,-0.8234149813652039,0.6540398001670837,0.12798504531383514,0.34580758213996887,-0.14820325374603271
1.3267629146575928,-0.6235218048095703,-0.8287556171417236,0.6605249047279358,0.13141833245754242,0.35191118717193604,-0.1520180106163025
1.3468468189239502,-0.6235218048095703,-0.8340963125228882,0.6658655405044556,0.1359960287809372,0.3591592311859131,-0.15659570693969727
1.3671631813049316,-0.6235218048095703,-0.8398184180259705,0.6715877056121826,0.13942931592464447,0.36678874492645264,-0.16079194843769073
1.387291669845581,-0.6235218048095703,-0.8470664620399475,0.6784542798995972,0.14438849687576294,0.3751811981201172,-0.1665140837430954
1.407334327697754,-0.6235218048095703,-0.8539330363273621,0.6857023239135742,0.1493476778268814,0.37937742471694946,-0.17032882571220398
1.4273881912231445,-0.6235218048095703,-0.8600366115570068,0.691042959690094,0.15430685877799988,0.3881513774394989,-0.17338064312934875
1.4474802017211914,-0.6235218048095703,-0.8672846555709839,0.698291003704071,0.15964750945568085,0.39616236090660095,-0.17757686972618103
1.467564582824707,-0.6239032745361328,-0.8730067610740662,0.7051575779914856,0.16384375095367432,0.4026474356651306,-0.1836804747581482
1.4876108169555664,-0.6246662139892578,-0.8794918656349182,0.7120240926742554,0.16918440163135529,0.41180285811424255,-0.18863965570926666
1.5077011585235596,-0.6246662139892578,-0.8867399096488953,0.7200350761413574,0.17643244564533234,0.4198138415813446,-0.19359883666038513
1.5277855396270752,-0.6246662139892578,-0.8939879536628723,0.7288090586662292,0.1806286722421646,0.42706188559532166,-0.1962691694498062
1.5478556156158447,-0.6246662139892578,-0.8993285894393921,0.7345311641693115,0.18635080754756927,0.4350728690624237,-0.20199130475521088
1.5679452419281006,-0.6246662139892578,-0.9058136940002441,0.7421606779098511,0.19245441257953644,0.44346532225608826,-0.20733195543289185
1.588021993637085,-0.6246662139892578,-0.9126802682876587,0.7501716613769531,0.1977950781583786,0.4526207447052002,-0.2134355753660202
1.6080965995788574,-0.6250476837158203,-0.9206912517547607,0.7581826448440552,0.20771344006061554,0.465209424495697,-0.21877622604370117
1.6282131671905518,-0.6250476837158203,-0.927176296710968,0.7654306888580322,0.2157244235277176,0.47589075565338135,-0.22411687672138214
1.6482994556427002,-0.6246662139892578,-0.9348058104515076,0.7749675512313843,0.21992065012454987,0.4842832088470459,-0.2302204966545105
1.6683776378631592,-0.6246662139892578,-0.9420538544654846,0.7829785346984863,0.22564278542995453,0.4953460097312927,-0.23823148012161255
1.688438892364502,-0.6246662139892578,-0.9500648379325867,0.7913710474967957,0.23594263195991516,0.509079098701477,-0.2462424635887146
1.7085413932800293,-0.6246662139892578,-0.9576943516731262,0.8001449704170227,0.2439536154270172,0.5186160206794739,-0.25425344705581665
1.7286436557769775,-0.6246662139892578,-0.9634165167808533,0.8073930144309998,0.25120165944099426,0.5296788215637207,-0.2630273997783661
1.7494087219238281,-0.6246662139892578,-0.9714275002479553,0.8154039978981018,0.2637903392314911,0.5422675013542175,-0.2740901708602905
1.7694852352142334,-0.6246662139892578,-0.9790570139884949,0.8234149813652039,0.2740901708602905,0.5521858334541321,-0.28324559330940247
1.789576530456543,-0.6246662139892578,-0.9840161800384521,0.8299000263214111,0.2801937758922577,0.5594338774681091,-0.2927824854850769
1.8096394538879395,-0.6246662139892578,-0.9893568158149719,0.8352407217025757,0.28858625888824463,0.568970799446106,-0.30460822582244873
1.8297266960144043,-0.6242847442626953,-0.9981307983398438,0.8436331748962402,0.2958342730998993,0.5827038884162903,-0.31528952717781067
1.8497884273529053,-0.6231403350830078,-1.0065232515335083,0.8497368097305298,0.308041512966156,0.5937666893005371,-0.3263523280620575
1.8698620796203613,-0.622377336025238,-1.0141527652740479,0.8577477931976318,0.31910428404808044,0.6036850810050964,-0.33436331152915955
1.8899257183074951,-0.6219958662986755,-1.0233081579208374,0.8661402463912964,0.3229190409183502,0.613603413105011,-0.34580758213996887
1.9100065231323242,-0.620088517665863,-1.0320820808410645,0.8726252913475037,0.33321890234947205,0.6258106231689453,-0.3606851398944855
1.9300758838653564,-0.6177996397018433,-1.038948655128479,0.8798733353614807,0.343137264251709,0.6353475451469421,-0.3694590628147125
1.9501452445983887,-0.6174181699752808,-1.049248456954956,0.8886472582817078,0.34733349084854126,0.6441214680671692,-0.38281071186065674
1.970465898513794,-0.6162737607955933,-1.0576409101486206,0.8955138325691223,0.3603036403656006,0.6578545570373535,-0.39692530035972595
1.9905586242675781,-0.6147478222846985,-1.0633630752563477,0.9039062857627869,0.36678874492645264,0.6631952524185181,-0.4018844962120056
2.01062273979187,-0.615129292011261,-1.0694667100906372,0.9107728600502014,0.36602577567100525,0.6700618267059326,-0.41332876682281494
2.030709743499756,-0.614366352558136,-1.0866330862045288,0.9157320261001587,0.3778515160083771,0.6887540817260742,-0.42706188559532166
2.0507822036743164,-0.6139848828315735,-1.099603295326233,0.9233615398406982,0.3934920132160187,0.7036316394805908,-0.43125811219215393
2.0708436965942383,-0.613603413105011,-1.107614278793335,0.9287022352218628,0.4003585875034332,0.7063019871711731,-0.4339284300804138
2.0909364223480225,-0.612840473651886,-1.1137179136276245,0.9355688095092773,0.3908216953277588,0.699816882610321,-0.440032035112381
2.1110360622406006,-0.612840473651886,-1.124399185180664,0.9424353241920471,0.3889143168926239,0.7013428211212158,-0.44766154885292053
2.131075143814087,-0.6105515956878662,-1.1354619264602661,0.9489204287528992,0.4018844962120056,0.7166017889976501,-0.4552910625934601
2.1511852741241455,-0.6094071865081787,-1.1427099704742432,0.9576943516731262,0.4179064631462097,0.7223239541053772,-0.45643550157546997
2.17124080657959,-0.6094071865081787,-1.1465247869491577,0.9664682745933533,0.4182879328727722,0.7219424843788147,-0.46063172817230225
2.1914291381835938,-0.6097886562347412,-1.1575875282287598,0.969520092010498,0.421339750289917,0.7295719981193542,-0.4694056510925293
2.211519241333008,-0.6090257167816162,-1.1701762676239014,0.9744792580604553,0.4335469603538513,0.7501716613769531,-0.4716945290565491
2.231586217880249,-0.6082627773284912,-1.180857539176941,0.9790570139884949,0.44499123096466064,0.7646677494049072,-0.47474631667137146
2.2516684532165527,-0.6078813076019287,-1.189631462097168,0.9866865277290344,0.44079500436782837,0.760471522808075,-0.47474631667137146
2.2718095779418945,-0.6048294901847839,-1.1949721574783325,0.9920271635055542,0.42858776450157166,0.7475013136863708,-0.4808499217033386
2.2919862270355225,-0.6059738993644714,-1.201838731765747,0.9981307983398438,0.42553597688674927,0.7425421476364136,-0.4854276478290558
2.312143325805664,-0.6055924296379089,-1.2090867757797241,1.0072861909866333,0.440032035112381,0.7516975402832031,-0.49153125286102295
2.332149028778076,-0.6036850810050964,-1.2083238363265991,1.0122454166412354,0.4560540020465851,0.7555122971534729,-0.4892423748970032
2.3523316383361816,-0.6078813076019287,-1.2121385335922241,1.0210193395614624,0.4533836841583252,0.7597085237503052,-0.49382010102272034
2.3724448680877686,-0.6067368388175964,-1.2220568656921387,1.0275044441223145,0.46330204606056213,0.7761120200157166,-0.5056458115577698
2.392508029937744,-0.6017776727676392,-1.2262531518936157,1.028648853302002,0.482375830411911,0.7871748208999634,-0.5048828721046448
2.413038492202759,-0.6002517938613892,-1.2304493188858032,1.033226490020752,0.4865720570087433,0.7887006998062134,-0.5022125840187073
2.433126449584961,-0.5975814461708069,-1.2380788326263428,1.038185715675354,0.4713130295276642,0.7776378989219666,-0.5064088106155396
2.453195810317993,-0.5960555672645569,-1.2491416931152344,1.0435264110565186,0.4667353332042694,0.7829785346984863,-0.5106050372123718
2.4732797145843506,-0.5945296287536621,-1.2602044343948364,1.0481040477752686,0.47741663455963135,0.7890821695327759,-0.5106050372123718
2.493368148803711,-0.5941481590270996,-1.264782190322876,1.052681803703308,0.47894254326820374,0.7845044732093811,-0.5094605684280396
2.5137875080108643,-0.5960555672645569,-1.2674524784088135,1.0584038496017456,0.47436484694480896,0.778782308101654,-0.5102235674858093
2.533874988555908,-0.5964370369911194,-1.2754634618759155,1.0637445449829102,0.4846646785736084,0.7845044732093811,-0.5140383243560791
2.553943634033203,-0.5952925682067871,-1.2788968086242676,1.0675593614578247,0.5064088106155396,0.7948042750358582,-0.5140383243560791
2.574000120162964,-0.5960555672645569,-1.278515338897705,1.0725184679031372,0.5128938555717468,0.7940413355827332,-0.5109865069389343
2.594097137451172,-0.5956740379333496,-1.281567096710205,1.0770962238311768,0.509079098701477,0.7948042750358582,-0.5148012638092041
2.614175796508789,-0.5933852195739746,-1.2911039590835571,1.0805294513702393,0.5155642032623291,0.8070115447044373,-0.5186160206794739
2.6342310905456543,-0.5907148718833923,-1.2983520030975342,1.0847257375717163,0.5231937170028687,0.8180742859840393,-0.5197604298591614
2.6728389263153076,-0.5884260535240173,-1.3010224103927612,1.0912108421325684,0.5205233693122864,0.811589241027832,-0.5193789601325989
2.6929237842559814,-0.5907148718833923,-1.3036926984786987,1.1030365228652954,0.5128938555717468,0.8112077713012695,-0.5289158225059509
2.712981939315796,-0.5903334021568298,-1.3086519241333008,1.10685133934021,0.5251010656356812,0.8222705721855164,-0.5315861701965332
2.733151435852051,-0.5903334021568298,-1.3075073957443237,1.1102845668792725,0.5453193187713623,0.8318074345588684,-0.5312047004699707
2.7532875537872314,-0.5926222801208496,-1.3090333938598633,1.115625262260437,0.5487525463104248,0.8245593905448914,-0.5281528830528259
2.773334503173828,-0.5926222801208496,-1.3113222122192383,1.117151141166687,0.5472266674041748,0.8287556171417236,-0.5350194573402405
2.793386936187744,-0.5876630544662476,-1.3147554397583008,1.1152437925338745,0.5571450591087341,0.8337147831916809,-0.534637987613678
2.8135604858398438,-0.5869001150131226,-1.3200961351394653,1.120965838432312,0.5556191205978394,0.8306630253791809,-0.5308232307434082
2.833580732345581,-0.5865186452865601,-1.3281071186065674,1.123636245727539,0.5457007884979248,0.8237964510917664,-0.5365453362464905
2.853644847869873,-0.5849927663803101,-1.3315403461456299,1.1263065338134766,0.5430304408073425,0.8272297382354736,-0.536926805973053
2.8737123012542725,-0.5849927663803101,-1.3330663442611694,1.1312657594680786,0.54264897108078,0.8215075731277466,-0.5373083353042603
2.893801212310791,-0.5853742361068726,-1.337262511253357,1.1343175172805786,0.54264897108078,0.8196002244949341,-0.5376898050308228
2.913886070251465,-0.5853742361068726,-1.338788390159607,1.1354619264602661,0.5571450591087341,0.8314259648323059,-0.5384527444839478
2.934053659439087,-0.5872815847396851,-1.3403143882751465,1.1350804567337036,0.5659189820289612,0.8344777822494507,-0.535400927066803
2.954146385192871,-0.5891889929771423,-1.341458797454834,1.1411840915679932,0.5613412857055664,0.8302815556526184,-0.5350194573402405
2.974212169647217,-0.5903334021568298,-1.345273494720459,1.1438543796539307,0.5579079985618591,0.8264667987823486,-0.5415045619010925
2.995832920074463,-0.5876630544662476,-1.347562313079834,1.1434729099273682,0.5632486343383789,0.8302815556526184,-0.5399786233901978
3.0159761905670166,-0.5899519324302673,-1.349469780921936,1.1495765447616577,0.5556191205978394,0.8237964510917664,-0.5384527444839478
3.036026954650879,-0.5895704627037048,-1.3563363552093506,1.1545357704162598,0.5483710765838623,0.8276112079620361,-0.54417484998703
3.0560879707336426,-0.5857557058334351,-1.354047417640686,1.1533913612365723,0.5590524077415466,0.839436948299408,-0.5460822582244873
3.0761752128601074,-0.5849927663803101,-1.350232720375061,1.1541543006896973,0.5510414242744446,0.8241779208183289,-0.5392156839370728
3.096238374710083,-0.5884260535240173,-1.3544288873672485,1.1564431190490723,0.5449378490447998,0.8249408602714539,-0.5468451976776123
3.1163318157196045,-0.5834668278694153,-1.3555734157562256,1.1564431190490723,0.5628671646118164,0.8463035225868225,-0.5449378490447998
3.136408805847168,-0.5815594792366028,-1.353284478187561,1.1552987098693848,0.5743114352226257,0.840962827205658,-0.5384527444839478
3.1564536094665527,-0.5869001150131226,-1.3570992946624756,1.1629282236099243,0.5582894682884216,0.8310444951057434,-0.5403600931167603
3.1765403747558594,-0.5880445837974548,-1.3654917478561401,1.1667429208755493,0.5601968169212341,0.8440146446228027,-0.5449378490447998
3.1966118812561035,-0.5849927663803101,-1.3647288084030151,1.1644541025161743,0.5739299654960632,0.8451590538024902,-0.5422675013542175
3.216682195663452,-0.5849927663803101,-1.362058401107788,1.1648355722427368,0.5575265288352966,0.8218890428543091,-0.5395971536636353
3.236773729324341,-0.5865186452865601,-1.3696879148483276,1.1694133281707764,0.5479896068572998,0.8276112079620361,-0.5457007884979248
3.2569031715393066,-0.5830853581428528,-1.3681620359420776,1.1655985116958618,0.5632486343383789,0.8337147831916809,-0.5449378490447998
3.276921272277832,-0.5853742361068726,-1.3658732175827026,1.1697947978973389,0.5571450591087341,0.8169298768043518,-0.5376898050308228
3.2970025539398193,-0.5872815847396851,-1.3685435056686401,1.1758984327316284,0.5483710765838623,0.812352180480957,-0.5457007884979248
3.31715989112854,-0.5853742361068726,-1.3654917478561401,1.1766613721847534,0.5598153471946716,0.8222705721855164,-0.5395971536636353
3.337153911590576,-0.5846112966537476,-1.3616769313812256,1.1743724346160889,0.5682078003883362,0.8203631639480591,-0.5376898050308228
3.3572473526000977,-0.5903334021568298,-1.3647288084030151,1.1839094161987305,0.5514228940010071,0.8180742859840393,-0.5392156839370728
3.3773133754730225,-0.5907148718833923,-1.3708323240280151,1.1861982345581055,0.5563820600509644,0.8314259648323059,-0.5472266674041748
3.397416114807129,-0.5869001150131226,-1.3708323240280151,1.1789501905441284,0.569733738899231,0.8340963125228882,-0.5457007884979248
3.417466163635254,-0.5876630544662476,-1.3681620359420776,1.177805781364441,0.5674448609352112,0.8199816942214966,-0.541886031627655
3.4375381469726562,-0.5891889929771423,-1.3742656707763672,1.179331660270691,0.5518043637275696,0.8157854676246643,-0.5464637279510498
3.457603693008423,-0.5888075232505798,-1.3780803680419922,1.181620478630066,0.5579079985618591,0.8245593905448914,-0.5479896068572998
3.477689027786255,-0.5861371755599976,-1.3754100799560547,1.1789501905441284,0.5632486343383789,0.8234149813652039,-0.54417484998703
3.4977686405181885,-0.5918593406677246,-1.3788433074951172,1.188868522644043,0.5491340756416321,0.8222705721855164,-0.5449378490447998
3.5178608894348145,-0.5930037498474121,-1.3822766542434692,1.1934462785720825,0.5540932416915894,0.8310444951057434,-0.5514228940010071
3.5387520790100098,-0.5907148718833923,-1.3811322450637817,1.1907758712768555,0.5682078003883362,0.8375295400619507,-0.5491340756416321
3.558837413787842,-0.5933852195739746,-1.3754100799560547,1.1934462785720825,0.5693522691726685,0.8318074345588684,-0.5464637279510498
3.5789194107055664,-0.5968185067176819,-1.3803693056106567,1.1980239152908325,0.5613412857055664,0.8340963125228882,-0.5506599545478821
3.5989975929260254,-0.5891889929771423,-1.3830395936965942,1.193827748298645,0.5727855563163757,0.841725766658783,-0.5529488325119019
3.6190736293792725,-0.5842298269271851,-1.3803693056106567,1.188105583190918,0.5853742361068726,0.8325703740119934,-0.5464637279510498
3.639139413833618,-0.5842298269271851,-1.3788433074951172,1.1884870529174805,0.572022557258606,0.8257037997245789,-0.5498970150947571
3.6592190265655518,-0.5876630544662476,-1.3845654726028442,1.1934462785720825,0.5605783462524414,0.8276112079620361,-0.5510414242744446
3.6792874336242676,-0.5838482975959778,-1.3853284120559692,1.1926833391189575,0.5670633912086487,0.838674008846283,-0.5518043637275696
3.6993730068206787,-0.5857557058334351,-1.3849469423294067,1.193827748298645,0.5708781480789185,0.8279926776885986,-0.5457007884979248
3.7194161415100098,-0.5914778113365173,-1.3876173496246338,1.201838731765747,0.5556191205978394,0.8253223299980164,-0.5514228940010071
3.739506959915161,-0.5933852195739746,-1.3902876377105713,1.202601671218872,0.5655375123023987,0.8344777822494507,-0.5537117719650269
3.7595877647399902,-0.5907148718833923,-1.3857098817825317,1.19916832447052,0.579270601272583,0.8344777822494507,-0.5498970150947571
3.7796683311462402,-0.5933852195739746,-1.3857098817825317,1.19764244556427,0.5739299654960632,0.8154039978981018,-0.5495155453681946
3.7997584342956543,-0.5930037498474121,-1.3906691074371338,1.1964980363845825,0.568970799446106,0.8260852694511414,-0.5537117719650269
3.8198659420013428,-0.5895704627037048,-1.3895246982574463,1.19459068775177,0.5827038884162903,0.8352407217025757,-0.5529488325119019
3.839926242828369,-0.5884260535240173,-1.3925764560699463,1.1949721574783325,0.5750743746757507,0.8241779208183289,-0.5521858334541321
3.8600049018859863,-0.5895704627037048,-1.3998245000839233,1.19916832447052,0.5605783462524414,0.8329518437385559,-0.5560005903244019
3.8800768852233887,-0.5876630544662476,-1.4017318487167358,1.2006943225860596,0.570496678352356,0.8432517051696777,-0.5582894682884216
3.9001481533050537,-0.5872815847396851,-1.3994430303573608,1.199549913406372,0.5708781480789185,0.8398184180259705,-0.5556191205978394
3.92022442817688,-0.5914778113365173,-1.404402256011963,1.2087053060531616,0.5563820600509644,0.837911069393158,-0.5582894682884216
3.940302848815918,-0.5937666893005371,-1.4070725440979004,1.2102311849594116,0.569733738899231,0.8451590538024902,-0.5632486343383789
3.9603748321533203,-0.5930037498474121,-1.404402256011963,1.2067978382110596,0.5811780095100403,0.8436331748962402,-0.5613412857055664
3.9806466102600098,-0.5964370369911194,-1.403639316558838,1.2094682455062866,0.576981782913208,0.8321889042854309,-0.5586709380149841
4.000771522521973,-0.5937666893005371,-1.4040207862854004,1.204890489578247,0.5739299654960632,0.838674008846283,-0.5647745728492737
4.020798921585083,-0.5903334021568298,-1.4024949073791504,1.2006943225860596,0.5846112966537476,0.8421072959899902,-0.5617227554321289
4.041013956069946,-0.5941481590270996,-1.405928134918213,1.2071794271469116,0.5758373141288757,0.837911069393158,-0.5586709380149841
4.061102390289307,-0.5926222801208496,-1.4085984230041504,1.2125200033187866,0.5621042251586914,0.8485923409461975,-0.5636301040649414
4.081167459487915,-0.5853742361068726,-1.404402256011963,1.2014572620391846,0.5758373141288757,0.8531700372695923,-0.5624856948852539
4.101355075836182,-0.5857557058334351,-1.4005874395370483,1.199549913406372,0.568970799446106,0.84897381067276,-0.5594338774681091
4.121439695358276,-0.5884260535240173,-1.4047837257385254,1.204890489578247,0.5617227554321289,0.8501182794570923,-0.5617227554321289
4.141516208648682,-0.5876630544662476,-1.4070725440979004,1.2079423666000366,0.5716410875320435,0.8577477931976318,-0.5636301040649414
4.161580801010132,-0.5880445837974548,-1.4009689092636108,1.204127550125122,0.5819409489631653,0.8524070978164673,-0.5609598159790039
4.181731939315796,-0.5922408103942871,-1.4063096046447754,1.2106126546859741,0.5701152086257935,0.8443961143493652,-0.5582894682884216
4.201743125915527,-0.5914778113365173,-1.408979892730713,1.2079423666000366,0.5766003131866455,0.8535515666007996,-0.5647745728492737
4.221842288970947,-0.5899519324302673,-1.4040207862854004,1.204127550125122,0.5861371755599976,0.84744793176651,-0.5594338774681091
4.24191951751709,-0.5914778113365173,-1.4017318487167358,1.2052719593048096,0.569733738899231,0.8333333134651184,-0.5624856948852539
4.262025594711304,-0.5914778113365173,-1.405165195465088,1.206416368484497,0.5632486343383789,0.8421072959899902,-0.5666819214820862
4.28205943107605,-0.5872815847396851,-1.405928134918213,1.206416368484497,0.5708781480789185,0.8550774455070496,-0.5655375123023987
4.3021557331085205,-0.5861371755599976,-1.4055466651916504,1.2083238363265991,0.5674448609352112,0.8463035225868225,-0.5628671646118164
4.322222471237183,-0.5857557058334351,-1.4040207862854004,1.2071794271469116,0.5605783462524414,0.8424887657165527,-0.5678263306617737
4.34227728843689,-0.5838482975959778,-1.4021133184432983,1.2052719593048096,0.5731670260429382,0.8516441583633423,-0.5655375123023987
4.362375259399414,-0.5865186452865601,-1.402876377105713,1.2090867757797241,0.570496678352356,0.8455405235290527,-0.5594338774681091
4.382433891296387,-0.5872815847396851,-1.402876377105713,1.2098497152328491,0.5678263306617737,0.8478294014930725,-0.5647745728492737
4.4025044441223145,-0.5842298269271851,-1.3990615606307983,1.2006943225860596,0.5857557058334351,0.8516441583633423,-0.5636301040649414
4.4225921630859375,-0.5895704627037048,-1.3990615606307983,1.2067978382110596,0.579270601272583,0.8463035225868225,-0.5540932416915894
4.44265341758728,-0.5907148718833923,-1.3990615606307983,1.206416368484497,0.5731670260429382,0.8413442969322205,-0.5636301040649414
4.462953805923462,-0.5914778113365173,-1.4024949073791504,1.2037460803985596,0.5754558444023132,0.8451590538024902,-0.5598153471946716
4.483062267303467,-0.5910963416099548,-1.403639316558838,1.204890489578247,0.576981782913208,0.848210871219635,-0.5598153471946716
4.5031821727752686,-0.5907148718833923,-1.4024949073791504,1.206416368484497,0.5743114352226257,0.8421072959899902,-0.5598153471946716
4.523259162902832,-0.5899519324302673,-1.4032578468322754,1.2060348987579346,0.572022557258606,0.8398184180259705,-0.5613412857055664
4.543356657028198,-0.5891889929771423,-1.4032578468322754,1.2052719593048096,0.5743114352226257,0.8440146446228027,-0.5613412857055664
4.563434600830078,-0.5891889929771423,-1.402876377105713,1.2083238363265991,0.5731670260429382,0.8451590538024902,-0.5590524077415466
4.583537340164185,-0.5888075232505798,-1.4047837257385254,1.2087053060531616,0.5750743746757507,0.8463035225868225,-0.5621042251586914
4.603594779968262,-0.5872815847396851,-1.4024949073791504,1.2067978382110596,0.5834668278694153,0.8512626886367798,-0.5601968169212341
4.623650074005127,-0.5891889929771423,-1.402876377105713,1.2083238363265991,0.5754558444023132,0.8432517051696777,-0.5575265288352966
4.643789052963257,-0.5888075232505798,-1.4047837257385254,1.2071794271469116,0.5754558444023132,0.8405813574790955,-0.5617227554321289
4.663829565048218,-0.5884260535240173,-1.4047837257385254,1.206416368484497,0.5796520709991455,0.84592205286026,-0.5582894682884216
4.683907747268677,-0.5891889929771423,-1.403639316558838,1.2071794271469116,0.5746929049491882,0.8348592519760132,-0.5567635893821716
4.704029321670532,-0.5891889929771423,-1.405165195465088,1.2067978382110596,0.5731670260429382,0.8363851308822632,-0.5579079985618591
4.724079370498657,-0.5880445837974548,-1.405165195465088,1.2060348987579346,0.5796520709991455,0.84592205286026,-0.5571450591087341
4.744237661361694,-0.5880445837974548,-1.405165195465088,1.2079423666000366,0.577744722366333,0.8424887657165527,-0.5563820600509644
4.764286756515503,-0.5872815847396851,-1.4070725440979004,1.2075608968734741,0.5788891315460205,0.8440146446228027,-0.5575265288352966
4.784345388412476,-0.5872815847396851,-1.4078354835510254,1.2079423666000366,0.5807965397834778,0.848210871219635,-0.5571450591087341
4.8044469356536865,-0.5872815847396851,-1.4078354835510254,1.2090867757797241,0.5766003131866455,0.841725766658783,-0.5575265288352966
4.824799060821533,-0.5865186452865601,-1.4085984230041504,1.2087053060531616,0.5766003131866455,0.8382925391197205,-0.5590524077415466
4.844885587692261,-0.5853742361068726,-1.406691074371338,1.2075608968734741,0.5804150700569153,0.838674008846283,-0.5567635893821716
4.8649351596832275,-0.5876630544662476,-1.405928134918213,1.2102311849594116,0.576218843460083,0.8363851308822632,-0.5560005903244019
4.885055065155029,-0.5861371755599976,-1.407454013824463,1.2090867757797241,0.580033540725708,0.8405813574790955,-0.5582894682884216
4.905146360397339,-0.5869001150131226,-1.405928134918213,1.2087053060531616,0.5891889929771423,0.8508812189102173,-0.5567635893821716
4.925233364105225,-0.5872815847396851,-1.404402256011963,1.2109941244125366,0.5807965397834778,0.840199887752533,-0.5560005903244019
4.945793151855469,-0.5872815847396851,-1.402876377105713,1.2121385335922241,0.5743114352226257,0.8363851308822632,-0.5594338774681091
4.965894937515259,-0.5857557058334351,-1.405165195465088,1.2094682455062866,0.5781261920928955,0.8421072959899902,-0.5586709380149841
4.986023426055908,-0.5853742361068726,-1.4017318487167358,1.2102311849594116,0.5811780095100403,0.8447775840759277,-0.5563820600509644
5.006052017211914,-0.5853742361068726,-1.3971542119979858,1.2098497152328491,0.5724040865898132,0.8325703740119934,-0.5575265288352966
5.026148080825806,-0.5853742361068726,-1.4013503789901733,1.2090867757797241,0.5739299654960632,0.840199887752533,-0.5594338774681091
5.046231031417847,-0.5849927663803101,-1.3998245000839233,1.2090867757797241,0.5827038884162903,0.8485923409461975,-0.5571450591087341
5.066288709640503,-0.5849927663803101,-1.3967727422714233,1.2090867757797241,0.578507661819458,0.840199887752533,-0.5563820600509644
5.086380481719971,-0.5853742361068726,-1.4009689092636108,1.2102311849594116,0.572022557258606,0.8371480703353882,-0.5609598159790039
5.106450796127319,-0.5853742361068726,-1.4085984230041504,1.2090867757797241,0.5815594792366028,0.848210871219635,-0.5609598159790039
5.126546621322632,-0.5853742361068726,-1.4055466651916504,1.2094682455062866,0.5788891315460205,0.839436948299408,-0.5560005903244019
5.146774053573608,-0.5857557058334351,-1.4013503789901733,1.2094682455062866,0.5636301040649414,0.8180742859840393,-0.5571450591087341
5.166856527328491,-0.5865186452865601,-1.4063096046447754,1.2075608968734741,0.5632486343383789,0.8215075731277466,-0.5598153471946716
5.1869916915893555,-0.5853742361068726,-1.4040207862854004,1.206416368484497,0.5743114352226257,0.8306630253791809,-0.5567635893821716
5.2078351974487305,-0.5891889929771423,-1.402876377105713,1.2102311849594116,0.568970799446106,0.8241779208183289,-0.5544747114181519
5.227916955947876,-0.5880445837974548,-1.4017318487167358,1.2090867757797241,0.5682078003883362,0.8306630253791809,-0.5586709380149841
5.247971773147583,-0.5857557058334351,-1.3986800909042358,1.2022202014923096,0.580033540725708,0.8325703740119934,-0.5544747114181519
5.2680535316467285,-0.5933852195739746,-1.3998245000839233,1.2109941244125366,0.5651560425758362,0.8260852694511414,-0.5506599545478821
5.2881481647491455,-0.5956740379333496,-1.405928134918213,1.2132829427719116,0.5655375123023987,0.8329518437385559,-0.5590524077415466
5.308217287063599,-0.5937666893005371,-1.4032578468322754,1.2079423666000366,0.5819409489631653,0.8356221914291382,-0.5521858334541321
5.328278064727783,-0.5941481590270996,-1.3994430303573608,1.2071794271469116,0.5758373141288757,0.8249408602714539,-0.5491340756416321
5.348364353179932,-0.5941481590270996,-1.4040207862854004,1.206416368484497,0.571259617805481,0.8321889042854309,-0.5533303022384644
5.368454217910767,-0.5918593406677246,-1.405165195465088,1.202601671218872,0.5849927663803101,0.840199887752533,-0.5514228940010071
5.388620615005493,-0.5903334021568298,-1.4040207862854004,1.201075792312622,0.5842298269271851,0.8371480703353882,-0.5479896068572998
5.408762693405151,-0.5914778113365173,-1.406691074371338,1.2071794271469116,0.5708781480789185,0.8352407217025757,-0.5476081371307373
5.4287848472595215,-0.5880445837974548,-1.410887360572815,1.205653429031372,0.5746929049491882,0.841725766658783,-0.5537117719650269
5.448829650878906,-0.5869001150131226,-1.407454013824463,1.203364610671997,0.5815594792366028,0.8451590538024902,-0.5514228940010071
5.468921661376953,-0.5888075232505798,-1.4093613624572754,1.205653429031372,0.572022557258606,0.8333333134651184,-0.5498970150947571
5.489001989364624,-0.5891889929771423,-1.41317617893219,1.2087053060531616,0.5731670260429382,0.848210871219635,-0.5552376508712769
5.5090861320495605,-0.5865186452865601,-1.406691074371338,1.204890489578247,0.5880445837974548,0.8501182794570923,-0.5533303022384644
5.529155015945435,-0.5922408103942871,-1.4055466651916504,1.2098497152328491,0.5727855563163757,0.8241779208183289,-0.5506599545478821
5.549231290817261,-0.5964370369911194,-1.410887360572815,1.2140458822250366,0.5678263306617737,0.8340963125228882,-0.5594338774681091
5.569319248199463,-0.5899519324302673,-1.4120317697525024,1.2079423666000366,0.5857557058334351,0.84744793176651,-0.5560005903244019
5.589411020278931,-0.5857557058334351,-1.4063096046447754,1.202601671218872,0.5930037498474121,0.8337147831916809,-0.5472266674041748
5.609476804733276,-0.5903334021568298,-1.407454013824463,1.205653429031372,0.5804150700569153,0.8272297382354736,-0.5502784848213196
5.629531145095825,-0.5941481590270996,-1.413939118385315,1.2125200033187866,0.5754558444023132,0.8413442969322205,-0.5560005903244019
5.649621963500977,-0.5888075232505798,-1.4112688302993774,1.2098497152328491,0.5823224186897278,0.8493552803993225,-0.5560005903244019
5.669706106185913,-0.5899519324302673,-1.4085984230041504,1.2113755941390991,0.5754558444023132,0.8340963125228882,-0.5514228940010071
5.689749479293823,-0.5937666893005371,-1.4112688302993774,1.2155718803405762,0.5655375123023987,0.837911069393158,-0.5563820600509644
5.709845542907715,-0.5899519324302673,-1.4101243019104004,1.2090867757797241,0.5811780095100403,0.84744793176651,-0.5556191205978394
5.729944229125977,-0.5907148718833923,-1.405928134918213,1.2087053060531616,0.5830853581428528,0.8382925391197205,-0.5457007884979248
5.749988317489624,-0.5926222801208496,-1.4120317697525024,1.2094682455062866,0.5773632526397705,0.8272297382354736,-0.5537117719650269
5.77007269859314,-0.5926222801208496,-1.41622793674469,1.2087053060531616,0.5842298269271851,0.840962827205658,-0.5552376508712769
5.790173530578613,-0.5914778113365173,-1.4150835275650024,1.2087053060531616,0.5861371755599976,0.8382925391197205,-0.5502784848213196
5.81029486656189,-0.5914778113365173,-1.4120317697525024,1.2094682455062866,0.5670633912086487,0.8146410584449768,-0.5514228940010071
5.830370903015137,-0.5914778113365173,-1.418135404586792,1.2102311849594116,0.568970799446106,0.8249408602714539,-0.5571450591087341
5.850446462631226,-0.5891889929771423,-1.41470205783844,1.2094682455062866,0.5811780095100403,0.8314259648323059,-0.5529488325119019
5.870519399642944,-0.5914778113365173,-1.4143205881118774,1.2144273519515991,0.5708781480789185,0.8245593905448914,-0.5506599545478821
5.890589237213135,-0.5895704627037048,-1.4166094064712524,1.2125200033187866,0.5773632526397705,0.8363851308822632,-0.5560005903244019
5.910689115524292,-0.5891889929771423,-1.41317617893219,1.2075608968734741,0.5983443856239319,0.8432517051696777,-0.5525673031806946
5.930774688720703,-0.5899519324302673,-1.4127947092056274,1.2113755941390991,0.5815594792366028,0.8325703740119934,-0.5491340756416321
5.950976133346558,-0.5895704627037048,-1.41622793674469,1.2140458822250366,0.5746929049491882,0.8321889042854309,-0.5567635893821716
5.9710633754730225,-0.5872815847396851,-1.4143205881118774,1.2098497152328491,0.5842298269271851,0.8390554785728455,-0.5552376508712769
5.9911603927612305,-0.5895704627037048,-1.413939118385315,1.2094682455062866,0.5773632526397705,0.8276112079620361,-0.5506599545478821
6.01120400428772,-0.5937666893005371,-1.418898344039917,1.2197680473327637,0.5586709380149841,0.8348592519760132,-0.5544747114181519
6.031293153762817,-0.5910963416099548,-1.4238574504852295,1.2186236381530762,0.5754558444023132,0.8436331748962402,-0.5560005903244019
6.051368951797485,-0.5910963416099548,-1.4185168743133545,1.2186236381530762,0.5796520709991455,0.8382925391197205,-0.5472266674041748
6.071435213088989,-0.5960555672645569,-1.418135404586792,1.2197680473327637,0.5708781480789185,0.8276112079620361,-0.5502784848213196
6.091518878936768,-0.5956740379333496,-1.4185168743133545,1.2190051078796387,0.5773632526397705,0.8443961143493652,-0.5537117719650269
6.111622095108032,-0.5945296287536621,-1.41622793674469,1.2178606986999512,0.5937666893005371,0.8413442969322205,-0.5510414242744446
6.131652355194092,-0.5945296287536621,-1.413939118385315,1.2201495170593262,0.5781261920928955,0.8283741474151611,-0.5514228940010071
6.151779413223267,-0.5945296287536621,-1.416990876197815,1.2193865776062012,0.576981782913208,0.8398184180259705,-0.5567635893821716
6.171860933303833,-0.5907148718833923,-1.4158464670181274,1.2178606986999512,0.5842298269271851,0.84897381067276,-0.5533303022384644
6.19193696975708,-0.5891889929771423,-1.413939118385315,1.2178606986999512,0.5766003131866455,0.8329518437385559,-0.5510414242744446
6.212054252624512,-0.5888075232505798,-1.420424222946167,1.2197680473327637,0.5754558444023132,0.841725766658783,-0.5540932416915894
6.232141494750977,-0.5876630544662476,-1.419661283493042,1.2182421684265137,0.5849927663803101,0.8569847941398621,-0.5533303022384644
6.252184867858887,-0.5891889929771423,-1.41622793674469,1.2197680473327637,0.5743114352226257,0.8367666006088257,-0.5491340756416321
6.272419452667236,-0.5895704627037048,-1.4158464670181274,1.2216753959655762,0.5678263306617737,0.8276112079620361,-0.5571450591087341
6.292499542236328,-0.5888075232505798,-1.4143205881118774,1.2144273519515991,0.5842298269271851,0.8356221914291382,-0.5548561811447144
6.312592029571533,-0.5895704627037048,-1.4127947092056274,1.2090867757797241,0.5941481590270996,0.8360036611557007,-0.5483710765838623
6.332823038101196,-0.5922408103942871,-1.4112688302993774,1.2125200033187866,0.5861371755599976,0.8329518437385559,-0.5491340756416321
6.352909326553345,-0.5914778113365173,-1.4173723459243774,1.2136644124984741,0.5807965397834778,0.8318074345588684,-0.5525673031806946
6.372971296310425,-0.5872815847396851,-1.4127947092056274,1.2098497152328491,0.5888075232505798,0.8318074345588684,-0.5495155453681946
6.393049001693726,-0.5895704627037048,-1.4112688302993774,1.2125200033187866,0.5781261920928955,0.8215075731277466,-0.5460822582244873
6.4131646156311035,-0.5903334021568298,-1.41470205783844,1.2170977592468262,0.5678263306617737,0.8375295400619507,-0.5552376508712769
6.433209180831909,-0.5861371755599976,-1.41775381565094,1.2125200033187866,0.5918593406677246,0.8524070978164673,-0.5537117719650269
6.453275680541992,-0.5849927663803101,-1.4150835275650024,1.2102311849594116,0.5983443856239319,0.8543145060539246,-0.5468451976776123
6.473374366760254,-0.5880445837974548,-1.418135404586792,1.2140458822250366,0.5865186452865601,0.8443961143493652,-0.5510414242744446
6.493433475494385,-0.5880445837974548,-1.419661283493042,1.2129014730453491,0.5884260535240173,0.84897381067276,-0.5533303022384644
6.513586759567261,-0.5842298269271851,-1.41775381565094,1.2075608968734741,0.6010147333145142,0.84744793176651,-0.5529488325119019
6.533722162246704,-0.5865186452865601,-1.418135404586792,1.2102311849594116,0.5949110984802246,0.8325703740119934,-0.5491340756416321
6.553734302520752,-0.5899519324302673,-1.4223315715789795,1.2170977592468262,0.5827038884162903,0.8436331748962402,-0.5537117719650269
6.573807954788208,-0.5869001150131226,-1.4246203899383545,1.2159533500671387,0.5918593406677246,0.8520256280899048,-0.5548561811447144
6.593923330307007,-0.5861371755599976,-1.416990876197815,1.2151904106140137,0.5937666893005371,0.8463035225868225,-0.5495155453681946
6.613974332809448,-0.5899519324302673,-1.419661283493042,1.2193865776062012,0.580033540725708,0.8424887657165527,-0.5529488325119019
6.634773015975952,-0.5834668278694153,-1.418135404586792,1.2144273519515991,0.5907148718833923,0.8566033244132996,-0.5556191205978394
6.654889345169067,-0.580033540725708,-1.4166094064712524,1.2098497152328491,0.6078813076019287,0.8600366115570068,-0.5518043637275696
6.674949645996094,-0.5819409489631653,-1.4150835275650024,1.2087053060531616,0.6029220819473267,0.8554589152336121,-0.5529488325119019
6.6950507164001465,-0.5830853581428528,-1.420424222946167,1.2113755941390991,0.5895704627037048,0.8558403849601746,-0.5556191205978394
6.715185165405273,-0.5811780095100403,-1.4223315715789795,1.2121385335922241,0.5922408103942871,0.8615625500679016,-0.5567635893821716
6.735208749771118,-0.5834668278694153,-1.4238574504852295,1.2148088216781616,0.5903334021568298,0.8516441583633423,-0.5537117719650269
6.755309104919434,-0.5827038884162903,-1.421950101852417,1.2140458822250366,0.5796520709991455,0.841725766658783,-0.5567635893821716
6.775373935699463,-0.5823224186897278,-1.4230945110321045,1.2109941244125366,0.5876630544662476,0.8440146446228027,-0.5560005903244019
6.7954487800598145,-0.5827038884162903,-1.419661283493042,1.2132829427719116,0.5937666893005371,0.8470664620399475,-0.5506599545478821
6.815502405166626,-0.5853742361068726,-1.4185168743133545,1.2140458822250366,0.5903334021568298,0.837911069393158,-0.5506599545478821
6.835593938827515,-0.5849927663803101,-1.421950101852417,1.2125200033187866,0.5888075232505798,0.8463035225868225,-0.5533303022384644
6.855666160583496,-0.5842298269271851,-1.421950101852417,1.2121385335922241,0.5975814461708069,0.8607995510101318,-0.5537117719650269
6.8757476806640625,-0.5842298269271851,-1.418135404586792,1.2129014730453491,0.5914778113365173,0.8520256280899048,-0.5518043637275696
6.89629054069519,-0.5830853581428528,-1.422713041305542,1.2132829427719116,0.5830853581428528,0.8463035225868225,-0.5575265288352966
6.916332483291626,-0.5811780095100403,-1.419661283493042,1.2121385335922241,0.5899519324302673,0.8554589152336121,-0.5567635893821716
6.936420917510986,-0.5819409489631653,-1.4150835275650024,1.2151904106140137,0.5823224186897278,0.8440146446228027,-0.5529488325119019
6.957471609115601,-0.5815594792366028,-1.415464997291565,1.2155718803405762,0.5819409489631653,0.8428702354431152,-0.5590524077415466
6.977600336074829,-0.5819409489631653,-1.413939118385315,1.2132829427719116,0.5952925682067871,0.8508812189102173,-0.5563820600509644
6.997694492340088,-0.5827038884162903,-1.41165030002594,1.2155718803405762,0.5907148718833923,0.8451590538024902,-0.5521858334541321
7.01773738861084,-0.5834668278694153,-1.41317617893219,1.2151904106140137,0.5884260535240173,0.8428702354431152,-0.5579079985618591
7.037830352783203,-0.5838482975959778,-1.4158464670181274,1.2113755941390991,0.5941481590270996,0.8512626886367798,-0.5571450591087341
7.057906150817871,-0.5842298269271851,-1.4158464670181274,1.2102311849594116,0.5899519324302673,0.8440146446228027,-0.5529488325119019
7.077969074249268,-0.5842298269271851,-1.41622793674469,1.2113755941390991,0.5773632526397705,0.8318074345588684,-0.5537117719650269
7.098085641860962,-0.5838482975959778,-1.420424222946167,1.2117570638656616,0.5815594792366028,0.837911069393158,-0.5567635893821716
7.118138790130615,-0.5827038884162903,-1.4143205881118774,1.2117570638656616,0.5880445837974548,0.8405813574790955,-0.5525673031806946
7.138207674026489,-0.5838482975959778,-1.407454013824463,1.2132829427719116,0.5788891315460205,0.8329518437385559,-0.5521858334541321
7.159087896347046,-0.5842298269271851,-1.406691074371338,1.2140458822250366,0.5853742361068726,0.840962827205658,-0.5548561811447144
7.179178714752197,-0.5842298269271851,-1.4093613624572754,1.2136644124984741,0.5956740379333496,0.8520256280899048,-0.5544747114181519
7.199290037155151,-0.5842298269271851,-1.404402256011963,1.2144273519515991,0.5998703241348267,0.8569847941398621,-0.5540932416915894
7.219316005706787,-0.5842298269271851,-1.4032578468322754,1.2136644124984741,0.5884260535240173,0.8405813574790955,-0.5540932416915894
7.239410638809204,-0.5842298269271851,-1.4105058908462524,1.2121385335922241,0.5849927663803101,0.8436331748962402,-0.5575265288352966
7.2594897747039795,-0.5842298269271851,-1.4135576486587524,1.2117570638656616,0.5891889929771423,0.8501182794570923,-0.5529488325119019
7.279565095901489,-0.5846112966537476,-1.410887360572815,1.2113755941390991,0.576218843460083,0.8260852694511414,-0.5510414242744446
7.299650430679321,-0.5865186452865601,-1.41775381565094,1.2136644124984741,0.5663004517555237,0.8245593905448914,-0.5571450591087341
7.319718360900879,-0.5869001150131226,-1.41622793674469,1.2121385335922241,0.5823224186897278,0.8421072959899902,-0.5544747114181519
7.339791536331177,-0.5888075232505798,-1.4143205881118774,1.2159533500671387,0.5750743746757507,0.8321889042854309,-0.5521858334541321
7.3599231243133545,-0.5895704627037048,-1.4158464670181274,1.2174792289733887,0.572022557258606,0.8348592519760132,-0.5617227554321289
7.380024671554565,-0.5891889929771423,-1.4105058908462524,1.2159533500671387,0.5807965397834778,0.8470664620399475,-0.5598153471946716
7.400072813034058,-0.5899519324302673,-1.407454013824463,1.2144273519515991,0.576981782913208,0.8375295400619507,-0.5582894682884216
7.420163154602051,-0.5903334021568298,-1.4063096046447754,1.2132829427719116,0.5682078003883362,0.8344777822494507,-0.5617227554321289
7.440245866775513,-0.5891889929771423,-1.408979892730713,1.2113755941390991,0.5773632526397705,0.8470664620399475,-0.5621042251586914
7.4603190422058105,-0.5872815847396851,-1.4070725440979004,1.2113755941390991,0.5788891315460205,0.848210871219635,-0.5560005903244019
7.480532646179199,-0.5891889929771423,-1.4101243019104004,1.2136644124984741,0.5701152086257935,0.8356221914291382,-0.5571450591087341
7.5006232261657715,-0.5891889929771423,-1.410887360572815,1.2140458822250366,0.5754558444023132,0.84744793176651,-0.5617227554321289
7.520692825317383,-0.5891889929771423,-1.41165030002594,1.2136644124984741,0.5819409489631653,0.8493552803993225,-0.5567635893821716
7.540760040283203,-0.5903334021568298,-1.4105058908462524,1.2167162895202637,0.5708781480789185,0.8356221914291382,-0.5586709380149841
7.560844898223877,-0.5884260535240173,-1.4093613624572754,1.2090867757797241,0.5804150700569153,0.8340963125228882,-0.5601968169212341
7.5809502601623535,-0.5891889929771423,-1.405165195465088,1.2067978382110596,0.580033540725708,0.8314259648323059,-0.5510414242744446
7.601007461547852,-0.5910963416099548,-1.406691074371338,1.2075608968734741,0.5716410875320435,0.8253223299980164,-0.5571450591087341
7.621101140975952,-0.5880445837974548,-1.4093613624572754,1.2067978382110596,0.5823224186897278,0.8360036611557007,-0.5571450591087341
7.641173839569092,-0.5869001150131226,-1.4105058908462524,1.2075608968734741,0.5895704627037048,0.838674008846283,-0.5521858334541321
7.679999828338623,-0.5895704627037048,-1.4055466651916504,1.2155718803405762,0.571259617805481,0.8356221914291382,-0.5567635893821716
7.700084686279297,-0.5907148718833923,-1.402876377105713,1.2190051078796387,0.5731670260429382,0.8421072959899902,-0.5582894682884216
7.720197677612305,-0.5907148718833923,-1.4024949073791504,1.2209124565124512,0.580033540725708,0.8508812189102173,-0.5586709380149841
7.740269660949707,-0.5907148718833923,-1.402876377105713,1.2190051078796387,0.5907148718833923,0.8588922023773193,-0.5586709380149841
7.760368347167969,-0.5933852195739746,-1.4009689092636108,1.2190051078796387,0.5979629158973694,0.8630884289741516,-0.5563820600509644
7.780440330505371,-0.5933852195739746,-1.403639316558838,1.2170977592468262,0.5888075232505798,0.8543145060539246,-0.5590524077415466
7.800520181655884,-0.5922408103942871,-1.403639316558838,1.2159533500671387,0.5869001150131226,0.8535515666007996,-0.5609598159790039
7.82065224647522,-0.5918593406677246,-1.4085984230041504,1.2148088216781616,0.580033540725708,0.838674008846283,-0.5575265288352966
7.840674638748169,-0.5910963416099548,-1.407454013824463,1.2148088216781616,0.569733738899231,0.8367666006088257,-0.5605783462524414
7.8608527183532715,-0.5891889929771423,-1.4085984230041504,1.2129014730453491,0.5735484957695007,0.8421072959899902,-0.5605783462524414
7.880940198898315,-0.5899519324302673,-1.4047837257385254,1.2155718803405762,0.576218843460083,0.8432517051696777,-0.5579079985618591
7.901097059249878,-0.5891889929771423,-1.4078354835510254,1.2170977592468262,0.578507661819458,0.8455405235290527,-0.5594338774681091
7.921262979507446,-0.5888075232505798,-1.405165195465088,1.2155718803405762,0.5937666893005371,0.8634698987007141,-0.5617227554321289
7.941391944885254,-0.5899519324302673,-1.404402256011963,1.2148088216781616,0.5945296287536621,0.8592736721038818,-0.5560005903244019
7.961429834365845,-0.5907148718833923,-1.404402256011963,1.2163348197937012,0.5807965397834778,0.8546959757804871,-0.5613412857055664
7.981513738632202,-0.5899519324302673,-1.4105058908462524,1.2129014730453491,0.5903334021568298,0.8562218546867371,-0.5632486343383789
8.001586437225342,-0.5895704627037048,-1.4093613624572754,1.2094682455062866,0.5891889929771423,0.8516441583633423,-0.5563820600509644
8.021642684936523,-0.5895704627037048,-1.409742832183838,1.2113755941390991,0.5758373141288757,0.840199887752533,-0.5575265288352966
8.041843891143799,-0.5891889929771423,-1.41165030002594,1.2113755941390991,0.576218843460083,0.8390554785728455,-0.5598153471946716
8.061944484710693,-0.5869001150131226,-1.408979892730713,1.2090867757797241,0.5869001150131226,0.8455405235290527,-0.5567635893821716
8.082022666931152,-0.5880445837974548,-1.4078354835510254,1.2129014730453491,0.5815594792366028,0.8405813574790955,-0.5540932416915894
8.10208010673523,-0.5884260535240173,-1.4055466651916504,1.2151904106140137,0.5834668278694153,0.848210871219635,-0.5601968169212341
8.122164487838745,-0.5876630544662476,-1.4078354835510254,1.2132829427719116,0.5930037498474121,0.8604180812835693,-0.5582894682884216
8.142237186431885,-0.5884260535240173,-1.4021133184432983,1.2144273519515991,0.5964370369911194,0.8634698987007141,-0.5567635893821716
8.162288904190063,-0.5895704627037048,-1.4017318487167358,1.2136644124984741,0.5838482975959778,0.8516441583633423,-0.5586709380149841
8.182384490966797,-0.5872815847396851,-1.4040207862854004,1.2098497152328491,0.5861371755599976,0.8531700372695923,-0.5632486343383789
8.202545881271362,-0.5865186452865601,-1.4040207862854004,1.2087053060531616,0.5903334021568298,0.8516441583633423,-0.5544747114181519
8.222593307495117,-0.5869001150131226,-1.4013503789901733,1.2094682455062866,0.5781261920928955,0.8348592519760132,-0.5571450591087341
8.242634296417236,-0.5869001150131226,-1.408979892730713,1.2090867757797241,0.576981782913208,0.837911069393158,-0.5613412857055664
8.262707471847534,-0.5861371755599976,-1.4085984230041504,1.2094682455062866,0.5838482975959778,0.8478294014930725,-0.5590524077415466
8.282767057418823,-0.5872815847396851,-1.4085984230041504,1.2121385335922241,0.576981782913208,0.8405813574790955,-0.5575265288352966
8.302840232849121,-0.5869001150131226,-1.4120317697525024,1.2113755941390991,0.5804150700569153,0.8447775840759277,-0.5621042251586914
8.322929382324219,-0.5865186452865601,-1.4063096046447754,1.2087053060531616,0.5876630544662476,0.848210871219635,-0.5563820600509644
8.34302282333374,-0.5903334021568298,-1.4093613624572754,1.2121385335922241,0.571259617805481,0.8333333134651184,-0.5579079985618591
8.363354206085205,-0.5891889929771423,-1.4150835275650024,1.2148088216781616,0.5743114352226257,0.84744793176651,-0.5632486343383789
8.383445024490356,-0.5876630544662476,-1.409742832183838,1.2102311849594116,0.5968185067176819,0.8424887657165527,-0.5563820600509644
8.403517007827759,-0.5891889929771423,-1.4047837257385254,1.2113755941390991,0.5796520709991455,0.8272297382354736,-0.5586709380149841
8.423603534698486,-0.5895704627037048,-1.4032578468322754,1.2125200033187866,0.5731670260429382,0.8363851308822632,-0.5605783462524414
8.443673133850098,-0.5880445837974548,-1.4055466651916504,1.2109941244125366,0.5815594792366028,0.8470664620399475,-0.5571450591087341
8.463762283325195,-0.5884260535240173,-1.4002059698104858,1.2121385335922241,0.5865186452865601,0.8485923409461975,-0.5552376508712769
8.483825445175171,-0.5884260535240173,-1.3986800909042358,1.2125200033187866,0.5781261920928955,0.8405813574790955,-0.5575265288352966
8.504088163375854,-0.5884260535240173,-1.403639316558838,1.2117570638656616,0.5788891315460205,0.8440146446228027,-0.5586709380149841
8.524182319641113,-0.5872815847396851,-1.404402256011963,1.2109941244125366,0.5838482975959778,0.846684992313385,-0.5567635893821716
8.544248104095459,-0.5872815847396851,-1.406691074371338,1.2113755941390991,0.5788891315460205,0.8356221914291382,-0.5556191205978394
8.564405679702759,-0.5872815847396851,-1.4070725440979004,1.2102311849594116,0.5758373141288757,0.8363851308822632,-0.5579079985618591
8.584472179412842,-0.5872815847396851,-1.4055466651916504,1.2087053060531616,0.5773632526397705,0.8356221914291382,-0.5560005903244019
8.604556560516357,-0.5876630544662476,-1.4032578468322754,1.2090867757797241,0.5750743746757507,0.8333333134651184,-0.5548561811447144
8.624608516693115,-0.5872815847396851,-1.4047837257385254,1.2090867757797241,0.5819409489631653,0.8405813574790955,-0.5571450591087341
8.644691944122314,-0.5872815847396851,-1.4024949073791504,1.2094682455062866,0.5888075232505798,0.8504997491836548,-0.5556191205978394
8.664761543273926,-0.5872815847396851,-1.402876377105713,1.2102311849594116,0.5827038884162903,0.840962827205658,-0.5533303022384644
8.684845924377441,-0.5872815847396851,-1.405928134918213,1.2102311849594116,0.579270601272583,0.8428702354431152,-0.5575265288352966
8.705089569091797,-0.5872815847396851,-1.409742832183838,1.2098497152328491,0.5838482975959778,0.8501182794570923,-0.5563820600509644
8.725189924240112,-0.5869001150131226,-1.4085984230041504,1.2098497152328491,0.580033540725708,0.8421072959899902,-0.5548561811447144
8.745255470275879,-0.5872815847396851,-1.412413239479065,1.2106126546859741,0.5663004517555237,0.8260852694511414,-0.5567635893821716
8.765349388122559,-0.5872815847396851,-1.4166094064712524,1.2106126546859741,0.5735484957695007,0.8363851308822632,-0.5579079985618591
8.785443782806396,-0.5872815847396851,-1.409742832183838,1.2109941244125366,0.5750743746757507,0.8306630253791809,-0.5525673031806946
8.805519819259644,-0.5884260535240173,-1.4078354835510254,1.2106126546859741,0.5659189820289612,0.8192187547683716,-0.5567635893821716
8.825571537017822,-0.5865186452865601,-1.4063096046447754,1.2087053060531616,0.579270601272583,0.8367666006088257,-0.5605783462524414
8.845665454864502,-0.5869001150131226,-1.4070725440979004,1.2109941244125366,0.5918593406677246,0.8413442969322205,-0.5548561811447144
8.865755081176758,-0.5880445837974548,-1.4063096046447754,1.2159533500671387,0.5823224186897278,0.8375295400619507,-0.5575265288352966
8.885794401168823,-0.5872815847396851,-1.405165195465088,1.2132829427719116,0.5781261920928955,0.8363851308822632,-0.5579079985618591
8.905882120132446,-0.5872815847396851,-1.403639316558838,1.2117570638656616,0.5743114352226257,0.8367666006088257,-0.5571450591087341
8.925964117050171,-0.5872815847396851,-1.4070725440979004,1.2121385335922241,0.5659189820289612,0.8268482685089111,-0.5575265288352966
8.94603443145752,-0.5872815847396851,-1.4101243019104004,1.2132829427719116,0.571259617805481,0.8337147831916809,-0.5598153471946716
8.966139078140259,-0.5872815847396851,-1.405928134918213,1.2117570638656616,0.576981782913208,0.8348592519760132,-0.5560005903244019
8.986213445663452,-0.5880445837974548,-1.4047837257385254,1.2121385335922241,0.5659189820289612,0.8207446336746216,-0.5563820600509644
9.006283283233643,-0.5895704627037048,-1.407454013824463,1.2117570638656616,0.5682078003883362,0.8287556171417236,-0.5605783462524414
9.026776313781738,-0.5888075232505798,-1.4009689092636108,1.2106126546859741,0.5788891315460205,0.8390554785728455,-0.5571450591087341
9.046870946884155,-0.5895704627037048,-1.4021133184432983,1.2140458822250366,0.5701152086257935,0.8287556171417236,-0.5563820600509644
9.066942930221558,-0.5880445837974548,-1.4024949073791504,1.2109941244125366,0.5773632526397705,0.8318074345588684,-0.5601968169212341
9.087016582489014,-0.5884260535240173,-1.404402256011963,1.2090867757797241,0.5827038884162903,0.8318074345588684,-0.5525673031806946
9.107089281082153,-0.5891889929771423,-1.4047837257385254,1.2136644124984741,0.5678263306617737,0.8348592519760132,-0.5571450591087341
9.127167224884033,-0.5891889929771423,-1.4055466651916504,1.2109941244125366,0.571259617805481,0.8321889042854309,-0.5556191205978394
9.148046016693115,-0.5891889929771423,-1.405928134918213,1.2083238363265991,0.570496678352356,0.8310444951057434,-0.5540932416915894
9.168149948120117,-0.5895704627037048,-1.4078354835510254,1.2079423666000366,0.5643930435180664,0.8257037997245789,-0.5552376508712769
9.188238859176636,-0.5891889929771423,-1.406691074371338,1.2083238363265991,0.5678263306617737,0.8287556171417236,-0.5552376508712769
9.20850944519043,-0.5891889929771423,-1.4063096046447754,1.2071794271469116,0.5739299654960632,0.8268482685089111,-0.5529488325119019
9.22861647605896,-0.5895704627037048,-1.4002059698104858,1.2079423666000366,0.570496678352356,0.8237964510917664,-0.5521858334541321
9.24868893623352,-0.5895704627037048,-1.3990615606307983,1.2075608968734741,0.5727855563163757,0.8283741474151611,-0.5548561811447144
9.268738985061646,-0.5891889929771423,-1.3990615606307983,1.2079423666000366,0.5804150700569153,0.840962827205658,-0.5544747114181519
9.288833379745483,-0.5891889929771423,-1.3994430303573608,1.2087053060531616,0.5838482975959778,0.8451590538024902,-0.5533303022384644
9.308908224105835,-0.5891889929771423,-1.4021133184432983,1.2087053060531616,0.578507661819458,0.8421072959899902,-0.5544747114181519
9.328959941864014,-0.5884260535240173,-1.402876377105713,1.2079423666000366,0.577744722366333,0.8398184180259705,-0.5571450591087341
9.349051713943481,-0.5869001150131226,-1.4013503789901733,1.206416368484497,0.576218843460083,0.8306630253791809,-0.5563820600509644
9.369128704071045,-0.5876630544662476,-1.4005874395370483,1.2075608968734741,0.5685893297195435,0.8192187547683716,-0.5533303022384644
9.38919448852539,-0.5884260535240173,-1.4047837257385254,1.2075608968734741,0.5693522691726685,0.8257037997245789,-0.5575265288352966
9.409325122833252,-0.5884260535240173,-1.4070725440979004,1.2075608968734741,0.5846112966537476,0.846684992313385,-0.5567635893821716
9.429345846176147,-0.5891889929771423,-1.406691074371338,1.2102311849594116,0.5907148718833923,0.8504997491836548,-0.5540932416915894
9.449503183364868,-0.5895704627037048,-1.4063096046447754,1.2109941244125366,0.577744722366333,0.8360036611557007,-0.5563820600509644
9.469595909118652,-0.5891889929771423,-1.409742832183838,1.2079423666000366,0.578507661819458,0.8398184180259705,-0.5594338774681091
9.48963451385498,-0.5891889929771423,-1.4101243019104004,1.2075608968734741,0.5823224186897278,0.8455405235290527,-0.5552376508712769
9.509734869003296,-0.5891889929771423,-1.405928134918213,1.2094682455062866,0.5750743746757507,0.8333333134651184,-0.5537117719650269
9.529813528060913,-0.5891889929771423,-1.4105058908462524,1.2090867757797241,0.572022557258606,0.8340963125228882,-0.5579079985618591
9.549867630004883,-0.5872815847396851,-1.4105058908462524,1.2090867757797241,0.5842298269271851,0.8512626886367798,-0.5571450591087341
9.569986581802368,-0.5876630544662476,-1.4120317697525024,1.2121385335922241,0.5838482975959778,0.8421072959899902,-0.5529488325119019
9.590037107467651,-0.5869001150131226,-1.4150835275650024,1.2121385335922241,0.5804150700569153,0.8440146446228027,-0.5586709380149841
9.610100507736206,-0.5861371755599976,-1.4166094064712524,1.2106126546859741,0.5945296287536621,0.8573662638664246,-0.5548561811447144
9.630241394042969,-0.5865186452865601,-1.41317617893219,1.2140458822250366,0.5861371755599976,0.8463035225868225,-0.5506599545478821
9.650284767150879,-0.5872815847396851,-1.4166094064712524,1.2151904106140137,0.5739299654960632,0.840962827205658,-0.5590524077415466
9.67033839225769,-0.5853742361068726,-1.418898344039917,1.2117570638656616,0.5853742361068726,0.8527885675430298,-0.5571450591087341
9.690441608428955,-0.5842298269271851,-1.4127947092056274,1.2083238363265991,0.5888075232505798,0.8463035225868225,-0.5502784848213196
9.71051812171936,-0.5891889929771423,-1.41775381565094,1.2159533500671387,0.571259617805481,0.8413442969322205,-0.5537117719650269
9.730580806732178,-0.5880445837974548,-1.421950101852417,1.2170977592468262,0.5788891315460205,0.8531700372695923,-0.5594338774681091
9.750667572021484,-0.5846112966537476,-1.41622793674469,1.2113755941390991,0.5941481590270996,0.8508812189102173,-0.5540932416915894
9.770741939544678,-0.5891889929771423,-1.4150835275650024,1.2132829427719116,0.5834668278694153,0.837911069393158,-0.5556191205978394
9.790791511535645,-0.5899519324302673,-1.41775381565094,1.2151904106140137,0.5739299654960632,0.84592205286026,-0.5628671646118164
9.810879230499268,-0.5861371755599976,-1.4150835275650024,1.2106126546859741,0.5846112966537476,0.8539330363273621,-0.5594338774681091
9.830961227416992,-0.5884260535240173,-1.4150835275650024,1.2132829427719116,0.578507661819458,0.8451590538024902,-0.5552376508712769
9.851038694381714,-0.5922408103942871,-1.4208056926727295,1.2193865776062012,0.5674448609352112,0.848210871219635,-0.5601968169212341
9.871125221252441,-0.5857557058334351,-1.4166094064712524,1.2087053060531616,0.5842298269271851,0.8558403849601746,-0.5624856948852539
9.891230583190918,-0.5861371755599976,-1.410887360572815,1.206416368484497,0.5853742361068726,0.8428702354431152,-0.5495155453681946
9.911336898803711,-0.5895704627037048,-1.410887360572815,1.2121385335922241,0.5682078003883362,0.8398184180259705,-0.5628671646118164
9.931502342224121,-0.5903334021568298,-1.4135576486587524,1.2121385335922241,0.5735484957695007,0.8493552803993225,-0.5640115737915039
9.951598405838013,-0.5880445837974548,-1.408979892730713,1.2121385335922241,0.580033540725708,0.8531700372695923,-0.5621042251586914
9.971676111221313,-0.5891889929771423,-1.4070725440979004,1.2132829427719116,0.569733738899231,0.8413442969322205,-0.5617227554321289
9.991772890090942,-0.5891889929771423,-1.408979892730713,1.2136644124984741,0.5708781480789185,0.846684992313385,-0.5647745728492737
10.011871814727783,-0.5884260535240173,-1.4055466651916504,1.2102311849594116,0.5811780095100403,0.8501182794570923,-0.5640115737915039
10.03193473815918,-0.5895704627037048,-1.4047837257385254,1.2136644124984741,0.568970799446106,0.8390554785728455,-0.5586709380149841
10.052008390426636,-0.5891889929771423,-1.408979892730713,1.2140458822250366,0.5666819214820862,0.840199887752533,-0.5651560425758362
10.072099924087524,-0.5891889929771423,-1.4093613624572754,1.2109941244125366,0.579270601272583,0.8501182794570923,-0.5640115737915039
10.092190504074097,-0.5895704627037048,-1.408979892730713,1.2117570638656616,0.5773632526397705,0.846684992313385,-0.5621042251586914
10.112295866012573,-0.5895704627037048,-1.41165030002594,1.2121385335922241,0.5685893297195435,0.840962827205658,-0.5655375123023987
10.132394075393677,-0.5891889929771423,-1.41317617893219,1.2094682455062866,0.578507661819458,0.8470664620399475,-0.5666819214820862
10.152458667755127,-0.5891889929771423,-1.4112688302993774,1.2094682455062866,0.5788891315460205,0.8405813574790955,-0.5590524077415466
10.173012018203735,-0.5895704627037048,-1.407454013824463,1.2094682455062866,0.571259617805481,0.8352407217025757,-0.5598153471946716
10.193124294281006,-0.5895704627037048,-1.4127947092056274,1.2094682455062866,0.576218843460083,0.8424887657165527,-0.5598153471946716
10.213223218917847,-0.5891889929771423,-1.4143205881118774,1.2113755941390991,0.5880445837974548,0.8550774455070496,-0.5586709380149841
10.233467817306519,-0.5891889929771423,-1.4105058908462524,1.2125200033187866,0.5884260535240173,0.8585107326507568,-0.5556191205978394
10.253552913665771,-0.5891889929771423,-1.4127947092056274,1.2121385335922241,0.5781261920928955,0.8421072959899902,-0.5567635893821716
10.273621559143066,-0.5891889929771423,-1.41775381565094,1.2117570638656616,0.5807965397834778,0.8478294014930725,-0.5594338774681091
10.293677568435669,-0.5891889929771423,-1.4158464670181274,1.2121385335922241,0.5861371755599976,0.8516441583633423,-0.5571450591087341
10.313797950744629,-0.5895704627037048,-1.418135404586792,1.2121385335922241,0.5735484957695007,0.8276112079620361,-0.5548561811447144
10.333867311477661,-0.5895704627037048,-1.422713041305542,1.2136644124984741,0.571259617805481,0.839436948299408,-0.5624856948852539
10.353952646255493,-0.5880445837974548,-1.421187162399292,1.2125200033187866,0.5853742361068726,0.846684992313385,-0.5590524077415466
10.3741455078125,-0.5907148718833923,-1.4166094064712524,1.2163348197937012,0.5739299654960632,0.8272297382354736,-0.5552376508712769
10.394336462020874,-0.5922408103942871,-1.416990876197815,1.2197680473327637,0.5663004517555237,0.8287556171417236,-0.5636301040649414
10.414343118667603,-0.5876630544662476,-1.4166094064712524,1.2155718803405762,0.5811780095100403,0.841725766658783,-0.5598153471946716
10.434422254562378,-0.5865186452865601,-1.41165030002594,1.2109941244125366,0.5918593406677246,0.838674008846283,-0.5548561811447144
10.454501628875732,-0.5903334021568298,-1.413939118385315,1.2159533500671387,0.5796520709991455,0.8352407217025757,-0.5556191205978394
10.474557638168335,-0.5891889929771423,-1.4158464670181274,1.2174792289733887,0.5754558444023132,0.8398184180259705,-0.5621042251586914
10.495595693588257,-0.5857557058334351,-1.41165030002594,1.2113755941390991,0.5811780095100403,0.8390554785728455,-0.5579079985618591
10.515723943710327,-0.5895704627037048,-1.4127947092056274,1.2136644124984741,0.5708781480789185,0.8272297382354736,-0.5544747114181519
10.535799264907837,-0.5930037498474121,-1.4173723459243774,1.2182421684265137,0.5647745728492737,0.8375295400619507,-0.5617227554321289
10.55587887763977,-0.5865186452865601,-1.41470205783844,1.2106126546859741,0.5857557058334351,0.8440146446228027,-0.5594338774681091
10.576030492782593,-0.5865186452865601,-1.4063096046447754,1.2106126546859741,0.578507661819458,0.8306630253791809,-0.5487525463104248
10.596104621887207,-0.5884260535240173,-1.408979892730713,1.2117570638656616,0.576981782913208,0.8333333134651184,-0.5582894682884216
10.61615514755249,-0.5861371755599976,-1.41165030002594,1.2121385335922241,0.5895704627037048,0.84897381067276,-0.5571450591087341
10.636218547821045,-0.5872815847396851,-1.41165030002594,1.2148088216781616,0.5937666893005371,0.8443961143493652,-0.5533303022384644
10.65629267692566,-0.5861371755599976,-1.408979892730713,1.2140458822250366,0.577744722366333,0.8314259648323059,-0.5579079985618591
10.676370859146118,-0.5861371755599976,-1.409742832183838,1.2117570638656616,0.576981782913208,0.837911069393158,-0.5586709380149841
10.69647741317749,-0.5865186452865601,-1.4120317697525024,1.2129014730453491,0.5788891315460205,0.8470664620399475,-0.5582894682884216
10.716558933258057,-0.5865186452865601,-1.4120317697525024,1.2136644124984741,0.577744722366333,0.8352407217025757,-0.5575265288352966
10.73662781715393,-0.5869001150131226,-1.4127947092056274,1.2125200033187866,0.576981782913208,0.8310444951057434,-0.5575265288352966
10.757367372512817,-0.5876630544662476,-1.4127947092056274,1.2109941244125366,0.5807965397834778,0.8382925391197205,-0.5571450591087341
10.777471780776978,-0.5888075232505798,-1.4112688302993774,1.2125200033187866,0.576981782913208,0.8340963125228882,-0.5556191205978394
10.797545671463013,-0.5876630544662476,-1.4112688302993774,1.2109941244125366,0.5815594792366028,0.8367666006088257,-0.5582894682884216
10.81760048866272,-0.5876630544662476,-1.409742832183838,1.2117570638656616,0.5869001150131226,0.8432517051696777,-0.5548561811447144
10.837691068649292,-0.5876630544662476,-1.4101243019104004,1.2129014730453491,0.580033540725708,0.8413442969322205,-0.5552376508712769
10.85776400566101,-0.5861371755599976,-1.4127947092056274,1.2117570638656616,0.5804150700569153,0.8455405235290527,-0.5582894682884216
10.877825260162354,-0.5849927663803101,-1.4120317697525024,1.2125200033187866,0.5830853581428528,0.846684992313385,-0.5556191205978394
10.897940635681152,-0.5849927663803101,-1.412413239479065,1.2140458822250366,0.5754558444023132,0.8360036611557007,-0.5552376508712769
10.917988538742065,-0.5849927663803101,-1.4120317697525024,1.2121385335922241,0.5781261920928955,0.8371480703353882,-0.5579079985618591
10.938076496124268,-0.5853742361068726,-1.4105058908462524,1.2117570638656616,0.5815594792366028,0.837911069393158,-0.5533303022384644
10.958150625228882,-0.5872815847396851,-1.409742832183838,1.2132829427719116,0.580033540725708,0.8371480703353882,-0.5544747114181519
10.978219985961914,-0.5865186452865601,-1.4101243019104004,1.2098497152328491,0.5876630544662476,0.8436331748962402,-0.5567635893821716
10.99830675125122,-0.5880445837974548,-1.4085984230041504,1.2113755941390991,0.5903334021568298,0.8443961143493652,-0.5502784848213196
11.019104719161987,-0.5884260535240173,-1.409742832183838,1.2129014730453491,0.5834668278694153,0.841725766658783,-0.5533303022384644
11.039196968078613,-0.5857557058334351,-1.412413239479065,1.2079423666000366,0.5895704627037048,0.8455405235290527,-0.5552376508712769
11.059263467788696,-0.5853742361068726,-1.410887360572815,1.2087053060531616,0.5872815847396851,0.841725766658783,-0.5476081371307373
11.079421758651733,-0.5857557058334351,-1.412413239479065,1.2121385335922241,0.5724040865898132,0.8333333134651184,-0.5502784848213196
11.099514245986938,-0.5830853581428528,-1.413939118385315,1.2106126546859741,0.5807965397834778,0.840962827205658,-0.5548561811447144
11.119591474533081,-0.5819409489631653,-1.4105058908462524,1.2109941244125366,0.5861371755599976,0.837911069393158,-0.5491340756416321
11.139734745025635,-0.5865186452865601,-1.4112688302993774,1.2140458822250366,0.578507661819458,0.8333333134651184,-0.5514228940010071
11.159825325012207,-0.5861371755599976,-1.409742832183838,1.2117570638656616,0.5861371755599976,0.8470664620399475,-0.5571450591087341
11.179897546768188,-0.5834668278694153,-1.4055466651916504,1.2060348987579346,0.5991073250770569,0.8440146446228027,-0.5552376508712769
11.199959754943848,-0.5899519324302673,-1.406691074371338,1.2144273519515991,0.5838482975959778,0.8382925391197205,-0.5537117719650269
11.220047235488892,-0.5899519324302673,-1.409742832183838,1.2132829427719116,0.5895704627037048,0.8405813574790955,-0.5590524077415466
11.240120649337769,-0.5891889929771423,-1.4093613624572754,1.2090867757797241,0.5960555672645569,0.8421072959899902,-0.5540932416915894
11.260188579559326,-0.5899519324302673,-1.4101243019104004,1.2094682455062866,0.5907148718833923,0.8333333134651184,-0.5537117719650269
11.28035306930542,-0.5899519324302673,-1.4143205881118774,1.2094682455062866,0.5807965397834778,0.8310444951057434,-0.5544747114181519
11.30046272277832,-0.5884260535240173,-1.415464997291565,1.2087053060531616,0.5891889929771423,0.8398184180259705,-0.5556191205978394
11.320533275604248,-0.5880445837974548,-1.41317617893219,1.2102311849594116,0.5861371755599976,0.8310444951057434,-0.5495155453681946
11.340619325637817,-0.5891889929771423,-1.419661283493042,1.2136644124984741,0.578507661819458,0.8375295400619507,-0.5537117719650269
11.360713958740234,-0.5861371755599976,-1.416990876197815,1.2098497152328491,0.5979629158973694,0.8524070978164673,-0.5548561811447144
11.38084602355957,-0.5857557058334351,-1.4127947092056274,1.2094682455062866,0.5994887948036194,0.8455405235290527,-0.5453193187713623
11.400922060012817,-0.5895704627037048,-1.41317617893219,1.2167162895202637,0.5842298269271851,0.8413442969322205,-0.5502784848213196
11.421016454696655,-0.5895704627037048,-1.4173723459243774,1.2174792289733887,0.5895704627037048,0.8485923409461975,-0.5567635893821716
11.441109895706177,-0.5888075232505798,-1.415464997291565,1.2159533500671387,0.5945296287536621,0.84897381067276,-0.5540932416915894
11.461156845092773,-0.5895704627037048,-1.407454013824463,1.2144273519515991,0.5853742361068726,0.8340963125228882,-0.5525673031806946
11.48124361038208,-0.5899519324302673,-1.405928134918213,1.2129014730453491,0.5788891315460205,0.8299000263214111,-0.5540932416915894
11.501304388046265,-0.5891889929771423,-1.4093613624572754,1.2117570638656616,0.5865186452865601,0.839436948299408,-0.5548561811447144
11.521389245986938,-0.5895704627037048,-1.4127947092056274,1.2132829427719116,0.5941481590270996,0.848210871219635,-0.5525673031806946
11.541452646255493,-0.5891889929771423,-1.4078354835510254,1.2136644124984741,0.5857557058334351,0.8405813574790955,-0.5506599545478821
11.561517000198364,-0.5891889929771423,-1.412413239479065,1.2136644124984741,0.5746929049491882,0.8337147831916809,-0.5563820600509644
11.581567525863647,-0.5888075232505798,-1.4158464670181274,1.2140458822250366,0.5827038884162903,0.8451590538024902,-0.5563820600509644
11.601635932922363,-0.5869001150131226,-1.4105058908462524,1.2136644124984741,0.578507661819458,0.8306630253791809,-0.5502784848213196
11.62174654006958,-0.5895704627037048,-1.413939118385315,1.2155718803405762,0.5682078003883362,0.8192187547683716,-0.5563820600509644
11.64179801940918,-0.5880445837974548,-1.41470205783844,1.2125200033187866,0.5815594792366028,0.8363851308822632,-0.5560005903244019
11.661858081817627,-0.5869001150131226,-1.4101243019104004,1.2102311849594116,0.5842298269271851,0.8264667987823486,-0.5491340756416321
11.681951999664307,-0.5895704627037048,-1.4112688302993774,1.2159533500671387,0.5678263306617737,0.8085374236106873,-0.5552376508712769
11.70202898979187,-0.5891889929771423,-1.4127947092056274,1.2170977592468262,0.5735484957695007,0.8222705721855164,-0.5571450591087341
11.722601413726807,-0.5865186452865601,-1.409742832183838,1.2136644124984741,0.579270601272583,0.8279926776885986,-0.5540932416915894
11.742683172225952,-0.5903334021568298,-1.4120317697525024,1.2167162895202637,0.5708781480789185,0.8188372850418091,-0.5544747114181519
11.762754440307617,-0.5922408103942871,-1.419661283493042,1.2205309867858887,0.5708781480789185,0.8356221914291382,-0.5609598159790039
11.782803773880005,-0.5884260535240173,-1.4223315715789795,1.2178606986999512,0.5842298269271851,0.8424887657165527,-0.5586709380149841
11.802894830703735,-0.5884260535240173,-1.41622793674469,1.2151904106140137,0.5811780095100403,0.8249408602714539,-0.5506599545478821
11.822975397109985,-0.5918593406677246,-1.418135404586792,1.2182421684265137,0.5598153471946716,0.8184558153152466,-0.5575265288352966
11.843042850494385,-0.5926222801208496,-1.4208056926727295,1.2167162895202637,0.568970799446106,0.8302815556526184,-0.5601968169212341
11.863137006759644,-0.5903334021568298,-1.412413239479065,1.2144273519515991,0.5758373141288757,0.8173113465309143,-0.5525673031806946
11.883307456970215,-0.5937666893005371,-1.412413239479065,1.2190051078796387,0.5598153471946716,0.8112077713012695,-0.5590524077415466
11.903341054916382,-0.5941481590270996,-1.41317617893219,1.2216753959655762,0.571259617805481,0.8257037997245789,-0.5571450591087341
11.923464059829712,-0.5910963416099548,-1.406691074371338,1.2167162895202637,0.5827038884162903,0.8321889042854309,-0.5560005903244019
11.943488359451294,-0.5907148718833923,-1.4040207862854004,1.2174792289733887,0.5758373141288757,0.8203631639480591,-0.5540932416915894
11.963540315628052,-0.5922408103942871,-1.4085984230041504,1.2205309867858887,0.572022557258606,0.8268482685089111,-0.5590524077415466
11.983627319335938,-0.5876630544662476,-1.408979892730713,1.2117570638656616,0.5838482975959778,0.8371480703353882,-0.5582894682884216
12.003727912902832,-0.5857557058334351,-1.406691074371338,1.2075608968734741,0.5834668278694153,0.8295185565948486,-0.5495155453681946
12.023890018463135,-0.5853742361068726,-1.4070725440979004,1.2087053060531616,0.5682078003883362,0.8188372850418091,-0.5560005903244019
12.043928146362305,-0.5846112966537476,-1.415464997291565,1.2079423666000366,0.569733738899231,0.8253223299980164,-0.5560005903244019
12.063976764678955,-0.5838482975959778,-1.419661283493042,1.2090867757797241,0.5811780095100403,0.8340963125228882,-0.5537117719650269
12.08402681350708,-0.5842298269271851,-1.4166094064712524,1.2098497152328491,0.5804150700569153,0.8283741474151611,-0.5498970150947571
12.104127645492554,-0.5861371755599976,-1.419661283493042,1.2102311849594116,0.5766003131866455,0.8215075731277466,-0.5498970150947571
12.124244451522827,-0.5884260535240173,-1.422713041305542,1.2113755941390991,0.5861371755599976,0.8371480703353882,-0.5525673031806946
12.14426040649414,-0.5895704627037048,-1.420424222946167,1.2129014730453491,0.5956740379333496,0.84592205286026,-0.5502784848213196
12.164438486099243,-0.5891889929771423,-1.415464997291565,1.2102311849594116,0.5891889929771423,0.8283741474151611,-0.5495155453681946
12.18446159362793,-0.5884260535240173,-1.412413239479065,1.206416368484497,0.5869001150131226,0.8279926776885986,-0.5514228940010071
12.204571008682251,-0.5876630544662476,-1.4120317697525024,1.2037460803985596,0.5910963416099548,0.8314259648323059,-0.5483710765838623
12.224651098251343,-0.5857557058334351,-1.4101243019104004,1.198405385017395,0.5926222801208496,0.8302815556526184,-0.5472266674041748
12.244755744934082,-0.5827038884162903,-1.4085984230041504,1.1926833391189575,0.5941481590270996,0.8333333134651184,-0.5468451976776123
12.264786958694458,-0.579270601272583,-1.4078354835510254,1.1854352951049805,0.5949110984802246,0.8329518437385559,-0.5453193187713623
12.284863471984863,-0.576981782913208,-1.4070725440979004,1.177042841911316,0.5945296287536621,0.8306630253791809,-0.5430304408073425
12.304936647415161,-0.5743114352226257,-1.4063096046447754,1.1690318584442139,0.5956740379333496,0.8283741474151611,-0.5403600931167603
12.32499098777771,-0.5731670260429382,-1.4055466651916504,1.1625467538833618,0.5960555672645569,0.8268482685089111,-0.5365453362464905
12.345064163208008,-0.571259617805481,-1.4040207862854004,1.1533913612365723,0.5945296287536621,0.8234149813652039,-0.5323491096496582
12.365155458450317,-0.569733738899231,-1.4009689092636108,1.1442358493804932,0.5956740379333496,0.8207446336746216,-0.5296788215637207
12.385226488113403,-0.568970799446106,-1.3994430303573608,1.1377508640289307,0.5983443856239319,0.8184558153152466,-0.5258640646934509
12.405344486236572,-0.5670633912086487,-1.3967727422714233,1.1293584108352661,0.5991073250770569,0.8161669373512268,-0.5220493078231812
12.425430059432983,-0.5659189820289612,-1.3933393955230713,1.120202898979187,0.6021591424942017,0.8154039978981018,-0.5178530812263489
12.445504426956177,-0.5655375123023987,-1.3906691074371338,1.1144808530807495,0.6044480204582214,0.8134965896606445,-0.5144197940826416
12.46583366394043,-0.5643930435180664,-1.3883802890777588,1.1079957485198975,0.6059738993644714,0.8119707107543945,-0.5102235674858093
12.485954284667969,-0.5617227554321289,-1.3860913515090942,1.101129174232483,0.6097886562347412,0.810826301574707,-0.506027340888977
12.506016492843628,-0.5594338774681091,-1.3841840028762817,1.0961699485778809,0.612077534198761,0.810826301574707,-0.5018310546875
12.526070833206177,-0.5552376508712769,-1.3818951845169067,1.0900664329528809,0.613603413105011,0.8100633025169373,-0.4991607666015625
12.546163320541382,-0.5525673031806946,-1.3792248964309692,1.0839627981185913,0.6170367002487183,0.8077744841575623,-0.49496451020240784
12.566237688064575,-0.5510414242744446,-1.3765544891357422,1.0782406330108643,0.6197070479393005,0.8070115447044373,-0.49114975333213806
12.586389541625977,-0.5487525463104248,-1.3746471405029297,1.0744259357452393,0.6212329268455505,0.80510413646698,-0.4854276478290558
12.606475830078125,-0.5453193187713623,-1.3715953826904297,1.0690852403640747,0.6250476837158203,0.802815318107605,-0.4827573001384735
12.626552820205688,-0.5430304408073425,-1.3693064451217651,1.0656518936157227,0.6280995011329651,0.8031967878341675,-0.47741663455963135
12.646607398986816,-0.54112309217453,-1.3673990964889526,1.0618371963500977,0.6322957277297974,0.8016708493232727,-0.47474631667137146
12.666816234588623,-0.5395971536636353,-1.3639658689498901,1.0568779706954956,0.6364919543266296,0.7993820309638977,-0.4716945290565491
12.68681788444519,-0.5376898050308228,-1.361295461654663,1.052681803703308,0.6410696506500244,0.7990005612373352,-0.4659723937511444
12.706897258758545,-0.536926805973053,-1.3586251735687256,1.048485517501831,0.6464102864265442,0.7959487438201904,-0.46063172817230225
12.727080583572388,-0.535400927066803,-1.3563363552093506,1.0442893505096436,0.648699164390564,0.7917525172233582,-0.4552910625934601
12.74718165397644,-0.5331120491027832,-1.352521538734436,1.038185715675354,0.6528953909873962,0.7890821695327759,-0.4514763057231903
12.767242193222046,-0.5312047004699707,-1.350232720375061,1.0336079597473145,0.6555657386779785,0.7887006998062134,-0.44575417041778564
12.787601470947266,-0.5285343527793884,-1.347562313079834,1.029411792755127,0.6589990258216858,0.7871748208999634,-0.4404135048389435
12.807695627212524,-0.5262455344200134,-1.344510555267334,1.02521550655365,0.6628137826919556,0.7860303521156311,-0.4327840209007263
12.827770948410034,-0.5247195959091187,-1.342221736907959,1.021400809288025,0.6681544184684753,0.7829785346984863,-0.42744335532188416
12.847839593887329,-0.5228122472763062,-1.3391698598861694,1.0183489322662354,0.6704432964324951,0.7814526557922363,-0.4217212200164795
12.867935419082642,-0.5209048390388489,-1.336499571800232,1.0145342350006104,0.6754024624824524,0.7806897163391113,-0.41599908471107483
12.888092994689941,-0.5186160206794739,-1.3330663442611694,1.0107194185256958,0.6807430982589722,0.7810711860656738,-0.41103988885879517
12.908117532730103,-0.5163271427154541,-1.3307774066925049,1.0080491304397583,0.6864652633666992,0.7814526557922363,-0.4053177833557129
12.928203582763672,-0.5151827335357666,-1.3281071186065674,1.0042344331741333,0.6921873688697815,0.7799267768859863,-0.4003585875034332
12.948280334472656,-0.5144197940826416,-1.3258183002471924,1.0015640258789062,0.6967650651931763,0.777256429195404,-0.39463645219802856
12.968373537063599,-0.5132753252983093,-1.3239108324050903,0.9988937377929688,0.7017242908477783,0.7745860815048218,-0.3881513774394989
12.988508462905884,-0.5117494463920593,-1.3204776048660278,0.9954604506492615,0.7070649266242981,0.7719157934188843,-0.37937742471694946
13.008535385131836,-0.5113679766654968,-1.3170443773269653,0.9912642240524292,0.7143129706382751,0.7688639760017395,-0.3717479109764099
13.028681993484497,-0.5109865069389343,-1.3139925003051758,0.9882124066352844,0.7204165458679199,0.7681010365486145,-0.36411839723587036
13.048969030380249,-0.5102235674858093,-1.3105592727661133,0.9836347103118896,0.7272831201553345,0.7665750980377197,-0.3561074137687683
13.069093942642212,-0.5098420977592468,-1.3071259260177612,0.9794384837150574,0.734149694442749,0.7646677494049072,-0.34771496057510376
13.089133501052856,-0.5094605684280396,-1.3044556379318237,0.9756237268447876,0.7421606779098511,0.7623788714408875,-0.3397039771080017
13.109429121017456,-0.509079098701477,-1.3010224103927612,0.9718089699745178,0.7513160705566406,0.7593270540237427,-0.32978561520576477
13.12951135635376,-0.5079346895217896,-1.2964446544647217,0.9664682745933533,0.7589455842971802,0.7570382356643677,-0.31910428404808044
13.149583101272583,-0.507553219795227,-1.2937743663787842,0.9634165167808533,0.7681010365486145,0.7562752962112427,-0.3099488914012909
13.169682502746582,-0.506027340888977,-1.2907224893569946,0.959983229637146,0.7784008383750916,0.7547493577003479,-0.29964902997016907
13.18975305557251,-0.5056458115577698,-1.2865263223648071,0.9569314122200012,0.7860303521156311,0.7509346008300781,-0.28744181990623474
13.209828853607178,-0.5045014023780823,-1.2842373847961426,0.954261064529419,0.7936598658561707,0.7497901916503906,-0.2790493667125702
13.229955434799194,-0.5029755234718323,-1.28233003616333,0.951209306716919,0.8016708493232727,0.7486457824707031,-0.26798656582832336
13.250009298324585,-0.5022125840187073,-1.2781338691711426,0.9485389590263367,0.8119707107543945,0.7444495558738708,-0.2573052644729614
13.270050525665283,-0.5018310546875,-1.275844931602478,0.9454871416091919,0.8165484070777893,0.7383459210395813,-0.2470054179430008
13.290433883666992,-0.501068115234375,-1.2739375829696655,0.9420538544654846,0.8234149813652039,0.7398717999458313,-0.23785001039505005
13.310574054718018,-0.4999237060546875,-1.271267294883728,0.9390020370483398,0.8314259648323059,0.7352941036224365,-0.2294575423002243
13.330615997314453,-0.4999237060546875,-1.268596887588501,0.9367132186889648,0.8363851308822632,0.7307164072990417,-0.22030213475227356
13.35092306137085,-0.4987792670726776,-1.2666895389556885,0.9332799315452576,0.8428702354431152,0.7291905283927917,-0.2130540907382965
13.371036767959595,-0.4980163276195526,-1.2628748416900635,0.9309910535812378,0.84897381067276,0.724612832069397,-0.20656901597976685
13.391083240509033,-0.4976348578929901,-1.2621119022369385,0.9279392957687378,0.8527885675430298,0.7211795449256897,-0.20160982012748718
13.411151647567749,-0.4961089491844177,-1.2609673738479614,0.924887478351593,0.8615625500679016,0.725375771522522,-0.1974135935306549
13.431239366531372,-0.49496451020240784,-1.2563897371292114,0.9229800701141357,0.8649957776069641,0.7204165458679199,-0.18863965570926666
13.45138669013977,-0.49496451020240784,-1.255245327949524,0.9218356609344482,0.8642328381538391,0.7085908055305481,-0.18673227727413177
13.471404790878296,-0.49420157074928284,-1.2541009187698364,0.9180209040641785,0.8699550032615662,0.7093538045883179,-0.1844434291124344
13.491487979888916,-0.49420157074928284,-1.2514305114746094,0.9149690866470337,0.8787289261817932,0.7143129706382751,-0.17948424816131592
13.511615514755249,-0.49458304047584534,-1.2518119812011719,0.9157320261001587,0.8779659867286682,0.7063019871711731,-0.17414358258247375
13.531796932220459,-0.49267566204071045,-1.2514305114746094,0.9126802682876587,0.8859769701957703,0.7078278660774231,-0.17185473442077637
13.551888704299927,-0.49267566204071045,-1.2453268766403198,0.9103913903236389,0.8894102573394775,0.7017242908477783,-0.16422522068023682
13.571962118148804,-0.49420157074928284,-1.2453268766403198,0.9100099205970764,0.884069561958313,0.6883726119995117,-0.1646067053079605
13.592068433761597,-0.49343863129615784,-1.2506675720214844,0.9061951637268066,0.8916990756988525,0.7013428211212158,-0.16346226632595062
13.612178564071655,-0.49114975333213806,-1.2464714050292969,0.9050507545471191,0.8993285894393921,0.7101167440414429,-0.15964750945568085
13.63227105140686,-0.49114975333213806,-1.2464714050292969,0.9042877554893494,0.8962767720222473,0.6929503083229065,-0.15621423721313477
13.652361392974854,-0.49000534415245056,-1.2426565885543823,0.9023804068565369,0.8978027105331421,0.6994354128837585,-0.15583276748657227
13.672437191009521,-0.4877164959907532,-1.2392233610153198,0.8985656499862671,0.9016174674034119,0.6883726119995117,-0.1501106321811676
13.692452430725098,-0.49153125286102295,-1.2373158931732178,0.8981841802597046,0.8981841802597046,0.6963835954666138,-0.14858472347259521
13.712648868560791,-0.49191272258758545,-1.2396048307418823,0.8989471197128296,0.9035248160362244,0.7051575779914856,-0.1489662081003189
13.732738018035889,-0.49038681387901306,-1.2361714839935303,0.8985656499862671,0.9088655114173889,0.7108796834945679,-0.14667734503746033
13.752923250198364,-0.49076828360557556,-1.2354085445404053,0.8978027105331421,0.9081025123596191,0.6948577165603638,-0.14438849687576294
13.77295470237732,-0.49076828360557556,-1.2361714839935303,0.8958953022956848,0.9084840416908264,0.699053943157196,-0.14515145123004913
13.79306411743164,-0.4892423748970032,-1.2315938472747803,0.8951323628425598,0.9126802682876587,0.6971465349197388,-0.14400701224803925
13.813124656677246,-0.4892423748970032,-1.2323567867279053,0.8939879536628723,0.9084840416908264,0.6830319762229919,-0.14209964871406555
13.833245754241943,-0.48962387442588806,-1.2338826656341553,0.892080545425415,0.9103913903236389,0.6944762468338013,-0.14209964871406555
13.853310823440552,-0.4869535267353058,-1.2346456050872803,0.892080545425415,0.9130617380142212,0.693331778049469,-0.14019227027893066
13.873374462127686,-0.4873350262641907,-1.2342641353607178,0.8928435444831848,0.9130617380142212,0.6837949156761169,-0.13904783129692078
13.893486499786377,-0.4873350262641907,-1.2342641353607178,0.8909361362457275,0.9142061471939087,0.6849393248558044,-0.13752193748950958
13.913566589355469,-0.4877164959907532,-1.2335011959075928,0.8901731967926025,0.916113555431366,0.6841763854026794,-0.1367589831352234
13.933797121047974,-0.4877164959907532,-1.2335011959075928,0.88979172706604,0.917639434337616,0.6849393248558044,-0.13752193748950958
13.95399785041809,-0.4877164959907532,-1.2346456050872803,0.8894102573394775,0.9203097820281982,0.6857023239135742,-0.1367589831352234
13.97401762008667,-0.4877164959907532,-1.2342641353607178,0.8886472582817078,0.9203097820281982,0.6841763854026794,-0.1367589831352234
13.994136571884155,-0.4873350262641907,-1.2346456050872803,0.8878843188285828,0.9203097820281982,0.6818875670433044,-0.1363775134086609
14.014232635498047,-0.4873350262641907,-1.2346456050872803,0.8875028491020203,0.9203097820281982,0.6815060377120972,-0.1359960287809372
14.034331321716309,-0.4873350262641907,-1.2342641353607178,0.8867399096488953,0.9206912517547607,0.6811245679855347,-0.1359960287809372
14.054657697677612,-0.4865720570087433,-1.2342641353607178,0.8867399096488953,0.9210727214813232,0.6826505064964294,-0.1359960287809372
14.074755668640137,-0.4861905872821808,-1.2342641353607178,0.8867399096488953,0.9233615398406982,0.6826505064964294,-0.1356145590543747
14.09497857093811,-0.4854276478290558,-1.2346456050872803,0.8867399096488953,0.9233615398406982,0.6822690367698669,-0.1348516047000885
14.11517882347107,-0.4854276478290558,-1.2346456050872803,0.8867399096488953,0.9233615398406982,0.6811245679855347,-0.1340886503458023
14.135320901870728,-0.4850461483001709,-1.2346456050872803,0.8867399096488953,0.9233615398406982,0.6799801588058472,-0.1337071806192398
14.155391216278076,-0.4846646785736084,-1.2350270748138428,0.8867399096488953,0.9233615398406982,0.6792172193527222,-0.1337071806192398
14.175450086593628,-0.4846646785736084,-1.2354085445404053,0.8867399096488953,0.9233615398406982,0.6792172193527222,-0.1333257108926773
14.19554352760315,-0.4842832088470459,-1.2350270748138428,0.8867399096488953,0.9233615398406982,0.6792172193527222,-0.1333257108926773
14.215612173080444,-0.4842832088470459,-1.2350270748138428,0.8867399096488953,0.9233615398406982,0.6776912808418274,-0.1333257108926773
14.23568320274353,-0.4842832088470459,-1.2350270748138428,0.8867399096488953,0.9233615398406982,0.6761654019355774,-0.1333257108926773
14.25579285621643,-0.4842832088470459,-1.2350270748138428,0.8863584399223328,0.9233615398406982,0.6761654019355774,-0.1333257108926773
14.275863647460938,-0.4842832088470459,-1.2350270748138428,0.8852140307426453,0.924124538898468,0.6761654019355774,-0.1333257108926773
14.29590916633606,-0.4842832088470459,-1.2350270748138428,0.8852140307426453,0.9233615398406982,0.6746395230293274,-0.1325627565383911
14.315998315811157,-0.4842832088470459,-1.2346456050872803,0.8852140307426453,0.9237430095672607,0.6734950542449951,-0.13179980218410492
14.336074590682983,-0.4839017391204834,-1.2342641353607178,0.8852140307426453,0.9237430095672607,0.6734950542449951,-0.12989242374897003
14.356119871139526,-0.4839017391204834,-1.2342641353607178,0.8852140307426453,0.9237430095672607,0.6734950542449951,-0.12951095402240753
14.376203060150146,-0.4835202693939209,-1.2342641353607178,0.8852140307426453,0.924124538898468,0.6738765835762024,-0.12951095402240753
14.396370887756348,-0.4835202693939209,-1.2342641353607178,0.8852140307426453,0.924124538898468,0.6738765835762024,-0.12951095402240753
14.41643762588501,-0.4835202693939209,-1.2346456050872803,0.8852140307426453,0.924124538898468,0.6734950542449951,-0.12951095402240753
14.436517715454102,-0.4835202693939209,-1.2346456050872803,0.8852140307426453,0.924124538898468,0.6723506450653076,-0.12912946939468384
14.456592321395874,-0.483138769865036,-1.2346456050872803,0.8852140307426453,0.9245060086250305,0.6723506450653076,-0.12912946939468384
14.476639747619629,-0.483138769865036,-1.2342641353607178,0.8852140307426453,0.924887478351593,0.6723506450653076,-0.12912946939468384
14.49671196937561,-0.483138769865036,-1.2342641353607178,0.8852140307426453,0.924887478351593,0.6727321147918701,-0.12874799966812134
14.516803503036499,-0.483138769865036,-1.2342641353607178,0.8852140307426453,0.9252689480781555,0.6723506450653076,-0.12874799966812134
14.536872625350952,-0.4827573001384735,-1.2342641353607178,0.8852140307426453,0.925650417804718,0.6723506450653076,-0.12836651504039764
14.557025909423828,-0.482375830411911,-1.2342641353607178,0.8852140307426453,0.9260318875312805,0.6719691753387451,-0.12798504531383514
14.577116250991821,-0.482375830411911,-1.2342641353607178,0.8855955004692078,0.926413357257843,0.6719691753387451,-0.12722209095954895
14.597222566604614,-0.482375830411911,-1.2342641353607178,0.8855955004692078,0.9260318875312805,0.6719691753387451,-0.12684062123298645
14.61725401878357,-0.482375830411911,-1.2342641353607178,0.8855955004692078,0.926413357257843,0.6719691753387451,-0.12684062123298645
14.637336492538452,-0.482375830411911,-1.2346456050872803,0.8855955004692078,0.926413357257843,0.6715877056121826,-0.12684062123298645
14.657417297363281,-0.482375830411911,-1.2342641353607178,0.8855955004692078,0.9267948269844055,0.6712062358856201,-0.12684062123298645
14.677479982376099,-0.482375830411911,-1.2342641353607178,0.8855955004692078,0.927176296710968,0.6712062358856201,-0.12684062123298645
14.697712421417236,-0.482375830411911,-1.2342641353607178,0.8855955004692078,0.927176296710968,0.6708247661590576,-0.12684062123298645
14.717805624008179,-0.482375830411911,-1.2342641353607178,0.8855955004692078,0.927176296710968,0.6708247661590576,-0.12684062123298645
14.73787784576416,-0.482375830411911,-1.2342641353607178,0.8855955004692078,0.927176296710968,0.6708247661590576,-0.12684062123298645
14.757959842681885,-0.482375830411911,-1.2346456050872803,0.8855955004692078,0.927176296710968,0.6708247661590576,-0.12684062123298645
