liuyurong129/humanoid-gym/humanoid/data/actual_q_20250522-231241.csv
timestamp,joint_1,joint_2,joint_3,joint_4,joint_5,joint_6
5.626678466796875e-05,0.000572213320992887,0.16422522068023682,-0.08258945494890213,-0.00019073777366429567,0.00019073777366429567,0.00019073777366429567
0.02020573616027832,0.000572213320992887,0.14209964871406555,-0.07343403995037079,-0.00019073777366429567,0.00019073777366429567,0.00019073777366429567
0.04026985168457031,-0.00019073777366429567,0.12073700875043869,-0.06389715522527695,-0.00019073777366429567,0.002861066721379757,0.00019073777366429567
0.060326337814331055,0.00019073777366429567,0.10700388997793198,-0.057793546468019485,-0.00019073777366429567,0.0013351644156500697,0.00019073777366429567
0.08040547370910645,0.00019073777366429567,0.09708552807569504,-0.05130846053361893,-0.00019073777366429567,0.00019073777366429567,0.00019073777366429567
0.10050654411315918,-0.00019073777366429567,0.0871671661734581,-0.04558632895350456,-0.00019073777366429567,0.00019073777366429567,0.00019073777366429567
0.12058639526367188,-0.00019073777366429567,0.08449683338403702,-0.04291599988937378,-0.00019073777366429567,0.000572213320992887,0.00019073777366429567
0.14069890975952148,-0.00019073777366429567,0.08525978773832321,-0.042153049260377884,-0.00019073777366429567,-0.00019073777366429567,0.000572213320992887
0.1607367992401123,-0.00019073777366429567,0.08335240930318832,-0.04291599988937378,-0.00019073777366429567,0.00019073777366429567,0.000572213320992887
0.18082714080810547,-0.00019073777366429567,0.08182650804519653,-0.04291599988937378,-0.00019073777366429567,0.00019073777366429567,0.000572213320992887
0.200897216796875,-0.00019073777366429567,0.07953765243291855,-0.04291599988937378,-0.00019073777366429567,0.0009536888683214784,0.000572213320992887
0.22098731994628906,-0.00019073777366429567,0.07991912961006165,-0.04253452271223068,-0.00019073777366429567,0.000572213320992887,0.000572213320992887
0.24106884002685547,-0.00019073777366429567,0.07877469807863235,-0.04177157208323479,0.00019073777366429567,0.00019073777366429567,0.000572213320992887
0.2612771987915039,-0.00019073777366429567,0.07839322835206985,-0.04100862145423889,0.00019073777366429567,0.000572213320992887,0.0009536888683214784
0.28128671646118164,-0.00019073777366429567,0.07801175117492676,-0.04100862145423889,0.00019073777366429567,0.00019073777366429567,0.0009536888683214784
0.3013453483581543,-0.00019073777366429567,0.07724879682064056,-0.04100862145423889,0.00019073777366429567,0.00019073777366429567,0.0013351644156500697
0.32143187522888184,-0.000572213320992887,0.07648584991693497,-0.04100862145423889,0.000572213320992887,0.00019073777366429567,0.001716639962978661
0.34149789810180664,-0.000572213320992887,0.07610437273979187,-0.04100862145423889,0.000572213320992887,0.00019073777366429567,0.0024795911740511656
0.3615903854370117,-0.000572213320992887,0.07572289556264877,-0.040627144277095795,0.0009536888683214784,0.00019073777366429567,0.0032425422687083483
0.3816812038421631,-0.0009536888683214784,0.07495994865894318,-0.040245670825242996,0.0009536888683214784,0.000572213320992887,0.0032425422687083483
0.40178394317626953,-0.0009536888683214784,0.07419699430465698,-0.040245670825242996,0.0013351644156500697,0.00019073777366429567,0.0032425422687083483
0.42184925079345703,-0.0013351644156500697,0.07343403995037079,-0.0398641936480999,0.001716639962978661,0.000572213320992887,0.0032425422687083483
0.44193315505981445,-0.0020981156267225742,0.07305257022380829,-0.0394827201962471,0.001716639962978661,0.000572213320992887,0.0032425422687083483
0.4620215892791748,-0.0024795911740511656,0.0722896158695221,-0.039101243019104004,0.0024795911740511656,0.00019073777366429567,0.0036240178160369396
0.4820733070373535,-0.0024795911740511656,0.0711451917886734,-0.039101243019104004,0.002861066721379757,0.00019073777366429567,0.0036240178160369396
0.502190351486206,-0.0024795911740511656,0.0711451917886734,-0.039101243019104004,0.0036240178160369396,0.00019073777366429567,0.004005493130534887
0.5222606658935547,-0.002861066721379757,0.07000076025724411,-0.038719769567251205,0.0036240178160369396,0.00019073777366429567,0.004005493130534887
0.542332649230957,-0.002861066721379757,0.06961929053068161,-0.038719769567251205,0.004005493130534887,0.00019073777366429567,0.004005493130534887
0.5624089241027832,-0.0032425422687083483,0.06923781335353851,-0.038719769567251205,0.004005493130534887,0.00019073777366429567,0.004386968910694122
0.5825412273406982,-0.004005493130534887,0.06809338182210922,-0.03833829239010811,0.004005493130534887,0.00019073777366429567,0.004386968910694122
0.6026134490966797,-0.004386968910694122,0.06733043491840363,-0.03757534176111221,0.004386968910694122,0.00019073777366429567,0.00476844422519207
0.6226553916931152,-0.00476844422519207,0.06580453366041183,-0.03757534176111221,0.00476844422519207,-0.00019073777366429567,0.005149920005351305
0.6427700519561768,-0.004386968910694122,0.06580453366041183,-0.037193864583969116,0.00476844422519207,-0.00019073777366429567,0.005149920005351305
0.6628341674804688,-0.00476844422519207,0.06389715522527695,-0.03681239113211632,0.005149920005351305,-0.00019073777366429567,0.005531395319849253
0.6829202175140381,-0.00476844422519207,0.06389715522527695,-0.03681239113211632,0.005531395319849253,-0.00019073777366429567,0.007057297509163618
0.7030270099639893,-0.005149920005351305,0.06313420087099075,-0.03681239113211632,0.00667582219466567,-0.00019073777366429567,0.007438773289322853
0.7231059074401855,-0.005531395319849253,0.06160829961299896,-0.03681239113211632,0.007057297509163618,0.00019073777366429567,0.007438773289322853
0.7431907653808594,-0.005531395319849253,0.06084534898400307,-0.03643091395497322,0.007438773289322853,-0.00019073777366429567,0.0078202486038208
0.7632536888122559,-0.005912871100008488,0.05970092490315437,-0.035667963325977325,0.007438773289322853,-0.00019073777366429567,0.0078202486038208
0.7833805084228516,-0.00667582219466567,0.05893797054886818,-0.035667963325977325,0.0078202486038208,-0.00019073777366429567,0.008201723918318748
0.8034498691558838,-0.007438773289322853,0.057793546468019485,-0.03528648987412453,0.0078202486038208,-0.00019073777366429567,0.008201723918318748
0.8235366344451904,-0.007438773289322853,0.057793546468019485,-0.03528648987412453,0.008201723918318748,-0.00019073777366429567,0.008964675478637218
0.8436064720153809,-0.007438773289322853,0.05703059583902359,-0.03490501269698143,0.008201723918318748,-0.00019073777366429567,0.010109102353453636
0.86368727684021,-0.007438773289322853,0.056267641484737396,-0.03452353551983833,0.00858320016413927,-0.00019073777366429567,0.010490577667951584
0.8837540149688721,-0.007438773289322853,0.0558861680328846,-0.03452353551983833,0.008964675478637218,-0.000572213320992887,0.010872052982449532
0.9038102626800537,-0.0078202486038208,0.0551232174038887,-0.034142062067985535,0.008964675478637218,-0.000572213320992887,0.010872052982449532
0.9239139556884766,-0.0078202486038208,0.05436026677489281,-0.03376058489084244,0.009727626107633114,-0.000572213320992887,0.010872052982449532
0.9440102577209473,-0.0078202486038208,0.05359731614589691,-0.03337911143898964,0.010109102353453636,-0.000572213320992887,0.01125352829694748
0.9640815258026123,-0.0078202486038208,0.05359731614589691,-0.03337911143898964,0.010490577667951584,-0.000572213320992887,0.01125352829694748
0.9842076301574707,-0.008201723918318748,0.051689937710762024,-0.03299763426184654,0.010872052982449532,-0.000572213320992887,0.01125352829694748
1.0043342113494873,-0.00858320016413927,0.05130846053361893,-0.03299763426184654,0.01125352829694748,-0.000572213320992887,0.01125352829694748
1.0243937969207764,-0.008964675478637218,0.05054550990462303,-0.03299763426184654,0.011635004542768002,-0.0009536888683214784,0.011635004542768002
1.0444393157958984,-0.009727626107633114,0.04940108209848404,-0.032616160809993744,0.011635004542768002,-0.0009536888683214784,0.011635004542768002
1.0645208358764648,-0.009727626107633114,0.048638131469488144,-0.03223468363285065,0.01201647985726595,-0.0009536888683214784,0.01201647985726595
1.084601640701294,-0.010109102353453636,0.04711223021149635,-0.03185320645570755,0.01201647985726595,-0.0009536888683214784,0.01201647985726595
1.1046843528747559,-0.010109102353453636,0.04711223021149635,-0.03185320645570755,0.012397955171763897,-0.0013351644156500697,0.012397955171763897
1.124762773513794,-0.010490577667951584,0.04634927958250046,-0.03147173300385475,0.012779430486261845,-0.0013351644156500697,0.012397955171763897
1.1448450088500977,-0.010872052982449532,0.04596780240535736,-0.03147173300385475,0.013923857361078262,-0.0013351644156500697,0.012779430486261845
1.164945363998413,-0.01125352829694748,0.04444190114736557,-0.030708782374858856,0.014686808921396732,-0.0013351644156500697,0.013160906732082367
1.185088872909546,-0.01201647985726595,0.04291599988937378,-0.030708782374858856,0.01506828423589468,-0.0013351644156500697,0.013923857361078262
1.2051949501037598,-0.01201647985726595,0.042153049260377884,-0.030708782374858856,0.015449759550392628,-0.0020981156267225742,0.01430533267557621
1.2252402305603027,-0.01201647985726595,0.04100862145423889,-0.03032730519771576,0.015449759550392628,-0.0024795911740511656,0.01430533267557621
1.245326280593872,-0.012397955171763897,0.04100862145423889,-0.02994582988321781,0.01583123579621315,-0.002861066721379757,0.014686808921396732
1.2654211521148682,-0.012779430486261845,0.0394827201962471,-0.029182879254221916,0.016212711110711098,-0.0032425422687083483,0.014686808921396732
1.2854852676391602,-0.012779430486261845,0.039101243019104004,-0.02880140393972397,0.016594186425209045,-0.002861066721379757,0.01506828423589468
1.3055615425109863,-0.012779430486261845,0.03833829239010811,-0.02880140393972397,0.016975661739706993,-0.0032425422687083483,0.01506828423589468
1.3256657123565674,-0.013160906732082367,0.03795681521296501,-0.02841992862522602,0.018120087683200836,-0.0036240178160369396,0.01506828423589468
1.3457715511322021,-0.013923857361078262,0.037193864583969116,-0.02841992862522602,0.01888304017484188,-0.0032425422687083483,0.015449759550392628
1.3658239841461182,-0.01430533267557621,0.03643091395497322,-0.028038453310728073,0.01888304017484188,-0.0032425422687083483,0.015449759550392628
1.3859150409698486,-0.014686808921396732,0.03604944050312042,-0.027656977996230125,0.01926451548933983,-0.0036240178160369396,0.01583123579621315
1.4059948921203613,-0.014686808921396732,0.03490501269698143,-0.02689402550458908,0.01926451548933983,-0.0036240178160369396,0.016212711110711098
1.4260742664337158,-0.014686808921396732,0.03490501269698143,-0.02689402550458908,0.01926451548933983,-0.004386968910694122,0.016975661739706993
1.4461703300476074,-0.014686808921396732,0.03337911143898964,-0.026512550190091133,0.019645990803837776,-0.004386968910694122,0.01773861236870289
1.4662284851074219,-0.01506828423589468,0.03299763426184654,-0.026512550190091133,0.020027466118335724,-0.004005493130534887,0.018120087683200836
1.4863061904907227,-0.01506828423589468,0.03223468363285065,-0.026512550190091133,0.02040894143283367,-0.004386968910694122,0.018120087683200836
1.506373405456543,-0.01506828423589468,0.03185320645570755,-0.026131074875593185,0.021171892061829567,-0.004005493130534887,0.018501564860343933
1.5264794826507568,-0.015449759550392628,0.031090257689356804,-0.025749599561095238,0.02193484455347061,-0.004005493130534887,0.018501564860343933
1.5465874671936035,-0.016212711110711098,0.02994582988321781,-0.024986648932099342,0.022697795182466507,-0.004005493130534887,0.018501564860343933
1.5666399002075195,-0.016594186425209045,0.02994582988321781,-0.024986648932099342,0.022697795182466507,-0.004386968910694122,0.01888304017484188
1.5867137908935547,-0.016975661739706993,0.029182879254221916,-0.024605173617601395,0.023079270496964455,-0.00476844422519207,0.01888304017484188
1.6067988872528076,-0.016975661739706993,0.02841992862522602,-0.024223696440458298,0.023079270496964455,-0.005531395319849253,0.01888304017484188
1.6268703937530518,-0.016975661739706993,0.028038453310728073,-0.024223696440458298,0.023460745811462402,-0.005912871100008488,0.01926451548933983
1.6469275951385498,-0.01735713705420494,0.02727550081908703,-0.02384222112596035,0.02384222112596035,-0.00667582219466567,0.01926451548933983
1.6671171188354492,-0.018120087683200836,0.02689402550458908,-0.023460745811462402,0.024223696440458298,-0.006294346414506435,0.019645990803837776
1.6872107982635498,-0.018501564860343933,0.025749599561095238,-0.023079270496964455,0.024605173617601395,-0.006294346414506435,0.019645990803837776
1.7072179317474365,-0.018501564860343933,0.02536812424659729,-0.023079270496964455,0.02536812424659729,-0.00667582219466567,0.020027466118335724
1.7273428440093994,-0.01888304017484188,0.024986648932099342,-0.02231631986796856,0.026131074875593185,-0.00667582219466567,0.02040894143283367
1.7474300861358643,-0.01926451548933983,0.023460745811462402,-0.02231631986796856,0.026131074875593185,-0.007057297509163618,0.02040894143283367
1.7675025463104248,-0.01926451548933983,0.022697795182466507,-0.02231631986796856,0.026512550190091133,-0.007057297509163618,0.02079041674733162
1.7875475883483887,-0.020027466118335724,0.021553369238972664,-0.02193484455347061,0.026512550190091133,-0.00667582219466567,0.021553369238972664
1.8076400756835938,-0.020027466118335724,0.021553369238972664,-0.02193484455347061,0.02689402550458908,-0.007057297509163618,0.02193484455347061
1.827824354171753,-0.02079041674733162,0.020027466118335724,-0.021171892061829567,0.02727550081908703,-0.007057297509163618,0.02193484455347061
1.8478209972381592,-0.021553369238972664,0.01926451548933983,-0.021171892061829567,0.02727550081908703,-0.007057297509163618,0.02231631986796856
1.8678972721099854,-0.02193484455347061,0.018501564860343933,-0.02079041674733162,0.027656977996230125,-0.007057297509163618,0.02231631986796856
1.8880388736724854,-0.02193484455347061,0.01773861236870289,-0.02079041674733162,0.028038453310728073,-0.007438773289322853,0.022697795182466507
1.9080629348754883,-0.02231631986796856,0.016594186425209045,-0.02040894143283367,0.02880140393972397,-0.0078202486038208,0.022697795182466507
1.9281611442565918,-0.02231631986796856,0.015449759550392628,-0.02040894143283367,0.029564354568719864,-0.0078202486038208,0.022697795182466507
1.9482338428497314,-0.02231631986796856,0.015449759550392628,-0.02040894143283367,0.03032730519771576,-0.007438773289322853,0.023460745811462402
1.968310832977295,-0.022697795182466507,0.013923857361078262,-0.019645990803837776,0.03032730519771576,-0.007438773289322853,0.023460745811462402
1.9883942604064941,-0.022697795182466507,0.013160906732082367,-0.01926451548933983,0.030708782374858856,-0.007438773289322853,0.02384222112596035
2.0084755420684814,-0.023079270496964455,0.01201647985726595,-0.01888304017484188,0.031090257689356804,-0.007438773289322853,0.024986648932099342
2.028549909591675,-0.02384222112596035,0.01125352829694748,-0.01888304017484188,0.03147173300385475,-0.007438773289322853,0.026131074875593185
2.048642635345459,-0.024223696440458298,0.010490577667951584,-0.018501564860343933,0.032616160809993744,-0.0078202486038208,0.026512550190091133
2.0687050819396973,-0.024605173617601395,0.009346150793135166,-0.018120087683200836,0.03337911143898964,-0.0078202486038208,0.026512550190091133
2.0888173580169678,-0.024223696440458298,0.008964675478637218,-0.018120087683200836,0.03376058489084244,-0.008201723918318748,0.02689402550458908
2.108882188796997,-0.024986648932099342,0.0078202486038208,-0.01773861236870289,0.03376058489084244,-0.0078202486038208,0.02689402550458908
2.1289656162261963,-0.02536812424659729,0.007438773289322853,-0.01773861236870289,0.03376058489084244,-0.0078202486038208,0.02689402550458908
2.1490674018859863,-0.02536812424659729,0.006294346414506435,-0.016975661739706993,0.034142062067985535,-0.0078202486038208,0.02727550081908703
2.169121503829956,-0.025749599561095238,0.005531395319849253,-0.016975661739706993,0.034142062067985535,-0.0078202486038208,0.02727550081908703
2.189194917678833,-0.026512550190091133,0.00476844422519207,-0.016594186425209045,0.03452353551983833,-0.0078202486038208,0.027656977996230125
2.209242820739746,-0.026512550190091133,0.0036240178160369396,-0.016212711110711098,0.03452353551983833,-0.0078202486038208,0.027656977996230125
2.229360580444336,-0.02689402550458908,0.002861066721379757,-0.016212711110711098,0.03490501269698143,-0.008201723918318748,0.02880140393972397
2.249437093734741,-0.02727550081908703,0.001716639962978661,-0.01583123579621315,0.03528648987412453,-0.008201723918318748,0.029564354568719864
2.2695987224578857,-0.02727550081908703,0.001716639962978661,-0.015449759550392628,0.03643091395497322,-0.0078202486038208,0.029564354568719864
2.2896595001220703,-0.02727550081908703,0.0009536888683214784,-0.014686808921396732,0.037193864583969116,-0.008201723918318748,0.029564354568719864
2.3097362518310547,-0.027656977996230125,0.000572213320992887,-0.014686808921396732,0.03757534176111221,-0.0078202486038208,0.02994582988321781
2.3298449516296387,-0.02841992862522602,-0.000572213320992887,-0.013542382046580315,0.03795681521296501,-0.008201723918318748,0.02994582988321781
2.349992513656616,-0.02880140393972397,-0.001716639962978661,-0.013542382046580315,0.03795681521296501,-0.0078202486038208,0.02994582988321781
2.370166301727295,-0.029182879254221916,-0.0024795911740511656,-0.012779430486261845,0.038719769567251205,-0.008201723918318748,0.03032730519771576
2.390265703201294,-0.029182879254221916,-0.004005493130534887,-0.012397955171763897,0.039101243019104004,-0.008201723918318748,0.03032730519771576
2.4103078842163086,-0.029182879254221916,-0.004386968910694122,-0.01201647985726595,0.0398641936480999,-0.009727626107633114,0.03032730519771576
2.4304122924804688,-0.029182879254221916,-0.005912871100008488,-0.01201647985726595,0.04100862145423889,-0.009727626107633114,0.030708782374858856
2.450474739074707,-0.029182879254221916,-0.005912871100008488,-0.011635004542768002,0.04100862145423889,-0.009727626107633114,0.031090257689356804
2.4705758094787598,-0.029564354568719864,-0.00667582219466567,-0.011635004542768002,0.04139009863138199,-0.009727626107633114,0.031090257689356804
2.4906373023986816,-0.029564354568719864,-0.0078202486038208,-0.011635004542768002,0.04139009863138199,-0.009727626107633114,0.03147173300385475
2.51084566116333,-0.02994582988321781,-0.00858320016413927,-0.010872052982449532,0.04177157208323479,-0.009727626107633114,0.03223468363285065
2.530890703201294,-0.03032730519771576,-0.010109102353453636,-0.010490577667951584,0.042153049260377884,-0.009346150793135166,0.03299763426184654
2.550933361053467,-0.030708782374858856,-0.010872052982449532,-0.010490577667951584,0.04253452271223068,-0.010109102353453636,0.034142062067985535
2.5710246562957764,-0.03147173300385475,-0.012397955171763897,-0.009727626107633114,0.04329747334122658,-0.010109102353453636,0.034142062067985535
2.59116268157959,-0.03147173300385475,-0.013160906732082367,-0.009727626107633114,0.04406042397022247,-0.010872052982449532,0.034142062067985535
2.611196279525757,-0.03223468363285065,-0.013923857361078262,-0.00858320016413927,0.04482337832450867,-0.010872052982449532,0.03452353551983833
2.6312923431396484,-0.03337911143898964,-0.014686808921396732,-0.00858320016413927,0.04482337832450867,-0.010872052982449532,0.03490501269698143
2.6514103412628174,-0.03376058489084244,-0.01583123579621315,-0.0078202486038208,0.045204851776361465,-0.010872052982449532,0.03490501269698143
2.6715803146362305,-0.03376058489084244,-0.01735713705420494,-0.0078202486038208,0.045204851776361465,-0.010872052982449532,0.03528648987412453
2.6916868686676025,-0.03452353551983833,-0.018120087683200836,-0.007438773289322853,0.04558632895350456,-0.010872052982449532,0.03643091395497322
2.711760997772217,-0.03490501269698143,-0.01926451548933983,-0.007438773289322853,0.04596780240535736,-0.01125352829694748,0.037193864583969116
2.7318480014801025,-0.03528648987412453,-0.01926451548933983,-0.007438773289322853,0.04634927958250046,-0.01125352829694748,0.037193864583969116
2.751950263977051,-0.03604944050312042,-0.02040894143283367,-0.00667582219466567,0.04711223021149635,-0.01125352829694748,0.037193864583969116
2.772099018096924,-0.035667963325977325,-0.021171892061829567,-0.006294346414506435,0.04787518084049225,-0.01125352829694748,0.03757534176111221
2.7921228408813477,-0.035667963325977325,-0.021171892061829567,-0.005912871100008488,0.04901960864663124,-0.01201647985726595,0.03757534176111221
2.812242031097412,-0.03604944050312042,-0.022697795182466507,-0.005912871100008488,0.04901960864663124,-0.01201647985726595,0.03757534176111221
2.8323469161987305,-0.03643091395497322,-0.023460745811462402,-0.005531395319849253,0.04901960864663124,-0.012397955171763897,0.03757534176111221
2.8523786067962646,-0.03681239113211632,-0.024605173617601395,-0.005149920005351305,0.04940108209848404,-0.011635004542768002,0.03795681521296501
2.872534990310669,-0.03681239113211632,-0.02536812424659729,-0.00476844422519207,0.049782559275627136,-0.012779430486261845,0.03795681521296501
2.892590284347534,-0.03681239113211632,-0.02689402550458908,-0.004386968910694122,0.050164032727479935,-0.013160906732082367,0.03833829239010811
2.9126458168029785,-0.03681239113211632,-0.02689402550458908,-0.004005493130534887,0.05092698708176613,-0.013542382046580315,0.03833829239010811
2.932725429534912,-0.03681239113211632,-0.027656977996230125,-0.0036240178160369396,0.05207141116261482,-0.01430533267557621,0.038719769567251205
2.9528074264526367,-0.037193864583969116,-0.02880140393972397,-0.0036240178160369396,0.05207141116261482,-0.01430533267557621,0.039101243019104004
2.9729106426239014,-0.03757534176111221,-0.029564354568719864,-0.0032425422687083483,0.05245288833975792,-0.014686808921396732,0.0394827201962471
2.992964029312134,-0.03795681521296501,-0.02994582988321781,-0.002861066721379757,0.05245288833975792,-0.014686808921396732,0.0398641936480999
3.0130701065063477,-0.038719769567251205,-0.030708782374858856,-0.0024795911740511656,0.05283436179161072,-0.014686808921396732,0.040627144277095795
3.0331456661224365,-0.039101243019104004,-0.03185320645570755,-0.0020981156267225742,0.053215838968753815,-0.014686808921396732,0.04100862145423889
3.0533063411712646,-0.038719769567251205,-0.03185320645570755,-0.001716639962978661,0.05359731614589691,-0.01506828423589468,0.04139009863138199
3.0733351707458496,-0.039101243019104004,-0.032616160809993744,-0.0013351644156500697,0.05397878959774971,-0.01506828423589468,0.04139009863138199
3.093417167663574,-0.039101243019104004,-0.03299763426184654,-0.0013351644156500697,0.05436026677489281,-0.014686808921396732,0.04139009863138199
3.1135284900665283,-0.0398641936480999,-0.03376058489084244,-0.00019073777366429567,0.0558861680328846,-0.014686808921396732,0.04177157208323479
3.133599281311035,-0.0398641936480999,-0.03528648987412453,-0.00019073777366429567,0.0558861680328846,-0.014686808921396732,0.042153049260377884
3.1536924839019775,-0.040245670825242996,-0.035667963325977325,0.000572213320992887,0.056267641484737396,-0.01506828423589468,0.042153049260377884
3.173776388168335,-0.04100862145423889,-0.03757534176111221,0.000572213320992887,0.05664911866188049,-0.01506828423589468,0.04253452271223068
3.1938865184783936,-0.04100862145423889,-0.03795681521296501,0.000572213320992887,0.05664911866188049,-0.015449759550392628,0.043678950518369675
3.2139663696289062,-0.04177157208323479,-0.0394827201962471,0.0009536888683214784,0.05741206929087639,-0.015449759550392628,0.04444190114736557
3.234105110168457,-0.042153049260377884,-0.0398641936480999,0.0009536888683214784,0.058175019919872284,-0.015449759550392628,0.04482337832450867
3.254163980484009,-0.042153049260377884,-0.04100862145423889,0.0020981156267225742,0.05893797054886818,-0.015449759550392628,0.04482337832450867
3.274240493774414,-0.042153049260377884,-0.04100862145423889,0.0020981156267225742,0.05970092490315437,-0.015449759550392628,0.045204851776361465
3.2945737838745117,-0.04329747334122658,-0.042153049260377884,0.002861066721379757,0.05970092490315437,-0.015449759550392628,0.045204851776361465
3.31461501121521,-0.04329747334122658,-0.04329747334122658,0.0032425422687083483,0.05970092490315437,-0.015449759550392628,0.045204851776361465
3.334735870361328,-0.043678950518369675,-0.04329747334122658,0.0036240178160369396,0.06008239835500717,-0.015449759550392628,0.04558632895350456
3.35479998588562,-0.04406042397022247,-0.04558632895350456,0.004005493130534887,0.06046387553215027,-0.01583123579621315,0.04558632895350456
3.374878168106079,-0.04406042397022247,-0.04558632895350456,0.004386968910694122,0.06046387553215027,-0.015449759550392628,0.04596780240535736
3.39497709274292,-0.04406042397022247,-0.04711223021149635,0.00476844422519207,0.06084534898400307,-0.01583123579621315,0.04596780240535736
3.4150476455688477,-0.04406042397022247,-0.04749370738863945,0.005149920005351305,0.061226826161146164,-0.015449759550392628,0.04634927958250046
3.435183525085449,-0.04406042397022247,-0.048256658017635345,0.005531395319849253,0.06198977679014206,-0.015449759550392628,0.046730753034353256
3.4552011489868164,-0.04482337832450867,-0.04940108209848404,0.005912871100008488,0.06351567804813385,-0.015449759550392628,0.04711223021149635
3.475292205810547,-0.045204851776361465,-0.050164032727479935,0.006294346414506435,0.06389715522527695,-0.015449759550392628,0.04787518084049225
3.495365858078003,-0.04596780240535736,-0.051689937710762024,0.007057297509163618,0.06427863240242004,-0.01583123579621315,0.048256658017635345
3.515448808670044,-0.04596780240535736,-0.05207141116261482,0.007057297509163618,0.06427863240242004,-0.01583123579621315,0.04901960864663124
3.535525321960449,-0.04634927958250046,-0.053215838968753815,0.0078202486038208,0.06466010212898254,-0.016594186425209045,0.04901960864663124
3.5556046962738037,-0.04634927958250046,-0.05359731614589691,0.008201723918318748,0.06542305648326874,-0.016594186425209045,0.04940108209848404
3.575697422027588,-0.04711223021149635,-0.05436026677489281,0.008964675478637218,0.06656748056411743,-0.016212711110711098,0.04940108209848404
3.596412420272827,-0.04749370738863945,-0.054741740226745605,0.008964675478637218,0.06733043491840363,-0.016212711110711098,0.049782559275627136
3.6165032386779785,-0.04749370738863945,-0.0551232174038887,0.009346150793135166,0.06771191209554672,-0.016594186425209045,0.050164032727479935
3.6366031169891357,-0.048256658017635345,-0.0558861680328846,0.009727626107633114,0.06809338182210922,-0.016594186425209045,0.05054550990462303
3.6566617488861084,-0.048256658017635345,-0.05664911866188049,0.010109102353453636,0.06847485899925232,-0.01773861236870289,0.05130846053361893
3.676738977432251,-0.04901960864663124,-0.057793546468019485,0.010490577667951584,0.06885633617639542,-0.01735713705420494,0.05245288833975792
3.6968202590942383,-0.04940108209848404,-0.057793546468019485,0.010490577667951584,0.06961929053068161,-0.01735713705420494,0.05245288833975792
3.7169888019561768,-0.04940108209848404,-0.05893797054886818,0.01125352829694748,0.07000076025724411,-0.01773861236870289,0.05283436179161072
3.7374072074890137,-0.04940108209848404,-0.06008239835500717,0.01125352829694748,0.0711451917886734,-0.01773861236870289,0.053215838968753815
3.7575106620788574,-0.049782559275627136,-0.06046387553215027,0.01201647985726595,0.0711451917886734,-0.01773861236870289,0.053215838968753815
3.7775990962982178,-0.05054550990462303,-0.06198977679014206,0.012397955171763897,0.0715266615152359,-0.01773861236870289,0.05359731614589691
3.7977662086486816,-0.05054550990462303,-0.06160829961299896,0.012397955171763897,0.0715266615152359,-0.01773861236870289,0.05359731614589691
3.8177921772003174,-0.05092698708176613,-0.06275273114442825,0.013160906732082367,0.071908138692379,-0.018120087683200836,0.05397878959774971
3.8378772735595703,-0.05130846053361893,-0.06313420087099075,0.013160906732082367,0.0722896158695221,-0.01773861236870289,0.05436026677489281
3.857950448989868,-0.05130846053361893,-0.06466010212898254,0.013542382046580315,0.07267109304666519,-0.018501564860343933,0.054741740226745605
3.8780527114868164,-0.05130846053361893,-0.06542305648326874,0.013542382046580315,0.07381551712751389,-0.018120087683200836,0.0558861680328846
3.898216962814331,-0.05130846053361893,-0.06656748056411743,0.014686808921396732,0.07495994865894318,-0.018501564860343933,0.056267641484737396
3.91833233833313,-0.051689937710762024,-0.06771191209554672,0.01506828423589468,0.07495994865894318,-0.018120087683200836,0.056267641484737396
3.9383294582366943,-0.051689937710762024,-0.06771191209554672,0.015449759550392628,0.07534141838550568,-0.018120087683200836,0.056267641484737396
3.9584438800811768,-0.05245288833975792,-0.06923781335353851,0.016212711110711098,0.07572289556264877,-0.018501564860343933,0.05664911866188049
3.9785118103027344,-0.05283436179161072,-0.06961929053068161,0.016212711110711098,0.07572289556264877,-0.018501564860343933,0.05664911866188049
3.998594284057617,-0.053215838968753815,-0.07000076025724411,0.016594186425209045,0.07648584991693497,-0.018501564860343933,0.05703059583902359
4.018672943115234,-0.05359731614589691,-0.0711451917886734,0.016975661739706993,0.07763027399778366,-0.01888304017484188,0.05703059583902359
4.038748741149902,-0.05359731614589691,-0.071908138692379,0.01735713705420494,0.07877469807863235,-0.01926451548933983,0.05741206929087639
4.058804512023926,-0.05436026677489281,-0.07381551712751389,0.01773861236870289,0.07877469807863235,-0.01926451548933983,0.057793546468019485
4.0789244174957275,-0.05436026677489281,-0.07419699430465698,0.018120087683200836,0.07877469807863235,-0.01888304017484188,0.057793546468019485
4.098979473114014,-0.054741740226745605,-0.07648584991693497,0.01888304017484188,0.07877469807863235,-0.01926451548933983,0.05855649709701538
4.1190571784973145,-0.054741740226745605,-0.07648584991693497,0.01926451548933983,0.07915617525577545,-0.01888304017484188,0.059319447726011276
4.1391401290893555,-0.0555046908557415,-0.07801175117492676,0.019645990803837776,0.07953765243291855,-0.01888304017484188,0.06008239835500717
4.159233808517456,-0.0558861680328846,-0.07839322835206985,0.019645990803837776,0.07953765243291855,-0.01926451548933983,0.06046387553215027
4.1793084144592285,-0.0558861680328846,-0.07953765243291855,0.02079041674733162,0.08030059933662415,-0.020027466118335724,0.06084534898400307
4.19938325881958,-0.056267641484737396,-0.08106355369091034,0.021171892061829567,0.08068207651376724,-0.020027466118335724,0.06084534898400307
4.219494819641113,-0.05664911866188049,-0.08144503086805344,0.021553369238972664,0.08144503086805344,-0.019645990803837776,0.061226826161146164
4.2395806312561035,-0.05664911866188049,-0.08258945494890213,0.02193484455347061,0.08220797777175903,-0.020027466118335724,0.06160829961299896
4.2596917152404785,-0.05664911866188049,-0.08258945494890213,0.02231631986796856,0.08258945494890213,-0.019645990803837776,0.06275273114442825
4.279750823974609,-0.05741206929087639,-0.08373387902975082,0.022697795182466507,0.08297093212604523,-0.020027466118335724,0.06389715522527695
4.299886226654053,-0.058175019919872284,-0.08449683338403702,0.022697795182466507,0.08297093212604523,-0.01926451548933983,0.06389715522527695
4.319962501525879,-0.05855649709701538,-0.08564125746488571,0.023460745811462402,0.08373387902975082,-0.020027466118335724,0.06389715522527695
4.34000301361084,-0.05855649709701538,-0.086785688996315,0.02384222112596035,0.08411535620689392,-0.020027466118335724,0.06427863240242004
4.360092639923096,-0.05855649709701538,-0.086785688996315,0.024605173617601395,0.08564125746488571,-0.021553369238972664,0.06427863240242004
4.380336284637451,-0.05855649709701538,-0.0883115902543068,0.024986648932099342,0.08564125746488571,-0.02193484455347061,0.06427863240242004
4.400308609008789,-0.05855649709701538,-0.08869306743144989,0.024986648932099342,0.08602273464202881,-0.021553369238972664,0.06427863240242004
4.420450925827026,-0.05893797054886818,-0.09060044586658478,0.02536812424659729,0.08602273464202881,-0.02193484455347061,0.06466010212898254
4.44050669670105,-0.05893797054886818,-0.09098191559314728,0.02536812424659729,0.0864042118191719,-0.02193484455347061,0.06504157930612564
4.460585355758667,-0.059319447726011276,-0.09174486994743347,0.025749599561095238,0.0864042118191719,-0.02231631986796856,0.06542305648326874
4.480907678604126,-0.05970092490315437,-0.09212634712457657,0.026512550190091133,0.086785688996315,-0.02231631986796856,0.06542305648326874
4.50104284286499,-0.06008239835500717,-0.09288929402828217,0.02689402550458908,0.0871671661734581,-0.022697795182466507,0.06618601083755493
4.521100997924805,-0.06084534898400307,-0.09403372555971146,0.027656977996230125,0.0871671661734581,-0.022697795182466507,0.06733043491840363
4.541172027587891,-0.06084534898400307,-0.09403372555971146,0.028038453310728073,0.0879301130771637,-0.02231631986796856,0.06771191209554672
4.56126594543457,-0.06084534898400307,-0.09517814964056015,0.02841992862522602,0.08869306743144989,-0.023079270496964455,0.06809338182210922
4.5813562870025635,-0.061226826161146164,-0.09555962681770325,0.02880140393972397,0.08945601433515549,-0.022697795182466507,0.06809338182210922
4.6014323234558105,-0.06160829961299896,-0.09670405089855194,0.029182879254221916,0.08983749151229858,-0.02231631986796856,0.06847485899925232
4.621476888656616,-0.06198977679014206,-0.09746700525283813,0.029564354568719864,0.08983749151229858,-0.022697795182466507,0.06847485899925232
4.641583681106567,-0.06237125024199486,-0.09822995215654373,0.02994582988321781,0.09060044586658478,-0.022697795182466507,0.06923781335353851
4.6616644859313965,-0.06275273114442825,-0.09937438368797302,0.030708782374858856,0.09098191559314728,-0.023079270496964455,0.07038223743438721
4.681786775588989,-0.06275273114442825,-0.09937438368797302,0.031090257689356804,0.09212634712457657,-0.023460745811462402,0.0715266615152359
4.701864957809448,-0.06351567804813385,-0.10128175467252731,0.03185320645570755,0.09327077120542526,-0.023460745811462402,0.0715266615152359
4.721938610076904,-0.06389715522527695,-0.10166323184967041,0.03185320645570755,0.09327077120542526,-0.022697795182466507,0.0715266615152359
4.742065191268921,-0.06389715522527695,-0.1031891331076622,0.03223468363285065,0.09365224838256836,-0.02384222112596035,0.0715266615152359
4.762183666229248,-0.06427863240242004,-0.10471503436565399,0.03223468363285065,0.09403372555971146,-0.02384222112596035,0.071908138692379
4.78222918510437,-0.06504157930612564,-0.10547798871994019,0.03299763426184654,0.09441519528627396,-0.023460745811462402,0.071908138692379
4.80232310295105,-0.06542305648326874,-0.10700388997793198,0.03337911143898964,0.09479667246341705,-0.02384222112596035,0.071908138692379
4.822407960891724,-0.06580453366041183,-0.10814831405878067,0.034142062067985535,0.09555962681770325,-0.02384222112596035,0.0722896158695221
4.8424787521362305,-0.06580453366041183,-0.10852979123592377,0.03452353551983833,0.09670405089855194,-0.024223696440458298,0.07267109304666519
4.86255955696106,-0.06580453366041183,-0.10891126841306686,0.03490501269698143,0.09746700525283813,-0.024223696440458298,0.07305257022380829
4.882647752761841,-0.06580453366041183,-0.11043716967105865,0.035667963325977325,0.09746700525283813,-0.024986648932099342,0.07343403995037079
4.902727127075195,-0.06618601083755493,-0.11081864684820175,0.03604944050312042,0.09746700525283813,-0.024223696440458298,0.07419699430465698
4.922858715057373,-0.06618601083755493,-0.11196307092905045,0.03643091395497322,0.09784847497940063,-0.024605173617601395,0.07457847148180008
4.942909002304077,-0.06618601083755493,-0.11310750246047974,0.037193864583969116,0.09822995215654373,-0.024605173617601395,0.07495994865894318
4.962997674942017,-0.06656748056411743,-0.11348897218704224,0.037193864583969116,0.09899290651082993,-0.024223696440458298,0.07534141838550568
4.9830756187438965,-0.06694895774126053,-0.11463340371847153,0.03795681521296501,0.09975585341453552,-0.024986648932099342,0.07534141838550568
5.003203868865967,-0.06694895774126053,-0.11463340371847153,0.03795681521296501,0.10128175467252731,-0.024986648932099342,0.07572289556264877
5.023267507553101,-0.06809338182210922,-0.11539635062217712,0.039101243019104004,0.10128175467252731,-0.024986648932099342,0.07610437273979187
5.043346405029297,-0.06809338182210922,-0.11577782779932022,0.0394827201962471,0.10166323184967041,-0.024986648932099342,0.07610437273979187
5.063425302505493,-0.06809338182210922,-0.11654078215360641,0.0398641936480999,0.10166323184967041,-0.024986648932099342,0.07648584991693497
5.083515882492065,-0.06847485899925232,-0.11730372905731201,0.040245670825242996,0.10204470902681351,-0.02536812424659729,0.07839322835206985
5.103658437728882,-0.06885633617639542,-0.11768520623445511,0.040627144277095795,0.1028076633810997,-0.024986648932099342,0.07915617525577545
5.123792886734009,-0.06923781335353851,-0.1188296303153038,0.04139009863138199,0.1039520874619484,-0.025749599561095238,0.07915617525577545
5.143823862075806,-0.06923781335353851,-0.1188296303153038,0.04139009863138199,0.10471503436565399,-0.02536812424659729,0.07953765243291855
5.1639721393585205,-0.06923781335353851,-0.11959258466959,0.042153049260377884,0.10471503436565399,-0.025749599561095238,0.07953765243291855
5.183997631072998,-0.07038223743438721,-0.1199740618467331,0.042153049260377884,0.10509651154279709,-0.02536812424659729,0.07953765243291855
5.204111337661743,-0.0707637146115303,-0.12073700875043869,0.04291599988937378,0.10509651154279709,-0.025749599561095238,0.07991912961006165
5.2242348194122314,-0.0711451917886734,-0.12149996310472488,0.04329747334122658,0.10547798871994019,-0.025749599561095238,0.08030059933662415
5.244398832321167,-0.0711451917886734,-0.12264438718557358,0.043678950518369675,0.10585946589708328,-0.026131074875593185,0.08068207651376724
5.264482736587524,-0.0711451917886734,-0.12340734153985977,0.04444190114736557,0.10624094307422638,-0.026131074875593185,0.08106355369091034
5.284603834152222,-0.0711451917886734,-0.12340734153985977,0.04444190114736557,0.10700388997793198,-0.025749599561095238,0.08182650804519653
5.3047168254852295,-0.0715266615152359,-0.12417028844356537,0.045204851776361465,0.10814831405878067,-0.026131074875593185,0.08220797777175903
5.3248679637908936,-0.0715266615152359,-0.12531471252441406,0.04558632895350456,0.10852979123592377,-0.025749599561095238,0.08258945494890213
5.344926357269287,-0.0722896158695221,-0.12607766687870026,0.04634927958250046,0.10891126841306686,-0.025749599561095238,0.08258945494890213
5.365142583847046,-0.07305257022380829,-0.12760357558727264,0.046730753034353256,0.10891126841306686,-0.026131074875593185,0.08297093212604523
5.3852643966674805,-0.07305257022380829,-0.12798504531383514,0.04749370738863945,0.10967422276735306,-0.02689402550458908,0.08335240930318832
5.405348300933838,-0.07343403995037079,-0.13027389347553253,0.04787518084049225,0.10967422276735306,-0.02689402550458908,0.08335240930318832
5.425430536270142,-0.07343403995037079,-0.13027389347553253,0.048256658017635345,0.11081864684820175,-0.026512550190091133,0.08373387902975082
5.4455132484436035,-0.07343403995037079,-0.13218127191066742,0.048638131469488144,0.11196307092905045,-0.026512550190091133,0.08373387902975082
5.465583086013794,-0.07343403995037079,-0.1325627565383911,0.048638131469488144,0.11196307092905045,-0.025749599561095238,0.08411535620689392
5.485661029815674,-0.07381551712751389,-0.1340886503458023,0.049782559275627136,0.11234454810619354,-0.026131074875593185,0.08487831056118011
5.505854845046997,-0.07457847148180008,-0.1348516047000885,0.05054550990462303,0.11272602528333664,-0.026131074875593185,0.08602273464202881
5.5259480476379395,-0.07457847148180008,-0.135233074426651,0.05054550990462303,0.11272602528333664,-0.02689402550458908,0.086785688996315
5.546017408370972,-0.07534141838550568,-0.1356145590543747,0.051689937710762024,0.11310750246047974,-0.02727550081908703,0.086785688996315
5.566105842590332,-0.07534141838550568,-0.1359960287809372,0.051689937710762024,0.11387044936418533,-0.02689402550458908,0.0871671661734581
5.586210012435913,-0.07572289556264877,-0.1371404528617859,0.05283436179161072,0.11425192654132843,-0.02689402550458908,0.0871671661734581
5.606287002563477,-0.07648584991693497,-0.1371404528617859,0.053215838968753815,0.11501488089561462,-0.026131074875593185,0.0875486359000206
5.626360893249512,-0.07648584991693497,-0.13790340721607208,0.05397878959774971,0.11539635062217712,-0.026512550190091133,0.0875486359000206
5.64646053314209,-0.07686731964349747,-0.13828489184379578,0.05397878959774971,0.11577782779932022,-0.02689402550458908,0.0883115902543068
5.66657018661499,-0.07763027399778366,-0.13942931592464447,0.054741740226745605,0.11615930497646332,-0.02689402550458908,0.08869306743144989
5.686648845672607,-0.07763027399778366,-0.13981078565120697,0.0551232174038887,0.11654078215360641,-0.02727550081908703,0.09060044586658478
5.706759214401245,-0.07763027399778366,-0.14019227027893066,0.0555046908557415,0.11730372905731201,-0.02727550081908703,0.09098191559314728
5.726834058761597,-0.07801175117492676,-0.14057374000549316,0.056267641484737396,0.11730372905731201,-0.02727550081908703,0.09098191559314728
5.746939182281494,-0.07839322835206985,-0.14095520973205566,0.056267641484737396,0.1180666834115982,-0.026131074875593185,0.09098191559314728
5.767040252685547,-0.07839322835206985,-0.14171816408634186,0.05664911866188049,0.1192111074924469,-0.02689402550458908,0.09098191559314728
5.787086009979248,-0.07877469807863235,-0.14286258816719055,0.05703059583902359,0.1199740618467331,-0.02689402550458908,0.09136339277029037
5.8071606159210205,-0.07915617525577545,-0.14362554252147675,0.057793546468019485,0.1199740618467331,-0.027656977996230125,0.09136339277029037
5.827223062515259,-0.07953765243291855,-0.14515145123004913,0.05855649709701538,0.1203555315732956,-0.02727550081908703,0.09174486994743347
5.847313404083252,-0.07953765243291855,-0.14553292095661163,0.05855649709701538,0.12073700875043869,-0.028038453310728073,0.09174486994743347
5.867480993270874,-0.07991912961006165,-0.14705882966518402,0.059319447726011276,0.12149996310472488,-0.027656977996230125,0.09212634712457657
5.88761568069458,-0.08030059933662415,-0.14667734503746033,0.059319447726011276,0.12226291000843048,-0.02727550081908703,0.09288929402828217
5.907643795013428,-0.08030059933662415,-0.14744029939174652,0.06008239835500717,0.12340734153985977,-0.027656977996230125,0.09365224838256836
5.927727460861206,-0.08068207651376724,-0.14820325374603271,0.06084534898400307,0.12378881871700287,-0.02727550081908703,0.09479667246341705
5.9477927684783936,-0.08068207651376724,-0.14858472347259521,0.061226826161146164,0.12378881871700287,-0.027656977996230125,0.09479667246341705
5.967856407165527,-0.08068207651376724,-0.1497291475534439,0.06237125024199486,0.12417028844356537,-0.027656977996230125,0.09479667246341705
5.987939834594727,-0.08106355369091034,-0.1497291475534439,0.06275273114442825,0.12455176562070847,-0.027656977996230125,0.09517814964056015
6.008016109466553,-0.08144503086805344,-0.1516365259885788,0.06351567804813385,0.12493324279785156,-0.02727550081908703,0.09517814964056015
6.028095006942749,-0.08144503086805344,-0.1516365259885788,0.06351567804813385,0.12645913660526276,-0.02727550081908703,0.09517814964056015
6.048178434371948,-0.08258945494890213,-0.1527809500694275,0.06427863240242004,0.12760357558727264,-0.027656977996230125,0.09594109654426575
6.068252325057983,-0.08258945494890213,-0.1527809500694275,0.06427863240242004,0.12760357558727264,-0.027656977996230125,0.09746700525283813
6.088326930999756,-0.08258945494890213,-0.15392538905143738,0.06504157930612564,0.12798504531383514,-0.028038453310728073,0.09784847497940063
6.108473539352417,-0.08297093212604523,-0.15430685877799988,0.06580453366041183,0.12798504531383514,-0.028038453310728073,0.09784847497940063
6.128536224365234,-0.08335240930318832,-0.15430685877799988,0.06656748056411743,0.12874799966812134,-0.028038453310728073,0.09822995215654373
6.148656606674194,-0.08373387902975082,-0.15506981313228607,0.06733043491840363,0.12912946939468384,-0.027656977996230125,0.09822995215654373
6.168727874755859,-0.08373387902975082,-0.15545128285884857,0.06733043491840363,0.13027389347553253,-0.02727550081908703,0.09822995215654373
6.18889856338501,-0.08449683338403702,-0.15659570693969727,0.06809338182210922,0.13103684782981873,-0.028038453310728073,0.09861142933368683
6.209044694900513,-0.08564125746488571,-0.15735866129398346,0.06847485899925232,0.13103684782981873,-0.02727550081908703,0.09861142933368683
6.229069232940674,-0.08564125746488571,-0.15888457000255585,0.06885633617639542,0.13141833245754242,-0.028038453310728073,0.09899290651082993
6.249128580093384,-0.08564125746488571,-0.16002899408340454,0.06923781335353851,0.13141833245754242,-0.028038453310728073,0.09899290651082993
6.269201040267944,-0.08564125746488571,-0.16117341816425323,0.06923781335353851,0.13179980218410492,-0.02880140393972397,0.09937438368797302
6.289284706115723,-0.08564125746488571,-0.16155488789081573,0.0707637146115303,0.13179980218410492,-0.02880140393972397,0.09937438368797302
6.309370279312134,-0.08564125746488571,-0.16117341816425323,0.0707637146115303,0.1325627565383911,-0.028038453310728073,0.09975585341453552
6.329441070556641,-0.0864042118191719,-0.16231784224510193,0.0722896158695221,0.1333257108926773,-0.02841992862522602,0.10013733059167862
6.349517345428467,-0.0871671661734581,-0.16308079659938812,0.07267109304666519,0.1340886503458023,-0.02727550081908703,0.10051880776882172
6.369612455368042,-0.0875486359000206,-0.16422522068023682,0.07343403995037079,0.134470134973526,-0.02841992862522602,0.10090028494596481
6.389657974243164,-0.0875486359000206,-0.164988175034523,0.07381551712751389,0.1348516047000885,-0.02841992862522602,0.10128175467252731
6.409775257110596,-0.0875486359000206,-0.1665140837430954,0.07419699430465698,0.135233074426651,-0.02994582988321781,0.10204470902681351
6.429875612258911,-0.0879301130771637,-0.1668955534696579,0.07495994865894318,0.1356145590543747,-0.02994582988321781,0.10204470902681351
6.450012683868408,-0.0875486359000206,-0.1676585078239441,0.07495994865894318,0.1359960287809372,-0.029564354568719864,0.10204470902681351
6.470107316970825,-0.0879301130771637,-0.1680399775505066,0.07572289556264877,0.1367589831352234,-0.02994582988321781,0.10204470902681351
6.490144729614258,-0.0883115902543068,-0.1684214472770691,0.07610437273979187,0.13752193748950958,-0.029564354568719864,0.1024261862039566
6.510240316390991,-0.08869306743144989,-0.1684214472770691,0.07724879682064056,0.13828489184379578,-0.029564354568719864,0.1028076633810997
6.530354738235474,-0.08945601433515549,-0.16880293190479279,0.07763027399778366,0.13828489184379578,-0.029564354568719864,0.1028076633810997
6.550448656082153,-0.08983749151229858,-0.16956588625907898,0.07839322835206985,0.13866636157035828,-0.02994582988321781,0.1035706102848053
6.570515155792236,-0.09021896868944168,-0.17109178006649017,0.07915617525577545,0.13866636157035828,-0.02994582988321781,0.10433356463909149
6.590578556060791,-0.09098191559314728,-0.17147326469421387,0.07953765243291855,0.13904783129692078,-0.02994582988321781,0.10585946589708328
6.610651969909668,-0.09174486994743347,-0.17299915850162506,0.08030059933662415,0.13904783129692078,-0.029564354568719864,0.10585946589708328
6.630726099014282,-0.09174486994743347,-0.17338064312934875,0.08030059933662415,0.13942931592464447,-0.02994582988321781,0.10585946589708328
6.650820016860962,-0.09250781685113907,-0.17376211285591125,0.08106355369091034,0.13981078565120697,-0.03032730519771576,0.10585946589708328
6.670888662338257,-0.09288929402828217,-0.17414358258247375,0.08144503086805344,0.14095520973205566,-0.02994582988321781,0.10624094307422638
6.69097113609314,-0.09288929402828217,-0.17490653693675995,0.08220797777175903,0.14171816408634186,-0.03032730519771576,0.10624094307422638
6.711015939712524,-0.09288929402828217,-0.17566949129104614,0.08297093212604523,0.14209964871406555,-0.030708782374858856,0.10662241280078888
6.731109142303467,-0.09288929402828217,-0.17566949129104614,0.08335240930318832,0.14248111844062805,-0.03032730519771576,0.10662241280078888
6.751185655593872,-0.09365224838256836,-0.17719538509845734,0.08449683338403702,0.14286258816719055,-0.030708782374858856,0.10700388997793198
6.771261692047119,-0.09403372555971146,-0.17681391537189484,0.08487831056118011,0.14324407279491425,-0.02994582988321781,0.10738536715507507
6.791368246078491,-0.09403372555971146,-0.17795833945274353,0.08564125746488571,0.14400701224803925,-0.030708782374858856,0.10814831405878067
6.81144905090332,-0.09403372555971146,-0.17833982408046722,0.08602273464202881,0.14591439068317413,-0.030708782374858856,0.10891126841306686
6.8315184116363525,-0.09441519528627396,-0.17910276353359222,0.086785688996315,0.14629587531089783,-0.031090257689356804,0.10929274559020996
6.851559162139893,-0.09479667246341705,-0.17948424816131592,0.0875486359000206,0.14629587531089783,-0.03032730519771576,0.10929274559020996
6.871668338775635,-0.09479667246341705,-0.1802472025156021,0.0879301130771637,0.14705882966518402,-0.030708782374858856,0.10967422276735306
6.891735792160034,-0.09517814964056015,-0.1813916265964508,0.0883115902543068,0.14744029939174652,-0.030708782374858856,0.10967422276735306
6.9118218421936035,-0.09517814964056015,-0.1813916265964508,0.0883115902543068,0.1489662081003189,-0.030708782374858856,0.10967422276735306
6.931918382644653,-0.09517814964056015,-0.1832990050315857,0.08945601433515549,0.1497291475534439,-0.031090257689356804,0.11043716967105865
6.952044248580933,-0.09594109654426575,-0.1832990050315857,0.09021896868944168,0.1501106321811676,-0.03032730519771576,0.11043716967105865
6.972085475921631,-0.09594109654426575,-0.18558785319328308,0.09098191559314728,0.1504921019077301,-0.030708782374858856,0.11120012402534485
6.9921300411224365,-0.09708552807569504,-0.18558785319328308,0.09174486994743347,0.1504921019077301,-0.030708782374858856,0.11196307092905045
7.012225151062012,-0.09708552807569504,-0.18558785319328308,0.09212634712457657,0.1512550562620163,-0.031090257689356804,0.11348897218704224
7.032305002212524,-0.09784847497940063,-0.18635080754756927,0.09327077120542526,0.1520180106163025,-0.031090257689356804,0.11348897218704224
7.052379131317139,-0.09899290651082993,-0.18635080754756927,0.09327077120542526,0.15354390442371368,-0.03147173300385475,0.11387044936418533
7.072458505630493,-0.09899290651082993,-0.18749523162841797,0.09441519528627396,0.15354390442371368,-0.030708782374858856,0.11425192654132843
7.092537879943848,-0.09899290651082993,-0.18787670135498047,0.09441519528627396,0.15354390442371368,-0.030708782374858856,0.11463340371847153
7.112673044204712,-0.09899290651082993,-0.18863965570926666,0.09517814964056015,0.15392538905143738,-0.03147173300385475,0.11615930497646332
7.132832050323486,-0.09937438368797302,-0.19016556441783905,0.09555962681770325,0.15430685877799988,-0.030708782374858856,0.11692225188016891
7.1529316902160645,-0.09975585341453552,-0.19092851877212524,0.09632257372140884,0.15468832850456238,-0.03032730519771576,0.11692225188016891
7.173008441925049,-0.10013733059167862,-0.19321736693382263,0.09708552807569504,0.15506981313228607,-0.03032730519771576,0.11692225188016891
7.19309401512146,-0.09975585341453552,-0.19359883666038513,0.09746700525283813,0.15659570693969727,-0.03032730519771576,0.11692225188016891
7.213176012039185,-0.10013733059167862,-0.1962691694498062,0.09784847497940063,0.15697719156742096,-0.030708782374858856,0.11730372905731201
7.233262300491333,-0.10090028494596481,-0.1958876997232437,0.09822995215654373,0.15697719156742096,-0.03032730519771576,0.11730372905731201
7.2533252239227295,-0.10128175467252731,-0.1958876997232437,0.09899290651082993,0.15735866129398346,-0.030708782374858856,0.11768520623445511
7.273418664932251,-0.10204470902681351,-0.1958876997232437,0.09975585341453552,0.15735866129398346,-0.03032730519771576,0.11768520623445511
7.293527364730835,-0.10204470902681351,-0.1966506391763687,0.10013733059167862,0.15774014592170715,-0.031090257689356804,0.11768520623445511
7.313585519790649,-0.10204470902681351,-0.1974135935306549,0.10166323184967041,0.15812161564826965,-0.031090257689356804,0.1180666834115982
7.333692312240601,-0.10204470902681351,-0.1977950781583786,0.10166323184967041,0.15888457000255585,-0.030708782374858856,0.1188296303153038
7.3539347648620605,-0.10204470902681351,-0.1989395022392273,0.1024261862039566,0.15964750945568085,-0.030708782374858856,0.1199740618467331
7.373931169509888,-0.10204470902681351,-0.1989395022392273,0.1028076633810997,0.16079194843769073,-0.02994582988321781,0.1203555315732956
7.394078016281128,-0.1024261862039566,-0.20122835040092468,0.1035706102848053,0.16079194843769073,-0.03032730519771576,0.12073700875043869
7.41410493850708,-0.1031891331076622,-0.20084688067436218,0.1039520874619484,0.16117341816425323,-0.02994582988321781,0.12073700875043869
7.434201717376709,-0.1035706102848053,-0.20122835040092468,0.10471503436565399,0.16155488789081573,-0.03032730519771576,0.12111848592758179
7.454255104064941,-0.1039520874619484,-0.20122835040092468,0.10509651154279709,0.16193637251853943,-0.03032730519771576,0.12111848592758179
7.474360942840576,-0.1039520874619484,-0.20199130475521088,0.10547798871994019,0.16269932687282562,-0.030708782374858856,0.12149996310472488
7.494416236877441,-0.10433356463909149,-0.20313572883605957,0.10624094307422638,0.16384375095367432,-0.03032730519771576,0.12149996310472488
7.514496564865112,-0.10433356463909149,-0.20313572883605957,0.10662241280078888,0.16422522068023682,-0.03032730519771576,0.12264438718557358
7.534582138061523,-0.10471503436565399,-0.20389868319034576,0.10700388997793198,0.1646067053079605,-0.03032730519771576,0.12340734153985977
7.554722785949707,-0.10509651154279709,-0.20428015291690826,0.10700388997793198,0.1646067053079605,-0.02994582988321781,0.12378881871700287
7.574755430221558,-0.10509651154279709,-0.20504310727119446,0.10814831405878067,0.1653696447610855,-0.03032730519771576,0.12417028844356537
7.5948145389556885,-0.10585946589708328,-0.20542457699775696,0.10891126841306686,0.1653696447610855,-0.03032730519771576,0.12417028844356537
7.614936113357544,-0.10624094307422638,-0.20695048570632935,0.10967422276735306,0.1661325991153717,-0.02994582988321781,0.12455176562070847
7.634998321533203,-0.10624094307422638,-0.20733195543289185,0.11081864684820175,0.1665140837430954,-0.030708782374858856,0.12455176562070847
7.655089616775513,-0.10624094307422638,-0.20733195543289185,0.11081864684820175,0.1680399775505066,-0.03032730519771576,0.12455176562070847
7.675177097320557,-0.10624094307422638,-0.20771344006061554,0.11196307092905045,0.1680399775505066,-0.030708782374858856,0.12455176562070847
7.695250988006592,-0.10662241280078888,-0.20771344006061554,0.11234454810619354,0.1684214472770691,-0.03032730519771576,0.12455176562070847
7.715349435806274,-0.10738536715507507,-0.20847637951374054,0.11310750246047974,0.16880293190479279,-0.03032730519771576,0.12493324279785156
7.735413551330566,-0.10738536715507507,-0.21000228822231293,0.11348897218704224,0.16880293190479279,-0.03032730519771576,0.12493324279785156
7.75549054145813,-0.10738536715507507,-0.21038375794887543,0.11425192654132843,0.16956588625907898,-0.030708782374858856,0.12531471252441406
7.775564193725586,-0.10814831405878067,-0.2130540907382965,0.11501488089561462,0.17071031033992767,-0.031090257689356804,0.12569619715213776
7.795647621154785,-0.10852979123592377,-0.2134355753660202,0.11501488089561462,0.17223620414733887,-0.030708782374858856,0.12607766687870026
7.815728425979614,-0.10929274559020996,-0.2157244235277176,0.11577782779932022,0.17223620414733887,-0.030708782374858856,0.12645913660526276
7.8358473777771,-0.10929274559020996,-0.2157244235277176,0.11615930497646332,0.17223620414733887,-0.030708782374858856,0.12684062123298645
7.855919122695923,-0.10929274559020996,-0.2153429538011551,0.11692225188016891,0.17299915850162506,-0.031090257689356804,0.12760357558727264
7.875975847244263,-0.10929274559020996,-0.2157244235277176,0.11730372905731201,0.17338064312934875,-0.031090257689356804,0.12798504531383514
7.896060466766357,-0.10929274559020996,-0.21648737788200378,0.1180666834115982,0.17452506721019745,-0.031090257689356804,0.12798504531383514
7.91613245010376,-0.10929274559020996,-0.21763180196285248,0.1192111074924469,0.17566949129104614,-0.03032730519771576,0.12836651504039764
7.936211109161377,-0.10929274559020996,-0.21763180196285248,0.1192111074924469,0.17566949129104614,-0.03032730519771576,0.12836651504039764
7.956299066543579,-0.10967422276735306,-0.21877622604370117,0.1199740618467331,0.17605096101760864,-0.03032730519771576,0.12874799966812134
7.976365327835083,-0.10967422276735306,-0.21877622604370117,0.1203555315732956,0.17643244564533234,-0.03032730519771576,0.12874799966812134
7.996442079544067,-0.11043716967105865,-0.21992065012454987,0.12073700875043869,0.17681391537189484,-0.03032730519771576,0.12912946939468384
8.016863107681274,-0.11081864684820175,-0.21992065012454987,0.12149996310472488,0.17719538509845734,-0.03032730519771576,0.12912946939468384
8.036971807479858,-0.11158160120248795,-0.22182802855968475,0.12149996310472488,0.17910276353359222,-0.03032730519771576,0.13027389347553253
8.057058095932007,-0.11158160120248795,-0.22182802855968475,0.12264438718557358,0.17948424816131592,-0.030708782374858856,0.13179980218410492
8.077144622802734,-0.11158160120248795,-0.22182802855968475,0.12302586436271667,0.1802472025156021,-0.03032730519771576,0.1325627565383911
8.097238540649414,-0.11158160120248795,-0.22297245264053345,0.12417028844356537,0.1802472025156021,-0.030708782374858856,0.1325627565383911
8.117308378219604,-0.11196307092905045,-0.22259098291397095,0.12455176562070847,0.1802472025156021,-0.03032730519771576,0.1329442262649536
8.137404918670654,-0.11234454810619354,-0.22259098291397095,0.12493324279785156,0.1806286722421646,-0.03032730519771576,0.1329442262649536
8.157602071762085,-0.11272602528333664,-0.22335393726825714,0.12531471252441406,0.1810101419687271,-0.02994582988321781,0.1329442262649536
8.177731037139893,-0.11348897218704224,-0.22487983107566833,0.12645913660526276,0.1825360506772995,-0.02994582988321781,0.1337071806192398
8.197816371917725,-0.11425192654132843,-0.22564278542995453,0.12722209095954895,0.182917520403862,-0.02994582988321781,0.134470134973526
8.217893838882446,-0.11425192654132843,-0.22602425515651703,0.12722209095954895,0.1832990050315857,-0.03032730519771576,0.1356145590543747
8.237968683242798,-0.11425192654132843,-0.22716869413852692,0.12836651504039764,0.1832990050315857,-0.031090257689356804,0.1356145590543747
8.25804615020752,-0.11463340371847153,-0.22716869413852692,0.12874799966812134,0.1836804747581482,-0.030708782374858856,0.1359960287809372
8.27820897102356,-0.11463340371847153,-0.22793163359165192,0.12951095402240753,0.1836804747581482,-0.030708782374858856,0.1359960287809372
8.298211097717285,-0.11463340371847153,-0.2283131182193756,0.12989242374897003,0.1840619444847107,-0.029564354568719864,0.1359960287809372
8.318302631378174,-0.11577782779932022,-0.2298390120267868,0.13065537810325623,0.1844434291124344,-0.02994582988321781,0.1363775134086609
8.338356733322144,-0.11654078215360641,-0.2302204966545105,0.13141833245754242,0.1848248988389969,-0.029182879254221916,0.1363775134086609
8.358449697494507,-0.11654078215360641,-0.2298390120267868,0.13141833245754242,0.18596932291984558,-0.029182879254221916,0.1367589831352234
8.3785560131073,-0.11654078215360641,-0.2317463904619217,0.1325627565383911,0.18711376190185547,-0.03032730519771576,0.13790340721607208
8.39862847328186,-0.11654078215360641,-0.23212787508964539,0.1329442262649536,0.18711376190185547,-0.02994582988321781,0.13981078565120697
8.418699502944946,-0.11654078215360641,-0.23212787508964539,0.1337071806192398,0.18787670135498047,-0.02994582988321781,0.13981078565120697
8.438777923583984,-0.11654078215360641,-0.23289081454277039,0.1340886503458023,0.18825818598270416,-0.02880140393972397,0.14019227027893066
8.458921194076538,-0.11692225188016891,-0.23403525352478027,0.135233074426651,0.19054703414440155,-0.029564354568719864,0.14057374000549316
8.478950262069702,-0.11692225188016891,-0.23479819297790527,0.1356145590543747,0.19054703414440155,-0.02880140393972397,0.14171816408634186
8.499043941497803,-0.11730372905731201,-0.23594263195991516,0.1367589831352234,0.19092851877212524,-0.029182879254221916,0.14286258816719055
8.519136428833008,-0.11768520623445511,-0.23670557141304016,0.13752193748950958,0.19092851877212524,-0.029564354568719864,0.14286258816719055
8.539198160171509,-0.1180666834115982,-0.23670557141304016,0.13752193748950958,0.19130998849868774,-0.02994582988321781,0.14324407279491425
8.559270143508911,-0.1184481605887413,-0.23785001039505005,0.13866636157035828,0.19169145822525024,-0.03032730519771576,0.14324407279491425
8.579350471496582,-0.1188296303153038,-0.23861294984817505,0.13904783129692078,0.19207294285297394,-0.029564354568719864,0.14324407279491425
8.59942889213562,-0.1188296303153038,-0.24013885855674744,0.13981078565120697,0.19245441257953644,-0.029564354568719864,0.14362554252147675
8.619484186172485,-0.1192111074924469,-0.24052032828330994,0.14057374000549316,0.19321736693382263,-0.029182879254221916,0.14362554252147675
8.639586925506592,-0.1199740618467331,-0.24128328263759613,0.14095520973205566,0.19474326074123383,-0.029182879254221916,0.14400701224803925
8.659665822982788,-0.1199740618467331,-0.24166475236415863,0.14171816408634186,0.19474326074123383,-0.029182879254221916,0.14400701224803925
8.679739236831665,-0.1203555315732956,-0.24204623699188232,0.14209964871406555,0.19512474536895752,-0.029182879254221916,0.14438849687576294
8.699847221374512,-0.12073700875043869,-0.24280919134616852,0.14324407279491425,0.19550621509552002,-0.029564354568719864,0.14476996660232544
8.719897508621216,-0.12111848592758179,-0.24357213079929352,0.14362554252147675,0.1962691694498062,-0.02880140393972397,0.14553292095661163
8.7400381565094,-0.12188144028186798,-0.2443350851535797,0.14476996660232544,0.1981765478849411,-0.029182879254221916,0.14629587531089783
8.760307788848877,-0.12188144028186798,-0.2454795092344284,0.14553292095661163,0.1981765478849411,-0.02880140393972397,0.14705882966518402
8.780402660369873,-0.12188144028186798,-0.2466239482164383,0.14591439068317413,0.1985580176115036,-0.02880140393972397,0.14705882966518402
8.800496816635132,-0.12188144028186798,-0.2473868876695633,0.14705882966518402,0.1985580176115036,-0.029182879254221916,0.14744029939174652
8.820568561553955,-0.12188144028186798,-0.2481498420238495,0.14705882966518402,0.1993209719657898,-0.029182879254221916,0.14782176911830902
8.840664386749268,-0.12264438718557358,-0.24891279637813568,0.14782176911830902,0.1997024416923523,-0.029182879254221916,0.14782176911830902
8.860738039016724,-0.12302586436271667,-0.24891279637813568,0.14820325374603271,0.20122835040092468,-0.028038453310728073,0.14782176911830902
8.880840301513672,-0.12302586436271667,-0.2508201599121094,0.1493476778268814,0.20199130475521088,-0.029182879254221916,0.14858472347259521
8.900886058807373,-0.12302586436271667,-0.2508201599121094,0.1501106321811676,0.20199130475521088,-0.028038453310728073,0.1497291475534439
8.921049118041992,-0.12378881871700287,-0.25234606862068176,0.1508735716342926,0.20237277448177338,-0.02841992862522602,0.1501106321811676
8.941076755523682,-0.12378881871700287,-0.25272753834724426,0.1516365259885788,0.20237277448177338,-0.02880140393972397,0.1501106321811676
8.961162090301514,-0.12378881871700287,-0.25272753834724426,0.1520180106163025,0.20351719856262207,-0.02880140393972397,0.1508735716342926
8.981289386749268,-0.12378881871700287,-0.25501641631126404,0.15316243469715118,0.20466163754463196,-0.029182879254221916,0.1504921019077301
9.001336336135864,-0.12378881871700287,-0.25501641631126404,0.15354390442371368,0.20580606162548065,-0.02880140393972397,0.1508735716342926
9.021425247192383,-0.12417028844356537,-0.25616082549095154,0.15430685877799988,0.20580606162548065,-0.029182879254221916,0.1508735716342926
9.041513442993164,-0.12417028844356537,-0.2569237947463989,0.15468832850456238,0.20580606162548065,-0.02880140393972397,0.1508735716342926
9.061684846878052,-0.12455176562070847,-0.2569237947463989,0.15583276748657227,0.20656901597976685,-0.029182879254221916,0.1512550562620163
9.08169937133789,-0.12493324279785156,-0.2573052644729614,0.15659570693969727,0.20656901597976685,-0.02841992862522602,0.1512550562620163
9.101783275604248,-0.12531471252441406,-0.2584496736526489,0.15659570693969727,0.20771344006061554,-0.02880140393972397,0.1516365259885788
9.121859788894653,-0.12607766687870026,-0.2588311731815338,0.15774014592170715,0.20923933386802673,-0.02880140393972397,0.1520180106163025
9.14193320274353,-0.12607766687870026,-0.2588311731815338,0.15774014592170715,0.20962081849575043,-0.02841992862522602,0.1527809500694275
9.162108182907104,-0.12645913660526276,-0.2592126429080963,0.15888457000255585,0.21000228822231293,-0.029182879254221916,0.15316243469715118
9.18212628364563,-0.12684062123298645,-0.2592126429080963,0.15964750945568085,0.21000228822231293,-0.02880140393972397,0.15354390442371368
9.202202081680298,-0.12722209095954895,-0.2611200213432312,0.16079194843769073,0.21038375794887543,-0.02841992862522602,0.15354390442371368
9.222236633300781,-0.12722209095954895,-0.2611200213432312,0.16193637251853943,0.21076524257659912,-0.027656977996230125,0.15392538905143738
9.242369651794434,-0.12798504531383514,-0.2622644305229187,0.16231784224510193,0.21229113638401031,-0.027656977996230125,0.15430685877799988
9.262443542480469,-0.12836651504039764,-0.2630273997783661,0.16346226632595062,0.2130540907382965,-0.02727550081908703,0.15468832850456238
9.282519340515137,-0.12836651504039764,-0.2634088695049286,0.16384375095367432,0.2130540907382965,-0.02689402550458908,0.15468832850456238
9.302602291107178,-0.12912946939468384,-0.2645532786846161,0.1646067053079605,0.2138170450925827,-0.02727550081908703,0.15506981313228607
9.322698593139648,-0.12912946939468384,-0.2645532786846161,0.164988175034523,0.2145799994468689,-0.02689402550458908,0.15545128285884857
9.342753171920776,-0.12912946939468384,-0.2653162479400635,0.1661325991153717,0.2157244235277176,-0.02689402550458908,0.15583276748657227
9.362808465957642,-0.12912946939468384,-0.265697717666626,0.1668955534696579,0.21686884760856628,-0.026512550190091133,0.15697719156742096
9.38290286064148,-0.12912946939468384,-0.266460657119751,0.1672770231962204,0.21725031733512878,-0.026512550190091133,0.15850308537483215
9.402997255325317,-0.12951095402240753,-0.26684215664863586,0.16880293190479279,0.21725031733512878,-0.02689402550458908,0.15850308537483215
9.423075199127197,-0.12951095402240753,-0.26722362637519836,0.16880293190479279,0.21763180196285248,-0.026131074875593185,0.15888457000255585
9.443154096603394,-0.13027389347553253,-0.26913100481033325,0.17032882571220398,0.21801327168941498,-0.026512550190091133,0.15888457000255585
9.46322774887085,-0.13103684782981873,-0.26951247453689575,0.17109178006649017,0.21839475631713867,-0.026131074875593185,0.15926603972911835
9.483354091644287,-0.13103684782981873,-0.26951247453689575,0.17185473442077637,0.21915769577026367,-0.02689402550458908,0.15926603972911835
9.503385066986084,-0.13103684782981873,-0.26989394426345825,0.17261768877506256,0.22030213475227356,-0.02689402550458908,0.16041046380996704
9.523463010787964,-0.13103684782981873,-0.27103838324546814,0.17299915850162506,0.22068360447883606,-0.02689402550458908,0.16155488789081573
9.543534755706787,-0.13141833245754242,-0.27141985297203064,0.17414358258247375,0.22106507420539856,-0.026512550190091133,0.16155488789081573
9.563627481460571,-0.13141833245754242,-0.27180132269859314,0.17452506721019745,0.22144655883312225,-0.026131074875593185,0.16193637251853943
9.583711862564087,-0.13141833245754242,-0.2733272314071655,0.17528800666332245,0.22182802855968475,-0.026512550190091133,0.16193637251853943
9.603802919387817,-0.13141833245754242,-0.2733272314071655,0.17566949129104614,0.22220951318740845,-0.026131074875593185,0.16193637251853943
9.623877048492432,-0.13179980218410492,-0.273708701133728,0.17719538509845734,0.22373540699481964,-0.026512550190091133,0.16193637251853943
9.643930435180664,-0.13218127191066742,-0.273708701133728,0.17757686972618103,0.22449836134910583,-0.026131074875593185,0.16269932687282562
9.664017677307129,-0.1325627565383911,-0.273708701133728,0.17833982408046722,0.22487983107566833,-0.026512550190091133,0.16269932687282562
9.684093713760376,-0.1333257108926773,-0.2756160795688629,0.17948424816131592,0.22487983107566833,-0.026131074875593185,0.16269932687282562
9.704187870025635,-0.1333257108926773,-0.2756160795688629,0.17948424816131592,0.22602425515651703,-0.026131074875593185,0.16346226632595062
9.724385261535645,-0.1337071806192398,-0.2782863974571228,0.1806286722421646,0.22716869413852692,-0.026131074875593185,0.16384375095367432
9.744374990463257,-0.134470134973526,-0.2786678969860077,0.1810101419687271,0.2283131182193756,-0.025749599561095238,0.1657511293888092
9.764455080032349,-0.134470134973526,-0.2801937758922577,0.1817730963230133,0.2283131182193756,-0.026131074875593185,0.1661325991153717
9.784513711929321,-0.1348516047000885,-0.2813382148742676,0.182917520403862,0.2286945879459381,-0.026131074875593185,0.1661325991153717
9.804608821868896,-0.1356145590543747,-0.2813382148742676,0.1836804747581482,0.2298390120267868,-0.025749599561095238,0.1672770231962204
9.824721336364746,-0.1356145590543747,-0.28324559330940247,0.18520638346672058,0.2309834510087967,-0.026131074875593185,0.1684214472770691
9.844804763793945,-0.1356145590543747,-0.28400853276252747,0.18558785319328308,0.23212787508964539,-0.02536812424659729,0.16918440163135529
9.864859342575073,-0.1356145590543747,-0.28591591119766235,0.18749523162841797,0.23212787508964539,-0.026512550190091133,0.16918440163135529
9.88491678237915,-0.1359960287809372,-0.28629741072654724,0.18749523162841797,0.23250934481620789,-0.025749599561095238,0.16918440163135529
9.905041694641113,-0.1363775134086609,-0.28744181990623474,0.18863965570926666,0.23289081454277039,-0.026512550190091133,0.16956588625907898
9.925102710723877,-0.1363775134086609,-0.28858625888824463,0.18902114033699036,0.23403525352478027,-0.026131074875593185,0.16956588625907898
9.945181846618652,-0.1367589831352234,-0.28820478916168213,0.18978407979011536,0.23556114733219147,-0.026512550190091133,0.16994735598564148
9.965240716934204,-0.1367589831352234,-0.28858625888824463,0.19054703414440155,0.23594263195991516,-0.026512550190091133,0.17032882571220398
9.985371112823486,-0.1367589831352234,-0.290112167596817,0.19130998849868774,0.23594263195991516,-0.026512550190091133,0.17032882571220398
10.00548791885376,-0.13752193748950958,-0.290112167596817,0.19245441257953644,0.23594263195991516,-0.025749599561095238,0.17032882571220398
10.025559663772583,-0.13752193748950958,-0.2904936373233795,0.19283588230609894,0.23632410168647766,-0.026131074875593185,0.17032882571220398
10.045597791671753,-0.13790340721607208,-0.291638046503067,0.19359883666038513,0.23708705604076385,-0.02689402550458908,0.17071031033992767
10.065675497055054,-0.13790340721607208,-0.291638046503067,0.19436179101467133,0.23785001039505005,-0.026131074875593185,0.17185473442077637
10.085768699645996,-0.13866636157035828,-0.2924010157585144,0.1958876997232437,0.23899443447589874,-0.026512550190091133,0.17223620414733887
10.105820894241333,-0.13866636157035828,-0.2939268946647644,0.1966506391763687,0.23937590420246124,-0.026131074875593185,0.17299915850162506
10.125909805297852,-0.13866636157035828,-0.2954528033733368,0.1974135935306549,0.23975738883018494,-0.026512550190091133,0.17338064312934875
10.145986557006836,-0.13866636157035828,-0.2969787120819092,0.1985580176115036,0.23975738883018494,-0.026131074875593185,0.17338064312934875
10.166067361831665,-0.13866636157035828,-0.2977416515350342,0.1989395022392273,0.24052032828330994,-0.026131074875593185,0.17376211285591125
10.186143398284912,-0.13904783129692078,-0.29888609051704407,0.1997024416923523,0.24128328263759613,-0.026512550190091133,0.17376211285591125
10.206226348876953,-0.13942931592464447,-0.29964902997016907,0.200083926320076,0.24280919134616852,-0.026131074875593185,0.17414358258247375
10.226333379745483,-0.13981078565120697,-0.29964902997016907,0.20122835040092468,0.24319066107273102,-0.026512550190091133,0.17528800666332245
10.246371507644653,-0.13981078565120697,-0.29964902997016907,0.20199130475521088,0.24319066107273102,-0.026131074875593185,0.17605096101760864
10.26647138595581,-0.14095520973205566,-0.30041199922561646,0.20275425910949707,0.24357213079929352,-0.026131074875593185,0.17643244564533234
10.286562442779541,-0.14095520973205566,-0.30117493867874146,0.20428015291690826,0.24357213079929352,-0.026131074875593185,0.17643244564533234
10.306638240814209,-0.14095520973205566,-0.30231937766075134,0.20428015291690826,0.2447165697813034,-0.025749599561095238,0.17681391537189484
10.326720952987671,-0.14095520973205566,-0.30270084738731384,0.20542457699775696,0.2447165697813034,-0.026512550190091133,0.17681391537189484
10.346899509429932,-0.14095520973205566,-0.30270084738731384,0.20580606162548065,0.2462424635887146,-0.026131074875593185,0.17719538509845734
10.366908550262451,-0.14171816408634186,-0.30460822582244873,0.20656901597976685,0.2470054179430008,-0.026131074875593185,0.17719538509845734
10.386993646621704,-0.14171816408634186,-0.30460822582244873,0.20771344006061554,0.2470054179430008,-0.025749599561095238,0.17719538509845734
10.407066106796265,-0.14171816408634186,-0.30460822582244873,0.20847637951374054,0.2481498420238495,-0.026131074875593185,0.17757686972618103
10.427256107330322,-0.14209964871406555,-0.3057526648044586,0.20962081849575043,0.248531311750412,-0.026512550190091133,0.17757686972618103
10.447304725646973,-0.14286258816719055,-0.3068970739841461,0.21038375794887543,0.2508201599121094,-0.026131074875593185,0.17795833945274353
10.467389106750488,-0.14286258816719055,-0.308041512966156,0.21152819693088531,0.2508201599121094,-0.026131074875593185,0.17795833945274353
10.487473964691162,-0.14286258816719055,-0.3076600432395935,0.21190966665744781,0.2508201599121094,-0.026131074875593185,0.17833982408046722
10.507623672485352,-0.14324407279491425,-0.3084229826927185,0.212672621011734,0.25120165944099426,-0.026512550190091133,0.17833982408046722
10.52828073501587,-0.14324407279491425,-0.308804452419281,0.2138170450925827,0.25158312916755676,-0.026512550190091133,0.17948424816131592
10.548519849777222,-0.14362554252147675,-0.3099488914012909,0.2141985148191452,0.25272753834724426,-0.026131074875593185,0.1806286722421646
10.56850552558899,-0.14362554252147675,-0.3103303611278534,0.2161058932542801,0.25387197732925415,-0.026131074875593185,0.1806286722421646
10.588582515716553,-0.14362554252147675,-0.3110933005809784,0.21648737788200378,0.25463491678237915,-0.026131074875593185,0.1813916265964508
10.60866403579712,-0.14400701224803925,-0.3122377395629883,0.21801327168941498,0.25463491678237915,-0.02689402550458908,0.1813916265964508
10.628838062286377,-0.14400701224803925,-0.3126192092895508,0.21839475631713867,0.25501641631126404,-0.026131074875593185,0.1813916265964508
10.648850679397583,-0.14515145123004913,-0.31414511799812317,0.21953918039798737,0.25577935576438904,-0.026512550190091133,0.1817730963230133
10.668927431106567,-0.14591439068317413,-0.31528952717781067,0.22030213475227356,0.2573052644729614,-0.026131074875593185,0.1825360506772995
10.68901777267456,-0.14591439068317413,-0.31681543588638306,0.22106507420539856,0.2584496736526489,-0.026131074875593185,0.1840619444847107
10.70911192893982,-0.14591439068317413,-0.31834134459495544,0.22259098291397095,0.2588311731815338,-0.026512550190091133,0.1848248988389969
10.729191541671753,-0.14591439068317413,-0.31910428404808044,0.22297245264053345,0.2595941126346588,-0.02727550081908703,0.18520638346672058
10.74927544593811,-0.14591439068317413,-0.32063019275665283,0.22602425515651703,0.2603570520877838,-0.02727550081908703,0.18520638346672058
10.769383192062378,-0.14591439068317413,-0.3213931620121002,0.22640573978424072,0.2611200213432312,-0.025749599561095238,0.18520638346672058
10.789509773254395,-0.14629587531089783,-0.32101166248321533,0.2286945879459381,0.2611200213432312,-0.02689402550458908,0.1848248988389969
10.809554815292358,-0.14629587531089783,-0.32101166248321533,0.2290760725736618,0.2611200213432312,-0.025749599561095238,0.1848248988389969
10.829622030258179,-0.14705882966518402,-0.32101166248321533,0.230601966381073,0.2615014910697937,-0.026131074875593185,0.18520638346672058
10.849750280380249,-0.14705882966518402,-0.3213931620121002,0.2313649207353592,0.2611200213432312,-0.026131074875593185,0.1848248988389969
10.869811058044434,-0.14705882966518402,-0.3213931620121002,0.23212787508964539,0.2615014910697937,-0.026512550190091133,0.1848248988389969
10.88985800743103,-0.14744029939174652,-0.3225375711917877,0.23365376889705658,0.2615014910697937,-0.026512550190091133,0.1848248988389969
10.909977674484253,-0.14782176911830902,-0.3221561014652252,0.23365376889705658,0.2615014910697937,-0.02536812424659729,0.1848248988389969
10.930024147033691,-0.14782176911830902,-0.3225375711917877,0.23517967760562897,0.2615014910697937,-0.026512550190091133,0.1848248988389969
10.950105667114258,-0.14782176911830902,-0.3225375711917877,0.23594263195991516,0.2615014910697937,-0.025749599561095238,0.1848248988389969
10.970257043838501,-0.14782176911830902,-0.3233005404472351,0.23746852576732635,0.2615014910697937,-0.026512550190091133,0.1848248988389969
10.990309238433838,-0.14820325374603271,-0.3233005404472351,0.23899443447589874,0.2615014910697937,-0.026131074875593185,0.1848248988389969
11.010437250137329,-0.14820325374603271,-0.3233005404472351,0.23975738883018494,0.2615014910697937,-0.026131074875593185,0.1848248988389969
11.030539989471436,-0.14820325374603271,-0.3244449496269226,0.24166475236415863,0.2615014910697937,-0.026512550190091133,0.1848248988389969
11.050674438476562,-0.14820325374603271,-0.3244449496269226,0.24166475236415863,0.2611200213432312,-0.02536812424659729,0.1844434291124344
11.070823907852173,-0.14820325374603271,-0.325970858335495,0.24357213079929352,0.2615014910697937,-0.02689402550458908,0.1844434291124344
11.091001749038696,-0.14858472347259521,-0.3263523280620575,0.2447165697813034,0.2611200213432312,-0.02536812424659729,0.1840619444847107
11.111023902893066,-0.1489662081003189,-0.3274967670440674,0.2466239482164383,0.2615014910697937,-0.026512550190091133,0.1844434291124344
11.131690740585327,-0.1489662081003189,-0.3274967670440674,0.247768372297287,0.2615014910697937,-0.026131074875593185,0.1840619444847107
11.151870250701904,-0.1493476778268814,-0.3274967670440674,0.24929426610469818,0.2615014910697937,-0.026512550190091133,0.1844434291124344
11.171948671340942,-0.1493476778268814,-0.3278782367706299,0.2508201599121094,0.2615014910697937,-0.026512550190091133,0.1840619444847107
11.191991329193115,-0.1497291475534439,-0.3286411762237549,0.25158312916755676,0.2615014910697937,-0.025749599561095238,0.1840619444847107
11.212074279785156,-0.1501106321811676,-0.3286411762237549,0.25387197732925415,0.2615014910697937,-0.025749599561095238,0.1840619444847107
11.232155561447144,-0.1501106321811676,-0.32940414547920227,0.25425344705581665,0.2615014910697937,-0.02536812424659729,0.1840619444847107
11.252239465713501,-0.1501106321811676,-0.32940414547920227,0.25616082549095154,0.2615014910697937,-0.02689402550458908,0.1840619444847107
11.27230978012085,-0.1501106321811676,-0.33016708493232727,0.2569237947463989,0.2615014910697937,-0.024986648932099342,0.1836804747581482
11.29239821434021,-0.1504921019077301,-0.33131152391433716,0.2584496736526489,0.2615014910697937,-0.025749599561095238,0.1836804747581482
11.312463998794556,-0.1504921019077301,-0.33169299364089966,0.2603570520877838,0.2615014910697937,-0.024986648932099342,0.1832990050315857
11.332581996917725,-0.1512550562620163,-0.33360037207603455,0.2615014910697937,0.2615014910697937,-0.02536812424659729,0.1832990050315857
11.352649688720703,-0.1512550562620163,-0.33512628078460693,0.2637903392314911,0.2615014910697937,-0.02536812424659729,0.1832990050315857
11.372775077819824,-0.1512550562620163,-0.33550775051116943,0.2637903392314911,0.2615014910697937,-0.024986648932099342,0.182917520403862
11.392824649810791,-0.1512550562620163,-0.33588922023773193,0.265697717666626,0.2615014910697937,-0.026131074875593185,0.182917520403862
11.4128999710083,-0.1512550562620163,-0.33588922023773193,0.26684215664863586,0.2615014910697937,-0.024986648932099342,0.1825360506772995
11.433014392852783,-0.1516365259885788,-0.33588922023773193,0.26874953508377075,0.2615014910697937,-0.02536812424659729,0.182154580950737
11.453065633773804,-0.152399480342865,-0.33588922023773193,0.27027541399002075,0.2615014910697937,-0.02384222112596035,0.1810101419687271
11.473149538040161,-0.152399480342865,-0.33588922023773193,0.27180132269859314,0.2615014910697937,-0.024986648932099342,0.1810101419687271
11.493234395980835,-0.152399480342865,-0.3370336592197418,0.2740901708602905,0.2615014910697937,-0.024223696440458298,0.1806286722421646
11.513362884521484,-0.152399480342865,-0.3377965986728668,0.2740901708602905,0.2615014910697937,-0.02384222112596035,0.1806286722421646
11.533506155014038,-0.15316243469715118,-0.3381780683994293,0.2767605185508728,0.2615014910697937,-0.02384222112596035,0.1802472025156021
11.553616285324097,-0.15316243469715118,-0.3389410376548767,0.2771419882774353,0.2615014910697937,-0.023460745811462402,0.17986571788787842
11.573652982711792,-0.15316243469715118,-0.3389410376548767,0.2794308364391327,0.2615014910697937,-0.02384222112596035,0.17986571788787842
11.593817472457886,-0.15316243469715118,-0.3393225073814392,0.2805752754211426,0.2615014910697937,-0.022697795182466507,0.17872129380702972
11.61383843421936,-0.15316243469715118,-0.3397039771080017,0.28248265385627747,0.2615014910697937,-0.023079270496964455,0.17910276353359222
11.633890151977539,-0.15354390442371368,-0.3404669165611267,0.28439003229141235,0.2615014910697937,-0.02193484455347061,0.17795833945274353
11.653976202011108,-0.15354390442371368,-0.3412298858165741,0.28553444147109985,0.2615014910697937,-0.022697795182466507,0.17795833945274353
11.674050092697144,-0.15354390442371368,-0.3427557647228241,0.28782328963279724,0.2615014910697937,-0.022697795182466507,0.17757686972618103
11.6941659450531,-0.15354390442371368,-0.3435187339782715,0.28820478916168213,0.2615014910697937,-0.021553369238972664,0.17719538509845734
11.714220523834229,-0.15392538905143738,-0.34580758213996887,0.290875107049942,0.2615014910697937,-0.022697795182466507,0.17719538509845734
11.734373807907104,-0.15430685877799988,-0.34657052159309387,0.291638046503067,0.2615014910697937,-0.02040894143283367,0.17643244564533234
11.75440788269043,-0.15430685877799988,-0.34809643030166626,0.2939268946647644,0.2618829607963562,-0.02193484455347061,0.17681391537189484
11.774453163146973,-0.15430685877799988,-0.34847790002822876,0.2950713336467743,0.2615014910697937,-0.020027466118335724,0.17605096101760864
11.794578790664673,-0.15506981313228607,-0.34847790002822876,0.2965972423553467,0.2618829607963562,-0.020027466118335724,0.17643244564533234
11.81472659111023,-0.15545128285884857,-0.34847790002822876,0.29888609051704407,0.2618829607963562,-0.01926451548933983,0.17605096101760864
11.834767580032349,-0.15545128285884857,-0.34924086928367615,0.30003052949905396,0.2615014910697937,-0.018120087683200836,0.17605096101760864
11.854857444763184,-0.15545128285884857,-0.35038527846336365,0.30270084738731384,0.2618829607963562,-0.01888304017484188,0.17566949129104614
11.87493085861206,-0.15545128285884857,-0.35076677799224854,0.30346378684043884,0.2618829607963562,-0.018120087683200836,0.17566949129104614
11.895015239715576,-0.15583276748657227,-0.3526741564273834,0.3061341345310211,0.2618829607963562,-0.020027466118335724,0.17566949129104614
11.915075540542603,-0.15621423721313477,-0.3538185656070709,0.3072785437107086,0.2618829607963562,-0.018120087683200836,0.17490653693675995
11.935163497924805,-0.15621423721313477,-0.3545815348625183,0.3091859221458435,0.2618829607963562,-0.01888304017484188,0.17490653693675995
11.95523715019226,-0.15621423721313477,-0.3549630045890808,0.3114747703075409,0.2618829607963562,-0.01888304017484188,0.17414358258247375
11.975323915481567,-0.15697719156742096,-0.3557259440422058,0.3122377395629883,0.2618829607963562,-0.018501564860343933,0.17414358258247375
11.995420217514038,-0.15735866129398346,-0.3561074137687683,0.31528952717781067,0.2618829607963562,-0.018501564860343933,0.17299915850162506
12.015491962432861,-0.15774014592170715,-0.3561074137687683,0.31643396615982056,0.2618829607963562,-0.01735713705420494,0.17261768877506256
12.035568952560425,-0.15812161564826965,-0.3580147922039032,0.31948578357696533,0.2618829607963562,-0.01926451548933983,0.17261768877506256
12.056371212005615,-0.15850308537483215,-0.3591592311859131,0.32101166248321533,0.2618829607963562,-0.01735713705420494,0.17185473442077637
12.076467275619507,-0.15850308537483215,-0.3606851398944855,0.3233005404472351,0.2622644305229187,-0.018120087683200836,0.17223620414733887
12.096527099609375,-0.15850308537483215,-0.3614480793476105,0.32520791888237,0.2618829607963562,-0.018120087683200836,0.17147326469421387
12.116618156433105,-0.15850308537483215,-0.36297398805618286,0.3263523280620575,0.2622644305229187,-0.01773861236870289,0.17147326469421387
12.136703491210938,-0.15850308537483215,-0.36488136649131775,0.32940414547920227,0.2622644305229187,-0.018501564860343933,0.17109178006649017
12.156800508499146,-0.15888457000255585,-0.36526283621788025,0.33016708493232727,0.2618829607963562,-0.016594186425209045,0.17071031033992767
12.176878213882446,-0.15964750945568085,-0.36602577567100525,0.33245593309402466,0.2622644305229187,-0.018120087683200836,0.16994735598564148
12.197197437286377,-0.16041046380996704,-0.36640727519989014,0.33436331152915955,0.2622644305229187,-0.016594186425209045,0.16918440163135529
12.217296600341797,-0.16041046380996704,-0.36755168437957764,0.33665215969085693,0.2622644305229187,-0.01773861236870289,0.16956588625907898
12.237404584884644,-0.16041046380996704,-0.368314653635025,0.3393225073814392,0.2622644305229187,-0.01735713705420494,0.16918440163135529
12.257471799850464,-0.16041046380996704,-0.3694590628147125,0.3408484160900116,0.2622644305229187,-0.016975661739706993,0.16880293190479279
12.277551889419556,-0.16041046380996704,-0.3702220320701599,0.3435187339782715,0.2622644305229187,-0.016975661739706993,0.16880293190479279
12.297646522521973,-0.16041046380996704,-0.3706035017967224,0.34504464268684387,0.2622644305229187,-0.014686808921396732,0.1684214472770691
12.317734241485596,-0.16041046380996704,-0.3725108802318573,0.34847790002822876,0.2622644305229187,-0.016212711110711098,0.1680399775505066
12.338127851486206,-0.16041046380996704,-0.3732738196849823,0.35076677799224854,0.2622644305229187,-0.01506828423589468,0.1676585078239441
12.35823106765747,-0.16079194843769073,-0.3747997283935547,0.3538185656070709,0.2622644305229187,-0.016212711110711098,0.1672770231962204
12.378283977508545,-0.16079194843769073,-0.3770885765552521,0.3568703830242157,0.2622644305229187,-0.01583123579621315,0.1665140837430954
12.398369550704956,-0.16079194843769073,-0.3778515160083771,0.3591592311859131,0.2626459002494812,-0.015449759550392628,0.1665140837430954
12.418489217758179,-0.16155488789081573,-0.38090333342552185,0.36297398805618286,0.2622644305229187,-0.01506828423589468,0.1653696447610855
12.438549518585205,-0.16193637251853943,-0.38128480315208435,0.36411839723587036,0.2622644305229187,-0.013160906732082367,0.1653696447610855
12.458611965179443,-0.16231784224510193,-0.3839551508426666,0.36755168437957764,0.2626459002494812,-0.01430533267557621,0.164988175034523
12.478770732879639,-0.16269932687282562,-0.386243999004364,0.3686961233615875,0.2622644305229187,-0.01201647985726595,0.1646067053079605
12.498810529708862,-0.16269932687282562,-0.3873884081840515,0.3717479109764099,0.2626459002494812,-0.013542382046580315,0.1646067053079605
12.518848657608032,-0.16308079659938812,-0.3900587558746338,0.3736552894115448,0.2626459002494812,-0.01201647985726595,0.16384375095367432
12.53892993927002,-0.16308079659938812,-0.3908216953277588,0.3755626678466797,0.2626459002494812,-0.010872052982449532,0.16346226632595062
12.559152126312256,-0.16384375095367432,-0.39463645219802856,0.37937742471694946,0.2626459002494812,-0.010872052982449532,0.16231784224510193
12.579121828079224,-0.1646067053079605,-0.39730677008628845,0.38014039397239685,0.2626459002494812,-0.009346150793135166,0.16193637251853943
12.599198341369629,-0.1646067053079605,-0.3999771177768707,0.38319218158721924,0.2626459002494812,-0.010490577667951584,0.16117341816425323
12.619315385818481,-0.164988175034523,-0.4026474356651306,0.3850995600223541,0.2626459002494812,-0.009727626107633114,0.16117341816425323
12.639378070831299,-0.1653696447610855,-0.404173344373703,0.3885328471660614,0.2630273997783661,-0.01125352829694748,0.16117341816425323
12.659541606903076,-0.1665140837430954,-0.4068436622619629,0.3908216953277588,0.2630273997783661,-0.00858320016413927,0.16079194843769073
12.679578065872192,-0.1668955534696579,-0.4079881012439728,0.39425498247146606,0.2634088695049286,-0.009727626107633114,0.16079194843769073
12.699665069580078,-0.1668955534696579,-0.41065841913223267,0.39845120906829834,0.2634088695049286,-0.008201723918318748,0.16002899408340454
12.719747543334961,-0.1668955534696579,-0.41142138838768005,0.3995956480503082,0.2637903392314911,-0.008201723918318748,0.16002899408340454
12.739809036254883,-0.1668955534696579,-0.41485464572906494,0.4037918746471405,0.2641718089580536,-0.008201723918318748,0.15964750945568085
12.759935140609741,-0.1668955534696579,-0.4175249934196472,0.4053177833557129,0.2641718089580536,-0.00667582219466567,0.15888457000255585
12.77998971939087,-0.1672770231962204,-0.4194323718547821,0.4087510406970978,0.2645532786846161,-0.00858320016413927,0.15850308537483215
12.800054788589478,-0.1676585078239441,-0.421339750289917,0.41027694940567017,0.2645532786846161,-0.007057297509163618,0.15812161564826965
12.820121765136719,-0.1676585078239441,-0.4240100681781769,0.41371023654937744,0.2653162479400635,-0.010109102353453636,0.15812161564826965
12.840179204940796,-0.1676585078239441,-0.42668038606643677,0.41638055443763733,0.2653162479400635,-0.009346150793135166,0.15774014592170715
12.860369682312012,-0.1680399775505066,-0.42782482504844666,0.4186694025993347,0.2653162479400635,-0.010109102353453636,0.15774014592170715
12.880390882492065,-0.1680399775505066,-0.43049514293670654,0.4232471287250519,0.265697717666626,-0.010490577667951584,0.15735866129398346
12.900481224060059,-0.1684214472770691,-0.4327840209007263,0.4247730076313019,0.265697717666626,-0.0078202486038208,0.15735866129398346
12.920554637908936,-0.1684214472770691,-0.4343098998069763,0.42820629477500916,0.265697717666626,-0.0078202486038208,0.15697719156742096
12.940642833709717,-0.16880293190479279,-0.4358358085155487,0.43049514293670654,0.265697717666626,-0.005912871100008488,0.15659570693969727
12.960718393325806,-0.16918440163135529,-0.4377431869506836,0.4343098998069763,0.2660791873931885,-0.007057297509163618,0.15583276748657227
12.98076844215393,-0.16956588625907898,-0.440032035112381,0.4373617172241211,0.2660791873931885,-0.005531395319849253,0.15392538905143738
13.000889778137207,-0.16994735598564148,-0.44155794382095337,0.4404135048389435,0.2660791873931885,-0.007438773289322853,0.15392538905143738
13.020952939987183,-0.17032882571220398,-0.44575417041778564,0.44499123096466064,0.2660791873931885,-0.00667582219466567,0.15316243469715118
13.04102873802185,-0.17071031033992767,-0.4484245181083679,0.44689860939979553,0.2660791873931885,-0.005912871100008488,0.1527809500694275
13.061107397079468,-0.17109178006649017,-0.4510948359966278,0.4507133662700653,0.2660791873931885,-0.005531395319849253,0.1512550562620163
13.081186771392822,-0.17185473442077637,-0.4537651538848877,0.4533836841583252,0.266460657119751,-0.0036240178160369396,0.1508735716342926
13.101260662078857,-0.17223620414733887,-0.4556725323200226,0.45681697130203247,0.266460657119751,-0.00476844422519207,0.1504921019077301
13.121335983276367,-0.17299915850162506,-0.45986875891685486,0.46063172817230225,0.266460657119751,-0.002861066721379757,0.1501106321811676
13.14142632484436,-0.17338064312934875,-0.46215763688087463,0.4640650153160095,0.26684215664863586,-0.0020981156267225742,0.1497291475534439
13.161491632461548,-0.17376211285591125,-0.4655908942222595,0.4690241813659668,0.26684215664863586,-0.0009536888683214784,0.1493476778268814
13.18159818649292,-0.17490653693675995,-0.4682612419128418,0.4709315598011017,0.26760509610176086,-0.0009536888683214784,0.1493476778268814
13.201802253723145,-0.17490653693675995,-0.4713130295276642,0.47550925612449646,0.26760509610176086,-0.0009536888683214784,0.14858472347259521
13.221777200698853,-0.17490653693675995,-0.47474631667137146,0.47817960381507874,0.26836803555488586,0.000572213320992887,0.14820325374603271
13.241876125335693,-0.17528800666332245,-0.47741663455963135,0.4827573001384735,0.26874953508377075,-0.0009536888683214784,0.14705882966518402
13.261937141418457,-0.17566949129104614,-0.481612890958786,0.4858091175556183,0.26874953508377075,0.0013351644156500697,0.14629587531089783
13.282020807266235,-0.17605096101760864,-0.4835202693939209,0.4888609051704407,0.26874953508377075,0.000572213320992887,0.14629587531089783
13.30211877822876,-0.17719538509845734,-0.4873350262641907,0.49229419231414795,0.26913100481033325,0.000572213320992887,0.14553292095661163
13.322185277938843,-0.17719538509845734,-0.49000534415245056,0.4953460097312927,0.26913100481033325,0.001716639962978661,0.14553292095661163
13.342264890670776,-0.17795833945274353,-0.49382010102272034,0.501068115234375,0.26951247453689575,0.0013351644156500697,0.14476996660232544
13.362340927124023,-0.17986571788787842,-0.4964904189109802,0.5037384629249573,0.26951247453689575,0.002861066721379757,0.14400701224803925
13.38246202468872,-0.1802472025156021,-0.4991607666015625,0.5086976289749146,0.26951247453689575,0.0009536888683214784,0.14362554252147675
13.402568578720093,-0.1810101419687271,-0.5041199326515198,0.5132753252983093,0.26989394426345825,0.004005493130534887,0.14248111844062805
13.422667741775513,-0.1813916265964508,-0.5064088106155396,0.5178530812263489,0.26989394426345825,0.0036240178160369396,0.14248111844062805
13.442740440368652,-0.182154580950737,-0.5109865069389343,0.5220493078231812,0.26989394426345825,0.00476844422519207,0.14171816408634186
13.462882995605469,-0.182154580950737,-0.5140383243560791,0.5258640646934509,0.27065691351890564,0.005149920005351305,0.14171816408634186
13.482954740524292,-0.182154580950737,-0.5193789601325989,0.5308232307434082,0.27065691351890564,0.00667582219466567,0.14095520973205566
13.503016471862793,-0.1825360506772995,-0.5220493078231812,0.5334935784339905,0.27103838324546814,0.00858320016413927,0.14019227027893066
13.523094654083252,-0.1825360506772995,-0.5254825949668884,0.5380712747573853,0.27141985297203064,0.0078202486038208,0.13904783129692078
13.543166399002075,-0.1832990050315857,-0.5296788215637207,0.541886031627655,0.27180132269859314,0.010490577667951584,0.13866636157035828
13.56324815750122,-0.1836804747581482,-0.5331120491027832,0.5468451976776123,0.27180132269859314,0.010109102353453636,0.13752193748950958
13.583312273025513,-0.1844434291124344,-0.5388342142105103,0.5518043637275696,0.27218279242515564,0.011635004542768002,0.1363775134086609
13.603395938873291,-0.1844434291124344,-0.54112309217453,0.5552376508712769,0.2725642919540405,0.01125352829694748,0.1356145590543747
13.623472452163696,-0.1848248988389969,-0.5460822582244873,0.5613412857055664,0.272945761680603,0.010872052982449532,0.135233074426651
13.643564939498901,-0.18558785319328308,-0.5491340756416321,0.5640115737915039,0.2733272314071655,0.012397955171763897,0.1348516047000885
13.663646221160889,-0.18558785319328308,-0.5537117719650269,0.5701152086257935,0.2733272314071655,0.011635004542768002,0.134470134973526
13.683717727661133,-0.18673227727413177,-0.5579079985618591,0.5739299654960632,0.273708701133728,0.01430533267557621,0.1340886503458023
13.703791856765747,-0.18635080754756927,-0.5613412857055664,0.5804150700569153,0.273708701133728,0.01201647985726595,0.1340886503458023
13.723861455917358,-0.18711376190185547,-0.5663004517555237,0.5846112966537476,0.2740901708602905,0.015449759550392628,0.1333257108926773
13.743943929672241,-0.18749523162841797,-0.5693522691726685,0.5899519324302673,0.2740901708602905,0.01583123579621315,0.1325627565383911
13.764029741287231,-0.18787670135498047,-0.5750743746757507,0.5949110984802246,0.2744716703891754,0.01773861236870289,0.13179980218410492
13.784103393554688,-0.18940261006355286,-0.577744722366333,0.5991073250770569,0.2752346098423004,0.019645990803837776,0.13179980218410492
13.804219007492065,-0.18902114033699036,-0.5834668278694153,0.6059738993644714,0.2763790488243103,0.01773861236870289,0.13141833245754242
13.824371576309204,-0.18940261006355286,-0.5880445837974548,0.6094071865081787,0.2767605185508728,0.019645990803837776,0.13065537810325623
13.8444082736969,-0.18940261006355286,-0.5922408103942871,0.6158922910690308,0.2775234580039978,0.016212711110711098,0.13027389347553253
13.864467144012451,-0.18940261006355286,-0.5979629158973694,0.6197070479393005,0.2775234580039978,0.01926451548933983,0.12912946939468384
13.884562015533447,-0.18940261006355286,-0.6010147333145142,0.6254291534423828,0.2779049277305603,0.01773861236870289,0.12798504531383514
13.904634952545166,-0.18940261006355286,-0.6063553690910339,0.6292439103126526,0.2779049277305603,0.018501564860343933,0.12684062123298645
13.924712419509888,-0.18978407979011536,-0.6101701259613037,0.6330586671829224,0.2786678969860077,0.01926451548933983,0.12684062123298645
13.94478440284729,-0.18978407979011536,-0.6162737607955933,0.6387808322906494,0.2794308364391327,0.018501564860343933,0.12493324279785156
13.964877843856812,-0.19054703414440155,-0.6197070479393005,0.6410696506500244,0.2801937758922577,0.020027466118335724,0.12455176562070847
13.98497462272644,-0.19054703414440155,-0.6242847442626953,0.647173285484314,0.2805752754211426,0.01735713705420494,0.12417028844356537
14.005038499832153,-0.19130998849868774,-0.6292439103126526,0.6509880423545837,0.2805752754211426,0.018501564860343933,0.12340734153985977
14.02510929107666,-0.19130998849868774,-0.6326771974563599,0.656710147857666,0.2805752754211426,0.016212711110711098,0.12340734153985977
