liuyurong129/humanoid-gym/humanoid/data/actual_q_20250522-225321.csv
timestamp,joint_1,joint_2,joint_3,joint_4,joint_5,joint_6
8.177757263183594e-05,0.00019073777366429567,0.17414358258247375,-0.086785688996315,-0.00019073777366429567,0.00019073777366429567,0.00019073777366429567
0.020151138305664062,0.00019073777366429567,0.15506981313228607,-0.07953765243291855,-0.00019073777366429567,-0.0009536888683214784,0.00019073777366429567
0.04024457931518555,-0.00019073777366429567,0.12951095402240753,-0.06771191209554672,-0.00019073777366429567,0.0009536888683214784,0.00019073777366429567
0.06029367446899414,-0.00019073777366429567,0.11310750246047974,-0.061226826161146164,-0.00019073777366429567,0.001716639962978661,0.00019073777366429567
0.08037805557250977,0.000572213320992887,0.11005569249391556,-0.05970092490315437,-0.000572213320992887,0.000572213320992887,0.00019073777366429567
0.10046505928039551,0.0013351644156500697,0.11158160120248795,-0.059319447726011276,-0.000572213320992887,0.000572213320992887,0.00019073777366429567
0.12052536010742188,0.001716639962978661,0.11348897218704224,-0.058175019919872284,-0.000572213320992887,0.00019073777366429567,-0.00019073777366429567
0.14056968688964844,0.002861066721379757,0.11387044936418533,-0.0558861680328846,-0.000572213320992887,0.000572213320992887,0.00019073777366429567
0.16065549850463867,0.002861066721379757,0.11387044936418533,-0.0551232174038887,-0.000572213320992887,0.000572213320992887,0.00019073777366429567
0.18071484565734863,0.0036240178160369396,0.11387044936418533,-0.054741740226745605,-0.0009536888683214784,0.000572213320992887,0.00019073777366429567
0.20077037811279297,0.00476844422519207,0.11310750246047974,-0.054741740226745605,-0.0013351644156500697,0.000572213320992887,-0.00019073777366429567
0.2208843231201172,0.005531395319849253,0.11272602528333664,-0.05359731614589691,-0.0013351644156500697,0.0009536888683214784,0.00019073777366429567
0.24105310440063477,0.00667582219466567,0.11272602528333664,-0.05245288833975792,-0.0024795911740511656,0.0009536888683214784,-0.00019073777366429567
0.26117682456970215,0.007438773289322853,0.11310750246047974,-0.05130846053361893,-0.002861066721379757,0.000572213320992887,-0.00019073777366429567
0.2812361717224121,0.007438773289322853,0.11272602528333664,-0.050164032727479935,-0.0032425422687083483,0.0009536888683214784,-0.00019073777366429567
0.3012871742248535,0.00858320016413927,0.11310750246047974,-0.049782559275627136,-0.004005493130534887,0.0009536888683214784,-0.00019073777366429567
0.3213624954223633,0.009346150793135166,0.11272602528333664,-0.04940108209848404,-0.004005493130534887,0.0009536888683214784,-0.00019073777366429567
0.34142231941223145,0.009346150793135166,0.11272602528333664,-0.04901960864663124,-0.004386968910694122,0.0009536888683214784,-0.00019073777366429567
0.3623042106628418,0.010490577667951584,0.11272602528333664,-0.04787518084049225,-0.00476844422519207,0.0009536888683214784,-0.00019073777366429567
0.38239026069641113,0.01125352829694748,0.11272602528333664,-0.04711223021149635,-0.005912871100008488,0.0009536888683214784,-0.000572213320992887
0.40245532989501953,0.01201647985726595,0.11234454810619354,-0.04558632895350456,-0.007057297509163618,0.0009536888683214784,-0.000572213320992887
0.422515869140625,0.013160906732082367,0.11196307092905045,-0.045204851776361465,-0.007057297509163618,0.0009536888683214784,-0.0009536888683214784
0.4425976276397705,0.013923857361078262,0.11196307092905045,-0.04406042397022247,-0.007438773289322853,0.0013351644156500697,-0.0009536888683214784
0.46274423599243164,0.014686808921396732,0.11196307092905045,-0.043678950518369675,-0.0078202486038208,0.0013351644156500697,-0.0013351644156500697
0.4828603267669678,0.014686808921396732,0.11196307092905045,-0.04291599988937378,-0.008201723918318748,0.0013351644156500697,-0.001716639962978661
0.5028748512268066,0.01506828423589468,0.11196307092905045,-0.04177157208323479,-0.008964675478637218,0.0013351644156500697,-0.0032425422687083483
0.5230422019958496,0.01583123579621315,0.11196307092905045,-0.04100862145423889,-0.009727626107633114,0.0009536888683214784,-0.004005493130534887
0.5430569648742676,0.016975661739706993,0.11158160120248795,-0.0398641936480999,-0.010872052982449532,0.0009536888683214784,-0.004005493130534887
0.5630989074707031,0.01735713705420494,0.11158160120248795,-0.039101243019104004,-0.01125352829694748,0.0013351644156500697,-0.004005493130534887
0.5831527709960938,0.01735713705420494,0.11158160120248795,-0.038719769567251205,-0.01125352829694748,0.0013351644156500697,-0.004386968910694122
0.6032366752624512,0.01888304017484188,0.11081864684820175,-0.037193864583969116,-0.011635004542768002,0.0009536888683214784,-0.004386968910694122
0.623497724533081,0.019645990803837776,0.11081864684820175,-0.03681239113211632,-0.01201647985726595,0.0013351644156500697,-0.004386968910694122
0.6435842514038086,0.019645990803837776,0.11081864684820175,-0.03604944050312042,-0.012779430486261845,0.0013351644156500697,-0.004386968910694122
0.6636741161346436,0.021171892061829567,0.11081864684820175,-0.03528648987412453,-0.01430533267557621,0.001716639962978661,-0.00476844422519207
0.683753252029419,0.021553369238972664,0.11081864684820175,-0.03452353551983833,-0.01506828423589468,0.001716639962978661,-0.00476844422519207
0.7038984298706055,0.021553369238972664,0.11043716967105865,-0.03376058489084244,-0.01506828423589468,0.001716639962978661,-0.005149920005351305
0.7238967418670654,0.02231631986796856,0.11005569249391556,-0.03299763426184654,-0.015449759550392628,0.001716639962978661,-0.005149920005351305
0.7440071105957031,0.023460745811462402,0.10967422276735306,-0.032616160809993744,-0.01583123579621315,0.0013351644156500697,-0.005531395319849253
0.7640566825866699,0.024223696440458298,0.10967422276735306,-0.03185320645570755,-0.016594186425209045,0.0013351644156500697,-0.005531395319849253
0.7841277122497559,0.024986648932099342,0.10967422276735306,-0.031090257689356804,-0.01773861236870289,0.001716639962978661,-0.006294346414506435
0.80430006980896,0.02536812424659729,0.10967422276735306,-0.03032730519771576,-0.018501564860343933,0.0020981156267225742,-0.007057297509163618
0.8243656158447266,0.025749599561095238,0.10967422276735306,-0.029182879254221916,-0.01888304017484188,0.0020981156267225742,-0.007438773289322853
0.8443853855133057,0.02689402550458908,0.10967422276735306,-0.02880140393972397,-0.01888304017484188,0.0024795911740511656,-0.007438773289322853
0.8646037578582764,0.027656977996230125,0.10967422276735306,-0.027656977996230125,-0.01926451548933983,0.0024795911740511656,-0.007438773289322853
0.8847427368164062,0.02841992862522602,0.10929274559020996,-0.02689402550458908,-0.019645990803837776,0.002861066721379757,-0.007438773289322853
0.9049160480499268,0.02880140393972397,0.10891126841306686,-0.026512550190091133,-0.020027466118335724,0.0024795911740511656,-0.007438773289322853
0.9248790740966797,0.02880140393972397,0.10891126841306686,-0.026131074875593185,-0.021171892061829567,0.0032425422687083483,-0.007438773289322853
0.9450137615203857,0.029564354568719864,0.10891126841306686,-0.02536812424659729,-0.02231631986796856,0.0032425422687083483,-0.0078202486038208
0.9650702476501465,0.03032730519771576,0.10852979123592377,-0.024223696440458298,-0.022697795182466507,0.0032425422687083483,-0.0078202486038208
0.9852702617645264,0.031090257689356804,0.10852979123592377,-0.023460745811462402,-0.022697795182466507,0.002861066721379757,-0.0078202486038208
1.0053138732910156,0.03185320645570755,0.10852979123592377,-0.022697795182466507,-0.023079270496964455,0.0032425422687083483,-0.0078202486038208
1.0253980159759521,0.03223468363285065,0.10852979123592377,-0.02193484455347061,-0.023460745811462402,0.0032425422687083483,-0.0078202486038208
1.045567274093628,0.03299763426184654,0.10852979123592377,-0.021171892061829567,-0.024605173617601395,0.0036240178160369396,-0.008201723918318748
1.0656495094299316,0.034142062067985535,0.10814831405878067,-0.02079041674733162,-0.025749599561095238,0.0032425422687083483,-0.008201723918318748
1.0858352184295654,0.034142062067985535,0.10776684433221817,-0.02040894143283367,-0.025749599561095238,0.0036240178160369396,-0.008201723918318748
1.1058909893035889,0.03452353551983833,0.10776684433221817,-0.020027466118335724,-0.026131074875593185,0.0036240178160369396,-0.00858320016413927
1.1259140968322754,0.03604944050312042,0.10776684433221817,-0.01926451548933983,-0.026131074875593185,0.0036240178160369396,-0.00858320016413927
1.1459782123565674,0.03604944050312042,0.10776684433221817,-0.01888304017484188,-0.026512550190091133,0.004005493130534887,-0.00858320016413927
1.1660494804382324,0.03604944050312042,0.10776684433221817,-0.018120087683200836,-0.02727550081908703,0.004005493130534887,-0.00858320016413927
1.186121940612793,0.03643091395497322,0.10738536715507507,-0.01773861236870289,-0.027656977996230125,0.004386968910694122,-0.008964675478637218
1.206223726272583,0.037193864583969116,0.10738536715507507,-0.01735713705420494,-0.02841992862522602,0.004005493130534887,-0.008964675478637218
1.2262675762176514,0.03795681521296501,0.10700388997793198,-0.016594186425209045,-0.029182879254221916,0.004005493130534887,-0.008964675478637218
1.2464485168457031,0.03833829239010811,0.10700388997793198,-0.01583123579621315,-0.02994582988321781,0.004005493130534887,-0.009346150793135166
1.2666571140289307,0.038719769567251205,0.10662241280078888,-0.01506828423589468,-0.02994582988321781,0.004386968910694122,-0.010109102353453636
1.2867391109466553,0.0394827201962471,0.10662241280078888,-0.014686808921396732,-0.03032730519771576,0.004386968910694122,-0.010490577667951584
1.3068156242370605,0.0394827201962471,0.10662241280078888,-0.013923857361078262,-0.030708782374858856,0.004386968910694122,-0.010872052982449532
1.326857328414917,0.040627144277095795,0.10662241280078888,-0.013160906732082367,-0.031090257689356804,0.004386968910694122,-0.01125352829694748
1.3470332622528076,0.04139009863138199,0.10662241280078888,-0.01201647985726595,-0.03147173300385475,0.004005493130534887,-0.01125352829694748
1.3670105934143066,0.04139009863138199,0.10662241280078888,-0.011635004542768002,-0.03223468363285065,0.00476844422519207,-0.01125352829694748
1.387589454650879,0.04253452271223068,0.10662241280078888,-0.01125352829694748,-0.03337911143898964,0.004386968910694122,-0.011635004542768002
1.407759666442871,0.04329747334122658,0.10585946589708328,-0.010490577667951584,-0.03376058489084244,0.00476844422519207,-0.011635004542768002
1.4277839660644531,0.043678950518369675,0.10547798871994019,-0.009727626107633114,-0.034142062067985535,0.00476844422519207,-0.011635004542768002
1.447880506515503,0.043678950518369675,0.10547798871994019,-0.009727626107633114,-0.034142062067985535,0.00476844422519207,-0.01201647985726595
1.4680140018463135,0.04444190114736557,0.10547798871994019,-0.008964675478637218,-0.03452353551983833,0.00476844422519207,-0.01201647985726595
1.4880280494689941,0.04482337832450867,0.10547798871994019,-0.0078202486038208,-0.03490501269698143,0.00476844422519207,-0.012397955171763897
1.508147954940796,0.04558632895350456,0.10547798871994019,-0.007438773289322853,-0.03643091395497322,0.00476844422519207,-0.012397955171763897
1.5281484127044678,0.04634927958250046,0.10547798871994019,-0.00667582219466567,-0.037193864583969116,0.00476844422519207,-0.012397955171763897
1.5482375621795654,0.04634927958250046,0.10509651154279709,-0.006294346414506435,-0.03757534176111221,0.005149920005351305,-0.012779430486261845
1.5683043003082275,0.046730753034353256,0.10471503436565399,-0.005531395319849253,-0.03757534176111221,0.005531395319849253,-0.013160906732082367
1.5884544849395752,0.04749370738863945,0.10471503436565399,-0.005531395319849253,-0.03795681521296501,0.005912871100008488,-0.013160906732082367
1.608544111251831,0.048638131469488144,0.10471503436565399,-0.00476844422519207,-0.03833829239010811,0.005912871100008488,-0.013542382046580315
1.6286299228668213,0.048638131469488144,0.10433356463909149,-0.004386968910694122,-0.038719769567251205,0.005912871100008488,-0.013923857361078262
1.6487712860107422,0.04901960864663124,0.10433356463909149,-0.0036240178160369396,-0.0398641936480999,0.005912871100008488,-0.013923857361078262
1.668792486190796,0.05092698708176613,0.10433356463909149,-0.0032425422687083483,-0.04139009863138199,0.006294346414506435,-0.01430533267557621
1.6888682842254639,0.05092698708176613,0.10433356463909149,-0.0024795911740511656,-0.04177157208323479,0.007057297509163618,-0.014686808921396732
1.7089283466339111,0.05092698708176613,0.1035706102848053,-0.0020981156267225742,-0.042153049260377884,0.007438773289322853,-0.014686808921396732
1.7289931774139404,0.05092698708176613,0.1035706102848053,-0.001716639962978661,-0.04253452271223068,0.008201723918318748,-0.014686808921396732
1.7491631507873535,0.051689937710762024,0.1035706102848053,-0.0013351644156500697,-0.04291599988937378,0.0078202486038208,-0.014686808921396732
1.7692859172821045,0.05245288833975792,0.1031891331076622,-0.00019073777366429567,-0.043678950518369675,0.0078202486038208,-0.014686808921396732
1.7893776893615723,0.05283436179161072,0.1031891331076622,0.00019073777366429567,-0.04482337832450867,0.0078202486038208,-0.01506828423589468
1.8094696998596191,0.05283436179161072,0.1028076633810997,0.0009536888683214784,-0.04482337832450867,0.0078202486038208,-0.01506828423589468
1.8296372890472412,0.05397878959774971,0.1024261862039566,0.0020981156267225742,-0.04482337832450867,0.008201723918318748,-0.01506828423589468
1.8497130870819092,0.05436026677489281,0.1024261862039566,0.0024795911740511656,-0.045204851776361465,0.0078202486038208,-0.015449759550392628
1.869805097579956,0.054741740226745605,0.1024261862039566,0.002861066721379757,-0.04558632895350456,0.0078202486038208,-0.01506828423589468
1.8898141384124756,0.0558861680328846,0.1024261862039566,0.0036240178160369396,-0.04558632895350456,0.007438773289322853,-0.015449759550392628
1.9098854064941406,0.056267641484737396,0.1024261862039566,0.004386968910694122,-0.04596780240535736,0.0078202486038208,-0.015449759550392628
1.9299354553222656,0.05703059583902359,0.1024261862039566,0.00476844422519207,-0.046730753034353256,0.0078202486038208,-0.015449759550392628
1.9501135349273682,0.057793546468019485,0.1024261862039566,0.005149920005351305,-0.04749370738863945,0.008201723918318748,-0.01583123579621315
1.9701409339904785,0.058175019919872284,0.10204470902681351,0.005912871100008488,-0.048638131469488144,0.008201723918318748,-0.01583123579621315
1.9902479648590088,0.058175019919872284,0.10166323184967041,0.006294346414506435,-0.048638131469488144,0.008201723918318748,-0.01583123579621315
2.0102992057800293,0.058175019919872284,0.10166323184967041,0.00667582219466567,-0.04901960864663124,0.00858320016413927,-0.016212711110711098
2.030372381210327,0.05855649709701538,0.10128175467252731,0.007438773289322853,-0.04940108209848404,0.008201723918318748,-0.016212711110711098
2.05043625831604,0.05893797054886818,0.10128175467252731,0.0078202486038208,-0.049782559275627136,0.008201723918318748,-0.016212711110711098
2.070549726486206,0.059319447726011276,0.10128175467252731,0.008201723918318748,-0.050164032727479935,0.008201723918318748,-0.016212711110711098
2.0905535221099854,0.05970092490315437,0.10128175467252731,0.00858320016413927,-0.05092698708176613,0.008201723918318748,-0.016594186425209045
2.1106820106506348,0.06046387553215027,0.10051880776882172,0.008964675478637218,-0.05207141116261482,0.008201723918318748,-0.016975661739706993
2.1307380199432373,0.061226826161146164,0.10051880776882172,0.010109102353453636,-0.05245288833975792,0.008201723918318748,-0.01773861236870289
2.1508116722106934,0.061226826161146164,0.10051880776882172,0.010109102353453636,-0.05245288833975792,0.00858320016413927,-0.018120087683200836
2.1708648204803467,0.06160829961299896,0.10051880776882172,0.010872052982449532,-0.05245288833975792,0.00858320016413927,-0.018501564860343933
2.1909284591674805,0.06275273114442825,0.10051880776882172,0.01125352829694748,-0.05283436179161072,0.008201723918318748,-0.018501564860343933
2.210996150970459,0.06313420087099075,0.10051880776882172,0.01125352829694748,-0.05283436179161072,0.008201723918318748,-0.018501564860343933
2.231039524078369,0.06313420087099075,0.10013733059167862,0.01201647985726595,-0.053215838968753815,0.008201723918318748,-0.01888304017484188
2.251138687133789,0.06351567804813385,0.09975585341453552,0.012397955171763897,-0.05359731614589691,0.00858320016413927,-0.01926451548933983
2.2711901664733887,0.06427863240242004,0.09937438368797302,0.013160906732082367,-0.05397878959774971,0.00858320016413927,-0.01926451548933983
2.291253089904785,0.06542305648326874,0.09937438368797302,0.013160906732082367,-0.05436026677489281,0.008201723918318748,-0.01926451548933983
2.311370849609375,0.06542305648326874,0.09937438368797302,0.013923857361078262,-0.0555046908557415,0.008201723918318748,-0.01926451548933983
2.331425428390503,0.06542305648326874,0.09899290651082993,0.014686808921396732,-0.056267641484737396,0.00858320016413927,-0.020027466118335724
2.351510524749756,0.06580453366041183,0.09937438368797302,0.015449759550392628,-0.05664911866188049,0.008964675478637218,-0.020027466118335724
2.3715810775756836,0.06618601083755493,0.09937438368797302,0.015449759550392628,-0.05664911866188049,0.008964675478637218,-0.02040894143283367
2.3916568756103516,0.06694895774126053,0.09899290651082993,0.016212711110711098,-0.05703059583902359,0.008964675478637218,-0.02040894143283367
2.41174578666687,0.06733043491840363,0.09822995215654373,0.016594186425209045,-0.05741206929087639,0.00858320016413927,-0.02079041674733162
2.4317786693573,0.06733043491840363,0.09822995215654373,0.01735713705420494,-0.057793546468019485,0.008964675478637218,-0.021171892061829567
2.4518628120422363,0.06771191209554672,0.09822995215654373,0.01735713705420494,-0.05893797054886818,0.008964675478637218,-0.02231631986796856
2.471923828125,0.06847485899925232,0.09822995215654373,0.018501564860343933,-0.06008239835500717,0.00858320016413927,-0.022697795182466507
2.4919910430908203,0.06847485899925232,0.09822995215654373,0.018501564860343933,-0.06008239835500717,0.008964675478637218,-0.022697795182466507
2.512146472930908,0.06885633617639542,0.09822995215654373,0.01926451548933983,-0.06046387553215027,0.008964675478637218,-0.022697795182466507
2.532219886779785,0.06961929053068161,0.09746700525283813,0.019645990803837776,-0.06046387553215027,0.008964675478637218,-0.022697795182466507
2.5523569583892822,0.07000076025724411,0.09746700525283813,0.02040894143283367,-0.06084534898400307,0.008964675478637218,-0.022697795182466507
2.5723602771759033,0.07038223743438721,0.09746700525283813,0.02040894143283367,-0.061226826161146164,0.00858320016413927,-0.022697795182466507
2.592418670654297,0.0707637146115303,0.09746700525283813,0.021171892061829567,-0.06160829961299896,0.008964675478637218,-0.022697795182466507
2.6125218868255615,0.0711451917886734,0.09708552807569504,0.02193484455347061,-0.06237125024199486,0.008964675478637218,-0.023079270496964455
2.632578134536743,0.0715266615152359,0.09708552807569504,0.02231631986796856,-0.06351567804813385,0.008964675478637218,-0.023079270496964455
2.652632713317871,0.07267109304666519,0.09708552807569504,0.022697795182466507,-0.06389715522527695,0.00858320016413927,-0.023079270496964455
2.6728904247283936,0.07267109304666519,0.09708552807569504,0.023460745811462402,-0.06389715522527695,0.008964675478637218,-0.023079270496964455
2.692934989929199,0.07305257022380829,0.09670405089855194,0.02384222112596035,-0.06427863240242004,0.009346150793135166,-0.023460745811462402
2.71295428276062,0.07343403995037079,0.09632257372140884,0.024605173617601395,-0.06466010212898254,0.009346150793135166,-0.023460745811462402
2.7332935333251953,0.07343403995037079,0.09632257372140884,0.024986648932099342,-0.06504157930612564,0.009346150793135166,-0.023460745811462402
2.7533984184265137,0.07381551712751389,0.09632257372140884,0.02536812424659729,-0.06580453366041183,0.009346150793135166,-0.023460745811462402
2.7734968662261963,0.07457847148180008,0.09632257372140884,0.025749599561095238,-0.06733043491840363,0.009346150793135166,-0.02384222112596035
2.793557643890381,0.07534141838550568,0.09594109654426575,0.026512550190091133,-0.06771191209554672,0.009346150793135166,-0.02384222112596035
2.813734292984009,0.07572289556264877,0.09517814964056015,0.02689402550458908,-0.06771191209554672,0.009727626107633114,-0.024223696440458298
2.833756446838379,0.07572289556264877,0.09517814964056015,0.02727550081908703,-0.06809338182210922,0.010109102353453636,-0.024605173617601395
2.853804349899292,0.07572289556264877,0.09517814964056015,0.027656977996230125,-0.06847485899925232,0.010490577667951584,-0.02536812424659729
2.8739802837371826,0.07648584991693497,0.09517814964056015,0.027656977996230125,-0.06923781335353851,0.010109102353453636,-0.025749599561095238
2.894009828567505,0.07763027399778366,0.09517814964056015,0.02880140393972397,-0.07000076025724411,0.010109102353453636,-0.025749599561095238
2.9141414165496826,0.07763027399778366,0.09517814964056015,0.029182879254221916,-0.0711451917886734,0.010109102353453636,-0.025749599561095238
2.934133291244507,0.07763027399778366,0.09517814964056015,0.029564354568719864,-0.0711451917886734,0.010490577667951584,-0.026131074875593185
2.954221725463867,0.07801175117492676,0.09517814964056015,0.02994582988321781,-0.0711451917886734,0.01125352829694748,-0.026131074875593185
2.974290132522583,0.07877469807863235,0.09479667246341705,0.030708782374858856,-0.0715266615152359,0.010872052982449532,-0.026131074875593185
2.9943575859069824,0.07991912961006165,0.09441519528627396,0.031090257689356804,-0.071908138692379,0.010872052982449532,-0.026512550190091133
3.0150625705718994,0.07953765243291855,0.09403372555971146,0.03147173300385475,-0.071908138692379,0.010872052982449532,-0.026512550190091133
3.0351948738098145,0.07991912961006165,0.09403372555971146,0.03185320645570755,-0.0722896158695221,0.01125352829694748,-0.026512550190091133
3.055241823196411,0.08030059933662415,0.09403372555971146,0.03223468363285065,-0.07267109304666519,0.010872052982449532,-0.026512550190091133
3.075324535369873,0.08068207651376724,0.09403372555971146,0.03299763426184654,-0.07419699430465698,0.01125352829694748,-0.026512550190091133
3.095496654510498,0.08106355369091034,0.09327077120542526,0.03337911143898964,-0.07495994865894318,0.010872052982449532,-0.02689402550458908
3.1155526638031006,0.08144503086805344,0.09327077120542526,0.03376058489084244,-0.07534141838550568,0.010872052982449532,-0.02689402550458908
3.1355955600738525,0.08182650804519653,0.09327077120542526,0.034142062067985535,-0.07534141838550568,0.01125352829694748,-0.02689402550458908
3.155686140060425,0.08220797777175903,0.09327077120542526,0.03452353551983833,-0.07572289556264877,0.01125352829694748,-0.02727550081908703
3.1757614612579346,0.08297093212604523,0.09288929402828217,0.03528648987412453,-0.07572289556264877,0.01125352829694748,-0.027656977996230125
3.1958534717559814,0.08297093212604523,0.09288929402828217,0.03604944050312042,-0.07610437273979187,0.01125352829694748,-0.027656977996230125
3.215930223464966,0.08297093212604523,0.09288929402828217,0.03604944050312042,-0.07686731964349747,0.01125352829694748,-0.028038453310728073
3.2360329627990723,0.08373387902975082,0.09288929402828217,0.03681239113211632,-0.07763027399778366,0.01125352829694748,-0.028038453310728073
3.2560577392578125,0.08411535620689392,0.09212634712457657,0.037193864583969116,-0.07839322835206985,0.01125352829694748,-0.02880140393972397
3.2761480808258057,0.08449683338403702,0.09212634712457657,0.037193864583969116,-0.07877469807863235,0.01125352829694748,-0.02994582988321781
3.2962732315063477,0.08487831056118011,0.09212634712457657,0.03757534176111221,-0.07877469807863235,0.01125352829694748,-0.03032730519771576
3.3163726329803467,0.08525978773832321,0.09212634712457657,0.03833829239010811,-0.07915617525577545,0.01125352829694748,-0.03032730519771576
3.3365044593811035,0.08564125746488571,0.09212634712457657,0.038719769567251205,-0.07953765243291855,0.011635004542768002,-0.03032730519771576
3.35672664642334,0.08602273464202881,0.09212634712457657,0.039101243019104004,-0.07953765243291855,0.01125352829694748,-0.03032730519771576
3.3768463134765625,0.0871671661734581,0.09174486994743347,0.0394827201962471,-0.07991912961006165,0.010872052982449532,-0.03032730519771576
3.3968682289123535,0.0871671661734581,0.09136339277029037,0.0398641936480999,-0.08068207651376724,0.011635004542768002,-0.03032730519771576
3.4169347286224365,0.0875486359000206,0.09098191559314728,0.040245670825242996,-0.08182650804519653,0.011635004542768002,-0.03032730519771576
3.4369990825653076,0.0879301130771637,0.09098191559314728,0.040627144277095795,-0.08220797777175903,0.011635004542768002,-0.030708782374858856
3.457076072692871,0.0879301130771637,0.09098191559314728,0.04100862145423889,-0.08258945494890213,0.011635004542768002,-0.030708782374858856
3.477123260498047,0.0879301130771637,0.09098191559314728,0.04139009863138199,-0.08297093212604523,0.011635004542768002,-0.030708782374858856
3.49721360206604,0.08869306743144989,0.09098191559314728,0.04177157208323479,-0.08297093212604523,0.01125352829694748,-0.030708782374858856
3.5173377990722656,0.08907453715801239,0.09060044586658478,0.042153049260377884,-0.08335240930318832,0.01125352829694748,-0.030708782374858856
3.537440538406372,0.08945601433515549,0.09021896868944168,0.042153049260377884,-0.08373387902975082,0.01125352829694748,-0.031090257689356804
3.557607412338257,0.08983749151229858,0.09021896868944168,0.04291599988937378,-0.08449683338403702,0.011635004542768002,-0.031090257689356804
3.57759952545166,0.09021896868944168,0.09021896868944168,0.043678950518369675,-0.08525978773832321,0.01201647985726595,-0.031090257689356804
3.5976603031158447,0.09021896868944168,0.09021896868944168,0.04406042397022247,-0.0864042118191719,0.01201647985726595,-0.03147173300385475
3.617727518081665,0.09021896868944168,0.09021896868944168,0.04406042397022247,-0.0864042118191719,0.011635004542768002,-0.03147173300385475
3.637805223464966,0.09098191559314728,0.08983749151229858,0.04444190114736557,-0.086785688996315,0.011635004542768002,-0.03147173300385475
3.657973289489746,0.09174486994743347,0.08983749151229858,0.04444190114736557,-0.086785688996315,0.01125352829694748,-0.03147173300385475
3.678030252456665,0.09212634712457657,0.08983749151229858,0.04444190114736557,-0.0871671661734581,0.011635004542768002,-0.03185320645570755
3.6980907917022705,0.09212634712457657,0.08983749151229858,0.04558632895350456,-0.0875486359000206,0.01201647985726595,-0.03185320645570755
3.7182230949401855,0.09212634712457657,0.08983749151229858,0.04634927958250046,-0.0883115902543068,0.012397955171763897,-0.032616160809993744
3.7382922172546387,0.09250781685113907,0.08907453715801239,0.046730753034353256,-0.08945601433515549,0.01201647985726595,-0.03337911143898964
3.7584214210510254,0.09327077120542526,0.08907453715801239,0.04711223021149635,-0.08983749151229858,0.011635004542768002,-0.03337911143898964
3.778390884399414,0.09403372555971146,0.08907453715801239,0.04749370738863945,-0.08983749151229858,0.01125352829694748,-0.03337911143898964
3.7985215187072754,0.09403372555971146,0.08869306743144989,0.04749370738863945,-0.09021896868944168,0.011635004542768002,-0.03337911143898964
3.8185596466064453,0.09403372555971146,0.0883115902543068,0.048256658017635345,-0.09060044586658478,0.01201647985726595,-0.03337911143898964
3.838684558868408,0.09441519528627396,0.0883115902543068,0.048256658017635345,-0.09060044586658478,0.012779430486261845,-0.03376058489084244
3.8587076663970947,0.09441519528627396,0.0883115902543068,0.048638131469488144,-0.09136339277029037,0.012397955171763897,-0.03376058489084244
3.8788509368896484,0.09517814964056015,0.0879301130771637,0.04901960864663124,-0.09174486994743347,0.011635004542768002,-0.03376058489084244
3.8989598751068115,0.09517814964056015,0.0879301130771637,0.04940108209848404,-0.09250781685113907,0.011635004542768002,-0.03376058489084244
3.9190335273742676,0.09555962681770325,0.0879301130771637,0.050164032727479935,-0.09403372555971146,0.011635004542768002,-0.03376058489084244
3.939099073410034,0.09594109654426575,0.0879301130771637,0.05054550990462303,-0.09441519528627396,0.01201647985726595,-0.03376058489084244
3.9591658115386963,0.09632257372140884,0.0879301130771637,0.05130846053361893,-0.09441519528627396,0.012397955171763897,-0.03376058489084244
3.9793014526367188,0.09632257372140884,0.0879301130771637,0.051689937710762024,-0.09441519528627396,0.012397955171763897,-0.034142062067985535
3.999417543411255,0.09708552807569504,0.0871671661734581,0.051689937710762024,-0.09517814964056015,0.01201647985726595,-0.034142062067985535
4.019546270370483,0.09746700525283813,0.086785688996315,0.05245288833975792,-0.09555962681770325,0.01201647985726595,-0.034142062067985535
4.039695739746094,0.09746700525283813,0.086785688996315,0.05245288833975792,-0.09708552807569504,0.011635004542768002,-0.034142062067985535
4.059763431549072,0.09784847497940063,0.086785688996315,0.05283436179161072,-0.09746700525283813,0.01201647985726595,-0.034142062067985535
4.079817533493042,0.09861142933368683,0.086785688996315,0.05359731614589691,-0.09746700525283813,0.012397955171763897,-0.03452353551983833
4.099924087524414,0.09937438368797302,0.0864042118191719,0.05359731614589691,-0.09784847497940063,0.01201647985726595,-0.03452353551983833
4.120002269744873,0.09975585341453552,0.08602273464202881,0.05397878959774971,-0.09784847497940063,0.012397955171763897,-0.03452353551983833
4.140030860900879,0.09975585341453552,0.08602273464202881,0.05436026677489281,-0.09784847497940063,0.012397955171763897,-0.03452353551983833
4.160110712051392,0.10013733059167862,0.08602273464202881,0.05436026677489281,-0.09822995215654373,0.012397955171763897,-0.03490501269698143
4.180155515670776,0.10051880776882172,0.08564125746488571,0.054741740226745605,-0.09822995215654373,0.01201647985726595,-0.03490501269698143
4.200241804122925,0.10128175467252731,0.08602273464202881,0.0555046908557415,-0.09861142933368683,0.011635004542768002,-0.03490501269698143
4.220457553863525,0.10128175467252731,0.08564125746488571,0.0558861680328846,-0.09937438368797302,0.012397955171763897,-0.03528648987412453
4.240592956542969,0.10128175467252731,0.08564125746488571,0.05664911866188049,-0.10013733059167862,0.012397955171763897,-0.03528648987412453
4.260714054107666,0.10166323184967041,0.08525978773832321,0.05664911866188049,-0.10166323184967041,0.012779430486261845,-0.035667963325977325
4.280719757080078,0.10166323184967041,0.08487831056118011,0.05664911866188049,-0.10166323184967041,0.012397955171763897,-0.03604944050312042
4.30078387260437,0.10204470902681351,0.08487831056118011,0.05703059583902359,-0.10204470902681351,0.012397955171763897,-0.03643091395497322
4.320963621139526,0.1024261862039566,0.08487831056118011,0.057793546468019485,-0.10204470902681351,0.01201647985726595,-0.03643091395497322
4.34103798866272,0.1024261862039566,0.08449683338403702,0.058175019919872284,-0.1028076633810997,0.01201647985726595,-0.03681239113211632
4.361103296279907,0.1024261862039566,0.08487831056118011,0.05855649709701538,-0.1035706102848053,0.012397955171763897,-0.037193864583969116
4.381127834320068,0.1031891331076622,0.08449683338403702,0.05893797054886818,-0.10471503436565399,0.012397955171763897,-0.037193864583969116
4.401220321655273,0.1039520874619484,0.08411535620689392,0.05893797054886818,-0.10471503436565399,0.012397955171763897,-0.03757534176111221
4.421295642852783,0.10433356463909149,0.08373387902975082,0.05893797054886818,-0.10509651154279709,0.01201647985726595,-0.03757534176111221
4.441341400146484,0.10433356463909149,0.08373387902975082,0.05893797054886818,-0.10509651154279709,0.012397955171763897,-0.03757534176111221
4.461467981338501,0.10433356463909149,0.08373387902975082,0.05970092490315437,-0.10547798871994019,0.012397955171763897,-0.03757534176111221
4.481555461883545,0.10471503436565399,0.08373387902975082,0.06046387553215027,-0.10547798871994019,0.012397955171763897,-0.03795681521296501
4.5016374588012695,0.10471503436565399,0.08373387902975082,0.06084534898400307,-0.10547798871994019,0.012397955171763897,-0.03795681521296501
4.521680593490601,0.10547798871994019,0.08373387902975082,0.061226826161146164,-0.10585946589708328,0.01201647985726595,-0.03795681521296501
4.541757345199585,0.10662241280078888,0.08335240930318832,0.06198977679014206,-0.10624094307422638,0.01201647985726595,-0.03795681521296501
4.561846733093262,0.10662241280078888,0.08258945494890213,0.06198977679014206,-0.10662241280078888,0.012397955171763897,-0.03833829239010811
4.581903457641602,0.10662241280078888,0.08258945494890213,0.06275273114442825,-0.10738536715507507,0.012779430486261845,-0.03833829239010811
4.601949691772461,0.10662241280078888,0.08258945494890213,0.06275273114442825,-0.10814831405878067,0.013160906732082367,-0.03833829239010811
4.622032165527344,0.10700388997793198,0.08258945494890213,0.06313420087099075,-0.10852979123592377,0.013160906732082367,-0.038719769567251205
4.64212441444397,0.10738536715507507,0.08258945494890213,0.06351567804813385,-0.10891126841306686,0.012779430486261845,-0.038719769567251205
4.662159204483032,0.10852979123592377,0.08220797777175903,0.06389715522527695,-0.10929274559020996,0.01201647985726595,-0.038719769567251205
4.682247161865234,0.10852979123592377,0.08182650804519653,0.06427863240242004,-0.10929274559020996,0.012397955171763897,-0.038719769567251205
4.70231032371521,0.10852979123592377,0.08144503086805344,0.06504157930612564,-0.10967422276735306,0.012397955171763897,-0.039101243019104004
4.722378730773926,0.10891126841306686,0.08144503086805344,0.06504157930612564,-0.11081864684820175,0.013542382046580315,-0.0394827201962471
4.742432594299316,0.10891126841306686,0.08144503086805344,0.06542305648326874,-0.11196307092905045,0.013923857361078262,-0.0398641936480999
4.762510538101196,0.10891126841306686,0.08106355369091034,0.06580453366041183,-0.11234454810619354,0.013923857361078262,-0.040245670825242996
4.782576560974121,0.10929274559020996,0.08068207651376724,0.06618601083755493,-0.11234454810619354,0.013542382046580315,-0.040627144277095795
4.802624225616455,0.10967422276735306,0.08068207651376724,0.06656748056411743,-0.11272602528333664,0.013542382046580315,-0.040627144277095795
4.822795629501343,0.11005569249391556,0.08068207651376724,0.06694895774126053,-0.11310750246047974,0.013542382046580315,-0.040627144277095795
4.842972278594971,0.11005569249391556,0.08068207651376724,0.06733043491840363,-0.11348897218704224,0.013542382046580315,-0.04100862145423889
4.862921714782715,0.11043716967105865,0.08068207651376724,0.06809338182210922,-0.11387044936418533,0.013923857361078262,-0.04100862145423889
4.883164644241333,0.11081864684820175,0.08068207651376724,0.06809338182210922,-0.11425192654132843,0.013923857361078262,-0.04100862145423889
4.903241872787476,0.11120012402534485,0.08030059933662415,0.06885633617639542,-0.11501488089561462,0.013923857361078262,-0.04100862145423889
4.923527717590332,0.11158160120248795,0.08030059933662415,0.06885633617639542,-0.11615930497646332,0.013923857361078262,-0.04139009863138199
4.9433913230896,0.11196307092905045,0.07953765243291855,0.06923781335353851,-0.11615930497646332,0.013542382046580315,-0.04139009863138199
4.963517665863037,0.11196307092905045,0.07953765243291855,0.06923781335353851,-0.11654078215360641,0.013923857361078262,-0.04139009863138199
4.983601331710815,0.11234454810619354,0.07953765243291855,0.06961929053068161,-0.11654078215360641,0.01430533267557621,-0.04139009863138199
5.003767013549805,0.11272602528333664,0.07953765243291855,0.07038223743438721,-0.11692225188016891,0.01430533267557621,-0.04139009863138199
5.0238037109375,0.11310750246047974,0.07953765243291855,0.07038223743438721,-0.11692225188016891,0.01430533267557621,-0.04139009863138199
5.043976783752441,0.11348897218704224,0.07915617525577545,0.0707637146115303,-0.11768520623445511,0.014686808921396732,-0.04139009863138199
5.064001083374023,0.11387044936418533,0.07877469807863235,0.0715266615152359,-0.1188296303153038,0.014686808921396732,-0.04139009863138199
5.084041357040405,0.11387044936418533,0.07839322835206985,0.0715266615152359,-0.1199740618467331,0.01506828423589468,-0.04177157208323479
5.104183197021484,0.11425192654132843,0.07839322835206985,0.0715266615152359,-0.1203555315732956,0.01506828423589468,-0.04177157208323479
5.124317407608032,0.11463340371847153,0.07839322835206985,0.0722896158695221,-0.12073700875043869,0.01506828423589468,-0.04177157208323479
5.144360542297363,0.11501488089561462,0.07839322835206985,0.07267109304666519,-0.12073700875043869,0.01506828423589468,-0.04177157208323479
5.164432048797607,0.11577782779932022,0.07839322835206985,0.07305257022380829,-0.12073700875043869,0.01506828423589468,-0.04177157208323479
5.184505224227905,0.11615930497646332,0.07801175117492676,0.07343403995037079,-0.12149996310472488,0.015449759550392628,-0.04177157208323479
5.204616069793701,0.11615930497646332,0.07763027399778366,0.07381551712751389,-0.12188144028186798,0.015449759550392628,-0.042153049260377884
5.224694728851318,0.11615930497646332,0.07763027399778366,0.07381551712751389,-0.12340734153985977,0.015449759550392628,-0.042153049260377884
5.2447669506073,0.11654078215360641,0.07763027399778366,0.07381551712751389,-0.12378881871700287,0.015449759550392628,-0.042153049260377884
5.264828205108643,0.11692225188016891,0.07724879682064056,0.07457847148180008,-0.12378881871700287,0.01506828423589468,-0.04253452271223068
5.284952878952026,0.11730372905731201,0.07724879682064056,0.07534141838550568,-0.12417028844356537,0.01506828423589468,-0.04253452271223068
5.305030822753906,0.11730372905731201,0.07724879682064056,0.07534141838550568,-0.12417028844356537,0.015449759550392628,-0.04253452271223068
5.325628280639648,0.11730372905731201,0.07648584991693497,0.07534141838550568,-0.12455176562070847,0.015449759550392628,-0.04253452271223068
5.345806837081909,0.1180666834115982,0.07648584991693497,0.07572289556264877,-0.12455176562070847,0.015449759550392628,-0.04291599988937378
5.365858793258667,0.1184481605887413,0.07648584991693497,0.07572289556264877,-0.12493324279785156,0.015449759550392628,-0.04291599988937378
5.385906219482422,0.1188296303153038,0.07648584991693497,0.07610437273979187,-0.12569619715213776,0.01506828423589468,-0.04329747334122658
5.406041860580444,0.1192111074924469,0.07610437273979187,0.07686731964349747,-0.12645913660526276,0.015449759550392628,-0.043678950518369675
5.426126480102539,0.1192111074924469,0.07610437273979187,0.07763027399778366,-0.12760357558727264,0.015449759550392628,-0.04482337832450867
5.446197509765625,0.1192111074924469,0.07572289556264877,0.07763027399778366,-0.12798504531383514,0.015449759550392628,-0.045204851776361465
5.466290473937988,0.1192111074924469,0.07572289556264877,0.07763027399778366,-0.12798504531383514,0.015449759550392628,-0.045204851776361465
5.486351251602173,0.1199740618467331,0.07534141838550568,0.07763027399778366,-0.12836651504039764,0.015449759550392628,-0.045204851776361465
5.506424427032471,0.12073700875043869,0.07534141838550568,0.07763027399778366,-0.12874799966812134,0.01506828423589468,-0.045204851776361465
5.526492357254028,0.12111848592758179,0.07534141838550568,0.07877469807863235,-0.12874799966812134,0.01506828423589468,-0.045204851776361465
5.546549081802368,0.12111848592758179,0.07534141838550568,0.07915617525577545,-0.12912946939468384,0.015449759550392628,-0.04558632895350456
5.56662654876709,0.12111848592758179,0.07534141838550568,0.07953765243291855,-0.13027389347553253,0.01583123579621315,-0.04558632895350456
5.586731910705566,0.12149996310472488,0.07534141838550568,0.07991912961006165,-0.13141833245754242,0.01583123579621315,-0.04596780240535736
5.606846809387207,0.12149996310472488,0.07495994865894318,0.07991912961006165,-0.13141833245754242,0.01583123579621315,-0.04596780240535736
5.626891136169434,0.12149996310472488,0.07419699430465698,0.08030059933662415,-0.13141833245754242,0.015449759550392628,-0.04596780240535736
5.646991729736328,0.12264438718557358,0.07419699430465698,0.08068207651376724,-0.13179980218410492,0.015449759550392628,-0.04596780240535736
5.667067050933838,0.12340734153985977,0.07381551712751389,0.08106355369091034,-0.13179980218410492,0.015449759550392628,-0.04596780240535736
5.687166452407837,0.12340734153985977,0.07381551712751389,0.08144503086805344,-0.13179980218410492,0.01583123579621315,-0.04596780240535736
5.707187175750732,0.12340734153985977,0.07343403995037079,0.08182650804519653,-0.13218127191066742,0.016212711110711098,-0.046730753034353256
5.727277040481567,0.12340734153985977,0.07343403995037079,0.08182650804519653,-0.1325627565383911,0.016212711110711098,-0.048256658017635345
5.747402667999268,0.12340734153985977,0.07343403995037079,0.08220797777175903,-0.1333257108926773,0.01583123579621315,-0.048638131469488144
5.767453908920288,0.12340734153985977,0.07343403995037079,0.08258945494890213,-0.1337071806192398,0.015449759550392628,-0.048638131469488144
5.787529945373535,0.12417028844356537,0.07343403995037079,0.08335240930318832,-0.134470134973526,0.015449759550392628,-0.048638131469488144
5.807584762573242,0.12455176562070847,0.07343403995037079,0.08373387902975082,-0.1348516047000885,0.015449759550392628,-0.048638131469488144
5.827713966369629,0.12455176562070847,0.07343403995037079,0.08411535620689392,-0.135233074426651,0.01583123579621315,-0.04901960864663124
5.847915887832642,0.12531471252441406,0.07305257022380829,0.08411535620689392,-0.1356145590543747,0.01583123579621315,-0.04901960864663124
5.867985963821411,0.12531471252441406,0.07267109304666519,0.08487831056118011,-0.1356145590543747,0.016212711110711098,-0.04901960864663124
5.88803768157959,0.12569619715213776,0.0722896158695221,0.08487831056118011,-0.1363775134086609,0.01583123579621315,-0.04901960864663124
5.908126354217529,0.12569619715213776,0.0722896158695221,0.08525978773832321,-0.1363775134086609,0.015449759550392628,-0.04901960864663124
5.928306579589844,0.12607766687870026,0.0722896158695221,0.08525978773832321,-0.1367589831352234,0.015449759550392628,-0.04901960864663124
5.948391914367676,0.12645913660526276,0.071908138692379,0.08564125746488571,-0.13828489184379578,0.01583123579621315,-0.04901960864663124
5.9684929847717285,0.12645913660526276,0.071908138692379,0.08602273464202881,-0.13904783129692078,0.01583123579621315,-0.04901960864663124
5.988537311553955,0.12684062123298645,0.0715266615152359,0.08602273464202881,-0.13904783129692078,0.016212711110711098,-0.04940108209848404
6.008641958236694,0.12722209095954895,0.0715266615152359,0.086785688996315,-0.13942931592464447,0.01583123579621315,-0.04940108209848404
6.028703689575195,0.12760357558727264,0.0711451917886734,0.0871671661734581,-0.13942931592464447,0.01583123579621315,-0.04940108209848404
6.0487706661224365,0.12760357558727264,0.0711451917886734,0.0871671661734581,-0.13981078565120697,0.015449759550392628,-0.04940108209848404
6.068852424621582,0.12760357558727264,0.0711451917886734,0.0875486359000206,-0.14019227027893066,0.01583123579621315,-0.04940108209848404
6.089050054550171,0.12836651504039764,0.0711451917886734,0.0879301130771637,-0.14095520973205566,0.01583123579621315,-0.04940108209848404
6.109172582626343,0.12874799966812134,0.0711451917886734,0.0879301130771637,-0.14171816408634186,0.01583123579621315,-0.04940108209848404
6.129303216934204,0.12874799966812134,0.0711451917886734,0.0883115902543068,-0.14248111844062805,0.01583123579621315,-0.049782559275627136
6.1495866775512695,0.12912946939468384,0.0707637146115303,0.0883115902543068,-0.14248111844062805,0.01583123579621315,-0.049782559275627136
6.170389175415039,0.12951095402240753,0.07038223743438721,0.08869306743144989,-0.14286258816719055,0.01583123579621315,-0.049782559275627136
6.190460920333862,0.12989242374897003,0.07000076025724411,0.08907453715801239,-0.14286258816719055,0.01583123579621315,-0.049782559275627136
6.210528135299683,0.13065537810325623,0.07000076025724411,0.08945601433515549,-0.14324407279491425,0.015449759550392628,-0.050164032727479935
6.2305803298950195,0.13065537810325623,0.07000076025724411,0.08945601433515549,-0.14324407279491425,0.01583123579621315,-0.050164032727479935
6.250754356384277,0.13065537810325623,0.06961929053068161,0.09021896868944168,-0.14400701224803925,0.01583123579621315,-0.050164032727479935
6.2708728313446045,0.13103684782981873,0.06923781335353851,0.09021896868944168,-0.14476996660232544,0.01583123579621315,-0.05054550990462303
6.29099178314209,0.13103684782981873,0.06923781335353851,0.09021896868944168,-0.14629587531089783,0.01583123579621315,-0.05054550990462303
6.3111021518707275,0.13103684782981873,0.06923781335353851,0.09021896868944168,-0.14667734503746033,0.01583123579621315,-0.05092698708176613
6.331141471862793,0.13141833245754242,0.06923781335353851,0.09098191559314728,-0.14667734503746033,0.01583123579621315,-0.05130846053361893
6.3511881828308105,0.13179980218410492,0.06885633617639542,0.09136339277029037,-0.14705882966518402,0.01583123579621315,-0.051689937710762024
6.371232032775879,0.13179980218410492,0.06885633617639542,0.09174486994743347,-0.14744029939174652,0.01583123579621315,-0.05207141116261482
6.391362428665161,0.13179980218410492,0.06885633617639542,0.09212634712457657,-0.14782176911830902,0.01583123579621315,-0.05207141116261482
6.411437034606934,0.1329442262649536,0.06847485899925232,0.09212634712457657,-0.14858472347259521,0.01583123579621315,-0.05245288833975792
6.431537628173828,0.1329442262649536,0.06809338182210922,0.09250781685113907,-0.1497291475534439,0.01583123579621315,-0.05207141116261482
6.4516003131866455,0.1329442262649536,0.06809338182210922,0.09250781685113907,-0.1501106321811676,0.01583123579621315,-0.05245288833975792
6.471650123596191,0.1333257108926773,0.06809338182210922,0.09250781685113907,-0.1501106321811676,0.01583123579621315,-0.05245288833975792
6.491738796234131,0.1337071806192398,0.06809338182210922,0.09327077120542526,-0.1504921019077301,0.01583123579621315,-0.05245288833975792
6.511905670166016,0.1337071806192398,0.06809338182210922,0.09403372555971146,-0.1504921019077301,0.01583123579621315,-0.05245288833975792
6.53188943862915,0.1337071806192398,0.06809338182210922,0.09441519528627396,-0.1508735716342926,0.01583123579621315,-0.05245288833975792
6.55202579498291,0.1340886503458023,0.06771191209554672,0.09441519528627396,-0.1508735716342926,0.01583123579621315,-0.05245288833975792
6.572116851806641,0.134470134973526,0.06694895774126053,0.09479667246341705,-0.1512550562620163,0.01583123579621315,-0.05283436179161072
6.592182874679565,0.1348516047000885,0.06656748056411743,0.09517814964056015,-0.1520180106163025,0.016212711110711098,-0.05283436179161072
6.612225770950317,0.1356145590543747,0.06618601083755493,0.09555962681770325,-0.15354390442371368,0.01583123579621315,-0.05283436179161072
6.632428169250488,0.1359960287809372,0.06618601083755493,0.09555962681770325,-0.15392538905143738,0.016212711110711098,-0.053215838968753815
6.652508020401001,0.1359960287809372,0.06618601083755493,0.09632257372140884,-0.15430685877799988,0.016212711110711098,-0.053215838968753815
6.6725757122039795,0.1359960287809372,0.06618601083755493,0.09632257372140884,-0.15430685877799988,0.016212711110711098,-0.053215838968753815
6.692622184753418,0.1359960287809372,0.06618601083755493,0.09670405089855194,-0.15468832850456238,0.01583123579621315,-0.053215838968753815
6.713006496429443,0.1367589831352234,0.06580453366041183,0.09670405089855194,-0.15468832850456238,0.01583123579621315,-0.053215838968753815
6.7330992221832275,0.13790340721607208,0.06580453366041183,0.09746700525283813,-0.15545128285884857,0.01583123579621315,-0.053215838968753815
6.753241300582886,0.13790340721607208,0.06580453366041183,0.09746700525283813,-0.15583276748657227,0.01583123579621315,-0.053215838968753815
6.773233652114868,0.13790340721607208,0.06580453366041183,0.09784847497940063,-0.15697719156742096,0.01583123579621315,-0.053215838968753815
6.793869256973267,0.13790340721607208,0.06504157930612564,0.09822995215654373,-0.15774014592170715,0.016594186425209045,-0.05397878959774971
6.813939809799194,0.13790340721607208,0.06466010212898254,0.09861142933368683,-0.15774014592170715,0.016594186425209045,-0.05397878959774971
6.834014415740967,0.13790340721607208,0.06504157930612564,0.09861142933368683,-0.15774014592170715,0.016212711110711098,-0.05397878959774971
6.8540544509887695,0.13790340721607208,0.06504157930612564,0.09937438368797302,-0.15812161564826965,0.015449759550392628,-0.05397878959774971
6.8742029666900635,0.13828489184379578,0.06466010212898254,0.09975585341453552,-0.15812161564826965,0.01583123579621315,-0.05436026677489281
6.894275426864624,0.13904783129692078,0.06466010212898254,0.10013733059167862,-0.15812161564826965,0.01583123579621315,-0.054741740226745605
6.914359092712402,0.13904783129692078,0.06427863240242004,0.10051880776882172,-0.15850308537483215,0.016212711110711098,-0.0558861680328846
6.9344165325164795,0.13942931592464447,0.06389715522527695,0.10051880776882172,-0.15888457000255585,0.016212711110711098,-0.056267641484737396
6.954540491104126,0.14019227027893066,0.06389715522527695,0.10090028494596481,-0.15926603972911835,0.016212711110711098,-0.056267641484737396
6.974639177322388,0.14019227027893066,0.06389715522527695,0.10090028494596481,-0.15964750945568085,0.016212711110711098,-0.056267641484737396
6.994719982147217,0.14019227027893066,0.06389715522527695,0.10166323184967041,-0.16079194843769073,0.01583123579621315,-0.056267641484737396
7.014831304550171,0.14019227027893066,0.06351567804813385,0.10204470902681351,-0.16117341816425323,0.016212711110711098,-0.05664911866188049
7.034871578216553,0.14095520973205566,0.06313420087099075,0.1028076633810997,-0.16117341816425323,0.01583123579621315,-0.05664911866188049
7.054949045181274,0.14095520973205566,0.06313420087099075,0.1028076633810997,-0.16155488789081573,0.016212711110711098,-0.05664911866188049
7.074981212615967,0.14095520973205566,0.06313420087099075,0.1024261862039566,-0.16193637251853943,0.01583123579621315,-0.05664911866188049
7.095081806182861,0.14133669435977936,0.06275273114442825,0.1028076633810997,-0.16231784224510193,0.016212711110711098,-0.05664911866188049
7.115187644958496,0.14171816408634186,0.06275273114442825,0.1031891331076622,-0.16269932687282562,0.01583123579621315,-0.05664911866188049
7.135282516479492,0.14209964871406555,0.06275273114442825,0.1039520874619484,-0.16308079659938812,0.01583123579621315,-0.05664911866188049
7.155350923538208,0.14209964871406555,0.06275273114442825,0.10433356463909149,-0.16346226632595062,0.01583123579621315,-0.05664911866188049
7.175431728363037,0.14248111844062805,0.06198977679014206,0.10471503436565399,-0.164988175034523,0.01583123579621315,-0.05664911866188049
7.195489883422852,0.14324407279491425,0.06160829961299896,0.10471503436565399,-0.1653696447610855,0.01583123579621315,-0.05703059583902359
7.215577125549316,0.14324407279491425,0.06160829961299896,0.10471503436565399,-0.1653696447610855,0.01583123579621315,-0.05703059583902359
7.235734939575195,0.14324407279491425,0.06160829961299896,0.10471503436565399,-0.1657511293888092,0.01583123579621315,-0.05703059583902359
7.2557454109191895,0.14362554252147675,0.061226826161146164,0.10509651154279709,-0.1657511293888092,0.01583123579621315,-0.05703059583902359
7.275808095932007,0.14362554252147675,0.06084534898400307,0.10585946589708328,-0.1657511293888092,0.01583123579621315,-0.05703059583902359
7.295860528945923,0.14438849687576294,0.06084534898400307,0.10585946589708328,-0.1661325991153717,0.01583123579621315,-0.05703059583902359
7.316009044647217,0.14515145123004913,0.06084534898400307,0.10624094307422638,-0.1668955534696579,0.015449759550392628,-0.05703059583902359
7.336112022399902,0.14515145123004913,0.06084534898400307,0.10662241280078888,-0.1680399775505066,0.01583123579621315,-0.05703059583902359
7.356192588806152,0.14515145123004913,0.06084534898400307,0.10662241280078888,-0.16880293190479279,0.01583123579621315,-0.05741206929087639
7.376270771026611,0.14515145123004913,0.06084534898400307,0.10662241280078888,-0.16880293190479279,0.01583123579621315,-0.057793546468019485
7.3964433670043945,0.14553292095661163,0.06046387553215027,0.10700388997793198,-0.16918440163135529,0.01583123579621315,-0.057793546468019485
7.41643762588501,0.14553292095661163,0.06008239835500717,0.10700388997793198,-0.16918440163135529,0.01583123579621315,-0.057793546468019485
7.4365234375,0.14553292095661163,0.05970092490315437,0.10776684433221817,-0.16956588625907898,0.015449759550392628,-0.057793546468019485
7.456616640090942,0.14591439068317413,0.05893797054886818,0.10814831405878067,-0.16994735598564148,0.015449759550392628,-0.058175019919872284
7.4767005443573,0.14629587531089783,0.05893797054886818,0.10891126841306686,-0.17032882571220398,0.015449759550392628,-0.058175019919872284
7.496808290481567,0.14629587531089783,0.05893797054886818,0.10891126841306686,-0.17109178006649017,0.015449759550392628,-0.058175019919872284
7.5168678760528564,0.14629587531089783,0.05893797054886818,0.10891126841306686,-0.17299915850162506,0.01583123579621315,-0.05855649709701538
7.537024974822998,0.14667734503746033,0.05893797054886818,0.10891126841306686,-0.17299915850162506,0.01583123579621315,-0.05970092490315437
7.557093858718872,0.14744029939174652,0.05893797054886818,0.10967422276735306,-0.17299915850162506,0.015449759550392628,-0.059319447726011276
7.577300786972046,0.14744029939174652,0.05893797054886818,0.11005569249391556,-0.17338064312934875,0.01583123579621315,-0.05970092490315437
7.597268581390381,0.14782176911830902,0.05893797054886818,0.11005569249391556,-0.17338064312934875,0.01583123579621315,-0.05970092490315437
7.617379903793335,0.14820325374603271,0.05893797054886818,0.11081864684820175,-0.17376211285591125,0.015449759550392628,-0.05970092490315437
7.6374335289001465,0.14820325374603271,0.05855649709701538,0.11081864684820175,-0.17452506721019745,0.01583123579621315,-0.05970092490315437
7.657531499862671,0.14820325374603271,0.058175019919872284,0.11081864684820175,-0.17566949129104614,0.01583123579621315,-0.05970092490315437
7.677664041519165,0.14820325374603271,0.057793546468019485,0.11158160120248795,-0.17643244564533234,0.01583123579621315,-0.06008239835500717
7.697711706161499,0.14858472347259521,0.05741206929087639,0.11196307092905045,-0.17643244564533234,0.01583123579621315,-0.06008239835500717
7.7177979946136475,0.1489662081003189,0.057793546468019485,0.11234454810619354,-0.17643244564533234,0.015449759550392628,-0.06008239835500717
7.7378246784210205,0.1501106321811676,0.057793546468019485,0.11234454810619354,-0.17643244564533234,0.015449759550392628,-0.06008239835500717
7.757934331893921,0.1504921019077301,0.05741206929087639,0.11272602528333664,-0.17681391537189484,0.015449759550392628,-0.06008239835500717
7.77810525894165,0.1504921019077301,0.05703059583902359,0.11310750246047974,-0.17719538509845734,0.01583123579621315,-0.06008239835500717
7.798116445541382,0.1504921019077301,0.05664911866188049,0.11310750246047974,-0.17757686972618103,0.01583123579621315,-0.06008239835500717
7.8182384967803955,0.1504921019077301,0.05664911866188049,0.11387044936418533,-0.17757686972618103,0.01583123579621315,-0.06008239835500717
7.838315010070801,0.1504921019077301,0.05664911866188049,0.11425192654132843,-0.17833982408046722,0.015449759550392628,-0.06008239835500717
7.858487367630005,0.1508735716342926,0.05664911866188049,0.11425192654132843,-0.17948424816131592,0.015449759550392628,-0.06008239835500717
7.878568649291992,0.1516365259885788,0.05664911866188049,0.11463340371847153,-0.1802472025156021,0.01506828423589468,-0.06008239835500717
7.898639440536499,0.152399480342865,0.0558861680328846,0.11501488089561462,-0.1802472025156021,0.015449759550392628,-0.06046387553215027
7.918873071670532,0.152399480342865,0.0555046908557415,0.11501488089561462,-0.1802472025156021,0.01583123579621315,-0.06046387553215027
7.938817977905273,0.152399480342865,0.0555046908557415,0.11539635062217712,-0.1806286722421646,0.01583123579621315,-0.06046387553215027
7.958850622177124,0.152399480342865,0.0555046908557415,0.11615930497646332,-0.1810101419687271,0.01583123579621315,-0.06046387553215027
7.97893500328064,0.152399480342865,0.0555046908557415,0.11654078215360641,-0.1813916265964508,0.015449759550392628,-0.06046387553215027
7.999002933502197,0.1527809500694275,0.0555046908557415,0.11692225188016891,-0.1817730963230133,0.01506828423589468,-0.06046387553215027
8.019101619720459,0.1527809500694275,0.0551232174038887,0.11692225188016891,-0.1825360506772995,0.01506828423589468,-0.06046387553215027
8.039180755615234,0.15316243469715118,0.054741740226745605,0.11692225188016891,-0.1836804747581482,0.015449759550392628,-0.06046387553215027
8.059312343597412,0.15354390442371368,0.05436026677489281,0.11692225188016891,-0.1836804747581482,0.015449759550392628,-0.06084534898400307
8.079422950744629,0.15392538905143738,0.05436026677489281,0.11730372905731201,-0.1840619444847107,0.01583123579621315,-0.06084534898400307
8.099466323852539,0.15430685877799988,0.05397878959774971,0.11768520623445511,-0.1844434291124344,0.015449759550392628,-0.06084534898400307
8.119528532028198,0.15468832850456238,0.05359731614589691,0.1184481605887413,-0.1844434291124344,0.015449759550392628,-0.06084534898400307
8.139633655548096,0.15468832850456238,0.05359731614589691,0.1188296303153038,-0.1848248988389969,0.015449759550392628,-0.06084534898400307
8.159652471542358,0.15468832850456238,0.05359731614589691,0.1188296303153038,-0.1848248988389969,0.015449759550392628,-0.06084534898400307
8.17970085144043,0.15506981313228607,0.05359731614589691,0.1192111074924469,-0.18520638346672058,0.015449759550392628,-0.06084534898400307
8.199806451797485,0.15583276748657227,0.05359731614589691,0.1192111074924469,-0.18558785319328308,0.015449759550392628,-0.06084534898400307
8.219926595687866,0.15583276748657227,0.05359731614589691,0.1192111074924469,-0.18635080754756927,0.015449759550392628,-0.06084534898400307
8.23999810218811,0.15583276748657227,0.053215838968753815,0.1192111074924469,-0.18711376190185547,0.015449759550392628,-0.061226826161146164
8.260398626327515,0.15583276748657227,0.053215838968753815,0.11959258466959,-0.18749523162841797,0.015449759550392628,-0.061226826161146164
8.280478954315186,0.15659570693969727,0.05245288833975792,0.1203555315732956,-0.18749523162841797,0.015449759550392628,-0.061226826161146164
8.300554037094116,0.15697719156742096,0.05245288833975792,0.12073700875043869,-0.18787670135498047,0.015449759550392628,-0.061226826161146164
8.320616960525513,0.15697719156742096,0.05245288833975792,0.12111848592758179,-0.18825818598270416,0.015449759550392628,-0.06160829961299896
8.340698480606079,0.15774014592170715,0.051689937710762024,0.12111848592758179,-0.18863965570926666,0.015449759550392628,-0.06160829961299896
8.360771179199219,0.15774014592170715,0.051689937710762024,0.12111848592758179,-0.18940261006355286,0.015449759550392628,-0.06198977679014206
8.3808434009552,0.15774014592170715,0.051689937710762024,0.12111848592758179,-0.19054703414440155,0.01583123579621315,-0.06237125024199486
8.401196479797363,0.15774014592170715,0.051689937710762024,0.12149996310472488,-0.19130998849868774,0.015449759550392628,-0.06275273114442825
8.421295166015625,0.15812161564826965,0.051689937710762024,0.12188144028186798,-0.19169145822525024,0.015449759550392628,-0.06275273114442825
8.441394090652466,0.15812161564826965,0.05130846053361893,0.12226291000843048,-0.19169145822525024,0.01506828423589468,-0.06275273114442825
8.461421012878418,0.15850308537483215,0.05130846053361893,0.12302586436271667,-0.19207294285297394,0.01506828423589468,-0.06275273114442825
8.481518745422363,0.15888457000255585,0.05054550990462303,0.12302586436271667,-0.19207294285297394,0.01506828423589468,-0.06313420087099075
8.501606464385986,0.15964750945568085,0.05054550990462303,0.12340734153985977,-0.19283588230609894,0.01506828423589468,-0.06313420087099075
8.521698951721191,0.15964750945568085,0.05054550990462303,0.12340734153985977,-0.19359883666038513,0.01583123579621315,-0.06351567804813385
8.541744709014893,0.15964750945568085,0.05054550990462303,0.12340734153985977,-0.19512474536895752,0.015449759550392628,-0.06351567804813385
8.56193995475769,0.16002899408340454,0.050164032727479935,0.12417028844356537,-0.19512474536895752,0.015449759550392628,-0.06389715522527695
8.582082271575928,0.16002899408340454,0.049782559275627136,0.12455176562070847,-0.19512474536895752,0.01506828423589468,-0.06389715522527695
8.602150917053223,0.16002899408340454,0.04940108209848404,0.12493324279785156,-0.19550621509552002,0.01506828423589468,-0.06389715522527695
8.622189998626709,0.16041046380996704,0.04940108209848404,0.12531471252441406,-0.1958876997232437,0.01506828423589468,-0.06389715522527695
8.6423819065094,0.16079194843769073,0.04940108209848404,0.12531471252441406,-0.1962691694498062,0.01506828423589468,-0.06389715522527695
8.662395000457764,0.16079194843769073,0.04940108209848404,0.12531471252441406,-0.1970321238040924,0.015449759550392628,-0.06389715522527695
8.682463884353638,0.16079194843769073,0.04901960864663124,0.12569619715213776,-0.1981765478849411,0.015449759550392628,-0.06389715522527695
8.70251202583313,0.16117341816425323,0.048638131469488144,0.12645913660526276,-0.1993209719657898,0.015449759550392628,-0.06466010212898254
8.72260308265686,0.16193637251853943,0.048638131469488144,0.12684062123298645,-0.1993209719657898,0.01506828423589468,-0.06427863240242004
8.742697477340698,0.16231784224510193,0.048638131469488144,0.12722209095954895,-0.1997024416923523,0.014686808921396732,-0.06466010212898254
8.762751817703247,0.16269932687282562,0.048256658017635345,0.12722209095954895,-0.1997024416923523,0.01506828423589468,-0.06466010212898254
8.782792806625366,0.16269932687282562,0.048256658017635345,0.12760357558727264,-0.200083926320076,0.01506828423589468,-0.06466010212898254
8.802936315536499,0.16269932687282562,0.04749370738863945,0.12760357558727264,-0.20084688067436218,0.01506828423589468,-0.06466010212898254
8.823097467422485,0.16308079659938812,0.04749370738863945,0.12836651504039764,-0.20237277448177338,0.01506828423589468,-0.06504157930612564
8.84311580657959,0.16308079659938812,0.04749370738863945,0.12836651504039764,-0.20275425910949707,0.01506828423589468,-0.06504157930612564
8.863248348236084,0.16308079659938812,0.04749370738863945,0.12874799966812134,-0.20237277448177338,0.014686808921396732,-0.06504157930612564
8.883293867111206,0.16384375095367432,0.04711223021149635,0.12874799966812134,-0.20275425910949707,0.014686808921396732,-0.06542305648326874
8.903345823287964,0.16422522068023682,0.04711223021149635,0.12912946939468384,-0.20275425910949707,0.014686808921396732,-0.06542305648326874
8.923664569854736,0.164988175034523,0.046730753034353256,0.12951095402240753,-0.20313572883605957,0.014686808921396732,-0.06542305648326874
8.943768501281738,0.164988175034523,0.04634927958250046,0.12951095402240753,-0.20313572883605957,0.01506828423589468,-0.06580453366041183
8.963924407958984,0.164988175034523,0.04634927958250046,0.12989242374897003,-0.20351719856262207,0.015449759550392628,-0.06580453366041183
8.984497547149658,0.164988175034523,0.04634927958250046,0.13065537810325623,-0.20389868319034576,0.01506828423589468,-0.06694895774126053
9.004574060440063,0.164988175034523,0.04634927958250046,0.13103684782981873,-0.20466163754463196,0.014686808921396732,-0.06694895774126053
9.024690628051758,0.1653696447610855,0.04634927958250046,0.13141833245754242,-0.20542457699775696,0.01430533267557621,-0.06694895774126053
9.044749021530151,0.1661325991153717,0.04558632895350456,0.13141833245754242,-0.20656901597976685,0.01430533267557621,-0.06733043491840363
9.064820766448975,0.1668955534696579,0.045204851776361465,0.13141833245754242,-0.20656901597976685,0.01430533267557621,-0.06733043491840363
9.085000991821289,0.1668955534696579,0.04482337832450867,0.13179980218410492,-0.20695048570632935,0.01506828423589468,-0.06733043491840363
9.105006456375122,0.1668955534696579,0.04444190114736557,0.13179980218410492,-0.20733195543289185,0.01506828423589468,-0.06771191209554672
9.125105857849121,0.1668955534696579,0.04444190114736557,0.13218127191066742,-0.20733195543289185,0.014686808921396732,-0.06771191209554672
9.145202398300171,0.1668955534696579,0.04444190114736557,0.1329442262649536,-0.20771344006061554,0.01430533267557621,-0.06771191209554672
9.165257930755615,0.1668955534696579,0.04444190114736557,0.1333257108926773,-0.20885786414146423,0.013923857361078262,-0.06771191209554672
9.185303688049316,0.1672770231962204,0.04444190114736557,0.1333257108926773,-0.21000228822231293,0.013923857361078262,-0.06771191209554672
9.205427408218384,0.1676585078239441,0.04406042397022247,0.1333257108926773,-0.21000228822231293,0.013923857361078262,-0.06771191209554672
9.225565671920776,0.1680399775505066,0.043678950518369675,0.1333257108926773,-0.21000228822231293,0.01430533267557621,-0.06771191209554672
9.245645523071289,0.16880293190479279,0.04329747334122658,0.1337071806192398,-0.21038375794887543,0.01430533267557621,-0.06771191209554672
9.265691041946411,0.16918440163135529,0.04329747334122658,0.1337071806192398,-0.21038375794887543,0.01430533267557621,-0.06771191209554672
9.285914421081543,0.16918440163135529,0.04329747334122658,0.1340886503458023,-0.21076524257659912,0.013923857361078262,-0.06771191209554672
9.305914878845215,0.16918440163135529,0.04329747334122658,0.134470134973526,-0.21114671230316162,0.013923857361078262,-0.06771191209554672
9.326120615005493,0.16918440163135529,0.04291599988937378,0.1348516047000885,-0.21152819693088531,0.013923857361078262,-0.06771191209554672
9.346250295639038,0.16956588625907898,0.04253452271223068,0.135233074426651,-0.21190966665744781,0.013542382046580315,-0.06771191209554672
9.3663330078125,0.16994735598564148,0.042153049260377884,0.1356145590543747,-0.212672621011734,0.013542382046580315,-0.06771191209554672
9.386683940887451,0.16994735598564148,0.042153049260377884,0.1356145590543747,-0.2134355753660202,0.013542382046580315,-0.06771191209554672
9.406832933425903,0.17032882571220398,0.042153049260377884,0.1356145590543747,-0.2138170450925827,0.013542382046580315,-0.06809338182210922
9.426989316940308,0.17032882571220398,0.04177157208323479,0.1359960287809372,-0.2141985148191452,0.013542382046580315,-0.06809338182210922
9.447009563446045,0.17071031033992767,0.04139009863138199,0.1367589831352234,-0.2145799994468689,0.013542382046580315,-0.06809338182210922
9.46715259552002,0.17109178006649017,0.04139009863138199,0.13752193748950958,-0.2145799994468689,0.013160906732082367,-0.06809338182210922
9.487210750579834,0.17147326469421387,0.04139009863138199,0.13752193748950958,-0.2153429538011551,0.013160906732082367,-0.06809338182210922
9.507300853729248,0.17185473442077637,0.04139009863138199,0.13790340721607208,-0.2161058932542801,0.012779430486261845,-0.06809338182210922
9.52743935585022,0.17223620414733887,0.04139009863138199,0.13790340721607208,-0.21725031733512878,0.012779430486261845,-0.06809338182210922
9.547438621520996,0.17223620414733887,0.04100862145423889,0.13828489184379578,-0.21763180196285248,0.012779430486261845,-0.06809338182210922
9.567487716674805,0.17223620414733887,0.040245670825242996,0.13866636157035828,-0.21763180196285248,0.012779430486261845,-0.06809338182210922
9.587594985961914,0.17261768877506256,0.040245670825242996,0.13866636157035828,-0.21801327168941498,0.012779430486261845,-0.06809338182210922
9.60773515701294,0.17299915850162506,0.040245670825242996,0.13904783129692078,-0.21801327168941498,0.012397955171763897,-0.06809338182210922
9.627731561660767,0.17338064312934875,0.040245670825242996,0.13942931592464447,-0.21839475631713867,0.01201647985726595,-0.06847485899925232
9.6481454372406,0.17414358258247375,0.0398641936480999,0.13981078565120697,-0.21877622604370117,0.01201647985726595,-0.06847485899925232
9.66832423210144,0.17414358258247375,0.0394827201962471,0.13981078565120697,-0.21915769577026367,0.012397955171763897,-0.06847485899925232
9.688325881958008,0.17414358258247375,0.0394827201962471,0.13981078565120697,-0.22030213475227356,0.012779430486261845,-0.06885633617639542
9.708376407623291,0.17414358258247375,0.0394827201962471,0.13981078565120697,-0.22144655883312225,0.012779430486261845,-0.06923781335353851
9.72847056388855,0.17414358258247375,0.039101243019104004,0.14057374000549316,-0.22144655883312225,0.012397955171763897,-0.06961929053068161
9.748620986938477,0.17452506721019745,0.039101243019104004,0.14095520973205566,-0.22182802855968475,0.01201647985726595,-0.06961929053068161
9.76875376701355,0.17452506721019745,0.039101243019104004,0.14133669435977936,-0.22182802855968475,0.01201647985726595,-0.07000076025724411
9.78892207145691,0.17490653693675995,0.039101243019104004,0.14133669435977936,-0.22220951318740845,0.01201647985726595,-0.07000076025724411
9.809025526046753,0.17490653693675995,0.03833829239010811,0.14171816408634186,-0.22259098291397095,0.012397955171763897,-0.07038223743438721
9.829105615615845,0.17528800666332245,0.03795681521296501,0.14171816408634186,-0.22373540699481964,0.012397955171763897,-0.0707637146115303
9.849210739135742,0.17528800666332245,0.03795681521296501,0.14171816408634186,-0.22526131570339203,0.012397955171763897,-0.0711451917886734
9.869389772415161,0.17528800666332245,0.03757534176111221,0.14209964871406555,-0.22526131570339203,0.01201647985726595,-0.0711451917886734
9.889392375946045,0.17566949129104614,0.037193864583969116,0.14286258816719055,-0.22564278542995453,0.01201647985726595,-0.0711451917886734
9.909474849700928,0.17605096101760864,0.037193864583969116,0.14286258816719055,-0.22564278542995453,0.011635004542768002,-0.0711451917886734
9.929566860198975,0.17643244564533234,0.037193864583969116,0.14324407279491425,-0.22564278542995453,0.01201647985726595,-0.0711451917886734
9.949654340744019,0.17643244564533234,0.037193864583969116,0.14324407279491425,-0.22602425515651703,0.01201647985726595,-0.0711451917886734
9.969730854034424,0.17681391537189484,0.03681239113211632,0.14362554252147675,-0.22678720951080322,0.012397955171763897,-0.0715266615152359
9.989822626113892,0.17719538509845734,0.03681239113211632,0.14362554252147675,-0.22793163359165192,0.01201647985726595,-0.0715266615152359
10.010029554367065,0.17719538509845734,0.03643091395497322,0.14400701224803925,-0.2286945879459381,0.01201647985726595,-0.0715266615152359
10.030195236206055,0.17719538509845734,0.03604944050312042,0.14476996660232544,-0.2286945879459381,0.01201647985726595,-0.0715266615152359
10.050246238708496,0.17719538509845734,0.03604944050312042,0.14476996660232544,-0.2286945879459381,0.01201647985726595,-0.0715266615152359
10.070397138595581,0.17757686972618103,0.03604944050312042,0.14515145123004913,-0.2290760725736618,0.01201647985726595,-0.0715266615152359
10.090427160263062,0.17795833945274353,0.035667963325977325,0.14553292095661163,-0.2290760725736618,0.01201647985726595,-0.0715266615152359
10.110502243041992,0.17872129380702972,0.03528648987412453,0.14591439068317413,-0.2294575423002243,0.01201647985726595,-0.071908138692379
10.13057827949524,0.17910276353359222,0.03490501269698143,0.14591439068317413,-0.2294575423002243,0.011635004542768002,-0.071908138692379
10.150699377059937,0.17948424816131592,0.03490501269698143,0.14591439068317413,-0.2298390120267868,0.012397955171763897,-0.071908138692379
10.17076325416565,0.17948424816131592,0.03490501269698143,0.14629587531089783,-0.230601966381073,0.01201647985726595,-0.071908138692379
10.190834999084473,0.17948424816131592,0.034142062067985535,0.14667734503746033,-0.2317463904619217,0.01201647985726595,-0.071908138692379
10.210888862609863,0.17948424816131592,0.034142062067985535,0.14705882966518402,-0.23289081454277039,0.01201647985726595,-0.0722896158695221
10.23095440864563,0.17986571788787842,0.034142062067985535,0.14744029939174652,-0.23250934481620789,0.01201647985726595,-0.0722896158695221
10.251062631607056,0.1806286722421646,0.034142062067985535,0.14820325374603271,-0.23289081454277039,0.01125352829694748,-0.0722896158695221
10.271113395690918,0.1813916265964508,0.03376058489084244,0.14820325374603271,-0.23289081454277039,0.01125352829694748,-0.07267109304666519
10.291187047958374,0.1813916265964508,0.03376058489084244,0.14820325374603271,-0.23327229917049408,0.011635004542768002,-0.07267109304666519
10.311384916305542,0.1813916265964508,0.03299763426184654,0.14820325374603271,-0.23365376889705658,0.01201647985726595,-0.07305257022380829
10.331483602523804,0.1813916265964508,0.03299763426184654,0.14858472347259521,-0.23441672325134277,0.011635004542768002,-0.07419699430465698
10.351539850234985,0.1813916265964508,0.03299763426184654,0.1489662081003189,-0.23594263195991516,0.011635004542768002,-0.07495994865894318
10.37158751487732,0.1813916265964508,0.03299763426184654,0.1493476778268814,-0.23632410168647766,0.01125352829694748,-0.07495994865894318
10.391824007034302,0.1813916265964508,0.03299763426184654,0.1493476778268814,-0.23632410168647766,0.01125352829694748,-0.07495994865894318
10.411911964416504,0.1817730963230133,0.032616160809993744,0.1497291475534439,-0.23632410168647766,0.01125352829694748,-0.07495994865894318
10.432002305984497,0.1817730963230133,0.03223468363285065,0.1501106321811676,-0.23670557141304016,0.011635004542768002,-0.07495994865894318
10.452040672302246,0.1825360506772995,0.03223468363285065,0.1501106321811676,-0.23670557141304016,0.011635004542768002,-0.07495994865894318
10.472105979919434,0.1825360506772995,0.03185320645570755,0.1501106321811676,-0.23708705604076385,0.011635004542768002,-0.07495994865894318
10.492186546325684,0.182917520403862,0.03185320645570755,0.1501106321811676,-0.23746852576732635,0.01125352829694748,-0.07495994865894318
10.512256145477295,0.182917520403862,0.03185320645570755,0.1504921019077301,-0.23785001039505005,0.01125352829694748,-0.07495994865894318
10.53230357170105,0.1832990050315857,0.03147173300385475,0.1508735716342926,-0.23861294984817505,0.01125352829694748,-0.07495994865894318
10.552393198013306,0.1836804747581482,0.031090257689356804,0.1512550562620163,-0.23975738883018494,0.01125352829694748,-0.07534141838550568
10.572542190551758,0.1836804747581482,0.030708782374858856,0.1516365259885788,-0.24013885855674744,0.011635004542768002,-0.07534141838550568
10.592624187469482,0.1840619444847107,0.030708782374858856,0.1520180106163025,-0.24013885855674744,0.011635004542768002,-0.07534141838550568
10.612632036209106,0.1844434291124344,0.03032730519771576,0.1520180106163025,-0.24052032828330994,0.01125352829694748,-0.07534141838550568
10.632715940475464,0.1844434291124344,0.02994582988321781,0.152399480342865,-0.24052032828330994,0.01125352829694748,-0.07534141838550568
10.652778387069702,0.1848248988389969,0.02994582988321781,0.152399480342865,-0.24090181291103363,0.01125352829694748,-0.07534141838550568
10.672831773757935,0.1848248988389969,0.02994582988321781,0.152399480342865,-0.24166475236415863,0.01125352829694748,-0.07534141838550568
10.692978620529175,0.1848248988389969,0.02994582988321781,0.15316243469715118,-0.24242770671844482,0.01125352829694748,-0.07534141838550568
10.713066816329956,0.18558785319328308,0.029564354568719864,0.15354390442371368,-0.24357213079929352,0.01125352829694748,-0.07572289556264877
10.733236312866211,0.18558785319328308,0.029182879254221916,0.15392538905143738,-0.2439536154270172,0.01125352829694748,-0.07572289556264877
10.75321888923645,0.18635080754756927,0.02880140393972397,0.15392538905143738,-0.2443350851535797,0.010872052982449532,-0.07572289556264877
10.77337384223938,0.18673227727413177,0.02880140393972397,0.15430685877799988,-0.2443350851535797,0.01125352829694748,-0.07572289556264877
10.793458223342896,0.18673227727413177,0.02841992862522602,0.15430685877799988,-0.2447165697813034,0.01125352829694748,-0.07572289556264877
10.813628911972046,0.18673227727413177,0.028038453310728073,0.15430685877799988,-0.2450980395078659,0.01125352829694748,-0.07572289556264877
10.833603620529175,0.18673227727413177,0.028038453310728073,0.15468832850456238,-0.2454795092344284,0.01125352829694748,-0.07572289556264877
10.853746891021729,0.18711376190185547,0.028038453310728073,0.15545128285884857,-0.2470054179430008,0.01125352829694748,-0.07572289556264877
10.873857021331787,0.18749523162841797,0.027656977996230125,0.15545128285884857,-0.247768372297287,0.010490577667951584,-0.07572289556264877
10.893928527832031,0.18787670135498047,0.027656977996230125,0.15583276748657227,-0.247768372297287,0.010490577667951584,-0.07572289556264877
10.914005756378174,0.18863965570926666,0.02727550081908703,0.15583276748657227,-0.247768372297287,0.010490577667951584,-0.07572289556264877
10.934194564819336,0.18863965570926666,0.02689402550458908,0.15621423721313477,-0.2481498420238495,0.010872052982449532,-0.07572289556264877
10.954231977462769,0.18863965570926666,0.02689402550458908,0.15621423721313477,-0.248531311750412,0.01125352829694748,-0.07610437273979187
10.974329471588135,0.18863965570926666,0.02689402550458908,0.15621423721313477,-0.24891279637813568,0.010872052982449532,-0.07610437273979187
10.994422674179077,0.18863965570926666,0.026512550190091133,0.15659570693969727,-0.24929426610469818,0.010490577667951584,-0.07610437273979187
11.014635801315308,0.18863965570926666,0.026512550190091133,0.15659570693969727,-0.2504386901855469,0.010109102353453636,-0.07572289556264877
11.034753561019897,0.18902114033699036,0.025749599561095238,0.15735866129398346,-0.25158312916755676,0.010490577667951584,-0.07610437273979187
11.054771661758423,0.18902114033699036,0.025749599561095238,0.15774014592170715,-0.25158312916755676,0.010490577667951584,-0.07610437273979187
11.07482385635376,0.18940261006355286,0.025749599561095238,0.15774014592170715,-0.25196459889411926,0.010490577667951584,-0.07648584991693497
11.094943284988403,0.18940261006355286,0.025749599561095238,0.15812161564826965,-0.25196459889411926,0.010490577667951584,-0.07648584991693497
11.115005731582642,0.18978407979011536,0.024986648932099342,0.15850308537483215,-0.25234606862068176,0.010490577667951584,-0.07648584991693497
11.135104894638062,0.18978407979011536,0.024986648932099342,0.15888457000255585,-0.25310903787612915,0.010490577667951584,-0.07686731964349747
11.155285835266113,0.18978407979011536,0.024986648932099342,0.15964750945568085,-0.25463491678237915,0.010490577667951584,-0.07686731964349747
11.175294160842896,0.18978407979011536,0.024605173617601395,0.15964750945568085,-0.25501641631126404,0.010109102353453636,-0.07763027399778366
11.195337772369385,0.19016556441783905,0.024605173617601395,0.16041046380996704,-0.25501641631126404,0.010490577667951584,-0.07801175117492676
11.215502738952637,0.19092851877212524,0.024605173617601395,0.16041046380996704,-0.25501641631126404,0.010109102353453636,-0.07801175117492676
11.235624074935913,0.19092851877212524,0.024605173617601395,0.16079194843769073,-0.25539788603782654,0.010109102353453636,-0.07801175117492676
11.255694389343262,0.19092851877212524,0.02384222112596035,0.16079194843769073,-0.25539788603782654,0.010109102353453636,-0.07839322835206985
11.275808095932007,0.19130998849868774,0.023460745811462402,0.16079194843769073,-0.25577935576438904,0.010109102353453636,-0.07839322835206985
11.295931577682495,0.19169145822525024,0.023079270496964455,0.16155488789081573,-0.25577935576438904,0.010109102353453636,-0.07839322835206985
11.31602692604065,0.19169145822525024,0.022697795182466507,0.16193637251853943,-0.25654229521751404,0.010109102353453636,-0.07839322835206985
11.336037158966064,0.19169145822525024,0.022697795182466507,0.16269932687282562,-0.2573052644729614,0.010109102353453636,-0.07839322835206985
11.356104612350464,0.19207294285297394,0.022697795182466507,0.16269932687282562,-0.2584496736526489,0.009727626107633114,-0.07839322835206985
11.376193284988403,0.19207294285297394,0.022697795182466507,0.16308079659938812,-0.2588311731815338,0.009727626107633114,-0.07877469807863235
11.396248817443848,0.19245441257953644,0.02231631986796856,0.16308079659938812,-0.2592126429080963,0.009727626107633114,-0.07877469807863235
11.416325092315674,0.19283588230609894,0.02231631986796856,0.16308079659938812,-0.2595941126346588,0.009346150793135166,-0.07877469807863235
11.436639308929443,0.19321736693382263,0.02193484455347061,0.16384375095367432,-0.2595941126346588,0.009727626107633114,-0.07877469807863235
11.456719160079956,0.19359883666038513,0.021553369238972664,0.16422522068023682,-0.2603570520877838,0.009346150793135166,-0.07877469807863235
11.476815938949585,0.19359883666038513,0.021553369238972664,0.16422522068023682,-0.2611200213432312,0.009727626107633114,-0.07877469807863235
11.4968843460083,0.19359883666038513,0.021553369238972664,0.1646067053079605,-0.2626459002494812,0.009727626107633114,-0.07877469807863235
11.51711893081665,0.19398032128810883,0.02079041674733162,0.164988175034523,-0.2626459002494812,0.009727626107633114,-0.07915617525577545
11.537241458892822,0.19398032128810883,0.02079041674733162,0.164988175034523,-0.2626459002494812,0.009727626107633114,-0.07915617525577545
11.55729341506958,0.19398032128810883,0.02040894143283367,0.164988175034523,-0.2630273997783661,0.009346150793135166,-0.07915617525577545
11.577395677566528,0.19436179101467133,0.02040894143283367,0.164988175034523,-0.2630273997783661,0.009346150793135166,-0.07915617525577545
11.597421884536743,0.19512474536895752,0.02040894143283367,0.1657511293888092,-0.2630273997783661,0.009346150793135166,-0.07915617525577545
11.617533445358276,0.1958876997232437,0.020027466118335724,0.1661325991153717,-0.2634088695049286,0.008964675478637218,-0.07915617525577545
11.637638568878174,0.1958876997232437,0.019645990803837776,0.1665140837430954,-0.2634088695049286,0.009346150793135166,-0.07915617525577545
11.657685041427612,0.1958876997232437,0.019645990803837776,0.1668955534696579,-0.2645532786846161,0.009727626107633114,-0.07953765243291855
11.677789211273193,0.1958876997232437,0.019645990803837776,0.1668955534696579,-0.2653162479400635,0.009346150793135166,-0.07953765243291855
11.697834014892578,0.1958876997232437,0.01926451548933983,0.1668955534696579,-0.2660791873931885,0.009346150793135166,-0.07953765243291855
11.717906713485718,0.1962691694498062,0.018501564860343933,0.1672770231962204,-0.266460657119751,0.00858320016413927,-0.07953765243291855
11.737952470779419,0.1962691694498062,0.018501564860343933,0.1672770231962204,-0.266460657119751,0.00858320016413927,-0.07953765243291855
11.758046388626099,0.1962691694498062,0.018120087683200836,0.1676585078239441,-0.26684215664863586,0.008964675478637218,-0.07991912961006165
11.778135776519775,0.1966506391763687,0.018120087683200836,0.1680399775505066,-0.26684215664863586,0.008964675478637218,-0.08030059933662415
11.798210382461548,0.1970321238040924,0.01773861236870289,0.1680399775505066,-0.26722362637519836,0.008964675478637218,-0.08068207651376724
11.818437814712524,0.1970321238040924,0.01773861236870289,0.1680399775505066,-0.26760509610176086,0.008964675478637218,-0.08144503086805344
11.838563680648804,0.1970321238040924,0.01735713705420494,0.1680399775505066,-0.26836803555488586,0.008964675478637218,-0.08297093212604523
11.858673810958862,0.1970321238040924,0.016594186425209045,0.1680399775505066,-0.26951247453689575,0.008964675478637218,-0.08297093212604523
11.87874460220337,0.1970321238040924,0.016594186425209045,0.1680399775505066,-0.26989394426345825,0.008964675478637218,-0.08297093212604523
11.898798704147339,0.1974135935306549,0.016212711110711098,0.1684214472770691,-0.26989394426345825,0.008964675478637218,-0.08297093212604523
11.918872356414795,0.1977950781583786,0.016212711110711098,0.1684214472770691,-0.27027541399002075,0.008964675478637218,-0.08335240930318832
11.938939094543457,0.1977950781583786,0.015449759550392628,0.16880293190479279,-0.27027541399002075,0.008964675478637218,-0.08335240930318832
11.959020137786865,0.1977950781583786,0.015449759550392628,0.16880293190479279,-0.27027541399002075,0.008964675478637218,-0.08335240930318832
11.97910213470459,0.1981765478849411,0.015449759550392628,0.16880293190479279,-0.27065691351890564,0.009346150793135166,-0.08411535620689392
11.999173164367676,0.1981765478849411,0.01506828423589468,0.16880293190479279,-0.27065691351890564,0.009346150793135166,-0.08449683338403702
12.019240617752075,0.1981765478849411,0.014686808921396732,0.16918440163135529,-0.27065691351890564,0.009346150793135166,-0.08487831056118011
12.039406538009644,0.1981765478849411,0.01430533267557621,0.16918440163135529,-0.27103838324546814,0.009346150793135166,-0.08564125746488571
12.059546709060669,0.1985580176115036,0.01430533267557621,0.16918440163135529,-0.27141985297203064,0.009346150793135166,-0.08564125746488571
12.079665660858154,0.1989395022392273,0.013923857361078262,0.16918440163135529,-0.27180132269859314,0.009346150793135166,-0.08602273464202881
12.099708795547485,0.1989395022392273,0.013542382046580315,0.16994735598564148,-0.27218279242515564,0.009346150793135166,-0.08602273464202881
12.119775533676147,0.1989395022392273,0.013160906732082367,0.16994735598564148,-0.272945761680603,0.009727626107633114,-0.08602273464202881
12.139837265014648,0.1989395022392273,0.013160906732082367,0.16994735598564148,-0.2733272314071655,0.009727626107633114,-0.08602273464202881
12.15990138053894,0.1993209719657898,0.012779430486261845,0.16994735598564148,-0.2733272314071655,0.009727626107633114,-0.0864042118191719
12.179951906204224,0.1993209719657898,0.012397955171763897,0.17032882571220398,-0.273708701133728,0.009346150793135166,-0.0864042118191719
12.200039386749268,0.1993209719657898,0.01201647985726595,0.17032882571220398,-0.273708701133728,0.009727626107633114,-0.0864042118191719
12.220195293426514,0.1997024416923523,0.011635004542768002,0.17032882571220398,-0.2740901708602905,0.009727626107633114,-0.0864042118191719
12.240248441696167,0.200083926320076,0.01125352829694748,0.17032882571220398,-0.2740901708602905,0.009727626107633114,-0.086785688996315
12.260498046875,0.200083926320076,0.01125352829694748,0.17071031033992767,-0.2740901708602905,0.009727626107633114,-0.086785688996315
12.2805814743042,0.200083926320076,0.010872052982449532,0.17071031033992767,-0.2744716703891754,0.010109102353453636,-0.0871671661734581
12.30065131187439,0.200083926320076,0.010109102353453636,0.17071031033992767,-0.2748531401157379,0.010109102353453636,-0.0871671661734581
12.320736646652222,0.2004653960466385,0.010109102353453636,0.17109178006649017,-0.2748531401157379,0.009727626107633114,-0.0871671661734581
12.34082579612732,0.2004653960466385,0.010109102353453636,0.17109178006649017,-0.2752346098423004,0.010109102353453636,-0.0875486359000206
12.360896110534668,0.20122835040092468,0.010109102353453636,0.17109178006649017,-0.2759975492954254,0.009727626107633114,-0.0879301130771637
12.380958795547485,0.20122835040092468,0.009346150793135166,0.17109178006649017,-0.2771419882774353,0.010109102353453636,-0.0879301130771637
12.4012291431427,0.20122835040092468,0.008964675478637218,0.17147326469421387,-0.2775234580039978,0.010109102353453636,-0.08945601433515549
12.421324253082275,0.20122835040092468,0.008964675478637218,0.17185473442077637,-0.2779049277305603,0.010490577667951584,-0.09021896868944168
12.441407442092896,0.20122835040092468,0.008201723918318748,0.17185473442077637,-0.2779049277305603,0.010490577667951584,-0.09021896868944168
12.46144151687622,0.20122835040092468,0.008201723918318748,0.17223620414733887,-0.2779049277305603,0.010109102353453636,-0.09021896868944168
12.481525659561157,0.20122835040092468,0.008201723918318748,0.17223620414733887,-0.2782863974571228,0.010109102353453636,-0.09021896868944168
12.501593589782715,0.20160982012748718,0.0078202486038208,0.17223620414733887,-0.2782863974571228,0.010109102353453636,-0.09060044586658478
12.521683692932129,0.20160982012748718,0.007438773289322853,0.17223620414733887,-0.2782863974571228,0.010490577667951584,-0.09098191559314728
12.54173994064331,0.20237277448177338,0.007057297509163618,0.17223620414733887,-0.2786678969860077,0.010490577667951584,-0.09098191559314728
12.561814308166504,0.20275425910949707,0.007057297509163618,0.17261768877506256,-0.2790493667125702,0.010490577667951584,-0.09136339277029037
12.581880807876587,0.20351719856262207,0.00667582219466567,0.17261768877506256,-0.2798123061656952,0.010490577667951584,-0.09174486994743347
12.601948738098145,0.20313572883605957,0.005912871100008488,0.17261768877506256,-0.2809567451477051,0.010490577667951584,-0.09212634712457657
12.62199354171753,0.20313572883605957,0.005912871100008488,0.17299915850162506,-0.2809567451477051,0.010490577667951584,-0.09327077120542526
12.642073392868042,0.20313572883605957,0.005912871100008488,0.17299915850162506,-0.2809567451477051,0.010490577667951584,-0.09365224838256836
12.662237644195557,0.20313572883605957,0.005912871100008488,0.17299915850162506,-0.2813382148742676,0.010490577667951584,-0.09365224838256836
12.682223796844482,0.20313572883605957,0.005149920005351305,0.17299915850162506,-0.2813382148742676,0.010490577667951584,-0.09327077120542526
12.702325820922852,0.20313572883605957,0.005149920005351305,0.17338064312934875,-0.2813382148742676,0.010490577667951584,-0.09365224838256836
12.722414493560791,0.20313572883605957,0.00476844422519207,0.17338064312934875,-0.2813382148742676,0.010490577667951584,-0.09365224838256836
12.742491483688354,0.20313572883605957,0.004005493130534887,0.17338064312934875,-0.2813382148742676,0.010490577667951584,-0.09403372555971146
12.762546300888062,0.20313572883605957,0.004005493130534887,0.17414358258247375,-0.2817196846008301,0.010490577667951584,-0.09403372555971146
12.782659769058228,0.20313572883605957,0.004005493130534887,0.17414358258247375,-0.2817196846008301,0.010490577667951584,-0.09403372555971146
12.802779197692871,0.20351719856262207,0.0036240178160369396,0.17452506721019745,-0.2821011543273926,0.010490577667951584,-0.09441519528627396
12.822852611541748,0.20351719856262207,0.0036240178160369396,0.17452506721019745,-0.2821011543273926,0.010490577667951584,-0.09441519528627396
12.84311819076538,0.20351719856262207,0.0032425422687083483,0.17452506721019745,-0.28248265385627747,0.010490577667951584,-0.09441519528627396
12.86327338218689,0.20389868319034576,0.002861066721379757,0.17490653693675995,-0.28324559330940247,0.010872052982449532,-0.09479667246341705
12.883289813995361,0.20428015291690826,0.002861066721379757,0.17490653693675995,-0.28400853276252747,0.010872052982449532,-0.09479667246341705
12.903390169143677,0.20428015291690826,0.0024795911740511656,0.17490653693675995,-0.28515297174453735,0.010490577667951584,-0.09517814964056015
12.923428058624268,0.20428015291690826,0.001716639962978661,0.17528800666332245,-0.28515297174453735,0.010490577667951584,-0.09594109654426575
12.943533420562744,0.20428015291690826,0.001716639962978661,0.17528800666332245,-0.28515297174453735,0.010872052982449532,-0.09670405089855194
12.96357536315918,0.20428015291690826,0.001716639962978661,0.17528800666332245,-0.28553444147109985,0.010872052982449532,-0.09746700525283813
12.983654737472534,0.20428015291690826,0.0009536888683214784,0.17528800666332245,-0.28553444147109985,0.010872052982449532,-0.09784847497940063
13.003729104995728,0.20466163754463196,0.000572213320992887,0.17528800666332245,-0.28553444147109985,0.010872052982449532,-0.09784847497940063
13.023871421813965,0.20466163754463196,0.0009536888683214784,0.17528800666332245,-0.28591591119766235,0.010872052982449532,-0.09784847497940063
13.043880224227905,0.20542457699775696,0.000572213320992887,0.17566949129104614,-0.28629741072654724,0.010872052982449532,-0.09822995215654373
13.063960552215576,0.20542457699775696,0.000572213320992887,0.17605096101760864,-0.28629741072654724,0.01125352829694748,-0.09822995215654373
13.084024667739868,0.20542457699775696,-0.00019073777366429567,0.17643244564533234,-0.28706035017967224,0.01125352829694748,-0.09861142933368683
13.104084968566895,0.20542457699775696,-0.000572213320992887,0.17643244564533234,-0.28820478916168213,0.01125352829694748,-0.09899290651082993
13.124223470687866,0.20542457699775696,-0.00019073777366429567,0.17643244564533234,-0.28858625888824463,0.01125352829694748,-0.09975585341453552
13.144343614578247,0.20580606162548065,-0.0009536888683214784,0.17643244564533234,-0.28858625888824463,0.01125352829694748,-0.10090028494596481
13.16440749168396,0.20580606162548065,-0.0013351644156500697,0.17681391537189484,-0.28858625888824463,0.01125352829694748,-0.10090028494596481
13.184450149536133,0.20618753135204315,-0.0013351644156500697,0.17719538509845734,-0.28858625888824463,0.01125352829694748,-0.10128175467252731
13.204635381698608,0.20618753135204315,-0.0013351644156500697,0.17719538509845734,-0.28896772861480713,0.01125352829694748,-0.10128175467252731
13.224834442138672,0.20618753135204315,-0.001716639962978661,0.17719538509845734,-0.28896772861480713,0.01125352829694748,-0.10128175467252731
13.244983434677124,0.20618753135204315,-0.0024795911740511656,0.17719538509845734,-0.28896772861480713,0.01125352829694748,-0.10166323184967041
13.264947414398193,0.20618753135204315,-0.0024795911740511656,0.17719538509845734,-0.28934919834136963,0.01125352829694748,-0.10166323184967041
13.28508973121643,0.20618753135204315,-0.002861066721379757,0.17719538509845734,-0.28934919834136963,0.01125352829694748,-0.10204470902681351
13.30516505241394,0.20618753135204315,-0.0036240178160369396,0.17719538509845734,-0.28934919834136963,0.01125352829694748,-0.10204470902681351
13.325275182723999,0.20656901597976685,-0.0036240178160369396,0.17757686972618103,-0.28973066806793213,0.01125352829694748,-0.10204470902681351
13.34532117843628,0.20656901597976685,-0.0036240178160369396,0.17757686972618103,-0.290112167596817,0.01125352829694748,-0.1024261862039566
13.365418195724487,0.20656901597976685,-0.004386968910694122,0.17757686972618103,-0.290112167596817,0.01125352829694748,-0.1024261862039566
13.385506868362427,0.20656901597976685,-0.004386968910694122,0.17795833945274353,-0.2904936373233795,0.011635004542768002,-0.1028076633810997
13.405551195144653,0.20695048570632935,-0.004386968910694122,0.17833982408046722,-0.2912565767765045,0.01125352829694748,-0.1028076633810997
13.425631046295166,0.20733195543289185,-0.004386968910694122,0.17833982408046722,-0.291638046503067,0.01125352829694748,-0.1035706102848053
13.445723295211792,0.20733195543289185,-0.00476844422519207,0.17872129380702972,-0.2920195460319519,0.01125352829694748,-0.10433356463909149
13.465782403945923,0.20771344006061554,-0.005149920005351305,0.17872129380702972,-0.2924010157585144,0.01125352829694748,-0.10471503436565399
13.485989093780518,0.20771344006061554,-0.005531395319849253,0.17872129380702972,-0.2924010157585144,0.011635004542768002,-0.10471503436565399
13.50593090057373,0.20771344006061554,-0.006294346414506435,0.17910276353359222,-0.2924010157585144,0.011635004542768002,-0.10509651154279709
13.526044130325317,0.20771344006061554,-0.00667582219466567,0.17910276353359222,-0.2927824854850769,0.011635004542768002,-0.10509651154279709
13.546191692352295,0.20809490978717804,-0.00667582219466567,0.17910276353359222,-0.2927824854850769,0.01125352829694748,-0.10509651154279709
13.566226243972778,0.20809490978717804,-0.00667582219466567,0.17910276353359222,-0.2927824854850769,0.01125352829694748,-0.10509651154279709
13.58628249168396,0.20847637951374054,-0.00667582219466567,0.17948424816131592,-0.2931639552116394,0.011635004542768002,-0.10509651154279709
13.606364250183105,0.20847637951374054,-0.007057297509163618,0.17948424816131592,-0.2931639552116394,0.011635004542768002,-0.10509651154279709
13.626453399658203,0.20847637951374054,-0.007438773289322853,0.17948424816131592,-0.2935454249382019,0.011635004542768002,-0.10547798871994019
13.646522283554077,0.20847637951374054,-0.0078202486038208,0.17948424816131592,-0.2939268946647644,0.011635004542768002,-0.10547798871994019
13.666595220565796,0.20847637951374054,-0.0078202486038208,0.17948424816131592,-0.2943083941936493,0.011635004542768002,-0.10547798871994019
13.686665058135986,0.20847637951374054,-0.008201723918318748,0.17948424816131592,-0.2954528033733368,0.011635004542768002,-0.10585946589708328
13.706745147705078,0.20847637951374054,-0.00858320016413927,0.17948424816131592,-0.2958342730998993,0.011635004542768002,-0.10585946589708328
13.72684907913208,0.20847637951374054,-0.00858320016413927,0.17986571788787842,-0.2962157726287842,0.01201647985726595,-0.10624094307422638
13.746882915496826,0.20885786414146423,-0.00858320016413927,0.17986571788787842,-0.2962157726287842,0.01201647985726595,-0.10700388997793198
13.767019748687744,0.20923933386802673,-0.008964675478637218,0.1802472025156021,-0.2962157726287842,0.01201647985726595,-0.10814831405878067
13.787168502807617,0.20962081849575043,-0.009727626107633114,0.1806286722421646,-0.2965972423553467,0.011635004542768002,-0.10891126841306686
13.807241678237915,0.20962081849575043,-0.009727626107633114,0.1806286722421646,-0.2965972423553467,0.011635004542768002,-0.10891126841306686
13.827311277389526,0.20962081849575043,-0.009727626107633114,0.1806286722421646,-0.2969787120819092,0.01201647985726595,-0.10891126841306686
13.847417831420898,0.21000228822231293,-0.010109102353453636,0.1806286722421646,-0.2973601818084717,0.01201647985726595,-0.10929274559020996
13.867474794387817,0.21038375794887543,-0.010872052982449532,0.1806286722421646,-0.2977416515350342,0.01201647985726595,-0.10929274559020996
13.887603521347046,0.21038375794887543,-0.010872052982449532,0.1810101419687271,-0.2977416515350342,0.01201647985726595,-0.10929274559020996
13.907782077789307,0.21038375794887543,-0.010872052982449532,0.1810101419687271,-0.29850462079048157,0.01201647985726595,-0.10967422276735306
13.927774429321289,0.21038375794887543,-0.01125352829694748,0.1813916265964508,-0.29926756024360657,0.011635004542768002,-0.10967422276735306
13.94788670539856,0.21038375794887543,-0.011635004542768002,0.1813916265964508,-0.29964902997016907,0.01201647985726595,-0.11005569249391556
13.967921257019043,0.21038375794887543,-0.011635004542768002,0.1813916265964508,-0.29964902997016907,0.01201647985726595,-0.11005569249391556
13.988080263137817,0.21038375794887543,-0.011635004542768002,0.1813916265964508,-0.30003052949905396,0.01201647985726595,-0.11043716967105865
14.008107662200928,0.21038375794887543,-0.01201647985726595,0.1813916265964508,-0.30003052949905396,0.01201647985726595,-0.11196307092905045
14.02819538116455,0.21038375794887543,-0.01201647985726595,0.1813916265964508,-0.30041199922561646,0.01201647985726595,-0.11234454810619354
14.048231363296509,0.21076524257659912,-0.012779430486261845,0.1813916265964508,-0.30041199922561646,0.01201647985726595,-0.11234454810619354
14.068311214447021,0.21076524257659912,-0.013160906732082367,0.1817730963230133,-0.30041199922561646,0.01201647985726595,-0.11234454810619354
