liuyurong129/humanoid-gym/humanoid/data/actual_q_20250521-053416.csv
timestamp,joint_1,joint_2,joint_3,joint_4,joint_5,joint_6
4.9591064453125e-05,0.00019073777366429567,0.1657511293888092,-0.08258945494890213,-0.00019073777366429567,-0.00019073777366429567,0.00019073777366429567
0.0201261043548584,0.000572213320992887,0.14171816408634186,-0.07267109304666519,-0.00019073777366429567,-0.0009536888683214784,0.00019073777366429567
0.0402071475982666,-0.00019073777366429567,0.12073700875043869,-0.06351567804813385,-0.00019073777366429567,0.0013351644156500697,0.00019073777366429567
0.06026148796081543,-0.00019073777366429567,0.10738536715507507,-0.05741206929087639,-0.00019073777366429567,0.0009536888683214784,0.00019073777366429567
0.08033156394958496,-0.00019073777366429567,0.09632257372140884,-0.05054550990462303,-0.00019073777366429567,0.00019073777366429567,0.00019073777366429567
0.10041570663452148,-0.00019073777366429567,0.0883115902543068,-0.04444190114736557,-0.00019073777366429567,0.000572213320992887,0.00019073777366429567
0.1205146312713623,0.00019073777366429567,0.08182650804519653,-0.03795681521296501,-0.00019073777366429567,0.00019073777366429567,0.00019073777366429567
0.14061355590820312,0.000572213320992887,0.07877469807863235,-0.03452353551983833,-0.00019073777366429567,0.00019073777366429567,0.00019073777366429567
0.16069960594177246,0.00019073777366429567,0.07572289556264877,-0.032616160809993744,0.00019073777366429567,-0.00019073777366429567,0.00019073777366429567
0.18131446838378906,0.00019073777366429567,0.06961929053068161,-0.029564354568719864,0.000572213320992887,-0.00019073777366429567,0.00019073777366429567
0.20143818855285645,0.00019073777366429567,0.06542305648326874,-0.026131074875593185,0.0020981156267225742,-0.0009536888683214784,0.00019073777366429567
0.22151446342468262,0.00019073777366429567,0.06237125024199486,-0.024223696440458298,0.0032425422687083483,-0.0013351644156500697,0.00019073777366429567
0.2424328327178955,0.00019073777366429567,0.059319447726011276,-0.021171892061829567,0.004386968910694122,-0.0020981156267225742,0.00019073777366429567
0.2625422477722168,0.00019073777366429567,0.054741740226745605,-0.018501564860343933,0.00476844422519207,-0.0032425422687083483,-0.00019073777366429567
0.2826063632965088,0.00019073777366429567,0.05130846053361893,-0.01583123579621315,0.006294346414506435,-0.004386968910694122,-0.00019073777366429567
0.3027489185333252,-0.00019073777366429567,0.04787518084049225,-0.013923857361078262,0.0078202486038208,-0.005912871100008488,-0.00019073777366429567
0.3227968215942383,-0.00019073777366429567,0.04291599988937378,-0.010109102353453636,0.008964675478637218,-0.0078202486038208,-0.00019073777366429567
0.34287595748901367,-0.00019073777366429567,0.0394827201962471,-0.0078202486038208,0.010490577667951584,-0.008201723918318748,-0.00019073777366429567
0.3631155490875244,-0.00019073777366429567,0.03604944050312042,-0.005531395319849253,0.01201647985726595,-0.008964675478637218,-0.00019073777366429567
0.38317203521728516,-0.00019073777366429567,0.03223468363285065,-0.0020981156267225742,0.013923857361078262,-0.010872052982449532,-0.00019073777366429567
0.4033186435699463,-0.00019073777366429567,0.02841992862522602,0.0013351644156500697,0.015449759550392628,-0.011635004542768002,-0.000572213320992887
0.42348718643188477,-0.00019073777366429567,0.02231631986796856,0.005531395319849253,0.01735713705420494,-0.013542382046580315,-0.000572213320992887
0.443572998046875,-0.00019073777366429567,0.01735713705420494,0.010490577667951584,0.019645990803837776,-0.01583123579621315,-0.000572213320992887
0.46364712715148926,-0.00019073777366429567,0.014686808921396732,0.013160906732082367,0.02079041674733162,-0.016212711110711098,-0.0009536888683214784
0.48369765281677246,-0.00019073777366429567,0.011635004542768002,0.016212711110711098,0.02231631986796856,-0.018120087683200836,-0.0009536888683214784
0.5037751197814941,-0.000572213320992887,0.007057297509163618,0.020027466118335724,0.023460745811462402,-0.019645990803837776,-0.0013351644156500697
0.5238487720489502,-0.000572213320992887,0.001716639962978661,0.02384222112596035,0.026131074875593185,-0.01926451548933983,-0.001716639962978661
0.5439057350158691,-0.000572213320992887,-0.0024795911740511656,0.02689402550458908,0.02689402550458908,-0.020027466118335724,-0.0020981156267225742
0.5639925003051758,-0.000572213320992887,-0.007057297509163618,0.030708782374858856,0.028038453310728073,-0.021171892061829567,-0.0036240178160369396
0.5841050148010254,-0.000572213320992887,-0.010109102353453636,0.03376058489084244,0.02994582988321781,-0.022697795182466507,-0.004386968910694122
0.6042056083679199,-0.000572213320992887,-0.013542382046580315,0.03757534176111221,0.03185320645570755,-0.02384222112596035,-0.004386968910694122
0.6242411136627197,-0.000572213320992887,-0.01926451548933983,0.04253452271223068,0.034142062067985535,-0.02536812424659729,-0.00476844422519207
0.644310474395752,-0.0009536888683214784,-0.024223696440458298,0.04711223021149635,0.03490501269698143,-0.026131074875593185,-0.00476844422519207
0.6643643379211426,-0.0013351644156500697,-0.029182879254221916,0.05054550990462303,0.03643091395497322,-0.026131074875593185,-0.005149920005351305
0.684506893157959,-0.001716639962978661,-0.03337911143898964,0.05436026677489281,0.03833829239010811,-0.02689402550458908,-0.00476844422519207
0.7046017646789551,-0.0024795911740511656,-0.03681239113211632,0.05893797054886818,0.0398641936480999,-0.02689402550458908,-0.005531395319849253
0.7246873378753662,-0.0024795911740511656,-0.039101243019104004,0.06160829961299896,0.042153049260377884,-0.02727550081908703,-0.005912871100008488
0.7450060844421387,-0.0024795911740511656,-0.04253452271223068,0.06504157930612564,0.04406042397022247,-0.02841992862522602,-0.006294346414506435
0.7650976181030273,-0.0024795911740511656,-0.04749370738863945,0.07000076025724411,0.04558632895350456,-0.029182879254221916,-0.007057297509163618
0.7851748466491699,-0.0024795911740511656,-0.05283436179161072,0.07343403995037079,0.04711223021149635,-0.02994582988321781,-0.007438773289322853
0.805595874786377,-0.0024795911740511656,-0.057793546468019485,0.07686731964349747,0.04940108209848404,-0.03147173300385475,-0.007438773289322853
0.8256773948669434,-0.0024795911740511656,-0.06237125024199486,0.08182650804519653,0.050164032727479935,-0.03376058489084244,-0.007438773289322853
0.8458142280578613,-0.0024795911740511656,-0.06466010212898254,0.08487831056118011,0.051689937710762024,-0.035667963325977325,-0.0078202486038208
0.865994930267334,-0.0024795911740511656,-0.06809338182210922,0.08869306743144989,0.053215838968753815,-0.03795681521296501,-0.0078202486038208
0.8861031532287598,-0.0024795911740511656,-0.0722896158695221,0.09403372555971146,0.05436026677489281,-0.040627144277095795,-0.008201723918318748
0.9061949253082275,-0.0024795911740511656,-0.07724879682064056,0.09746700525283813,0.05664911866188049,-0.042153049260377884,-0.008201723918318748
0.9264101982116699,-0.0024795911740511656,-0.08258945494890213,0.10204470902681351,0.059319447726011276,-0.04329747334122658,-0.008201723918318748
0.9465069770812988,-0.0024795911740511656,-0.0875486359000206,0.10738536715507507,0.06084534898400307,-0.045204851776361465,-0.008201723918318748
0.9665889739990234,-0.0024795911740511656,-0.09021896868944168,0.11158160120248795,0.06198977679014206,-0.04596780240535736,-0.00858320016413927
0.9866940975189209,-0.0024795911740511656,-0.09403372555971146,0.11654078215360641,0.06427863240242004,-0.046730753034353256,-0.008964675478637218
1.0068035125732422,-0.0024795911740511656,-0.09822995215654373,0.12149996310472488,0.06504157930612564,-0.04787518084049225,-0.008964675478637218
1.0268769264221191,-0.0024795911740511656,-0.1031891331076622,0.12569619715213776,0.06733043491840363,-0.04901960864663124,-0.009727626107633114
1.04697585105896,-0.0024795911740511656,-0.10929274559020996,0.13103684782981873,0.06885633617639542,-0.049782559275627136,-0.010109102353453636
1.0671017169952393,-0.0024795911740511656,-0.11387044936418533,0.1359960287809372,0.0715266615152359,-0.05207141116261482,-0.01125352829694748
1.0871315002441406,-0.0024795911740511656,-0.11730372905731201,0.13981078565120697,0.07305257022380829,-0.053215838968753815,-0.01125352829694748
1.1079368591308594,-0.0024795911740511656,-0.12188144028186798,0.14515145123004913,0.07534141838550568,-0.0551232174038887,-0.011635004542768002
1.1280217170715332,-0.0024795911740511656,-0.12722209095954895,0.1504921019077301,0.07801175117492676,-0.0555046908557415,-0.011635004542768002
1.1480987071990967,-0.0024795911740511656,-0.1325627565383911,0.15430685877799988,0.07915617525577545,-0.056267641484737396,-0.01201647985726595
1.1685552597045898,-0.0024795911740511656,-0.1367589831352234,0.15888457000255585,0.08106355369091034,-0.05703059583902359,-0.012779430486261845
1.1886420249938965,-0.0024795911740511656,-0.14057374000549316,0.1653696447610855,0.08373387902975082,-0.05893797054886818,-0.012779430486261845
1.2087280750274658,-0.0024795911740511656,-0.14400701224803925,0.16956588625907898,0.086785688996315,-0.06046387553215027,-0.013160906732082367
1.2288124561309814,-0.0024795911740511656,-0.14820325374603271,0.17528800666332245,0.08869306743144989,-0.06275273114442825,-0.013923857361078262
1.2488982677459717,-0.0024795911740511656,-0.15392538905143738,0.1825360506772995,0.09136339277029037,-0.06542305648326874,-0.014686808921396732
1.2690038681030273,-0.0024795911740511656,-0.16002899408340454,0.18787670135498047,0.09517814964056015,-0.06809338182210922,-0.01506828423589468
1.289052963256836,-0.0024795911740511656,-0.1661325991153717,0.19359883666038513,0.09822995215654373,-0.0707637146115303,-0.01506828423589468
1.3091480731964111,-0.0024795911740511656,-0.17185473442077637,0.2004653960466385,0.10204470902681351,-0.07305257022380829,-0.015449759550392628
1.3292250633239746,-0.0024795911740511656,-0.17605096101760864,0.20695048570632935,0.1039520874619484,-0.07419699430465698,-0.01583123579621315
1.3492827415466309,-0.0024795911740511656,-0.17948424816131592,0.21229113638401031,0.10585946589708328,-0.07572289556264877,-0.01583123579621315
1.3703899383544922,-0.0024795911740511656,-0.1844434291124344,0.21839475631713867,0.10738536715507507,-0.07763027399778366,-0.016212711110711098
1.3905208110809326,-0.0024795911740511656,-0.19169145822525024,0.22640573978424072,0.11005569249391556,-0.07877469807863235,-0.016212711110711098
1.4105563163757324,-0.0024795911740511656,-0.1977950781583786,0.23289081454277039,0.11310750246047974,-0.07839322835206985,-0.01773861236870289
1.4306285381317139,-0.0024795911740511656,-0.20428015291690826,0.23861294984817505,0.11501488089561462,-0.08030059933662415,-0.018501564860343933
1.4507043361663818,-0.0024795911740511656,-0.20885786414146423,0.2462424635887146,0.11730372905731201,-0.08258945494890213,-0.01888304017484188
1.4707810878753662,-0.0024795911740511656,-0.21152819693088531,0.25425344705581665,0.1199740618467331,-0.08449683338403702,-0.019645990803837776
1.4908373355865479,-0.0024795911740511656,-0.2157244235277176,0.2618829607963562,0.12188144028186798,-0.08602273464202881,-0.020027466118335724
1.5109679698944092,-0.0024795911740511656,-0.22068360447883606,0.27065691351890564,0.12493324279785156,-0.0879301130771637,-0.021171892061829567
1.5310113430023193,-0.0024795911740511656,-0.22678720951080322,0.2786678969860077,0.12874799966812134,-0.08907453715801239,-0.023079270496964455
1.5511434078216553,-0.0024795911740511656,-0.23403525352478027,0.28706035017967224,0.13218127191066742,-0.09136339277029037,-0.023460745811462402
1.5711662769317627,-0.0024795911740511656,-0.24166475236415863,0.2950713336467743,0.1348516047000885,-0.09365224838256836,-0.02384222112596035
1.5912730693817139,-0.0024795911740511656,-0.2466239482164383,0.30384528636932373,0.1371404528617859,-0.09517814964056015,-0.024223696440458298
1.6113202571868896,-0.0024795911740511656,-0.25120165944099426,0.3107118308544159,0.13981078565120697,-0.09861142933368683,-0.025749599561095238
1.6314082145690918,-0.0024795911740511656,-0.2580682039260864,0.32024872303009033,0.14209964871406555,-0.10128175467252731,-0.026512550190091133
1.6514921188354492,-0.0024795911740511656,-0.2653162479400635,0.32940414547920227,0.14400701224803925,-0.1028076633810997,-0.02689402550458908
1.6715342998504639,-0.0024795911740511656,-0.27218279242515564,0.33665215969085693,0.14782176911830902,-0.10509651154279709,-0.02880140393972397
1.6916346549987793,-0.0020981156267225742,-0.2786678969860077,0.34580758213996887,0.15430685877799988,-0.10776684433221817,-0.03032730519771576
1.7117440700531006,-0.0020981156267225742,-0.28400853276252747,0.3576333224773407,0.15888457000255585,-0.11005569249391556,-0.031090257689356804
1.7317743301391602,-0.0020981156267225742,-0.28744181990623474,0.36755168437957764,0.16117341816425323,-0.11196307092905045,-0.03147173300385475
1.751945972442627,-0.0020981156267225742,-0.2931639552116394,0.3778515160083771,0.1653696447610855,-0.11310750246047974,-0.03223468363285065
1.7720160484313965,-0.001716639962978661,-0.30041199922561646,0.3885328471660614,0.1668955534696579,-0.11539635062217712,-0.03376058489084244
1.7920715808868408,-0.0009536888683214784,-0.3084229826927185,0.39654383063316345,0.17032882571220398,-0.11615930497646332,-0.034142062067985535
1.8122780323028564,-0.00019073777366429567,-0.31834134459495544,0.4076066315174103,0.17643244564533234,-0.1184481605887413,-0.034142062067985535
1.8323655128479004,0.00019073777366429567,-0.3271152675151825,0.4186694025993347,0.1832990050315857,-0.1203555315732956,-0.03490501269698143
1.8524208068847656,0.000572213320992887,-0.33360037207603455,0.42706188559532166,0.18749523162841797,-0.12340734153985977,-0.035667963325977325
1.8725171089172363,0.001716639962978661,-0.3400854468345642,0.4373617172241211,0.19245441257953644,-0.12684062123298645,-0.03795681521296501
1.8926029205322266,0.0032425422687083483,-0.34847790002822876,0.4495689272880554,0.1970321238040924,-0.13027389347553253,-0.03795681521296501
1.9127039909362793,0.004005493130534887,-0.3568703830242157,0.46101319789886475,0.20160982012748718,-0.13218127191066742,-0.0398641936480999
1.932744026184082,0.00476844422519207,-0.36488136649131775,0.4716945290565491,0.20618753135204315,-0.1337071806192398,-0.04100862145423889
1.9528594017028809,0.00476844422519207,-0.3728923499584198,0.4842832088470459,0.21038375794887543,-0.1337071806192398,-0.042153049260377884
1.972926378250122,0.00476844422519207,-0.37899595499038696,0.49458304047584534,0.212672621011734,-0.1333257108926773,-0.04291599988937378
1.9930050373077393,0.005149920005351305,-0.3843366205692291,0.5022125840187073,0.2161058932542801,-0.1356145590543747,-0.04406042397022247
2.013267755508423,0.005149920005351305,-0.3915846347808838,0.5106050372123718,0.22106507420539856,-0.14019227027893066,-0.04596780240535736
2.0333871841430664,0.00667582219466567,-0.4022659659385681,0.5212863087654114,0.22755016386508942,-0.14286258816719055,-0.04787518084049225
2.0534634590148926,0.008964675478637218,-0.41294726729393005,0.5315861701965332,0.23479819297790527,-0.1489662081003189,-0.04940108209848404
2.0735137462615967,0.011635004542768002,-0.4217212200164795,0.5422675013542175,0.24280919134616852,-0.15430685877799988,-0.05092698708176613
2.0936031341552734,0.01583123579621315,-0.42668038606643677,0.5567635893821716,0.25120165944099426,-0.16079194843769073,-0.05359731614589691
2.113736152648926,0.02040894143283367,-0.42706188559532166,0.5708781480789185,0.2580682039260864,-0.16193637251853943,-0.05436026677489281
2.1337809562683105,0.02231631986796856,-0.42515450716018677,0.580033540725708,0.2615014910697937,-0.15774014592170715,-0.056267641484737396
2.1538655757904053,0.02193484455347061,-0.4243915379047394,0.5849927663803101,0.2611200213432312,-0.15468832850456238,-0.05703059583902359
2.1739375591278076,0.021553369238972664,-0.4205767810344696,0.5853742361068726,0.2615014910697937,-0.152399480342865,-0.057793546468019485
2.194002151489258,0.021553369238972664,-0.4194323718547821,0.5842298269271851,0.2622644305229187,-0.15468832850456238,-0.05855649709701538
2.214083433151245,0.021553369238972664,-0.4201953113079071,0.5827038884162903,0.26760509610176086,-0.15621423721313477,-0.06046387553215027
2.2341582775115967,0.021553369238972664,-0.4236285984516144,0.5823224186897278,0.2756160795688629,-0.16269932687282562,-0.06084534898400307
2.2542333602905273,0.023079270496964455,-0.42782482504844666,0.5823224186897278,0.28629741072654724,-0.16994735598564148,-0.06275273114442825
2.2743780612945557,0.026131074875593185,-0.42858776450157166,0.5838482975959778,0.2924010157585144,-0.17605096101760864,-0.06389715522527695
2.2944250106811523,0.03032730519771576,-0.42744335532188416,0.5865186452865601,0.2965972423553467,-0.17986571788787842,-0.06504157930612564
2.3144803047180176,0.03604944050312042,-0.42515450716018677,0.5907148718833923,0.30041199922561646,-0.182154580950737,-0.06809338182210922
2.334653615951538,0.040245670825242996,-0.4228656589984894,0.5960555672645569,0.308804452419281,-0.1817730963230133,-0.0715266615152359
2.354741096496582,0.042153049260377884,-0.4217212200164795,0.5987258553504944,0.3114747703075409,-0.17872129380702972,-0.07343403995037079
2.3748207092285156,0.04253452271223068,-0.4198138415813446,0.5979629158973694,0.3118562698364258,-0.17452506721019745,-0.07610437273979187
2.395223379135132,0.042153049260377884,-0.4179064631462097,0.5975814461708069,0.31567102670669556,-0.17528800666332245,-0.07763027399778366
2.4153056144714355,0.04177157208323479,-0.4179064631462097,0.5960555672645569,0.31910428404808044,-0.17948424816131592,-0.07877469807863235
2.4353866577148438,0.04139009863138199,-0.4182879328727722,0.5960555672645569,0.32520791888237,-0.18558785319328308,-0.08144503086805344
2.4563539028167725,0.04139009863138199,-0.4201953113079071,0.5960555672645569,0.3423742949962616,-0.19512474536895752,-0.0879301130771637
2.476440668106079,0.04406042397022247,-0.4201953113079071,0.5975814461708069,0.3553444743156433,-0.20504310727119446,-0.08983749151229858
2.4965028762817383,0.04634927958250046,-0.4198138415813446,0.5994887948036194,0.361829549074173,-0.20923933386802673,-0.09250781685113907
2.516577959060669,0.05092698708176613,-0.4186694025993347,0.6017776727676392,0.36602577567100525,-0.21114671230316162,-0.09517814964056015
2.536731243133545,0.05741206929087639,-0.41561761498451233,0.6086442470550537,0.3767071068286896,-0.2130540907382965,-0.10013733059167862
2.5569663047790527,0.059319447726011276,-0.41332876682281494,0.612077534198761,0.3896772861480713,-0.21190966665744781,-0.10547798871994019
2.5769119262695312,0.05970092490315437,-0.41256579756736755,0.6132219433784485,0.39539939165115356,-0.20923933386802673,-0.10967422276735306
2.5970261096954346,0.06008239835500717,-0.40951400995254517,0.612840473651886,0.39806973934173584,-0.20771344006061554,-0.11348897218704224
2.617109537124634,0.05970092490315437,-0.4076066315174103,0.612077534198761,0.4018844962120056,-0.20962081849575043,-0.11615930497646332
2.6371591091156006,0.05741206929087639,-0.4076066315174103,0.6101701259613037,0.4076066315174103,-0.2153429538011551,-0.1184481605887413
2.6572558879852295,0.057793546468019485,-0.4072251319885254,0.6082627773284912,0.4205767810344696,-0.22220951318740845,-0.12378881871700287
2.6773335933685303,0.05855649709701538,-0.4076066315174103,0.6082627773284912,0.4335469603538513,-0.2298390120267868,-0.12912946939468384
2.6974005699157715,0.059319447726011276,-0.4079881012439728,0.6082627773284912,0.44232088327407837,-0.23594263195991516,-0.1340886503458023
2.7174935340881348,0.06198977679014206,-0.4076066315174103,0.6094071865081787,0.4514763057231903,-0.23632410168647766,-0.1371404528617859
2.7375917434692383,0.06771191209554672,-0.4053177833557129,0.615129292011261,0.46025025844573975,-0.23746852576732635,-0.14171816408634186
2.7580108642578125,0.06961929053068161,-0.4022659659385681,0.6181811094284058,0.4800869822502136,-0.23441672325134277,-0.1520180106163025
2.7780935764312744,0.06885633617639542,-0.39883267879486084,0.6189440488815308,0.4869535267353058,-0.23289081454277039,-0.15964750945568085
2.7981479167938232,0.06847485899925232,-0.39539939165115356,0.6181811094284058,0.49496451020240784,-0.2313649207353592,-0.1680399775505066
2.818399667739868,0.06733043491840363,-0.3919661343097687,0.6155108213424683,0.5018310546875,-0.23479819297790527,-0.17223620414733887
2.8385188579559326,0.06618601083755493,-0.3908216953277588,0.6105515956878662,0.5113679766654968,-0.23785001039505005,-0.17605096101760864
2.8585927486419678,0.06542305648326874,-0.3908216953277588,0.6078813076019287,0.5262455344200134,-0.2439536154270172,-0.18558785319328308
2.878650426864624,0.06542305648326874,-0.3915846347808838,0.6078813076019287,0.5380712747573853,-0.25234606862068176,-0.19054703414440155
2.898843765258789,0.06694895774126053,-0.3931105434894562,0.6074998378753662,0.5437933802604675,-0.25425344705581665,-0.19436179101467133
2.9188647270202637,0.06847485899925232,-0.3934920132160187,0.6078813076019287,0.5521858334541321,-0.25501641631126404,-0.1970321238040924
2.938941717147827,0.0715266615152359,-0.3923476040363312,0.6109330654144287,0.5579079985618591,-0.25387197732925415,-0.1997024416923523
2.9590208530426025,0.07038223743438721,-0.3896772861480713,0.614366352558136,0.569733738899231,-0.25120165944099426,-0.21038375794887543
2.979182481765747,0.06504157930612564,-0.3881513774394989,0.615129292011261,0.5846112966537476,-0.24357213079929352,-0.22220951318740845
2.9992098808288574,0.06427863240242004,-0.3854810297489166,0.6132219433784485,0.5907148718833923,-0.23975738883018494,-0.23479819297790527
3.0193655490875244,0.06389715522527695,-0.38166627287864685,0.6078813076019287,0.6010147333145142,-0.24319066107273102,-0.2450980395078659
3.039405584335327,0.06466010212898254,-0.37975889444351196,0.6025406122207642,0.612077534198761,-0.247768372297287,-0.25539788603782654
3.059635639190674,0.06542305648326874,-0.37899595499038696,0.6017776727676392,0.6265735626220703,-0.25349050760269165,-0.26760509610176086
3.0798168182373047,0.06771191209554672,-0.38090333342552185,0.6010147333145142,0.6372548937797546,-0.25577935576438904,-0.2748531401157379
3.099916458129883,0.07000076025724411,-0.38242924213409424,0.6017776727676392,0.6441214680671692,-0.25310903787612915,-0.28248265385627747
3.1202754974365234,0.07267109304666519,-0.38242924213409424,0.6059738993644714,0.6540398001670837,-0.25310903787612915,-0.28934919834136963
3.1403751373291016,0.06961929053068161,-0.38166627287864685,0.6101701259613037,0.6708247661590576,-0.2473868876695633,-0.30193790793418884
3.1604526042938232,0.06275273114442825,-0.37937742471694946,0.6101701259613037,0.6849393248558044,-0.23403525352478027,-0.31414511799812317
3.180807113647461,0.05703059583902359,-0.3767071068286896,0.6055924296379089,0.693331778049469,-0.2286945879459381,-0.32673379778862
3.200897455215454,0.05397878959774971,-0.3728923499584198,0.5975814461708069,0.7028687000274658,-0.2290760725736618,-0.33627068996429443
3.2209646701812744,0.05283436179161072,-0.3713664412498474,0.5926222801208496,0.7120240926742554,-0.2302204966545105,-0.34580758213996887
3.2413830757141113,0.053215838968753815,-0.3725108802318573,0.5895704627037048,0.7227054238319397,-0.23746852576732635,-0.35038527846336365
3.261474609375,0.05397878959774971,-0.3770885765552521,0.5884260535240173,0.7291905283927917,-0.23975738883018494,-0.3526741564273834
3.2816123962402344,0.054741740226745605,-0.38052186369895935,0.5888075232505798,0.7314793467521667,-0.23556114733219147,-0.3553444743156433
3.3016443252563477,0.05703059583902359,-0.38052186369895935,0.5903334021568298,0.7337682247161865,-0.23594263195991516,-0.3564889132976532
3.3217411041259766,0.05855649709701538,-0.38052186369895935,0.5945296287536621,0.7352941036224365,-0.23250934481620789,-0.3587777614593506
3.3418006896972656,0.05054550990462303,-0.38052186369895935,0.5949110984802246,0.7463569045066833,-0.22220951318740845,-0.3686961233615875
3.361868381500244,0.043678950518369675,-0.37937742471694946,0.5926222801208496,0.7558938264846802,-0.20885786414146423,-0.38090333342552185
3.38199520111084,0.04139009863138199,-0.3774700462818146,0.5884260535240173,0.7646677494049072,-0.20351719856262207,-0.3915846347808838
3.4020752906799316,0.040245670825242996,-0.3755626678466797,0.5842298269271851,0.7734416723251343,-0.20885786414146423,-0.39539939165115356
3.4221127033233643,0.040245670825242996,-0.3755626678466797,0.5830853581428528,0.7833600640296936,-0.21152819693088531,-0.4015030264854431
3.4421989917755127,0.04139009863138199,-0.37899595499038696,0.5830853581428528,0.7906080484390259,-0.21152819693088531,-0.403410404920578
3.462270975112915,0.04329747334122658,-0.38242924213409424,0.5846112966537476,0.7932783961296082,-0.20847637951374054,-0.4068436622619629
3.4823319911956787,0.04444190114736557,-0.38319218158721924,0.5865186452865601,0.7967116832733154,-0.20618753135204315,-0.4087510406970978
3.5024218559265137,0.04444190114736557,-0.3839551508426666,0.5918593406677246,0.80357825756073,-0.20389868319034576,-0.41218432784080505
3.52250599861145,0.0394827201962471,-0.3839551508426666,0.5914778113365173,0.8165484070777893,-0.18825818598270416,-0.421339750289917
3.5425920486450195,0.034142062067985535,-0.386243999004364,0.5895704627037048,0.8287556171417236,-0.17795833945274353,-0.4327840209007263
3.5627336502075195,0.03223468363285065,-0.3873884081840515,0.5865186452865601,0.840199887752533,-0.16994735598564148,-0.44155794382095337
3.5831000804901123,0.031090257689356804,-0.387006938457489,0.5853742361068726,0.8531700372695923,-0.17185473442077637,-0.44689860939979553
3.6031322479248047,0.03185320645570755,-0.3896772861480713,0.5853742361068726,0.8615625500679016,-0.17261768877506256,-0.4522392749786377
3.6232306957244873,0.03223468363285065,-0.3934920132160187,0.5853742361068726,0.8661402463912964,-0.16956588625907898,-0.4541466534137726
3.6433308124542236,0.03299763426184654,-0.39616236090660095,0.5865186452865601,0.8691920638084412,-0.16880293190479279,-0.45681697130203247
3.6633951663970947,0.034142062067985535,-0.39730677008628845,0.5888075232505798,0.8726252913475037,-0.16880293190479279,-0.45796138048171997
3.683468818664551,0.03376058489084244,-0.39845120906829834,0.5941481590270996,0.8752956390380859,-0.1653696447610855,-0.46025025844573975
3.703556537628174,0.026131074875593185,-0.3995956480503082,0.5945296287536621,0.8836880922317505,-0.1508735716342926,-0.4674982726573944
3.7236409187316895,0.01888304017484188,-0.39921414852142334,0.5937666893005371,0.8943694233894348,-0.13866636157035828,-0.47474631667137146
3.744349241256714,0.018120087683200836,-0.39921414852142334,0.5899519324302673,0.9023804068565369,-0.12951095402240753,-0.4819943606853485
3.7644765377044678,0.01888304017484188,-0.3995956480503082,0.5884260535240173,0.9134432077407837,-0.13141833245754242,-0.4865720570087433
3.784532308578491,0.02040894143283367,-0.4007400572299957,0.5895704627037048,0.9214541912078857,-0.13141833245754242,-0.4892423748970032
3.8046469688415527,0.021553369238972664,-0.4056992530822754,0.5914778113365173,0.9279392957687378,-0.12607766687870026,-0.49382010102272034
3.8246819972991943,0.02231631986796856,-0.4087510406970978,0.5937666893005371,0.9313725233078003,-0.12417028844356537,-0.4968718886375427
3.844773292541504,0.022697795182466507,-0.41142138838768005,0.5987258553504944,0.9359502792358398,-0.12073700875043869,-0.4987792670726776
3.8648343086242676,0.020027466118335724,-0.41332876682281494,0.6040665507316589,0.9409094452857971,-0.11615930497646332,-0.5022125840187073
3.884888172149658,0.011635004542768002,-0.41371023654937744,0.6036850810050964,0.9481574892997742,-0.10051880776882172,-0.5071717500686646
3.9049668312072754,0.005912871100008488,-0.41371023654937744,0.5964370369911194,0.9554055333137512,-0.08487831056118011,-0.5132753252983093
3.925034761428833,0.00476844422519207,-0.41180285811424255,0.5903334021568298,0.9634165167808533,-0.08068207651376724,-0.5163271427154541
3.94512677192688,0.00476844422519207,-0.41142138838768005,0.5880445837974548,0.9725719094276428,-0.08297093212604523,-0.5182345509529114
3.9651870727539062,0.005149920005351305,-0.41371023654937744,0.5880445837974548,0.9771496057510376,-0.08525978773832321,-0.5209048390388489
3.9852826595306396,0.005912871100008488,-0.4190509021282196,0.5888075232505798,0.9794384837150574,-0.07801175117492676,-0.5235751867294312
4.005485534667969,0.00858320016413927,-0.4209582805633545,0.5914778113365173,0.9813458323478699,-0.07686731964349747,-0.5243381261825562
4.025582551956177,0.00858320016413927,-0.4224841594696045,0.5979629158973694,0.9855420589447021,-0.07419699430465698,-0.5251010656356812
4.04564905166626,-0.0013351644156500697,-0.4243915379047394,0.5998703241348267,0.9916456937789917,-0.06580453366041183,-0.5289158225059509
4.065712213516235,-0.010872052982449532,-0.4240100681781769,0.5945296287536621,0.995841920375824,-0.04749370738863945,-0.5323491096496582
4.085820913314819,-0.014686808921396732,-0.4236285984516144,0.5899519324302673,1.0004196166992188,-0.03795681521296501,-0.535400927066803
4.10613489151001,-0.016212711110711098,-0.4232471287250519,0.5869001150131226,1.0057603120803833,-0.04329747334122658,-0.5357823967933655
4.126183032989502,-0.016594186425209045,-0.4236285984516144,0.5861371755599976,1.0088120698928833,-0.04711223021149635,-0.536926805973053
4.1463234424591064,-0.01583123579621315,-0.42820629477500916,0.5861371755599976,1.0111008882522583,-0.04749370738863945,-0.5376898050308228
4.1663665771484375,-0.013923857361078262,-0.43202105164527893,0.5865186452865601,1.0122454166412354,-0.04596780240535736,-0.5388342142105103
4.186420202255249,-0.011635004542768002,-0.4335469603538513,0.5884260535240173,1.0137712955474854,-0.04253452271223068,-0.5392156839370728
4.206515312194824,-0.011635004542768002,-0.4346913993358612,0.5945296287536621,1.0152971744537354,-0.0398641936480999,-0.5399786233901978
4.226599216461182,-0.01583123579621315,-0.4369802474975586,0.5979629158973694,1.0202564001083374,-0.03681239113211632,-0.54264897108078
4.246655225753784,-0.023079270496964455,-0.4373617172241211,0.5987258553504944,1.0271228551864624,-0.016594186425209045,-0.5472266674041748
4.266736030578613,-0.026512550190091133,-0.4381246566772461,0.5941481590270996,1.0336079597473145,-0.008201723918318748,-0.5495155453681946
4.286810636520386,-0.026131074875593185,-0.4388876259326935,0.5903334021568298,1.0393301248550415,-0.0032425422687083483,-0.5518043637275696
4.306886911392212,-0.024223696440458298,-0.440032035112381,0.5903334021568298,1.044670820236206,-0.005531395319849253,-0.5525673031806946
4.32703971862793,-0.02193484455347061,-0.44422826170921326,0.5918593406677246,1.048485517501831,-0.00476844422519207,-0.5537117719650269
4.347164630889893,-0.01926451548933983,-0.4503318965435028,0.5952925682067871,1.051155924797058,-0.0036240178160369396,-0.5544747114181519
4.36721134185791,-0.015449759550392628,-0.4530022144317627,0.6006332635879517,1.052681803703308,-0.002861066721379757,-0.5548561811447144
4.3873162269592285,-0.015449759550392628,-0.4537651538848877,0.6078813076019287,1.0553520917892456,-0.0036240178160369396,-0.5560005903244019
4.40740704536438,-0.024986648932099342,-0.4541466534137726,0.612077534198761,1.0584038496017456,0.004386968910694122,-0.5575265288352966
4.4274749755859375,-0.03528648987412453,-0.4541466534137726,0.6094071865081787,1.0591669082641602,0.01926451548933983,-0.5590524077415466
4.4475274085998535,-0.0394827201962471,-0.4507133662700653,0.6021591424942017,1.0637445449829102,0.03528648987412453,-0.5613412857055664
4.467622518539429,-0.037193864583969116,-0.4495689272880554,0.5956740379333496,1.0687037706375122,0.035667963325977325,-0.5609598159790039
4.487766265869141,-0.03376058489084244,-0.4507133662700653,0.5922408103942871,1.0736628770828247,0.02841992862522602,-0.5609598159790039
4.5080320835113525,-0.030708782374858856,-0.4541466534137726,0.5918593406677246,1.0740443468093872,0.022697795182466507,-0.5613412857055664
4.528136491775513,-0.027656977996230125,-0.45910581946372986,0.5922408103942871,1.0736628770828247,0.024223696440458298,-0.5617227554321289
4.548189401626587,-0.024223696440458298,-0.46025025844573975,0.5937666893005371,1.0740443468093872,0.026512550190091133,-0.5621042251586914
4.568256855010986,-0.023460745811462402,-0.45948728919029236,0.5991073250770569,1.0740443468093872,0.028038453310728073,-0.5632486343383789
4.588349103927612,-0.03376058489084244,-0.45910581946372986,0.6033035516738892,1.0755703449249268,0.035667963325977325,-0.5643930435180664
4.608441591262817,-0.04482337832450867,-0.45834288001060486,0.6033035516738892,1.0770962238311768,0.04749370738863945,-0.5655375123023987
4.628497362136841,-0.050164032727479935,-0.45719844102859497,0.5971999764442444,1.0797665119171143,0.056267641484737396,-0.5659189820289612
4.6485960483551025,-0.05130846053361893,-0.4545281231403351,0.5910963416099548,1.0831998586654663,0.0551232174038887,-0.5655375123023987
4.668668746948242,-0.049782559275627136,-0.4533836841583252,0.5876630544662476,1.0854886770248413,0.04596780240535736,-0.5655375123023987
4.688733100891113,-0.04787518084049225,-0.45719844102859497,0.5876630544662476,1.0862516164779663,0.04291599988937378,-0.5655375123023987
4.708832740783691,-0.043678950518369675,-0.46139466762542725,0.5880445837974548,1.0866330862045288,0.04406042397022247,-0.5663004517555237
4.728903770446777,-0.0394827201962471,-0.46368351578712463,0.5903334021568298,1.0866330862045288,0.04482337832450867,-0.5663004517555237
4.748962640762329,-0.03604944050312042,-0.4640650153160095,0.5952925682067871,1.0873960256576538,0.045204851776361465,-0.5666819214820862
4.7690839767456055,-0.04139009863138199,-0.4648279547691345,0.6033035516738892,1.0889219045639038,0.051689937710762024,-0.5674448609352112
4.7891526222229,-0.050164032727479935,-0.464446485042572,0.6052109599113464,1.0912108421325684,0.06198977679014206,-0.568970799446106
4.8092200756073,-0.056267641484737396,-0.46330204606056213,0.6025406122207642,1.0931181907653809,0.0722896158695221,-0.5701152086257935
4.829432725906372,-0.05397878959774971,-0.46215763688087463,0.5968185067176819,1.0969328880310059,0.07419699430465698,-0.570496678352356
4.849520921707153,-0.04940108209848404,-0.46292057633399963,0.5941481590270996,1.1022735834121704,0.06923781335353851,-0.569733738899231
4.869590759277344,-0.04558632895350456,-0.4655908942222595,0.5941481590270996,1.1037994623184204,0.06046387553215027,-0.569733738899231
4.889662027359009,-0.0398641936480999,-0.4713130295276642,0.5949110984802246,1.103417992591858,0.061226826161146164,-0.5708781480789185
4.909838914871216,-0.03376058489084244,-0.47512778639793396,0.5979629158973694,1.1037994623184204,0.05970092490315437,-0.5708781480789185
4.929868459701538,-0.03147173300385475,-0.47512778639793396,0.6029220819473267,1.103417992591858,0.05970092490315437,-0.5716410875320435
4.949948310852051,-0.03337911143898964,-0.47474631667137146,0.6113145351409912,1.1037994623184204,0.06160829961299896,-0.572022557258606
4.970017910003662,-0.04329747334122658,-0.4736018776893616,0.614366352558136,1.1045624017715454,0.07724879682064056,-0.5724040865898132
4.990084409713745,-0.05207141116261482,-0.4716945290565491,0.6082627773284912,1.1064698696136475,0.08945601433515549,-0.5735484957695007
5.010346412658691,-0.05397878959774971,-0.4682612419128418,0.5987258553504944,1.1102845668792725,0.09517814964056015,-0.5735484957695007
5.030446290969849,-0.049782559275627136,-0.4682612419128418,0.5941481590270996,1.1175326108932495,0.08983749151229858,-0.5727855563163757
5.050505638122559,-0.04444190114736557,-0.4709315598011017,0.5941481590270996,1.120202898979187,0.07915617525577545,-0.5716410875320435
5.07055926322937,-0.040245670825242996,-0.47741663455963135,0.5941481590270996,1.1198214292526245,0.07419699430465698,-0.5716410875320435
5.090755939483643,-0.03490501269698143,-0.481612890958786,0.5949110984802246,1.1190584897994995,0.07343403995037079,-0.572022557258606
5.110783338546753,-0.03223468363285065,-0.4808499217033386,0.5975814461708069,1.118677020072937,0.07343403995037079,-0.5724040865898132
5.130829334259033,-0.03185320645570755,-0.4800869822502136,0.6025406122207642,1.118677020072937,0.08106355369091034,-0.5724040865898132
5.150957107543945,-0.039101243019104004,-0.47817960381507874,0.6074998378753662,1.118677020072937,0.09365224838256836,-0.5724040865898132
5.171030759811401,-0.04787518084049225,-0.47741663455963135,0.6074998378753662,1.1190584897994995,0.10471503436565399,-0.5727855563163757
5.191164016723633,-0.05741206929087639,-0.47550925612449646,0.6048294901847839,1.1198214292526245,0.10700388997793198,-0.5727855563163757
5.2112226486206055,-0.06160829961299896,-0.4728389382362366,0.5987258553504944,1.120202898979187,0.10662241280078888,-0.5727855563163757
5.23128080368042,-0.06198977679014206,-0.4720759987831116,0.5937666893005371,1.122110366821289,0.1031891331076622,-0.5724040865898132
5.251371383666992,-0.061226826161146164,-0.4724574685096741,0.5918593406677246,1.122873306274414,0.09708552807569504,-0.572022557258606
5.271904706954956,-0.05893797054886818,-0.47703516483306885,0.5914778113365173,1.122110366821289,0.09403372555971146,-0.5724040865898132
5.29199481010437,-0.0558861680328846,-0.4800869822502136,0.5933852195739746,1.1224918365478516,0.09403372555971146,-0.5724040865898132
5.312066555023193,-0.05207141116261482,-0.4808499217033386,0.5971999764442444,1.1224918365478516,0.09441519528627396,-0.5724040865898132
5.332889795303345,-0.05092698708176613,-0.4812313914299011,0.6052109599113464,1.123636245727539,0.09403372555971146,-0.5724040865898132
5.352989435195923,-0.059319447726011276,-0.4819943606853485,0.6101701259613037,1.1255435943603516,0.1039520874619484,-0.5724040865898132
5.373063325881958,-0.06580453366041183,-0.4819943606853485,0.6082627773284912,1.1263065338134766,0.11615930497646332,-0.5731670260429382
5.393160104751587,-0.06466010212898254,-0.4812313914299011,0.6036850810050964,1.1293584108352661,0.12226291000843048,-0.5735484957695007
5.4132399559021,-0.05893797054886818,-0.4835202693939209,0.6082627773284912,1.1354619264602661,0.10814831405878067,-0.5724040865898132
5.433322906494141,-0.05397878959774971,-0.4869535267353058,0.612077534198761,1.1369879245758057,0.09937438368797302,-0.5727855563163757
5.4534912109375,-0.050164032727479935,-0.49229419231414795,0.6170367002487183,1.1362248659133911,0.09975585341453552,-0.5727855563163757
5.473583698272705,-0.04482337832450867,-0.4964904189109802,0.6242847442626953,1.1362248659133911,0.09403372555971146,-0.5727855563163757
5.4936676025390625,-0.04444190114736557,-0.4972533881664276,0.6322957277297974,1.1362248659133911,0.09021896868944168,-0.5731670260429382
5.513718128204346,-0.05207141116261482,-0.4964904189109802,0.6361104846000671,1.1358433961868286,0.10128175467252731,-0.5735484957695007
5.53380823135376,-0.061226826161146164,-0.49267566204071045,0.6345845460891724,1.1366063356399536,0.11387044936418533,-0.5746929049491882
5.553889751434326,-0.06847485899925232,-0.4880979657173157,0.6300068497657776,1.1369879245758057,0.12188144028186798,-0.5754558444023132
5.573949098587036,-0.07343403995037079,-0.4850461483001709,0.621614396572113,1.1381323337554932,0.12378881871700287,-0.5750743746757507
5.594042778015137,-0.0707637146115303,-0.4839017391204834,0.6116960644721985,1.1392767429351807,0.12378881871700287,-0.5758373141288757
5.614117860794067,-0.06504157930612564,-0.4850461483001709,0.6063553690910339,1.1411840915679932,0.11234454810619354,-0.5743114352226257
5.634195566177368,-0.061226826161146164,-0.48962387442588806,0.6055924296379089,1.1404211521148682,0.10585946589708328,-0.5743114352226257
5.654318809509277,-0.0558861680328846,-0.49458304047584534,0.6055924296379089,1.1396582126617432,0.1039520874619484,-0.5754558444023132
5.674365282058716,-0.05283436179161072,-0.4957274794578552,0.6067368388175964,1.1396582126617432,0.10585946589708328,-0.5754558444023132
5.694443702697754,-0.050164032727479935,-0.49382010102272034,0.612077534198761,1.1400396823883057,0.10891126841306686,-0.5754558444023132
5.714524745941162,-0.0551232174038887,-0.49267566204071045,0.6174181699752808,1.1400396823883057,0.11539635062217712,-0.5754558444023132
5.734598636627197,-0.06198977679014206,-0.49153125286102295,0.6185625791549683,1.1404211521148682,0.12836651504039764,-0.5758373141288757
5.7546234130859375,-0.06771191209554672,-0.49038681387901306,0.6174181699752808,1.1408026218414307,0.134470134973526,-0.5758373141288757
5.774809122085571,-0.0711451917886734,-0.4873350262641907,0.6109330654144287,1.1411840915679932,0.1367589831352234,-0.5758373141288757
5.794823884963989,-0.06847485899925232,-0.4858091175556183,0.6052109599113464,1.1411840915679932,0.13218127191066742,-0.5758373141288757
5.8148720264434814,-0.06275273114442825,-0.4861905872821808,0.6040665507316589,1.1419470310211182,0.12226291000843048,-0.5743114352226257
5.834980010986328,-0.058175019919872284,-0.48962387442588806,0.6044480204582214,1.1415655612945557,0.12264438718557358,-0.5746929049491882
5.855055809020996,-0.05207141116261482,-0.49305713176727295,0.6071183085441589,1.1411840915679932,0.1188296303153038,-0.5750743746757507
5.875130653381348,-0.048256658017635345,-0.49267566204071045,0.6124590039253235,1.1411840915679932,0.11425192654132843,-0.5750743746757507
5.895199537277222,-0.053215838968753815,-0.49229419231414795,0.619325578212738,1.1411840915679932,0.1184481605887413,-0.5750743746757507
5.915310382843018,-0.06198977679014206,-0.49114975333213806,0.620851457118988,1.1411840915679932,0.1333257108926773,-0.576218843460083
5.935356378555298,-0.06847485899925232,-0.4888609051704407,0.6189440488815308,1.1415655612945557,0.14248111844062805,-0.576218843460083
5.955644369125366,-0.07572289556264877,-0.4846646785736084,0.6132219433784485,1.1419470310211182,0.14438849687576294,-0.5754558444023132
5.975733280181885,-0.07724879682064056,-0.4819943606853485,0.6048294901847839,1.1449989080429077,0.14209964871406555,-0.5758373141288757
5.995814561843872,-0.07572289556264877,-0.483138769865036,0.5998703241348267,1.1461433172225952,0.1337071806192398,-0.5739299654960632
6.015866994857788,-0.07343403995037079,-0.4861905872821808,0.5983443856239319,1.1457618474960327,0.12798504531383514,-0.5735484957695007
6.035968780517578,-0.06961929053068161,-0.49038681387901306,0.5983443856239319,1.1449989080429077,0.12417028844356537,-0.5735484957695007
6.056032419204712,-0.06504157930612564,-0.49267566204071045,0.5998703241348267,1.1449989080429077,0.12226291000843048,-0.5735484957695007
6.076178789138794,-0.06046387553215027,-0.49229419231414795,0.6025406122207642,1.1449989080429077,0.12417028844356537,-0.5735484957695007
6.096208572387695,-0.06313420087099075,-0.49267566204071045,0.6116960644721985,1.1453803777694702,0.12684062123298645,-0.5731670260429382
6.116289138793945,-0.06923781335353851,-0.49229419231414795,0.6166552305221558,1.1457618474960327,0.1363775134086609,-0.5743114352226257
6.136366844177246,-0.07495994865894318,-0.49191272258758545,0.6162737607955933,1.1453803777694702,0.14705882966518402,-0.5746929049491882
6.156450033187866,-0.07953765243291855,-0.4892423748970032,0.6132219433784485,1.1461433172225952,0.1493476778268814,-0.5743114352226257
6.176539421081543,-0.07801175117492676,-0.4873350262641907,0.6071183085441589,1.1476691961288452,0.14553292095661163,-0.5739299654960632
6.196613311767578,-0.0722896158695221,-0.4884794354438782,0.6040665507316589,1.1495765447616577,0.13904783129692078,-0.5724040865898132
6.2166900634765625,-0.06580453366041183,-0.49076828360557556,0.6040665507316589,1.1491950750350952,0.13218127191066742,-0.5724040865898132
6.236809492111206,-0.05970092490315437,-0.4957274794578552,0.6059738993644714,1.1484321355819702,0.13065537810325623,-0.5727855563163757
6.256860733032227,-0.05283436179161072,-0.4980163276195526,0.6086442470550537,1.1484321355819702,0.12798504531383514,-0.5724040865898132
6.276914358139038,-0.04901960864663124,-0.4976348578929901,0.6155108213424683,1.1480506658554077,0.12531471252441406,-0.5727855563163757
6.297001123428345,-0.05245288833975792,-0.4964904189109802,0.621614396572113,1.1476691961288452,0.12874799966812134,-0.5727855563163757
6.317080497741699,-0.059319447726011276,-0.49496451020240784,0.6239032745361328,1.1472877264022827,0.14019227027893066,-0.5731670260429382
6.3371288776397705,-0.06618601083755493,-0.49267566204071045,0.6227588057518005,1.1480506658554077,0.14820325374603271,-0.5735484957695007
6.357224225997925,-0.07343403995037079,-0.4892423748970032,0.6189440488815308,1.1488136053085327,0.14629587531089783,-0.5731670260429382
6.377292633056641,-0.07610437273979187,-0.4865720570087433,0.6097886562347412,1.1488136053085327,0.14705882966518402,-0.5735484957695007
6.397359848022461,-0.07457847148180008,-0.4861905872821808,0.6040665507316589,1.1495765447616577,0.14019227027893066,-0.572022557258606
6.417434930801392,-0.0722896158695221,-0.4873350262641907,0.6017776727676392,1.1491950750350952,0.12989242374897003,-0.572022557258606
6.4375,-0.06961929053068161,-0.49191272258758545,0.6013962030410767,1.1480506658554077,0.12798504531383514,-0.5727855563163757
6.457555770874023,-0.06466010212898254,-0.49382010102272034,0.6021591424942017,1.1480506658554077,0.12417028844356537,-0.5727855563163757
6.4776458740234375,-0.06046387553215027,-0.49420157074928284,0.6067368388175964,1.1480506658554077,0.12607766687870026,-0.5724040865898132
6.49774956703186,-0.06084534898400307,-0.49458304047584534,0.613603413105011,1.1480506658554077,0.12607766687870026,-0.5724040865898132
6.517822265625,-0.06694895774126053,-0.49382010102272034,0.6177996397018433,1.1484321355819702,0.135233074426651,-0.5731670260429382
6.5388123989105225,-0.0711451917886734,-0.49305713176727295,0.6185625791549683,1.1484321355819702,0.14438849687576294,-0.5735484957695007
6.558907747268677,-0.07495994865894318,-0.49191272258758545,0.6158922910690308,1.1488136053085327,0.14744029939174652,-0.5727855563163757
6.578993320465088,-0.07457847148180008,-0.4888609051704407,0.6101701259613037,1.1491950750350952,0.14858472347259521,-0.5731670260429382
6.599056959152222,-0.06694895774126053,-0.4892423748970032,0.6086442470550537,1.1495765447616577,0.13790340721607208,-0.5724040865898132
6.61922287940979,-0.061226826161146164,-0.49114975333213806,0.6094071865081787,1.1503394842147827,0.13103684782981873,-0.5716410875320435
6.6392436027526855,-0.0555046908557415,-0.4953460097312927,0.612840473651886,1.1495765447616577,0.12951095402240753,-0.5724040865898132
6.659303903579712,-0.049782559275627136,-0.4968718886375427,0.6170367002487183,1.1491950750350952,0.12569619715213776,-0.572022557258606
6.679632902145386,-0.05130846053361893,-0.4968718886375427,0.6258106231689453,1.1488136053085327,0.12340734153985977,-0.572022557258606
6.699719190597534,-0.05893797054886818,-0.49496451020240784,0.6288624405860901,1.1484321355819702,0.1340886503458023,-0.5727855563163757
6.719799041748047,-0.06733043491840363,-0.49267566204071045,0.6273365616798401,1.1488136053085327,0.14400701224803925,-0.5731670260429382
6.739884853363037,-0.07457847148180008,-0.4888609051704407,0.6235218048095703,1.1495765447616577,0.14667734503746033,-0.5727855563163757
6.760035037994385,-0.07801175117492676,-0.4854276478290558,0.614366352558136,1.1518653631210327,0.14591439068317413,-0.5731670260429382
6.780029535293579,-0.07610437273979187,-0.4842832088470459,0.6071183085441589,1.1526284217834473,0.14019227027893066,-0.572022557258606
6.800288200378418,-0.07267109304666519,-0.4846646785736084,0.6044480204582214,1.1526284217834473,0.12874799966812134,-0.571259617805481
6.820363283157349,-0.06847485899925232,-0.48962387442588806,0.6040665507316589,1.1522468328475952,0.12569619715213776,-0.571259617805481
6.840461492538452,-0.06389715522527695,-0.49420157074928284,0.6048294901847839,1.1518653631210327,0.12455176562070847,-0.5716410875320435
6.860509634017944,-0.05970092490315437,-0.49496451020240784,0.6071183085441589,1.1514838933944702,0.12607766687870026,-0.5716410875320435
6.880601406097412,-0.059319447726011276,-0.49496451020240784,0.6158922910690308,1.1514838933944702,0.12798504531383514,-0.572022557258606
6.9006640911102295,-0.06389715522527695,-0.49420157074928284,0.6197070479393005,1.1518653631210327,0.1359960287809372,-0.5724040865898132
6.920727491378784,-0.0711451917886734,-0.49305713176727295,0.6197070479393005,1.1518653631210327,0.14476996660232544,-0.5724040865898132
6.940823078155518,-0.07534141838550568,-0.49038681387901306,0.615129292011261,1.1522468328475952,0.14744029939174652,-0.572022557258606
6.960934400558472,-0.0722896158695221,-0.4869535267353058,0.6090257167816162,1.1533913612365723,0.14209964871406555,-0.572022557258606
6.9810566902160645,-0.06580453366041183,-0.4884794354438782,0.6109330654144287,1.1556801795959473,0.12798504531383514,-0.5708781480789185
7.001075744628906,-0.061226826161146164,-0.49229419231414795,0.6166552305221558,1.1556801795959473,0.12264438718557358,-0.5685893297195435
7.021151781082153,-0.05741206929087639,-0.4983977973461151,0.6261920928955078,1.1537728309631348,0.1184481605887413,-0.5682078003883362
7.041213750839233,-0.0555046908557415,-0.4991607666015625,0.6345845460891724,1.1541543006896973,0.11768520623445511,-0.5682078003883362
7.061277866363525,-0.061226826161146164,-0.4972533881664276,0.6376363635063171,1.1537728309631348,0.12836651504039764,-0.568970799446106
7.081366062164307,-0.06694895774126053,-0.49420157074928284,0.6372548937797546,1.1537728309631348,0.14133669435977936,-0.568970799446106
7.101445913314819,-0.07267109304666519,-0.48962387442588806,0.6349660754203796,1.1545357704162598,0.14400701224803925,-0.568970799446106
7.121695280075073,-0.07915617525577545,-0.4846646785736084,0.6269550919532776,1.1560616493225098,0.14400701224803925,-0.5685893297195435
7.141769886016846,-0.07877469807863235,-0.4827573001384735,0.615129292011261,1.1564431190490723,0.14515145123004913,-0.568970799446106
7.161879539489746,-0.07457847148180008,-0.4839017391204834,0.6090257167816162,1.1572060585021973,0.13790340721607208,-0.5674448609352112
7.181938648223877,-0.0707637146115303,-0.4873350262641907,0.6059738993644714,1.1568245887756348,0.12455176562070847,-0.5670633912086487
7.202099800109863,-0.06656748056411743,-0.49267566204071045,0.6052109599113464,1.1552987098693848,0.11959258466959,-0.5678263306617737
7.222110986709595,-0.06275273114442825,-0.49420157074928284,0.6055924296379089,1.1552987098693848,0.1184481605887413,-0.5674448609352112
7.242181062698364,-0.06008239835500717,-0.49267566204071045,0.6078813076019287,1.1552987098693848,0.12340734153985977,-0.5678263306617737
7.262325286865234,-0.06466010212898254,-0.49229419231414795,0.6139848828315735,1.1552987098693848,0.12951095402240753,-0.5674448609352112
7.2823615074157715,-0.0715266615152359,-0.49114975333213806,0.6162737607955933,1.1556801795959473,0.14400701224803925,-0.568970799446106
7.302414417266846,-0.07572289556264877,-0.49038681387901306,0.615129292011261,1.1556801795959473,0.1508735716342926,-0.568970799446106
7.322511672973633,-0.07877469807863235,-0.4880979657173157,0.6101701259613037,1.1564431190490723,0.1504921019077301,-0.5685893297195435
7.342582941055298,-0.07724879682064056,-0.4869535267353058,0.6052109599113464,1.1568245887756348,0.14591439068317413,-0.5685893297195435
7.362696409225464,-0.071908138692379,-0.4873350262641907,0.6044480204582214,1.1564431190490723,0.13752193748950958,-0.5678263306617737
7.382759094238281,-0.06618601083755493,-0.49076828360557556,0.6052109599113464,1.1564431190490723,0.1329442262649536,-0.5674448609352112
7.402938365936279,-0.05970092490315437,-0.49382010102272034,0.6082627773284912,1.1560616493225098,0.12989242374897003,-0.5674448609352112
7.422968864440918,-0.05359731614589691,-0.49382010102272034,0.615129292011261,1.1560616493225098,0.12836651504039764,-0.5678263306617737
7.443049192428589,-0.05436026677489281,-0.49343863129615784,0.622377336025238,1.1556801795959473,0.13141833245754242,-0.5678263306617737
7.463147878646851,-0.058175019919872284,-0.49229419231414795,0.6261920928955078,1.1556801795959473,0.14095520973205566,-0.5693522691726685
7.483262300491333,-0.06313420087099075,-0.49038681387901306,0.6273365616798401,1.1556801795959473,0.1493476778268814,-0.568970799446106
7.503327131271362,-0.06885633617639542,-0.4877164959907532,0.6258106231689453,1.1560616493225098,0.1527809500694275,-0.568970799446106
7.5234293937683105,-0.07343403995037079,-0.4861905872821808,0.619325578212738,1.1560616493225098,0.1504921019077301,-0.568970799446106
7.5434792041778564,-0.0707637146115303,-0.4861905872821808,0.612077534198761,1.1564431190490723,0.1508735716342926,-0.568970799446106
7.563575983047485,-0.06580453366041183,-0.4861905872821808,0.6090257167816162,1.1568245887756348,0.14057374000549316,-0.5666819214820862
7.584050178527832,-0.05970092490315437,-0.49000534415245056,0.6082627773284912,1.1564431190490723,0.12989242374897003,-0.5670633912086487
7.604105234146118,-0.05436026677489281,-0.49382010102272034,0.6090257167816162,1.1556801795959473,0.12874799966812134,-0.5674448609352112
7.624189615249634,-0.049782559275627136,-0.49343863129615784,0.6116960644721985,1.1552987098693848,0.12607766687870026,-0.5674448609352112
7.6442484855651855,-0.050164032727479935,-0.49191272258758545,0.6177996397018433,1.1552987098693848,0.12912946939468384,-0.5678263306617737
7.664337873458862,-0.05397878959774971,-0.49038681387901306,0.621614396572113,1.1552987098693848,0.13866636157035828,-0.5685893297195435
7.684408903121948,-0.059319447726011276,-0.48962387442588806,0.6219958662986755,1.1552987098693848,0.1508735716342926,-0.5685893297195435
7.704625844955444,-0.06542305648326874,-0.4865720570087433,0.620088517665863,1.1560616493225098,0.1527809500694275,-0.5685893297195435
7.724731683731079,-0.0707637146115303,-0.4835202693939209,0.6132219433784485,1.1560616493225098,0.1512550562620163,-0.5685893297195435
7.744825839996338,-0.06923781335353851,-0.482375830411911,0.6067368388175964,1.1560616493225098,0.14782176911830902,-0.5685893297195435
7.764879465103149,-0.06427863240242004,-0.483138769865036,0.6055924296379089,1.1564431190490723,0.135233074426651,-0.5666819214820862
7.784972906112671,-0.05970092490315437,-0.4877164959907532,0.6059738993644714,1.1564431190490723,0.13218127191066742,-0.5670633912086487
7.8050501346588135,-0.054741740226745605,-0.49229419231414795,0.6082627773284912,1.1552987098693848,0.12989242374897003,-0.5674448609352112
7.825105667114258,-0.04940108209848404,-0.49343863129615784,0.612840473651886,1.1552987098693848,0.12836651504039764,-0.5670633912086487
7.845194578170776,-0.05283436179161072,-0.49229419231414795,0.6219958662986755,1.1552987098693848,0.12951095402240753,-0.5670633912086487
7.865274429321289,-0.06084534898400307,-0.49038681387901306,0.6258106231689453,1.1549172401428223,0.14133669435977936,-0.568970799446106
7.8853254318237305,-0.06847485899925232,-0.4880979657173157,0.6250476837158203,1.1549172401428223,0.14858472347259521,-0.568970799446106
7.905409812927246,-0.07572289556264877,-0.4839017391204834,0.621614396572113,1.1556801795959473,0.1501106321811676,-0.568970799446106
7.925476789474487,-0.08068207651376724,-0.4808499217033386,0.614366352558136,1.1568245887756348,0.1493476778268814,-0.5685893297195435
7.945549726486206,-0.08068207651376724,-0.4812313914299011,0.6078813076019287,1.1575875282287598,0.14782176911830902,-0.5685893297195435
7.965625047683716,-0.07877469807863235,-0.483138769865036,0.6044480204582214,1.1587319374084473,0.134470134973526,-0.5678263306617737
7.98570990562439,-0.07610437273979187,-0.4880979657173157,0.6040665507316589,1.1579689979553223,0.12912946939468384,-0.5674448609352112
8.00578761100769,-0.0722896158695221,-0.49153125286102295,0.6044480204582214,1.1568245887756348,0.12645913660526276,-0.5682078003883362
8.026023864746094,-0.06809338182210922,-0.49229419231414795,0.6059738993644714,1.1564431190490723,0.12722209095954895,-0.5678263306617737
8.046183586120605,-0.06504157930612564,-0.49267566204071045,0.6147478222846985,1.1564431190490723,0.13027389347553253,-0.5682078003883362
8.066290855407715,-0.06809338182210922,-0.49267566204071045,0.6212329268455505,1.1564431190490723,0.13752193748950958,-0.5682078003883362
8.086336851119995,-0.0722896158695221,-0.49229419231414795,0.6219958662986755,1.1568245887756348,0.14629587531089783,-0.5693522691726685
8.106420278549194,-0.07610437273979187,-0.49076828360557556,0.6204699873924255,1.1568245887756348,0.1501106321811676,-0.568970799446106
8.12649416923523,-0.07801175117492676,-0.4873350262641907,0.6147478222846985,1.1572060585021973,0.1489662081003189,-0.568970799446106
8.146549940109253,-0.07267109304666519,-0.4869535267353058,0.6097886562347412,1.1572060585021973,0.14515145123004913,-0.568970799446106
8.16664457321167,-0.06542305648326874,-0.4865720570087433,0.6082627773284912,1.1579689979553223,0.13752193748950958,-0.5674448609352112
8.18672227859497,-0.05970092490315437,-0.49038681387901306,0.6090257167816162,1.1575875282287598,0.12874799966812134,-0.5678263306617737
8.206774711608887,-0.05245288833975792,-0.49382010102272034,0.6113145351409912,1.1572060585021973,0.12607766687870026,-0.5678263306617737
8.226867198944092,-0.04711223021149635,-0.49458304047584534,0.6170367002487183,1.1564431190490723,0.12149996310472488,-0.5682078003883362
8.246937036514282,-0.04787518084049225,-0.49305713176727295,0.6254291534423828,1.1556801795959473,0.12340734153985977,-0.5682078003883362
8.267008066177368,-0.05359731614589691,-0.49114975333213806,0.6288624405860901,1.1552987098693848,0.1329442262649536,-0.568970799446106
8.2871732711792,-0.06046387553215027,-0.49000534415245056,0.6292439103126526,1.1552987098693848,0.13981078565120697,-0.5693522691726685
8.307259559631348,-0.06733043491840363,-0.4858091175556183,0.6258106231689453,1.1556801795959473,0.14171816408634186,-0.5693522691726685
8.327336311340332,-0.07343403995037079,-0.482375830411911,0.6185625791549683,1.1568245887756348,0.14133669435977936,-0.568970799446106
8.34767198562622,-0.07000076025724411,-0.4819943606853485,0.6109330654144287,1.1579689979553223,0.13942931592464447,-0.5693522691726685
8.367766857147217,-0.06504157930612564,-0.483138769865036,0.6071183085441589,1.1591134071350098,0.12645913660526276,-0.5678263306617737
8.387838363647461,-0.06198977679014206,-0.4884794354438782,0.6067368388175964,1.1587319374084473,0.12264438718557358,-0.5674448609352112
8.407967567443848,-0.05703059583902359,-0.49229419231414795,0.6071183085441589,1.1572060585021973,0.1203555315732956,-0.5685893297195435
8.42809009552002,-0.05245288833975792,-0.49343863129615784,0.6105515956878662,1.1564431190490723,0.12111848592758179,-0.5682078003883362
8.448154211044312,-0.05054550990462303,-0.49191272258758545,0.6162737607955933,1.1560616493225098,0.12378881871700287,-0.5682078003883362
8.468230724334717,-0.05970092490315437,-0.49038681387901306,0.6197070479393005,1.1552987098693848,0.13218127191066742,-0.5674448609352112
8.488298416137695,-0.06961929053068161,-0.4884794354438782,0.619325578212738,1.1549172401428223,0.14248111844062805,-0.5716410875320435
8.508354663848877,-0.07801175117492676,-0.4865720570087433,0.6162737607955933,1.1552987098693848,0.14476996660232544,-0.572022557258606
8.528638362884521,-0.08106355369091034,-0.4839017391204834,0.6105515956878662,1.1575875282287598,0.14248111844062805,-0.5716410875320435
8.548785209655762,-0.07991912961006165,-0.4842832088470459,0.6067368388175964,1.1587319374084473,0.1367589831352234,-0.571259617805481
8.568844079971313,-0.07763027399778366,-0.4854276478290558,0.6059738993644714,1.1591134071350098,0.12684062123298645,-0.569733738899231
8.588909149169922,-0.07267109304666519,-0.49000534415245056,0.6059738993644714,1.1583504676818848,0.12378881871700287,-0.5693522691726685
8.608996868133545,-0.06733043491840363,-0.49343863129615784,0.6074998378753662,1.1579689979553223,0.12378881871700287,-0.5693522691726685
8.629090070724487,-0.06160829961299896,-0.49420157074928284,0.612077534198761,1.1575875282287598,0.12493324279785156,-0.569733738899231
8.649137735366821,-0.06275273114442825,-0.49458304047584534,0.6204699873924255,1.1575875282287598,0.12302586436271667,-0.569733738899231
8.66922402381897,-0.06885633617639542,-0.49420157074928284,0.6250476837158203,1.1564431190490723,0.1337071806192398,-0.571259617805481
8.689297676086426,-0.07419699430465698,-0.49267566204071045,0.6250476837158203,1.1560616493225098,0.14400701224803925,-0.572022557258606
8.709374904632568,-0.07953765243291855,-0.49000534415245056,0.6227588057518005,1.1568245887756348,0.14438849687576294,-0.572022557258606
8.729453325271606,-0.08106355369091034,-0.4873350262641907,0.615129292011261,1.1583504676818848,0.14095520973205566,-0.5716410875320435
8.74952483177185,-0.07839322835206985,-0.4861905872821808,0.6090257167816162,1.1594948768615723,0.13981078565120697,-0.5716410875320435
8.769605875015259,-0.07495994865894318,-0.4865720570087433,0.6071183085441589,1.1594948768615723,0.12912946939468384,-0.569733738899231
8.789659976959229,-0.06961929053068161,-0.49114975333213806,0.6071183085441589,1.1591134071350098,0.12722209095954895,-0.5693522691726685
8.809736490249634,-0.06313420087099075,-0.49458304047584534,0.6082627773284912,1.1591134071350098,0.12645913660526276,-0.5693522691726685
8.829821109771729,-0.05741206929087639,-0.4953460097312927,0.614366352558136,1.1587319374084473,0.12531471252441406,-0.569733738899231
8.8498854637146,-0.0558861680328846,-0.49496451020240784,0.6227588057518005,1.1591134071350098,0.12302586436271667,-0.5693522691726685
8.869989156723022,-0.06046387553215027,-0.49382010102272034,0.6273365616798401,1.1587319374084473,0.13141833245754242,-0.5708781480789185
8.890071392059326,-0.06656748056411743,-0.49229419231414795,0.6277180314064026,1.1591134071350098,0.14171816408634186,-0.571259617805481
8.910160303115845,-0.07305257022380829,-0.4888609051704407,0.6246662139892578,1.1594948768615723,0.14476996660232544,-0.5716410875320435
8.93053126335144,-0.07534141838550568,-0.4850461483001709,0.6162737607955933,1.1594948768615723,0.14438849687576294,-0.572022557258606
8.950586557388306,-0.07000076025724411,-0.4835202693939209,0.6082627773284912,1.1598763465881348,0.13942931592464447,-0.572022557258606
8.970634937286377,-0.06313420087099075,-0.4842832088470459,0.6059738993644714,1.1602579355239868,0.12836651504039764,-0.570496678352356
8.991073846817017,-0.058175019919872284,-0.4892423748970032,0.6063553690910339,1.1594948768615723,0.12493324279785156,-0.5708781480789185
9.011141538619995,-0.05130846053361893,-0.49305713176727295,0.6078813076019287,1.1587319374084473,0.12149996310472488,-0.5716410875320435
9.031222105026245,-0.04634927958250046,-0.49267566204071045,0.6113145351409912,1.1583504676818848,0.12073700875043869,-0.5716410875320435
9.05153751373291,-0.04901960864663124,-0.49114975333213806,0.6181811094284058,1.1587319374084473,0.12455176562070847,-0.572022557258606
9.071610689163208,-0.05664911866188049,-0.4884794354438782,0.6212329268455505,1.1579689979553223,0.13218127191066742,-0.5731670260429382
9.091688632965088,-0.06466010212898254,-0.4869535267353058,0.620851457118988,1.1575875282287598,0.14171816408634186,-0.5731670260429382
9.111746311187744,-0.07267109304666519,-0.482375830411911,0.6177996397018433,1.1591134071350098,0.14400701224803925,-0.5727855563163757
9.131832361221313,-0.07648584991693497,-0.4797055125236511,0.6097886562347412,1.1591134071350098,0.14362554252147675,-0.5731670260429382
9.15190601348877,-0.07610437273979187,-0.47894254326820374,0.6025406122207642,1.1598763465881348,0.13866636157035828,-0.572022557258606
9.171962976455688,-0.07381551712751389,-0.4797055125236511,0.6002517938613892,1.1598763465881348,0.12989242374897003,-0.572022557258606
9.192039966583252,-0.0711451917886734,-0.4846646785736084,0.5994887948036194,1.1591134071350098,0.12645913660526276,-0.572022557258606
9.212119817733765,-0.06618601083755493,-0.4892423748970032,0.6006332635879517,1.1591134071350098,0.12340734153985977,-0.572022557258606
9.232249975204468,-0.06237125024199486,-0.48962387442588806,0.6025406122207642,1.1587319374084473,0.12378881871700287,-0.572022557258606
9.25233769416809,-0.05970092490315437,-0.4892423748970032,0.612077534198761,1.1587319374084473,0.12340734153985977,-0.5724040865898132
9.272375345230103,-0.06580453366041183,-0.4892423748970032,0.6181811094284058,1.1591134071350098,0.1337071806192398,-0.5724040865898132
9.292570352554321,-0.07419699430465698,-0.4884794354438782,0.6181811094284058,1.1591134071350098,0.13981078565120697,-0.5735484957695007
9.312658548355103,-0.07991912961006165,-0.4873350262641907,0.6139848828315735,1.1594948768615723,0.14362554252147675,-0.5735484957695007
9.332727670669556,-0.07572289556264877,-0.4842832088470459,0.6094071865081787,1.1594948768615723,0.13904783129692078,-0.5731670260429382
9.353356838226318,-0.06694895774126053,-0.4858091175556183,0.6078813076019287,1.1610208749771118,0.12951095402240753,-0.571259617805481
9.373440980911255,-0.05970092490315437,-0.4892423748970032,0.6090257167816162,1.1614023447036743,0.12188144028186798,-0.571259617805481
9.393535137176514,-0.05397878959774971,-0.4957274794578552,0.6116960644721985,1.1591134071350098,0.1180666834115982,-0.5724040865898132
9.413856267929077,-0.04749370738863945,-0.4976348578929901,0.6158922910690308,1.1583504676818848,0.11348897218704224,-0.572022557258606
9.433943748474121,-0.045204851776361465,-0.4968718886375427,0.6235218048095703,1.1575875282287598,0.11387044936418533,-0.5724040865898132
9.454026222229004,-0.048638131469488144,-0.49496451020240784,0.6292439103126526,1.1568245887756348,0.1199740618467331,-0.572022557258606
9.474084854125977,-0.05436026677489281,-0.49229419231414795,0.6303883194923401,1.1564431190490723,0.13179980218410492,-0.5727855563163757
9.494171619415283,-0.06084534898400307,-0.48962387442588806,0.6300068497657776,1.1568245887756348,0.13866636157035828,-0.5724040865898132
9.514303207397461,-0.06771191209554672,-0.4854276478290558,0.6261920928955078,1.1579689979553223,0.13904783129692078,-0.5724040865898132
9.534324407577515,-0.0715266615152359,-0.483138769865036,0.6181811094284058,1.1583504676818848,0.13981078565120697,-0.5724040865898132
9.555411577224731,-0.06885633617639542,-0.4835202693939209,0.6109330654144287,1.1591134071350098,0.1356145590543747,-0.5716410875320435
9.575500249862671,-0.06466010212898254,-0.4846646785736084,0.6082627773284912,1.1587319374084473,0.12226291000843048,-0.5716410875320435
9.59557819366455,-0.06160829961299896,-0.49000534415245056,0.6082627773284912,1.1572060585021973,0.12149996310472488,-0.572022557258606
9.615641832351685,-0.05664911866188049,-0.49267566204071045,0.6090257167816162,1.1564431190490723,0.1188296303153038,-0.572022557258606
9.635726690292358,-0.05245288833975792,-0.49267566204071045,0.6139848828315735,1.1564431190490723,0.1188296303153038,-0.572022557258606
9.655801057815552,-0.05283436179161072,-0.49153125286102295,0.6204699873924255,1.1564431190490723,0.12149996310472488,-0.5716410875320435
9.67586374282837,-0.06313420087099075,-0.49038681387901306,0.622377336025238,1.1556801795959473,0.13179980218410492,-0.572022557258606
9.695984840393066,-0.07267109304666519,-0.4888609051704407,0.6197070479393005,1.1556801795959473,0.14133669435977936,-0.5731670260429382
9.716057538986206,-0.07686731964349747,-0.4854276478290558,0.6132219433784485,1.1564431190490723,0.14209964871406555,-0.5731670260429382
9.736104726791382,-0.07381551712751389,-0.4842832088470459,0.6078813076019287,1.1579689979553223,0.13942931592464447,-0.572022557258606
9.756302833557129,-0.06771191209554672,-0.4854276478290558,0.6055924296379089,1.1598763465881348,0.13179980218410492,-0.569733738899231
9.77631139755249,-0.06389715522527695,-0.48962387442588806,0.6055924296379089,1.1594948768615723,0.12569619715213776,-0.568970799446106
9.796379327774048,-0.05893797054886818,-0.49382010102272034,0.6059738993644714,1.1587319374084473,0.12340734153985977,-0.5693522691726685
9.81646203994751,-0.05397878959774971,-0.49458304047584534,0.6086442470550537,1.1583504676818848,0.12264438718557358,-0.568970799446106
9.836528539657593,-0.05092698708176613,-0.49458304047584534,0.6162737607955933,1.1579689979553223,0.12302586436271667,-0.568970799446106
9.8565993309021,-0.05359731614589691,-0.49420157074928284,0.621614396572113,1.1575875282287598,0.12760357558727264,-0.5693522691726685
9.87675952911377,-0.06084534898400307,-0.49267566204071045,0.6227588057518005,1.1572060585021973,0.14095520973205566,-0.570496678352356
9.89689302444458,-0.06771191209554672,-0.49038681387901306,0.6212329268455505,1.1575875282287598,0.14629587531089783,-0.5708781480789185
9.916948080062866,-0.07419699430465698,-0.4873350262641907,0.6155108213424683,1.1583504676818848,0.14515145123004913,-0.571259617805481
9.93701434135437,-0.07495994865894318,-0.4842832088470459,0.6074998378753662,1.1591134071350098,0.14324407279491425,-0.5716410875320435
9.957206010818481,-0.07267109304666519,-0.4842832088470459,0.6025406122207642,1.1594948768615723,0.13218127191066742,-0.569733738899231
9.97724175453186,-0.07038223743438721,-0.4869535267353058,0.6013962030410767,1.1594948768615723,0.12569619715213776,-0.5693522691726685
9.997382402420044,-0.06656748056411743,-0.48962387442588806,0.6013962030410767,1.1583504676818848,0.12417028844356537,-0.5693522691726685
10.017506122589111,-0.06198977679014206,-0.49114975333213806,0.6036850810050964,1.1583504676818848,0.12378881871700287,-0.5693522691726685
10.037580013275146,-0.05855649709701538,-0.49114975333213806,0.612077534198761,1.1583504676818848,0.12378881871700287,-0.5693522691726685
10.057643413543701,-0.06504157930612564,-0.49114975333213806,0.6177996397018433,1.1583504676818848,0.13027389347553253,-0.569733738899231
10.077727794647217,-0.07305257022380829,-0.49038681387901306,0.619325578212738,1.1583504676818848,0.14057374000549316,-0.5716410875320435
10.097801208496094,-0.07724879682064056,-0.49000534415245056,0.6174181699752808,1.1583504676818848,0.14858472347259521,-0.5724040865898132
10.117855310440063,-0.07572289556264877,-0.4869535267353058,0.6132219433784485,1.1594948768615723,0.14820325374603271,-0.572022557258606
10.13794755935669,-0.0707637146115303,-0.4873350262641907,0.6139848828315735,1.1621652841567993,0.14209964871406555,-0.571259617805481
10.158015251159668,-0.06542305648326874,-0.49000534415245056,0.6174181699752808,1.1621652841567993,0.12684062123298645,-0.5693522691726685
10.178111553192139,-0.059319447726011276,-0.4964904189109802,0.6235218048095703,1.1614023447036743,0.11615930497646332,-0.5678263306617737
10.198172569274902,-0.05245288833975792,-0.4987792670726776,0.6326771974563599,1.1598763465881348,0.11501488089561462,-0.5682078003883362
10.218268871307373,-0.053215838968753815,-0.4991607666015625,0.6433585286140442,1.1598763465881348,0.11158160120248795,-0.5670633912086487
10.238348722457886,-0.06008239835500717,-0.4976348578929901,0.6467918157577515,1.1594948768615723,0.12760357558727264,-0.568970799446106
10.258400201797485,-0.06504157930612564,-0.4957274794578552,0.6467918157577515,1.1598763465881348,0.14133669435977936,-0.5693522691726685
10.278496026992798,-0.07038223743438721,-0.49191272258758545,0.6448844075202942,1.1598763465881348,0.14324407279491425,-0.5693522691726685
10.298570394515991,-0.07610437273979187,-0.4892423748970032,0.6406881809234619,1.1614023447036743,0.14209964871406555,-0.568970799446106
10.31864857673645,-0.07572289556264877,-0.4892423748970032,0.6315327882766724,1.1614023447036743,0.14171816408634186,-0.568970799446106
10.338727474212646,-0.07381551712751389,-0.49076828360557556,0.6242847442626953,1.1621652841567993,0.13103684782981873,-0.5678263306617737
10.358799934387207,-0.0711451917886734,-0.49458304047584534,0.621614396572113,1.1617838144302368,0.1192111074924469,-0.5678263306617737
10.378857135772705,-0.06771191209554672,-0.4983977973461151,0.621614396572113,1.1606394052505493,0.11654078215360641,-0.5682078003883362
10.398948431015015,-0.06466010212898254,-0.4991607666015625,0.6219958662986755,1.1606394052505493,0.11615930497646332,-0.5678263306617737
10.419020652770996,-0.06351567804813385,-0.4972533881664276,0.6250476837158203,1.1606394052505493,0.1199740618467331,-0.5682078003883362
10.43907642364502,-0.06580453366041183,-0.4972533881664276,0.6288624405860901,1.1610208749771118,0.13179980218410492,-0.5682078003883362
10.459157466888428,-0.06923781335353851,-0.4964904189109802,0.6288624405860901,1.1614023447036743,0.14133669435977936,-0.568970799446106
10.479233503341675,-0.07305257022380829,-0.4961089491844177,0.6246662139892578,1.1614023447036743,0.14629587531089783,-0.568970799446106
10.4993896484375,-0.06847485899925232,-0.49267566204071045,0.6174181699752808,1.1617838144302368,0.14362554252147675,-0.568970799446106
10.519415378570557,-0.061226826161146164,-0.49114975333213806,0.6147478222846985,1.1629282236099243,0.12951095402240753,-0.5670633912086487
10.539489507675171,-0.05664911866188049,-0.49343863129615784,0.615129292011261,1.1629282236099243,0.12302586436271667,-0.5670633912086487
10.559550762176514,-0.05130846053361893,-0.4968718886375427,0.6162737607955933,1.1606394052505493,0.12226291000843048,-0.5682078003883362
10.579641342163086,-0.046730753034353256,-0.4972533881664276,0.6219958662986755,1.1606394052505493,0.11959258466959,-0.5674448609352112
10.599726915359497,-0.048638131469488144,-0.4964904189109802,0.6284809708595276,1.1598763465881348,0.1192111074924469,-0.5678263306617737
10.619793176651001,-0.056267641484737396,-0.49458304047584534,0.6303883194923401,1.1591134071350098,0.12912946939468384,-0.5685893297195435
10.639966249465942,-0.06466010212898254,-0.49191272258758545,0.6292439103126526,1.1594948768615723,0.13904783129692078,-0.568970799446106
10.659968852996826,-0.071908138692379,-0.4884794354438782,0.6254291534423828,1.1594948768615723,0.14171816408634186,-0.568970799446106
10.68004035949707,-0.07419699430465698,-0.4854276478290558,0.6174181699752808,1.1598763465881348,0.14171816408634186,-0.5685893297195435
10.700128078460693,-0.071908138692379,-0.4854276478290558,0.6109330654144287,1.1617838144302368,0.13790340721607208,-0.5682078003883362
10.720204591751099,-0.06847485899925232,-0.4869535267353058,0.6082627773284912,1.1617838144302368,0.12684062123298645,-0.5682078003883362
10.740257740020752,-0.06466010212898254,-0.49229419231414795,0.6082627773284912,1.1606394052505493,0.12340734153985977,-0.5682078003883362
10.760380983352661,-0.059319447726011276,-0.4957274794578552,0.6094071865081787,1.1602579355239868,0.12264438718557358,-0.5682078003883362
10.780447959899902,-0.054741740226745605,-0.4957274794578552,0.612840473651886,1.1602579355239868,0.12264438718557358,-0.5682078003883362
10.800509214401245,-0.05664911866188049,-0.49458304047584534,0.6197070479393005,1.1602579355239868,0.12340734153985977,-0.5682078003883362
10.820617198944092,-0.06313420087099075,-0.49305713176727295,0.6239032745361328,1.1598763465881348,0.1325627565383911,-0.569733738899231
10.840756893157959,-0.07038223743438721,-0.49114975333213806,0.6231403350830078,1.1598763465881348,0.14286258816719055,-0.569733738899231
10.860739946365356,-0.07648584991693497,-0.4873350262641907,0.620088517665863,1.1602579355239868,0.14553292095661163,-0.5693522691726685
10.880839824676514,-0.07801175117492676,-0.4854276478290558,0.6113145351409912,1.1606394052505493,0.14553292095661163,-0.569733738899231
10.900922060012817,-0.07686731964349747,-0.4846646785736084,0.6040665507316589,1.1614023447036743,0.14095520973205566,-0.568970799446106
10.921013593673706,-0.07419699430465698,-0.4858091175556183,0.6025406122207642,1.1610208749771118,0.13027389347553253,-0.5685893297195435
10.941204071044922,-0.07038223743438721,-0.49153125286102295,0.6021591424942017,1.1602579355239868,0.12912946939468384,-0.568970799446106
10.961313247680664,-0.06427863240242004,-0.4961089491844177,0.6033035516738892,1.1602579355239868,0.12760357558727264,-0.568970799446106
10.981372594833374,-0.06008239835500717,-0.4957274794578552,0.6063553690910339,1.1602579355239868,0.12722209095954895,-0.5685893297195435
11.001495599746704,-0.059319447726011276,-0.49496451020240784,0.6155108213424683,1.1606394052505493,0.12645913660526276,-0.568970799446106
11.021593570709229,-0.06389715522527695,-0.49382010102272034,0.6204699873924255,1.1602579355239868,0.1333257108926773,-0.5693522691726685
11.04170298576355,-0.07000076025724411,-0.49267566204071045,0.6197070479393005,1.1598763465881348,0.14553292095661163,-0.5693522691726685
11.061765432357788,-0.07534141838550568,-0.49000534415245056,0.6162737607955933,1.1602579355239868,0.1493476778268814,-0.569733738899231
11.081831693649292,-0.07457847148180008,-0.4877164959907532,0.6094071865081787,1.1602579355239868,0.1489662081003189,-0.5693522691726685
11.101988554000854,-0.06771191209554672,-0.4865720570087433,0.6059738993644714,1.1621652841567993,0.14324407279491425,-0.5685893297195435
11.122041702270508,-0.06046387553215027,-0.4888609051704407,0.6063553690910339,1.1629282236099243,0.13065537810325623,-0.5674448609352112
11.14216923713684,-0.0551232174038887,-0.49420157074928284,0.6082627773284912,1.1617838144302368,0.13065537810325623,-0.5678263306617737
11.16221570968628,-0.04940108209848404,-0.4957274794578552,0.6113145351409912,1.1606394052505493,0.12607766687870026,-0.5682078003883362
11.182283878326416,-0.04711223021149635,-0.4957274794578552,0.619325578212738,1.1594948768615723,0.12378881871700287,-0.5682078003883362
11.202358484268188,-0.05092698708176613,-0.49458304047584534,0.6258106231689453,1.1591134071350098,0.12912946939468384,-0.5685893297195435
11.222416400909424,-0.05664911866188049,-0.49305713176727295,0.6273365616798401,1.1591134071350098,0.14133669435977936,-0.568970799446106
11.242587566375732,-0.06466010212898254,-0.49076828360557556,0.6269550919532776,1.1594948768615723,0.14858472347259521,-0.5693522691726685
11.262655019760132,-0.071908138692379,-0.4865720570087433,0.6235218048095703,1.1598763465881348,0.14705882966518402,-0.568970799446106
11.28271746635437,-0.07381551712751389,-0.4842832088470459,0.614366352558136,1.1598763465881348,0.14629587531089783,-0.568970799446106
11.30278730392456,-0.07038223743438721,-0.4842832088470459,0.6086442470550537,1.1610208749771118,0.14209964871406555,-0.5674448609352112
11.322874546051025,-0.06542305648326874,-0.4850461483001709,0.6063553690910339,1.1606394052505493,0.12874799966812134,-0.5678263306617737
11.342952013015747,-0.06160829961299896,-0.49114975333213806,0.6067368388175964,1.1591134071350098,0.12874799966812134,-0.5674448609352112
11.363191366195679,-0.0558861680328846,-0.49382010102272034,0.6090257167816162,1.1591134071350098,0.12798504531383514,-0.5674448609352112
11.383283853530884,-0.05092698708176613,-0.49458304047584534,0.6158922910690308,1.1591134071350098,0.12760357558727264,-0.5674448609352112
11.40337085723877,-0.05397878959774971,-0.49458304047584534,0.6242847442626953,1.1591134071350098,0.12798504531383514,-0.5674448609352112
11.423698663711548,-0.05893797054886818,-0.49305713176727295,0.6277180314064026,1.1594948768615723,0.13866636157035828,-0.568970799446106
11.443812847137451,-0.06427863240242004,-0.49153125286102295,0.6284809708595276,1.1594948768615723,0.14324407279491425,-0.568970799446106
11.463884115219116,-0.07038223743438721,-0.4877164959907532,0.6250476837158203,1.1598763465881348,0.14362554252147675,-0.5682078003883362
11.483935832977295,-0.07267109304666519,-0.4850461483001709,0.6166552305221558,1.1598763465881348,0.14286258816719055,-0.5685893297195435
11.504029989242554,-0.0711451917886734,-0.4842832088470459,0.6090257167816162,1.1598763465881348,0.13904783129692078,-0.5678263306617737
11.524102687835693,-0.06847485899925232,-0.4846646785736084,0.6074998378753662,1.1598763465881348,0.12836651504039764,-0.5674448609352112
11.544188499450684,-0.06427863240242004,-0.49114975333213806,0.6074998378753662,1.1591134071350098,0.12760357558727264,-0.5678263306617737
11.56424856185913,-0.059319447726011276,-0.49458304047584534,0.6086442470550537,1.1591134071350098,0.12607766687870026,-0.5678263306617737
11.58432412147522,-0.0551232174038887,-0.49496451020240784,0.6132219433784485,1.1591134071350098,0.12340734153985977,-0.5674448609352112
11.604385614395142,-0.05664911866188049,-0.49420157074928284,0.620088517665863,1.1594948768615723,0.12302586436271667,-0.5674448609352112
11.624470472335815,-0.06466010212898254,-0.49305713176727295,0.622377336025238,1.1591134071350098,0.1337071806192398,-0.5682078003883362
11.644549131393433,-0.07267109304666519,-0.49076828360557556,0.621614396572113,1.1587319374084473,0.14553292095661163,-0.5685893297195435
11.664628267288208,-0.07839322835206985,-0.4877164959907532,0.6170367002487183,1.1594948768615723,0.14858472347259521,-0.5685893297195435
11.685164213180542,-0.07610437273979187,-0.4842832088470459,0.6090257167816162,1.1610208749771118,0.14782176911830902,-0.5682078003883362
11.705266237258911,-0.07038223743438721,-0.4846646785736084,0.6052109599113464,1.1614023447036743,0.13981078565120697,-0.5674448609352112
11.72533369064331,-0.06504157930612564,-0.4884794354438782,0.6059738993644714,1.1610208749771118,0.134470134973526,-0.5666819214820862
11.745402574539185,-0.059319447726011276,-0.49382010102272034,0.6082627773284912,1.1594948768615723,0.13103684782981873,-0.5666819214820862
11.765520572662354,-0.05283436179161072,-0.4968718886375427,0.612840473651886,1.1591134071350098,0.12836651504039764,-0.5663004517555237
11.78560733795166,-0.04940108209848404,-0.4964904189109802,0.6204699873924255,1.1587319374084473,0.12340734153985977,-0.5663004517555237
11.806029796600342,-0.0555046908557415,-0.4953460097312927,0.6273365616798401,1.1579689979553223,0.13179980218410492,-0.5666819214820862
11.826164484024048,-0.06275273114442825,-0.49305713176727295,0.6284809708595276,1.1587319374084473,0.14400701224803925,-0.5678263306617737
11.846224308013916,-0.06923781335353851,-0.4892423748970032,0.6269550919532776,1.1591134071350098,0.1504921019077301,-0.5682078003883362
11.86670207977295,-0.07534141838550568,-0.4861905872821808,0.6227588057518005,1.1598763465881348,0.14858472347259521,-0.5674448609352112
11.886784553527832,-0.07686731964349747,-0.4846646785736084,0.6147478222846985,1.1598763465881348,0.1497291475534439,-0.5682078003883362
11.906893730163574,-0.07572289556264877,-0.4854276478290558,0.6097886562347412,1.1598763465881348,0.14400701224803925,-0.5663004517555237
11.92700481414795,-0.0715266615152359,-0.48962387442588806,0.6082627773284912,1.1594948768615723,0.12951095402240753,-0.5655375123023987
11.947111368179321,-0.06847485899925232,-0.49458304047584534,0.6082627773284912,1.1591134071350098,0.12798504531383514,-0.5659189820289612
11.967162132263184,-0.06389715522527695,-0.4961089491844177,0.6097886562347412,1.1591134071350098,0.12836651504039764,-0.5655375123023987
11.987217426300049,-0.05970092490315437,-0.4961089491844177,0.6155108213424683,1.1591134071350098,0.12951095402240753,-0.5655375123023987
12.007308959960938,-0.06275273114442825,-0.4957274794578552,0.6231403350830078,1.1587319374084473,0.13141833245754242,-0.5651560425758362
12.02738618850708,-0.06733043491840363,-0.49496451020240784,0.6246662139892578,1.1591134071350098,0.14362554252147675,-0.5659189820289612
12.04744291305542,-0.0707637146115303,-0.49382010102272034,0.6235218048095703,1.1591134071350098,0.1527809500694275,-0.5663004517555237
12.067553043365479,-0.07343403995037079,-0.49076828360557556,0.6185625791549683,1.1594948768615723,0.1512550562620163,-0.5659189820289612
12.087618827819824,-0.07343403995037079,-0.4892423748970032,0.612077534198761,1.1594948768615723,0.1504921019077301,-0.5663004517555237
12.107693910598755,-0.07305257022380829,-0.49038681387901306,0.6101701259613037,1.1594948768615723,0.1356145590543747,-0.5651560425758362
12.127774000167847,-0.07305257022380829,-0.49496451020240784,0.6086442470550537,1.1587319374084473,0.1333257108926773,-0.5659189820289612
12.147845029830933,-0.07305257022380829,-0.4983977973461151,0.6082627773284912,1.1587319374084473,0.13027389347553253,-0.5651560425758362
12.167906999588013,-0.07305257022380829,-0.4980163276195526,0.6074998378753662,1.1583504676818848,0.12836651504039764,-0.5655375123023987
12.188007354736328,-0.07305257022380829,-0.4976348578929901,0.6074998378753662,1.1583504676818848,0.13218127191066742,-0.5655375123023987
12.208101987838745,-0.07343403995037079,-0.4972533881664276,0.6078813076019287,1.1587319374084473,0.13866636157035828,-0.5655375123023987
12.228178024291992,-0.07343403995037079,-0.4964904189109802,0.6082627773284912,1.1587319374084473,0.14057374000549316,-0.5655375123023987
12.248258829116821,-0.07343403995037079,-0.4964904189109802,0.6082627773284912,1.1587319374084473,0.13942931592464447,-0.5655375123023987
12.268369674682617,-0.07343403995037079,-0.4972533881664276,0.6074998378753662,1.1587319374084473,0.13752193748950958,-0.5655375123023987
12.288437366485596,-0.07343403995037079,-0.4983977973461151,0.6063553690910339,1.1583504676818848,0.1367589831352234,-0.5655375123023987
12.30849027633667,-0.07343403995037079,-0.4987792670726776,0.6063553690910339,1.1579689979553223,0.1333257108926773,-0.5655375123023987
12.328604459762573,-0.07419699430465698,-0.4987792670726776,0.6063553690910339,1.1579689979553223,0.13218127191066742,-0.5655375123023987
12.348662376403809,-0.07457847148180008,-0.4987792670726776,0.6059738993644714,1.1579689979553223,0.1325627565383911,-0.5655375123023987
12.368714332580566,-0.07534141838550568,-0.4987792670726776,0.6059738993644714,1.1583504676818848,0.1337071806192398,-0.5655375123023987
12.388752460479736,-0.07648584991693497,-0.4987792670726776,0.6059738993644714,1.1579689979553223,0.1340886503458023,-0.5655375123023987
12.408864736557007,-0.07724879682064056,-0.4987792670726776,0.6052109599113464,1.1579689979553223,0.1340886503458023,-0.5659189820289612
12.428924560546875,-0.07724879682064056,-0.4991607666015625,0.6044480204582214,1.1575875282287598,0.1329442262649536,-0.5659189820289612
12.4490327835083,-0.07724879682064056,-0.4999237060546875,0.6044480204582214,1.1572060585021973,0.13179980218410492,-0.5655375123023987
12.469099998474121,-0.07724879682064056,-0.5006866455078125,0.6044480204582214,1.1560616493225098,0.13218127191066742,-0.5655375123023987
12.48916244506836,-0.07724879682064056,-0.501068115234375,0.6040665507316589,1.1560616493225098,0.13141833245754242,-0.5655375123023987
12.509477138519287,-0.07763027399778366,-0.5006866455078125,0.6040665507316589,1.1560616493225098,0.13103684782981873,-0.5655375123023987
12.529588222503662,-0.07763027399778366,-0.5006866455078125,0.6036850810050964,1.1560616493225098,0.13141833245754242,-0.5655375123023987
12.549732446670532,-0.07763027399778366,-0.501068115234375,0.6029220819473267,1.1560616493225098,0.13141833245754242,-0.5655375123023987
12.57001805305481,-0.07763027399778366,-0.501068115234375,0.6029220819473267,1.1556801795959473,0.13103684782981873,-0.5655375123023987
12.590092897415161,-0.07763027399778366,-0.5018310546875,0.6021591424942017,1.1552987098693848,0.13103684782981873,-0.5655375123023987
12.61017918586731,-0.07801175117492676,-0.5018310546875,0.6017776727676392,1.1552987098693848,0.13103684782981873,-0.5655375123023987
12.630256652832031,-0.07839322835206985,-0.5022125840187073,0.6013962030410767,1.1552987098693848,0.13103684782981873,-0.5655375123023987
12.650408029556274,-0.07915617525577545,-0.5022125840187073,0.6010147333145142,1.1552987098693848,0.13027389347553253,-0.5655375123023987
12.670446634292603,-0.07953765243291855,-0.5022125840187073,0.6006332635879517,1.1552987098693848,0.13027389347553253,-0.5655375123023987
12.690531730651855,-0.07953765243291855,-0.5029755234718323,0.6002517938613892,1.1552987098693848,0.13065537810325623,-0.5655375123023987
12.710603713989258,-0.07953765243291855,-0.5033569931983948,0.5998703241348267,1.1552987098693848,0.13027389347553253,-0.5655375123023987
12.73068380355835,-0.07953765243291855,-0.5037384629249573,0.5998703241348267,1.1549172401428223,0.13027389347553253,-0.5655375123023987
12.750948429107666,-0.07991912961006165,-0.5041199326515198,0.5994887948036194,1.1545357704162598,0.13027389347553253,-0.5659189820289612
12.771101713180542,-0.08030059933662415,-0.5041199326515198,0.5991073250770569,1.1533913612365723,0.13027389347553253,-0.5659189820289612
12.791121244430542,-0.08030059933662415,-0.5045014023780823,0.5987258553504944,1.1522468328475952,0.12951095402240753,-0.5659189820289612
12.811653137207031,-0.08068207651376724,-0.5048828721046448,0.5987258553504944,1.1522468328475952,0.12951095402240753,-0.5659189820289612
12.831746578216553,-0.08068207651376724,-0.5052643418312073,0.5987258553504944,1.1522468328475952,0.12912946939468384,-0.5659189820289612
12.851816654205322,-0.08106355369091034,-0.5056458115577698,0.5983443856239319,1.1522468328475952,0.12912946939468384,-0.5659189820289612
12.87202000617981,-0.08144503086805344,-0.506027340888977,0.5979629158973694,1.1518653631210327,0.12874799966812134,-0.5659189820289612
12.892117023468018,-0.08144503086805344,-0.506027340888977,0.5971999764442444,1.1514838933944702,0.12836651504039764,-0.5659189820289612
12.912227869033813,-0.08144503086805344,-0.506027340888977,0.5968185067176819,1.1514838933944702,0.12760357558727264,-0.5659189820289612
12.93233323097229,-0.08220797777175903,-0.506027340888977,0.5968185067176819,1.1514838933944702,0.12684062123298645,-0.5659189820289612
12.952423572540283,-0.08297093212604523,-0.506027340888977,0.5964370369911194,1.1514838933944702,0.12607766687870026,-0.5659189820289612
12.972477912902832,-0.08297093212604523,-0.506027340888977,0.5960555672645569,1.1514838933944702,0.12607766687870026,-0.5659189820289612
12.992659568786621,-0.08335240930318832,-0.506027340888977,0.5960555672645569,1.1514838933944702,0.12455176562070847,-0.5659189820289612
13.01274847984314,-0.08373387902975082,-0.5064088106155396,0.5956740379333496,1.1514838933944702,0.12417028844356537,-0.5663004517555237
13.0328209400177,-0.08335240930318832,-0.507553219795227,0.5956740379333496,1.1511024236679077,0.12455176562070847,-0.5663004517555237
13.052896976470947,-0.08373387902975082,-0.508316159248352,0.5949110984802246,1.1511024236679077,0.12455176562070847,-0.5663004517555237
13.07298469543457,-0.08449683338403702,-0.508316159248352,0.5941481590270996,1.1511024236679077,0.12340734153985977,-0.5663004517555237
13.093063831329346,-0.08487831056118011,-0.5086976289749146,0.5937666893005371,1.1507209539413452,0.12226291000843048,-0.5663004517555237
13.113150119781494,-0.08487831056118011,-0.5094605684280396,0.5937666893005371,1.1507209539413452,0.12302586436271667,-0.5663004517555237
13.133235692977905,-0.08525978773832321,-0.5102235674858093,0.5937666893005371,1.1507209539413452,0.12302586436271667,-0.5663004517555237
13.15329360961914,-0.08564125746488571,-0.5102235674858093,0.5937666893005371,1.1503394842147827,0.12264438718557358,-0.5663004517555237
13.173409461975098,-0.08564125746488571,-0.5102235674858093,0.5930037498474121,1.1503394842147827,0.12226291000843048,-0.5663004517555237
13.193471908569336,-0.08564125746488571,-0.5102235674858093,0.5926222801208496,1.1495765447616577,0.12226291000843048,-0.5663004517555237
13.21352243423462,-0.08564125746488571,-0.5102235674858093,0.5922408103942871,1.1488136053085327,0.12226291000843048,-0.5663004517555237
13.233611106872559,-0.08602273464202881,-0.5106050372123718,0.5918593406677246,1.1484321355819702,0.12188144028186798,-0.5663004517555237
13.253699541091919,-0.086785688996315,-0.5113679766654968,0.5918593406677246,1.1480506658554077,0.12111848592758179,-0.5663004517555237
13.273791551589966,-0.0871671661734581,-0.5117494463920593,0.5914778113365173,1.1480506658554077,0.12111848592758179,-0.5663004517555237
13.293867349624634,-0.0875486359000206,-0.5121309161186218,0.5910963416099548,1.1480506658554077,0.1192111074924469,-0.5663004517555237
13.313931465148926,-0.0875486359000206,-0.5125123858451843,0.5903334021568298,1.1480506658554077,0.11959258466959,-0.5663004517555237
13.33398699760437,-0.0875486359000206,-0.5125123858451843,0.5899519324302673,1.1476691961288452,0.1180666834115982,-0.5663004517555237
13.354107856750488,-0.0875486359000206,-0.5125123858451843,0.5895704627037048,1.1480506658554077,0.11654078215360641,-0.5663004517555237
13.374168634414673,-0.0875486359000206,-0.5132753252983093,0.5891889929771423,1.1472877264022827,0.11615930497646332,-0.5663004517555237
13.394245386123657,-0.0875486359000206,-0.5132753252983093,0.5895704627037048,1.1472877264022827,0.11615930497646332,-0.5663004517555237
13.41431999206543,-0.0875486359000206,-0.5132753252983093,0.5891889929771423,1.1469062566757202,0.11615930497646332,-0.5663004517555237
13.434396743774414,-0.0879301130771637,-0.5132753252983093,0.5884260535240173,1.1469062566757202,0.11615930497646332,-0.5663004517555237
13.454450607299805,-0.0879301130771637,-0.5136567950248718,0.5884260535240173,1.1469062566757202,0.11539635062217712,-0.5663004517555237
13.47452998161316,-0.0883115902543068,-0.5140383243560791,0.5880445837974548,1.1461433172225952,0.11501488089561462,-0.5663004517555237
13.494600296020508,-0.08869306743144989,-0.5144197940826416,0.5876630544662476,1.1449989080429077,0.11577782779932022,-0.5663004517555237
13.514675617218018,-0.08869306743144989,-0.5148012638092041,0.5876630544662476,1.1446174383163452,0.11539635062217712,-0.5663004517555237
13.535101175308228,-0.08907453715801239,-0.5151827335357666,0.5869001150131226,1.1446174383163452,0.11463340371847153,-0.5663004517555237
13.555176258087158,-0.08983749151229858,-0.5155642032623291,0.5865186452865601,1.1442358493804932,0.11539635062217712,-0.5663004517555237
13.575228691101074,-0.08983749151229858,-0.5159456729888916,0.5861371755599976,1.1442358493804932,0.11425192654132843,-0.5663004517555237
13.595561981201172,-0.08983749151229858,-0.5163271427154541,0.5857557058334351,1.1442358493804932,0.11234454810619354,-0.5663004517555237
13.615652799606323,-0.08983749151229858,-0.5167086124420166,0.5853742361068726,1.1442358493804932,0.11234454810619354,-0.5663004517555237
13.63572883605957,-0.09021896868944168,-0.5167086124420166,0.5849927663803101,1.1438543796539307,0.11196307092905045,-0.5663004517555237
13.655786037445068,-0.09060044586658478,-0.5170900821685791,0.5842298269271851,1.1438543796539307,0.11234454810619354,-0.5666819214820862
13.675884246826172,-0.09098191559314728,-0.5178530812263489,0.5842298269271851,1.1430914402008057,0.11196307092905045,-0.5666819214820862
13.69603419303894,-0.09136339277029037,-0.5182345509529114,0.5842298269271851,1.1427099704742432,0.11158160120248795,-0.5666819214820862
13.71605920791626,-0.09174486994743347,-0.5186160206794739,0.5834668278694153,1.1427099704742432,0.11158160120248795,-0.5666819214820862
13.736168146133423,-0.09174486994743347,-0.5186160206794739,0.5830853581428528,1.1423285007476807,0.11043716967105865,-0.5666819214820862
13.756221771240234,-0.09174486994743347,-0.5186160206794739,0.5823224186897278,1.1419470310211182,0.10929274559020996,-0.5666819214820862
13.776276111602783,-0.09212634712457657,-0.5189974904060364,0.5823224186897278,1.1411840915679932,0.10852979123592377,-0.5666819214820862
13.796370267868042,-0.09212634712457657,-0.5197604298591614,0.5823224186897278,1.1408026218414307,0.10891126841306686,-0.5666819214820862
13.816434860229492,-0.09250781685113907,-0.5205233693122864,0.5819409489631653,1.1404211521148682,0.10891126841306686,-0.5666819214820862
13.83651328086853,-0.09288929402828217,-0.5205233693122864,0.5815594792366028,1.1404211521148682,0.10852979123592377,-0.5670633912086487
13.856645107269287,-0.09288929402828217,-0.5205233693122864,0.5811780095100403,1.1400396823883057,0.10776684433221817,-0.5666819214820862
13.876733779907227,-0.09327077120542526,-0.5209048390388489,0.5811780095100403,1.1400396823883057,0.10776684433221817,-0.5666819214820862
13.896811246871948,-0.09403372555971146,-0.5209048390388489,0.5811780095100403,1.1400396823883057,0.10776684433221817,-0.5670633912086487
13.91689682006836,-0.09403372555971146,-0.5209048390388489,0.5804150700569153,1.1400396823883057,0.10814831405878067,-0.5670633912086487
13.936984300613403,-0.09403372555971146,-0.5209048390388489,0.580033540725708,1.1400396823883057,0.10814831405878067,-0.5670633912086487
13.957043409347534,-0.09403372555971146,-0.5209048390388489,0.579270601272583,1.1392767429351807,0.10738536715507507,-0.5670633912086487
13.977204322814941,-0.09403372555971146,-0.5224307775497437,0.579270601272583,1.1385138034820557,0.10662241280078888,-0.5670633912086487
13.99729299545288,-0.09403372555971146,-0.5231937170028687,0.579270601272583,1.1369879245758057,0.10738536715507507,-0.5670633912086487
14.017367601394653,-0.09479667246341705,-0.5239566564559937,0.5788891315460205,1.1366063356399536,0.10662241280078888,-0.5670633912086487
14.037429571151733,-0.09479667246341705,-0.5247195959091187,0.578507661819458,1.1366063356399536,0.10433356463909149,-0.5670633912086487
14.05752444267273,-0.09479667246341705,-0.5247195959091187,0.577744722366333,1.1366063356399536,0.10471503436565399,-0.5670633912086487
14.077600717544556,-0.09479667246341705,-0.5251010656356812,0.577744722366333,1.1366063356399536,0.1039520874619484,-0.5670633912086487
14.09765911102295,-0.09479667246341705,-0.5251010656356812,0.5773632526397705,1.1362248659133911,0.1039520874619484,-0.5670633912086487
14.11775016784668,-0.09517814964056015,-0.5254825949668884,0.576981782913208,1.1358433961868286,0.1039520874619484,-0.5670633912086487
14.137848138809204,-0.09517814964056015,-0.5262455344200134,0.576981782913208,1.1354619264602661,0.10433356463909149,-0.5670633912086487
14.15789532661438,-0.09555962681770325,-0.5266270041465759,0.576981782913208,1.1350804567337036,0.1039520874619484,-0.5670633912086487
14.17798662185669,-0.09594109654426575,-0.5270084738731384,0.576218843460083,1.1346989870071411,0.1031891331076622,-0.5670633912086487
14.1980619430542,-0.09708552807569504,-0.5273899435997009,0.5754558444023132,1.1335545778274536,0.1031891331076622,-0.5670633912086487
14.218114137649536,-0.09708552807569504,-0.5273899435997009,0.5750743746757507,1.1331731081008911,0.10128175467252731,-0.5674448609352112
14.238198518753052,-0.09708552807569504,-0.5277714133262634,0.5746929049491882,1.1331731081008911,0.10090028494596481,-0.5670633912086487
14.258239269256592,-0.09708552807569504,-0.5285343527793884,0.5746929049491882,1.1327916383743286,0.10128175467252731,-0.5670633912086487
14.278300762176514,-0.09708552807569504,-0.5289158225059509,0.5739299654960632,1.1327916383743286,0.10128175467252731,-0.5670633912086487
14.298388242721558,-0.09746700525283813,-0.5292973518371582,0.5739299654960632,1.1327916383743286,0.10090028494596481,-0.5670633912086487
14.318461894989014,-0.09784847497940063,-0.5300602912902832,0.5735484957695007,1.1324101686477661,0.10090028494596481,-0.5674448609352112
14.338549852371216,-0.09822995215654373,-0.5304417610168457,0.5731670260429382,1.1324101686477661,0.10090028494596481,-0.5670633912086487
14.358665466308594,-0.09899290651082993,-0.5304417610168457,0.5727855563163757,1.1324101686477661,0.10013733059167862,-0.5670633912086487
