liuyurong129/humanoid-gym/humanoid/data/actual_q_20250522-035330.csv
timestamp,joint_1,joint_2,joint_3,joint_4,joint_5,joint_6
0.0002865791320800781,0.000572213320992887,0.164988175034523,-0.08258945494890213,-0.00019073777366429567,0.00019073777366429567,-0.000572213320992887
0.020372390747070312,0.0009536888683214784,0.14286258816719055,-0.07343403995037079,-0.00019073777366429567,0.00019073777366429567,-0.000572213320992887
0.04044938087463379,0.00019073777366429567,0.12111848592758179,-0.06427863240242004,-0.00019073777366429567,0.0024795911740511656,-0.000572213320992887
0.060527801513671875,0.000572213320992887,0.10738536715507507,-0.058175019919872284,0.00019073777366429567,0.0009536888683214784,-0.000572213320992887
0.08061671257019043,0.00019073777366429567,0.09632257372140884,-0.05092698708176613,-0.00019073777366429567,0.00019073777366429567,-0.000572213320992887
0.1006917953491211,0.00019073777366429567,0.0871671661734581,-0.04558632895350456,-0.00019073777366429567,0.00019073777366429567,-0.000572213320992887
0.12078666687011719,0.00019073777366429567,0.07763027399778366,-0.0394827201962471,-0.00019073777366429567,0.00019073777366429567,-0.000572213320992887
0.14084362983703613,0.000572213320992887,0.06961929053068161,-0.03757534176111221,-0.00019073777366429567,0.000572213320992887,-0.00019073777366429567
0.16092538833618164,0.000572213320992887,0.059319447726011276,-0.03604944050312042,-0.00019073777366429567,0.00019073777366429567,-0.000572213320992887
0.1810164451599121,0.000572213320992887,0.05207141116261482,-0.035667963325977325,-0.00019073777366429567,0.00019073777366429567,-0.00019073777366429567
0.20119524002075195,0.000572213320992887,0.04177157208323479,-0.03528648987412453,-0.00019073777366429567,0.00019073777366429567,-0.00019073777366429567
0.22134041786193848,0.000572213320992887,0.03032730519771576,-0.03223468363285065,-0.00019073777366429567,0.00019073777366429567,-0.00019073777366429567
0.2414233684539795,0.000572213320992887,0.02040894143283367,-0.03032730519771576,-0.00019073777366429567,0.00019073777366429567,-0.00019073777366429567
0.2615187168121338,0.000572213320992887,0.008964675478637218,-0.026512550190091133,-0.00019073777366429567,0.000572213320992887,0.00019073777366429567
0.2815577983856201,0.000572213320992887,-0.001716639962978661,-0.023460745811462402,-0.00019073777366429567,0.000572213320992887,0.000572213320992887
0.30173635482788086,0.000572213320992887,-0.013923857361078262,-0.021171892061829567,-0.00019073777366429567,0.00019073777366429567,0.000572213320992887
0.3217439651489258,0.000572213320992887,-0.027656977996230125,-0.018120087683200836,-0.000572213320992887,0.00019073777366429567,0.0009536888683214784
0.34190917015075684,0.00019073777366429567,-0.040627144277095795,-0.014686808921396732,-0.000572213320992887,0.00019073777366429567,0.0009536888683214784
0.36229443550109863,0.00019073777366429567,-0.05664911866188049,-0.011635004542768002,-0.000572213320992887,0.00019073777366429567,0.0013351644156500697
0.38247179985046387,0.00019073777366429567,-0.07305257022380829,-0.005531395319849253,-0.0009536888683214784,0.00019073777366429567,0.0013351644156500697
0.4024808406829834,-0.00019073777366429567,-0.08869306743144989,-0.0024795911740511656,-0.0013351644156500697,0.000572213320992887,0.001716639962978661
0.42258715629577637,-0.00019073777366429567,-0.10547798871994019,0.00476844422519207,-0.0013351644156500697,0.00019073777366429567,0.001716639962978661
0.4426746368408203,-0.00019073777366429567,-0.12302586436271667,0.00858320016413927,-0.001716639962978661,0.000572213320992887,0.0020981156267225742
0.46280598640441895,-0.00019073777366429567,-0.14019227027893066,0.01583123579621315,-0.0020981156267225742,0.000572213320992887,0.002861066721379757
0.4828529357910156,-0.00019073777366429567,-0.15545128285884857,0.022697795182466507,-0.002861066721379757,0.000572213320992887,0.0036240178160369396
0.5029191970825195,-0.00019073777366429567,-0.17032882571220398,0.02880140393972397,-0.0036240178160369396,0.000572213320992887,0.004005493130534887
0.5229923725128174,-0.00019073777366429567,-0.18825818598270416,0.03833829239010811,-0.004005493130534887,0.000572213320992887,0.004386968910694122
0.5430872440338135,-0.00019073777366429567,-0.20771344006061554,0.04558632895350456,-0.004386968910694122,0.000572213320992887,0.00476844422519207
0.5631320476531982,-0.00019073777366429567,-0.22564278542995453,0.0558861680328846,-0.00476844422519207,0.0013351644156500697,0.005149920005351305
0.5832536220550537,-0.000572213320992887,-0.24280919134616852,0.06542305648326874,-0.00476844422519207,0.001716639962978661,0.005149920005351305
0.6033310890197754,-0.00019073777366429567,-0.2592126429080963,0.07534141838550568,-0.005149920005351305,0.001716639962978661,0.005531395319849253
0.6236340999603271,-0.00019073777366429567,-0.2790493667125702,0.08869306743144989,-0.005531395319849253,0.0013351644156500697,0.005531395319849253
0.6436891555786133,-0.000572213320992887,-0.30041199922561646,0.10013733059167862,-0.006294346414506435,0.0020981156267225742,0.00667582219466567
0.6638035774230957,-0.000572213320992887,-0.31757840514183044,0.11234454810619354,-0.007438773289322853,0.002861066721379757,0.008201723918318748
0.683934211730957,-0.000572213320992887,-0.33474478125572205,0.12302586436271667,-0.007438773289322853,0.002861066721379757,0.00858320016413927
0.7039899826049805,-0.000572213320992887,-0.35152971744537354,0.134470134973526,-0.0078202486038208,0.002861066721379757,0.008964675478637218
0.724027156829834,-0.000572213320992887,-0.3721294105052948,0.14438849687576294,-0.008201723918318748,0.002861066721379757,0.009727626107633114
0.7441749572753906,-0.000572213320992887,-0.3915846347808838,0.15850308537483215,-0.008201723918318748,0.002861066721379757,0.010109102353453636
0.7642388343811035,-0.000572213320992887,-0.41142138838768005,0.16994735598564148,-0.00858320016413927,0.0032425422687083483,0.011635004542768002
0.7851195335388184,-0.000572213320992887,-0.4327840209007263,0.1836804747581482,-0.008964675478637218,0.0032425422687083483,0.01201647985726595
0.8052358627319336,-0.000572213320992887,-0.4522392749786377,0.1977950781583786,-0.008964675478637218,0.0032425422687083483,0.012397955171763897
0.8253021240234375,-0.0009536888683214784,-0.4705500900745392,0.21152819693088531,-0.009727626107633114,0.0036240178160369396,0.012397955171763897
0.8454272747039795,-0.000572213320992887,-0.49229419231414795,0.2286945879459381,-0.010490577667951584,0.0036240178160369396,0.012779430486261845
0.8654794692993164,-0.000572213320992887,-0.5117494463920593,0.24319066107273102,-0.01125352829694748,0.0036240178160369396,0.013160906732082367
0.8855376243591309,-0.000572213320992887,-0.5323491096496582,0.2573052644729614,-0.01201647985726595,0.004005493130534887,0.013160906732082367
0.9056215286254883,-0.000572213320992887,-0.5521858334541321,0.2748531401157379,-0.01201647985726595,0.004386968910694122,0.013923857361078262
0.9257059097290039,-0.000572213320992887,-0.571259617805481,0.2912565767765045,-0.012397955171763897,0.00476844422519207,0.014686808921396732
0.9457623958587646,-0.000572213320992887,-0.5926222801208496,0.308041512966156,-0.012397955171763897,0.005912871100008488,0.015449759550392628
0.965846061706543,-0.000572213320992887,-0.612840473651886,0.3271152675151825,-0.012779430486261845,0.007057297509163618,0.01583123579621315
0.9860341548919678,-0.000572213320992887,-0.6300068497657776,0.3404669165611267,-0.013160906732082367,0.008201723918318748,0.016212711110711098
1.0060861110687256,-0.000572213320992887,-0.650225043296814,0.3576333224773407,-0.013542382046580315,0.0078202486038208,0.016594186425209045
1.0261664390563965,-0.000572213320992887,-0.6719691753387451,0.3725108802318573,-0.01430533267557621,0.008201723918318748,0.01735713705420494
1.046255111694336,-0.000572213320992887,-0.692568838596344,0.3881513774394989,-0.015449759550392628,0.010109102353453636,0.018120087683200836
1.0663423538208008,-0.000572213320992887,-0.7146944403648376,0.4060807228088379,-0.015449759550392628,0.010109102353453636,0.01888304017484188
1.0864450931549072,-0.000572213320992887,-0.7364385724067688,0.4224841594696045,-0.01583123579621315,0.010490577667951584,0.019645990803837776
1.1074655055999756,-0.000572213320992887,-0.7593270540237427,0.44193941354751587,-0.016212711110711098,0.010872052982449532,0.020027466118335724
1.1275925636291504,-0.000572213320992887,-0.7818341255187988,0.46368351578712463,-0.016212711110711098,0.01201647985726595,0.020027466118335724
1.1476531028747559,-0.000572213320992887,-0.8020523190498352,0.4812313914299011,-0.016975661739706993,0.01201647985726595,0.02040894143283367
1.167741298675537,-0.00019073777366429567,-0.8253223299980164,0.5037384629249573,-0.01773861236870289,0.013160906732082367,0.021171892061829567
1.1878361701965332,-0.00019073777366429567,-0.84744793176651,0.5228122472763062,-0.018501564860343933,0.014686808921396732,0.02231631986796856
1.2080001831054688,-0.00019073777366429567,-0.8714808821678162,0.5403600931167603,-0.01888304017484188,0.016975661739706993,0.023079270496964455
1.2280974388122559,-0.00019073777366429567,-0.8939879536628723,0.5590524077415466,-0.01888304017484188,0.018501564860343933,0.023460745811462402
1.2481639385223389,-0.00019073777366429567,-0.9145876169204712,0.5758373141288757,-0.01926451548933983,0.01888304017484188,0.024223696440458298
1.2683076858520508,-0.00019073777366429567,-0.9390020370483398,0.5956740379333496,-0.019645990803837776,0.01888304017484188,0.024986648932099342
1.2884280681610107,-0.00019073777366429567,-0.9637979865074158,0.6166552305221558,-0.019645990803837776,0.020027466118335724,0.026512550190091133
1.3084888458251953,-0.00019073777366429567,-0.9885938763618469,0.6345845460891724,-0.019645990803837776,0.02193484455347061,0.027656977996230125
1.3286809921264648,-0.00019073777366429567,-1.0133898258209229,0.655947208404541,-0.019645990803837776,0.022697795182466507,0.029182879254221916
1.3487005233764648,0.00019073777366429567,-1.039711594581604,0.6773098111152649,-0.020027466118335724,0.024605173617601395,0.03032730519771576
1.368790626525879,0.00019073777366429567,-1.0660333633422852,0.6979095339775085,-0.020027466118335724,0.025749599561095238,0.030708782374858856
1.3889200687408447,0.0009536888683214784,-1.0915923118591309,0.7219424843788147,-0.020027466118335724,0.026131074875593185,0.031090257689356804
1.4090619087219238,0.0024795911740511656,-1.115625262260437,0.7436865568161011,-0.02040894143283367,0.025749599561095238,0.03147173300385475
1.4290835857391357,0.00476844422519207,-1.1415655612945557,0.7681010365486145,-0.02040894143283367,0.026512550190091133,0.03223468363285065
1.4491758346557617,0.00667582219466567,-1.1697947978973389,0.7932783961296082,-0.02040894143283367,0.02727550081908703,0.03299763426184654
1.4693236351013184,0.008964675478637218,-1.19611656665802,0.8161669373512268,-0.02040894143283367,0.02689402550458908,0.03490501269698143
1.4897596836090088,0.010490577667951584,-1.2266346216201782,0.8424887657165527,-0.02040894143283367,0.027656977996230125,0.03604944050312042
1.5099101066589355,0.01430533267557621,-1.2579156160354614,0.8695735335350037,-0.02079041674733162,0.02727550081908703,0.03757534176111221
1.5299878120422363,0.01888304017484188,-1.2907224893569946,0.8974212408065796,-0.021171892061829567,0.03032730519771576,0.038719769567251205
1.5501351356506348,0.024986648932099342,-1.3258183002471924,0.9279392957687378,-0.021171892061829567,0.03223468363285065,0.039101243019104004
1.5702037811279297,0.029564354568719864,-1.358243703842163,0.9565499424934387,-0.021553369238972664,0.031090257689356804,0.0398641936480999
1.5903611183166504,0.03337911143898964,-1.3986800909042358,0.9908827543258667,-0.02231631986796856,0.03223468363285065,0.042153049260377884
1.6104605197906494,0.0394827201962471,-1.4436942338943481,1.028648853302002,-0.02231631986796856,0.035667963325977325,0.04444190114736557
1.630528211593628,0.048256658017635345,-1.4894713163375854,1.0687037706375122,-0.022697795182466507,0.038719769567251205,0.04711223021149635
1.6506373882293701,0.057793546468019485,-1.5371557474136353,1.109140157699585,-0.023079270496964455,0.04329747334122658,0.05207141116261482
1.6707634925842285,0.06351567804813385,-1.576066255569458,1.1434729099273682,-0.023079270496964455,0.045204851776361465,0.05893797054886818
1.6908063888549805,0.06885633617639542,-1.6069657802581787,1.1690318584442139,-0.023460745811462402,0.049782559275627136,0.06656748056411743
1.711033821105957,0.07343403995037079,-1.6283283233642578,1.1877241134643555,-0.024605173617601395,0.0555046908557415,0.07495994865894318
1.7311348915100098,0.07572289556264877,-1.6401541233062744,1.19916832447052,-0.026131074875593185,0.06237125024199486,0.08297093212604523
1.751225471496582,0.07572289556264877,-1.6504539251327515,1.2140458822250366,-0.02689402550458908,0.06618601083755493,0.08869306743144989
1.7713158130645752,0.07457847148180008,-1.654268741607666,1.2258716821670532,-0.02727550081908703,0.06961929053068161,0.09327077120542526
1.7913689613342285,0.071908138692379,-1.6561760902404785,1.2357900142669678,-0.02689402550458908,0.0715266615152359,0.09670405089855194
1.8114814758300781,0.06656748056411743,-1.6561760902404785,1.2449454069137573,-0.026512550190091133,0.0715266615152359,0.09899290651082993
1.831561803817749,0.059319447726011276,-1.655031681060791,1.2491416931152344,-0.026512550190091133,0.0715266615152359,0.10090028494596481
1.8516478538513184,0.048638131469488144,-1.6538872718811035,1.2502861022949219,-0.025749599561095238,0.07038223743438721,0.1031891331076622
1.8717617988586426,0.038719769567251205,-1.653505802154541,1.2491416931152344,-0.024986648932099342,0.07000076025724411,0.1039520874619484
1.891815185546875,0.03147173300385475,-1.652742862701416,1.2445639371871948,-0.02079041674733162,0.06580453366041183,0.10738536715507507
1.9118735790252686,0.029564354568719864,-1.650835394859314,1.2399863004684448,-0.01506828423589468,0.05741206929087639,0.11158160120248795
1.9319419860839844,0.030708782374858856,-1.649309515953064,1.2373158931732178,-0.009346150793135166,0.04329747334122658,0.1184481605887413
1.952042818069458,0.031090257689356804,-1.6466392278671265,1.2369344234466553,-0.0024795911740511656,0.03757534176111221,0.12226291000843048
1.9721736907958984,0.031090257689356804,-1.6409170627593994,1.2376973628997803,0.0020981156267225742,0.03452353551983833,0.12531471252441406
1.9923608303070068,0.030708782374858856,-1.6348134279251099,1.2392233610153198,0.006294346414506435,0.03833829239010811,0.12569619715213776
2.012495279312134,0.028038453310728073,-1.6309987306594849,1.2388418912887573,0.010109102353453636,0.050164032727479935,0.12531471252441406
2.0325639247894287,0.02384222112596035,-1.6268024444580078,1.2392233610153198,0.01583123579621315,0.06084534898400307,0.12531471252441406
2.0528452396392822,0.02040894143283367,-1.6248950958251953,1.2373158931732178,0.02040894143283367,0.07572289556264877,0.12531471252441406
2.0729267597198486,0.01583123579621315,-1.6226062774658203,1.2354085445404053,0.024223696440458298,0.08449683338403702,0.12493324279785156
2.0930252075195312,0.012779430486261845,-1.6229877471923828,1.2327382564544678,0.02727550081908703,0.08487831056118011,0.12493324279785156
2.1133103370666504,0.010109102353453636,-1.6237506866455078,1.2331197261810303,0.03185320645570755,0.08335240930318832,0.12455176562070847
2.1335196495056152,0.008201723918318748,-1.6218433380126953,1.2357900142669678,0.03833829239010811,0.07610437273979187,0.12493324279785156
2.1535637378692627,0.007438773289322853,-1.6191729307174683,1.2369344234466553,0.04558632895350456,0.06618601083755493,0.12493324279785156
2.1736223697662354,0.0078202486038208,-1.6157397031784058,1.2376973628997803,0.05207141116261482,0.06237125024199486,0.12493324279785156
2.193721055984497,0.0078202486038208,-1.6115434169769287,1.2361714839935303,0.056267641484737396,0.06160829961299896,0.12455176562070847
2.215172052383423,0.0078202486038208,-1.6096360683441162,1.2335011959075928,0.06046387553215027,0.06313420087099075,0.12378881871700287
2.235260009765625,0.0078202486038208,-1.6096360683441162,1.2315938472747803,0.06389715522527695,0.06771191209554672,0.12226291000843048
2.2556118965148926,0.0078202486038208,-1.6103990077972412,1.2304493188858032,0.06542305648326874,0.07610437273979187,0.1192111074924469
2.275731325149536,0.008201723918318748,-1.6111619472503662,1.2304493188858032,0.06885633617639542,0.08373387902975082,0.11654078215360641
2.295783042907715,0.008201723918318748,-1.6119248867034912,1.2323567867279053,0.07305257022380829,0.0871671661734581,0.11463340371847153
2.3158812522888184,0.006294346414506435,-1.6107804775238037,1.2369344234466553,0.07801175117492676,0.09098191559314728,0.11158160120248795
2.335972547531128,0.00476844422519207,-1.6096360683441162,1.2403677701950073,0.08335240930318832,0.09479667246341705,0.10814831405878067
2.3560502529144287,0.0024795911740511656,-1.6073472499847412,1.2418936491012573,0.08869306743144989,0.09441519528627396,0.10547798871994019
2.3761463165283203,0.00019073777366429567,-1.6054397821426392,1.2399863004684448,0.09365224838256836,0.09327077120542526,0.10433356463909149
2.3964903354644775,-0.0013351644156500697,-1.6046768426895142,1.2373158931732178,0.09784847497940063,0.0879301130771637,0.10128175467252731
2.4165871143341064,-0.0013351644156500697,-1.6054397821426392,1.2335011959075928,0.10166323184967041,0.07915617525577545,0.09937438368797302
2.4366958141326904,0.00019073777366429567,-1.6073472499847412,1.2315938472747803,0.10204470902681351,0.07648584991693497,0.09784847497940063
2.456751585006714,0.002861066721379757,-1.6088731288909912,1.2319753170013428,0.10433356463909149,0.07534141838550568,0.09594109654426575
2.4768288135528564,0.004005493130534887,-1.6092545986175537,1.2361714839935303,0.10624094307422638,0.07419699430465698,0.09327077120542526
2.496894121170044,0.00476844422519207,-1.6084916591644287,1.2396048307418823,0.10891126841306686,0.07991912961006165,0.08945601433515549
2.5170326232910156,0.005149920005351305,-1.6058213710784912,1.2415121793746948,0.11234454810619354,0.0871671661734581,0.08487831056118011
2.5370967388153076,0.004005493130534887,-1.6016250848770142,1.2403677701950073,0.11654078215360641,0.09098191559314728,0.08106355369091034
2.5571627616882324,-0.00019073777366429567,-1.6008621454238892,1.2376973628997803,0.11959258466959,0.09937438368797302,0.07839322835206985
2.5772252082824707,-0.002861066721379757,-1.6004806756973267,1.2346456050872803,0.12226291000843048,0.10471503436565399,0.07457847148180008
2.5973432064056396,-0.004005493130534887,-1.6016250848770142,1.2323567867279053,0.12417028844356537,0.09975585341453552,0.0715266615152359
2.617403268814087,-0.004005493130534887,-1.6027694940567017,1.2319753170013428,0.12569619715213776,0.09212634712457657,0.07038223743438721
2.637460947036743,-0.0032425422687083483,-1.6046768426895142,1.2323567867279053,0.12836651504039764,0.08068207651376724,0.06961929053068161
2.657552480697632,-0.0009536888683214784,-1.6054397821426392,1.2361714839935303,0.13179980218410492,0.07457847148180008,0.06771191209554672
2.677602767944336,0.000572213320992887,-1.6031509637832642,1.2384604215621948,0.1333257108926773,0.0722896158695221,0.06504157930612564
2.697709798812866,0.00019073777366429567,-1.6004806756973267,1.2388418912887573,0.1359960287809372,0.07457847148180008,0.06237125024199486
2.717855215072632,-0.00019073777366429567,-1.5970473289489746,1.2373158931732178,0.13866636157035828,0.07991912961006165,0.05893797054886818
2.738492012023926,-0.00019073777366429567,-1.5947585105895996,1.2346456050872803,0.13942931592464447,0.08983749151229858,0.05436026677489281
2.758571147918701,-0.000572213320992887,-1.5939955711364746,1.2319753170013428,0.14019227027893066,0.09670405089855194,0.049782559275627136
2.7786481380462646,-0.002861066721379757,-1.594377040863037,1.2308309078216553,0.14209964871406555,0.09899290651082993,0.04596780240535736
2.7987911701202393,-0.005912871100008488,-1.5955214500427246,1.2300678491592407,0.14438849687576294,0.10471503436565399,0.04406042397022247
2.81889271736145,-0.00667582219466567,-1.5947585105895996,1.2331197261810303,0.14667734503746033,0.10433356463909149,0.04100862145423889
2.8389487266540527,-0.00667582219466567,-1.594377040863037,1.2365529537200928,0.1501106321811676,0.10013733059167862,0.03833829239010811
2.859257221221924,-0.007057297509163618,-1.5924696922302246,1.2384604215621948,0.15468832850456238,0.08907453715801239,0.03681239113211632
2.879344940185547,-0.006294346414506435,-1.590562343597412,1.2361714839935303,0.15774014592170715,0.08564125746488571,0.03490501269698143
2.8994126319885254,-0.005531395319849253,-1.587891936302185,1.2342641353607178,0.15812161564826965,0.08602273464202881,0.03185320645570755
2.9195556640625,-0.005149920005351305,-1.5882734060287476,1.2315938472747803,0.15812161564826965,0.08602273464202881,0.02841992862522602
2.9396822452545166,-0.004386968910694122,-1.589417815208435,1.2304493188858032,0.15850308537483215,0.0871671661734581,0.025749599561095238
2.959711790084839,-0.0032425422687083483,-1.5917067527770996,1.2304493188858032,0.15926603972911835,0.08983749151229858,0.02193484455347061
2.979795217514038,-0.0013351644156500697,-1.5924696922302246,1.2323567867279053,0.16002899408340454,0.09441519528627396,0.018501564860343933
2.9999279975891113,-0.0020981156267225742,-1.592088222503662,1.2369344234466553,0.16117341816425323,0.09746700525283813,0.016594186425209045
3.0200324058532715,-0.0036240178160369396,-1.5917067527770996,1.2392233610153198,0.16384375095367432,0.09937438368797302,0.013542382046580315
3.0401298999786377,-0.005149920005351305,-1.589417815208435,1.2403677701950073,0.1665140837430954,0.10547798871994019,0.01125352829694748
3.0602967739105225,-0.007438773289322853,-1.58865487575531,1.2380788326263428,0.16880293190479279,0.10509651154279709,0.009727626107633114
3.0803589820861816,-0.00858320016413927,-1.587891936302185,1.2361714839935303,0.17109178006649017,0.1028076633810997,0.00667582219466567
3.1004295349121094,-0.009346150793135166,-1.5882734060287476,1.2335011959075928,0.17223620414733887,0.09517814964056015,0.004005493130534887
3.1205875873565674,-0.008201723918318748,-1.5890363454818726,1.2319753170013428,0.17261768877506256,0.086785688996315,0.001716639962978661
3.1406126022338867,-0.00476844422519207,-1.5909438133239746,1.2300678491592407,0.17261768877506256,0.08373387902975082,-0.000572213320992887
3.160752773284912,-0.004005493130534887,-1.590562343597412,1.2323567867279053,0.17299915850162506,0.08068207651376724,-0.0020981156267225742
3.1808106899261475,-0.0024795911740511656,-1.589417815208435,1.2350270748138428,0.17299915850162506,0.08297093212604523,-0.005531395319849253
3.2010984420776367,-0.0020981156267225742,-1.587891936302185,1.2365529537200928,0.17414358258247375,0.09021896868944168,-0.008201723918318748
3.2211761474609375,-0.0020981156267225742,-1.58560311794281,1.2369344234466553,0.17605096101760864,0.09899290651082993,-0.009727626107633114
3.241281509399414,-0.004386968910694122,-1.58407723903656,1.2361714839935303,0.17681391537189484,0.1039520874619484,-0.012779430486261845
3.2614798545837402,-0.00667582219466567,-1.5836957693099976,1.2346456050872803,0.17795833945274353,0.10929274559020996,-0.015449759550392628
3.281583547592163,-0.0078202486038208,-1.5836957693099976,1.2331197261810303,0.17872129380702972,0.10929274559020996,-0.016594186425209045
3.301652193069458,-0.008201723918318748,-1.584840178489685,1.2315938472747803,0.17986571788787842,0.1035706102848053,-0.01888304017484188
3.3218894004821777,-0.00858320016413927,-1.58560311794281,1.2315938472747803,0.1813916265964508,0.09403372555971146,-0.021171892061829567
3.341857671737671,-0.007057297509163618,-1.584840178489685,1.2323567867279053,0.182917520403862,0.08525978773832321,-0.022697795182466507
3.3619208335876465,-0.005531395319849253,-1.58407723903656,1.2327382564544678,0.1832990050315857,0.08487831056118011,-0.02384222112596035
3.3821725845336914,-0.00476844422519207,-1.58255136013031,1.2335011959075928,0.1836804747581482,0.08487831056118011,-0.026131074875593185
3.402297019958496,-0.004386968910694122,-1.581406831741333,1.2331197261810303,0.1836804747581482,0.0871671661734581,-0.02841992862522602
3.422370672225952,-0.00476844422519207,-1.5794994831085205,1.2315938472747803,0.1836804747581482,0.09250781685113907,-0.03185320645570755
3.442455530166626,-0.004386968910694122,-1.579118013381958,1.2300678491592407,0.1836804747581482,0.09937438368797302,-0.034142062067985535
3.4625279903411865,-0.00476844422519207,-1.5794994831085205,1.2300678491592407,0.1840619444847107,0.10433356463909149,-0.03604944050312042
3.482645273208618,-0.005912871100008488,-1.5794994831085205,1.2300678491592407,0.1840619444847107,0.10471503436565399,-0.03833829239010811
3.5027003288269043,-0.0078202486038208,-1.5794994831085205,1.2304493188858032,0.1848248988389969,0.10509651154279709,-0.040245670825242996
3.5227696895599365,-0.00858320016413927,-1.5794994831085205,1.2323567867279053,0.18711376190185547,0.10433356463909149,-0.04177157208323479
3.542828321456909,-0.009346150793135166,-1.5787365436553955,1.2338826656341553,0.18940261006355286,0.09937438368797302,-0.04291599988937378
3.5629749298095703,-0.009727626107633114,-1.577592134475708,1.2338826656341553,0.19130998849868774,0.09365224838256836,-0.04406042397022247
3.583026885986328,-0.008964675478637218,-1.576829195022583,1.2312123775482178,0.19130998849868774,0.08945601433515549,-0.04596780240535736
3.604318141937256,-0.007438773289322853,-1.5756847858428955,1.2293049097061157,0.19130998849868774,0.0875486359000206,-0.04749370738863945
3.6244475841522217,-0.006294346414506435,-1.576066255569458,1.2273975610733032,0.19092851877212524,0.0875486359000206,-0.049782559275627136
3.644566297531128,-0.005531395319849253,-1.576066255569458,1.2266346216201782,0.19092851877212524,0.09060044586658478,-0.05092698708176613
3.664841890335083,-0.00476844422519207,-1.576066255569458,1.2273975610733032,0.19054703414440155,0.09632257372140884,-0.053215838968753815
3.6849865913391113,-0.00476844422519207,-1.576066255569458,1.2293049097061157,0.19092851877212524,0.10090028494596481,-0.0551232174038887
3.705080986022949,-0.006294346414506435,-1.5749218463897705,1.2308309078216553,0.19092851877212524,0.10509651154279709,-0.05741206929087639
3.7260897159576416,-0.00858320016413927,-1.573395848274231,1.2315938472747803,0.19130998849868774,0.10929274559020996,-0.05893797054886818
3.746211051940918,-0.010109102353453636,-1.572632908821106,1.2308309078216553,0.19207294285297394,0.10891126841306686,-0.06046387553215027
3.766263723373413,-0.011635004542768002,-1.5730143785476685,1.2285419702529907,0.19359883666038513,0.10585946589708328,-0.06084534898400307
3.786339282989502,-0.01201647985726595,-1.5730143785476685,1.2270160913467407,0.19474326074123383,0.09937438368797302,-0.061226826161146164
3.8064587116241455,-0.010490577667951584,-1.5737773180007935,1.2262531518936157,0.19512474536895752,0.09021896868944168,-0.06160829961299896
3.8265066146850586,-0.008201723918318748,-1.5756847858428955,1.2254902124404907,0.19512474536895752,0.0864042118191719,-0.06351567804813385
3.846600294113159,-0.005912871100008488,-1.575303316116333,1.2270160913467407,0.19512474536895752,0.08564125746488571,-0.06466010212898254
3.866692304611206,-0.005149920005351305,-1.5749218463897705,1.2289234399795532,0.19474326074123383,0.0883115902543068,-0.06580453366041183
3.8867437839508057,-0.004005493130534887,-1.5737773180007935,1.2308309078216553,0.19474326074123383,0.09708552807569504,-0.06809338182210922
3.9068360328674316,-0.0032425422687083483,-1.5730143785476685,1.2319753170013428,0.19474326074123383,0.10433356463909149,-0.06961929053068161
3.926928758621216,-0.005912871100008488,-1.572632908821106,1.2315938472747803,0.19512474536895752,0.10852979123592377,-0.0722896158695221
3.946993350982666,-0.008201723918318748,-1.5722514390945435,1.2308309078216553,0.19512474536895752,0.11654078215360641,-0.07381551712751389
3.9670777320861816,-0.010109102353453636,-1.5722514390945435,1.2296863794326782,0.19512474536895752,0.11654078215360641,-0.07572289556264877
3.987133264541626,-0.01125352829694748,-1.572632908821106,1.2289234399795532,0.1958876997232437,0.11272602528333664,-0.07610437273979187
4.0072362422943115,-0.012779430486261845,-1.573395848274231,1.2281605005264282,0.1974135935306549,0.1035706102848053,-0.07610437273979187
4.02737021446228,-0.012397955171763897,-1.5737773180007935,1.2285419702529907,0.1989395022392273,0.09403372555971146,-0.07572289556264877
4.047533750534058,-0.010490577667951584,-1.5737773180007935,1.2285419702529907,0.1989395022392273,0.08983749151229858,-0.07610437273979187
4.067545175552368,-0.007438773289322853,-1.573395848274231,1.2285419702529907,0.1989395022392273,0.08602273464202881,-0.07610437273979187
4.087610483169556,-0.006294346414506435,-1.573395848274231,1.2285419702529907,0.1989395022392273,0.086785688996315,-0.07724879682064056
4.107705354690552,-0.005531395319849253,-1.5730143785476685,1.2285419702529907,0.1985580176115036,0.09174486994743347,-0.07877469807863235
4.127776145935059,-0.005531395319849253,-1.5730143785476685,1.2285419702529907,0.1981765478849411,0.10013733059167862,-0.08030059933662415
4.1479268074035645,-0.005149920005351305,-1.5730143785476685,1.2289234399795532,0.1981765478849411,0.10662241280078888,-0.08258945494890213
4.168048858642578,-0.007438773289322853,-1.5730143785476685,1.2300678491592407,0.1977950781583786,0.10891126841306686,-0.08373387902975082
4.188169240951538,-0.008964675478637218,-1.5730143785476685,1.2304493188858032,0.1981765478849411,0.11425192654132843,-0.08525978773832321
4.208268880844116,-0.010109102353453636,-1.5730143785476685,1.2308309078216553,0.1981765478849411,0.11463340371847153,-0.0864042118191719
4.228340148925781,-0.010872052982449532,-1.572632908821106,1.2308309078216553,0.1989395022392273,0.10852979123592377,-0.0864042118191719
4.248690605163574,-0.01201647985726595,-1.572632908821106,1.2304493188858032,0.1997024416923523,0.09937438368797302,-0.0864042118191719
4.26877760887146,-0.01125352829694748,-1.572632908821106,1.2296863794326782,0.2004653960466385,0.09212634712457657,-0.0864042118191719
4.2891223430633545,-0.008964675478637218,-1.572632908821106,1.2285419702529907,0.20084688067436218,0.08907453715801239,-0.08602273464202881
4.309208393096924,-0.007057297509163618,-1.572632908821106,1.2277790307998657,0.2004653960466385,0.08525978773832321,-0.086785688996315
4.329254150390625,-0.005912871100008488,-1.572632908821106,1.2277790307998657,0.20084688067436218,0.0871671661734581,-0.0871671661734581
4.349677801132202,-0.00476844422519207,-1.571869969367981,1.2281605005264282,0.200083926320076,0.09250781685113907,-0.0879301130771637
4.3696794509887695,-0.00476844422519207,-1.5714884996414185,1.2289234399795532,0.1997024416923523,0.09975585341453552,-0.09021896868944168
4.389734506607056,-0.00667582219466567,-1.571107029914856,1.2296863794326782,0.1997024416923523,0.10624094307422638,-0.09098191559314728
4.409829616546631,-0.00858320016413927,-1.5707255601882935,1.2296863794326782,0.1997024416923523,0.11120012402534485,-0.09174486994743347
4.429991006851196,-0.009727626107633114,-1.5699626207351685,1.2296863794326782,0.1997024416923523,0.11310750246047974,-0.09365224838256836
4.450000286102295,-0.01125352829694748,-1.569581151008606,1.2293049097061157,0.1997024416923523,0.10891126841306686,-0.09403372555971146
4.470167398452759,-0.011635004542768002,-1.569581151008606,1.2281605005264282,0.2004653960466385,0.10433356463909149,-0.09403372555971146
4.490183353424072,-0.011635004542768002,-1.569581151008606,1.2273975610733032,0.20160982012748718,0.09365224838256836,-0.09365224838256836
4.5103559494018555,-0.010109102353453636,-1.569581151008606,1.2262531518936157,0.20160982012748718,0.0883115902543068,-0.09403372555971146
4.53045392036438,-0.0078202486038208,-1.569581151008606,1.2254902124404907,0.20160982012748718,0.0864042118191719,-0.09365224838256836
4.5505194664001465,-0.007057297509163618,-1.569581151008606,1.2258716821670532,0.20122835040092468,0.08564125746488571,-0.09403372555971146
4.570634365081787,-0.005531395319849253,-1.569581151008606,1.2262531518936157,0.20122835040092468,0.08983749151229858,-0.09441519528627396
4.590682506561279,-0.005149920005351305,-1.568818211555481,1.2270160913467407,0.20084688067436218,0.09746700525283813,-0.09555962681770325
4.610718250274658,-0.00476844422519207,-1.568818211555481,1.2281605005264282,0.20084688067436218,0.1039520874619484,-0.09746700525283813
4.630820274353027,-0.0078202486038208,-1.568818211555481,1.2285419702529907,0.20084688067436218,0.10624094307422638,-0.09822995215654373
4.650940179824829,-0.008964675478637218,-1.568818211555481,1.2281605005264282,0.20084688067436218,0.11196307092905045,-0.09899290651082993
4.6710264682769775,-0.010490577667951584,-1.568818211555481,1.2281605005264282,0.20084688067436218,0.11158160120248795,-0.10090028494596481
4.691080331802368,-0.01201647985726595,-1.568818211555481,1.2273975610733032,0.20084688067436218,0.10700388997793198,-0.10166323184967041
4.711201429367065,-0.01201647985726595,-1.568818211555481,1.2273975610733032,0.20122835040092468,0.09822995215654373,-0.10166323184967041
4.731329441070557,-0.01125352829694748,-1.568818211555481,1.2262531518936157,0.20160982012748718,0.08907453715801239,-0.10128175467252731
4.751414775848389,-0.008201723918318748,-1.568818211555481,1.2258716821670532,0.20160982012748718,0.0871671661734581,-0.10128175467252731
4.771464586257935,-0.006294346414506435,-1.568818211555481,1.2254902124404907,0.20160982012748718,0.08564125746488571,-0.10128175467252731
4.791611433029175,-0.005912871100008488,-1.568818211555481,1.2258716821670532,0.20122835040092468,0.08907453715801239,-0.10166323184967041
4.811686038970947,-0.005149920005351305,-1.568818211555481,1.2258716821670532,0.20122835040092468,0.09784847497940063,-0.10204470902681351
4.832932233810425,-0.005149920005351305,-1.568818211555481,1.2270160913467407,0.20084688067436218,0.10471503436565399,-0.1024261862039566
4.853138208389282,-0.007438773289322853,-1.568818211555481,1.2277790307998657,0.20084688067436218,0.10776684433221817,-0.1031891331076622
4.873199224472046,-0.008964675478637218,-1.5684367418289185,1.2285419702529907,0.20084688067436218,0.11196307092905045,-0.10433356463909149
4.89359974861145,-0.010109102353453636,-1.568055272102356,1.2285419702529907,0.20084688067436218,0.11425192654132843,-0.10509651154279709
4.91374135017395,-0.01125352829694748,-1.5676738023757935,1.2281605005264282,0.20122835040092468,0.10929274559020996,-0.10509651154279709
4.93379020690918,-0.01201647985726595,-1.5676738023757935,1.2273975610733032,0.20160982012748718,0.10166323184967041,-0.10509651154279709
4.953873157501221,-0.01201647985726595,-1.5676738023757935,1.2258716821670532,0.20199130475521088,0.09479667246341705,-0.10471503436565399
4.973938941955566,-0.00858320016413927,-1.5676738023757935,1.2251087427139282,0.20199130475521088,0.09174486994743347,-0.10471503436565399
4.994005918502808,-0.00667582219466567,-1.5676738023757935,1.2247272729873657,0.20199130475521088,0.0875486359000206,-0.10471503436565399
5.014120578765869,-0.005531395319849253,-1.568055272102356,1.2247272729873657,0.20160982012748718,0.0883115902543068,-0.10471503436565399
5.034207344055176,-0.005149920005351305,-1.5676738023757935,1.2258716821670532,0.20122835040092468,0.09479667246341705,-0.10509651154279709
5.054303884506226,-0.004386968910694122,-1.5676738023757935,1.2270160913467407,0.20122835040092468,0.1031891331076622,-0.10509651154279709
5.074377536773682,-0.005531395319849253,-1.5676738023757935,1.2281605005264282,0.20122835040092468,0.10891126841306686,-0.10547798871994019
5.094527721405029,-0.0078202486038208,-1.5676738023757935,1.2281605005264282,0.20122835040092468,0.11158160120248795,-0.10585946589708328
5.114576578140259,-0.009346150793135166,-1.5676738023757935,1.2281605005264282,0.20122835040092468,0.11692225188016891,-0.10624094307422638
5.134669542312622,-0.010872052982449532,-1.568055272102356,1.2277790307998657,0.20122835040092468,0.11387044936418533,-0.10738536715507507
5.154747009277344,-0.01201647985726595,-1.568818211555481,1.2273975610733032,0.20160982012748718,0.10891126841306686,-0.10814831405878067
5.174798488616943,-0.01201647985726595,-1.5691996812820435,1.2273975610733032,0.20160982012748718,0.09784847497940063,-0.10814831405878067
5.194896936416626,-0.010872052982449532,-1.569581151008606,1.2266346216201782,0.20199130475521088,0.09250781685113907,-0.10776684433221817
5.214998483657837,-0.007438773289322853,-1.569581151008606,1.2262531518936157,0.20199130475521088,0.09021896868944168,-0.10776684433221817
5.235086917877197,-0.006294346414506435,-1.569581151008606,1.2266346216201782,0.20199130475521088,0.0871671661734581,-0.10776684433221817
5.255180358886719,-0.005149920005351305,-1.569581151008606,1.2266346216201782,0.20160982012748718,0.09174486994743347,-0.10776684433221817
5.275239944458008,-0.005149920005351305,-1.569581151008606,1.2277790307998657,0.20122835040092468,0.09937438368797302,-0.10814831405878067
5.295389652252197,-0.00476844422519207,-1.569581151008606,1.2285419702529907,0.20122835040092468,0.10700388997793198,-0.10852979123592377
5.315516948699951,-0.00667582219466567,-1.5691996812820435,1.2285419702529907,0.20122835040092468,0.10891126841306686,-0.10891126841306686
5.335609436035156,-0.0078202486038208,-1.568818211555481,1.2285419702529907,0.20122835040092468,0.11387044936418533,-0.10929274559020996
5.355704069137573,-0.009346150793135166,-1.568818211555481,1.2285419702529907,0.20122835040092468,0.11539635062217712,-0.10967422276735306
5.3758156299591064,-0.010872052982449532,-1.5691996812820435,1.2285419702529907,0.20160982012748718,0.11158160120248795,-0.10967422276735306
5.395888805389404,-0.01201647985726595,-1.569581151008606,1.2285419702529907,0.20160982012748718,0.10433356463909149,-0.10929274559020996
5.415963888168335,-0.011635004542768002,-1.569581151008606,1.2281605005264282,0.20199130475521088,0.09517814964056015,-0.10929274559020996
5.436021089553833,-0.009727626107633114,-1.569581151008606,1.2270160913467407,0.20237277448177338,0.09136339277029037,-0.10891126841306686
5.456082105636597,-0.00667582219466567,-1.569581151008606,1.2262531518936157,0.20237277448177338,0.0879301130771637,-0.10891126841306686
5.4761433601379395,-0.00476844422519207,-1.569581151008606,1.2262531518936157,0.20199130475521088,0.086785688996315,-0.10891126841306686
5.496387243270874,-0.0036240178160369396,-1.569581151008606,1.2266346216201782,0.20199130475521088,0.09174486994743347,-0.10929274559020996
5.5163843631744385,-0.0024795911740511656,-1.569581151008606,1.2270160913467407,0.20160982012748718,0.10090028494596481,-0.10929274559020996
5.536459684371948,-0.0036240178160369396,-1.569581151008606,1.2285419702529907,0.20160982012748718,0.10585946589708328,-0.10967422276735306
5.556538820266724,-0.007057297509163618,-1.5691996812820435,1.2289234399795532,0.20160982012748718,0.11043716967105865,-0.10967422276735306
5.576609373092651,-0.008201723918318748,-1.568818211555481,1.2289234399795532,0.20160982012748718,0.11615930497646332,-0.11043716967105865
5.59667444229126,-0.009346150793135166,-1.568818211555481,1.2289234399795532,0.20160982012748718,0.11348897218704224,-0.11234454810619354
5.616757154464722,-0.010109102353453636,-1.568818211555481,1.2285419702529907,0.20199130475521088,0.10662241280078888,-0.11234454810619354
5.636828899383545,-0.010872052982449532,-1.568818211555481,1.2285419702529907,0.20199130475521088,0.09632257372140884,-0.11196307092905045
5.6568827629089355,-0.010109102353453636,-1.5691996812820435,1.2273975610733032,0.20237277448177338,0.0875486359000206,-0.11196307092905045
5.676997661590576,-0.006294346414506435,-1.568818211555481,1.2262531518936157,0.20237277448177338,0.08487831056118011,-0.11158160120248795
5.697065591812134,-0.005531395319849253,-1.568818211555481,1.2262531518936157,0.20237277448177338,0.08258945494890213,-0.11158160120248795
5.717129945755005,-0.004005493130534887,-1.568818211555481,1.2262531518936157,0.20199130475521088,0.08602273464202881,-0.11158160120248795
5.737224340438843,-0.0036240178160369396,-1.568818211555481,1.2266346216201782,0.20160982012748718,0.09212634712457657,-0.11196307092905045
5.757297992706299,-0.0036240178160369396,-1.5684367418289185,1.2277790307998657,0.20160982012748718,0.1024261862039566,-0.11196307092905045
5.777410984039307,-0.005531395319849253,-1.568055272102356,1.2285419702529907,0.20160982012748718,0.10624094307422638,-0.11196307092905045
5.797528505325317,-0.0078202486038208,-1.5676738023757935,1.2285419702529907,0.20122835040092468,0.11158160120248795,-0.11234454810619354
5.817579984664917,-0.009727626107633114,-1.567292332649231,1.2285419702529907,0.20122835040092468,0.11387044936418533,-0.11272602528333664
5.837673902511597,-0.011635004542768002,-1.567292332649231,1.2285419702529907,0.20160982012748718,0.11120012402534485,-0.11234454810619354
5.857746124267578,-0.01201647985726595,-1.5676738023757935,1.2281605005264282,0.20199130475521088,0.10433356463909149,-0.11234454810619354
5.877801179885864,-0.011635004542768002,-1.5676738023757935,1.2270160913467407,0.20199130475521088,0.09174486994743347,-0.11196307092905045
5.897911310195923,-0.008964675478637218,-1.5676738023757935,1.2258716821670532,0.20199130475521088,0.0875486359000206,-0.11196307092905045
5.918079853057861,-0.007057297509163618,-1.5676738023757935,1.2247272729873657,0.20199130475521088,0.08487831056118011,-0.11196307092905045
5.9382359981536865,-0.005912871100008488,-1.5676738023757935,1.2247272729873657,0.20199130475521088,0.08525978773832321,-0.11196307092905045
5.95832896232605,-0.005531395319849253,-1.5676738023757935,1.2262531518936157,0.20160982012748718,0.09021896868944168,-0.11196307092905045
5.978379011154175,-0.004386968910694122,-1.567292332649231,1.2277790307998657,0.20122835040092468,0.09937438368797302,-0.11234454810619354
5.998585939407349,-0.004386968910694122,-1.566529393196106,1.2285419702529907,0.20160982012748718,0.10662241280078888,-0.11234454810619354
6.0186686515808105,-0.0078202486038208,-1.566147804260254,1.2285419702529907,0.20122835040092468,0.11005569249391556,-0.11234454810619354
6.038726806640625,-0.010109102353453636,-1.5657663345336914,1.2281605005264282,0.20122835040092468,0.11730372905731201,-0.11272602528333664
6.058836460113525,-0.010872052982449532,-1.565384864807129,1.2273975610733032,0.20122835040092468,0.11539635062217712,-0.11272602528333664
6.078937768936157,-0.01201647985726595,-1.5657663345336914,1.2262531518936157,0.20160982012748718,0.10891126841306686,-0.11272602528333664
6.099207639694214,-0.012779430486261845,-1.5669108629226685,1.2251087427139282,0.20160982012748718,0.09937438368797302,-0.11272602528333664
6.119305372238159,-0.010872052982449532,-1.5669108629226685,1.2251087427139282,0.20199130475521088,0.08983749151229858,-0.11196307092905045
6.139354467391968,-0.008201723918318748,-1.568055272102356,1.2243458032608032,0.20160982012748718,0.0871671661734581,-0.11234454810619354
6.159449338912964,-0.00667582219466567,-1.5676738023757935,1.2243458032608032,0.20160982012748718,0.08411535620689392,-0.11196307092905045
6.179551839828491,-0.005149920005351305,-1.5676738023757935,1.2254902124404907,0.20160982012748718,0.0864042118191719,-0.11234454810619354
6.1995933055877686,-0.004386968910694122,-1.5676738023757935,1.2266346216201782,0.20122835040092468,0.09174486994743347,-0.11234454810619354
6.219682455062866,-0.0024795911740511656,-1.5676738023757935,1.2270160913467407,0.20122835040092468,0.10090028494596481,-0.11234454810619354
6.239753484725952,-0.0032425422687083483,-1.5676738023757935,1.2281605005264282,0.20084688067436218,0.10624094307422638,-0.11272602528333664
6.259862184524536,-0.007438773289322853,-1.5676738023757935,1.2285419702529907,0.20084688067436218,0.11043716967105865,-0.11272602528333664
6.279898405075073,-0.00858320016413927,-1.5676738023757935,1.2285419702529907,0.2004653960466385,0.11615930497646332,-0.11272602528333664
6.299984931945801,-0.009727626107633114,-1.5676738023757935,1.2281605005264282,0.2004653960466385,0.11272602528333664,-0.11272602528333664
6.3201141357421875,-0.010109102353453636,-1.5676738023757935,1.2281605005264282,0.20084688067436218,0.10624094307422638,-0.11272602528333664
6.3402419090271,-0.010109102353453636,-1.568055272102356,1.2273975610733032,0.20122835040092468,0.09632257372140884,-0.11272602528333664
6.360248327255249,-0.009727626107633114,-1.568055272102356,1.2262531518936157,0.20122835040092468,0.08945601433515549,-0.11234454810619354
6.380352735519409,-0.006294346414506435,-1.568055272102356,1.2254902124404907,0.20122835040092468,0.0875486359000206,-0.11234454810619354
6.40042781829834,-0.005531395319849253,-1.568055272102356,1.2254902124404907,0.20122835040092468,0.08602273464202881,-0.11234454810619354
6.42050313949585,-0.004386968910694122,-1.568055272102356,1.2254902124404907,0.20084688067436218,0.08869306743144989,-0.11234454810619354
6.4406023025512695,-0.0036240178160369396,-1.568055272102356,1.2262531518936157,0.2004653960466385,0.09517814964056015,-0.11272602528333664
6.460652828216553,-0.0032425422687083483,-1.568055272102356,1.2270160913467407,0.2004653960466385,0.1039520874619484,-0.11272602528333664
6.48076605796814,-0.005149920005351305,-1.5676738023757935,1.2277790307998657,0.2004653960466385,0.10700388997793198,-0.11272602528333664
6.500870227813721,-0.0078202486038208,-1.5676738023757935,1.2285419702529907,0.200083926320076,0.11310750246047974,-0.11272602528333664
6.521218538284302,-0.009346150793135166,-1.5676738023757935,1.2281605005264282,0.200083926320076,0.11463340371847153,-0.11310750246047974
6.541311502456665,-0.010490577667951584,-1.568055272102356,1.2277790307998657,0.2004653960466385,0.10891126841306686,-0.11310750246047974
6.5614094734191895,-0.01125352829694748,-1.568055272102356,1.2270160913467407,0.2004653960466385,0.10204470902681351,-0.11272602528333664
6.5815088748931885,-0.010490577667951584,-1.568055272102356,1.2258716821670532,0.20084688067436218,0.09060044586658478,-0.11272602528333664
6.601604223251343,-0.00667582219466567,-1.568055272102356,1.2254902124404907,0.20084688067436218,0.086785688996315,-0.11234454810619354
6.621650457382202,-0.005149920005351305,-1.568818211555481,1.2254902124404907,0.20122835040092468,0.08449683338403702,-0.11234454810619354
6.641735792160034,-0.004386968910694122,-1.568818211555481,1.2258716821670532,0.20084688067436218,0.0875486359000206,-0.11234454810619354
6.661836385726929,-0.004005493130534887,-1.568818211555481,1.2266346216201782,0.2004653960466385,0.09327077120542526,-0.11234454810619354
6.681882381439209,-0.0020981156267225742,-1.568818211555481,1.2270160913467407,0.2004653960466385,0.10204470902681351,-0.11272602528333664
6.701972723007202,-0.0036240178160369396,-1.568818211555481,1.2281605005264282,0.200083926320076,0.10585946589708328,-0.11272602528333664
6.7220704555511475,-0.005912871100008488,-1.568818211555481,1.2285419702529907,0.200083926320076,0.10891126841306686,-0.11272602528333664
6.742362976074219,-0.0078202486038208,-1.568818211555481,1.2285419702529907,0.1997024416923523,0.11501488089561462,-0.11310750246047974
6.762514591217041,-0.008964675478637218,-1.568818211555481,1.2285419702529907,0.1997024416923523,0.11196307092905045,-0.11310750246047974
6.7826197147369385,-0.009727626107633114,-1.568818211555481,1.2285419702529907,0.200083926320076,0.10509651154279709,-0.11310750246047974
6.802626848220825,-0.009727626107633114,-1.568818211555481,1.2281605005264282,0.2004653960466385,0.09555962681770325,-0.11272602528333664
6.822732448577881,-0.008201723918318748,-1.568818211555481,1.2273975610733032,0.20122835040092468,0.08983749151229858,-0.11234454810619354
6.842826843261719,-0.005912871100008488,-1.568818211555481,1.2266346216201782,0.20084688067436218,0.08869306743144989,-0.11234454810619354
6.862939119338989,-0.005149920005351305,-1.568818211555481,1.2266346216201782,0.20084688067436218,0.0879301130771637,-0.11234454810619354
6.88302206993103,-0.004386968910694122,-1.568818211555481,1.2266346216201782,0.2004653960466385,0.09136339277029037,-0.11234454810619354
6.903134822845459,-0.0036240178160369396,-1.568818211555481,1.2270160913467407,0.2004653960466385,0.09899290651082993,-0.11272602528333664
6.923210144042969,-0.0032425422687083483,-1.568818211555481,1.2277790307998657,0.200083926320076,0.10624094307422638,-0.11272602528333664
6.943334341049194,-0.005149920005351305,-1.568818211555481,1.2285419702529907,0.200083926320076,0.10891126841306686,-0.11272602528333664
6.963718414306641,-0.007057297509163618,-1.568818211555481,1.2285419702529907,0.200083926320076,0.11348897218704224,-0.11272602528333664
6.9838056564331055,-0.008201723918318748,-1.568818211555481,1.2285419702529907,0.200083926320076,0.11425192654132843,-0.11272602528333664
7.003917455673218,-0.009346150793135166,-1.568818211555481,1.2285419702529907,0.2004653960466385,0.10891126841306686,-0.11272602528333664
7.0239551067352295,-0.010109102353453636,-1.5691996812820435,1.2285419702529907,0.20084688067436218,0.10166323184967041,-0.11272602528333664
7.044076681137085,-0.009727626107633114,-1.5691996812820435,1.2281605005264282,0.20122835040092468,0.09174486994743347,-0.11234454810619354
7.064130783081055,-0.008201723918318748,-1.569581151008606,1.2273975610733032,0.20122835040092468,0.08869306743144989,-0.11234454810619354
7.084246635437012,-0.005912871100008488,-1.569581151008606,1.2266346216201782,0.20122835040092468,0.0871671661734581,-0.11234454810619354
7.104318618774414,-0.00476844422519207,-1.569581151008606,1.2266346216201782,0.20122835040092468,0.0875486359000206,-0.11234454810619354
7.1243836879730225,-0.0036240178160369396,-1.569581151008606,1.2266346216201782,0.20084688067436218,0.09174486994743347,-0.11234454810619354
7.14454460144043,-0.001716639962978661,-1.569581151008606,1.2273975610733032,0.2004653960466385,0.10090028494596481,-0.11234454810619354
7.1645588874816895,-0.0032425422687083483,-1.569581151008606,1.2285419702529907,0.200083926320076,0.10585946589708328,-0.11272602528333664
7.1846020221710205,-0.006294346414506435,-1.569581151008606,1.2296863794326782,0.200083926320076,0.10852979123592377,-0.11272602528333664
7.204702854156494,-0.008201723918318748,-1.5691996812820435,1.2296863794326782,0.200083926320076,0.11501488089561462,-0.11272602528333664
7.224785089492798,-0.009727626107633114,-1.568818211555481,1.2293049097061157,0.200083926320076,0.11234454810619354,-0.11272602528333664
7.244854927062988,-0.011635004542768002,-1.568818211555481,1.2285419702529907,0.2004653960466385,0.10624094307422638,-0.11272602528333664
7.26501989364624,-0.011635004542768002,-1.568818211555481,1.2273975610733032,0.20084688067436218,0.09670405089855194,-0.11272602528333664
7.285137176513672,-0.009727626107633114,-1.5691996812820435,1.2258716821670532,0.20122835040092468,0.08869306743144989,-0.11196307092905045
7.305257558822632,-0.00667582219466567,-1.5691996812820435,1.2254902124404907,0.20122835040092468,0.08487831056118011,-0.11234454810619354
7.325284719467163,-0.005149920005351305,-1.5691996812820435,1.2254902124404907,0.20122835040092468,0.08487831056118011,-0.11196307092905045
7.345383405685425,-0.004005493130534887,-1.568818211555481,1.2262531518936157,0.20084688067436218,0.0875486359000206,-0.11234454810619354
7.365483045578003,-0.0036240178160369396,-1.5684367418289185,1.2277790307998657,0.2004653960466385,0.09555962681770325,-0.11234454810619354
7.385575771331787,-0.0032425422687083483,-1.5676738023757935,1.2289234399795532,0.2004653960466385,0.10433356463909149,-0.11234454810619354
7.4057042598724365,-0.006294346414506435,-1.5669108629226685,1.2285419702529907,0.200083926320076,0.10624094307422638,-0.11234454810619354
7.425793170928955,-0.0078202486038208,-1.5669108629226685,1.2277790307998657,0.200083926320076,0.11272602528333664,-0.11234454810619354
7.44585108757019,-0.008964675478637218,-1.5669108629226685,1.2266346216201782,0.200083926320076,0.11348897218704224,-0.11272602528333664
7.465970039367676,-0.010109102353453636,-1.5669108629226685,1.2254902124404907,0.200083926320076,0.10776684433221817,-0.11272602528333664
7.486009836196899,-0.010109102353453636,-1.5676738023757935,1.2251087427139282,0.200083926320076,0.09975585341453552,-0.11272602528333664
7.506096363067627,-0.009346150793135166,-1.568055272102356,1.2251087427139282,0.2004653960466385,0.08907453715801239,-0.11196307092905045
7.5261640548706055,-0.007438773289322853,-1.5676738023757935,1.2247272729873657,0.2004653960466385,0.086785688996315,-0.11196307092905045
7.54633641242981,-0.005531395319849253,-1.5676738023757935,1.2247272729873657,0.20084688067436218,0.0864042118191719,-0.11196307092905045
7.566426515579224,-0.005149920005351305,-1.5676738023757935,1.2258716821670532,0.2004653960466385,0.0879301130771637,-0.11196307092905045
7.586480617523193,-0.004386968910694122,-1.5676738023757935,1.2262531518936157,0.2004653960466385,0.09555962681770325,-0.11234454810619354
7.606619834899902,-0.004386968910694122,-1.5676738023757935,1.2266346216201782,0.200083926320076,0.1039520874619484,-0.11234454810619354
7.626684188842773,-0.005531395319849253,-1.5676738023757935,1.2266346216201782,0.1997024416923523,0.10814831405878067,-0.11234454810619354
7.646946668624878,-0.0078202486038208,-1.5676738023757935,1.2273975610733032,0.1997024416923523,0.10891126841306686,-0.11234454810619354
7.667109966278076,-0.008964675478637218,-1.568055272102356,1.2277790307998657,0.1993209719657898,0.11310750246047974,-0.11272602528333664
7.687145948410034,-0.009727626107633114,-1.568055272102356,1.2281605005264282,0.1997024416923523,0.11158160120248795,-0.11234454810619354
7.707319021224976,-0.01125352829694748,-1.568055272102356,1.2285419702529907,0.200083926320076,0.10585946589708328,-0.11234454810619354
7.727427959442139,-0.01201647985726595,-1.568055272102356,1.2281605005264282,0.200083926320076,0.09670405089855194,-0.11234454810619354
7.747486352920532,-0.010872052982449532,-1.568055272102356,1.2270160913467407,0.20084688067436218,0.09174486994743347,-0.11196307092905045
7.767585277557373,-0.007438773289322853,-1.5684367418289185,1.2258716821670532,0.20084688067436218,0.0871671661734581,-0.11196307092905045
7.787640333175659,-0.006294346414506435,-1.569581151008606,1.2254902124404907,0.20084688067436218,0.08602273464202881,-0.11196307092905045
7.807740688323975,-0.00476844422519207,-1.5699626207351685,1.2258716821670532,0.2004653960466385,0.08945601433515549,-0.11196307092905045
7.82780909538269,-0.004005493130534887,-1.5699626207351685,1.2270160913467407,0.1997024416923523,0.09441519528627396,-0.11234454810619354
7.847861289978027,-0.002861066721379757,-1.5699626207351685,1.2285419702529907,0.1989395022392273,0.1031891331076622,-0.11234454810619354
7.867997646331787,-0.006294346414506435,-1.569581151008606,1.2296863794326782,0.1989395022392273,0.10624094307422638,-0.11234454810619354
7.888056993484497,-0.007438773289322853,-1.5691996812820435,1.2304493188858032,0.1993209719657898,0.11348897218704224,-0.11234454810619354
7.908250093460083,-0.009346150793135166,-1.568818211555481,1.2300678491592407,0.1993209719657898,0.11387044936418533,-0.11234454810619354
7.92837929725647,-0.010109102353453636,-1.568818211555481,1.2293049097061157,0.1997024416923523,0.10891126841306686,-0.11234454810619354
7.948439598083496,-0.01201647985726595,-1.569581151008606,1.2270160913467407,0.200083926320076,0.1031891331076622,-0.11234454810619354
7.968510866165161,-0.01201647985726595,-1.5699626207351685,1.2258716821670532,0.20084688067436218,0.08945601433515549,-0.11234454810619354
7.988694429397583,-0.009727626107633114,-1.5699626207351685,1.2247272729873657,0.20122835040092468,0.08449683338403702,-0.11196307092905045
8.009024143218994,-0.005912871100008488,-1.5699626207351685,1.2247272729873657,0.20122835040092468,0.08068207651376724,-0.11158160120248795
8.029162168502808,-0.00476844422519207,-1.569581151008606,1.2262531518936157,0.20084688067436218,0.07991912961006165,-0.11196307092905045
8.049252033233643,-0.0036240178160369396,-1.568818211555481,1.2277790307998657,0.20084688067436218,0.0875486359000206,-0.11196307092905045
8.069324493408203,-0.0036240178160369396,-1.568055272102356,1.2285419702529907,0.2004653960466385,0.09746700525283813,-0.11234454810619354
8.08938479423523,-0.004386968910694122,-1.567292332649231,1.2285419702529907,0.2004653960466385,0.10662241280078888,-0.11234454810619354
8.109601020812988,-0.007438773289322853,-1.566529393196106,1.2281605005264282,0.200083926320076,0.11196307092905045,-0.11234454810619354
8.12968635559082,-0.009346150793135166,-1.5669108629226685,1.2273975610733032,0.200083926320076,0.11730372905731201,-0.11272602528333664
8.150101900100708,-0.010872052982449532,-1.5669108629226685,1.2270160913467407,0.1997024416923523,0.11577782779932022,-0.11272602528333664
8.170183897018433,-0.011635004542768002,-1.5669108629226685,1.2266346216201782,0.200083926320076,0.11043716967105865,-0.11272602528333664
8.190264701843262,-0.01201647985726595,-1.5669108629226685,1.2266346216201782,0.20084688067436218,0.09861142933368683,-0.11234454810619354
8.210408449172974,-0.01201647985726595,-1.5669108629226685,1.2266346216201782,0.20160982012748718,0.08945601433515549,-0.11196307092905045
8.23055624961853,-0.008964675478637218,-1.5669108629226685,1.2258716821670532,0.20160982012748718,0.08907453715801239,-0.11196307092905045
8.250553369522095,-0.006294346414506435,-1.5669108629226685,1.2254902124404907,0.20160982012748718,0.08602273464202881,-0.11196307092905045
8.270662784576416,-0.005149920005351305,-1.5669108629226685,1.2254902124404907,0.20160982012748718,0.086785688996315,-0.11196307092905045
8.29072642326355,-0.004005493130534887,-1.5669108629226685,1.2251087427139282,0.20122835040092468,0.09212634712457657,-0.11196307092905045
8.310845613479614,-0.0024795911740511656,-1.5669108629226685,1.2247272729873657,0.20084688067436218,0.10013733059167862,-0.11234454810619354
8.330941915512085,-0.004386968910694122,-1.5669108629226685,1.2258716821670532,0.2004653960466385,0.10585946589708328,-0.11234454810619354
8.351140022277832,-0.00667582219466567,-1.5669108629226685,1.2266346216201782,0.2004653960466385,0.11043716967105865,-0.11234454810619354
8.37126111984253,-0.00858320016413927,-1.5669108629226685,1.2266346216201782,0.2004653960466385,0.11501488089561462,-0.11272602528333664
8.39134430885315,-0.009727626107633114,-1.5669108629226685,1.2277790307998657,0.2004653960466385,0.11120012402534485,-0.11272602528333664
8.411436557769775,-0.010490577667951584,-1.5669108629226685,1.2277790307998657,0.20122835040092468,0.1039520874619484,-0.11272602528333664
8.431505918502808,-0.010872052982449532,-1.5669108629226685,1.2270160913467407,0.20160982012748718,0.09365224838256836,-0.11234454810619354
8.451578140258789,-0.009346150793135166,-1.567292332649231,1.2254902124404907,0.20160982012748718,0.08564125746488571,-0.11234454810619354
8.471677303314209,-0.006294346414506435,-1.5676738023757935,1.2247272729873657,0.20160982012748718,0.08449683338403702,-0.11196307092905045
8.49172854423523,-0.005531395319849253,-1.568055272102356,1.2243458032608032,0.20160982012748718,0.08220797777175903,-0.11196307092905045
8.511885404586792,-0.004386968910694122,-1.568055272102356,1.2251087427139282,0.20122835040092468,0.0875486359000206,-0.11234454810619354
8.53190016746521,-0.0036240178160369396,-1.5676738023757935,1.2266346216201782,0.20084688067436218,0.09288929402828217,-0.11234454810619354
8.552016019821167,-0.0024795911740511656,-1.5676738023757935,1.2281605005264282,0.20084688067436218,0.1031891331076622,-0.11234454810619354
8.57216501235962,-0.00476844422519207,-1.5676738023757935,1.2285419702529907,0.20084688067436218,0.10776684433221817,-0.11234454810619354
8.592597961425781,-0.0078202486038208,-1.5676738023757935,1.2289234399795532,0.20084688067436218,0.11387044936418533,-0.11272602528333664
8.612799167633057,-0.008964675478637218,-1.5676738023757935,1.2285419702529907,0.2004653960466385,0.11615930497646332,-0.11272602528333664
8.632800340652466,-0.010490577667951584,-1.5676738023757935,1.2273975610733032,0.20084688067436218,0.11196307092905045,-0.11272602528333664
8.652888059616089,-0.011635004542768002,-1.568055272102356,1.2270160913467407,0.20084688067436218,0.10624094307422638,-0.11272602528333664
8.672969341278076,-0.01125352829694748,-1.5684367418289185,1.2266346216201782,0.20122835040092468,0.09517814964056015,-0.11234454810619354
8.693003416061401,-0.00858320016413927,-1.568818211555481,1.2262531518936157,0.20160982012748718,0.09060044586658478,-0.11196307092905045
8.71308159828186,-0.006294346414506435,-1.5691996812820435,1.2262531518936157,0.20160982012748718,0.086785688996315,-0.11234454810619354
8.73315978050232,-0.005149920005351305,-1.568818211555481,1.2262531518936157,0.20160982012748718,0.0871671661734581,-0.11196307092905045
8.753331899642944,-0.00476844422519207,-1.568818211555481,1.2266346216201782,0.20122835040092468,0.09174486994743347,-0.11196307092905045
8.773340702056885,-0.004386968910694122,-1.568818211555481,1.2270160913467407,0.20084688067436218,0.10013733059167862,-0.11234454810619354
8.793412446975708,-0.00476844422519207,-1.568818211555481,1.2281605005264282,0.20084688067436218,0.10585946589708328,-0.11234454810619354
8.813481330871582,-0.005912871100008488,-1.568818211555481,1.2285419702529907,0.20084688067436218,0.10738536715507507,-0.11234454810619354
8.833599090576172,-0.008201723918318748,-1.568818211555481,1.2285419702529907,0.2004653960466385,0.11310750246047974,-0.11272602528333664
8.853654861450195,-0.009727626107633114,-1.568818211555481,1.2285419702529907,0.20084688067436218,0.11234454810619354,-0.11272602528333664
8.873724699020386,-0.01201647985726595,-1.568818211555481,1.2285419702529907,0.20084688067436218,0.10662241280078888,-0.11272602528333664
8.893829822540283,-0.012779430486261845,-1.568818211555481,1.2281605005264282,0.20122835040092468,0.10128175467252731,-0.11272602528333664
8.913898229598999,-0.01201647985726595,-1.568818211555481,1.2273975610733032,0.20160982012748718,0.09098191559314728,-0.11196307092905045
8.933974266052246,-0.008201723918318748,-1.568818211555481,1.2262531518936157,0.20160982012748718,0.0875486359000206,-0.11234454810619354
8.954050064086914,-0.006294346414506435,-1.568818211555481,1.2262531518936157,0.20160982012748718,0.08449683338403702,-0.11196307092905045
8.974099397659302,-0.005531395319849253,-1.568818211555481,1.2262531518936157,0.20122835040092468,0.0871671661734581,-0.11234454810619354
8.994194507598877,-0.00476844422519207,-1.568818211555481,1.2262531518936157,0.20084688067436218,0.09441519528627396,-0.11234454810619354
9.014312744140625,-0.004386968910694122,-1.568818211555481,1.2266346216201782,0.20084688067436218,0.1024261862039566,-0.11234454810619354
9.034939289093018,-0.004386968910694122,-1.5684367418289185,1.2273975610733032,0.2004653960466385,0.10700388997793198,-0.11234454810619354
9.055105447769165,-0.0078202486038208,-1.5684367418289185,1.2285419702529907,0.2004653960466385,0.11158160120248795,-0.11272602528333664
9.075144052505493,-0.009727626107633114,-1.5684367418289185,1.2285419702529907,0.2004653960466385,0.11615930497646332,-0.11310750246047974
9.095237731933594,-0.010872052982449532,-1.5684367418289185,1.2285419702529907,0.2004653960466385,0.11387044936418533,-0.11272602528333664
9.115366220474243,-0.01201647985726595,-1.5684367418289185,1.2285419702529907,0.20122835040092468,0.10738536715507507,-0.11272602528333664
9.135410785675049,-0.012397955171763897,-1.568818211555481,1.2277790307998657,0.20160982012748718,0.09594109654426575,-0.11272602528333664
9.15552806854248,-0.01125352829694748,-1.568818211555481,1.2266346216201782,0.20199130475521088,0.09060044586658478,-0.11234454810619354
9.175591468811035,-0.008201723918318748,-1.568818211555481,1.2258716821670532,0.20160982012748718,0.0875486359000206,-0.11234454810619354
9.195689916610718,-0.00667582219466567,-1.568818211555481,1.2254902124404907,0.20160982012748718,0.08602273464202881,-0.11234454810619354
9.215779781341553,-0.005531395319849253,-1.5684367418289185,1.2254902124404907,0.20160982012748718,0.08983749151229858,-0.11234454810619354
9.236173391342163,-0.004005493130534887,-1.568055272102356,1.2258716821670532,0.20122835040092468,0.09708552807569504,-0.11272602528333664
9.256268739700317,-0.004005493130534887,-1.5676738023757935,1.2266346216201782,0.20084688067436218,0.10585946589708328,-0.11272602528333664
9.276405572891235,-0.006294346414506435,-1.567292332649231,1.2273975610733032,0.20084688067436218,0.10891126841306686,-0.11272602528333664
9.296433448791504,-0.008201723918318748,-1.567292332649231,1.2277790307998657,0.20084688067436218,0.11425192654132843,-0.11272602528333664
9.316526889801025,-0.009727626107633114,-1.567292332649231,1.2273975610733032,0.20122835040092468,0.11577782779932022,-0.11310750246047974
9.336579084396362,-0.010109102353453636,-1.567292332649231,1.2273975610733032,0.20122835040092468,0.11081864684820175,-0.11310750246047974
9.356663703918457,-0.01201647985726595,-1.567292332649231,1.2266346216201782,0.20122835040092468,0.1031891331076622,-0.11272602528333664
9.376746654510498,-0.01201647985726595,-1.5676738023757935,1.2258716821670532,0.20160982012748718,0.09098191559314728,-0.11272602528333664
9.396840810775757,-0.009346150793135166,-1.5676738023757935,1.2251087427139282,0.20160982012748718,0.08602273464202881,-0.11272602528333664
9.417071342468262,-0.006294346414506435,-1.5676738023757935,1.2243458032608032,0.20160982012748718,0.08297093212604523,-0.11272602528333664
9.437072277069092,-0.00476844422519207,-1.5676738023757935,1.2243458032608032,0.20160982012748718,0.08220797777175903,-0.11234454810619354
9.457121133804321,-0.00476844422519207,-1.5676738023757935,1.2254902124404907,0.20122835040092468,0.0879301130771637,-0.11272602528333664
9.477165699005127,-0.004386968910694122,-1.5676738023757935,1.2266346216201782,0.20084688067436218,0.09822995215654373,-0.11272602528333664
9.497251987457275,-0.005912871100008488,-1.5676738023757935,1.2273975610733032,0.2004653960466385,0.10471503436565399,-0.11272602528333664
9.517328262329102,-0.008201723918318748,-1.567292332649231,1.2281605005264282,0.2004653960466385,0.10929274559020996,-0.11272602528333664
9.537602186203003,-0.009727626107633114,-1.5669108629226685,1.2281605005264282,0.2004653960466385,0.11577782779932022,-0.11310750246047974
9.557753324508667,-0.01125352829694748,-1.5669108629226685,1.2277790307998657,0.2004653960466385,0.11272602528333664,-0.11310750246047974
9.57792043685913,-0.01201647985726595,-1.5669108629226685,1.2266346216201782,0.2004653960466385,0.10738536715507507,-0.11310750246047974
9.598057746887207,-0.012779430486261845,-1.567292332649231,1.2262531518936157,0.20084688067436218,0.09784847497940063,-0.11272602528333664
9.618059396743774,-0.01125352829694748,-1.5676738023757935,1.2254902124404907,0.20122835040092468,0.08945601433515549,-0.11234454810619354
9.638748407363892,-0.0078202486038208,-1.5676738023757935,1.2247272729873657,0.20122835040092468,0.0879301130771637,-0.11234454810619354
9.65894889831543,-0.006294346414506435,-1.5676738023757935,1.2243458032608032,0.20122835040092468,0.08602273464202881,-0.11234454810619354
9.679014921188354,-0.005531395319849253,-1.5676738023757935,1.2251087427139282,0.20122835040092468,0.08869306743144989,-0.11272602528333664
9.699129104614258,-0.005149920005351305,-1.5676738023757935,1.2258716821670532,0.20084688067436218,0.09670405089855194,-0.11272602528333664
9.71917200088501,-0.004386968910694122,-1.5676738023757935,1.2270160913467407,0.2004653960466385,0.10624094307422638,-0.11272602528333664
9.739431858062744,-0.006294346414506435,-1.5676738023757935,1.2281605005264282,0.2004653960466385,0.10852979123592377,-0.11272602528333664
9.759604692459106,-0.008201723918318748,-1.5676738023757935,1.2285419702529907,0.2004653960466385,0.11387044936418533,-0.11310750246047974
9.780189037322998,-0.009727626107633114,-1.5676738023757935,1.2285419702529907,0.2004653960466385,0.11501488089561462,-0.11310750246047974
9.800261735916138,-0.01125352829694748,-1.5676738023757935,1.2281605005264282,0.20084688067436218,0.10967422276735306,-0.11310750246047974
9.820351600646973,-0.012397955171763897,-1.568055272102356,1.2273975610733032,0.20122835040092468,0.1035706102848053,-0.11310750246047974
9.840430736541748,-0.012779430486261845,-1.568055272102356,1.2262531518936157,0.20122835040092468,0.09098191559314728,-0.11272602528333664
9.860549449920654,-0.009727626107633114,-1.568055272102356,1.2251087427139282,0.20160982012748718,0.08449683338403702,-0.11272602528333664
9.880634307861328,-0.00667582219466567,-1.568055272102356,1.2247272729873657,0.20160982012748718,0.08106355369091034,-0.11234454810619354
9.900684833526611,-0.005149920005351305,-1.568055272102356,1.2243458032608032,0.20160982012748718,0.07915617525577545,-0.11272602528333664
9.92079472541809,-0.004386968910694122,-1.5676738023757935,1.2251087427139282,0.20122835040092468,0.08564125746488571,-0.11272602528333664
9.940989255905151,-0.004005493130534887,-1.5676738023757935,1.2258716821670532,0.2004653960466385,0.09517814964056015,-0.11310750246047974
9.96109938621521,-0.004386968910694122,-1.5676738023757935,1.2266346216201782,0.2004653960466385,0.1035706102848053,-0.11272602528333664
9.98115348815918,-0.00667582219466567,-1.567292332649231,1.2273975610733032,0.2004653960466385,0.10662241280078888,-0.11310750246047974
10.00159215927124,-0.008964675478637218,-1.567292332649231,1.2277790307998657,0.2004653960466385,0.11310750246047974,-0.11310750246047974
10.021792888641357,-0.009727626107633114,-1.567292332649231,1.2277790307998657,0.2004653960466385,0.11158160120248795,-0.11310750246047974
10.0418541431427,-0.011635004542768002,-1.5676738023757935,1.2273975610733032,0.2004653960466385,0.10509651154279709,-0.11310750246047974
10.06192946434021,-0.01201647985726595,-1.5676738023757935,1.2270160913467407,0.20084688067436218,0.09708552807569504,-0.11310750246047974
10.082022428512573,-0.010109102353453636,-1.5676738023757935,1.2258716821670532,0.20160982012748718,0.08869306743144989,-0.11234454810619354
10.10220980644226,-0.007057297509163618,-1.5676738023757935,1.2251087427139282,0.20122835040092468,0.08525978773832321,-0.11272602528333664
10.12233829498291,-0.005531395319849253,-1.5676738023757935,1.2251087427139282,0.20122835040092468,0.08258945494890213,-0.11272602528333664
10.142438173294067,-0.00476844422519207,-1.5676738023757935,1.2254902124404907,0.20122835040092468,0.08602273464202881,-0.11272602528333664
10.162639617919922,-0.0036240178160369396,-1.567292332649231,1.2254902124404907,0.20084688067436218,0.09327077120542526,-0.11272602528333664
10.182730674743652,-0.002861066721379757,-1.567292332649231,1.2262531518936157,0.20084688067436218,0.10051880776882172,-0.11272602528333664
10.20278811454773,-0.004386968910694122,-1.5669108629226685,1.2266346216201782,0.2004653960466385,0.10471503436565399,-0.11272602528333664
10.222896099090576,-0.007438773289322853,-1.5669108629226685,1.2266346216201782,0.2004653960466385,0.11081864684820175,-0.11310750246047974
10.243021965026855,-0.00858320016413927,-1.5669108629226685,1.2270160913467407,0.200083926320076,0.11387044936418533,-0.11348897218704224
10.26314115524292,-0.009727626107633114,-1.5669108629226685,1.2277790307998657,0.2004653960466385,0.10814831405878067,-0.11310750246047974
10.283243179321289,-0.009727626107633114,-1.5669108629226685,1.2273975610733032,0.20084688067436218,0.1031891331076622,-0.11310750246047974
10.303425312042236,-0.009727626107633114,-1.5669108629226685,1.2266346216201782,0.20122835040092468,0.09174486994743347,-0.11272602528333664
10.323478937149048,-0.010109102353453636,-1.5669108629226685,1.2258716821670532,0.20160982012748718,0.08869306743144989,-0.11272602528333664
10.343577861785889,-0.007057297509163618,-1.567292332649231,1.2254902124404907,0.20122835040092468,0.0871671661734581,-0.11272602528333664
10.363631248474121,-0.005531395319849253,-1.5676738023757935,1.2251087427139282,0.20122835040092468,0.08564125746488571,-0.11234454810619354
10.383804559707642,-0.004005493130534887,-1.5676738023757935,1.2254902124404907,0.20122835040092468,0.08983749151229858,-0.11272602528333664
10.403856992721558,-0.0032425422687083483,-1.5676738023757935,1.2262531518936157,0.20084688067436218,0.09632257372140884,-0.11272602528333664
10.423964500427246,-0.0020981156267225742,-1.5676738023757935,1.2273975610733032,0.20084688067436218,0.1039520874619484,-0.11272602528333664
10.444050788879395,-0.005149920005351305,-1.5676738023757935,1.2285419702529907,0.2004653960466385,0.10662241280078888,-0.11272602528333664
10.464114427566528,-0.007438773289322853,-1.5676738023757935,1.2285419702529907,0.2004653960466385,0.11310750246047974,-0.11310750246047974
10.48421335220337,-0.00858320016413927,-1.5676738023757935,1.2285419702529907,0.2004653960466385,0.11387044936418533,-0.11310750246047974
10.50428295135498,-0.009346150793135166,-1.5676738023757935,1.2281605005264282,0.20084688067436218,0.10891126841306686,-0.11310750246047974
10.524358749389648,-0.009727626107633114,-1.568055272102356,1.2273975610733032,0.20122835040092468,0.10013733059167862,-0.11272602528333664
10.544452905654907,-0.008964675478637218,-1.568055272102356,1.2266346216201782,0.20160982012748718,0.09136339277029037,-0.11234454810619354
10.564615964889526,-0.0078202486038208,-1.5684367418289185,1.2258716821670532,0.20122835040092468,0.08907453715801239,-0.11234454810619354
10.58471131324768,-0.005149920005351305,-1.568818211555481,1.2254902124404907,0.20122835040092468,0.086785688996315,-0.11234454810619354
10.604799747467041,-0.004386968910694122,-1.5691996812820435,1.2262531518936157,0.20122835040092468,0.0883115902543068,-0.11234454810619354
10.624969244003296,-0.0032425422687083483,-1.5691996812820435,1.2266346216201782,0.20084688067436218,0.09327077120542526,-0.11272602528333664
10.645018815994263,-0.0032425422687083483,-1.5691996812820435,1.2281605005264282,0.2004653960466385,0.10204470902681351,-0.11272602528333664
10.665493488311768,-0.004386968910694122,-1.568818211555481,1.2289234399795532,0.2004653960466385,0.10585946589708328,-0.11272602528333664
10.68557858467102,-0.007438773289322853,-1.568818211555481,1.2293049097061157,0.2004653960466385,0.11043716967105865,-0.11272602528333664
10.705644130706787,-0.008964675478637218,-1.568818211555481,1.2293049097061157,0.2004653960466385,0.11234454810619354,-0.11310750246047974
10.725724935531616,-0.010109102353453636,-1.568818211555481,1.2285419702529907,0.20084688067436218,0.10967422276735306,-0.11272602528333664
10.745785474777222,-0.011635004542768002,-1.569581151008606,1.2277790307998657,0.20084688067436218,0.1028076633810997,-0.11272602528333664
10.765867233276367,-0.01201647985726595,-1.569581151008606,1.2273975610733032,0.20122835040092468,0.09250781685113907,-0.11272602528333664
10.785934925079346,-0.008964675478637218,-1.569581151008606,1.2270160913467407,0.20122835040092468,0.08525978773832321,-0.11234454810619354
10.805996894836426,-0.005912871100008488,-1.569581151008606,1.2262531518936157,0.20122835040092468,0.08258945494890213,-0.11234454810619354
10.826091289520264,-0.00476844422519207,-1.569581151008606,1.2266346216201782,0.20122835040092468,0.08144503086805344,-0.11234454810619354
10.846168279647827,-0.0036240178160369396,-1.5691996812820435,1.2266346216201782,0.20122835040092468,0.0871671661734581,-0.11234454810619354
10.866254329681396,-0.0032425422687083483,-1.568818211555481,1.2273975610733032,0.2004653960466385,0.09708552807569504,-0.11272602528333664
10.886404752731323,-0.0032425422687083483,-1.568818211555481,1.2285419702529907,0.1997024416923523,0.10471503436565399,-0.11272602528333664
10.906473398208618,-0.005531395319849253,-1.568818211555481,1.2289234399795532,0.1993209719657898,0.10814831405878067,-0.11272602528333664
10.926591873168945,-0.00858320016413927,-1.5684367418289185,1.2289234399795532,0.1989395022392273,0.11539635062217712,-0.11272602528333664
10.946727514266968,-0.009727626107633114,-1.568055272102356,1.2289234399795532,0.1989395022392273,0.11501488089561462,-0.11272602528333664
10.966757535934448,-0.010872052982449532,-1.5676738023757935,1.2285419702529907,0.1989395022392273,0.10852979123592377,-0.11272602528333664
10.986842632293701,-0.010872052982449532,-1.5676738023757935,1.2277790307998657,0.1997024416923523,0.09899290651082993,-0.11272602528333664
11.006896018981934,-0.010872052982449532,-1.5676738023757935,1.2270160913467407,0.20084688067436218,0.09098191559314728,-0.11234454810619354
11.026991605758667,-0.007438773289322853,-1.5676738023757935,1.2258716821670532,0.20084688067436218,0.0883115902543068,-0.11234454810619354
11.047054052352905,-0.00667582219466567,-1.5676738023757935,1.2254902124404907,0.20084688067436218,0.08564125746488571,-0.11196307092905045
11.06714653968811,-0.005531395319849253,-1.568055272102356,1.2254902124404907,0.20084688067436218,0.0871671661734581,-0.11234454810619354
11.087231397628784,-0.00476844422519207,-1.5676738023757935,1.2258716821670532,0.2004653960466385,0.09327077120542526,-0.11234454810619354
11.107401609420776,-0.004386968910694122,-1.5676738023757935,1.2266346216201782,0.200083926320076,0.10128175467252731,-0.11272602528333664
11.127495765686035,-0.005912871100008488,-1.5676738023757935,1.2273975610733032,0.200083926320076,0.10585946589708328,-0.11272602528333664
11.147644758224487,-0.0078202486038208,-1.5676738023757935,1.2281605005264282,0.1997024416923523,0.10891126841306686,-0.11272602528333664
11.167736530303955,-0.008964675478637218,-1.5676738023757935,1.2281605005264282,0.1997024416923523,0.11081864684820175,-0.11272602528333664
11.187928676605225,-0.010109102353453636,-1.5676738023757935,1.2281605005264282,0.1997024416923523,0.10738536715507507,-0.11272602528333664
11.207916736602783,-0.010872052982449532,-1.5676738023757935,1.2277790307998657,0.200083926320076,0.1024261862039566,-0.11272602528333664
11.228010416030884,-0.01125352829694748,-1.5676738023757935,1.2273975610733032,0.2004653960466385,0.09174486994743347,-0.11234454810619354
11.248072862625122,-0.01125352829694748,-1.5676738023757935,1.2262531518936157,0.20084688067436218,0.08907453715801239,-0.11234454810619354
11.268574714660645,-0.007057297509163618,-1.5676738023757935,1.2254902124404907,0.2004653960466385,0.0875486359000206,-0.11234454810619354
11.288666725158691,-0.00476844422519207,-1.5676738023757935,1.2254902124404907,0.2004653960466385,0.086785688996315,-0.11234454810619354
11.308724641799927,-0.005531395319849253,-1.5676738023757935,1.2254902124404907,0.2004653960466385,0.09021896868944168,-0.11234454810619354
11.328824520111084,-0.005149920005351305,-1.5676738023757935,1.2258716821670532,0.200083926320076,0.09899290651082993,-0.11234454810619354
11.348946809768677,-0.005531395319849253,-1.5676738023757935,1.2266346216201782,0.200083926320076,0.10433356463909149,-0.11272602528333664
11.36899471282959,-0.00667582219466567,-1.5676738023757935,1.2277790307998657,0.200083926320076,0.10547798871994019,-0.11272602528333664
11.389069557189941,-0.00858320016413927,-1.5676738023757935,1.2281605005264282,0.200083926320076,0.10929274559020996,-0.11272602528333664
11.409152746200562,-0.009727626107633114,-1.5676738023757935,1.2281605005264282,0.200083926320076,0.10929274559020996,-0.11272602528333664
11.430300235748291,-0.011635004542768002,-1.5676738023757935,1.2277790307998657,0.2004653960466385,0.10433356463909149,-0.11272602528333664
11.45042896270752,-0.01201647985726595,-1.568055272102356,1.2266346216201782,0.2004653960466385,0.09899290651082993,-0.11272602528333664
11.47046947479248,-0.010872052982449532,-1.568055272102356,1.2262531518936157,0.20084688067436218,0.09136339277029037,-0.11196307092905045
11.490696668624878,-0.008201723918318748,-1.5684367418289185,1.2251087427139282,0.20084688067436218,0.0883115902543068,-0.11234454810619354
11.510926723480225,-0.007057297509163618,-1.568818211555481,1.2258716821670532,0.20084688067436218,0.086785688996315,-0.11234454810619354
11.53091835975647,-0.005531395319849253,-1.5691996812820435,1.2266346216201782,0.20084688067436218,0.08983749151229858,-0.11234454810619354
11.55133056640625,-0.005149920005351305,-1.5691996812820435,1.2273975610733032,0.2004653960466385,0.09670405089855194,-0.11234454810619354
11.571467161178589,-0.004386968910694122,-1.568818211555481,1.2285419702529907,0.200083926320076,0.1031891331076622,-0.11272602528333664
11.591536521911621,-0.005912871100008488,-1.568818211555481,1.2293049097061157,0.2004653960466385,0.10624094307422638,-0.11272602528333664
11.611608505249023,-0.0078202486038208,-1.568818211555481,1.2296863794326782,0.200083926320076,0.11158160120248795,-0.11272602528333664
11.63175106048584,-0.009346150793135166,-1.568818211555481,1.2293049097061157,0.2004653960466385,0.11272602528333664,-0.11272602528333664
11.651822566986084,-0.010109102353453636,-1.5691996812820435,1.2293049097061157,0.20084688067436218,0.10814831405878067,-0.11272602528333664
11.671962022781372,-0.01125352829694748,-1.569581151008606,1.2285419702529907,0.20084688067436218,0.1035706102848053,-0.11272602528333664
11.691978931427002,-0.01125352829694748,-1.569581151008606,1.2281605005264282,0.20084688067436218,0.09250781685113907,-0.11272602528333664
11.71248483657837,-0.010109102353453636,-1.569581151008606,1.2277790307998657,0.20122835040092468,0.08983749151229858,-0.11234454810619354
11.73258924484253,-0.007057297509163618,-1.569581151008606,1.2273975610733032,0.20122835040092468,0.086785688996315,-0.11234454810619354
11.752667665481567,-0.005149920005351305,-1.569581151008606,1.2273975610733032,0.20122835040092468,0.086785688996315,-0.11234454810619354
11.772797346115112,-0.0036240178160369396,-1.569581151008606,1.2273975610733032,0.20084688067436218,0.09212634712457657,-0.11234454810619354
11.79293155670166,-0.0024795911740511656,-1.569581151008606,1.2277790307998657,0.20084688067436218,0.10090028494596481,-0.11234454810619354
11.812986850738525,-0.0036240178160369396,-1.569581151008606,1.2285419702529907,0.2004653960466385,0.10662241280078888,-0.11272602528333664
11.833073854446411,-0.007057297509163618,-1.569581151008606,1.2285419702529907,0.200083926320076,0.11196307092905045,-0.11272602528333664
11.85315728187561,-0.008201723918318748,-1.569581151008606,1.2289234399795532,0.2004653960466385,0.11615930497646332,-0.11310750246047974
11.873223304748535,-0.009727626107633114,-1.569581151008606,1.2296863794326782,0.2004653960466385,0.11234454810619354,-0.11272602528333664
11.893320322036743,-0.010109102353453636,-1.569581151008606,1.2296863794326782,0.20084688067436218,0.10662241280078888,-0.11272602528333664
11.913480281829834,-0.010872052982449532,-1.569581151008606,1.2296863794326782,0.20160982012748718,0.09517814964056015,-0.11234454810619354
11.933483123779297,-0.010490577667951584,-1.569581151008606,1.2281605005264282,0.20199130475521088,0.0871671661734581,-0.11234454810619354
11.953577041625977,-0.007438773289322853,-1.5691996812820435,1.2266346216201782,0.20199130475521088,0.08564125746488571,-0.11234454810619354
11.973666906356812,-0.005149920005351305,-1.5691996812820435,1.2258716821670532,0.20160982012748718,0.08411535620689392,-0.11234454810619354
11.993802070617676,-0.004005493130534887,-1.5691996812820435,1.2258716821670532,0.20160982012748718,0.0864042118191719,-0.11234454810619354
12.013890743255615,-0.0036240178160369396,-1.568818211555481,1.2266346216201782,0.20122835040092468,0.09212634712457657,-0.11234454810619354
12.03410792350769,-0.002861066721379757,-1.5684367418289185,1.2281605005264282,0.20084688067436218,0.09975585341453552,-0.11272602528333664
12.054196119308472,-0.005531395319849253,-1.5676738023757935,1.2289234399795532,0.20084688067436218,0.10624094307422638,-0.11272602528333664
12.074296951293945,-0.0078202486038208,-1.5669108629226685,1.2285419702529907,0.20122835040092468,0.11234454810619354,-0.11272602528333664
12.094381093978882,-0.009346150793135166,-1.5669108629226685,1.2285419702529907,0.20084688067436218,0.11387044936418533,-0.11310750246047974
12.114472150802612,-0.010109102353453636,-1.5669108629226685,1.2281605005264282,0.20122835040092468,0.10929274559020996,-0.11272602528333664
12.134544849395752,-0.010109102353453636,-1.5669108629226685,1.2266346216201782,0.20160982012748718,0.10128175467252731,-0.11272602528333664
12.154803991317749,-0.010109102353453636,-1.567292332649231,1.2262531518936157,0.20160982012748718,0.08945601433515549,-0.11234454810619354
12.174911260604858,-0.0078202486038208,-1.5676738023757935,1.2251087427139282,0.20160982012748718,0.0875486359000206,-0.11234454810619354
12.19500732421875,-0.005149920005351305,-1.5676738023757935,1.2247272729873657,0.20160982012748718,0.0864042118191719,-0.11234454810619354
12.215090990066528,-0.004005493130534887,-1.5676738023757935,1.2254902124404907,0.20160982012748718,0.086785688996315,-0.11234454810619354
12.235225677490234,-0.004386968910694122,-1.5676738023757935,1.2266346216201782,0.20122835040092468,0.09479667246341705,-0.11234454810619354
12.255360841751099,-0.004386968910694122,-1.567292332649231,1.2266346216201782,0.20084688067436218,0.1031891331076622,-0.11234454810619354
12.275487184524536,-0.006294346414506435,-1.5669108629226685,1.2273975610733032,0.20084688067436218,0.10776684433221817,-0.11234454810619354
12.295543670654297,-0.008201723918318748,-1.5669108629226685,1.2277790307998657,0.20084688067436218,0.11043716967105865,-0.11272602528333664
12.315651178359985,-0.009727626107633114,-1.5669108629226685,1.2277790307998657,0.20084688067436218,0.11425192654132843,-0.11272602528333664
12.33572506904602,-0.010490577667951584,-1.5669108629226685,1.2273975610733032,0.20084688067436218,0.11158160120248795,-0.11272602528333664
12.35582184791565,-0.010872052982449532,-1.567292332649231,1.2273975610733032,0.20122835040092468,0.1039520874619484,-0.11272602528333664
12.375985383987427,-0.010872052982449532,-1.567292332649231,1.2262531518936157,0.20160982012748718,0.09403372555971146,-0.11234454810619354
12.396491050720215,-0.008964675478637218,-1.567292332649231,1.2251087427139282,0.20160982012748718,0.09021896868944168,-0.11234454810619354
12.416629791259766,-0.00667582219466567,-1.5676738023757935,1.2251087427139282,0.20160982012748718,0.086785688996315,-0.11234454810619354
12.436820268630981,-0.005149920005351305,-1.5676738023757935,1.2247272729873657,0.20160982012748718,0.086785688996315,-0.11234454810619354
12.456867694854736,-0.004386968910694122,-1.5676738023757935,1.2254902124404907,0.20122835040092468,0.09212634712457657,-0.11234454810619354
12.476929187774658,-0.004005493130534887,-1.5676738023757935,1.2266346216201782,0.20084688067436218,0.10051880776882172,-0.11272602528333664
12.49699878692627,-0.004386968910694122,-1.5676738023757935,1.2277790307998657,0.2004653960466385,0.10776684433221817,-0.11234454810619354
12.517071723937988,-0.007057297509163618,-1.5676738023757935,1.2285419702529907,0.2004653960466385,0.11120012402534485,-0.11272602528333664
12.537149906158447,-0.010872052982449532,-1.5669108629226685,1.2289234399795532,0.2004653960466385,0.11387044936418533,-0.11272602528333664
12.557271718978882,-0.016594186425209045,-1.564621925354004,1.2285419702529907,0.2004653960466385,0.11425192654132843,-0.11272602528333664
12.57793927192688,-0.023079270496964455,-1.5619516372680664,1.2281605005264282,0.2004653960466385,0.11348897218704224,-0.11234454810619354
12.598067045211792,-0.03223468363285065,-1.5569924116134644,1.2281605005264282,0.2004653960466385,0.11043716967105865,-0.11234454810619354
12.618161916732788,-0.042153049260377884,-1.5524147748947144,1.2285419702529907,0.20084688067436218,0.10509651154279709,-0.11158160120248795
12.638278484344482,-0.05436026677489281,-1.5436408519744873,1.2285419702529907,0.20084688067436218,0.09861142933368683,-0.11043716967105865
12.65830945968628,-0.06618601083755493,-1.5371557474136353,1.2285419702529907,0.20160982012748718,0.09479667246341705,-0.10852979123592377
12.678403615951538,-0.07915617525577545,-1.5272372961044312,1.2281605005264282,0.20160982012748718,0.09060044586658478,-0.10700388997793198
12.698503971099854,-0.09060044586658478,-1.518463373184204,1.2281605005264282,0.20160982012748718,0.0871671661734581,-0.10433356463909149
12.718950033187866,-0.10090028494596481,-1.508926510810852,1.2273975610733032,0.20199130475521088,0.08602273464202881,-0.1024261862039566
12.739109754562378,-0.11120012402534485,-1.4955748319625854,1.2266346216201782,0.20199130475521088,0.08449683338403702,-0.10090028494596481
12.759127140045166,-0.1180666834115982,-1.4875638484954834,1.2262531518936157,0.20199130475521088,0.08411535620689392,-0.10051880776882172
12.779266119003296,-0.12531471252441406,-1.4745937585830688,1.2262531518936157,0.20237277448177338,0.08449683338403702,-0.09899290651082993
12.799354314804077,-0.12951095402240753,-1.4662013053894043,1.2258716821670532,0.20237277448177338,0.08449683338403702,-0.09670405089855194
12.819448947906494,-0.13218127191066742,-1.4551384449005127,1.2251087427139282,0.20275425910949707,0.08487831056118011,-0.09479667246341705
12.839585781097412,-0.1348516047000885,-1.4452201128005981,1.2239643335342407,0.20275425910949707,0.0871671661734581,-0.09327077120542526
12.859641551971436,-0.1356145590543747,-1.435683250427246,1.2232013940811157,0.20275425910949707,0.08869306743144989,-0.09288929402828217
12.879728317260742,-0.1363775134086609,-1.423475980758667,1.2220568656921387,0.20275425910949707,0.08907453715801239,-0.09288929402828217
12.899802923202515,-0.1367589831352234,-1.41470205783844,1.2212939262390137,0.20275425910949707,0.09212634712457657,-0.09174486994743347
12.92007064819336,-0.13790340721607208,-1.4047837257385254,1.2201495170593262,0.20275425910949707,0.09441519528627396,-0.09021896868944168
12.940224170684814,-0.13981078565120697,-1.3937208652496338,1.2186236381530762,0.20275425910949707,0.09670405089855194,-0.08869306743144989
12.960286378860474,-0.14171816408634186,-1.3857098817825317,1.2170977592468262,0.20275425910949707,0.09784847497940063,-0.0871671661734581
12.9804208278656,-0.14400701224803925,-1.3757915496826172,1.2155718803405762,0.20275425910949707,0.09746700525283813,-0.08564125746488571
13.000541687011719,-0.14667734503746033,-1.3662546873092651,1.2132829427719116,0.20237277448177338,0.09708552807569504,-0.08487831056118011
13.020617485046387,-0.1512550562620163,-1.3593881130218506,1.2113755941390991,0.20237277448177338,0.09670405089855194,-0.08297093212604523
13.040728569030762,-0.15545128285884857,-1.348706841468811,1.2098497152328491,0.20275425910949707,0.09555962681770325,-0.08182650804519653
13.060850858688354,-0.15850308537483215,-1.3403143882751465,1.2071794271469116,0.20237277448177338,0.09594109654426575,-0.08030059933662415
13.081565618515015,-0.16155488789081573,-1.3303959369659424,1.204890489578247,0.20237277448177338,0.09861142933368683,-0.07724879682064056
13.101660966873169,-0.1684214472770691,-1.3166629076004028,1.200312852859497,0.20199130475521088,0.1035706102848053,-0.07419699430465698
13.121772050857544,-0.17681391537189484,-1.3029297590255737,1.19611656665802,0.20237277448177338,0.1035706102848053,-0.07267109304666519
13.142005205154419,-0.1844434291124344,-1.2865263223648071,1.190394401550293,0.20199130475521088,0.10204470902681351,-0.07000076025724411
13.161996841430664,-0.18978407979011536,-1.269741415977478,1.183146357536316,0.20199130475521088,0.10471503436565399,-0.06580453366041183
13.182164192199707,-0.19512474536895752,-1.2483787536621094,1.1743724346160889,0.20160982012748718,0.10624094307422638,-0.06237125024199486
13.202286958694458,-0.20504310727119446,-1.2235828638076782,1.1617838144302368,0.20122835040092468,0.10891126841306686,-0.05855649709701538
13.22247052192688,-0.21725031733512878,-1.196879506111145,1.1484321355819702,0.20084688067436218,0.10700388997793198,-0.054741740226745605
13.242482423782349,-0.23250934481620789,-1.1648355722427368,1.1301213502883911,0.200083926320076,0.1039520874619484,-0.05054550990462303
13.262704849243164,-0.24280919134616852,-1.1331731081008911,1.110666036605835,0.1993209719657898,0.10929274559020996,-0.04634927958250046
13.282742738723755,-0.25120165944099426,-1.098840355873108,1.0889219045639038,0.1989395022392273,0.11463340371847153,-0.0394827201962471
13.302832126617432,-0.26684215664863586,-1.0687037706375122,1.0667964220046997,0.1985580176115036,0.1188296303153038,-0.03643091395497322
13.322908163070679,-0.2801937758922577,-1.046196699142456,1.0473411083221436,0.1989395022392273,0.1188296303153038,-0.03299763426184654
13.343515157699585,-0.2954528033733368,-1.0248340368270874,1.0275044441223145,0.1981765478849411,0.1180666834115982,-0.03032730519771576
13.36360788345337,-0.3061341345310211,-1.0065232515335083,1.0088120698928833,0.1977950781583786,0.11539635062217712,-0.028038453310728073
13.3836829662323,-0.3126192092895508,-0.9897382855415344,0.9927901029586792,0.1977950781583786,0.1199740618467331,-0.02384222112596035
13.403766870498657,-0.31681543588638306,-0.9748607873916626,0.9779125452041626,0.19550621509552002,0.12073700875043869,-0.02079041674733162
13.423860311508179,-0.3233005404472351,-0.9657053351402283,0.9668498039245605,0.19398032128810883,0.1192111074924469,-0.020027466118335724
13.443920373916626,-0.3290226459503174,-0.9611276388168335,0.960746169090271,0.19245441257953644,0.1192111074924469,-0.018120087683200836
13.464069604873657,-0.33054855465888977,-0.9557870030403137,0.9565499424934387,0.19245441257953644,0.12149996310472488,-0.01430533267557621
13.484124422073364,-0.33054855465888977,-0.9515907764434814,0.9531166553497314,0.19283588230609894,0.12607766687870026,-0.013923857361078262
13.504223346710205,-0.32940414547920227,-0.9496833682060242,0.951972246170044,0.19245441257953644,0.12798504531383514,-0.013542382046580315
13.524316549301147,-0.3290226459503174,-0.9489204287528992,0.9500648379325867,0.19245441257953644,0.13103684782981873,-0.013160906732082367
13.544387817382812,-0.3274967670440674,-0.9493018984794617,0.9493018984794617,0.19245441257953644,0.13179980218410492,-0.012397955171763897
13.564464569091797,-0.3263523280620575,-0.9496833682060242,0.9477760195732117,0.19169145822525024,0.1333257108926773,-0.01125352829694748
13.584540605545044,-0.3248264193534851,-0.9496833682060242,0.9466315507888794,0.19169145822525024,0.1337071806192398,-0.010109102353453636
13.604734420776367,-0.3244449496269226,-0.9493018984794617,0.9462500810623169,0.19169145822525024,0.134470134973526,-0.009346150793135166
13.624929904937744,-0.3240634799003601,-0.9481574892997742,0.9454871416091919,0.19169145822525024,0.134470134973526,-0.008964675478637218
13.644948482513428,-0.3233005404472351,-0.9477760195732117,0.9451056718826294,0.19207294285297394,0.134470134973526,-0.007057297509163618
13.665026187896729,-0.3225375711917877,-0.9470130205154419,0.9451056718826294,0.19207294285297394,0.1340886503458023,-0.00667582219466567
13.685094594955444,-0.3221561014652252,-0.9462500810623169,0.9439612627029419,0.19207294285297394,0.134470134973526,-0.00667582219466567
13.705235242843628,-0.32024872303009033,-0.9458686113357544,0.9431982636451721,0.19207294285297394,0.1348516047000885,-0.006294346414506435
13.725324153900146,-0.31910428404808044,-0.9454871416091919,0.9420538544654846,0.19169145822525024,0.135233074426651,-0.005531395319849253
13.745406150817871,-0.31834134459495544,-0.9454871416091919,0.9412909150123596,0.19169145822525024,0.1367589831352234,-0.005149920005351305
13.765461683273315,-0.31719690561294556,-0.9447242021560669,0.9409094452857971,0.19207294285297394,0.13828489184379578,-0.004386968910694122
13.785561800003052,-0.31643396615982056,-0.9439612627029419,0.9401465058326721,0.19169145822525024,0.13904783129692078,-0.0032425422687083483
13.80565333366394,-0.31490805745124817,-0.9435797929763794,0.9393835067749023,0.19207294285297394,0.13904783129692078,-0.002861066721379757
13.825726509094238,-0.31376364827156067,-0.9424353241920471,0.9390020370483398,0.19169145822525024,0.13981078565120697,-0.0020981156267225742
13.845802783966064,-0.3126192092895508,-0.9416723847389221,0.9382390975952148,0.19169145822525024,0.13942931592464447,-0.001716639962978661
13.86587405204773,-0.3118562698364258,-0.9412909150123596,0.9374761581420898,0.19169145822525024,0.14019227027893066,0.000572213320992887
13.885957479476929,-0.3110933005809784,-0.9409094452857971,0.9367132186889648,0.19207294285297394,0.14209964871406555,0.001716639962978661
13.906028032302856,-0.3103303611278534,-0.9397650361061096,0.9359502792358398,0.19169145822525024,0.14171816408634186,0.0020981156267225742
13.926149129867554,-0.309567391872406,-0.9397650361061096,0.9351872801780701,0.19169145822525024,0.14248111844062805,0.002861066721379757
13.946185827255249,-0.3084229826927185,-0.9393835067749023,0.9344243407249451,0.19169145822525024,0.14286258816719055,0.004005493130534887
13.96626329421997,-0.3057526648044586,-0.9390020370483398,0.9336614012718201,0.19207294285297394,0.14324407279491425,0.00476844422519207
13.986327409744263,-0.30498969554901123,-0.9386205673217773,0.9328984618186951,0.19169145822525024,0.14362554252147675,0.005531395319849253
14.00641942024231,-0.30422675609588623,-0.9378576278686523,0.9317540526390076,0.19169145822525024,0.14324407279491425,0.005531395319849253
14.02648639678955,-0.30270084738731384,-0.9374761581420898,0.9309910535812378,0.19207294285297394,0.14629587531089783,0.00667582219466567
14.047428846359253,-0.30117493867874146,-0.9370946884155273,0.9302281141281128,0.19207294285297394,0.14820325374603271,0.008964675478637218
14.067523717880249,-0.30003052949905396,-0.9363317489624023,0.9290837049484253,0.19207294285297394,0.14858472347259521,0.009727626107633114
14.08759355545044,-0.29888609051704407,-0.9351872801780701,0.9279392957687378,0.19207294285297394,0.1493476778268814,0.01201647985726595
14.108111381530762,-0.29812315106391907,-0.9348058104515076,0.9267948269844055,0.19207294285297394,0.1497291475534439,0.012397955171763897
14.128211498260498,-0.2962157726287842,-0.9340428709983826,0.925650417804718,0.19207294285297394,0.1493476778268814,0.012779430486261845
14.14838981628418,-0.2950713336467743,-0.9336614012718201,0.924887478351593,0.19169145822525024,0.1516365259885788,0.013542382046580315
14.168467044830322,-0.2931639552116394,-0.9328984618186951,0.924124538898468,0.19207294285297394,0.15354390442371368,0.01506828423589468
14.188548564910889,-0.291638046503067,-0.9317540526390076,0.9225986003875732,0.19207294285297394,0.15354390442371368,0.01583123579621315
14.208594560623169,-0.290112167596817,-0.9313725233078003,0.9218356609344482,0.19207294285297394,0.15316243469715118,0.01735713705420494
14.228675603866577,-0.28820478916168213,-0.9302281141281128,0.9206912517547607,0.19207294285297394,0.15392538905143738,0.01926451548933983
14.24882698059082,-0.28400853276252747,-0.9294651746749878,0.9187838435173035,0.19207294285297394,0.15545128285884857,0.020027466118335724
14.269078731536865,-0.2809567451477051,-0.9283207654953003,0.9172579646110535,0.19207294285297394,0.15850308537483215,0.02079041674733162
