liuyurong129/humanoid-gym/humanoid/data/actual_q_20250521-000835.csv
timestamp,joint_1,joint_2,joint_3,joint_4,joint_5,joint_6
3.0994415283203125e-05,0.00019073777366429567,0.17338064312934875,-0.086785688996315,-0.00019073777366429567,0.00019073777366429567,-0.00019073777366429567
0.020107507705688477,-0.00019073777366429567,0.152399480342865,-0.07877469807863235,-0.00019073777366429567,-0.000572213320992887,-0.00019073777366429567
0.04017758369445801,-0.00019073777366429567,0.12951095402240753,-0.06771191209554672,-0.00019073777366429567,0.0013351644156500697,-0.00019073777366429567
0.0602259635925293,0.00019073777366429567,0.11158160120248795,-0.06046387553215027,-0.00019073777366429567,0.0009536888683214784,-0.00019073777366429567
0.08051466941833496,-0.0036240178160369396,0.10128175467252731,-0.059319447726011276,0.00019073777366429567,0.0009536888683214784,-0.00019073777366429567
0.1006011962890625,-0.016594186425209045,0.09098191559314728,-0.057793546468019485,0.001716639962978661,0.005531395319849253,0.00019073777366429567
0.12067031860351562,-0.028038453310728073,0.08030059933662415,-0.0558861680328846,0.0024795911740511656,0.007438773289322853,0.000572213320992887
0.14073801040649414,-0.03490501269698143,0.0715266615152359,-0.056267641484737396,0.004005493130534887,0.0032425422687083483,0.001716639962978661
0.16080808639526367,-0.042153049260377884,0.06542305648326874,-0.05741206929087639,0.00476844422519207,-0.004386968910694122,0.0032425422687083483
0.1809546947479248,-0.04711223021149635,0.06084534898400307,-0.05741206929087639,0.00667582219466567,-0.00858320016413927,0.00476844422519207
0.20098114013671875,-0.05054550990462303,0.056267641484737396,-0.0558861680328846,0.007438773289322853,-0.009346150793135166,0.005531395319849253
0.22104525566101074,-0.05436026677489281,0.05359731614589691,-0.0555046908557415,0.007438773289322853,-0.00858320016413927,0.005531395319849253
0.24109578132629395,-0.058175019919872284,0.049782559275627136,-0.054741740226745605,0.0078202486038208,-0.005149920005351305,0.005531395319849253
0.26117825508117676,-0.06084534898400307,0.04596780240535736,-0.05436026677489281,0.008201723918318748,-0.000572213320992887,0.005912871100008488
0.28124499320983887,-0.06275273114442825,0.04253452271223068,-0.05436026677489281,0.009346150793135166,0.0009536888683214784,0.007057297509163618
0.3013010025024414,-0.06656748056411743,0.039101243019104004,-0.05436026677489281,0.010109102353453636,0.0013351644156500697,0.0078202486038208
0.3216886520385742,-0.07000076025724411,0.03490501269698143,-0.05436026677489281,0.010872052982449532,0.0009536888683214784,0.008201723918318748
0.34178614616394043,-0.07305257022380829,0.032616160809993744,-0.053215838968753815,0.01125352829694748,-0.00019073777366429567,0.009346150793135166
0.361846923828125,-0.07534141838550568,0.02994582988321781,-0.05283436179161072,0.01201647985726595,-0.0020981156267225742,0.010490577667951584
0.38190555572509766,-0.07801175117492676,0.027656977996230125,-0.05245288833975792,0.013160906732082367,-0.00476844422519207,0.01201647985726595
0.40204572677612305,-0.08068207651376724,0.024605173617601395,-0.05245288833975792,0.014686808921396732,-0.005912871100008488,0.01201647985726595
0.42211341857910156,-0.08182650804519653,0.02193484455347061,-0.05207141116261482,0.01506828423589468,-0.006294346414506435,0.012397955171763897
0.4421730041503906,-0.08449683338403702,0.01926451548933983,-0.051689937710762024,0.01506828423589468,-0.004386968910694122,0.012397955171763897
0.46222376823425293,-0.0871671661734581,0.01735713705420494,-0.05130846053361893,0.015449759550392628,-0.002861066721379757,0.012397955171763897
0.4822978973388672,-0.0883115902543068,0.015449759550392628,-0.05092698708176613,0.016212711110711098,-0.002861066721379757,0.012779430486261845
0.5023937225341797,-0.08983749151229858,0.012779430486261845,-0.050164032727479935,0.016975661739706993,-0.002861066721379757,0.012779430486261845
0.5224833488464355,-0.09250781685113907,0.010109102353453636,-0.049782559275627136,0.018120087683200836,-0.0020981156267225742,0.013160906732082367
0.5426056385040283,-0.09479667246341705,0.007438773289322853,-0.049782559275627136,0.018501564860343933,-0.0013351644156500697,0.013923857361078262
0.5627963542938232,-0.09555962681770325,0.005149920005351305,-0.04940108209848404,0.01888304017484188,-0.0013351644156500697,0.01506828423589468
0.5828738212585449,-0.09746700525283813,0.002861066721379757,-0.04940108209848404,0.01926451548933983,-0.0020981156267225742,0.015449759550392628
0.6030170917510986,-0.09975585341453552,0.0013351644156500697,-0.04901960864663124,0.019645990803837776,-0.0020981156267225742,0.01583123579621315
0.6230130195617676,-0.10166323184967041,0.00019073777366429567,-0.048638131469488144,0.02040894143283367,-0.0032425422687083483,0.01583123579621315
0.6432485580444336,-0.1031891331076622,-0.002861066721379757,-0.04787518084049225,0.02193484455347061,-0.0032425422687083483,0.016212711110711098
0.6633274555206299,-0.10471503436565399,-0.005149920005351305,-0.04749370738863945,0.02231631986796856,-0.0032425422687083483,0.016594186425209045
0.683396577835083,-0.10662241280078888,-0.007057297509163618,-0.04749370738863945,0.022697795182466507,-0.0032425422687083483,0.016975661739706993
0.7035026550292969,-0.10776684433221817,-0.009346150793135166,-0.04711223021149635,0.023079270496964455,-0.002861066721379757,0.01773861236870289
0.7237234115600586,-0.10967422276735306,-0.01201647985726595,-0.04711223021149635,0.023460745811462402,-0.002861066721379757,0.018120087683200836
0.743812084197998,-0.11043716967105865,-0.013160906732082367,-0.04634927958250046,0.02384222112596035,-0.0032425422687083483,0.01888304017484188
0.7639880180358887,-0.11158160120248795,-0.01430533267557621,-0.04596780240535736,0.024605173617601395,-0.002861066721379757,0.01926451548933983
0.7839829921722412,-0.11348897218704224,-0.016212711110711098,-0.04558632895350456,0.02536812424659729,-0.002861066721379757,0.019645990803837776
0.8041403293609619,-0.11501488089561462,-0.018120087683200836,-0.045204851776361465,0.025749599561095238,-0.0024795911740511656,0.019645990803837776
0.8242197036743164,-0.11692225188016891,-0.020027466118335724,-0.045204851776361465,0.025749599561095238,-0.0024795911740511656,0.020027466118335724
0.8442971706390381,-0.11692225188016891,-0.021553369238972664,-0.04482337832450867,0.026131074875593185,-0.0032425422687083483,0.020027466118335724
0.8643407821655273,-0.1180666834115982,-0.023460745811462402,-0.04444190114736557,0.026512550190091133,-0.0032425422687083483,0.020027466118335724
0.8844258785247803,-0.1203555315732956,-0.02536812424659729,-0.04406042397022247,0.02689402550458908,-0.0032425422687083483,0.02040894143283367
0.9044938087463379,-0.12111848592758179,-0.026512550190091133,-0.043678950518369675,0.02689402550458908,-0.0024795911740511656,0.02040894143283367
0.9245700836181641,-0.12226291000843048,-0.028038453310728073,-0.04329747334122658,0.02727550081908703,-0.0024795911740511656,0.02079041674733162
0.944671630859375,-0.12302586436271667,-0.02880140393972397,-0.04329747334122658,0.027656977996230125,-0.0024795911740511656,0.021171892061829567
0.9647302627563477,-0.12417028844356537,-0.030708782374858856,-0.04291599988937378,0.02880140393972397,-0.002861066721379757,0.021553369238972664
0.9849472045898438,-0.12531471252441406,-0.032616160809993744,-0.04291599988937378,0.029564354568719864,-0.0032425422687083483,0.02231631986796856
1.005115270614624,-0.12684062123298645,-0.03376058489084244,-0.04291599988937378,0.02994582988321781,-0.002861066721379757,0.022697795182466507
1.0251235961914062,-0.12836651504039764,-0.03528648987412453,-0.042153049260377884,0.03032730519771576,-0.0024795911740511656,0.023079270496964455
1.0451734066009521,-0.12951095402240753,-0.03643091395497322,-0.04139009863138199,0.030708782374858856,-0.0024795911740511656,0.023079270496964455
1.0652730464935303,-0.13065537810325623,-0.03833829239010811,-0.04100862145423889,0.031090257689356804,-0.0020981156267225742,0.023460745811462402
1.085329532623291,-0.13179980218410492,-0.040245670825242996,-0.04100862145423889,0.03185320645570755,-0.0032425422687083483,0.02384222112596035
1.105414867401123,-0.13218127191066742,-0.04139009863138199,-0.04100862145423889,0.03299763426184654,-0.0032425422687083483,0.02384222112596035
1.1255011558532715,-0.1337071806192398,-0.04291599988937378,-0.04100862145423889,0.03337911143898964,-0.002861066721379757,0.024223696440458298
1.145570993423462,-0.1356145590543747,-0.04444190114736557,-0.040245670825242996,0.03376058489084244,-0.0020981156267225742,0.024986648932099342
1.1656723022460938,-0.1363775134086609,-0.04558632895350456,-0.0394827201962471,0.03376058489084244,-0.0020981156267225742,0.025749599561095238
1.1857397556304932,-0.1367589831352234,-0.046730753034353256,-0.039101243019104004,0.034142062067985535,-0.0024795911740511656,0.02727550081908703
1.2057974338531494,-0.13752193748950958,-0.04749370738863945,-0.039101243019104004,0.034142062067985535,-0.0024795911740511656,0.02727550081908703
1.2259337902069092,-0.13866636157035828,-0.04901960864663124,-0.039101243019104004,0.034142062067985535,-0.0024795911740511656,0.027656977996230125
1.2460460662841797,-0.13904783129692078,-0.05054550990462303,-0.038719769567251205,0.03452353551983833,-0.0024795911740511656,0.027656977996230125
1.266101360321045,-0.14019227027893066,-0.051689937710762024,-0.038719769567251205,0.03490501269698143,-0.0020981156267225742,0.027656977996230125
1.2861568927764893,-0.14171816408634186,-0.05359731614589691,-0.038719769567251205,0.03604944050312042,-0.0013351644156500697,0.027656977996230125
1.3062431812286377,-0.14286258816719055,-0.0551232174038887,-0.03795681521296501,0.03681239113211632,-0.001716639962978661,0.028038453310728073
1.32631254196167,-0.14400701224803925,-0.0558861680328846,-0.037193864583969116,0.037193864583969116,-0.001716639962978661,0.02841992862522602
1.346465826034546,-0.14438849687576294,-0.05703059583902359,-0.03681239113211632,0.03757534176111221,-0.0020981156267225742,0.02880140393972397
1.3664989471435547,-0.14591439068317413,-0.05855649709701538,-0.03681239113211632,0.03795681521296501,-0.0020981156267225742,0.02994582988321781
1.3866140842437744,-0.14591439068317413,-0.05970092490315437,-0.03681239113211632,0.03833829239010811,-0.0020981156267225742,0.02994582988321781
1.4066917896270752,-0.14667734503746033,-0.06084534898400307,-0.03681239113211632,0.038719769567251205,-0.0020981156267225742,0.03032730519771576
1.4267616271972656,-0.14820325374603271,-0.06237125024199486,-0.03643091395497322,0.0394827201962471,-0.001716639962978661,0.03032730519771576
1.446814775466919,-0.1489662081003189,-0.06389715522527695,-0.035667963325977325,0.040627144277095795,-0.0013351644156500697,0.03032730519771576
1.4668984413146973,-0.1497291475534439,-0.06466010212898254,-0.03528648987412453,0.04100862145423889,-0.001716639962978661,0.030708782374858856
1.4869632720947266,-0.1508735716342926,-0.06580453366041183,-0.03490501269698143,0.04100862145423889,-0.001716639962978661,0.030708782374858856
1.507051944732666,-0.1516365259885788,-0.06694895774126053,-0.03452353551983833,0.04139009863138199,-0.001716639962978661,0.030708782374858856
1.5271024703979492,-0.1527809500694275,-0.06771191209554672,-0.03452353551983833,0.04177157208323479,-0.001716639962978661,0.031090257689356804
1.547431230545044,-0.15354390442371368,-0.06923781335353851,-0.034142062067985535,0.04177157208323479,-0.0020981156267225742,0.031090257689356804
1.5675137042999268,-0.15392538905143738,-0.0707637146115303,-0.03376058489084244,0.042153049260377884,-0.0020981156267225742,0.03147173300385475
1.587552547454834,-0.15506981313228607,-0.071908138692379,-0.03337911143898964,0.04291599988937378,-0.0020981156267225742,0.03147173300385475
1.6075878143310547,-0.15583276748657227,-0.07267109304666519,-0.03299763426184654,0.04406042397022247,-0.001716639962978661,0.03185320645570755
1.6277101039886475,-0.15659570693969727,-0.07381551712751389,-0.03299763426184654,0.04444190114736557,-0.001716639962978661,0.03223468363285065
1.6477956771850586,-0.15774014592170715,-0.07534141838550568,-0.032616160809993744,0.04482337832450867,-0.0013351644156500697,0.032616160809993744
1.6678779125213623,-0.15850308537483215,-0.07648584991693497,-0.032616160809993744,0.04482337832450867,-0.001716639962978661,0.03337911143898964
1.6879222393035889,-0.15964750945568085,-0.07763027399778366,-0.03223468363285065,0.045204851776361465,-0.0020981156267225742,0.034142062067985535
1.7079782485961914,-0.16041046380996704,-0.07915617525577545,-0.03185320645570755,0.045204851776361465,-0.001716639962978661,0.03452353551983833
1.7281222343444824,-0.16079194843769073,-0.08030059933662415,-0.03147173300385475,0.04558632895350456,-0.0020981156267225742,0.03452353551983833
1.7481741905212402,-0.16079194843769073,-0.08068207651376724,-0.031090257689356804,0.04634927958250046,-0.0020981156267225742,0.03490501269698143
1.7682044506072998,-0.16193637251853943,-0.08182650804519653,-0.030708782374858856,0.046730753034353256,-0.001716639962978661,0.03490501269698143
1.7882647514343262,-0.16269932687282562,-0.08335240930318832,-0.030708782374858856,0.04749370738863945,-0.0009536888683214784,0.03528648987412453
1.808344841003418,-0.16384375095367432,-0.08449683338403702,-0.03032730519771576,0.048256658017635345,-0.0013351644156500697,0.03528648987412453
1.8284087181091309,-0.164988175034523,-0.08525978773832321,-0.029564354568719864,0.048256658017635345,-0.0013351644156500697,0.035667963325977325
1.8484930992126465,-0.1665140837430954,-0.0864042118191719,-0.029182879254221916,0.048638131469488144,-0.0013351644156500697,0.03643091395497322
1.8685410022735596,-0.1668955534696579,-0.0875486359000206,-0.02880140393972397,0.04901960864663124,-0.001716639962978661,0.03757534176111221
1.8886098861694336,-0.1676585078239441,-0.0883115902543068,-0.02880140393972397,0.04940108209848404,-0.0024795911740511656,0.03795681521296501
1.9087769985198975,-0.1680399775505066,-0.08945601433515549,-0.02841992862522602,0.04940108209848404,-0.002861066721379757,0.03795681521296501
1.9287793636322021,-0.1680399775505066,-0.09098191559314728,-0.02841992862522602,0.049782559275627136,-0.0024795911740511656,0.03795681521296501
1.94883131980896,-0.16880293190479279,-0.09288929402828217,-0.027656977996230125,0.050164032727479935,-0.0020981156267225742,0.03795681521296501
1.9689557552337646,-0.16994735598564148,-0.09403372555971146,-0.02727550081908703,0.05092698708176613,-0.0013351644156500697,0.03795681521296501
1.9889936447143555,-0.17032882571220398,-0.09479667246341705,-0.02689402550458908,0.051689937710762024,-0.000572213320992887,0.03833829239010811
2.0090575218200684,-0.17147326469421387,-0.09594109654426575,-0.026512550190091133,0.05207141116261482,-0.000572213320992887,0.03833829239010811
2.0291383266448975,-0.17261768877506256,-0.09670405089855194,-0.026512550190091133,0.05207141116261482,-0.000572213320992887,0.03833829239010811
2.0492255687713623,-0.17338064312934875,-0.09822995215654373,-0.026131074875593185,0.05245288833975792,-0.0013351644156500697,0.038719769567251205
2.0693159103393555,-0.17414358258247375,-0.09899290651082993,-0.026131074875593185,0.05245288833975792,-0.001716639962978661,0.038719769567251205
2.0893709659576416,-0.17490653693675995,-0.10013733059167862,-0.025749599561095238,0.05283436179161072,-0.0013351644156500697,0.039101243019104004
2.1094861030578613,-0.17490653693675995,-0.10128175467252731,-0.02536812424659729,0.053215838968753815,-0.0009536888683214784,0.039101243019104004
2.129586696624756,-0.17528800666332245,-0.10204470902681351,-0.024605173617601395,0.053215838968753815,-0.0009536888683214784,0.0394827201962471
2.149639844894409,-0.17605096101760864,-0.1024261862039566,-0.024223696440458298,0.05359731614589691,-0.000572213320992887,0.0394827201962471
2.1696903705596924,-0.17719538509845734,-0.1031891331076622,-0.024223696440458298,0.05397878959774971,-0.000572213320992887,0.0398641936480999
2.1898152828216553,-0.17795833945274353,-0.10433356463909149,-0.024223696440458298,0.054741740226745605,-0.000572213320992887,0.040245670825242996
2.209911346435547,-0.17872129380702972,-0.10547798871994019,-0.024223696440458298,0.0555046908557415,-0.000572213320992887,0.040627144277095795
2.229973793029785,-0.17948424816131592,-0.10662241280078888,-0.02384222112596035,0.0558861680328846,-0.0009536888683214784,0.04139009863138199
2.2500412464141846,-0.1802472025156021,-0.10738536715507507,-0.023079270496964455,0.0558861680328846,-0.0009536888683214784,0.04177157208323479
2.270083427429199,-0.1802472025156021,-0.10852979123592377,-0.022697795182466507,0.056267641484737396,-0.0009536888683214784,0.04177157208323479
2.290191650390625,-0.1810101419687271,-0.10967422276735306,-0.02231631986796856,0.05664911866188049,-0.00019073777366429567,0.042153049260377884
2.3102400302886963,-0.182154580950737,-0.11081864684820175,-0.02231631986796856,0.05664911866188049,-0.00019073777366429567,0.042153049260377884
2.3302953243255615,-0.182154580950737,-0.11196307092905045,-0.02231631986796856,0.05703059583902359,-0.00019073777366429567,0.042153049260377884
2.350398302078247,-0.1825360506772995,-0.11310750246047974,-0.02193484455347061,0.05703059583902359,-0.000572213320992887,0.04253452271223068
2.3704864978790283,-0.1832990050315857,-0.11387044936418533,-0.021171892061829567,0.057793546468019485,-0.000572213320992887,0.04253452271223068
2.390550374984741,-0.1844434291124344,-0.11501488089561462,-0.021171892061829567,0.05893797054886818,-0.00019073777366429567,0.04291599988937378
2.4106285572052,-0.1848248988389969,-0.11539635062217712,-0.02079041674733162,0.059319447726011276,-0.000572213320992887,0.04291599988937378
2.430769443511963,-0.18558785319328308,-0.11692225188016891,-0.02040894143283367,0.05970092490315437,-0.000572213320992887,0.043678950518369675
2.4508490562438965,-0.18673227727413177,-0.1180666834115982,-0.02040894143283367,0.05970092490315437,-0.00019073777366429567,0.04444190114736557
2.470918655395508,-0.18711376190185547,-0.1184481605887413,-0.020027466118335724,0.05970092490315437,-0.000572213320992887,0.04482337832450867
2.490971088409424,-0.18749523162841797,-0.1199740618467331,-0.020027466118335724,0.06008239835500717,-0.000572213320992887,0.04558632895350456
2.511075496673584,-0.18825818598270416,-0.12073700875043869,-0.01926451548933983,0.06008239835500717,-0.000572213320992887,0.04558632895350456
2.5311574935913086,-0.18902114033699036,-0.12111848592758179,-0.01888304017484188,0.06046387553215027,-0.000572213320992887,0.04558632895350456
2.5512263774871826,-0.18940261006355286,-0.12111848592758179,-0.01888304017484188,0.06084534898400307,-0.00019073777366429567,0.04558632895350456
2.571281909942627,-0.18940261006355286,-0.12226291000843048,-0.018501564860343933,0.061226826161146164,-0.000572213320992887,0.04558632895350456
2.5913352966308594,-0.18978407979011536,-0.12340734153985977,-0.018120087683200836,0.06160829961299896,-0.000572213320992887,0.04596780240535736
2.6114392280578613,-0.19054703414440155,-0.12417028844356537,-0.018120087683200836,0.06198977679014206,-0.000572213320992887,0.04596780240535736
2.6314926147460938,-0.19130998849868774,-0.12531471252441406,-0.018120087683200836,0.06275273114442825,-0.00019073777366429567,0.04596780240535736
2.651616334915161,-0.19169145822525024,-0.12684062123298645,-0.01773861236870289,0.06313420087099075,0.00019073777366429567,0.04596780240535736
2.6716392040252686,-0.19207294285297394,-0.12760357558727264,-0.016975661739706993,0.06351567804813385,-0.000572213320992887,0.04634927958250046
2.6917214393615723,-0.19321736693382263,-0.12798504531383514,-0.016975661739706993,0.06351567804813385,-0.000572213320992887,0.04634927958250046
2.7117908000946045,-0.19398032128810883,-0.12874799966812134,-0.016594186425209045,0.06389715522527695,-0.00019073777366429567,0.04634927958250046
2.7318599224090576,-0.19474326074123383,-0.12951095402240753,-0.016594186425209045,0.06389715522527695,-0.000572213320992887,0.046730753034353256
2.7520313262939453,-0.19512474536895752,-0.13103684782981873,-0.016212711110711098,0.06389715522527695,-0.000572213320992887,0.046730753034353256
2.772083044052124,-0.1958876997232437,-0.13218127191066742,-0.01583123579621315,0.06427863240242004,-0.00019073777366429567,0.04711223021149635
2.792213201522827,-0.1966506391763687,-0.1329442262649536,-0.015449759550392628,0.06466010212898254,-0.00019073777366429567,0.04711223021149635
2.812258005142212,-0.1966506391763687,-0.1333257108926773,-0.01506828423589468,0.06504157930612564,-0.0009536888683214784,0.04749370738863945
2.832326650619507,-0.1966506391763687,-0.134470134973526,-0.014686808921396732,0.06618601083755493,-0.000572213320992887,0.04749370738863945
2.8523662090301514,-0.1970321238040924,-0.135233074426651,-0.013923857361078262,0.06694895774126053,-0.000572213320992887,0.048638131469488144
2.872452735900879,-0.1977950781583786,-0.135233074426651,-0.013923857361078262,0.06733043491840363,-0.00019073777366429567,0.04901960864663124
2.892519235610962,-0.1985580176115036,-0.1363775134086609,-0.013542382046580315,0.06733043491840363,0.00019073777366429567,0.04901960864663124
2.912581205368042,-0.1989395022392273,-0.1371404528617859,-0.013542382046580315,0.06733043491840363,-0.00019073777366429567,0.04901960864663124
2.9326303005218506,-0.1989395022392273,-0.13752193748950958,-0.012779430486261845,0.06771191209554672,-0.000572213320992887,0.04940108209848404
2.952725410461426,-0.200083926320076,-0.13866636157035828,-0.012397955171763897,0.06809338182210922,-0.000572213320992887,0.04940108209848404
2.972878932952881,-0.20122835040092468,-0.13981078565120697,-0.011635004542768002,0.06847485899925232,0.00019073777366429567,0.04940108209848404
2.99299693107605,-0.20160982012748718,-0.14019227027893066,-0.011635004542768002,0.06847485899925232,0.00019073777366429567,0.049782559275627136
3.0130016803741455,-0.20160982012748718,-0.14057374000549316,-0.011635004542768002,0.06885633617639542,-0.00019073777366429567,0.049782559275627136
3.0330915451049805,-0.20199130475521088,-0.14171816408634186,-0.011635004542768002,0.06961929053068161,-0.000572213320992887,0.049782559275627136
3.0531959533691406,-0.20313572883605957,-0.14248111844062805,-0.011635004542768002,0.07038223743438721,0.00019073777366429567,0.050164032727479935
3.0732429027557373,-0.20389868319034576,-0.14362554252147675,-0.010872052982449532,0.0707637146115303,0.00019073777366429567,0.050164032727479935
3.093282461166382,-0.20389868319034576,-0.14438849687576294,-0.010490577667951584,0.0707637146115303,0.00019073777366429567,0.050164032727479935
3.113396644592285,-0.20389868319034576,-0.14553292095661163,-0.010109102353453636,0.0711451917886734,-0.00019073777366429567,0.05054550990462303
3.1335372924804688,-0.20466163754463196,-0.14667734503746033,-0.009727626107633114,0.0711451917886734,-0.000572213320992887,0.05130846053361893
3.1535680294036865,-0.20504310727119446,-0.14705882966518402,-0.009727626107633114,0.0715266615152359,-0.00019073777366429567,0.051689937710762024
3.173664093017578,-0.20580606162548065,-0.14782176911830902,-0.009727626107633114,0.0715266615152359,-0.00019073777366429567,0.05245288833975792
3.193699359893799,-0.20580606162548065,-0.1489662081003189,-0.009727626107633114,0.071908138692379,0.00019073777366429567,0.05283436179161072
3.2138352394104004,-0.20618753135204315,-0.1497291475534439,-0.008964675478637218,0.071908138692379,0.00019073777366429567,0.053215838968753815
3.2338669300079346,-0.20695048570632935,-0.1501106321811676,-0.008201723918318748,0.0722896158695221,-0.00019073777366429567,0.053215838968753815
3.2541046142578125,-0.20771344006061554,-0.1508735716342926,-0.008201723918318748,0.07305257022380829,-0.00019073777366429567,0.05359731614589691
3.2740478515625,-0.20809490978717804,-0.1512550562620163,-0.0078202486038208,0.07381551712751389,0.00019073777366429567,0.05359731614589691
3.294661521911621,-0.20885786414146423,-0.1520180106163025,-0.0078202486038208,0.07457847148180008,-0.00019073777366429567,0.05359731614589691
3.314786195755005,-0.20962081849575043,-0.15316243469715118,-0.007438773289322853,0.07457847148180008,-0.00019073777366429567,0.05359731614589691
3.3348567485809326,-0.20962081849575043,-0.15392538905143738,-0.007438773289322853,0.07457847148180008,0.00019073777366429567,0.05359731614589691
3.3549745082855225,-0.21038375794887543,-0.15468832850456238,-0.007057297509163618,0.07495994865894318,-0.00019073777366429567,0.05397878959774971
3.3751349449157715,-0.21114671230316162,-0.15545128285884857,-0.00667582219466567,0.07495994865894318,0.00019073777366429567,0.05397878959774971
3.395258903503418,-0.21114671230316162,-0.15621423721313477,-0.006294346414506435,0.07534141838550568,-0.00019073777366429567,0.05397878959774971
3.415297031402588,-0.21152819693088531,-0.15697719156742096,-0.005912871100008488,0.07572289556264877,-0.00019073777366429567,0.05436026677489281
3.4353654384613037,-0.21152819693088531,-0.15735866129398346,-0.005912871100008488,0.07610437273979187,-0.00019073777366429567,0.05436026677489281
3.455416679382324,-0.21190966665744781,-0.15812161564826965,-0.005531395319849253,0.07610437273979187,0.00019073777366429567,0.054741740226745605
3.475497245788574,-0.2130540907382965,-0.15926603972911835,-0.005531395319849253,0.07686731964349747,0.000572213320992887,0.0551232174038887
3.4955620765686035,-0.2134355753660202,-0.16041046380996704,-0.00476844422519207,0.07763027399778366,0.000572213320992887,0.0555046908557415
3.5156328678131104,-0.2134355753660202,-0.16117341816425323,-0.004386968910694122,0.07801175117492676,0.00019073777366429567,0.0558861680328846
3.5357093811035156,-0.2141985148191452,-0.16117341816425323,-0.004386968910694122,0.07839322835206985,-0.00019073777366429567,0.056267641484737396
3.555899143218994,-0.2153429538011551,-0.16231784224510193,-0.004386968910694122,0.07839322835206985,0.00019073777366429567,0.05664911866188049
3.576035976409912,-0.2161058932542801,-0.16308079659938812,-0.004005493130534887,0.07839322835206985,0.000572213320992887,0.05664911866188049
3.5961523056030273,-0.21648737788200378,-0.16384375095367432,-0.0036240178160369396,0.07877469807863235,0.00019073777366429567,0.05664911866188049
3.616178035736084,-0.21648737788200378,-0.1646067053079605,-0.0036240178160369396,0.07877469807863235,0.00019073777366429567,0.05664911866188049
3.636253595352173,-0.21648737788200378,-0.1653696447610855,-0.0032425422687083483,0.07877469807863235,0.00019073777366429567,0.05664911866188049
3.65633487701416,-0.21763180196285248,-0.1665140837430954,-0.002861066721379757,0.07915617525577545,0.00019073777366429567,0.05703059583902359
3.6764144897460938,-0.21801327168941498,-0.1676585078239441,-0.0024795911740511656,0.07915617525577545,0.00019073777366429567,0.05703059583902359
3.696474075317383,-0.21839475631713867,-0.1676585078239441,-0.0020981156267225742,0.07953765243291855,0.000572213320992887,0.05703059583902359
3.716603994369507,-0.21839475631713867,-0.1684214472770691,-0.0020981156267225742,0.07991912961006165,0.00019073777366429567,0.05703059583902359
3.736690044403076,-0.21877622604370117,-0.16956588625907898,-0.001716639962978661,0.08030059933662415,0.00019073777366429567,0.05741206929087639
3.7568018436431885,-0.21877622604370117,-0.17032882571220398,-0.0013351644156500697,0.08106355369091034,0.00019073777366429567,0.05741206929087639
3.7768516540527344,-0.21877622604370117,-0.17147326469421387,-0.0013351644156500697,0.08182650804519653,0.000572213320992887,0.05741206929087639
3.7969143390655518,-0.21953918039798737,-0.17185473442077637,-0.0009536888683214784,0.08220797777175903,0.0009536888683214784,0.05741206929087639
3.8170080184936523,-0.22068360447883606,-0.17299915850162506,-0.00019073777366429567,0.08220797777175903,0.0009536888683214784,0.057793546468019485
3.837069272994995,-0.22106507420539856,-0.17376211285591125,0.00019073777366429567,0.08258945494890213,0.000572213320992887,0.057793546468019485
3.8571295738220215,-0.22144655883312225,-0.17376211285591125,0.000572213320992887,0.08297093212604523,0.000572213320992887,0.058175019919872284
3.8771860599517822,-0.22220951318740845,-0.17490653693675995,0.000572213320992887,0.08297093212604523,0.00019073777366429567,0.058175019919872284
3.8972742557525635,-0.22297245264053345,-0.17605096101760864,0.0009536888683214784,0.08335240930318832,0.0009536888683214784,0.05855649709701538
3.917358160018921,-0.22297245264053345,-0.17681391537189484,0.0009536888683214784,0.08373387902975082,0.000572213320992887,0.05855649709701538
3.9374594688415527,-0.22297245264053345,-0.17795833945274353,0.0013351644156500697,0.08411535620689392,0.000572213320992887,0.05893797054886818
3.957501173019409,-0.22373540699481964,-0.17910276353359222,0.0020981156267225742,0.08487831056118011,0.0009536888683214784,0.05970092490315437
3.9775986671447754,-0.22411687672138214,-0.17948424816131592,0.002861066721379757,0.08564125746488571,0.000572213320992887,0.06046387553215027
3.997659921646118,-0.22487983107566833,-0.1802472025156021,0.002861066721379757,0.08564125746488571,0.000572213320992887,0.06084534898400307
4.017735719680786,-0.22564278542995453,-0.1810101419687271,0.002861066721379757,0.08564125746488571,0.000572213320992887,0.06084534898400307
4.037794351577759,-0.22602425515651703,-0.182154580950737,0.0036240178160369396,0.08602273464202881,0.000572213320992887,0.061226826161146164
4.057893991470337,-0.22602425515651703,-0.182917520403862,0.004005493130534887,0.08602273464202881,0.000572213320992887,0.061226826161146164
4.077946424484253,-0.22640573978424072,-0.1840619444847107,0.004386968910694122,0.0864042118191719,0.000572213320992887,0.061226826161146164
4.098007440567017,-0.22678720951080322,-0.1840619444847107,0.00476844422519207,0.0864042118191719,0.0009536888683214784,0.061226826161146164
4.118072032928467,-0.22755016386508942,-0.18520638346672058,0.00476844422519207,0.086785688996315,0.0009536888683214784,0.06160829961299896
4.138184309005737,-0.2283131182193756,-0.18596932291984558,0.00476844422519207,0.086785688996315,0.0013351644156500697,0.06160829961299896
4.158253908157349,-0.2283131182193756,-0.18635080754756927,0.005149920005351305,0.0871671661734581,0.0009536888683214784,0.06198977679014206
4.17831015586853,-0.2290760725736618,-0.18635080754756927,0.005149920005351305,0.0875486359000206,0.0009536888683214784,0.06237125024199486
4.1983582973480225,-0.2294575423002243,-0.18787670135498047,0.005531395319849253,0.0879301130771637,0.0009536888683214784,0.06351567804813385
4.218453884124756,-0.2302204966545105,-0.18863965570926666,0.006294346414506435,0.08869306743144989,0.001716639962978661,0.06389715522527695
4.238534212112427,-0.2302204966545105,-0.19016556441783905,0.00667582219466567,0.08907453715801239,0.0013351644156500697,0.06389715522527695
4.258578538894653,-0.2309834510087967,-0.19054703414440155,0.00667582219466567,0.08945601433515549,0.0013351644156500697,0.06389715522527695
4.278669595718384,-0.2313649207353592,-0.19092851877212524,0.007057297509163618,0.08983749151229858,0.0013351644156500697,0.06427863240242004
4.298703908920288,-0.2313649207353592,-0.19169145822525024,0.007057297509163618,0.09021896868944168,0.0009536888683214784,0.06427863240242004
4.318789720535278,-0.23250934481620789,-0.19283588230609894,0.007438773289322853,0.09021896868944168,0.0013351644156500697,0.06427863240242004
4.3388543128967285,-0.23289081454277039,-0.19398032128810883,0.008201723918318748,0.09060044586658478,0.0020981156267225742,0.06427863240242004
4.358919382095337,-0.23289081454277039,-0.19359883666038513,0.008201723918318748,0.09098191559314728,0.001716639962978661,0.06427863240242004
4.379031658172607,-0.23327229917049408,-0.19436179101467133,0.008201723918318748,0.09136339277029037,0.0013351644156500697,0.06427863240242004
4.399104118347168,-0.23327229917049408,-0.19512474536895752,0.008201723918318748,0.09212634712457657,0.0013351644156500697,0.06466010212898254
4.41914701461792,-0.23327229917049408,-0.1958876997232437,0.008964675478637218,0.09288929402828217,0.001716639962978661,0.06466010212898254
4.43920636177063,-0.23365376889705658,-0.1970321238040924,0.009346150793135166,0.09288929402828217,0.0020981156267225742,0.06466010212898254
4.459332704544067,-0.23441672325134277,-0.1977950781583786,0.009346150793135166,0.09327077120542526,0.0024795911740511656,0.06466010212898254
4.479414939880371,-0.23517967760562897,-0.1985580176115036,0.010109102353453636,0.09327077120542526,0.0024795911740511656,0.06466010212898254
4.499516725540161,-0.23517967760562897,-0.1989395022392273,0.010109102353453636,0.09365224838256836,0.0020981156267225742,0.06504157930612564
4.5195817947387695,-0.23556114733219147,-0.1997024416923523,0.010490577667951584,0.09365224838256836,0.0020981156267225742,0.06504157930612564
4.539637565612793,-0.23594263195991516,-0.200083926320076,0.010490577667951584,0.09403372555971146,0.001716639962978661,0.06504157930612564
4.559723854064941,-0.23670557141304016,-0.20084688067436218,0.010490577667951584,0.09403372555971146,0.0024795911740511656,0.06504157930612564
4.579826831817627,-0.23708705604076385,-0.20237277448177338,0.010872052982449532,0.09441519528627396,0.002861066721379757,0.06504157930612564
4.599877834320068,-0.23746852576732635,-0.20313572883605957,0.01125352829694748,0.09441519528627396,0.0032425422687083483,0.06542305648326874
4.620030164718628,-0.23785001039505005,-0.20351719856262207,0.01125352829694748,0.09479667246341705,0.002861066721379757,0.06542305648326874
4.640115976333618,-0.23861294984817505,-0.20428015291690826,0.01201647985726595,0.09517814964056015,0.0024795911740511656,0.06580453366041183
4.6602253913879395,-0.23899443447589874,-0.20504310727119446,0.012397955171763897,0.09555962681770325,0.0024795911740511656,0.06580453366041183
4.680441617965698,-0.23937590420246124,-0.20542457699775696,0.012397955171763897,0.09670405089855194,0.002861066721379757,0.06580453366041183
4.7005934715271,-0.23937590420246124,-0.20618753135204315,0.012779430486261845,0.09708552807569504,0.002861066721379757,0.06618601083755493
4.7206807136535645,-0.23975738883018494,-0.20656901597976685,0.012779430486261845,0.09708552807569504,0.002861066721379757,0.06618601083755493
4.740739345550537,-0.24052032828330994,-0.20809490978717804,0.013160906732082367,0.09746700525283813,0.0032425422687083483,0.06656748056411743
4.760806560516357,-0.24052032828330994,-0.20847637951374054,0.013542382046580315,0.09746700525283813,0.0032425422687083483,0.06733043491840363
4.78087854385376,-0.24052032828330994,-0.20847637951374054,0.01430533267557621,0.09746700525283813,0.002861066721379757,0.06771191209554672
4.800975561141968,-0.24090181291103363,-0.20962081849575043,0.014686808921396732,0.09784847497940063,0.002861066721379757,0.06771191209554672
4.821047782897949,-0.24128328263759613,-0.21038375794887543,0.01506828423589468,0.09784847497940063,0.0032425422687083483,0.06809338182210922
4.841120004653931,-0.24166475236415863,-0.21038375794887543,0.01506828423589468,0.09822995215654373,0.0032425422687083483,0.06809338182210922
4.861215591430664,-0.24242770671844482,-0.21114671230316162,0.015449759550392628,0.09861142933368683,0.0032425422687083483,0.06809338182210922
4.881328105926514,-0.24280919134616852,-0.21190966665744781,0.015449759550392628,0.09899290651082993,0.0032425422687083483,0.06847485899925232
4.901390790939331,-0.24280919134616852,-0.212672621011734,0.015449759550392628,0.10013733059167862,0.0032425422687083483,0.06847485899925232
4.921475410461426,-0.24357213079929352,-0.2145799994468689,0.016212711110711098,0.10051880776882172,0.0032425422687083483,0.06847485899925232
4.941508054733276,-0.2439536154270172,-0.2145799994468689,0.016212711110711098,0.10090028494596481,0.0032425422687083483,0.06885633617639542
4.961589336395264,-0.2447165697813034,-0.2153429538011551,0.016975661739706993,0.10090028494596481,0.0032425422687083483,0.06885633617639542
4.981674671173096,-0.2450980395078659,-0.2157244235277176,0.016975661739706993,0.10090028494596481,0.0036240178160369396,0.06885633617639542
5.001992225646973,-0.2454795092344284,-0.2161058932542801,0.01735713705420494,0.10128175467252731,0.0036240178160369396,0.06923781335353851
5.022020101547241,-0.2454795092344284,-0.21648737788200378,0.01735713705420494,0.10128175467252731,0.0032425422687083483,0.06961929053068161
5.042382478713989,-0.2458609938621521,-0.21763180196285248,0.01773861236870289,0.10166323184967041,0.0032425422687083483,0.07000076025724411
5.06247353553772,-0.2470054179430008,-0.21877622604370117,0.018120087683200836,0.10166323184967041,0.0036240178160369396,0.0707637146115303
5.082640171051025,-0.247768372297287,-0.21915769577026367,0.018501564860343933,0.10166323184967041,0.0036240178160369396,0.0715266615152359
5.1026506423950195,-0.2473868876695633,-0.21953918039798737,0.018501564860343933,0.10204470902681351,0.004005493130534887,0.0715266615152359
5.122702360153198,-0.247768372297287,-0.22106507420539856,0.01926451548933983,0.1024261862039566,0.0036240178160369396,0.0715266615152359
5.142786264419556,-0.247768372297287,-0.22068360447883606,0.01926451548933983,0.1031891331076622,0.0036240178160369396,0.0715266615152359
5.162853479385376,-0.247768372297287,-0.22182802855968475,0.019645990803837776,0.1039520874619484,0.0036240178160369396,0.0715266615152359
5.182924509048462,-0.247768372297287,-0.22220951318740845,0.019645990803837776,0.10433356463909149,0.004005493130534887,0.071908138692379
5.203030586242676,-0.247768372297287,-0.22259098291397095,0.019645990803837776,0.10433356463909149,0.004005493130534887,0.071908138692379
5.223095893859863,-0.248531311750412,-0.22297245264053345,0.02040894143283367,0.10433356463909149,0.004386968910694122,0.071908138692379
5.243225812911987,-0.24929426610469818,-0.22411687672138214,0.02079041674733162,0.10471503436565399,0.004005493130534887,0.071908138692379
5.26336669921875,-0.24967575073242188,-0.22411687672138214,0.021171892061829567,0.10471503436565399,0.004005493130534887,0.071908138692379
5.283426523208618,-0.24967575073242188,-0.22487983107566833,0.021553369238972664,0.10509651154279709,0.0036240178160369396,0.071908138692379
5.303508043289185,-0.2500572204589844,-0.22602425515651703,0.021553369238972664,0.10509651154279709,0.0036240178160369396,0.0722896158695221
5.323570251464844,-0.2508201599121094,-0.22602425515651703,0.021553369238972664,0.10509651154279709,0.004005493130534887,0.0722896158695221
5.343642234802246,-0.2508201599121094,-0.22716869413852692,0.02193484455347061,0.10547798871994019,0.004386968910694122,0.0722896158695221
5.363754510879517,-0.25120165944099426,-0.22793163359165192,0.02231631986796856,0.10585946589708328,0.004386968910694122,0.0722896158695221
5.383784532546997,-0.25196459889411926,-0.2286945879459381,0.022697795182466507,0.10585946589708328,0.004386968910694122,0.0722896158695221
5.403866767883301,-0.25196459889411926,-0.2290760725736618,0.023079270496964455,0.10624094307422638,0.004005493130534887,0.0722896158695221
5.423979759216309,-0.25234606862068176,-0.2294575423002243,0.023460745811462402,0.10700388997793198,0.0036240178160369396,0.0722896158695221
5.444029092788696,-0.25310903787612915,-0.2298390120267868,0.023460745811462402,0.10738536715507507,0.004386968910694122,0.07267109304666519
5.4640843868255615,-0.25387197732925415,-0.2302204966545105,0.023460745811462402,0.10776684433221817,0.004386968910694122,0.07267109304666519
5.484163761138916,-0.25387197732925415,-0.2313649207353592,0.02384222112596035,0.10814831405878067,0.00476844422519207,0.07267109304666519
5.5042970180511475,-0.25387197732925415,-0.23212787508964539,0.024605173617601395,0.10814831405878067,0.004386968910694122,0.07267109304666519
5.524325370788574,-0.25425344705581665,-0.23327229917049408,0.024605173617601395,0.10814831405878067,0.004386968910694122,0.07305257022380829
5.544383525848389,-0.25501641631126404,-0.23365376889705658,0.024986648932099342,0.10852979123592377,0.00476844422519207,0.07305257022380829
5.564470291137695,-0.25501641631126404,-0.23403525352478027,0.024986648932099342,0.10852979123592377,0.004386968910694122,0.07305257022380829
5.58459210395813,-0.25501641631126404,-0.23441672325134277,0.024986648932099342,0.10891126841306686,0.00476844422519207,0.07305257022380829
5.60463547706604,-0.25501641631126404,-0.23632410168647766,0.02536812424659729,0.10891126841306686,0.00476844422519207,0.07343403995037079
5.6246864795684814,-0.25539788603782654,-0.23632410168647766,0.02536812424659729,0.10929274559020996,0.00476844422519207,0.07343403995037079
5.644743204116821,-0.25577935576438904,-0.23632410168647766,0.025749599561095238,0.10929274559020996,0.00476844422519207,0.07381551712751389
5.664825439453125,-0.25616082549095154,-0.23708705604076385,0.025749599561095238,0.10967422276735306,0.00476844422519207,0.07419699430465698
5.684889078140259,-0.2569237947463989,-0.23785001039505005,0.026512550190091133,0.11043716967105865,0.005149920005351305,0.07419699430465698
5.704950332641602,-0.2573052644729614,-0.23823148012161255,0.02689402550458908,0.11120012402534485,0.00476844422519207,0.07495994865894318
5.725011110305786,-0.2573052644729614,-0.23937590420246124,0.02689402550458908,0.11158160120248795,0.00476844422519207,0.07495994865894318
5.745129346847534,-0.2580682039260864,-0.23937590420246124,0.02727550081908703,0.11196307092905045,0.00476844422519207,0.07534141838550568
5.765180587768555,-0.2584496736526489,-0.23975738883018494,0.027656977996230125,0.11196307092905045,0.00476844422519207,0.07534141838550568
5.785226106643677,-0.2592126429080963,-0.24052032828330994,0.027656977996230125,0.11234454810619354,0.005912871100008488,0.07534141838550568
5.8053107261657715,-0.2592126429080963,-0.24128328263759613,0.02841992862522602,0.11234454810619354,0.005912871100008488,0.07534141838550568
5.82538914680481,-0.2592126429080963,-0.24166475236415863,0.02880140393972397,0.11234454810619354,0.005531395319849253,0.07572289556264877
5.845473051071167,-0.2599755823612213,-0.24242770671844482,0.029182879254221916,0.11272602528333664,0.005531395319849253,0.07572289556264877
5.865571022033691,-0.2599755823612213,-0.24280919134616852,0.029564354568719864,0.11272602528333664,0.005912871100008488,0.07572289556264877
5.885599851608276,-0.2599755823612213,-0.24357213079929352,0.029564354568719864,0.11272602528333664,0.005912871100008488,0.07572289556264877
5.905775308609009,-0.2607385218143463,-0.2443350851535797,0.02994582988321781,0.11310750246047974,0.005912871100008488,0.07572289556264877
5.925856828689575,-0.2611200213432312,-0.2447165697813034,0.03032730519771576,0.11348897218704224,0.006294346414506435,0.07610437273979187
5.945923328399658,-0.2618829607963562,-0.2466239482164383,0.030708782374858856,0.11387044936418533,0.006294346414506435,0.07610437273979187
5.965997219085693,-0.2618829607963562,-0.2466239482164383,0.031090257689356804,0.11425192654132843,0.006294346414506435,0.07610437273979187
5.98622989654541,-0.2622644305229187,-0.247768372297287,0.03147173300385475,0.11463340371847153,0.006294346414506435,0.07610437273979187
6.0063230991363525,-0.2622644305229187,-0.2481498420238495,0.03185320645570755,0.11501488089561462,0.006294346414506435,0.07648584991693497
6.02650785446167,-0.2622644305229187,-0.248531311750412,0.03185320645570755,0.11539635062217712,0.00667582219466567,0.07648584991693497
6.046486139297485,-0.2622644305229187,-0.248531311750412,0.03185320645570755,0.11539635062217712,0.007057297509163618,0.07648584991693497
6.066722393035889,-0.2626459002494812,-0.2500572204589844,0.03223468363285065,0.11577782779932022,0.007438773289322853,0.07648584991693497
6.086802959442139,-0.2634088695049286,-0.2508201599121094,0.032616160809993744,0.11577782779932022,0.007438773289322853,0.07686731964349747
6.106869459152222,-0.2641718089580536,-0.2508201599121094,0.03299763426184654,0.11577782779932022,0.007438773289322853,0.07724879682064056
6.126936197280884,-0.2641718089580536,-0.25158312916755676,0.03337911143898964,0.11615930497646332,0.007057297509163618,0.07801175117492676
6.1470787525177,-0.2641718089580536,-0.25234606862068176,0.03376058489084244,0.11615930497646332,0.007057297509163618,0.07915617525577545
6.167189359664917,-0.2645532786846161,-0.25310903787612915,0.03376058489084244,0.11654078215360641,0.007057297509163618,0.07915617525577545
6.187258005142212,-0.2653162479400635,-0.25425344705581665,0.034142062067985535,0.11692225188016891,0.0078202486038208,0.07915617525577545
6.207403182983398,-0.2660791873931885,-0.25463491678237915,0.03452353551983833,0.11692225188016891,0.0078202486038208,0.07915617525577545
6.2274010181427,-0.266460657119751,-0.25501641631126404,0.03490501269698143,0.11730372905731201,0.0078202486038208,0.07915617525577545
6.247489929199219,-0.266460657119751,-0.25654229521751404,0.03528648987412453,0.1180666834115982,0.0078202486038208,0.07915617525577545
6.26754903793335,-0.266460657119751,-0.2569237947463989,0.03604944050312042,0.11959258466959,0.007438773289322853,0.07953765243291855
6.287610054016113,-0.26722362637519836,-0.2569237947463989,0.03604944050312042,0.11959258466959,0.007438773289322853,0.07953765243291855
6.30766224861145,-0.26760509610176086,-0.2580682039260864,0.03604944050312042,0.11959258466959,0.0078202486038208,0.07953765243291855
6.327769041061401,-0.26760509610176086,-0.2588311731815338,0.03643091395497322,0.1199740618467331,0.008201723918318748,0.07953765243291855
6.3478639125823975,-0.26798656582832336,-0.2592126429080963,0.037193864583969116,0.1199740618467331,0.008201723918318748,0.07991912961006165
6.3680009841918945,-0.26836803555488586,-0.2592126429080963,0.037193864583969116,0.1203555315732956,0.008201723918318748,0.07991912961006165
6.3879923820495605,-0.26874953508377075,-0.2592126429080963,0.037193864583969116,0.12073700875043869,0.0078202486038208,0.07991912961006165
6.408106327056885,-0.26913100481033325,-0.2603570520877838,0.03757534176111221,0.12111848592758179,0.0078202486038208,0.07991912961006165
6.428171634674072,-0.26951247453689575,-0.2611200213432312,0.03795681521296501,0.12149996310472488,0.0078202486038208,0.08030059933662415
6.448233604431152,-0.26951247453689575,-0.2615014910697937,0.03795681521296501,0.12188144028186798,0.008201723918318748,0.08030059933662415
6.46828556060791,-0.26951247453689575,-0.2622644305229187,0.03833829239010811,0.12264438718557358,0.008201723918318748,0.08030059933662415
6.4883787631988525,-0.26989394426345825,-0.2634088695049286,0.039101243019104004,0.12302586436271667,0.008201723918318748,0.08068207651376724
6.508450031280518,-0.27027541399002075,-0.2637903392314911,0.039101243019104004,0.12302586436271667,0.00858320016413927,0.08068207651376724
6.528521776199341,-0.27065691351890564,-0.2653162479400635,0.0394827201962471,0.12340734153985977,0.00858320016413927,0.08068207651376724
6.548593044281006,-0.27141985297203064,-0.2653162479400635,0.0394827201962471,0.12340734153985977,0.00858320016413927,0.08106355369091034
6.568800210952759,-0.27141985297203064,-0.2653162479400635,0.0394827201962471,0.12340734153985977,0.008201723918318748,0.08106355369091034
6.588894605636597,-0.27180132269859314,-0.266460657119751,0.0398641936480999,0.12378881871700287,0.008201723918318748,0.08144503086805344
6.60898232460022,-0.27218279242515564,-0.266460657119751,0.040245670825242996,0.12378881871700287,0.00858320016413927,0.08182650804519653
6.629021167755127,-0.2725642919540405,-0.26684215664863586,0.040245670825242996,0.12417028844356537,0.008964675478637218,0.08182650804519653
6.649076223373413,-0.2725642919540405,-0.26836803555488586,0.04100862145423889,0.12417028844356537,0.008964675478637218,0.08220797777175903
6.669158220291138,-0.2733272314071655,-0.26836803555488586,0.04100862145423889,0.12455176562070847,0.009346150793135166,0.08220797777175903
6.689227104187012,-0.273708701133728,-0.26951247453689575,0.04139009863138199,0.12455176562070847,0.008964675478637218,0.08258945494890213
6.70929479598999,-0.273708701133728,-0.27027541399002075,0.04139009863138199,0.12569619715213776,0.00858320016413927,0.08258945494890213
6.7293477058410645,-0.2744716703891754,-0.27065691351890564,0.04177157208323479,0.12684062123298645,0.00858320016413927,0.08297093212604523
6.749468803405762,-0.2744716703891754,-0.27141985297203064,0.04177157208323479,0.12684062123298645,0.008964675478637218,0.08297093212604523
6.769493818283081,-0.2744716703891754,-0.27180132269859314,0.042153049260377884,0.12722209095954895,0.009346150793135166,0.08297093212604523
6.789538860321045,-0.2748531401157379,-0.272945761680603,0.04253452271223068,0.12722209095954895,0.009346150793135166,0.08297093212604523
6.8096301555633545,-0.2756160795688629,-0.2733272314071655,0.04291599988937378,0.12722209095954895,0.009727626107633114,0.08297093212604523
6.8297271728515625,-0.2759975492954254,-0.273708701133728,0.043678950518369675,0.12760357558727264,0.009727626107633114,0.08297093212604523
6.849797964096069,-0.2763790488243103,-0.273708701133728,0.043678950518369675,0.12760357558727264,0.009346150793135166,0.08297093212604523
6.869856119155884,-0.2763790488243103,-0.273708701133728,0.043678950518369675,0.12798504531383514,0.009346150793135166,0.08297093212604523
6.88994288444519,-0.2763790488243103,-0.2748531401157379,0.04406042397022247,0.12798504531383514,0.009346150793135166,0.08335240930318832
6.910014867782593,-0.2767605185508728,-0.2756160795688629,0.04444190114736557,0.12836651504039764,0.010109102353453636,0.08335240930318832
6.930083274841309,-0.2767605185508728,-0.2756160795688629,0.04444190114736557,0.12874799966812134,0.010490577667951584,0.08335240930318832
6.950132846832275,-0.2767605185508728,-0.2759975492954254,0.04444190114736557,0.12912946939468384,0.010490577667951584,0.08335240930318832
6.970219373703003,-0.2771419882774353,-0.2767605185508728,0.04482337832450867,0.12989242374897003,0.010490577667951584,0.08335240930318832
6.990285158157349,-0.2775234580039978,-0.2779049277305603,0.04558632895350456,0.13027389347553253,0.010490577667951584,0.08335240930318832
7.010348081588745,-0.2786678969860077,-0.2786678969860077,0.04634927958250046,0.13027389347553253,0.010490577667951584,0.08373387902975082
7.030394792556763,-0.2786678969860077,-0.2790493667125702,0.04634927958250046,0.13065537810325623,0.010490577667951584,0.08373387902975082
7.050480365753174,-0.2786678969860077,-0.2798123061656952,0.04634927958250046,0.13065537810325623,0.010109102353453636,0.08373387902975082
7.0705461502075195,-0.2790493667125702,-0.2801937758922577,0.04634927958250046,0.13103684782981873,0.010109102353453636,0.08411535620689392
7.090696811676025,-0.2790493667125702,-0.2809567451477051,0.046730753034353256,0.13103684782981873,0.010490577667951584,0.08411535620689392
7.110702037811279,-0.2798123061656952,-0.2809567451477051,0.04711223021149635,0.13103684782981873,0.01125352829694748,0.08411535620689392
7.130807161331177,-0.2805752754211426,-0.2817196846008301,0.04749370738863945,0.13103684782981873,0.01125352829694748,0.08449683338403702
7.150891065597534,-0.2805752754211426,-0.28248265385627747,0.04787518084049225,0.13141833245754242,0.01125352829694748,0.08449683338403702
7.170949697494507,-0.2809567451477051,-0.28286412358283997,0.048256658017635345,0.13141833245754242,0.010872052982449532,0.08487831056118011
7.1910080909729,-0.2809567451477051,-0.28324559330940247,0.048256658017635345,0.13179980218410492,0.010872052982449532,0.08525978773832321
7.2110631465911865,-0.2817196846008301,-0.28400853276252747,0.048638131469488144,0.13179980218410492,0.010872052982449532,0.08564125746488571
7.231151819229126,-0.2821011543273926,-0.28553444147109985,0.048638131469488144,0.13179980218410492,0.01125352829694748,0.08602273464202881
7.251219272613525,-0.2817196846008301,-0.28591591119766235,0.04901960864663124,0.13218127191066742,0.01125352829694748,0.0864042118191719
7.271281480789185,-0.2821011543273926,-0.28629741072654724,0.04940108209848404,0.1325627565383911,0.01125352829694748,0.086785688996315
7.291339635848999,-0.28286412358283997,-0.28591591119766235,0.050164032727479935,0.1329442262649536,0.01125352829694748,0.086785688996315
7.3114235401153564,-0.28286412358283997,-0.28629741072654724,0.05054550990462303,0.1337071806192398,0.01125352829694748,0.0871671661734581
7.331496000289917,-0.28324559330940247,-0.28820478916168213,0.05054550990462303,0.1340886503458023,0.01125352829694748,0.0871671661734581
7.351568937301636,-0.28362706303596497,-0.28820478916168213,0.05092698708176613,0.134470134973526,0.01125352829694748,0.0871671661734581
7.371603965759277,-0.28362706303596497,-0.28820478916168213,0.05130846053361893,0.134470134973526,0.01125352829694748,0.0875486359000206
7.391693592071533,-0.28362706303596497,-0.290112167596817,0.051689937710762024,0.1348516047000885,0.01125352829694748,0.0875486359000206
7.411768436431885,-0.28400853276252747,-0.2904936373233795,0.051689937710762024,0.1348516047000885,0.011635004542768002,0.0875486359000206
7.431877374649048,-0.28400853276252747,-0.2904936373233795,0.05207141116261482,0.1348516047000885,0.01125352829694748,0.0875486359000206
7.451934099197388,-0.28400853276252747,-0.2904936373233795,0.05207141116261482,0.135233074426651,0.01125352829694748,0.0875486359000206
7.471982479095459,-0.28477150201797485,-0.2912565767765045,0.05245288833975792,0.1356145590543747,0.011635004542768002,0.0879301130771637
7.49207615852356,-0.28515297174453735,-0.291638046503067,0.05283436179161072,0.1359960287809372,0.011635004542768002,0.0879301130771637
7.51215386390686,-0.28591591119766235,-0.2924010157585144,0.053215838968753815,0.1363775134086609,0.011635004542768002,0.0879301130771637
7.532207489013672,-0.28591591119766235,-0.2927824854850769,0.05359731614589691,0.1371404528617859,0.011635004542768002,0.0879301130771637
7.5523247718811035,-0.28591591119766235,-0.2935454249382019,0.05359731614589691,0.13752193748950958,0.011635004542768002,0.0883115902543068
7.572434663772583,-0.28629741072654724,-0.2943083941936493,0.05397878959774971,0.13790340721607208,0.011635004542768002,0.08869306743144989
7.592538118362427,-0.28667888045310974,-0.2954528033733368,0.05436026677489281,0.13790340721607208,0.011635004542768002,0.08907453715801239
7.6125781536102295,-0.28706035017967224,-0.2954528033733368,0.05436026677489281,0.13828489184379578,0.01201647985726595,0.08945601433515549
7.6328229904174805,-0.28706035017967224,-0.2965972423553467,0.05436026677489281,0.13828489184379578,0.01201647985726595,0.09021896868944168
7.652926445007324,-0.28820478916168213,-0.2969787120819092,0.054741740226745605,0.13828489184379578,0.012397955171763897,0.09060044586658478
7.673011302947998,-0.28858625888824463,-0.2977416515350342,0.0555046908557415,0.13866636157035828,0.01201647985726595,0.09060044586658478
7.693063497543335,-0.28896772861480713,-0.29812315106391907,0.0558861680328846,0.13866636157035828,0.01201647985726595,0.09098191559314728
7.71312403678894,-0.28896772861480713,-0.29850462079048157,0.0558861680328846,0.13866636157035828,0.01201647985726595,0.09098191559314728
7.7332048416137695,-0.28896772861480713,-0.29888609051704407,0.056267641484737396,0.13866636157035828,0.01201647985726595,0.09098191559314728
7.753307342529297,-0.28896772861480713,-0.29964902997016907,0.05664911866188049,0.13904783129692078,0.012397955171763897,0.09098191559314728
7.773353815078735,-0.28896772861480713,-0.30117493867874146,0.05664911866188049,0.13904783129692078,0.012779430486261845,0.09098191559314728
7.793429136276245,-0.28973066806793213,-0.30231937766075134,0.05703059583902359,0.13942931592464447,0.012779430486261845,0.09098191559314728
7.813512086868286,-0.2904936373233795,-0.30270084738731384,0.057793546468019485,0.13942931592464447,0.012779430486261845,0.09098191559314728
7.83357834815979,-0.290875107049942,-0.30270084738731384,0.057793546468019485,0.13981078565120697,0.012397955171763897,0.09098191559314728
7.853684902191162,-0.290875107049942,-0.30270084738731384,0.058175019919872284,0.14057374000549316,0.01201647985726595,0.09136339277029037
7.873723268508911,-0.290875107049942,-0.30308231711387634,0.05855649709701538,0.14133669435977936,0.012397955171763897,0.09136339277029037
7.893812894821167,-0.2912565767765045,-0.30460822582244873,0.05893797054886818,0.14133669435977936,0.012779430486261845,0.09136339277029037
7.913888454437256,-0.2912565767765045,-0.30460822582244873,0.05893797054886818,0.14171816408634186,0.013160906732082367,0.09136339277029037
7.934092044830322,-0.2912565767765045,-0.3061341345310211,0.05893797054886818,0.14171816408634186,0.013923857361078262,0.09136339277029037
7.954065322875977,-0.2912565767765045,-0.3068970739841461,0.05893797054886818,0.14209964871406555,0.01430533267557621,0.09136339277029037
7.974108457565308,-0.2920195460319519,-0.3068970739841461,0.05970092490315437,0.14209964871406555,0.01430533267557621,0.09136339277029037
7.994211673736572,-0.2924010157585144,-0.3068970739841461,0.06008239835500717,0.14248111844062805,0.01430533267557621,0.09136339277029037
8.014260053634644,-0.2927824854850769,-0.3076600432395935,0.06084534898400307,0.14248111844062805,0.01430533267557621,0.09136339277029037
8.034443140029907,-0.2931639552116394,-0.308041512966156,0.061226826161146164,0.14324407279491425,0.014686808921396732,0.09136339277029037
8.05453634262085,-0.2931639552116394,-0.308804452419281,0.061226826161146164,0.14362554252147675,0.01430533267557621,0.09174486994743347
8.074628114700317,-0.2931639552116394,-0.3099488914012909,0.061226826161146164,0.14438849687576294,0.014686808921396732,0.09174486994743347
8.094676494598389,-0.2935454249382019,-0.3103303611278534,0.06160829961299896,0.14515145123004913,0.01506828423589468,0.09174486994743347
8.114742994308472,-0.2935454249382019,-0.3110933005809784,0.06198977679014206,0.14553292095661163,0.01506828423589468,0.09174486994743347
8.134831666946411,-0.2943083941936493,-0.3118562698364258,0.06275273114442825,0.14591439068317413,0.01583123579621315,0.09174486994743347
8.15489411354065,-0.2950713336467743,-0.3122377395629883,0.06275273114442825,0.14591439068317413,0.01583123579621315,0.09174486994743347
8.174947500228882,-0.2954528033733368,-0.3130006790161133,0.06275273114442825,0.14629587531089783,0.015449759550392628,0.09212634712457657
8.19505262374878,-0.2954528033733368,-0.31414511799812317,0.06313420087099075,0.14629587531089783,0.015449759550392628,0.09212634712457657
8.215136051177979,-0.2958342730998993,-0.31528952717781067,0.06351567804813385,0.14629587531089783,0.015449759550392628,0.09250781685113907
8.235183715820312,-0.2962157726287842,-0.31643396615982056,0.06389715522527695,0.14667734503746033,0.01583123579621315,0.09250781685113907
8.255237579345703,-0.2965972423553467,-0.31681543588638306,0.06466010212898254,0.14667734503746033,0.01583123579621315,0.09250781685113907
8.275315999984741,-0.2965972423553467,-0.31681543588638306,0.06504157930612564,0.14705882966518402,0.016212711110711098,0.09288929402828217
8.295383214950562,-0.2969787120819092,-0.31681543588638306,0.06504157930612564,0.14744029939174652,0.016212711110711098,0.09288929402828217
8.315450429916382,-0.2973601818084717,-0.31719690561294556,0.06504157930612564,0.14820325374603271,0.016212711110711098,0.09365224838256836
8.335582733154297,-0.2977416515350342,-0.31795987486839294,0.06580453366041183,0.1489662081003189,0.016212711110711098,0.09441519528627396
8.355629205703735,-0.29812315106391907,-0.31910428404808044,0.06618601083755493,0.1493476778268814,0.016212711110711098,0.09479667246341705
8.375726222991943,-0.29850462079048157,-0.32024872303009033,0.06656748056411743,0.1493476778268814,0.016212711110711098,0.09479667246341705
8.395769834518433,-0.29850462079048157,-0.32101166248321533,0.06694895774126053,0.1497291475534439,0.016212711110711098,0.09479667246341705
8.415900468826294,-0.29850462079048157,-0.3213931620121002,0.06694895774126053,0.1497291475534439,0.016212711110711098,0.09479667246341705
8.435986757278442,-0.29850462079048157,-0.3213931620121002,0.06733043491840363,0.1497291475534439,0.016212711110711098,0.09479667246341705
8.456133365631104,-0.29850462079048157,-0.3213931620121002,0.06771191209554672,0.1501106321811676,0.016212711110711098,0.09517814964056015
8.476135492324829,-0.29888609051704407,-0.3221561014652252,0.06847485899925232,0.1501106321811676,0.016212711110711098,0.09517814964056015
8.496217489242554,-0.29888609051704407,-0.3225375711917877,0.06885633617639542,0.1501106321811676,0.01735713705420494,0.09517814964056015
8.516284227371216,-0.29964902997016907,-0.3233005404472351,0.06885633617639542,0.1504921019077301,0.01735713705420494,0.09517814964056015
8.536353588104248,-0.30003052949905396,-0.3236820101737976,0.06885633617639542,0.1508735716342926,0.01735713705420494,0.09517814964056015
8.556411743164062,-0.30041199922561646,-0.3244449496269226,0.06923781335353851,0.1512550562620163,0.01773861236870289,0.09517814964056015
8.576545000076294,-0.30079346895217896,-0.3248264193534851,0.06923781335353851,0.1520180106163025,0.01773861236870289,0.09555962681770325
8.59670639038086,-0.30079346895217896,-0.32520791888237,0.06961929053068161,0.1527809500694275,0.01735713705420494,0.09555962681770325
8.61683988571167,-0.30079346895217896,-0.3263523280620575,0.07038223743438721,0.15316243469715118,0.01773861236870289,0.09555962681770325
8.636871337890625,-0.30155640840530396,-0.3271152675151825,0.07038223743438721,0.15316243469715118,0.018120087683200836,0.09594109654426575
8.656952619552612,-0.30155640840530396,-0.3274967670440674,0.0707637146115303,0.15316243469715118,0.018501564860343933,0.09594109654426575
8.677016735076904,-0.30193790793418884,-0.3286411762237549,0.0707637146115303,0.15354390442371368,0.018120087683200836,0.09594109654426575
8.697081327438354,-0.30270084738731384,-0.3290226459503174,0.0711451917886734,0.15354390442371368,0.018501564860343933,0.09670405089855194
8.717132329940796,-0.30346378684043884,-0.32940414547920227,0.0715266615152359,0.15354390442371368,0.018501564860343933,0.09746700525283813
8.737238883972168,-0.30346378684043884,-0.33093002438545227,0.0722896158695221,0.15392538905143738,0.018120087683200836,0.09822995215654373
8.757367134094238,-0.30346378684043884,-0.33131152391433716,0.07267109304666519,0.15430685877799988,0.018120087683200836,0.09822995215654373
8.777436971664429,-0.30384528636932373,-0.33169299364089966,0.07305257022380829,0.15468832850456238,0.018120087683200836,0.09822995215654373
8.797496795654297,-0.30384528636932373,-0.33283740282058716,0.07305257022380829,0.15468832850456238,0.018501564860343933,0.09822995215654373
8.81757640838623,-0.30384528636932373,-0.33360037207603455,0.07343403995037079,0.15545128285884857,0.01888304017484188,0.09822995215654373
8.837647438049316,-0.30422675609588623,-0.33398184180259705,0.07381551712751389,0.15583276748657227,0.01888304017484188,0.09822995215654373
8.857864141464233,-0.30498969554901123,-0.33474478125572205,0.07381551712751389,0.15621423721313477,0.01888304017484188,0.09822995215654373
8.877814054489136,-0.3057526648044586,-0.33512628078460693,0.07419699430465698,0.15659570693969727,0.01888304017484188,0.09822995215654373
8.897900819778442,-0.3057526648044586,-0.33588922023773193,0.07457847148180008,0.15697719156742096,0.018501564860343933,0.09861142933368683
8.917968511581421,-0.3057526648044586,-0.3370336592197418,0.07495994865894318,0.15697719156742096,0.018501564860343933,0.09861142933368683
8.938117027282715,-0.3057526648044586,-0.3370336592197418,0.07534141838550568,0.15697719156742096,0.018501564860343933,0.09861142933368683
8.958098888397217,-0.3057526648044586,-0.3381780683994293,0.07534141838550568,0.15735866129398346,0.01926451548933983,0.09861142933368683
8.978186845779419,-0.3057526648044586,-0.3381780683994293,0.07534141838550568,0.15735866129398346,0.01926451548933983,0.09861142933368683
8.998278617858887,-0.3057526648044586,-0.3389410376548767,0.07572289556264877,0.15774014592170715,0.01926451548933983,0.09861142933368683
9.018329858779907,-0.3061341345310211,-0.3389410376548767,0.07610437273979187,0.15774014592170715,0.01888304017484188,0.09861142933368683
9.038408279418945,-0.3068970739841461,-0.3393225073814392,0.07648584991693497,0.15850308537483215,0.01888304017484188,0.09899290651082993
9.058488368988037,-0.3072785437107086,-0.3400854468345642,0.07724879682064056,0.15888457000255585,0.01888304017484188,0.09899290651082993
9.078556537628174,-0.3076600432395935,-0.3412298858165741,0.07763027399778366,0.15964750945568085,0.01926451548933983,0.09899290651082993
9.098680973052979,-0.3076600432395935,-0.3412298858165741,0.07763027399778366,0.16002899408340454,0.01926451548933983,0.09899290651082993
9.118737936019897,-0.308041512966156,-0.3423742949962616,0.07763027399778366,0.16041046380996704,0.01888304017484188,0.09899290651082993
9.13933801651001,-0.308041512966156,-0.3442816734313965,0.07763027399778366,0.16041046380996704,0.01926451548933983,0.09937438368797302
9.159426212310791,-0.3084229826927185,-0.344663143157959,0.07877469807863235,0.16079194843769073,0.01926451548933983,0.09937438368797302
9.179494380950928,-0.308804452419281,-0.34618905186653137,0.07953765243291855,0.16079194843769073,0.01926451548933983,0.09937438368797302
9.199583768844604,-0.3091859221458435,-0.34618905186653137,0.07991912961006165,0.16117341816425323,0.01926451548933983,0.09937438368797302
9.219619035720825,-0.309567391872406,-0.34618905186653137,0.07991912961006165,0.16117341816425323,0.01926451548933983,0.09975585341453552
9.239707231521606,-0.3099488914012909,-0.34618905186653137,0.08030059933662415,0.16155488789081573,0.01926451548933983,0.10013733059167862
9.259774208068848,-0.3103303611278534,-0.34809643030166626,0.08106355369091034,0.16155488789081573,0.01926451548933983,0.10013733059167862
9.279844760894775,-0.3103303611278534,-0.34847790002822876,0.08106355369091034,0.16193637251853943,0.01926451548933983,0.10013733059167862
9.299900531768799,-0.3107118308544159,-0.34962233901023865,0.08182650804519653,0.16231784224510193,0.019645990803837776,0.10051880776882172
9.320100784301758,-0.3110933005809784,-0.35038527846336365,0.08182650804519653,0.16308079659938812,0.019645990803837776,0.10090028494596481
9.340195655822754,-0.3110933005809784,-0.35114824771881104,0.08258945494890213,0.16384375095367432,0.019645990803837776,0.10090028494596481
9.36029052734375,-0.3114747703075409,-0.35152971744537354,0.08297093212604523,0.16422522068023682,0.019645990803837776,0.10166323184967041
9.380463600158691,-0.3122377395629883,-0.3526741564273834,0.08373387902975082,0.16422522068023682,0.019645990803837776,0.10166323184967041
9.400632619857788,-0.3126192092895508,-0.3526741564273834,0.08449683338403702,0.1646067053079605,0.019645990803837776,0.10166323184967041
9.420677661895752,-0.3130006790161133,-0.3530556261539459,0.08449683338403702,0.1646067053079605,0.019645990803837776,0.10204470902681351
9.440722227096558,-0.3130006790161133,-0.3538185656070709,0.08487831056118011,0.164988175034523,0.020027466118335724,0.10204470902681351
9.46088171005249,-0.3130006790161133,-0.3545815348625183,0.08525978773832321,0.164988175034523,0.019645990803837776,0.10204470902681351
9.480969190597534,-0.3130006790161133,-0.3553444743156433,0.08525978773832321,0.1653696447610855,0.019645990803837776,0.10204470902681351
9.50104808807373,-0.3133821487426758,-0.3561074137687683,0.08564125746488571,0.1657511293888092,0.020027466118335724,0.10204470902681351
9.521114110946655,-0.3133821487426758,-0.3568703830242157,0.08602273464202881,0.1657511293888092,0.020027466118335724,0.1024261862039566
9.54120922088623,-0.3133821487426758,-0.3576333224773407,0.0864042118191719,0.1661325991153717,0.02040894143283367,0.1024261862039566
9.561295986175537,-0.31414511799812317,-0.3580147922039032,0.0871671661734581,0.1668955534696579,0.020027466118335724,0.1024261862039566
9.581378936767578,-0.31452658772468567,-0.3587777614593506,0.0875486359000206,0.1676585078239441,0.02040894143283367,0.1028076633810997
9.601513862609863,-0.31490805745124817,-0.3595407009124756,0.0879301130771637,0.1680399775505066,0.02040894143283367,0.1028076633810997
9.621516942977905,-0.31528952717781067,-0.3606851398944855,0.0879301130771637,0.1680399775505066,0.02040894143283367,0.1028076633810997
9.641601085662842,-0.31528952717781067,-0.361066609621048,0.0883115902543068,0.1680399775505066,0.02040894143283367,0.1031891331076622
9.661673784255981,-0.31528952717781067,-0.361066609621048,0.0883115902543068,0.1684214472770691,0.020027466118335724,0.1031891331076622
9.681741714477539,-0.31567102670669556,-0.3614480793476105,0.08907453715801239,0.1684214472770691,0.02040894143283367,0.1031891331076622
9.701807737350464,-0.31605249643325806,-0.36297398805618286,0.08945601433515549,0.16880293190479279,0.02079041674733162,0.1031891331076622
9.721986770629883,-0.31643396615982056,-0.36411839723587036,0.09021896868944168,0.16880293190479279,0.02231631986796856,0.1035706102848053
9.742086410522461,-0.31681543588638306,-0.36488136649131775,0.09021896868944168,0.16918440163135529,0.02193484455347061,0.1039520874619484
9.762214660644531,-0.31757840514183044,-0.36526283621788025,0.09021896868944168,0.16956588625907898,0.02231631986796856,0.10471503436565399
9.782200574874878,-0.31757840514183044,-0.36640727519989014,0.09021896868944168,0.16994735598564148,0.02193484455347061,0.10585946589708328
9.802288293838501,-0.31757840514183044,-0.36678874492645264,0.09098191559314728,0.17147326469421387,0.02231631986796856,0.10585946589708328
9.822370767593384,-0.31834134459495544,-0.36755168437957764,0.09174486994743347,0.17185473442077637,0.02231631986796856,0.10585946589708328
9.842469692230225,-0.31834134459495544,-0.368314653635025,0.09212634712457657,0.17185473442077637,0.022697795182466507,0.10585946589708328
9.862501382827759,-0.31834134459495544,-0.368314653635025,0.09212634712457657,0.17223620414733887,0.022697795182466507,0.10585946589708328
9.882596492767334,-0.31834134459495544,-0.368314653635025,0.09212634712457657,0.17223620414733887,0.022697795182466507,0.10624094307422638
9.902686834335327,-0.31872281432151794,-0.36907759308815,0.09250781685113907,0.17223620414733887,0.022697795182466507,0.10624094307422638
9.922774076461792,-0.31948578357696533,-0.3702220320701599,0.09327077120542526,0.17261768877506256,0.023079270496964455,0.10624094307422638
9.942845821380615,-0.32024872303009033,-0.3713664412498474,0.09365224838256836,0.17261768877506256,0.023460745811462402,0.10624094307422638
9.962884902954102,-0.32024872303009033,-0.3713664412498474,0.09441519528627396,0.17299915850162506,0.023079270496964455,0.10624094307422638
9.982963800430298,-0.32024872303009033,-0.3717479109764099,0.09441519528627396,0.17338064312934875,0.022697795182466507,0.10662241280078888
10.003063917160034,-0.32024872303009033,-0.3725108802318573,0.09479667246341705,0.17414358258247375,0.023079270496964455,0.10662241280078888
10.023123502731323,-0.32024872303009033,-0.3732738196849823,0.09555962681770325,0.17452506721019745,0.023079270496964455,0.10662241280078888
10.04323148727417,-0.32024872303009033,-0.3736552894115448,0.09555962681770325,0.17490653693675995,0.02384222112596035,0.10662241280078888
10.063317775726318,-0.32063019275665283,-0.3747997283935547,0.09632257372140884,0.17528800666332245,0.02384222112596035,0.10662241280078888
10.083401679992676,-0.32063019275665283,-0.3759441375732422,0.09632257372140884,0.17528800666332245,0.024223696440458298,0.10662241280078888
10.103479385375977,-0.32101166248321533,-0.3763256371021271,0.09746700525283813,0.17566949129104614,0.024223696440458298,0.10700388997793198
10.12358570098877,-0.3217746317386627,-0.3778515160083771,0.09746700525283813,0.17605096101760864,0.024223696440458298,0.10738536715507507
10.143738508224487,-0.3225375711917877,-0.37937742471694946,0.09784847497940063,0.17605096101760864,0.024223696440458298,0.10738536715507507
10.163812398910522,-0.3225375711917877,-0.37975889444351196,0.09822995215654373,0.17643244564533234,0.02384222112596035,0.10776684433221817
10.183882474899292,-0.3225375711917877,-0.37975889444351196,0.09861142933368683,0.17643244564533234,0.024223696440458298,0.10814831405878067
10.20394229888916,-0.3225375711917877,-0.37975889444351196,0.09861142933368683,0.17681391537189484,0.02384222112596035,0.10852979123592377
10.22398567199707,-0.3229190409183502,-0.37975889444351196,0.09937438368797302,0.17719538509845734,0.024223696440458298,0.10852979123592377
10.244067430496216,-0.3229190409183502,-0.38052186369895935,0.09975585341453552,0.17795833945274353,0.024986648932099342,0.10891126841306686
10.264198303222656,-0.3236820101737976,-0.38128480315208435,0.10051880776882172,0.17910276353359222,0.02536812424659729,0.10891126841306686
10.284282207489014,-0.3240634799003601,-0.38204777240753174,0.10051880776882172,0.17910276353359222,0.02536812424659729,0.10929274559020996
10.304489374160767,-0.3244449496269226,-0.38319218158721924,0.10090028494596481,0.17948424816131592,0.02536812424659729,0.10929274559020996
10.32460618019104,-0.3248264193534851,-0.3850995600223541,0.10166323184967041,0.17948424816131592,0.024986648932099342,0.10929274559020996
10.344667434692383,-0.3248264193534851,-0.386243999004364,0.10204470902681351,0.17986571788787842,0.02536812424659729,0.10967422276735306
10.364737033843994,-0.32520791888237,-0.3858625292778015,0.1024261862039566,0.1802472025156021,0.02536812424659729,0.10967422276735306
10.384871482849121,-0.3255893886089325,-0.3858625292778015,0.1024261862039566,0.1802472025156021,0.025749599561095238,0.10967422276735306
10.40495491027832,-0.3255893886089325,-0.386243999004364,0.1028076633810997,0.1806286722421646,0.025749599561095238,0.10967422276735306
10.425036907196045,-0.325970858335495,-0.387006938457489,0.1035706102848053,0.1813916265964508,0.025749599561095238,0.10967422276735306
10.445117950439453,-0.325970858335495,-0.3873884081840515,0.1039520874619484,0.1817730963230133,0.026131074875593185,0.10967422276735306
10.465176105499268,-0.32673379778862,-0.3892957866191864,0.10433356463909149,0.1825360506772995,0.026131074875593185,0.10967422276735306
10.485262870788574,-0.3271152675151825,-0.3900587558746338,0.10471503436565399,0.1825360506772995,0.026131074875593185,0.11005569249391556
10.50536298751831,-0.3271152675151825,-0.3904402256011963,0.10471503436565399,0.182917520403862,0.025749599561095238,0.11005569249391556
10.525437593460083,-0.3278782367706299,-0.3904402256011963,0.10471503436565399,0.182917520403862,0.025749599561095238,0.11005569249391556
10.545486450195312,-0.3278782367706299,-0.3923476040363312,0.10547798871994019,0.1832990050315857,0.025749599561095238,0.11005569249391556
10.565574645996094,-0.3278782367706299,-0.3934920132160187,0.10624094307422638,0.1832990050315857,0.026131074875593185,0.11043716967105865
10.585638046264648,-0.3278782367706299,-0.39425498247146606,0.10662241280078888,0.1836804747581482,0.026131074875593185,0.11043716967105865
10.605709552764893,-0.3282597064971924,-0.39539939165115356,0.10662241280078888,0.1836804747581482,0.026131074875593185,0.11043716967105865
10.62577509880066,-0.3282597064971924,-0.39616236090660095,0.10662241280078888,0.1836804747581482,0.026512550190091133,0.11043716967105865
10.645834922790527,-0.3286411762237549,-0.39730677008628845,0.10738536715507507,0.1840619444847107,0.026512550190091133,0.11081864684820175
10.665999174118042,-0.3290226459503174,-0.39730677008628845,0.10814831405878067,0.1844434291124344,0.026131074875593185,0.11081864684820175
10.686075687408447,-0.32978561520576477,-0.39730677008628845,0.10852979123592377,0.1848248988389969,0.026131074875593185,0.11120012402534485
10.706157445907593,-0.32978561520576477,-0.39730677008628845,0.10891126841306686,0.18596932291984558,0.026512550190091133,0.11120012402534485
10.726364612579346,-0.32978561520576477,-0.39730677008628845,0.10929274559020996,0.18673227727413177,0.026512550190091133,0.11196307092905045
10.746432065963745,-0.33016708493232727,-0.39883267879486084,0.10967422276735306,0.18673227727413177,0.026131074875593185,0.11310750246047974
10.766498327255249,-0.33054855465888977,-0.4011215269565582,0.11043716967105865,0.18711376190185547,0.02689402550458908,0.11348897218704224
10.786560297012329,-0.33093002438545227,-0.4018844962120056,0.11043716967105865,0.18749523162841797,0.02689402550458908,0.11348897218704224
10.806612014770508,-0.33093002438545227,-0.4026474356651306,0.11081864684820175,0.18787670135498047,0.026512550190091133,0.11387044936418533
10.826704740524292,-0.33131152391433716,-0.4026474356651306,0.11120012402534485,0.18787670135498047,0.026512550190091133,0.11387044936418533
10.846805334091187,-0.33207446336746216,-0.4026474356651306,0.11196307092905045,0.18825818598270416,0.026512550190091133,0.11387044936418533
10.866891145706177,-0.33207446336746216,-0.4026474356651306,0.11234454810619354,0.18902114033699036,0.02689402550458908,0.11387044936418533
10.886978387832642,-0.33207446336746216,-0.403410404920578,0.11272602528333664,0.18978407979011536,0.02689402550458908,0.11387044936418533
10.907145261764526,-0.33245593309402466,-0.4045548141002655,0.11272602528333664,0.19054703414440155,0.02689402550458908,0.11425192654132843
10.92713451385498,-0.33283740282058716,-0.4053177833557129,0.11310750246047974,0.19054703414440155,0.02689402550458908,0.11425192654132843
10.947195291519165,-0.33283740282058716,-0.4068436622619629,0.11387044936418533,0.19054703414440155,0.02689402550458908,0.11463340371847153
10.96724796295166,-0.33321890234947205,-0.4087510406970978,0.11425192654132843,0.19092851877212524,0.02727550081908703,0.11463340371847153
10.987330436706543,-0.33321890234947205,-0.4087510406970978,0.11463340371847153,0.19092851877212524,0.02727550081908703,0.11501488089561462
11.00740098953247,-0.33436331152915955,-0.4087510406970978,0.11501488089561462,0.19130998849868774,0.02727550081908703,0.11615930497646332
11.027477741241455,-0.33474478125572205,-0.40951400995254517,0.11501488089561462,0.19169145822525024,0.027656977996230125,0.11654078215360641
11.04795241355896,-0.33474478125572205,-0.41065841913223267,0.11615930497646332,0.19169145822525024,0.02727550081908703,0.11654078215360641
11.068043947219849,-0.33512628078460693,-0.41218432784080505,0.11692225188016891,0.19245441257953644,0.027656977996230125,0.11692225188016891
11.08812403678894,-0.33512628078460693,-0.41294726729393005,0.11692225188016891,0.19321736693382263,0.02727550081908703,0.11692225188016891
11.108224630355835,-0.33512628078460693,-0.41409170627593994,0.11730372905731201,0.19398032128810883,0.027656977996230125,0.11692225188016891
11.128485441207886,-0.33512628078460693,-0.41485464572906494,0.11768520623445511,0.19398032128810883,0.027656977996230125,0.11692225188016891
11.148605346679688,-0.33512628078460693,-0.41523614525794983,0.1184481605887413,0.19436179101467133,0.028038453310728073,0.11692225188016891
11.168672561645508,-0.33550775051116943,-0.41599908471107483,0.1192111074924469,0.19474326074123383,0.028038453310728073,0.11692225188016891
11.188752174377441,-0.33550775051116943,-0.41599908471107483,0.1192111074924469,0.19474326074123383,0.02841992862522602,0.11730372905731201
11.208814144134521,-0.33627068996429443,-0.41599908471107483,0.11959258466959,0.19512474536895752,0.028038453310728073,0.11730372905731201
11.228915214538574,-0.3370336592197418,-0.41676202416419983,0.1199740618467331,0.19550621509552002,0.028038453310728073,0.11730372905731201
11.248998880386353,-0.3370336592197418,-0.4179064631462097,0.12073700875043869,0.1962691694498062,0.028038453310728073,0.11730372905731201
11.26906704902649,-0.3370336592197418,-0.4190509021282196,0.12111848592758179,0.1970321238040924,0.02841992862522602,0.11730372905731201
11.289133310317993,-0.3370336592197418,-0.4190509021282196,0.12111848592758179,0.1977950781583786,0.02841992862522602,0.11768520623445511
11.309201002120972,-0.3374151289463043,-0.4190509021282196,0.12111848592758179,0.1977950781583786,0.02841992862522602,0.11768520623445511
11.329285621643066,-0.3377965986728668,-0.4198138415813446,0.12188144028186798,0.1981765478849411,0.02880140393972397,0.11768520623445511
11.34935188293457,-0.3381780683994293,-0.4209582805633545,0.12264438718557358,0.1981765478849411,0.029182879254221916,0.11768520623445511
11.369402647018433,-0.3385595381259918,-0.4224841594696045,0.12302586436271667,0.1985580176115036,0.02994582988321781,0.11768520623445511
11.38948941230774,-0.3393225073814392,-0.4232471287250519,0.12340734153985977,0.1989395022392273,0.02994582988321781,0.11768520623445511
11.40955924987793,-0.3393225073814392,-0.4232471287250519,0.12417028844356537,0.1989395022392273,0.029564354568719864,0.11768520623445511
11.429644346237183,-0.3393225073814392,-0.4247730076313019,0.12455176562070847,0.1993209719657898,0.029182879254221916,0.1180666834115982
11.449697494506836,-0.3393225073814392,-0.42591744661331177,0.12493324279785156,0.1997024416923523,0.02994582988321781,0.1180666834115982
11.469801902770996,-0.3397039771080017,-0.42706188559532166,0.12531471252441406,0.20084688067436218,0.02994582988321781,0.1180666834115982
11.48985242843628,-0.3400854468345642,-0.42858776450157166,0.12569619715213776,0.20160982012748718,0.03032730519771576,0.1180666834115982
11.50992226600647,-0.3404669165611267,-0.42935073375701904,0.12645913660526276,0.20199130475521088,0.03032730519771576,0.1180666834115982
11.529974937438965,-0.3412298858165741,-0.43087664246559143,0.12760357558727264,0.20160982012748718,0.03032730519771576,0.1184481605887413
11.550078630447388,-0.3423742949962616,-0.4331654906272888,0.12951095402240753,0.20160982012748718,0.03032730519771576,0.1184481605887413
11.57010793685913,-0.3427557647228241,-0.4350728690624237,0.13179980218410492,0.20160982012748718,0.02994582988321781,0.1180666834115982
11.5902578830719,-0.3435187339782715,-0.4362172782421112,0.1333257108926773,0.20160982012748718,0.02994582988321781,0.1180666834115982
11.610272407531738,-0.344663143157959,-0.439269095659256,0.1348516047000885,0.20160982012748718,0.03032730519771576,0.1180666834115982
11.630336046218872,-0.34542611241340637,-0.44232088327407837,0.1367589831352234,0.20160982012748718,0.030708782374858856,0.11768520623445511
11.650445222854614,-0.34618905186653137,-0.44651713967323303,0.13904783129692078,0.20160982012748718,0.03147173300385475,0.11768520623445511
11.670679807662964,-0.34695202112197876,-0.4495689272880554,0.14019227027893066,0.20160982012748718,0.03185320645570755,0.11768520623445511
11.690604448318481,-0.34733349084854126,-0.4514763057231903,0.14095520973205566,0.20122835040092468,0.031090257689356804,0.11768520623445511
11.710666418075562,-0.34771496057510376,-0.4526207447052002,0.14248111844062805,0.20122835040092468,0.03032730519771576,0.11768520623445511
11.730750560760498,-0.34924086928367615,-0.4545281231403351,0.14515145123004913,0.20122835040092468,0.030708782374858856,0.11730372905731201
11.750821828842163,-0.34962233901023865,-0.45681697130203247,0.14744029939174652,0.20122835040092468,0.03147173300385475,0.11730372905731201
11.770879983901978,-0.34962233901023865,-0.45910581946372986,0.14858472347259521,0.20122835040092468,0.03185320645570755,0.11730372905731201
11.790956497192383,-0.35000380873680115,-0.46215763688087463,0.1497291475534439,0.20084688067436218,0.03185320645570755,0.11692225188016891
11.811042070388794,-0.35076677799224854,-0.4655908942222595,0.1512550562620163,0.20084688067436218,0.03223468363285065,0.11654078215360641
11.831122398376465,-0.35152971744537354,-0.4678797721862793,0.1527809500694275,0.2004653960466385,0.03223468363285065,0.11654078215360641
11.851187944412231,-0.35191118717193604,-0.4694056510925293,0.15430685877799988,0.2004653960466385,0.03185320645570755,0.11615930497646332
11.871235847473145,-0.3526741564273834,-0.4716945290565491,0.15583276748657227,0.200083926320076,0.03223468363285065,0.11577782779932022
11.8913254737854,-0.3545815348625183,-0.47398337721824646,0.15812161564826965,0.200083926320076,0.032616160809993744,0.11501488089561462
11.911389827728271,-0.3545815348625183,-0.47741663455963135,0.16041046380996704,0.1993209719657898,0.032616160809993744,0.11387044936418533
11.931479692459106,-0.3549630045890808,-0.4808499217033386,0.16193637251853943,0.1985580176115036,0.032616160809993744,0.11348897218704224
11.951578378677368,-0.3557259440422058,-0.4839017391204834,0.16384375095367432,0.1981765478849411,0.032616160809993744,0.11310750246047974
11.97162652015686,-0.3564889132976532,-0.4873350262641907,0.1661325991153717,0.1977950781583786,0.03299763426184654,0.11272602528333664
11.99169921875,-0.3568703830242157,-0.48962387442588806,0.1680399775505066,0.1977950781583786,0.03376058489084244,0.11196307092905045
12.011762380599976,-0.3568703830242157,-0.49153125286102295,0.16994735598564148,0.1974135935306549,0.03376058489084244,0.11120012402534485
12.031810283660889,-0.3572518527507782,-0.49343863129615784,0.17185473442077637,0.1974135935306549,0.03337911143898964,0.11005569249391556
12.051889657974243,-0.3583962619304657,-0.4964904189109802,0.17338064312934875,0.1970321238040924,0.034142062067985535,0.10967422276735306
12.07199764251709,-0.3591592311859131,-0.4987792670726776,0.17528800666332245,0.1966506391763687,0.03376058489084244,0.10929274559020996
12.092040538787842,-0.3591592311859131,-0.501068115234375,0.17681391537189484,0.1958876997232437,0.03376058489084244,0.10929274559020996
12.112118244171143,-0.3599221706390381,-0.5029755234718323,0.17795833945274353,0.19512474536895752,0.03376058489084244,0.10891126841306686
12.132246494293213,-0.3614480793476105,-0.5056458115577698,0.1802472025156021,0.19436179101467133,0.034142062067985535,0.10852979123592377
12.152340650558472,-0.361829549074173,-0.5086976289749146,0.1825360506772995,0.19398032128810883,0.03452353551983833,0.10814831405878067
12.172477960586548,-0.361829549074173,-0.5113679766654968,0.1840619444847107,0.19398032128810883,0.03452353551983833,0.10776684433221817
12.192537307739258,-0.36335545778274536,-0.5144197940826416,0.18596932291984558,0.19359883666038513,0.034142062067985535,0.10662241280078888
12.212561130523682,-0.36373692750930786,-0.5167086124420166,0.18787670135498047,0.19321736693382263,0.03452353551983833,0.10624094307422638
12.23268461227417,-0.36411839723587036,-0.5193789601325989,0.19016556441783905,0.19321736693382263,0.034142062067985535,0.10585946589708328
12.252700567245483,-0.36411839723587036,-0.5228122472763062,0.19245441257953644,0.19283588230609894,0.03452353551983833,0.10585946589708328
12.272769689559937,-0.36449989676475525,-0.5251010656356812,0.19398032128810883,0.19245441257953644,0.03490501269698143,0.10547798871994019
12.292975902557373,-0.36526283621788025,-0.5281528830528259,0.1966506391763687,0.19169145822525024,0.03528648987412453,0.10509651154279709
12.313061475753784,-0.36640727519989014,-0.5319676399230957,0.1993209719657898,0.19054703414440155,0.035667963325977325,0.10433356463909149
12.333133697509766,-0.36640727519989014,-0.534637987613678,0.20122835040092468,0.19054703414440155,0.03528648987412453,0.1035706102848053
12.35319972038269,-0.36793315410614014,-0.536926805973053,0.20313572883605957,0.19054703414440155,0.035667963325977325,0.1024261862039566
12.373323678970337,-0.3686961233615875,-0.5403600931167603,0.20542457699775696,0.19054703414440155,0.03528648987412453,0.10166323184967041
12.393450736999512,-0.36907759308815,-0.5437933802604675,0.20847637951374054,0.19016556441783905,0.03528648987412453,0.10166323184967041
12.413500308990479,-0.369840532541275,-0.5476081371307373,0.21038375794887543,0.19016556441783905,0.035667963325977325,0.10090028494596481
12.433571100234985,-0.3706035017967224,-0.5495155453681946,0.21190966665744781,0.18978407979011536,0.035667963325977325,0.10090028494596481
12.453876972198486,-0.3713664412498474,-0.5525673031806946,0.2141985148191452,0.18940261006355286,0.03604944050312042,0.09975585341453552
12.473978519439697,-0.3713664412498474,-0.5552376508712769,0.21686884760856628,0.18863965570926666,0.03604944050312042,0.09899290651082993
12.494042873382568,-0.3713664412498474,-0.5582894682884216,0.21877622604370117,0.18749523162841797,0.03681239113211632,0.09861142933368683
12.514150619506836,-0.3721294105052948,-0.5617227554321289,0.22068360447883606,0.18673227727413177,0.037193864583969116,0.09822995215654373
12.534503698348999,-0.3732738196849823,-0.5643930435180664,0.22259098291397095,0.18635080754756927,0.03757534176111221,0.09822995215654373
12.554598569869995,-0.3736552894115448,-0.5678263306617737,0.22526131570339203,0.18635080754756927,0.03757534176111221,0.09784847497940063
12.57467269897461,-0.3740367889404297,-0.571259617805481,0.22793163359165192,0.18596932291984558,0.03757534176111221,0.09746700525283813
12.594720602035522,-0.3747997283935547,-0.5739299654960632,0.2294575423002243,0.18558785319328308,0.03795681521296501,0.09708552807569504
12.61477780342102,-0.3763256371021271,-0.576218843460083,0.23212787508964539,0.18520638346672058,0.03795681521296501,0.09670405089855194
12.63487696647644,-0.3767071068286896,-0.579270601272583,0.23479819297790527,0.1840619444847107,0.03795681521296501,0.09632257372140884
12.65493893623352,-0.3778515160083771,-0.5830853581428528,0.23708705604076385,0.1832990050315857,0.03795681521296501,0.09479667246341705
12.67502236366272,-0.37823301553726196,-0.5865186452865601,0.23937590420246124,0.182917520403862,0.038719769567251205,0.09403372555971146
12.695619106292725,-0.37823301553726196,-0.5899519324302673,0.24204623699188232,0.182917520403862,0.03833829239010811,0.09403372555971146
12.715728759765625,-0.37861448526382446,-0.5926222801208496,0.2450980395078659,0.182917520403862,0.03833829239010811,0.09365224838256836
12.735792875289917,-0.37899595499038696,-0.5960555672645569,0.2466239482164383,0.1825360506772995,0.039101243019104004,0.09250781685113907
12.755873918533325,-0.37937742471694946,-0.5991073250770569,0.24929426610469818,0.1825360506772995,0.0398641936480999,0.09174486994743347
12.776147365570068,-0.38052186369895935,-0.6033035516738892,0.25196459889411926,0.182154580950737,0.04100862145423889,0.09098191559314728
12.7962486743927,-0.38090333342552185,-0.6071183085441589,0.25539788603782654,0.1817730963230133,0.04139009863138199,0.09060044586658478
12.816326141357422,-0.38166627287864685,-0.6097886562347412,0.2576867341995239,0.1813916265964508,0.04139009863138199,0.09060044586658478
12.83637261390686,-0.38281071186065674,-0.6124590039253235,0.2595941126346588,0.1810101419687271,0.04177157208323479,0.09021896868944168
12.856529474258423,-0.38357365131378174,-0.6155108213424683,0.2622644305229187,0.1802472025156021,0.04177157208323479,0.08983749151229858
12.876671314239502,-0.3839551508426666,-0.6197070479393005,0.2660791873931885,0.17986571788787842,0.042153049260377884,0.08945601433515549
12.89671015739441,-0.3858625292778015,-0.6231403350830078,0.26760509610176086,0.17948424816131592,0.04253452271223068,0.08869306743144989
12.916926622390747,-0.3854810297489166,-0.6273365616798401,0.27065691351890564,0.17910276353359222,0.04291599988937378,0.0871671661734581
12.937017679214478,-0.3858625292778015,-0.6307697892189026,0.273708701133728,0.17910276353359222,0.04291599988937378,0.0864042118191719
12.95708441734314,-0.3858625292778015,-0.6342030763626099,0.2759975492954254,0.17872129380702972,0.04291599988937378,0.08602273464202881
12.977203845977783,-0.3858625292778015,-0.6391623020172119,0.2786678969860077,0.17833982408046722,0.04329747334122658,0.08525978773832321
12.9979727268219,-0.3866254687309265,-0.6422140598297119,0.2809567451477051,0.17833982408046722,0.04482337832450867,0.08411535620689392
13.018062353134155,-0.3873884081840515,-0.6452658772468567,0.28362706303596497,0.17757686972618103,0.045204851776361465,0.08297093212604523
13.038093090057373,-0.3881513774394989,-0.6483176946640015,0.28629741072654724,0.17643244564533234,0.04558632895350456,0.08258945494890213
13.058145761489868,-0.3885328471660614,-0.6517509818077087,0.28896772861480713,0.17566949129104614,0.04558632895350456,0.08220797777175903
13.078232288360596,-0.3892957866191864,-0.6563286781311035,0.2924010157585144,0.17566949129104614,0.04558632895350456,0.08220797777175903
13.098302841186523,-0.3908216953277588,-0.6601434350013733,0.2950713336467743,0.17528800666332245,0.04558632895350456,0.08182650804519653
13.11838960647583,-0.3912031650543213,-0.6631952524185181,0.2965972423553467,0.17490653693675995,0.04558632895350456,0.08144503086805344
13.13854169845581,-0.3912031650543213,-0.6673914790153503,0.29964902997016907,0.17452506721019745,0.04558632895350456,0.08068207651376724
13.158631563186646,-0.3919661343097687,-0.6723506450653076,0.30346378684043884,0.17452506721019745,0.04596780240535736,0.07991912961006165
13.178704261779785,-0.3931105434894562,-0.6746395230293274,0.3057526648044586,0.17376211285591125,0.04711223021149635,0.07915617525577545
13.19874382019043,-0.3927290737628937,-0.6780728101730347,0.308041512966156,0.17299915850162506,0.04749370738863945,0.07877469807863235
13.219082832336426,-0.3931105434894562,-0.6830319762229919,0.3114747703075409,0.17185473442077637,0.048256658017635345,0.07839322835206985
13.239179611206055,-0.3934920132160187,-0.6872282028198242,0.31490805745124817,0.17185473442077637,0.048256658017635345,0.07763027399778366
13.25925588607788,-0.3934920132160187,-0.690280020236969,0.31681543588638306,0.17147326469421387,0.048256658017635345,0.07686731964349747
13.279329299926758,-0.39425498247146606,-0.6937133073806763,0.31834134459495544,0.17109178006649017,0.04940108209848404,0.07572289556264877
13.299468278884888,-0.39501792192459106,-0.698291003704071,0.32063019275665283,0.17071031033992767,0.049782559275627136,0.07495994865894318
13.31959342956543,-0.39539939165115356,-0.7024872303009033,0.3233005404472351,0.17071031033992767,0.049782559275627136,0.07495994865894318
13.339664459228516,-0.39654383063316345,-0.7059205174446106,0.3263523280620575,0.16994735598564148,0.04940108209848404,0.07419699430465698
13.35973334312439,-0.39768826961517334,-0.7089722752571106,0.3282597064971924,0.16918440163135529,0.049782559275627136,0.07381551712751389
13.379794120788574,-0.39768826961517334,-0.7120240926742554,0.33054855465888977,0.1676585078239441,0.05054550990462303,0.07305257022380829
13.399885177612305,-0.39845120906829834,-0.7154573798179626,0.33360037207603455,0.1676585078239441,0.050164032727479935,0.071908138692379
13.419942140579224,-0.39883267879486084,-0.7192721366882324,0.3370336592197418,0.1672770231962204,0.05092698708176613,0.0715266615152359
13.440000534057617,-0.3995956480503082,-0.7238498330116272,0.3389410376548767,0.1668955534696579,0.05207141116261482,0.0711451917886734
13.460049867630005,-0.3999771177768707,-0.727664589881897,0.3416113555431366,0.1668955534696579,0.05245288833975792,0.0711451917886734
13.480142593383789,-0.4003585875034332,-0.7318608164787292,0.34504464268684387,0.1665140837430954,0.05283436179161072,0.0707637146115303
13.500199794769287,-0.4003585875034332,-0.734912633895874,0.34733349084854126,0.1657511293888092,0.05245288833975792,0.07038223743438721
13.520272254943848,-0.4003585875034332,-0.7394903302192688,0.35038527846336365,0.16422522068023682,0.05245288833975792,0.06961929053068161
13.54032301902771,-0.4007400572299957,-0.7429236173629761,0.3530556261539459,0.16422522068023682,0.05283436179161072,0.06847485899925232
13.560412645339966,-0.4015030264854431,-0.7463569045066833,0.3561074137687683,0.16422522068023682,0.053215838968753815,0.06771191209554672
13.580474138259888,-0.4015030264854431,-0.7494087219238281,0.3587777614593506,0.16422522068023682,0.053215838968753815,0.06733043491840363
13.60053825378418,-0.4026474356651306,-0.7528420090675354,0.3614480793476105,0.16384375095367432,0.05359731614589691,0.06656748056411743
13.620591402053833,-0.4026474356651306,-0.7562752962112427,0.36335545778274536,0.16384375095367432,0.054741740226745605,0.06580453366041183
13.640678405761719,-0.4030289053916931,-0.7597085237503052,0.36640727519989014,0.16384375095367432,0.05436026677489281,0.06466010212898254
13.660743474960327,-0.4037918746471405,-0.7639048099517822,0.3694590628147125,0.16346226632595062,0.054741740226745605,0.06427863240242004
13.680851697921753,-0.4037918746471405,-0.7665750980377197,0.3717479109764099,0.16308079659938812,0.054741740226745605,0.06389715522527695
13.700912475585938,-0.4045548141002655,-0.7703898549079895,0.3740367889404297,0.16269932687282562,0.0555046908557415,0.06351567804813385
13.720992088317871,-0.404936283826828,-0.7738231420516968,0.3767071068286896,0.16231784224510193,0.056267641484737396,0.06351567804813385
13.741065979003906,-0.4053177833557129,-0.778019368648529,0.38052186369895935,0.16155488789081573,0.056267641484737396,0.06313420087099075
13.761142015457153,-0.4056992530822754,-0.7814526557922363,0.38281071186065674,0.16041046380996704,0.05664911866188049,0.06237125024199486
13.781184196472168,-0.4056992530822754,-0.7845044732093811,0.3850995600223541,0.16041046380996704,0.05664911866188049,0.06198977679014206
13.80124807357788,-0.4064621925354004,-0.7887006998062134,0.3881513774394989,0.16002899408340454,0.05703059583902359,0.06084534898400307
13.821334600448608,-0.4068436622619629,-0.7921339869499207,0.3908216953277588,0.15964750945568085,0.058175019919872284,0.06008239835500717
13.84141206741333,-0.4076066315174103,-0.7959487438201904,0.39387351274490356,0.15964750945568085,0.05855649709701538,0.05970092490315437
13.861459016799927,-0.4076066315174103,-0.7993820309638977,0.39654383063316345,0.15926603972911835,0.05893797054886818,0.059319447726011276
13.881762027740479,-0.4079881012439728,-0.8039597272872925,0.3995956480503082,0.15850308537483215,0.059319447726011276,0.05855649709701538
13.901847839355469,-0.4079881012439728,-0.8081559538841248,0.4026474356651306,0.15735866129398346,0.05970092490315437,0.05741206929087639
13.921927452087402,-0.4083695709705353,-0.811589241027832,0.4056992530822754,0.15659570693969727,0.06008239835500717,0.056267641484737396
13.941962480545044,-0.4087510406970978,-0.8150225281715393,0.4079881012439728,0.15659570693969727,0.061226826161146164,0.056267641484737396
13.962137222290039,-0.40951400995254517,-0.8196002244949341,0.41142138838768005,0.15659570693969727,0.06198977679014206,0.0555046908557415
13.982222318649292,-0.40989547967910767,-0.8234149813652039,0.41409170627593994,0.15621423721313477,0.06198977679014206,0.0551232174038887
14.002287864685059,-0.40989547967910767,-0.8268482685089111,0.4171435236930847,0.15621423721313477,0.06160829961299896,0.054741740226745605
14.022352457046509,-0.41103988885879517,-0.8302815556526184,0.4194323718547821,0.15583276748657227,0.06160829961299896,0.05397878959774971
14.04317021369934,-0.41180285811424255,-0.8344777822494507,0.4232471287250519,0.15545128285884857,0.06198977679014206,0.053215838968753815
14.063281297683716,-0.41218432784080505,-0.839436948299408,0.42706188559532166,0.15468832850456238,0.06351567804813385,0.05283436179161072
14.083472490310669,-0.41180285811424255,-0.841725766658783,0.42935073375701904,0.15468832850456238,0.06351567804813385,0.05245288833975792
14.10346794128418,-0.41218432784080505,-0.8455405235290527,0.43087664246559143,0.15354390442371368,0.06389715522527695,0.05207141116261482
14.123615503311157,-0.41294726729393005,-0.84897381067276,0.4335469603538513,0.15316243469715118,0.06466010212898254,0.05130846053361893
