liuyurong129/humanoid-gym/humanoid/data/actual_q_20250523-020412.csv
timestamp,joint_1,joint_2,joint_3,joint_4,joint_5,joint_6
0.0003674030303955078,-0.0009536888683214784,0.17299915850162506,-0.0871671661734581,-0.00019073777366429567,0.00019073777366429567,-0.00019073777366429567
0.0204465389251709,-0.0020981156267225742,0.1504921019077301,-0.07763027399778366,-0.00019073777366429567,0.00019073777366429567,-0.00019073777366429567
0.04050874710083008,-0.002861066721379757,0.12722209095954895,-0.06694895774126053,-0.00019073777366429567,0.000572213320992887,-0.00019073777366429567
0.06067204475402832,-0.0020981156267225742,0.11120012402534485,-0.06084534898400307,0.00019073777366429567,0.0020981156267225742,-0.00019073777366429567
0.08069157600402832,-0.0020981156267225742,0.10471503436565399,-0.05703059583902359,0.00019073777366429567,0.00019073777366429567,0.00019073777366429567
0.10085296630859375,-0.002861066721379757,0.10204470902681351,-0.056267641484737396,-0.00019073777366429567,-0.00019073777366429567,-0.00019073777366429567
0.12084317207336426,-0.0024795911740511656,0.10051880776882172,-0.05397878959774971,-0.00019073777366429567,-0.00019073777366429567,-0.00019073777366429567
0.1409752368927002,-0.0024795911740511656,0.09861142933368683,-0.049782559275627136,-0.00019073777366429567,-0.00019073777366429567,-0.00019073777366429567
0.1610567569732666,-0.0024795911740511656,0.09594109654426575,-0.04596780240535736,0.00019073777366429567,-0.00019073777366429567,-0.00019073777366429567
0.18112850189208984,-0.0024795911740511656,0.09288929402828217,-0.043678950518369675,-0.00019073777366429567,-0.000572213320992887,-0.00019073777366429567
0.20134758949279785,-0.0024795911740511656,0.08945601433515549,-0.04139009863138199,0.00019073777366429567,-0.00019073777366429567,-0.000572213320992887
0.22147154808044434,-0.0024795911740511656,0.08525978773832321,-0.03795681521296501,-0.00019073777366429567,0.00019073777366429567,-0.000572213320992887
0.24152827262878418,-0.0024795911740511656,0.08182650804519653,-0.03604944050312042,-0.00019073777366429567,0.00019073777366429567,-0.0009536888683214784
0.2616109848022461,-0.0024795911740511656,0.07915617525577545,-0.03452353551983833,-0.00019073777366429567,0.00019073777366429567,-0.0013351644156500697
0.28165698051452637,-0.0024795911740511656,0.07534141838550568,-0.03185320645570755,-0.00019073777366429567,-0.000572213320992887,-0.001716639962978661
0.3017430305480957,-0.0032425422687083483,0.071908138692379,-0.02841992862522602,-0.00019073777366429567,-0.0009536888683214784,-0.0024795911740511656
0.3218362331390381,-0.0032425422687083483,0.06885633617639542,-0.026131074875593185,-0.00019073777366429567,-0.000572213320992887,-0.0036240178160369396
0.3418741226196289,-0.0032425422687083483,0.06580453366041183,-0.02384222112596035,-0.00019073777366429567,-0.0013351644156500697,-0.004005493130534887
0.3620491027832031,-0.0032425422687083483,0.06160829961299896,-0.021171892061829567,-0.00019073777366429567,-0.0020981156267225742,-0.004005493130534887
0.3821706771850586,-0.0036240178160369396,0.057793546468019485,-0.01773861236870289,-0.00019073777366429567,-0.002861066721379757,-0.004386968910694122
0.40229320526123047,-0.0036240178160369396,0.0551232174038887,-0.015449759550392628,-0.00019073777366429567,-0.002861066721379757,-0.004386968910694122
0.42234253883361816,-0.0036240178160369396,0.05207141116261482,-0.013160906732082367,-0.00019073777366429567,-0.0032425422687083483,-0.005149920005351305
0.44258642196655273,-0.004386968910694122,0.048638131469488144,-0.010490577667951584,-0.00019073777366429567,-0.0032425422687083483,-0.005912871100008488
0.46273231506347656,-0.00476844422519207,0.04444190114736557,-0.007438773289322853,-0.00019073777366429567,-0.0036240178160369396,-0.007057297509163618
0.4828050136566162,-0.00476844422519207,0.040627144277095795,-0.005149920005351305,-0.00019073777366429567,-0.0036240178160369396,-0.0078202486038208
0.503044605255127,-0.005149920005351305,0.03757534176111221,-0.002861066721379757,-0.00019073777366429567,-0.004005493130534887,-0.0078202486038208
0.5230262279510498,-0.005531395319849253,0.03528648987412453,0.00019073777366429567,-0.00019073777366429567,-0.004386968910694122,-0.008201723918318748
0.5431110858917236,-0.005531395319849253,0.03376058489084244,0.002861066721379757,-0.00019073777366429567,-0.00476844422519207,-0.00858320016413927
0.5631699562072754,-0.005531395319849253,0.03185320645570755,0.005149920005351305,-0.00019073777366429567,-0.005531395319849253,-0.008964675478637218
0.5832579135894775,-0.005912871100008488,0.029564354568719864,0.0078202486038208,-0.00019073777366429567,-0.005912871100008488,-0.010490577667951584
0.6033480167388916,-0.00667582219466567,0.026512550190091133,0.01125352829694748,-0.00019073777366429567,-0.005912871100008488,-0.01125352829694748
0.624056339263916,-0.007438773289322853,0.02384222112596035,0.01430533267557621,-0.00019073777366429567,-0.006294346414506435,-0.011635004542768002
0.6441576480865479,-0.007438773289322853,0.021553369238972664,0.016212711110711098,-0.00019073777366429567,-0.00667582219466567,-0.011635004542768002
0.6642129421234131,-0.007438773289322853,0.01888304017484188,0.018120087683200836,-0.00019073777366429567,-0.007438773289322853,-0.01201647985726595
0.6843130588531494,-0.0078202486038208,0.016975661739706993,0.02040894143283367,-0.00019073777366429567,-0.007438773289322853,-0.012397955171763897
0.7043843269348145,-0.008201723918318748,0.014686808921396732,0.023079270496964455,-0.00019073777366429567,-0.007438773289322853,-0.013542382046580315
0.7244524955749512,-0.00858320016413927,0.01201647985726595,0.024605173617601395,-0.00019073777366429567,-0.007438773289322853,-0.01506828423589468
0.7445242404937744,-0.009346150793135166,0.008201723918318748,0.02727550081908703,-0.00019073777366429567,-0.0078202486038208,-0.015449759550392628
0.76462721824646,-0.009727626107633114,0.006294346414506435,0.030708782374858856,-0.00019073777366429567,-0.007438773289322853,-0.015449759550392628
0.7847132682800293,-0.009727626107633114,0.005531395319849253,0.032616160809993744,-0.00019073777366429567,-0.007438773289322853,-0.015449759550392628
0.8048830032348633,-0.009727626107633114,0.0036240178160369396,0.03528648987412453,-0.00019073777366429567,-0.007438773289322853,-0.016212711110711098
0.8250267505645752,-0.010109102353453636,0.0013351644156500697,0.03795681521296501,-0.00019073777366429567,-0.008201723918318748,-0.016975661739706993
0.8452188968658447,-0.010490577667951584,-0.000572213320992887,0.040627144277095795,-0.00019073777366429567,-0.008201723918318748,-0.01888304017484188
0.8652157783508301,-0.010872052982449532,-0.002861066721379757,0.042153049260377884,-0.000572213320992887,-0.008201723918318748,-0.01888304017484188
0.8853487968444824,-0.010872052982449532,-0.005531395319849253,0.04444190114736557,-0.00019073777366429567,-0.008964675478637218,-0.01926451548933983
0.9053537845611572,-0.01125352829694748,-0.007057297509163618,0.046730753034353256,-0.000572213320992887,-0.009346150793135166,-0.01926451548933983
0.9254231452941895,-0.011635004542768002,-0.007438773289322853,0.048638131469488144,-0.000572213320992887,-0.009346150793135166,-0.01926451548933983
0.9455761909484863,-0.01201647985726595,-0.008964675478637218,0.05092698708176613,-0.00019073777366429567,-0.010109102353453636,-0.020027466118335724
0.9656150341033936,-0.012779430486261845,-0.011635004542768002,0.05359731614589691,-0.000572213320992887,-0.010109102353453636,-0.02079041674733162
0.9857628345489502,-0.012779430486261845,-0.013923857361078262,0.056267641484737396,-0.000572213320992887,-0.010490577667951584,-0.02231631986796856
1.005784034729004,-0.013160906732082367,-0.016594186425209045,0.05970092490315437,-0.000572213320992887,-0.010872052982449532,-0.022697795182466507
1.026005506515503,-0.013160906732082367,-0.01888304017484188,0.06313420087099075,-0.000572213320992887,-0.01125352829694748,-0.023079270496964455
1.0461235046386719,-0.013923857361078262,-0.02040894143283367,0.06542305648326874,-0.000572213320992887,-0.01125352829694748,-0.023079270496964455
1.0660862922668457,-0.01430533267557621,-0.02193484455347061,0.06733043491840363,-0.000572213320992887,-0.011635004542768002,-0.023460745811462402
1.086167335510254,-0.01506828423589468,-0.02384222112596035,0.06961929053068161,-0.000572213320992887,-0.01125352829694748,-0.02384222112596035
1.1062335968017578,-0.01506828423589468,-0.026131074875593185,0.07305257022380829,-0.000572213320992887,-0.01201647985726595,-0.024223696440458298
1.1262996196746826,-0.01506828423589468,-0.028038453310728073,0.07495994865894318,-0.000572213320992887,-0.01201647985726595,-0.025749599561095238
1.1463510990142822,-0.01583123579621315,-0.03032730519771576,0.07763027399778366,-0.000572213320992887,-0.012779430486261845,-0.026131074875593185
1.166438102722168,-0.01583123579621315,-0.03223468363285065,0.07991912961006165,-0.000572213320992887,-0.013160906732082367,-0.026512550190091133
1.186502456665039,-0.016212711110711098,-0.03376058489084244,0.08258945494890213,-0.000572213320992887,-0.01430533267557621,-0.026512550190091133
1.206674575805664,-0.016212711110711098,-0.03490501269698143,0.08449683338403702,-0.000572213320992887,-0.014686808921396732,-0.02689402550458908
1.2267084121704102,-0.016975661739706993,-0.03643091395497322,0.086785688996315,-0.000572213320992887,-0.014686808921396732,-0.02689402550458908
1.2469043731689453,-0.018120087683200836,-0.03833829239010811,0.08945601433515549,-0.000572213320992887,-0.014686808921396732,-0.02727550081908703
1.2670469284057617,-0.018120087683200836,-0.040627144277095795,0.09136339277029037,-0.0009536888683214784,-0.01506828423589468,-0.027656977996230125
1.2870116233825684,-0.018120087683200836,-0.04253452271223068,0.09250781685113907,-0.0009536888683214784,-0.01506828423589468,-0.028038453310728073
1.3070628643035889,-0.018120087683200836,-0.043678950518369675,0.09479667246341705,-0.000572213320992887,-0.015449759550392628,-0.029564354568719864
1.327164888381958,-0.018120087683200836,-0.04482337832450867,0.09708552807569504,-0.0009536888683214784,-0.015449759550392628,-0.030708782374858856
1.347238540649414,-0.01888304017484188,-0.04596780240535736,0.09937438368797302,-0.0009536888683214784,-0.015449759550392628,-0.030708782374858856
1.3672890663146973,-0.019645990803837776,-0.046730753034353256,0.10090028494596481,-0.0009536888683214784,-0.01506828423589468,-0.030708782374858856
1.3873484134674072,-0.020027466118335724,-0.048256658017635345,0.1028076633810997,-0.0009536888683214784,-0.015449759550392628,-0.03147173300385475
1.4074385166168213,-0.020027466118335724,-0.04940108209848404,0.10547798871994019,-0.0009536888683214784,-0.01583123579621315,-0.03185320645570755
1.4275274276733398,-0.020027466118335724,-0.05054550990462303,0.10814831405878067,-0.0009536888683214784,-0.016594186425209045,-0.03337911143898964
1.4475555419921875,-0.020027466118335724,-0.05207141116261482,0.10967422276735306,-0.0009536888683214784,-0.01773861236870289,-0.034142062067985535
1.4677188396453857,-0.02040894143283367,-0.053215838968753815,0.11234454810619354,-0.0009536888683214784,-0.018120087683200836,-0.034142062067985535
1.4878261089324951,-0.02079041674733162,-0.0551232174038887,0.11577782779932022,-0.0009536888683214784,-0.018120087683200836,-0.03452353551983833
1.5079267024993896,-0.021553369238972664,-0.056267641484737396,0.11768520623445511,-0.0009536888683214784,-0.018120087683200836,-0.03452353551983833
1.5279688835144043,-0.02231631986796856,-0.05741206929087639,0.1199740618467331,-0.0009536888683214784,-0.018120087683200836,-0.03490501269698143
1.5480363368988037,-0.023079270496964455,-0.059319447726011276,0.12417028844356537,-0.0009536888683214784,-0.018501564860343933,-0.035667963325977325
1.5680820941925049,-0.023460745811462402,-0.06198977679014206,0.12569619715213776,-0.0009536888683214784,-0.018501564860343933,-0.037193864583969116
1.588165521621704,-0.024223696440458298,-0.06389715522527695,0.12951095402240753,-0.0013351644156500697,-0.018501564860343933,-0.03833829239010811
1.6082477569580078,-0.024605173617601395,-0.06542305648326874,0.1325627565383911,-0.0013351644156500697,-0.01888304017484188,-0.03833829239010811
1.6283023357391357,-0.024986648932099342,-0.06694895774126053,0.135233074426651,-0.0009536888683214784,-0.01926451548933983,-0.038719769567251205
1.648341417312622,-0.02536812424659729,-0.06923781335353851,0.13790340721607208,-0.0013351644156500697,-0.019645990803837776,-0.0394827201962471
1.668431282043457,-0.02536812424659729,-0.0715266615152359,0.14171816408634186,-0.0009536888683214784,-0.02040894143283367,-0.04100862145423889
1.6884989738464355,-0.025749599561095238,-0.07267109304666519,0.14515145123004913,-0.0013351644156500697,-0.02079041674733162,-0.04177157208323479
1.708547830581665,-0.025749599561095238,-0.07419699430465698,0.14667734503746033,-0.0009536888683214784,-0.021553369238972664,-0.04177157208323479
1.7287771701812744,-0.026512550190091133,-0.07534141838550568,0.1493476778268814,-0.0013351644156500697,-0.021171892061829567,-0.042153049260377884
1.7489569187164307,-0.026512550190091133,-0.07648584991693497,0.1520180106163025,-0.0013351644156500697,-0.02193484455347061,-0.04291599988937378
1.7689595222473145,-0.02689402550458908,-0.07839322835206985,0.15468832850456238,-0.0013351644156500697,-0.02193484455347061,-0.043678950518369675
1.7890167236328125,-0.027656977996230125,-0.08068207651376724,0.15659570693969727,-0.0013351644156500697,-0.02231631986796856,-0.04482337832450867
1.8091018199920654,-0.028038453310728073,-0.08182650804519653,0.15888457000255585,-0.0013351644156500697,-0.022697795182466507,-0.04558632895350456
1.8291544914245605,-0.02841992862522602,-0.08335240930318832,0.16193637251853943,-0.0009536888683214784,-0.022697795182466507,-0.04558632895350456
1.8492233753204346,-0.029182879254221916,-0.08411535620689392,0.16346226632595062,-0.0013351644156500697,-0.022697795182466507,-0.04596780240535736
1.8692681789398193,-0.02994582988321781,-0.08564125746488571,0.1653696447610855,-0.0013351644156500697,-0.022697795182466507,-0.04596780240535736
1.8893885612487793,-0.03032730519771576,-0.086785688996315,0.1684214472770691,-0.0013351644156500697,-0.023079270496964455,-0.046730753034353256
1.9095144271850586,-0.03032730519771576,-0.08869306743144989,0.17147326469421387,-0.0013351644156500697,-0.02384222112596035,-0.04749370738863945
1.929544448852539,-0.03032730519771576,-0.08907453715801239,0.17338064312934875,-0.0013351644156500697,-0.024986648932099342,-0.04901960864663124
1.9495985507965088,-0.030708782374858856,-0.09021896868944168,0.17528800666332245,-0.0013351644156500697,-0.02536812424659729,-0.04940108209848404
1.969663381576538,-0.031090257689356804,-0.09098191559314728,0.17757686972618103,-0.0013351644156500697,-0.02536812424659729,-0.04940108209848404
1.989821195602417,-0.03223468363285065,-0.09288929402828217,0.1806286722421646,-0.0013351644156500697,-0.02536812424659729,-0.049782559275627136
2.0098447799682617,-0.032616160809993744,-0.09403372555971146,0.1825360506772995,-0.0013351644156500697,-0.02536812424659729,-0.050164032727479935
2.029874086380005,-0.032616160809993744,-0.09517814964056015,0.1848248988389969,-0.0013351644156500697,-0.025749599561095238,-0.05054550990462303
2.050044059753418,-0.032616160809993744,-0.09708552807569504,0.18787670135498047,-0.0013351644156500697,-0.026131074875593185,-0.05092698708176613
2.0700628757476807,-0.03299763426184654,-0.09861142933368683,0.19130998849868774,-0.0013351644156500697,-0.026512550190091133,-0.05207141116261482
2.090135097503662,-0.03376058489084244,-0.09975585341453552,0.19359883666038513,-0.001716639962978661,-0.026131074875593185,-0.05283436179161072
2.1102075576782227,-0.03452353551983833,-0.10090028494596481,0.1958876997232437,-0.001716639962978661,-0.026131074875593185,-0.05283436179161072
2.1302976608276367,-0.03490501269698143,-0.1031891331076622,0.1993209719657898,-0.001716639962978661,-0.026131074875593185,-0.053215838968753815
2.150416135787964,-0.03490501269698143,-0.10547798871994019,0.20160982012748718,-0.001716639962978661,-0.026512550190091133,-0.05359731614589691
2.1707255840301514,-0.03528648987412453,-0.10738536715507507,0.20428015291690826,-0.0013351644156500697,-0.026512550190091133,-0.05436026677489281
2.1908373832702637,-0.03643091395497322,-0.10891126841306686,0.20771344006061554,-0.001716639962978661,-0.026131074875593185,-0.0558861680328846
2.2109060287475586,-0.03681239113211632,-0.11005569249391556,0.20923933386802673,-0.001716639962978661,-0.026512550190091133,-0.05703059583902359
2.231062412261963,-0.03757534176111221,-0.11158160120248795,0.21190966665744781,-0.001716639962978661,-0.026131074875593185,-0.05741206929087639
2.251145839691162,-0.038719769567251205,-0.11348897218704224,0.2157244235277176,-0.001716639962978661,-0.026512550190091133,-0.05741206929087639
2.2712748050689697,-0.0394827201962471,-0.11577782779932022,0.21877622604370117,-0.001716639962978661,-0.02689402550458908,-0.058175019919872284
2.291306257247925,-0.040627144277095795,-0.1180666834115982,0.22068360447883606,-0.001716639962978661,-0.02727550081908703,-0.05970092490315437
2.311478614807129,-0.040627144277095795,-0.1199740618467331,0.22335393726825714,-0.001716639962978661,-0.027656977996230125,-0.06046387553215027
2.331501007080078,-0.04100862145423889,-0.12111848592758179,0.22678720951080322,-0.001716639962978661,-0.02880140393972397,-0.06084534898400307
2.351680040359497,-0.04100862145423889,-0.12264438718557358,0.2290760725736618,-0.001716639962978661,-0.029182879254221916,-0.061226826161146164
2.3723483085632324,-0.04139009863138199,-0.12378881871700287,0.2313649207353592,-0.001716639962978661,-0.029182879254221916,-0.06237125024199486
2.3924341201782227,-0.04177157208323479,-0.12493324279785156,0.23441672325134277,-0.001716639962978661,-0.029564354568719864,-0.06351567804813385
2.4126884937286377,-0.04177157208323479,-0.12531471252441406,0.23632410168647766,-0.001716639962978661,-0.029182879254221916,-0.06427863240242004
2.4327328205108643,-0.042153049260377884,-0.12531471252441406,0.23785001039505005,-0.001716639962978661,-0.029182879254221916,-0.06466010212898254
2.452785015106201,-0.04253452271223068,-0.12607766687870026,0.24052032828330994,-0.001716639962978661,-0.029182879254221916,-0.06504157930612564
2.472965717315674,-0.04329747334122658,-0.12722209095954895,0.24357213079929352,-0.001716639962978661,-0.029182879254221916,-0.06542305648326874
2.4930264949798584,-0.04406042397022247,-0.12798504531383514,0.2462424635887146,-0.001716639962978661,-0.029182879254221916,-0.06733043491840363
2.5131032466888428,-0.04444190114736557,-0.12989242374897003,0.2481498420238495,-0.001716639962978661,-0.029564354568719864,-0.06809338182210922
2.533186197280884,-0.04482337832450867,-0.13179980218410492,0.25158312916755676,-0.001716639962978661,-0.029564354568719864,-0.06885633617639542
2.5532431602478027,-0.045204851776361465,-0.1337071806192398,0.25539788603782654,-0.001716639962978661,-0.02994582988321781,-0.06961929053068161
2.573312520980835,-0.04634927958250046,-0.1348516047000885,0.2580682039260864,-0.001716639962978661,-0.02994582988321781,-0.0707637146115303
2.5934176445007324,-0.046730753034353256,-0.1363775134086609,0.2618829607963562,-0.001716639962978661,-0.02994582988321781,-0.071908138692379
2.613478899002075,-0.04787518084049225,-0.13828489184379578,0.2660791873931885,-0.001716639962978661,-0.02994582988321781,-0.0722896158695221
2.633547067642212,-0.048256658017635345,-0.14057374000549316,0.27065691351890564,-0.001716639962978661,-0.02994582988321781,-0.0722896158695221
2.653654098510742,-0.04901960864663124,-0.14209964871406555,0.273708701133728,-0.001716639962978661,-0.03032730519771576,-0.07305257022380829
2.6736812591552734,-0.04901960864663124,-0.14286258816719055,0.2767605185508728,-0.001716639962978661,-0.030708782374858856,-0.07457847148180008
2.6937804222106934,-0.049782559275627136,-0.14362554252147675,0.2813382148742676,-0.001716639962978661,-0.03147173300385475,-0.07572289556264877
2.7138688564300537,-0.05054550990462303,-0.14476996660232544,0.28515297174453735,-0.001716639962978661,-0.03147173300385475,-0.07610437273979187
2.7339274883270264,-0.05130846053361893,-0.14744029939174652,0.28858625888824463,-0.001716639962978661,-0.03147173300385475,-0.07686731964349747
2.7539730072021484,-0.05207141116261482,-0.1501106321811676,0.2931639552116394,-0.001716639962978661,-0.03147173300385475,-0.07801175117492676
2.7741854190826416,-0.053215838968753815,-0.1520180106163025,0.29850462079048157,-0.001716639962978661,-0.03185320645570755,-0.07915617525577545
2.794424057006836,-0.05397878959774971,-0.15392538905143738,0.30270084738731384,-0.001716639962978661,-0.03223468363285065,-0.07953765243291855
2.8143131732940674,-0.0555046908557415,-0.15506981313228607,0.3057526648044586,-0.0013351644156500697,-0.03299763426184654,-0.07991912961006165
2.8343851566314697,-0.05664911866188049,-0.15735866129398346,0.3107118308544159,-0.0013351644156500697,-0.03299763426184654,-0.08068207651376724
2.8544554710388184,-0.05741206929087639,-0.15926603972911835,0.31528952717781067,-0.0013351644156500697,-0.03299763426184654,-0.08144503086805344
2.8745245933532715,-0.057793546468019485,-0.16231784224510193,0.32063019275665283,-0.0013351644156500697,-0.03337911143898964,-0.08335240930318832
2.894582748413086,-0.058175019919872284,-0.16422522068023682,0.3248264193534851,-0.0013351644156500697,-0.03337911143898964,-0.08411535620689392
2.9147632122039795,-0.059319447726011276,-0.1665140837430954,0.33093002438545227,-0.0009536888683214784,-0.03337911143898964,-0.08525978773832321
2.934800386428833,-0.06008239835500717,-0.1680399775505066,0.3370336592197418,-0.0009536888683214784,-0.03337911143898964,-0.086785688996315
2.9549074172973633,-0.06084534898400307,-0.17109178006649017,0.343137264251709,-0.0009536888683214784,-0.03299763426184654,-0.0875486359000206
2.9749655723571777,-0.06160829961299896,-0.17414358258247375,0.34885939955711365,-0.0009536888683214784,-0.03299763426184654,-0.0875486359000206
2.995020627975464,-0.06275273114442825,-0.17719538509845734,0.3557259440422058,-0.000572213320992887,-0.032616160809993744,-0.08907453715801239
3.015108346939087,-0.06389715522527695,-0.1810101419687271,0.36411839723587036,-0.0009536888683214784,-0.03337911143898964,-0.09098191559314728
3.0352530479431152,-0.06580453366041183,-0.1844434291124344,0.3706035017967224,-0.000572213320992887,-0.03299763426184654,-0.09212634712457657
3.055295705795288,-0.06694895774126053,-0.18825818598270416,0.37861448526382446,-0.000572213320992887,-0.03337911143898964,-0.09441519528627396
3.075408458709717,-0.06885633617639542,-0.19474326074123383,0.3885328471660614,-0.000572213320992887,-0.03337911143898964,-0.09555962681770325
3.095482110977173,-0.0715266615152359,-0.20237277448177338,0.3999771177768707,-0.00019073777366429567,-0.03337911143898964,-0.09784847497940063
3.1155717372894287,-0.07419699430465698,-0.21190966665744781,0.4091325104236603,-0.00019073777366429567,-0.03337911143898964,-0.09937438368797302
3.135619878768921,-0.07724879682064056,-0.22259098291397095,0.4236285984516144,0.00019073777366429567,-0.03376058489084244,-0.10204470902681351
3.1557180881500244,-0.08068207651376724,-0.23441672325134277,0.44079500436782837,0.00019073777366429567,-0.034142062067985535,-0.1039520874619484
3.175916910171509,-0.08373387902975082,-0.24357213079929352,0.45796138048171997,0.00019073777366429567,-0.03337911143898964,-0.10585946589708328
3.1959245204925537,-0.08525978773832321,-0.2500572204589844,0.47436484694480896,0.00019073777366429567,-0.03376058489084244,-0.10738536715507507
3.215998888015747,-0.08907453715801239,-0.2599755823612213,0.49496451020240784,0.000572213320992887,-0.03337911143898964,-0.11005569249391556
3.2361299991607666,-0.09517814964056015,-0.2748531401157379,0.5197604298591614,0.0009536888683214784,-0.03223468363285065,-0.11234454810619354
3.256225347518921,-0.10166323184967041,-0.2939268946647644,0.543411910533905,0.0013351644156500697,-0.032616160809993744,-0.11615930497646332
3.2763233184814453,-0.11043716967105865,-0.31605249643325806,0.5716410875320435,0.002861066721379757,-0.03147173300385475,-0.1203555315732956
3.2963385581970215,-0.1203555315732956,-0.3397039771080017,0.6052109599113464,0.004386968910694122,-0.03185320645570755,-0.12645913660526276
3.316413402557373,-0.13027389347553253,-0.3580147922039032,0.6342030763626099,0.007438773289322853,-0.029564354568719864,-0.13218127191066742
3.336472749710083,-0.13981078565120697,-0.3755626678466797,0.6635767221450806,0.008201723918318748,-0.028038453310728073,-0.1371404528617859
3.356525421142578,-0.1501106321811676,-0.3927290737628937,0.6952391862869263,0.009727626107633114,-0.02727550081908703,-0.14171816408634186
3.3766462802886963,-0.16231784224510193,-0.41294726729393005,0.724612832069397,0.011635004542768002,-0.028038453310728073,-0.14744029939174652
3.3968515396118164,-0.17452506721019745,-0.42782482504844666,0.7497901916503906,0.01201647985726595,-0.029564354568719864,-0.1516365259885788
3.4168379306793213,-0.18711376190185547,-0.44270238280296326,0.7719157934188843,0.012779430486261845,-0.032616160809993744,-0.15583276748657227
3.4368674755096436,-0.1962691694498062,-0.4495689272880554,0.7913710474967957,0.014686808921396732,-0.03452353551983833,-0.15735866129398346
3.4569334983825684,-0.20122835040092468,-0.4510948359966278,0.804341197013855,0.01506828423589468,-0.03490501269698143,-0.15812161564826965
3.4769973754882812,-0.20542457699775696,-0.4507133662700653,0.8112077713012695,0.015449759550392628,-0.03490501269698143,-0.15888457000255585
3.497337818145752,-0.20771344006061554,-0.4488059878349304,0.8142595291137695,0.015449759550392628,-0.03643091395497322,-0.15964750945568085
3.517442464828491,-0.20885786414146423,-0.44651713967323303,0.8150225281715393,0.01583123579621315,-0.03604944050312042,-0.16117341816425323
3.537496566772461,-0.20885786414146423,-0.44575417041778564,0.8142595291137695,0.01583123579621315,-0.03528648987412453,-0.16193637251853943
3.55755615234375,-0.20885786414146423,-0.44460976123809814,0.813878059387207,0.01583123579621315,-0.03185320645570755,-0.16193637251853943
3.577669858932495,-0.20885786414146423,-0.44422826170921326,0.813115119934082,0.016212711110711098,-0.02880140393972397,-0.16231784224510193
3.597734212875366,-0.20771344006061554,-0.44384679198265076,0.812352180480957,0.016212711110711098,-0.024605173617601395,-0.16269932687282562
3.617798328399658,-0.20771344006061554,-0.44270238280296326,0.8119707107543945,0.016212711110711098,-0.02193484455347061,-0.16269932687282562
3.637856960296631,-0.20771344006061554,-0.44193941354751587,0.8119707107543945,0.016212711110711098,-0.020027466118335724,-0.16308079659938812
3.6579558849334717,-0.20771344006061554,-0.4404135048389435,0.812352180480957,0.016212711110711098,-0.018501564860343933,-0.16422522068023682
3.678093433380127,-0.20809490978717804,-0.438506156206131,0.812352180480957,0.016212711110711098,-0.01888304017484188,-0.1653696447610855
3.6981191635131836,-0.20809490978717804,-0.4373617172241211,0.812352180480957,0.016212711110711098,-0.02040894143283367,-0.1657511293888092
3.718285083770752,-0.20809490978717804,-0.4362172782421112,0.812352180480957,0.016212711110711098,-0.02231631986796856,-0.1657511293888092
3.7383861541748047,-0.20809490978717804,-0.4350728690624237,0.8119707107543945,0.016594186425209045,-0.023079270496964455,-0.1661325991153717
3.7584450244903564,-0.20809490978717804,-0.4343098998069763,0.8112077713012695,0.016594186425209045,-0.024986648932099342,-0.1665140837430954
3.7786431312561035,-0.20809490978717804,-0.4331654906272888,0.8112077713012695,0.016975661739706993,-0.025749599561095238,-0.1668955534696579
3.7987332344055176,-0.20809490978717804,-0.43125811219215393,0.8112077713012695,0.01773861236870289,-0.025749599561095238,-0.1676585078239441
3.818849802017212,-0.20809490978717804,-0.43011367321014404,0.8112077713012695,0.018501564860343933,-0.026131074875593185,-0.16880293190479279
3.8388705253601074,-0.20809490978717804,-0.42858776450157166,0.8112077713012695,0.018501564860343933,-0.025749599561095238,-0.16918440163135529
3.859025716781616,-0.20847637951374054,-0.42668038606643677,0.8112077713012695,0.018501564860343933,-0.02536812424659729,-0.16956588625907898
3.8790721893310547,-0.20847637951374054,-0.4240100681781769,0.8104447722434998,0.018501564860343933,-0.02536812424659729,-0.16994735598564148
3.899115562438965,-0.20885786414146423,-0.4224841594696045,0.8100633025169373,0.01888304017484188,-0.024986648932099342,-0.17032882571220398
3.919189453125,-0.20885786414146423,-0.4209582805633545,0.8100633025169373,0.01888304017484188,-0.024986648932099342,-0.17071031033992767
3.9392573833465576,-0.20885786414146423,-0.4190509021282196,0.8100633025169373,0.01888304017484188,-0.024605173617601395,-0.17261768877506256
3.959437131881714,-0.20885786414146423,-0.4171435236930847,0.8089188933372498,0.01888304017484188,-0.024605173617601395,-0.17299915850162506
3.9795544147491455,-0.20885786414146423,-0.41561761498451233,0.8089188933372498,0.01888304017484188,-0.024605173617601395,-0.17338064312934875
3.99977970123291,-0.20885786414146423,-0.41409170627593994,0.8085374236106873,0.01888304017484188,-0.024605173617601395,-0.17376211285591125
4.019891262054443,-0.20923933386802673,-0.41218432784080505,0.8081559538841248,0.01926451548933983,-0.024605173617601395,-0.17414358258247375
4.039959669113159,-0.20923933386802673,-0.41103988885879517,0.8081559538841248,0.01926451548933983,-0.024605173617601395,-0.17452506721019745
4.059992790222168,-0.20923933386802673,-0.40951400995254517,0.8081559538841248,0.01926451548933983,-0.024605173617601395,-0.17643244564533234
4.080235481262207,-0.20923933386802673,-0.4072251319885254,0.8077744841575623,0.01926451548933983,-0.024605173617601395,-0.17681391537189484
4.100362539291382,-0.20923933386802673,-0.404173344373703,0.8070115447044373,0.01926451548933983,-0.024605173617601395,-0.17719538509845734
4.120445013046265,-0.20962081849575043,-0.4018844962120056,0.8070115447044373,0.01926451548933983,-0.024605173617601395,-0.17719538509845734
4.1404924392700195,-0.21038375794887543,-0.39921414852142334,0.8070115447044373,0.019645990803837776,-0.02384222112596035,-0.17757686972618103
4.160608291625977,-0.21114671230316162,-0.39692530035972595,0.80663001537323,0.019645990803837776,-0.022697795182466507,-0.17795833945274353
4.180866003036499,-0.21114671230316162,-0.3934920132160187,0.8062485456466675,0.020027466118335724,-0.02231631986796856,-0.17910276353359222
4.200934648513794,-0.21114671230316162,-0.3908216953277588,0.805867075920105,0.02040894143283367,-0.02231631986796856,-0.1806286722421646
4.2209577560424805,-0.21114671230316162,-0.387006938457489,0.80510413646698,0.021171892061829567,-0.02231631986796856,-0.1810101419687271
4.241183519363403,-0.21114671230316162,-0.38242924213409424,0.804341197013855,0.022697795182466507,-0.02193484455347061,-0.1813916265964508
4.2612457275390625,-0.21114671230316162,-0.3770885765552521,0.8039597272872925,0.023460745811462402,-0.021553369238972664,-0.1825360506772995
4.281374216079712,-0.21114671230316162,-0.3717479109764099,0.80357825756073,0.02384222112596035,-0.021171892061829567,-0.1836804747581482
4.301424264907837,-0.21114671230316162,-0.36602577567100525,0.802815318107605,0.02384222112596035,-0.02040894143283367,-0.1848248988389969
4.321448564529419,-0.21114671230316162,-0.3564889132976532,0.8016708493232727,0.024223696440458298,-0.019645990803837776,-0.18558785319328308
4.341540098190308,-0.21114671230316162,-0.34542611241340637,0.8001449704170227,0.025749599561095238,-0.018501564860343933,-0.18787670135498047
4.361614227294922,-0.21114671230316162,-0.33016708493232727,0.7982375621795654,0.02689402550458908,-0.01735713705420494,-0.19054703414440155
4.38167667388916,-0.21114671230316162,-0.31643396615982056,0.7959487438201904,0.02727550081908703,-0.016212711110711098,-0.19436179101467133
4.401821613311768,-0.21114671230316162,-0.3057526648044586,0.7940413355827332,0.027656977996230125,-0.01430533267557621,-0.1977950781583786
4.421851873397827,-0.21114671230316162,-0.29926756024360657,0.7940413355827332,0.02841992862522602,-0.013160906732082367,-0.200083926320076
4.44192910194397,-0.21114671230316162,-0.29850462079048157,0.7951858043670654,0.02880140393972397,-0.010872052982449532,-0.20084688067436218
4.4619762897491455,-0.21114671230316162,-0.30041199922561646,0.7951858043670654,0.029182879254221916,-0.009727626107633114,-0.20199130475521088
4.482233762741089,-0.21076524257659912,-0.30308231711387634,0.7948042750358582,0.02994582988321781,-0.007057297509163618,-0.20237277448177338
4.502174615859985,-0.21114671230316162,-0.30498969554901123,0.7936598658561707,0.02994582988321781,-0.007057297509163618,-0.20275425910949707
4.522240161895752,-0.21114671230316162,-0.3076600432395935,0.7913710474967957,0.02994582988321781,-0.007057297509163618,-0.20275425910949707
4.542317867279053,-0.21076524257659912,-0.31376364827156067,0.7913710474967957,0.02994582988321781,-0.005531395319849253,-0.20313572883605957
4.562410116195679,-0.21076524257659912,-0.31910428404808044,0.7913710474967957,0.02994582988321781,-0.004386968910694122,-0.20351719856262207
4.58246374130249,-0.21114671230316162,-0.3221561014652252,0.7913710474967957,0.02994582988321781,-0.005912871100008488,-0.20428015291690826
4.6025214195251465,-0.21152819693088531,-0.325970858335495,0.7913710474967957,0.03032730519771576,-0.005912871100008488,-0.20542457699775696
4.6226537227630615,-0.212672621011734,-0.33016708493232727,0.7906080484390259,0.03032730519771576,-0.005912871100008488,-0.20733195543289185
4.642764568328857,-0.2141985148191452,-0.33360037207603455,0.7898451089859009,0.03032730519771576,-0.005912871100008488,-0.20885786414146423
4.662789344787598,-0.21648737788200378,-0.3370336592197418,0.7887006998062134,0.030708782374858856,-0.005531395319849253,-0.21152819693088531
4.682969331741333,-0.22030213475227356,-0.3397039771080017,0.7860303521156311,0.03147173300385475,-0.004386968910694122,-0.2157244235277176
4.703110218048096,-0.22564278542995453,-0.3419928252696991,0.7818341255187988,0.032616160809993744,-0.0009536888683214784,-0.21953918039798737
4.723215341567993,-0.2317463904619217,-0.343900203704834,0.7768749594688416,0.034142062067985535,0.0020981156267225742,-0.22602425515651703
4.74327826499939,-0.23785001039505005,-0.3435187339782715,0.7726787328720093,0.034142062067985535,0.0032425422687083483,-0.2313649207353592
4.763388633728027,-0.2439536154270172,-0.3408484160900116,0.769245445728302,0.034142062067985535,0.005149920005351305,-0.23594263195991516
4.783448696136475,-0.248531311750412,-0.33550775051116943,0.7661936283111572,0.034142062067985535,0.00667582219466567,-0.23861294984817505
4.803575038909912,-0.25120165944099426,-0.32978561520576477,0.7646677494049072,0.03490501269698143,0.0078202486038208,-0.24166475236415863
4.82392954826355,-0.25272753834724426,-0.3213931620121002,0.763523280620575,0.03604944050312042,0.008201723918318748,-0.2454795092344284
4.844104528427124,-0.25234606862068176,-0.3118562698364258,0.7612344622612,0.03757534176111221,0.007438773289322853,-0.24967575073242188
4.864141941070557,-0.25234606862068176,-0.30537116527557373,0.7585641145706177,0.039101243019104004,0.008201723918318748,-0.25387197732925415
4.88417649269104,-0.25234606862068176,-0.30003052949905396,0.7574197053909302,0.04100862145423889,0.009346150793135166,-0.2580682039260864
4.904322862625122,-0.25234606862068176,-0.2969787120819092,0.7562752962112427,0.04177157208323479,0.013542382046580315,-0.2607385218143463
4.924354791641235,-0.25234606862068176,-0.2973601818084717,0.7562752962112427,0.04253452271223068,0.018501564860343933,-0.2634088695049286
4.944417715072632,-0.25234606862068176,-0.29926756024360657,0.7562752962112427,0.04329747334122658,0.021553369238972664,-0.2653162479400635
4.964545249938965,-0.25234606862068176,-0.30422675609588623,0.7551308274269104,0.04444190114736557,0.026131074875593185,-0.26760509610176086
4.984591245651245,-0.25234606862068176,-0.308804452419281,0.7524605393409729,0.045204851776361465,0.029182879254221916,-0.27141985297203064
5.004709243774414,-0.25234606862068176,-0.31414511799812317,0.7494087219238281,0.04596780240535736,0.03299763426184654,-0.2756160795688629
5.024787664413452,-0.25501641631126404,-0.31681543588638306,0.7436865568161011,0.04901960864663124,0.03795681521296501,-0.28439003229141235
5.044897794723511,-0.2584496736526489,-0.31605249643325806,0.7368200421333313,0.05054550990462303,0.0394827201962471,-0.291638046503067
5.064907789230347,-0.2603570520877838,-0.3118562698364258,0.7291905283927917,0.05092698708176613,0.0394827201962471,-0.2973601818084717
5.084950923919678,-0.2615014910697937,-0.3068970739841461,0.7242313027381897,0.05207141116261482,0.0398641936480999,-0.30346378684043884
5.1051025390625,-0.2622644305229187,-0.29964902997016907,0.7196536064147949,0.053215838968753815,0.040245670825242996,-0.3084229826927185
5.125158309936523,-0.2622644305229187,-0.28934919834136963,0.7154573798179626,0.054741740226745605,0.040627144277095795,-0.31376364827156067
5.14528489112854,-0.2622644305229187,-0.2801937758922577,0.7120240926742554,0.05703059583902359,0.040627144277095795,-0.31910428404808044
5.165320873260498,-0.2622644305229187,-0.2744716703891754,0.7101167440414429,0.05970092490315437,0.04177157208323479,-0.3233005404472351
5.185466766357422,-0.2622644305229187,-0.27141985297203064,0.7097352743148804,0.06084534898400307,0.043678950518369675,-0.3271152675151825
5.205484867095947,-0.2618829607963562,-0.27218279242515564,0.7101167440414429,0.06160829961299896,0.04634927958250046,-0.33016708493232727
5.225649356842041,-0.2618829607963562,-0.2752346098423004,0.7101167440414429,0.06237125024199486,0.04901960864663124,-0.33131152391433716
5.245650768280029,-0.2618829607963562,-0.2794308364391327,0.7089722752571106,0.06275273114442825,0.05245288833975792,-0.33360037207603455
5.265728235244751,-0.2618829607963562,-0.28782328963279724,0.7074463963508606,0.06275273114442825,0.05436026677489281,-0.33474478125572205
5.285834550857544,-0.2626459002494812,-0.29888609051704407,0.7063019871711731,0.06313420087099075,0.057793546468019485,-0.3374151289463043
5.305885553359985,-0.266460657119751,-0.3076600432395935,0.7063019871711731,0.06466010212898254,0.06389715522527695,-0.3416113555431366
5.326331853866577,-0.2733272314071655,-0.31490805745124817,0.7059205174446106,0.06733043491840363,0.06771191209554672,-0.34695202112197876
5.346521854400635,-0.2798123061656952,-0.32024872303009033,0.7036316394805908,0.06771191209554672,0.0711451917886734,-0.3526741564273834
5.366632461547852,-0.28629741072654724,-0.32024872303009033,0.700579822063446,0.06771191209554672,0.0707637146115303,-0.3576333224773407
5.386621475219727,-0.2920195460319519,-0.31795987486839294,0.6994354128837585,0.06771191209554672,0.07038223743438721,-0.361829549074173
5.40677547454834,-0.2962157726287842,-0.3133821487426758,0.6994354128837585,0.06923781335353851,0.06771191209554672,-0.36488136649131775
5.426868677139282,-0.29850462079048157,-0.3061341345310211,0.7001983523368835,0.07267109304666519,0.06466010212898254,-0.368314653635025
5.446962594985962,-0.29964902997016907,-0.30003052949905396,0.7001983523368835,0.07686731964349747,0.06427863240242004,-0.3725108802318573
5.466989517211914,-0.30003052949905396,-0.2950713336467743,0.7001983523368835,0.07915617525577545,0.06389715522527695,-0.3759441375732422
5.487119913101196,-0.30003052949905396,-0.2931639552116394,0.700579822063446,0.08144503086805344,0.06656748056411743,-0.37937742471694946
5.507207632064819,-0.29964902997016907,-0.2954528033733368,0.700579822063446,0.08335240930318832,0.0711451917886734,-0.38357365131378174
5.527268409729004,-0.29888609051704407,-0.29926756024360657,0.7001983523368835,0.08525978773832321,0.07457847148180008,-0.3873884081840515
5.547304630279541,-0.29888609051704407,-0.3057526648044586,0.699053943157196,0.0864042118191719,0.07991912961006165,-0.3919661343097687
5.567480802536011,-0.29926756024360657,-0.3099488914012909,0.6960021257400513,0.0883115902543068,0.0871671661734581,-0.39921414852142334
5.58748722076416,-0.29964902997016907,-0.3122377395629883,0.691805899143219,0.08983749151229858,0.09403372555971146,-0.4068436622619629
5.607581853866577,-0.29888609051704407,-0.3118562698364258,0.6879911422729492,0.09021896868944168,0.09708552807569504,-0.41371023654937744
5.627601385116577,-0.29926756024360657,-0.3076600432395935,0.6853207945823669,0.09021896868944168,0.09746700525283813,-0.4186694025993347
5.64768385887146,-0.29926756024360657,-0.29964902997016907,0.6841763854026794,0.09212634712457657,0.09822995215654373,-0.422102689743042
5.667809247970581,-0.29926756024360657,-0.28973066806793213,0.6834134459495544,0.09594109654426575,0.09899290651082993,-0.42706188559532166
5.687871217727661,-0.29812315106391907,-0.2798123061656952,0.6834134459495544,0.10051880776882172,0.09822995215654373,-0.43202105164527893
5.7079243659973145,-0.29812315106391907,-0.2725642919540405,0.6837949156761169,0.10509651154279709,0.09861142933368683,-0.4362172782421112
5.728000640869141,-0.29812315106391907,-0.26989394426345825,0.6845578551292419,0.10700388997793198,0.09975585341453552,-0.439269095659256
5.748080253601074,-0.29812315106391907,-0.27141985297203064,0.6857023239135742,0.10929274559020996,0.10166323184967041,-0.44155794382095337
5.768142461776733,-0.29812315106391907,-0.2748531401157379,0.6857023239135742,0.11043716967105865,0.1031891331076622,-0.44232088327407837
5.788236856460571,-0.29812315106391907,-0.2805752754211426,0.6845578551292419,0.11005569249391556,0.10509651154279709,-0.44232088327407837
5.808294296264648,-0.29812315106391907,-0.28744181990623474,0.6822690367698669,0.10814831405878067,0.10624094307422638,-0.44308385252952576
5.828361749649048,-0.29812315106391907,-0.29926756024360657,0.6815060377120972,0.10814831405878067,0.10891126841306686,-0.44499123096466064
5.8485987186431885,-0.30308231711387634,-0.3072785437107086,0.6815060377120972,0.11043716967105865,0.11654078215360641,-0.4484245181083679
5.868775367736816,-0.309567391872406,-0.31528952717781067,0.6815060377120972,0.11196307092905045,0.12111848592758179,-0.4526207447052002
5.888906002044678,-0.31414511799812317,-0.32024872303009033,0.6795986890792847,0.11158160120248795,0.12073700875043869,-0.45643550157546997
5.908893823623657,-0.31910428404808044,-0.3213931620121002,0.6780728101730347,0.11158160120248795,0.12073700875043869,-0.46025025844573975
5.929010629653931,-0.3229190409183502,-0.31795987486839294,0.6776912808418274,0.11234454810619354,0.11692225188016891,-0.46368351578712463
5.9492106437683105,-0.3244449496269226,-0.3110933005809784,0.6773098111152649,0.11348897218704224,0.11387044936418533,-0.4663538634777069
5.969162702560425,-0.3255893886089325,-0.30460822582244873,0.6776912808418274,0.11654078215360641,0.11120012402534485,-0.4701686203479767
5.989229440689087,-0.325970858335495,-0.29964902997016907,0.6780728101730347,0.12073700875043869,0.11005569249391556,-0.4732204079627991
6.00931191444397,-0.325970858335495,-0.2969787120819092,0.6784542798995972,0.12340734153985977,0.11120012402534485,-0.47474631667137146
6.029376983642578,-0.325970858335495,-0.29850462079048157,0.6784542798995972,0.12569619715213776,0.11577782779932022,-0.47665369510650635
6.0494115352630615,-0.3255893886089325,-0.30346378684043884,0.6784542798995972,0.12874799966812134,0.12226291000843048,-0.4797055125236511
6.069462537765503,-0.325970858335495,-0.3091859221458435,0.6776912808418274,0.13065537810325623,0.12645913660526276,-0.4846646785736084
6.089643716812134,-0.325970858335495,-0.3118562698364258,0.6750209927558899,0.1325627565383911,0.1340886503458023,-0.49382010102272034
6.109655380249023,-0.325970858335495,-0.3110933005809784,0.6704432964324951,0.1325627565383911,0.1363775134086609,-0.5014495849609375
6.129720449447632,-0.325970858335495,-0.3076600432395935,0.6658655405044556,0.13218127191066742,0.13981078565120697,-0.5094605684280396
6.149772882461548,-0.325970858335495,-0.30117493867874146,0.6635767221450806,0.1337071806192398,0.14095520973205566,-0.5159456729888916
6.169854164123535,-0.3255893886089325,-0.290875107049942,0.6620507836341858,0.13828489184379578,0.14133669435977936,-0.5224307775497437
6.190102577209473,-0.3236820101737976,-0.28286412358283997,0.6612878441810608,0.14400701224803925,0.14171816408634186,-0.5281528830528259
6.210036993026733,-0.32063019275665283,-0.2782863974571228,0.6620507836341858,0.1493476778268814,0.14095520973205566,-0.5334935784339905
6.23016357421875,-0.31795987486839294,-0.2779049277305603,0.6631952524185181,0.15430685877799988,0.14362554252147675,-0.5376898050308228
6.2502524852752686,-0.31719690561294556,-0.2821011543273926,0.6635767221450806,0.15850308537483215,0.14705882966518402,-0.54112309217453
6.27044415473938,-0.31681543588638306,-0.290112167596817,0.6628137826919556,0.16002899408340454,0.1516365259885788,-0.5437933802604675
6.290423631668091,-0.32063019275665283,-0.2958342730998993,0.6609063744544983,0.16346226632595062,0.15888457000255585,-0.5495155453681946
6.310521841049194,-0.32673379778862,-0.2977416515350342,0.6563286781311035,0.16269932687282562,0.1668955534696579,-0.5579079985618591
6.330596685409546,-0.33093002438545227,-0.2977416515350342,0.649462103843689,0.16155488789081573,0.17109178006649017,-0.5647745728492737
6.351095914840698,-0.33321890234947205,-0.2931639552116394,0.6441214680671692,0.16041046380996704,0.17071031033992767,-0.5708781480789185
6.37125039100647,-0.33474478125572205,-0.28362706303596497,0.6403067111968994,0.16269932687282562,0.1668955534696579,-0.5766003131866455
6.391258478164673,-0.33588922023773193,-0.2759975492954254,0.6383993029594421,0.1676585078239441,0.16308079659938812,-0.5830853581428528
6.411364793777466,-0.33550775051116943,-0.27103838324546814,0.6380178332328796,0.17338064312934875,0.16041046380996704,-0.5888075232505798
6.4314610958099365,-0.33588922023773193,-0.26951247453689575,0.6391623020172119,0.17872129380702972,0.16041046380996704,-0.5922408103942871
6.451540470123291,-0.33550775051116943,-0.27180132269859314,0.6403067111968994,0.1817730963230133,0.16384375095367432,-0.5949110984802246
6.471595287322998,-0.33550775051116943,-0.2771419882774353,0.6399252414703369,0.1844434291124344,0.16994735598564148,-0.5964370369911194
6.491712808609009,-0.33588922023773193,-0.28667888045310974,0.6399252414703369,0.18520638346672058,0.17566949129104614,-0.5991073250770569
6.511752605438232,-0.3400854468345642,-0.291638046503067,0.6380178332328796,0.18520638346672058,0.1836804747581482,-0.6044480204582214
6.531844139099121,-0.3435187339782715,-0.2939268946647644,0.6330586671829224,0.1840619444847107,0.18825818598270416,-0.6113145351409912
6.552032470703125,-0.34542611241340637,-0.290112167596817,0.6284809708595276,0.1810101419687271,0.18940261006355286,-0.6155108213424683
6.5720226764678955,-0.34657052159309387,-0.28400853276252747,0.6250476837158203,0.1817730963230133,0.18787670135498047,-0.620088517665863
6.592162370681763,-0.34618905186653137,-0.2763790488243103,0.6239032745361328,0.18711376190185547,0.1840619444847107,-0.6258106231689453
6.612323045730591,-0.34618905186653137,-0.27141985297203064,0.6231403350830078,0.19436179101467133,0.1832990050315857,-0.6303883194923401
6.632337331771851,-0.34618905186653137,-0.26989394426345825,0.6250476837158203,0.20160982012748718,0.1825360506772995,-0.6349660754203796
6.6524317264556885,-0.34618905186653137,-0.273708701133728,0.6261920928955078,0.20771344006061554,0.18520638346672058,-0.6387808322906494
6.672534942626953,-0.34618905186653137,-0.2821011543273926,0.6261920928955078,0.2138170450925827,0.18978407979011536,-0.6422140598297119
6.692649841308594,-0.34885939955711365,-0.28782328963279724,0.6258106231689453,0.21763180196285248,0.19359883666038513,-0.647173285484314
6.7127344608306885,-0.3530556261539459,-0.28896772861480713,0.6227588057518005,0.2138170450925827,0.1989395022392273,-0.6525139212608337
6.732768535614014,-0.3542000353336334,-0.28744181990623474,0.6166552305221558,0.20847637951374054,0.2004653960466385,-0.6597619652748108
6.752939462661743,-0.3549630045890808,-0.2817196846008301,0.6105515956878662,0.20656901597976685,0.2004653960466385,-0.6647211313247681
6.772953748703003,-0.3542000353336334,-0.273708701133728,0.6067368388175964,0.20923933386802673,0.1997024416923523,-0.6704432964324951
6.793050765991211,-0.3538185656070709,-0.26836803555488586,0.6063553690910339,0.2138170450925827,0.1989395022392273,-0.6761654019355774
6.8130879402160645,-0.3538185656070709,-0.26722362637519836,0.6078813076019287,0.22259098291397095,0.200083926320076,-0.6818875670433044
6.83318018913269,-0.3534370958805084,-0.27103838324546814,0.6097886562347412,0.2302204966545105,0.20351719856262207,-0.6864652633666992
6.853329181671143,-0.3538185656070709,-0.2786678969860077,0.6113145351409912,0.23899443447589874,0.20847637951374054,-0.6914244294166565
6.873360872268677,-0.3557259440422058,-0.28286412358283997,0.6116960644721985,0.24280919134616852,0.21229113638401031,-0.6952391862869263
6.893486499786377,-0.3572518527507782,-0.28286412358283997,0.6086442470550537,0.24166475236415863,0.2153429538011551,-0.699053943157196
6.91352915763855,-0.3576333224773407,-0.2771419882774353,0.6010147333145142,0.23289081454277039,0.2130540907382965,-0.7066834568977356
6.933666706085205,-0.3576333224773407,-0.27218279242515564,0.5945296287536621,0.230601966381073,0.2138170450925827,-0.7146944403648376
6.9536943435668945,-0.3572518527507782,-0.26913100481033325,0.5937666893005371,0.23517967760562897,0.2149614691734314,-0.7192721366882324
6.973783016204834,-0.3564889132976532,-0.26951247453689575,0.5956740379333496,0.2458609938621521,0.21915769577026367,-0.7249943017959595
6.994054794311523,-0.3564889132976532,-0.26760509610176086,0.5968185067176819,0.25387197732925415,0.22259098291397095,-0.7310978770256042
7.014079809188843,-0.3553444743156433,-0.266460657119751,0.5960555672645569,0.2599755823612213,0.22373540699481964,-0.7364385724067688
7.034205436706543,-0.3538185656070709,-0.26722362637519836,0.5930037498474121,0.2634088695049286,0.22564278542995453,-0.7425421476364136
7.054337024688721,-0.3545815348625183,-0.26722362637519836,0.5899519324302673,0.2634088695049286,0.2283131182193756,-0.7486457824707031
7.074428081512451,-0.3557259440422058,-0.2645532786846161,0.5842298269271851,0.2622644305229187,0.2298390120267868,-0.7555122971534729
7.0944647789001465,-0.3557259440422058,-0.2595941126346588,0.5766003131866455,0.2618829607963562,0.2302204966545105,-0.7612344622612
7.114547491073608,-0.3553444743156433,-0.2573052644729614,0.5735484957695007,0.2630273997783661,0.2313649207353592,-0.7665750980377197
7.134624004364014,-0.3557259440422058,-0.2573052644729614,0.5735484957695007,0.27027541399002075,0.23594263195991516,-0.7722972631454468
7.154768943786621,-0.3557259440422058,-0.25654229521751404,0.5746929049491882,0.2794308364391327,0.23823148012161255,-0.7768749594688416
7.174827575683594,-0.3564889132976532,-0.25539788603782654,0.5746929049491882,0.28362706303596497,0.23861294984817505,-0.7806897163391113
7.195036888122559,-0.3568703830242157,-0.25310903787612915,0.5724040865898132,0.28515297174453735,0.23899443447589874,-0.7864118218421936
7.215053558349609,-0.3568703830242157,-0.25501641631126404,0.568970799446106,0.28629741072654724,0.24090181291103363,-0.7921339869499207
7.235193967819214,-0.3603036403656006,-0.2595941126346588,0.5678263306617737,0.28744181990623474,0.2462424635887146,-0.7974746227264404
7.255279302597046,-0.36449989676475525,-0.2569237947463989,0.5659189820289612,0.28782328963279724,0.25234606862068176,-0.8012893795967102
7.275322198867798,-0.36335545778274536,-0.25196459889411926,0.5605783462524414,0.28629741072654724,0.24967575073242188,-0.8054856061935425
7.295406103134155,-0.3622110188007355,-0.2470054179430008,0.5544747114181519,0.28591591119766235,0.2466239482164383,-0.8104447722434998
7.315468072891235,-0.361829549074173,-0.25120165944099426,0.5552376508712769,0.2924010157585144,0.248531311750412,-0.8165484070777893
7.335530519485474,-0.36449989676475525,-0.25349050760269165,0.5598153471946716,0.29926756024360657,0.25425344705581665,-0.8180742859840393
7.355599880218506,-0.36526283621788025,-0.25196459889411926,0.5601968169212341,0.30460822582244873,0.25616082549095154,-0.8211261034011841
7.375678777694702,-0.36449989676475525,-0.25158312916755676,0.5575265288352966,0.3061341345310211,0.25349050760269165,-0.8268482685089111
7.395821571350098,-0.36793315410614014,-0.24967575073242188,0.5548561811447144,0.30346378684043884,0.25425344705581665,-0.8299000263214111
7.416195869445801,-0.3686961233615875,-0.24967575073242188,0.5514228940010071,0.30460822582244873,0.2569237947463989,-0.8360036611557007
7.436268091201782,-0.36793315410614014,-0.2500572204589844,0.5495155453681946,0.3065156042575836,0.2588311731815338,-0.8405813574790955
7.456346035003662,-0.368314653635025,-0.2470054179430008,0.5479896068572998,0.3076600432395935,0.2576867341995239,-0.8413442969322205
7.476404666900635,-0.3694590628147125,-0.2439536154270172,0.5453193187713623,0.308041512966156,0.2573052644729614,-0.8440146446228027
7.496495723724365,-0.3702220320701599,-0.24090181291103363,0.5430304408073425,0.3107118308544159,0.2588311731815338,-0.8504997491836548
7.5165300369262695,-0.3702220320701599,-0.2458609938621521,0.543411910533905,0.31643396615982056,0.2626459002494812,-0.8535515666007996
7.5366127490997314,-0.3713664412498474,-0.247768372297287,0.5460822582244873,0.32024872303009033,0.265697717666626,-0.8554589152336121
7.556706190109253,-0.3725108802318573,-0.2466239482164383,0.5460822582244873,0.3225375711917877,0.26722362637519836,-0.8581292629241943
7.576791524887085,-0.3717479109764099,-0.2443350851535797,0.5415045619010925,0.32024872303009033,0.2641718089580536,-0.8611810207366943
7.596850395202637,-0.3717479109764099,-0.2447165697813034,0.5384527444839478,0.31910428404808044,0.2618829607963562,-0.8646143078804016
7.616981267929077,-0.3736552894115448,-0.2466239482164383,0.5392156839370728,0.31986725330352783,0.26684215664863586,-0.8684290647506714
7.63703465461731,-0.3744182586669922,-0.2458609938621521,0.5392156839370728,0.3255893886089325,0.26989394426345825,-0.8722438216209412
7.657075881958008,-0.3744182586669922,-0.24242770671844482,0.5384527444839478,0.3263523280620575,0.265697717666626,-0.8726252913475037
7.677187204360962,-0.3744182586669922,-0.23899443447589874,0.535400927066803,0.3263523280620575,0.2626459002494812,-0.8768215179443359
7.697275161743164,-0.3747997283935547,-0.24242770671844482,0.5342565178871155,0.3274967670440674,0.2645532786846161,-0.8802548050880432
7.717333078384399,-0.3759441375732422,-0.2458609938621521,0.5373083353042603,0.33016708493232727,0.26836803555488586,-0.884069561958313
7.7373809814453125,-0.3763256371021271,-0.2462424635887146,0.536926805973053,0.33245593309402466,0.27218279242515564,-0.8855955004692078
7.757526636123657,-0.3763256371021271,-0.24013885855674744,0.533875048160553,0.33207446336746216,0.26874953508377075,-0.8867399096488953
7.777583837509155,-0.3763256371021271,-0.23785001039505005,0.5292973518371582,0.32978561520576477,0.2660791873931885,-0.890554666519165
7.797656536102295,-0.3763256371021271,-0.24204623699188232,0.5285343527793884,0.33093002438545227,0.26874953508377075,-0.8955138325691223
7.817717790603638,-0.3763256371021271,-0.24319066107273102,0.5315861701965332,0.33398184180259705,0.27103838324546814,-0.8951323628425598
7.837797164916992,-0.3767071068286896,-0.24204623699188232,0.5319676399230957,0.3370336592197418,0.27065691351890564,-0.8958953022956848
7.85785984992981,-0.3774700462818146,-0.24013885855674744,0.5312047004699707,0.3370336592197418,0.266460657119751,-0.8962767720222473
7.878067970275879,-0.3778515160083771,-0.24013885855674744,0.5285343527793884,0.33588922023773193,0.265697717666626,-0.9008545279502869
7.898113250732422,-0.37975889444351196,-0.2443350851535797,0.5292973518371582,0.3377965986728668,0.27027541399002075,-0.9058136940002441
7.918183088302612,-0.38052186369895935,-0.2439536154270172,0.5308232307434082,0.3397039771080017,0.273708701133728,-0.9061951637268066
7.938321352005005,-0.38014039397239685,-0.24204623699188232,0.5277714133262634,0.3408484160900116,0.27218279242515564,-0.9073395729064941
7.9583704471588135,-0.37937742471694946,-0.24128328263759613,0.5262455344200134,0.3389410376548767,0.26989394426345825,-0.9092469811439514
7.978438854217529,-0.37937742471694946,-0.24128328263759613,0.5254825949668884,0.3393225073814392,0.27180132269859314,-0.9130617380142212
7.998501539230347,-0.37937742471694946,-0.24204623699188232,0.5258640646934509,0.3423742949962616,0.2767605185508728,-0.916113555431366
8.019019842147827,-0.37899595499038696,-0.24128328263759613,0.5254825949668884,0.34504464268684387,0.2759975492954254,-0.9164950251579285
8.039111375808716,-0.37861448526382446,-0.23899443447589874,0.5247195959091187,0.344663143157959,0.2733272314071655,-0.9164950251579285
8.059192180633545,-0.37861448526382446,-0.23975738883018494,0.5231937170028687,0.34504464268684387,0.2748531401157379,-0.9180209040641785
8.07923674583435,-0.37861448526382446,-0.24013885855674744,0.5235751867294312,0.34542611241340637,0.2756160795688629,-0.919165313243866
8.099312782287598,-0.37823301553726196,-0.24013885855674744,0.5235751867294312,0.34847790002822876,0.2767605185508728,-0.9210727214813232
8.11944055557251,-0.37861448526382446,-0.24013885855674744,0.5231937170028687,0.34847790002822876,0.2756160795688629,-0.9222171306610107
8.139591693878174,-0.37899595499038696,-0.24013885855674744,0.5212863087654114,0.34847790002822876,0.2740901708602905,-0.9245060086250305
8.159667730331421,-0.37937742471694946,-0.24013885855674744,0.5205233693122864,0.34847790002822876,0.2740901708602905,-0.9252689480781555
8.179765462875366,-0.37937742471694946,-0.24013885855674744,0.5201418995857239,0.34885939955711365,0.2748531401157379,-0.9275577664375305
8.199941396713257,-0.37937742471694946,-0.24013885855674744,0.5201418995857239,0.34847790002822876,0.2748531401157379,-0.9290837049484253
8.219990968704224,-0.37937742471694946,-0.24013885855674744,0.5193789601325989,0.34924086928367615,0.2748531401157379,-0.9306095838546753
8.240052700042725,-0.37937742471694946,-0.24013885855674744,0.5189974904060364,0.35038527846336365,0.2763790488243103,-0.9325169920921326
8.260125637054443,-0.37937742471694946,-0.23975738883018494,0.5182345509529114,0.35191118717193604,0.2782863974571228,-0.9332799315452576
8.28014850616455,-0.37937742471694946,-0.23899443447589874,0.5170900821685791,0.35191118717193604,0.2782863974571228,-0.9351872801780701
8.300462245941162,-0.37937742471694946,-0.23899443447589874,0.5170900821685791,0.35191118717193604,0.2782863974571228,-0.9359502792358398
8.320599555969238,-0.37937742471694946,-0.23899443447589874,0.5167086124420166,0.35229265689849854,0.2786678969860077,-0.9367132186889648
8.340671062469482,-0.37937742471694946,-0.23899443447589874,0.5163271427154541,0.3538185656070709,0.2794308364391327,-0.9386205673217773
8.36071252822876,-0.37937742471694946,-0.23899443447589874,0.5163271427154541,0.3545815348625183,0.2790493667125702,-0.9397650361061096
8.380794525146484,-0.37937742471694946,-0.23899443447589874,0.5163271427154541,0.3557259440422058,0.2786678969860077,-0.9405279755592346
8.400904178619385,-0.37937742471694946,-0.23899443447589874,0.5163271427154541,0.3564889132976532,0.2790493667125702,-0.9412909150123596
8.421060800552368,-0.37937742471694946,-0.23899443447589874,0.5159456729888916,0.3568703830242157,0.2790493667125702,-0.9428167939186096
8.441048860549927,-0.37975889444351196,-0.23899443447589874,0.5155642032623291,0.3568703830242157,0.2790493667125702,-0.9435797929763794
8.461145639419556,-0.37975889444351196,-0.23937590420246124,0.5155642032623291,0.3572518527507782,0.2794308364391327,-0.9439612627029419
8.481247425079346,-0.38014039397239685,-0.23937590420246124,0.5151827335357666,0.3572518527507782,0.2798123061656952,-0.9447242021560669
8.501267194747925,-0.38052186369895935,-0.23937590420246124,0.5151827335357666,0.3580147922039032,0.2801937758922577,-0.9466315507888794
8.521331071853638,-0.38052186369895935,-0.24052032828330994,0.5148012638092041,0.3591592311859131,0.2805752754211426,-0.9477760195732117
8.541442155838013,-0.38052186369895935,-0.24052032828330994,0.5151827335357666,0.3599221706390381,0.2805752754211426,-0.9489204287528992
8.561482906341553,-0.38090333342552185,-0.24052032828330994,0.5140383243560791,0.3599221706390381,0.2801937758922577,-0.9508277773857117
8.581552505493164,-0.38128480315208435,-0.24052032828330994,0.5136567950248718,0.3603036403656006,0.2801937758922577,-0.9515907764434814
8.601815223693848,-0.38128480315208435,-0.24052032828330994,0.5132753252983093,0.3603036403656006,0.2809567451477051,-0.9523537158966064
8.622020483016968,-0.38128480315208435,-0.24052032828330994,0.5132753252983093,0.3603036403656006,0.2809567451477051,-0.954261064529419
8.642019748687744,-0.38128480315208435,-0.24052032828330994,0.5132753252983093,0.3606851398944855,0.2813382148742676,-0.9546425342559814
8.662176132202148,-0.38128480315208435,-0.24052032828330994,0.5132753252983093,0.361066609621048,0.2813382148742676,-0.955024003982544
8.68224549293518,-0.38128480315208435,-0.24052032828330994,0.5132753252983093,0.36259251832962036,0.2813382148742676,-0.9554055333137512
8.702293395996094,-0.38128480315208435,-0.24052032828330994,0.5132753252983093,0.36411839723587036,0.2813382148742676,-0.9561684727668762
8.722357749938965,-0.38128480315208435,-0.24090181291103363,0.5132753252983093,0.36526283621788025,0.2813382148742676,-0.9576943516731262
8.742410898208618,-0.38128480315208435,-0.24166475236415863,0.5132753252983093,0.36564430594444275,0.2813382148742676,-0.9584572911262512
8.762616634368896,-0.38128480315208435,-0.24166475236415863,0.5132753252983093,0.36602577567100525,0.2813382148742676,-0.959220290184021
8.782716989517212,-0.38128480315208435,-0.24166475236415863,0.5128938555717468,0.36564430594444275,0.2813382148742676,-0.9596017599105835
8.802800178527832,-0.38128480315208435,-0.24166475236415863,0.5121309161186218,0.36564430594444275,0.2813382148742676,-0.9618905782699585
8.82289433479309,-0.38128480315208435,-0.24166475236415863,0.5109865069389343,0.36640727519989014,0.2817196846008301,-0.9618905782699585
8.842978715896606,-0.38128480315208435,-0.24128328263759613,0.5109865069389343,0.36640727519989014,0.2813382148742676,-0.962272047996521
8.86308765411377,-0.38128480315208435,-0.24128328263759613,0.5109865069389343,0.36602577567100525,0.2813382148742676,-0.962272047996521
8.883132457733154,-0.38128480315208435,-0.24128328263759613,0.5106050372123718,0.36640727519989014,0.2813382148742676,-0.9626535177230835
8.903292179107666,-0.38128480315208435,-0.24128328263759613,0.5106050372123718,0.36640727519989014,0.2817196846008301,-0.9630350470542908
8.923397541046143,-0.38128480315208435,-0.24128328263759613,0.5106050372123718,0.36678874492645264,0.2817196846008301,-0.9641794562339783
8.943499326705933,-0.38128480315208435,-0.24128328263759613,0.5109865069389343,0.36717021465301514,0.2821011543273926,-0.9653238654136658
8.963549613952637,-0.38128480315208435,-0.24128328263759613,0.5106050372123718,0.36678874492645264,0.2821011543273926,-0.9653238654136658
8.983606338500977,-0.38128480315208435,-0.24128328263759613,0.5106050372123718,0.36678874492645264,0.2821011543273926,-0.9657053351402283
9.003681182861328,-0.38128480315208435,-0.24128328263759613,0.5102235674858093,0.36678874492645264,0.28248265385627747,-0.9657053351402283
9.02374792098999,-0.38128480315208435,-0.24128328263759613,0.5102235674858093,0.36678874492645264,0.28248265385627747,-0.9660868048667908
9.043799877166748,-0.38128480315208435,-0.24128328263759613,0.5102235674858093,0.36678874492645264,0.28248265385627747,-0.9660868048667908
9.063905239105225,-0.38128480315208435,-0.24128328263759613,0.5102235674858093,0.36717021465301514,0.28286412358283997,-0.9664682745933533
9.083980321884155,-0.38128480315208435,-0.24128328263759613,0.5102235674858093,0.36717021465301514,0.28286412358283997,-0.9668498039245605
9.104012489318848,-0.38128480315208435,-0.24128328263759613,0.5102235674858093,0.36717021465301514,0.28286412358283997,-0.967231273651123
9.124079704284668,-0.38128480315208435,-0.24128328263759613,0.5102235674858093,0.36755168437957764,0.28324559330940247,-0.967994213104248
9.144179344177246,-0.38128480315208435,-0.24128328263759613,0.5102235674858093,0.36755168437957764,0.28324559330940247,-0.968757152557373
9.164310455322266,-0.38128480315208435,-0.24128328263759613,0.5102235674858093,0.36755168437957764,0.28324559330940247,-0.968757152557373
9.184321641921997,-0.38128480315208435,-0.24166475236415863,0.5102235674858093,0.36755168437957764,0.28362706303596497,-0.9691386222839355
9.204391717910767,-0.38128480315208435,-0.24242770671844482,0.5102235674858093,0.36755168437957764,0.28362706303596497,-0.9691386222839355
9.224493503570557,-0.38128480315208435,-0.24242770671844482,0.5102235674858093,0.36793315410614014,0.28400853276252747,-0.9691386222839355
9.244595050811768,-0.38128480315208435,-0.24242770671844482,0.5102235674858093,0.36793315410614014,0.28400853276252747,-0.969520092010498
9.2645902633667,-0.38128480315208435,-0.24242770671844482,0.5102235674858093,0.36755168437957764,0.28400853276252747,-0.969520092010498
9.284703731536865,-0.38128480315208435,-0.24242770671844482,0.5102235674858093,0.36793315410614014,0.28400853276252747,-0.969520092010498
9.304794788360596,-0.38128480315208435,-0.24242770671844482,0.5102235674858093,0.36793315410614014,0.28400853276252747,-0.9699015617370605
9.324971914291382,-0.38128480315208435,-0.24242770671844482,0.5102235674858093,0.368314653635025,0.28400853276252747,-0.9699015617370605
9.345036745071411,-0.38128480315208435,-0.24242770671844482,0.5102235674858093,0.368314653635025,0.28439003229141235,-0.9699015617370605
9.365057706832886,-0.38128480315208435,-0.24242770671844482,0.5102235674858093,0.3686961233615875,0.28439003229141235,-0.970283031463623
9.385156154632568,-0.38128480315208435,-0.24242770671844482,0.5102235674858093,0.368314653635025,0.28439003229141235,-0.970283031463623
9.405272722244263,-0.38128480315208435,-0.24242770671844482,0.5102235674858093,0.3686961233615875,0.28439003229141235,-0.9710460305213928
9.42533802986145,-0.38128480315208435,-0.24242770671844482,0.5102235674858093,0.3686961233615875,0.28439003229141235,-0.9710460305213928
9.44544005393982,-0.38128480315208435,-0.24242770671844482,0.5102235674858093,0.36907759308815,0.28439003229141235,-0.9721904397010803
9.46557331085205,-0.38128480315208435,-0.24242770671844482,0.5102235674858093,0.36907759308815,0.28477150201797485,-0.9729533791542053
9.485674619674683,-0.38128480315208435,-0.24242770671844482,0.5102235674858093,0.3694590628147125,0.28477150201797485,-0.9729533791542053
9.505735397338867,-0.38128480315208435,-0.24242770671844482,0.5102235674858093,0.3694590628147125,0.28477150201797485,-0.9729533791542053
9.52585244178772,-0.38128480315208435,-0.24242770671844482,0.5102235674858093,0.369840532541275,0.28477150201797485,-0.9729533791542053
9.545931339263916,-0.38128480315208435,-0.24242770671844482,0.5102235674858093,0.369840532541275,0.28477150201797485,-0.9729533791542053
9.566007852554321,-0.38128480315208435,-0.24242770671844482,0.5102235674858093,0.369840532541275,0.28477150201797485,-0.9733348488807678
9.58619236946106,-0.38128480315208435,-0.24242770671844482,0.5102235674858093,0.369840532541275,0.28477150201797485,-0.9733348488807678
9.606308460235596,-0.38128480315208435,-0.24242770671844482,0.5102235674858093,0.3702220320701599,0.28477150201797485,-0.9733348488807678
9.626358985900879,-0.38128480315208435,-0.24242770671844482,0.5102235674858093,0.3706035017967224,0.28477150201797485,-0.9733348488807678
9.64643406867981,-0.38128480315208435,-0.24242770671844482,0.5102235674858093,0.3706035017967224,0.28477150201797485,-0.9737163186073303
9.666497468948364,-0.38128480315208435,-0.24280919134616852,0.5102235674858093,0.3706035017967224,0.28477150201797485,-0.9737163186073303
9.68662142753601,-0.38128480315208435,-0.24357213079929352,0.5102235674858093,0.3706035017967224,0.28515297174453735,-0.9737163186073303
9.706770896911621,-0.38128480315208435,-0.2439536154270172,0.5102235674858093,0.3706035017967224,0.28515297174453735,-0.9740977883338928
9.726735591888428,-0.38128480315208435,-0.24357213079929352,0.5102235674858093,0.3702220320701599,0.28515297174453735,-0.9740977883338928
9.746832609176636,-0.38128480315208435,-0.24357213079929352,0.5102235674858093,0.3702220320701599,0.28477150201797485,-0.9740977883338928
9.766900300979614,-0.38128480315208435,-0.24357213079929352,0.5102235674858093,0.3702220320701599,0.28515297174453735,-0.9744792580604553
9.786967277526855,-0.38128480315208435,-0.24357213079929352,0.5102235674858093,0.3706035017967224,0.28515297174453735,-0.9748607873916626
9.807033061981201,-0.38128480315208435,-0.24319066107273102,0.5102235674858093,0.3709849715232849,0.28515297174453735,-0.9752422571182251
9.82722783088684,-0.38128480315208435,-0.24319066107273102,0.5102235674858093,0.3709849715232849,0.28515297174453735,-0.9756237268447876
9.847215175628662,-0.38128480315208435,-0.24357213079929352,0.5102235674858093,0.3706035017967224,0.28515297174453735,-0.9763866662979126
9.867280960083008,-0.38128480315208435,-0.24357213079929352,0.5098420977592468,0.3709849715232849,0.28515297174453735,-0.9763866662979126
9.887447357177734,-0.38128480315208435,-0.24357213079929352,0.5102235674858093,0.3706035017967224,0.28515297174453735,-0.9763866662979126
9.907534837722778,-0.38128480315208435,-0.24357213079929352,0.5098420977592468,0.3706035017967224,0.28515297174453735,-0.9763866662979126
9.927603006362915,-0.38128480315208435,-0.24357213079929352,0.5102235674858093,0.3709849715232849,0.28515297174453735,-0.9763866662979126
9.9476478099823,-0.38128480315208435,-0.24357213079929352,0.5102235674858093,0.3713664412498474,0.28515297174453735,-0.9763866662979126
9.96773648262024,-0.38128480315208435,-0.24357213079929352,0.5098420977592468,0.3713664412498474,0.28515297174453735,-0.9763866662979126
9.987823009490967,-0.38128480315208435,-0.24319066107273102,0.5098420977592468,0.3709849715232849,0.28515297174453735,-0.9763866662979126
10.008050203323364,-0.38128480315208435,-0.24319066107273102,0.5098420977592468,0.3709849715232849,0.28515297174453735,-0.9763866662979126
10.028013467788696,-0.38128480315208435,-0.24319066107273102,0.5098420977592468,0.3709849715232849,0.28515297174453735,-0.9763866662979126
10.048096656799316,-0.38128480315208435,-0.24319066107273102,0.5098420977592468,0.3709849715232849,0.28515297174453735,-0.9763866662979126
10.068160772323608,-0.38128480315208435,-0.24319066107273102,0.5098420977592468,0.3709849715232849,0.28515297174453735,-0.9763866662979126
10.088223457336426,-0.38128480315208435,-0.24319066107273102,0.5098420977592468,0.3713664412498474,0.28515297174453735,-0.9763866662979126
10.108298540115356,-0.38128480315208435,-0.24319066107273102,0.5098420977592468,0.3709849715232849,0.28515297174453735,-0.9767681360244751
10.128489255905151,-0.38128480315208435,-0.24319066107273102,0.5098420977592468,0.3709849715232849,0.28515297174453735,-0.9767681360244751
10.148476123809814,-0.38128480315208435,-0.24357213079929352,0.5098420977592468,0.3709849715232849,0.28515297174453735,-0.9767681360244751
10.168526411056519,-0.38128480315208435,-0.24319066107273102,0.5098420977592468,0.3709849715232849,0.28515297174453735,-0.9767681360244751
10.18862795829773,-0.38128480315208435,-0.24357213079929352,0.5098420977592468,0.3709849715232849,0.28515297174453735,-0.9767681360244751
10.208703517913818,-0.38128480315208435,-0.24357213079929352,0.5098420977592468,0.3713664412498474,0.28515297174453735,-0.9767681360244751
10.228901863098145,-0.38128480315208435,-0.24319066107273102,0.5098420977592468,0.3713664412498474,0.28515297174453735,-0.9767681360244751
10.24889349937439,-0.38128480315208435,-0.24357213079929352,0.5098420977592468,0.3709849715232849,0.28553444147109985,-0.9767681360244751
10.2689688205719,-0.38128480315208435,-0.24357213079929352,0.5098420977592468,0.3709849715232849,0.28515297174453735,-0.9767681360244751
10.289036750793457,-0.38128480315208435,-0.24357213079929352,0.5098420977592468,0.3709849715232849,0.28553444147109985,-0.9767681360244751
10.309096336364746,-0.38128480315208435,-0.24357213079929352,0.5098420977592468,0.3709849715232849,0.28553444147109985,-0.9767681360244751
10.32914662361145,-0.38128480315208435,-0.24357213079929352,0.5098420977592468,0.3713664412498474,0.28553444147109985,-0.9767681360244751
10.349229574203491,-0.38128480315208435,-0.24357213079929352,0.5098420977592468,0.3713664412498474,0.28553444147109985,-0.9767681360244751
10.36929965019226,-0.38128480315208435,-0.24357213079929352,0.5098420977592468,0.3713664412498474,0.28553444147109985,-0.9767681360244751
10.389442682266235,-0.38128480315208435,-0.24357213079929352,0.5098420977592468,0.3713664412498474,0.28553444147109985,-0.9767681360244751
10.409629344940186,-0.38128480315208435,-0.24357213079929352,0.5098420977592468,0.3713664412498474,0.28553444147109985,-0.9771496057510376
10.429720640182495,-0.38166627287864685,-0.24357213079929352,0.5098420977592468,0.3713664412498474,0.28553444147109985,-0.9771496057510376
10.449857473373413,-0.38166627287864685,-0.24357213079929352,0.5098420977592468,0.3713664412498474,0.28553444147109985,-0.9771496057510376
10.469923257827759,-0.38166627287864685,-0.24357213079929352,0.5098420977592468,0.3713664412498474,0.28553444147109985,-0.9771496057510376
10.490296125411987,-0.38128480315208435,-0.24357213079929352,0.5098420977592468,0.3713664412498474,0.28553444147109985,-0.9771496057510376
10.510366678237915,-0.38128480315208435,-0.24357213079929352,0.5098420977592468,0.3713664412498474,0.28591591119766235,-0.9771496057510376
10.530484437942505,-0.38166627287864685,-0.24357213079929352,0.5098420977592468,0.3713664412498474,0.28553444147109985,-0.9771496057510376
10.550503253936768,-0.38166627287864685,-0.24357213079929352,0.5094605684280396,0.3713664412498474,0.28591591119766235,-0.9771496057510376
10.570613622665405,-0.38166627287864685,-0.24357213079929352,0.5094605684280396,0.3713664412498474,0.28553444147109985,-0.9771496057510376
10.590696334838867,-0.38166627287864685,-0.24357213079929352,0.5094605684280396,0.3713664412498474,0.28591591119766235,-0.9771496057510376
10.610807418823242,-0.38166627287864685,-0.24357213079929352,0.5094605684280396,0.3713664412498474,0.28591591119766235,-0.9771496057510376
10.630868911743164,-0.38166627287864685,-0.24357213079929352,0.5094605684280396,0.3713664412498474,0.28591591119766235,-0.9775310754776001
10.651009559631348,-0.38166627287864685,-0.24357213079929352,0.5094605684280396,0.3717479109764099,0.28591591119766235,-0.9775310754776001
10.671118021011353,-0.38166627287864685,-0.24357213079929352,0.5094605684280396,0.3713664412498474,0.28591591119766235,-0.9775310754776001
10.691129684448242,-0.38166627287864685,-0.24357213079929352,0.5094605684280396,0.3717479109764099,0.28591591119766235,-0.9775310754776001
10.711241483688354,-0.38166627287864685,-0.24357213079929352,0.5094605684280396,0.3717479109764099,0.28591591119766235,-0.9775310754776001
10.731324672698975,-0.38166627287864685,-0.24357213079929352,0.5094605684280396,0.3717479109764099,0.28591591119766235,-0.9775310754776001
10.751547574996948,-0.38166627287864685,-0.24357213079929352,0.5094605684280396,0.3717479109764099,0.28591591119766235,-0.9775310754776001
10.771528244018555,-0.38166627287864685,-0.24357213079929352,0.5094605684280396,0.3717479109764099,0.28591591119766235,-0.9775310754776001
10.791733503341675,-0.38166627287864685,-0.24357213079929352,0.5094605684280396,0.3717479109764099,0.28591591119766235,-0.9775310754776001
10.811809301376343,-0.38166627287864685,-0.24357213079929352,0.5094605684280396,0.3717479109764099,0.28591591119766235,-0.9779125452041626
10.831877946853638,-0.38166627287864685,-0.24357213079929352,0.5094605684280396,0.3717479109764099,0.28591591119766235,-0.9775310754776001
10.851933717727661,-0.38166627287864685,-0.24357213079929352,0.5094605684280396,0.3717479109764099,0.28591591119766235,-0.9779125452041626
10.872088193893433,-0.38166627287864685,-0.24357213079929352,0.5094605684280396,0.3717479109764099,0.28591591119766235,-0.9779125452041626
10.89212155342102,-0.38166627287864685,-0.24357213079929352,0.5094605684280396,0.3717479109764099,0.28591591119766235,-0.9779125452041626
10.912266731262207,-0.38204777240753174,-0.24357213079929352,0.5094605684280396,0.3717479109764099,0.28591591119766235,-0.9779125452041626
10.93233036994934,-0.38204777240753174,-0.24357213079929352,0.5094605684280396,0.3717479109764099,0.28629741072654724,-0.9779125452041626
10.952402353286743,-0.38281071186065674,-0.24357213079929352,0.5094605684280396,0.3717479109764099,0.28667888045310974,-0.9779125452041626
10.972476243972778,-0.38242924213409424,-0.24357213079929352,0.5094605684280396,0.3717479109764099,0.28667888045310974,-0.9782940149307251
10.99252200126648,-0.38242924213409424,-0.24357213079929352,0.5094605684280396,0.3717479109764099,0.28667888045310974,-0.9786755442619324
11.012571573257446,-0.38242924213409424,-0.24357213079929352,0.5094605684280396,0.3717479109764099,0.28667888045310974,-0.9786755442619324
11.032727479934692,-0.38242924213409424,-0.24357213079929352,0.5094605684280396,0.3717479109764099,0.28667888045310974,-0.9794384837150574
11.052732706069946,-0.38242924213409424,-0.24357213079929352,0.509079098701477,0.3717479109764099,0.28667888045310974,-0.9798199534416199
11.072961568832397,-0.38242924213409424,-0.24357213079929352,0.509079098701477,0.3717479109764099,0.28667888045310974,-0.9798199534416199
11.092929601669312,-0.38242924213409424,-0.24357213079929352,0.509079098701477,0.3717479109764099,0.28706035017967224,-0.9798199534416199
11.113080024719238,-0.38242924213409424,-0.24357213079929352,0.509079098701477,0.3717479109764099,0.28706035017967224,-0.9798199534416199
11.13312816619873,-0.38242924213409424,-0.24357213079929352,0.509079098701477,0.3721294105052948,0.28667888045310974,-0.9798199534416199
11.1531662940979,-0.38242924213409424,-0.24357213079929352,0.509079098701477,0.3721294105052948,0.28667888045310974,-0.9798199534416199
11.173212051391602,-0.38242924213409424,-0.24357213079929352,0.509079098701477,0.3721294105052948,0.28667888045310974,-0.9798199534416199
11.19335389137268,-0.38242924213409424,-0.24357213079929352,0.509079098701477,0.3721294105052948,0.28706035017967224,-0.9798199534416199
11.213383436203003,-0.38242924213409424,-0.24357213079929352,0.509079098701477,0.3721294105052948,0.28667888045310974,-0.9798199534416199
11.23348355293274,-0.38242924213409424,-0.24357213079929352,0.509079098701477,0.3721294105052948,0.28706035017967224,-0.9798199534416199
11.253829002380371,-0.38242924213409424,-0.24357213079929352,0.509079098701477,0.3721294105052948,0.28706035017967224,-0.9798199534416199
11.274036169052124,-0.38242924213409424,-0.24357213079929352,0.509079098701477,0.3721294105052948,0.28706035017967224,-0.9798199534416199
11.294048309326172,-0.38242924213409424,-0.24357213079929352,0.509079098701477,0.3721294105052948,0.28706035017967224,-0.9798199534416199
11.314257144927979,-0.38242924213409424,-0.24357213079929352,0.509079098701477,0.3725108802318573,0.28667888045310974,-0.9798199534416199
11.33433198928833,-0.38242924213409424,-0.24357213079929352,0.509079098701477,0.3721294105052948,0.28667888045310974,-0.9798199534416199
11.354448318481445,-0.38242924213409424,-0.24357213079929352,0.509079098701477,0.3721294105052948,0.28667888045310974,-0.9798199534416199
11.374539375305176,-0.38242924213409424,-0.24357213079929352,0.509079098701477,0.3721294105052948,0.28706035017967224,-0.9798199534416199
11.394662141799927,-0.38242924213409424,-0.24357213079929352,0.509079098701477,0.3725108802318573,0.28706035017967224,-0.9798199534416199
11.4146568775177,-0.38242924213409424,-0.24357213079929352,0.509079098701477,0.3725108802318573,0.28667888045310974,-0.9798199534416199
11.43472146987915,-0.38242924213409424,-0.24357213079929352,0.509079098701477,0.3725108802318573,0.28667888045310974,-0.9798199534416199
11.454807043075562,-0.38242924213409424,-0.24357213079929352,0.509079098701477,0.3725108802318573,0.28667888045310974,-0.9798199534416199
11.474897861480713,-0.38242924213409424,-0.24357213079929352,0.509079098701477,0.3721294105052948,0.28667888045310974,-0.9798199534416199
11.494951725006104,-0.38242924213409424,-0.24357213079929352,0.509079098701477,0.3721294105052948,0.28706035017967224,-0.9798199534416199
11.515021800994873,-0.38242924213409424,-0.24357213079929352,0.509079098701477,0.3721294105052948,0.28667888045310974,-0.9798199534416199
11.535112380981445,-0.38242924213409424,-0.24357213079929352,0.509079098701477,0.3721294105052948,0.28667888045310974,-0.9798199534416199
11.555160284042358,-0.38242924213409424,-0.24357213079929352,0.509079098701477,0.3721294105052948,0.28667888045310974,-0.9798199534416199
11.575252771377563,-0.38242924213409424,-0.24357213079929352,0.509079098701477,0.3721294105052948,0.28667888045310974,-0.9798199534416199
11.595398187637329,-0.38242924213409424,-0.24357213079929352,0.509079098701477,0.3721294105052948,0.28706035017967224,-0.9798199534416199
11.615506649017334,-0.38242924213409424,-0.2447165697813034,0.509079098701477,0.3721294105052948,0.28706035017967224,-0.9798199534416199
11.635519027709961,-0.38242924213409424,-0.2443350851535797,0.5094605684280396,0.3721294105052948,0.28706035017967224,-0.9798199534416199
11.655579566955566,-0.38242924213409424,-0.2443350851535797,0.5094605684280396,0.3721294105052948,0.28706035017967224,-0.9798199534416199
11.675657033920288,-0.38242924213409424,-0.2443350851535797,0.509079098701477,0.3721294105052948,0.28667888045310974,-0.9798199534416199
11.69570016860962,-0.38242924213409424,-0.2443350851535797,0.509079098701477,0.3721294105052948,0.28629741072654724,-0.9798199534416199
11.715797662734985,-0.38242924213409424,-0.2443350851535797,0.509079098701477,0.3721294105052948,0.28667888045310974,-0.9802014231681824
11.735934257507324,-0.38204777240753174,-0.2443350851535797,0.509079098701477,0.3721294105052948,0.28667888045310974,-0.9802014231681824
11.755998134613037,-0.38090333342552185,-0.2443350851535797,0.509079098701477,0.3721294105052948,0.28667888045310974,-0.9802014231681824
11.776082038879395,-0.38128480315208435,-0.2443350851535797,0.509079098701477,0.3721294105052948,0.28667888045310974,-0.9802014231681824
11.796130418777466,-0.38128480315208435,-0.2443350851535797,0.509079098701477,0.3721294105052948,0.28667888045310974,-0.9802014231681824
11.816186666488647,-0.38128480315208435,-0.2447165697813034,0.509079098701477,0.3717479109764099,0.28706035017967224,-0.9802014231681824
11.836242198944092,-0.38090333342552185,-0.2454795092344284,0.509079098701477,0.3717479109764099,0.28744181990623474,-0.9802014231681824
11.85631775856018,-0.38090333342552185,-0.2454795092344284,0.509079098701477,0.3717479109764099,0.28782328963279724,-0.9802014231681824
11.87639307975769,-0.38052186369895935,-0.2458609938621521,0.509079098701477,0.3717479109764099,0.28744181990623474,-0.9802014231681824
11.896498680114746,-0.38052186369895935,-0.2466239482164383,0.509079098701477,0.3713664412498474,0.28744181990623474,-0.9802014231681824
11.91660213470459,-0.38052186369895935,-0.2470054179430008,0.509079098701477,0.3713664412498474,0.28744181990623474,-0.9802014231681824
11.936684370040894,-0.38052186369895935,-0.248531311750412,0.509079098701477,0.3713664412498474,0.28782328963279724,-0.9802014231681824
11.956839323043823,-0.38052186369895935,-0.248531311750412,0.509079098701477,0.3713664412498474,0.28782328963279724,-0.9802014231681824
11.976773738861084,-0.38052186369895935,-0.24891279637813568,0.509079098701477,0.3713664412498474,0.28782328963279724,-0.9802014231681824
11.996862649917603,-0.38052186369895935,-0.24891279637813568,0.509079098701477,0.3706035017967224,0.28744181990623474,-0.9802014231681824
12.016927480697632,-0.38014039397239685,-0.24967575073242188,0.509079098701477,0.3706035017967224,0.28744181990623474,-0.9805828928947449
12.036993026733398,-0.38014039397239685,-0.2500572204589844,0.509079098701477,0.3709849715232849,0.28782328963279724,-0.9805828928947449
12.057040691375732,-0.38014039397239685,-0.2500572204589844,0.509079098701477,0.3709849715232849,0.28782328963279724,-0.9805828928947449
12.077203750610352,-0.38014039397239685,-0.2504386901855469,0.509079098701477,0.3706035017967224,0.28782328963279724,-0.9805828928947449
12.097261905670166,-0.37899595499038696,-0.2508201599121094,0.509079098701477,0.3706035017967224,0.28782328963279724,-0.9805828928947449
12.11732292175293,-0.37899595499038696,-0.25272753834724426,0.509079098701477,0.3706035017967224,0.28782328963279724,-0.9805828928947449
12.137470722198486,-0.37899595499038696,-0.25272753834724426,0.509079098701477,0.3709849715232849,0.28782328963279724,-0.9805828928947449
12.157536268234253,-0.37861448526382446,-0.25310903787612915,0.509079098701477,0.3706035017967224,0.28744181990623474,-0.9805828928947449
12.177610158920288,-0.37823301553726196,-0.25310903787612915,0.509079098701477,0.369840532541275,0.28744181990623474,-0.9805828928947449
12.197713375091553,-0.37861448526382446,-0.25310903787612915,0.509079098701477,0.369840532541275,0.28782328963279724,-0.9805828928947449
12.217719793319702,-0.37823301553726196,-0.25387197732925415,0.509079098701477,0.369840532541275,0.28820478916168213,-0.9805828928947449
12.237837791442871,-0.37823301553726196,-0.25425344705581665,0.509079098701477,0.369840532541275,0.28820478916168213,-0.9805828928947449
12.257923364639282,-0.37823301553726196,-0.25425344705581665,0.509079098701477,0.369840532541275,0.28820478916168213,-0.9805828928947449
12.277992248535156,-0.37823301553726196,-0.25501641631126404,0.509079098701477,0.3694590628147125,0.28820478916168213,-0.9805828928947449
12.298041105270386,-0.37823301553726196,-0.25539788603782654,0.509079098701477,0.3694590628147125,0.28820478916168213,-0.9809643626213074
12.31810450553894,-0.37823301553726196,-0.25616082549095154,0.509079098701477,0.3694590628147125,0.28820478916168213,-0.9809643626213074
12.338155746459961,-0.37823301553726196,-0.25654229521751404,0.509079098701477,0.36907759308815,0.28782328963279724,-0.9805828928947449
12.358252048492432,-0.37823301553726196,-0.2573052644729614,0.509079098701477,0.36907759308815,0.28820478916168213,-0.9809643626213074
12.378353834152222,-0.37823301553726196,-0.2573052644729614,0.509079098701477,0.36907759308815,0.28820478916168213,-0.9809643626213074
12.398365259170532,-0.37823301553726196,-0.2576867341995239,0.509079098701477,0.36907759308815,0.28782328963279724,-0.9809643626213074
12.418453931808472,-0.3778515160083771,-0.2584496736526489,0.509079098701477,0.3686961233615875,0.28820478916168213,-0.9809643626213074
12.438539743423462,-0.3774700462818146,-0.2592126429080963,0.509079098701477,0.36907759308815,0.28820478916168213,-0.9809643626213074
12.458606004714966,-0.3770885765552521,-0.2607385218143463,0.509079098701477,0.3686961233615875,0.28820478916168213,-0.9809643626213074
12.478684902191162,-0.3770885765552521,-0.2611200213432312,0.509079098701477,0.368314653635025,0.28820478916168213,-0.9809643626213074
12.498756885528564,-0.3770885765552521,-0.2615014910697937,0.509079098701477,0.36793315410614014,0.28820478916168213,-0.9809643626213074
12.518847703933716,-0.3770885765552521,-0.2622644305229187,0.509079098701477,0.36755168437957764,0.28820478916168213,-0.9809643626213074
12.538952589035034,-0.3770885765552521,-0.2626459002494812,0.509079098701477,0.36755168437957764,0.28820478916168213,-0.9809643626213074
12.55900263786316,-0.3763256371021271,-0.2622644305229187,0.509079098701477,0.36793315410614014,0.28820478916168213,-0.9813458323478699
12.579151630401611,-0.3763256371021271,-0.2622644305229187,0.509079098701477,0.36755168437957764,0.28820478916168213,-0.9813458323478699
12.599208354949951,-0.3763256371021271,-0.2626459002494812,0.509079098701477,0.36793315410614014,0.28820478916168213,-0.9813458323478699
12.619234323501587,-0.3763256371021271,-0.2626459002494812,0.509079098701477,0.36793315410614014,0.28820478916168213,-0.9813458323478699
12.639341592788696,-0.3763256371021271,-0.2634088695049286,0.509079098701477,0.36755168437957764,0.28858625888824463,-0.9813458323478699
12.659497261047363,-0.3763256371021271,-0.2641718089580536,0.509079098701477,0.36755168437957764,0.28820478916168213,-0.9813458323478699
12.679574728012085,-0.3759441375732422,-0.264934778213501,0.509079098701477,0.36755168437957764,0.28858625888824463,-0.9817273020744324
12.699618577957153,-0.3759441375732422,-0.2660791873931885,0.509079098701477,0.36755168437957764,0.28896772861480713,-0.9817273020744324
12.719712734222412,-0.3759441375732422,-0.26722362637519836,0.509079098701477,0.36755168437957764,0.28858625888824463,-0.9817273020744324
12.739765405654907,-0.3751811981201172,-0.26760509610176086,0.509079098701477,0.36755168437957764,0.28858625888824463,-0.9817273020744324
12.759835720062256,-0.3751811981201172,-0.26760509610176086,0.509079098701477,0.36717021465301514,0.28858625888824463,-0.9817273020744324
12.779875993728638,-0.3751811981201172,-0.26760509610176086,0.509079098701477,0.36717021465301514,0.28858625888824463,-0.9821087718009949
12.799939632415771,-0.3751811981201172,-0.26760509610176086,0.509079098701477,0.36717021465301514,0.28858625888824463,-0.9824903011322021
12.82001256942749,-0.3751811981201172,-0.26760509610176086,0.509079098701477,0.36717021465301514,0.28896772861480713,-0.9828717708587646
12.840064764022827,-0.3751811981201172,-0.26760509610176086,0.509079098701477,0.36717021465301514,0.28896772861480713,-0.9832532405853271
12.860159158706665,-0.3747997283935547,-0.26874953508377075,0.509079098701477,0.36717021465301514,0.28896772861480713,-0.9836347103118896
12.880240201950073,-0.3744182586669922,-0.26951247453689575,0.509079098701477,0.36717021465301514,0.28896772861480713,-0.9836347103118896
12.900303363800049,-0.3740367889404297,-0.26989394426345825,0.509079098701477,0.36717021465301514,0.28858625888824463,-0.9836347103118896
12.92034912109375,-0.3744182586669922,-0.27103838324546814,0.509079098701477,0.36678874492645264,0.28858625888824463,-0.9836347103118896
12.940535068511963,-0.3744182586669922,-0.27180132269859314,0.509079098701477,0.36678874492645264,0.28858625888824463,-0.9836347103118896
12.960565567016602,-0.3740367889404297,-0.27180132269859314,0.509079098701477,0.36678874492645264,0.28896772861480713,-0.9840161800384521
12.98068881034851,-0.3740367889404297,-0.27180132269859314,0.509079098701477,0.36678874492645264,0.28858625888824463,-0.9840161800384521
13.000722408294678,-0.3740367889404297,-0.27180132269859314,0.509079098701477,0.36678874492645264,0.28896772861480713,-0.9840161800384521
13.020856380462646,-0.3736552894115448,-0.272945761680603,0.509079098701477,0.36678874492645264,0.28896772861480713,-0.9840161800384521
13.040903329849243,-0.3732738196849823,-0.2733272314071655,0.509079098701477,0.36678874492645264,0.28896772861480713,-0.9840161800384521
13.061017036437988,-0.3732738196849823,-0.273708701133728,0.509079098701477,0.36678874492645264,0.28896772861480713,-0.9840161800384521
13.081032991409302,-0.3732738196849823,-0.2748531401157379,0.509079098701477,0.36640727519989014,0.28896772861480713,-0.9840161800384521
13.101146221160889,-0.3732738196849823,-0.2759975492954254,0.509079098701477,0.36602577567100525,0.28934919834136963,-0.9840161800384521
13.121216535568237,-0.3728923499584198,-0.2759975492954254,0.509079098701477,0.36602577567100525,0.28896772861480713,-0.9840161800384521
13.141227960586548,-0.3728923499584198,-0.2759975492954254,0.509079098701477,0.36526283621788025,0.28858625888824463,-0.9840161800384521
13.161335706710815,-0.3728923499584198,-0.2759975492954254,0.509079098701477,0.36526283621788025,0.28896772861480713,-0.9840161800384521
13.181470155715942,-0.3725108802318573,-0.2763790488243103,0.509079098701477,0.36564430594444275,0.28896772861480713,-0.9840161800384521
13.201468706130981,-0.3721294105052948,-0.2771419882774353,0.509079098701477,0.36564430594444275,0.28896772861480713,-0.9840161800384521
13.221696853637695,-0.3721294105052948,-0.2779049277305603,0.509079098701477,0.36564430594444275,0.28896772861480713,-0.9840161800384521
13.241711139678955,-0.3721294105052948,-0.2794308364391327,0.509079098701477,0.36526283621788025,0.28934919834136963,-0.9840161800384521
13.261965274810791,-0.3721294105052948,-0.2801937758922577,0.509079098701477,0.36526283621788025,0.28973066806793213,-0.9840161800384521
13.282132863998413,-0.3717479109764099,-0.2821011543273926,0.509079098701477,0.36488136649131775,0.28934919834136963,-0.9843976497650146
13.302274942398071,-0.3709849715232849,-0.28248265385627747,0.509079098701477,0.36488136649131775,0.28896772861480713,-0.9840161800384521
13.322282552719116,-0.3709849715232849,-0.28324559330940247,0.509079098701477,0.36411839723587036,0.28896772861480713,-0.9840161800384521
13.342372417449951,-0.3709849715232849,-0.28324559330940247,0.509079098701477,0.36411839723587036,0.28858625888824463,-0.9843976497650146
13.362447261810303,-0.3709849715232849,-0.28286412358283997,0.509079098701477,0.36411839723587036,0.28896772861480713,-0.9843976497650146
13.382511377334595,-0.3709849715232849,-0.28286412358283997,0.509079098701477,0.36449989676475525,0.28896772861480713,-0.9843976497650146
13.402688026428223,-0.3709849715232849,-0.28324559330940247,0.509079098701477,0.36411839723587036,0.28934919834136963,-0.9843976497650146
13.422810554504395,-0.3706035017967224,-0.28324559330940247,0.509079098701477,0.36411839723587036,0.28896772861480713,-0.9843976497650146
13.442874431610107,-0.3706035017967224,-0.28362706303596497,0.509079098701477,0.36411839723587036,0.28934919834136963,-0.9843976497650146
13.462951898574829,-0.3702220320701599,-0.28439003229141235,0.509079098701477,0.36373692750930786,0.28896772861480713,-0.9843976497650146
13.483104467391968,-0.3702220320701599,-0.28629741072654724,0.509079098701477,0.36373692750930786,0.28934919834136963,-0.9843976497650146
13.503172159194946,-0.369840532541275,-0.28629741072654724,0.509079098701477,0.36373692750930786,0.28934919834136963,-0.9843976497650146
13.523189067840576,-0.369840532541275,-0.28744181990623474,0.509079098701477,0.36373692750930786,0.28896772861480713,-0.9843976497650146
13.54331111907959,-0.369840532541275,-0.28820478916168213,0.509079098701477,0.36335545778274536,0.28896772861480713,-0.9843976497650146
13.563382148742676,-0.369840532541275,-0.28858625888824463,0.509079098701477,0.36335545778274536,0.28896772861480713,-0.9843976497650146
13.583420991897583,-0.36907759308815,-0.28820478916168213,0.509079098701477,0.36297398805618286,0.28858625888824463,-0.9843976497650146
13.603522300720215,-0.36907759308815,-0.28820478916168213,0.509079098701477,0.36297398805618286,0.28858625888824463,-0.9843976497650146
13.623616456985474,-0.36907759308815,-0.28934919834136963,0.509079098701477,0.36297398805618286,0.28934919834136963,-0.9847791194915771
13.643795013427734,-0.3686961233615875,-0.28934919834136963,0.509079098701477,0.36335545778274536,0.28973066806793213,-0.9847791194915771
13.66389274597168,-0.3686961233615875,-0.28934919834136963,0.509079098701477,0.36297398805618286,0.28973066806793213,-0.9847791194915771
13.683892488479614,-0.36793315410614014,-0.290112167596817,0.509079098701477,0.36259251832962036,0.28934919834136963,-0.9847791194915771
13.703949689865112,-0.36793315410614014,-0.291638046503067,0.509079098701477,0.36259251832962036,0.28973066806793213,-0.9847791194915771
13.724063158035278,-0.36793315410614014,-0.2924010157585144,0.509079098701477,0.36259251832962036,0.28973066806793213,-0.9847791194915771
13.74409818649292,-0.36793315410614014,-0.2935454249382019,0.509079098701477,0.3622110188007355,0.28934919834136963,-0.9847791194915771
13.764176607131958,-0.36793315410614014,-0.2943083941936493,0.509079098701477,0.3614480793476105,0.28934919834136963,-0.9847791194915771
13.784364461898804,-0.36793315410614014,-0.2954528033733368,0.509079098701477,0.361066609621048,0.28934919834136963,-0.9851605892181396
13.804368257522583,-0.36793315410614014,-0.2958342730998993,0.509079098701477,0.361066609621048,0.28934919834136963,-0.9851605892181396
13.824453592300415,-0.36755168437957764,-0.2962157726287842,0.509079098701477,0.3606851398944855,0.28934919834136963,-0.9851605892181396
13.844614028930664,-0.36678874492645264,-0.2965972423553467,0.509079098701477,0.3606851398944855,0.28934919834136963,-0.9851605892181396
13.86462688446045,-0.36678874492645264,-0.2965972423553467,0.509079098701477,0.3603036403656006,0.28934919834136963,-0.9851605892181396
13.884670495986938,-0.36678874492645264,-0.2965972423553467,0.509079098701477,0.3599221706390381,0.28934919834136963,-0.9851605892181396
13.904834032058716,-0.36678874492645264,-0.2965972423553467,0.509079098701477,0.3603036403656006,0.290112167596817,-0.9855420589447021
13.924901247024536,-0.36678874492645264,-0.2973601818084717,0.509079098701477,0.3603036403656006,0.2904936373233795,-0.9855420589447021
13.944987058639526,-0.36640727519989014,-0.2977416515350342,0.509079098701477,0.3603036403656006,0.290112167596817,-0.9855420589447021
13.965037107467651,-0.36602577567100525,-0.29850462079048157,0.509079098701477,0.3599221706390381,0.290112167596817,-0.9855420589447021
13.985227346420288,-0.36602577567100525,-0.29926756024360657,0.509079098701477,0.3599221706390381,0.290112167596817,-0.9855420589447021
14.00528860092163,-0.36602577567100525,-0.29964902997016907,0.509079098701477,0.3595407009124756,0.290112167596817,-0.9855420589447021
14.025426149368286,-0.36602577567100525,-0.30117493867874146,0.509079098701477,0.3595407009124756,0.28934919834136963,-0.9859235286712646
14.045425653457642,-0.36602577567100525,-0.30155640840530396,0.509079098701477,0.3595407009124756,0.290112167596817,-0.9863049983978271
14.065507411956787,-0.36564430594444275,-0.30308231711387634,0.5094605684280396,0.3595407009124756,0.28973066806793213,-0.9863049983978271
14.085564851760864,-0.36564430594444275,-0.30346378684043884,0.5094605684280396,0.3595407009124756,0.28973066806793213,-0.9866865277290344
14.105637788772583,-0.36488136649131775,-0.30384528636932373,0.5094605684280396,0.3595407009124756,0.28973066806793213,-0.9870679974555969
14.125758171081543,-0.36449989676475525,-0.30460822582244873,0.5094605684280396,0.3591592311859131,0.28934919834136963,-0.9874494671821594
14.145845651626587,-0.36373692750930786,-0.30460822582244873,0.5094605684280396,0.3591592311859131,0.28973066806793213,-0.9874494671821594
14.165932655334473,-0.36373692750930786,-0.30460822582244873,0.5094605684280396,0.3591592311859131,0.290112167596817,-0.9874494671821594
14.186103582382202,-0.36373692750930786,-0.30460822582244873,0.5094605684280396,0.3591592311859131,0.290112167596817,-0.9874494671821594
14.2065269947052,-0.36373692750930786,-0.30460822582244873,0.5098420977592468,0.3591592311859131,0.290112167596817,-0.9874494671821594
