liuyurong129/humanoid-gym/humanoid/data/actual_q_20250522-054234.csv
timestamp,joint_1,joint_2,joint_3,joint_4,joint_5,joint_6
5.125999450683594e-05,0.000572213320992887,0.164988175034523,-0.08258945494890213,0.00019073777366429567,0.000572213320992887,-0.00019073777366429567
0.020159482955932617,0.000572213320992887,0.14133669435977936,-0.07267109304666519,0.00019073777366429567,0.00019073777366429567,-0.00019073777366429567
0.04019618034362793,-0.00019073777366429567,0.1203555315732956,-0.06351567804813385,0.00019073777366429567,0.0020981156267225742,-0.000572213320992887
0.06023740768432617,0.00019073777366429567,0.10700388997793198,-0.05741206929087639,0.00019073777366429567,0.0013351644156500697,-0.00019073777366429567
0.0803220272064209,-0.00019073777366429567,0.10433356463909149,-0.0551232174038887,0.00019073777366429567,0.0009536888683214784,-0.000572213320992887
0.1003885269165039,-0.00019073777366429567,0.1039520874619484,-0.054741740226745605,0.00019073777366429567,0.0009536888683214784,-0.00019073777366429567
0.12044978141784668,-0.00019073777366429567,0.10662241280078888,-0.05436026677489281,-0.00019073777366429567,0.000572213320992887,-0.00019073777366429567
0.14050912857055664,-0.00019073777366429567,0.10662241280078888,-0.05436026677489281,0.00019073777366429567,0.000572213320992887,-0.00019073777366429567
0.16060781478881836,-0.00019073777366429567,0.10547798871994019,-0.05436026677489281,0.00019073777366429567,0.0009536888683214784,-0.00019073777366429567
0.18072772026062012,-0.00019073777366429567,0.10547798871994019,-0.05436026677489281,0.00019073777366429567,0.000572213320992887,-0.00019073777366429567
0.20076227188110352,-0.00019073777366429567,0.10547798871994019,-0.05436026677489281,0.00019073777366429567,0.000572213320992887,-0.000572213320992887
0.22082924842834473,-0.00019073777366429567,0.10547798871994019,-0.05397878959774971,0.00019073777366429567,0.000572213320992887,-0.000572213320992887
0.2409195899963379,-0.000572213320992887,0.10547798871994019,-0.05359731614589691,-0.00019073777366429567,0.000572213320992887,-0.000572213320992887
0.2609734535217285,-0.000572213320992887,0.10547798871994019,-0.053215838968753815,0.00019073777366429567,0.0009536888683214784,-0.000572213320992887
0.2811918258666992,-0.0009536888683214784,0.10547798871994019,-0.05359731614589691,-0.00019073777366429567,0.000572213320992887,-0.000572213320992887
0.3011758327484131,-0.0013351644156500697,0.10547798871994019,-0.05359731614589691,-0.00019073777366429567,0.0009536888683214784,-0.000572213320992887
0.3212873935699463,-0.0020981156267225742,0.10471503436565399,-0.053215838968753815,-0.00019073777366429567,0.0009536888683214784,-0.000572213320992887
0.3413729667663574,-0.0024795911740511656,0.10471503436565399,-0.053215838968753815,-0.00019073777366429567,0.0009536888683214784,-0.000572213320992887
0.36145997047424316,-0.0024795911740511656,0.10471503436565399,-0.053215838968753815,-0.00019073777366429567,0.000572213320992887,-0.000572213320992887
0.3815600872039795,-0.0024795911740511656,0.10471503436565399,-0.05283436179161072,-0.00019073777366429567,0.000572213320992887,-0.000572213320992887
0.40158820152282715,-0.002861066721379757,0.10471503436565399,-0.05245288833975792,-0.00019073777366429567,0.000572213320992887,-0.0009536888683214784
0.42170023918151855,-0.004005493130534887,0.10471503436565399,-0.05245288833975792,-0.00019073777366429567,0.000572213320992887,-0.0009536888683214784
0.4417691230773926,-0.00476844422519207,0.10433356463909149,-0.051689937710762024,-0.00019073777366429567,0.000572213320992887,-0.0009536888683214784
0.46185803413391113,-0.00476844422519207,0.10433356463909149,-0.051689937710762024,-0.00019073777366429567,0.000572213320992887,-0.0013351644156500697
0.48233842849731445,-0.00476844422519207,0.10433356463909149,-0.05130846053361893,-0.000572213320992887,0.000572213320992887,-0.0013351644156500697
0.5024263858795166,-0.005149920005351305,0.10433356463909149,-0.05130846053361893,-0.000572213320992887,0.000572213320992887,-0.001716639962978661
0.522573709487915,-0.005912871100008488,0.1039520874619484,-0.05130846053361893,-0.000572213320992887,0.000572213320992887,-0.0020981156267225742
0.5425844192504883,-0.006294346414506435,0.1035706102848053,-0.05092698708176613,-0.000572213320992887,0.000572213320992887,-0.0024795911740511656
0.5627446174621582,-0.00667582219466567,0.1035706102848053,-0.05092698708176613,-0.000572213320992887,0.0009536888683214784,-0.0024795911740511656
0.5828723907470703,-0.00667582219466567,0.1035706102848053,-0.05092698708176613,-0.000572213320992887,0.000572213320992887,-0.0024795911740511656
0.6029260158538818,-0.007057297509163618,0.1031891331076622,-0.05054550990462303,-0.0009536888683214784,0.000572213320992887,-0.0024795911740511656
0.622969388961792,-0.007438773289322853,0.1031891331076622,-0.050164032727479935,-0.0009536888683214784,0.000572213320992887,-0.0024795911740511656
0.6430559158325195,-0.007438773289322853,0.1028076633810997,-0.049782559275627136,-0.0013351644156500697,0.000572213320992887,-0.0024795911740511656
0.6631243228912354,-0.0078202486038208,0.1024261862039566,-0.049782559275627136,-0.0013351644156500697,0.000572213320992887,-0.0024795911740511656
0.6832032203674316,-0.0078202486038208,0.1024261862039566,-0.049782559275627136,-0.0013351644156500697,0.000572213320992887,-0.0024795911740511656
0.7032456398010254,-0.0078202486038208,0.1024261862039566,-0.049782559275627136,-0.0013351644156500697,0.000572213320992887,-0.0024795911740511656
0.7234876155853271,-0.00858320016413927,0.1024261862039566,-0.04940108209848404,-0.0013351644156500697,0.000572213320992887,-0.002861066721379757
0.7436223030090332,-0.009346150793135166,0.1024261862039566,-0.04901960864663124,-0.001716639962978661,0.000572213320992887,-0.002861066721379757
0.7637619972229004,-0.009727626107633114,0.1024261862039566,-0.04901960864663124,-0.001716639962978661,0.000572213320992887,-0.002861066721379757
0.7838551998138428,-0.009727626107633114,0.1024261862039566,-0.04901960864663124,-0.0020981156267225742,0.00019073777366429567,-0.002861066721379757
0.8038854598999023,-0.009727626107633114,0.10204470902681351,-0.04901960864663124,-0.0024795911740511656,0.00019073777366429567,-0.002861066721379757
0.8239655494689941,-0.010490577667951584,0.10166323184967041,-0.048256658017635345,-0.002861066721379757,0.000572213320992887,-0.002861066721379757
0.8440275192260742,-0.010872052982449532,0.10128175467252731,-0.04787518084049225,-0.0032425422687083483,0.00019073777366429567,-0.002861066721379757
0.8640897274017334,-0.011635004542768002,0.10128175467252731,-0.04787518084049225,-0.0036240178160369396,0.000572213320992887,-0.002861066721379757
0.8842484951019287,-0.01201647985726595,0.10128175467252731,-0.04787518084049225,-0.004005493130534887,0.000572213320992887,-0.002861066721379757
0.904268741607666,-0.01201647985726595,0.10128175467252731,-0.04787518084049225,-0.004005493130534887,0.000572213320992887,-0.0032425422687083483
0.9243323802947998,-0.012397955171763897,0.10128175467252731,-0.04787518084049225,-0.004005493130534887,0.00019073777366429567,-0.0032425422687083483
0.9444115161895752,-0.012779430486261845,0.10128175467252731,-0.04749370738863945,-0.004005493130534887,0.000572213320992887,-0.0032425422687083483
0.9644825458526611,-0.012779430486261845,0.10090028494596481,-0.04711223021149635,-0.004386968910694122,0.000572213320992887,-0.0032425422687083483
0.9845831394195557,-0.013160906732082367,0.10051880776882172,-0.04711223021149635,-0.004386968910694122,0.00019073777366429567,-0.0032425422687083483
1.0046236515045166,-0.013923857361078262,0.10051880776882172,-0.046730753034353256,-0.004386968910694122,0.000572213320992887,-0.0032425422687083483
1.02469801902771,-0.014686808921396732,0.10051880776882172,-0.046730753034353256,-0.004386968910694122,0.00019073777366429567,-0.0032425422687083483
1.0448241233825684,-0.014686808921396732,0.10051880776882172,-0.04634927958250046,-0.00476844422519207,0.00019073777366429567,-0.0036240178160369396
1.0649254322052002,-0.014686808921396732,0.10013733059167862,-0.04596780240535736,-0.00476844422519207,0.00019073777366429567,-0.0032425422687083483
1.084996223449707,-0.01506828423589468,0.10013733059167862,-0.04596780240535736,-0.00476844422519207,0.00019073777366429567,-0.0032425422687083483
1.105149507522583,-0.01506828423589468,0.10013733059167862,-0.04558632895350456,-0.005149920005351305,0.00019073777366429567,-0.0036240178160369396
1.125321388244629,-0.015449759550392628,0.10013733059167862,-0.04558632895350456,-0.005531395319849253,0.00019073777366429567,-0.0036240178160369396
1.1453959941864014,-0.01583123579621315,0.09937438368797302,-0.045204851776361465,-0.005531395319849253,0.00019073777366429567,-0.0036240178160369396
1.1655163764953613,-0.016975661739706993,0.09937438368797302,-0.045204851776361465,-0.005912871100008488,0.000572213320992887,-0.0036240178160369396
1.185657024383545,-0.016975661739706993,0.09937438368797302,-0.04482337832450867,-0.006294346414506435,0.00019073777366429567,-0.0036240178160369396
1.2057609558105469,-0.016975661739706993,0.09937438368797302,-0.04482337832450867,-0.00667582219466567,0.00019073777366429567,-0.0036240178160369396
1.225926399230957,-0.01735713705420494,0.09937438368797302,-0.04406042397022247,-0.007057297509163618,-0.00019073777366429567,-0.0036240178160369396
1.24592924118042,-0.01773861236870289,0.09899290651082993,-0.04406042397022247,-0.007057297509163618,0.00019073777366429567,-0.0036240178160369396
1.265977382659912,-0.018120087683200836,0.09861142933368683,-0.04406042397022247,-0.007438773289322853,0.00019073777366429567,-0.0036240178160369396
1.2861106395721436,-0.01888304017484188,0.09822995215654373,-0.043678950518369675,-0.007438773289322853,0.00019073777366429567,-0.004005493130534887
1.306300401687622,-0.01926451548933983,0.09822995215654373,-0.043678950518369675,-0.007438773289322853,0.00019073777366429567,-0.004005493130534887
1.3263740539550781,-0.01926451548933983,0.09822995215654373,-0.04329747334122658,-0.0078202486038208,0.00019073777366429567,-0.004005493130534887
1.346496343612671,-0.020027466118335724,0.09822995215654373,-0.04329747334122658,-0.0078202486038208,0.00019073777366429567,-0.004005493130534887
1.366576910018921,-0.02040894143283367,0.09822995215654373,-0.04291599988937378,-0.0078202486038208,0.00019073777366429567,-0.004005493130534887
1.3867347240447998,-0.02040894143283367,0.09822995215654373,-0.04291599988937378,-0.0078202486038208,0.00019073777366429567,-0.004005493130534887
1.4067821502685547,-0.021171892061829567,0.09784847497940063,-0.04291599988937378,-0.008201723918318748,0.00019073777366429567,-0.004386968910694122
1.426924467086792,-0.02193484455347061,0.09746700525283813,-0.04291599988937378,-0.008201723918318748,0.00019073777366429567,-0.00476844422519207
1.4470107555389404,-0.02231631986796856,0.09746700525283813,-0.04253452271223068,-0.008201723918318748,-0.00019073777366429567,-0.005149920005351305
1.467128038406372,-0.02193484455347061,0.09746700525283813,-0.042153049260377884,-0.008201723918318748,-0.00019073777366429567,-0.005531395319849253
1.4871649742126465,-0.02193484455347061,0.09746700525283813,-0.04177157208323479,-0.00858320016413927,0.00019073777366429567,-0.005531395319849253
1.5072619915008545,-0.02231631986796856,0.09746700525283813,-0.04139009863138199,-0.00858320016413927,-0.00019073777366429567,-0.005912871100008488
1.527374029159546,-0.02231631986796856,0.09708552807569504,-0.04100862145423889,-0.008964675478637218,-0.00019073777366429567,-0.005912871100008488
1.5474412441253662,-0.02231631986796856,0.09708552807569504,-0.04100862145423889,-0.008964675478637218,0.00019073777366429567,-0.005912871100008488
1.5674962997436523,-0.023079270496964455,0.09708552807569504,-0.04100862145423889,-0.009346150793135166,0.00019073777366429567,-0.005912871100008488
1.587660312652588,-0.02384222112596035,0.09670405089855194,-0.04100862145423889,-0.009727626107633114,0.00019073777366429567,-0.005912871100008488
1.6076576709747314,-0.024223696440458298,0.09632257372140884,-0.040627144277095795,-0.010109102353453636,0.00019073777366429567,-0.006294346414506435
1.6277670860290527,-0.024223696440458298,0.09632257372140884,-0.040627144277095795,-0.010872052982449532,-0.00019073777366429567,-0.006294346414506435
1.6479110717773438,-0.024223696440458298,0.09632257372140884,-0.040245670825242996,-0.010872052982449532,-0.00019073777366429567,-0.006294346414506435
1.6680283546447754,-0.024986648932099342,0.09594109654426575,-0.0394827201962471,-0.01125352829694748,-0.00019073777366429567,-0.006294346414506435
1.6881299018859863,-0.02536812424659729,0.09594109654426575,-0.039101243019104004,-0.01125352829694748,-0.00019073777366429567,-0.006294346414506435
1.7082829475402832,-0.026131074875593185,0.09555962681770325,-0.039101243019104004,-0.011635004542768002,-0.00019073777366429567,-0.006294346414506435
1.7283458709716797,-0.026512550190091133,0.09517814964056015,-0.038719769567251205,-0.011635004542768002,-0.00019073777366429567,-0.006294346414506435
1.748403549194336,-0.02689402550458908,0.09517814964056015,-0.039101243019104004,-0.011635004542768002,0.00019073777366429567,-0.006294346414506435
1.7686593532562256,-0.02727550081908703,0.09517814964056015,-0.039101243019104004,-0.011635004542768002,-0.00019073777366429567,-0.006294346414506435
1.7888035774230957,-0.02727550081908703,0.09517814964056015,-0.038719769567251205,-0.01201647985726595,-0.00019073777366429567,-0.006294346414506435
1.8088538646697998,-0.027656977996230125,0.09517814964056015,-0.03833829239010811,-0.01201647985726595,-0.00019073777366429567,-0.006294346414506435
1.8289387226104736,-0.02841992862522602,0.09517814964056015,-0.03795681521296501,-0.012397955171763897,-0.00019073777366429567,-0.006294346414506435
1.849015474319458,-0.029182879254221916,0.09479667246341705,-0.03757534176111221,-0.012397955171763897,-0.00019073777366429567,-0.006294346414506435
1.8690874576568604,-0.029182879254221916,0.09441519528627396,-0.03757534176111221,-0.012779430486261845,-0.00019073777366429567,-0.00667582219466567
1.8892056941986084,-0.029182879254221916,0.09403372555971146,-0.037193864583969116,-0.013160906732082367,-0.00019073777366429567,-0.00667582219466567
1.909233808517456,-0.029182879254221916,0.09403372555971146,-0.037193864583969116,-0.013542382046580315,-0.000572213320992887,-0.00667582219466567
1.9293212890625,-0.029564354568719864,0.09441519528627396,-0.03681239113211632,-0.01430533267557621,-0.000572213320992887,-0.00667582219466567
1.9493827819824219,-0.029564354568719864,0.09403372555971146,-0.03681239113211632,-0.01506828423589468,-0.000572213320992887,-0.00667582219466567
1.9694671630859375,-0.02994582988321781,0.09403372555971146,-0.03681239113211632,-0.01506828423589468,-0.00019073777366429567,-0.00667582219466567
1.990025520324707,-0.030708782374858856,0.09403372555971146,-0.03681239113211632,-0.01506828423589468,-0.00019073777366429567,-0.00667582219466567
2.0101845264434814,-0.03147173300385475,0.09327077120542526,-0.03643091395497322,-0.015449759550392628,-0.00019073777366429567,-0.00667582219466567
2.0302915573120117,-0.03147173300385475,0.09327077120542526,-0.03604944050312042,-0.015449759550392628,-0.000572213320992887,-0.00667582219466567
2.0503339767456055,-0.03147173300385475,0.09327077120542526,-0.035667963325977325,-0.015449759550392628,-0.000572213320992887,-0.00667582219466567
2.0703883171081543,-0.03185320645570755,0.09327077120542526,-0.035667963325977325,-0.015449759550392628,-0.000572213320992887,-0.007057297509163618
2.090466022491455,-0.032616160809993744,0.09327077120542526,-0.03528648987412453,-0.01583123579621315,-0.000572213320992887,-0.007057297509163618
2.1105363368988037,-0.03337911143898964,0.09288929402828217,-0.03528648987412453,-0.01583123579621315,-0.000572213320992887,-0.007057297509163618
2.1305971145629883,-0.03376058489084244,0.09288929402828217,-0.03490501269698143,-0.01583123579621315,-0.00019073777366429567,-0.007057297509163618
2.150753974914551,-0.03376058489084244,0.09288929402828217,-0.03490501269698143,-0.01583123579621315,-0.000572213320992887,-0.007057297509163618
2.1709277629852295,-0.03452353551983833,0.09212634712457657,-0.03452353551983833,-0.01583123579621315,-0.0009536888683214784,-0.007057297509163618
2.191020965576172,-0.03490501269698143,0.09212634712457657,-0.03452353551983833,-0.016212711110711098,-0.000572213320992887,-0.007057297509163618
2.211052179336548,-0.035667963325977325,0.09212634712457657,-0.034142062067985535,-0.016212711110711098,-0.000572213320992887,-0.007057297509163618
2.2312095165252686,-0.03604944050312042,0.09212634712457657,-0.03376058489084244,-0.016594186425209045,-0.0009536888683214784,-0.007438773289322853
2.2513480186462402,-0.03604944050312042,0.09212634712457657,-0.03337911143898964,-0.016594186425209045,-0.000572213320992887,-0.007438773289322853
2.2714173793792725,-0.03643091395497322,0.09174486994743347,-0.03337911143898964,-0.016975661739706993,-0.0009536888683214784,-0.007438773289322853
2.2915492057800293,-0.03681239113211632,0.09174486994743347,-0.03337911143898964,-0.01773861236870289,-0.0009536888683214784,-0.007438773289322853
2.3116872310638428,-0.03681239113211632,0.09098191559314728,-0.03299763426184654,-0.018501564860343933,-0.0009536888683214784,-0.007438773289322853
2.331760883331299,-0.03681239113211632,0.09098191559314728,-0.03299763426184654,-0.018501564860343933,-0.0009536888683214784,-0.007438773289322853
2.3517911434173584,-0.03681239113211632,0.09098191559314728,-0.032616160809993744,-0.01888304017484188,-0.0009536888683214784,-0.007438773289322853
2.3718764781951904,-0.037193864583969116,0.09098191559314728,-0.032616160809993744,-0.01888304017484188,-0.0009536888683214784,-0.0078202486038208
2.3919448852539062,-0.03757534176111221,0.09098191559314728,-0.032616160809993744,-0.01888304017484188,-0.0009536888683214784,-0.0078202486038208
2.412081241607666,-0.03795681521296501,0.09098191559314728,-0.03223468363285065,-0.01888304017484188,-0.0009536888683214784,-0.0078202486038208
2.432091236114502,-0.038719769567251205,0.09060044586658478,-0.03185320645570755,-0.01888304017484188,-0.0009536888683214784,-0.0078202486038208
2.452167272567749,-0.039101243019104004,0.09021896868944168,-0.03147173300385475,-0.01926451548933983,-0.0013351644156500697,-0.008201723918318748
2.4722301959991455,-0.039101243019104004,0.09021896868944168,-0.03147173300385475,-0.01926451548933983,-0.0013351644156500697,-0.008201723918318748
2.4923062324523926,-0.0398641936480999,0.09021896868944168,-0.03147173300385475,-0.01926451548933983,-0.0013351644156500697,-0.008201723918318748
2.512343645095825,-0.040245670825242996,0.09021896868944168,-0.031090257689356804,-0.01926451548933983,-0.0013351644156500697,-0.00858320016413927
2.5324277877807617,-0.04100862145423889,0.09021896868944168,-0.030708782374858856,-0.01926451548933983,-0.0009536888683214784,-0.008964675478637218
2.552503824234009,-0.04139009863138199,0.08983749151229858,-0.030708782374858856,-0.019645990803837776,-0.0013351644156500697,-0.008964675478637218
2.572556257247925,-0.04139009863138199,0.08983749151229858,-0.03032730519771576,-0.019645990803837776,-0.0013351644156500697,-0.009346150793135166
2.5927958488464355,-0.04177157208323479,0.08983749151229858,-0.029564354568719864,-0.019645990803837776,-0.0020981156267225742,-0.009727626107633114
2.613020181655884,-0.042153049260377884,0.08945601433515549,-0.029182879254221916,-0.020027466118335724,-0.0020981156267225742,-0.010109102353453636
2.6332128047943115,-0.042153049260377884,0.08907453715801239,-0.02880140393972397,-0.020027466118335724,-0.001716639962978661,-0.010109102353453636
2.653272867202759,-0.04253452271223068,0.08907453715801239,-0.02880140393972397,-0.02040894143283367,-0.001716639962978661,-0.010109102353453636
2.673462152481079,-0.04329747334122658,0.08907453715801239,-0.02880140393972397,-0.02040894143283367,-0.001716639962978661,-0.010109102353453636
2.693570375442505,-0.043678950518369675,0.08869306743144989,-0.02880140393972397,-0.02079041674733162,-0.001716639962978661,-0.010490577667951584
2.713655471801758,-0.04406042397022247,0.08869306743144989,-0.02841992862522602,-0.021171892061829567,-0.0024795911740511656,-0.010490577667951584
2.7336926460266113,-0.04406042397022247,0.0883115902543068,-0.02841992862522602,-0.021553369238972664,-0.0024795911740511656,-0.010490577667951584
2.7537784576416016,-0.04406042397022247,0.0883115902543068,-0.028038453310728073,-0.02231631986796856,-0.002861066721379757,-0.010490577667951584
2.7738680839538574,-0.04444190114736557,0.0879301130771637,-0.027656977996230125,-0.02231631986796856,-0.0024795911740511656,-0.010872052982449532
2.7939369678497314,-0.04444190114736557,0.0879301130771637,-0.02727550081908703,-0.022697795182466507,-0.0024795911740511656,-0.010872052982449532
2.8139941692352295,-0.045204851776361465,0.0879301130771637,-0.02727550081908703,-0.022697795182466507,-0.0024795911740511656,-0.010872052982449532
2.8341562747955322,-0.04596780240535736,0.0879301130771637,-0.026512550190091133,-0.022697795182466507,-0.0024795911740511656,-0.010872052982449532
2.854269027709961,-0.04634927958250046,0.0879301130771637,-0.026512550190091133,-0.022697795182466507,-0.002861066721379757,-0.010872052982449532
2.8742599487304688,-0.04634927958250046,0.0879301130771637,-0.026512550190091133,-0.023079270496964455,-0.002861066721379757,-0.01125352829694748
2.8943138122558594,-0.046730753034353256,0.0875486359000206,-0.026512550190091133,-0.023079270496964455,-0.0032425422687083483,-0.010872052982449532
2.914494037628174,-0.04749370738863945,0.0871671661734581,-0.026512550190091133,-0.023079270496964455,-0.002861066721379757,-0.01125352829694748
2.9345195293426514,-0.048256658017635345,0.086785688996315,-0.026131074875593185,-0.023460745811462402,-0.0024795911740511656,-0.01125352829694748
2.9545936584472656,-0.048256658017635345,0.086785688996315,-0.026131074875593185,-0.023460745811462402,-0.002861066721379757,-0.01125352829694748
2.9746875762939453,-0.048256658017635345,0.086785688996315,-0.02536812424659729,-0.023460745811462402,-0.002861066721379757,-0.01125352829694748
2.9947855472564697,-0.04901960864663124,0.086785688996315,-0.024986648932099342,-0.02384222112596035,-0.0032425422687083483,-0.01125352829694748
3.014843463897705,-0.04940108209848404,0.0864042118191719,-0.024605173617601395,-0.02384222112596035,-0.0032425422687083483,-0.011635004542768002
3.0351028442382812,-0.049782559275627136,0.08602273464202881,-0.024223696440458298,-0.024223696440458298,-0.0032425422687083483,-0.011635004542768002
3.0560617446899414,-0.05054550990462303,0.08602273464202881,-0.024223696440458298,-0.024605173617601395,-0.002861066721379757,-0.011635004542768002
3.076183795928955,-0.05130846053361893,0.08602273464202881,-0.024223696440458298,-0.024986648932099342,-0.0032425422687083483,-0.01201647985726595
3.0963146686553955,-0.05130846053361893,0.08564125746488571,-0.024223696440458298,-0.02536812424659729,-0.0032425422687083483,-0.01201647985726595
3.1163291931152344,-0.05130846053361893,0.08564125746488571,-0.02384222112596035,-0.025749599561095238,-0.0032425422687083483,-0.01201647985726595
3.1364591121673584,-0.05130846053361893,0.08564125746488571,-0.023079270496964455,-0.025749599561095238,-0.0036240178160369396,-0.012397955171763897
3.1566288471221924,-0.051689937710762024,0.08487831056118011,-0.022697795182466507,-0.026131074875593185,-0.0032425422687083483,-0.012779430486261845
3.1767046451568604,-0.05207141116261482,0.08487831056118011,-0.02231631986796856,-0.026512550190091133,-0.0032425422687083483,-0.012779430486261845
3.1969246864318848,-0.05283436179161072,0.08487831056118011,-0.02231631986796856,-0.026512550190091133,-0.002861066721379757,-0.013160906732082367
3.2170910835266113,-0.05359731614589691,0.08487831056118011,-0.02231631986796856,-0.026512550190091133,-0.002861066721379757,-0.013160906732082367
3.2371761798858643,-0.05359731614589691,0.08449683338403702,-0.02193484455347061,-0.026512550190091133,-0.0036240178160369396,-0.013160906732082367
3.257211446762085,-0.05397878959774971,0.08449683338403702,-0.02193484455347061,-0.026512550190091133,-0.0036240178160369396,-0.013542382046580315
3.277416467666626,-0.054741740226745605,0.08373387902975082,-0.021171892061829567,-0.02689402550458908,-0.0036240178160369396,-0.013542382046580315
3.297516345977783,-0.054741740226745605,0.08373387902975082,-0.02079041674733162,-0.02689402550458908,-0.0036240178160369396,-0.013542382046580315
3.3175058364868164,-0.0555046908557415,0.08373387902975082,-0.02079041674733162,-0.02689402550458908,-0.0032425422687083483,-0.013542382046580315
3.3375892639160156,-0.0558861680328846,0.08373387902975082,-0.02079041674733162,-0.02727550081908703,-0.0032425422687083483,-0.013923857361078262
3.35770320892334,-0.056267641484737396,0.08373387902975082,-0.02040894143283367,-0.02727550081908703,-0.0036240178160369396,-0.013923857361078262
3.377739906311035,-0.05664911866188049,0.08335240930318832,-0.02040894143283367,-0.027656977996230125,-0.0036240178160369396,-0.013923857361078262
3.3978350162506104,-0.05664911866188049,0.08297093212604523,-0.020027466118335724,-0.028038453310728073,-0.0036240178160369396,-0.013923857361078262
3.417896270751953,-0.05741206929087639,0.08258945494890213,-0.019645990803837776,-0.028038453310728073,-0.0036240178160369396,-0.013923857361078262
3.437999725341797,-0.058175019919872284,0.08258945494890213,-0.01926451548933983,-0.02841992862522602,-0.0032425422687083483,-0.013923857361078262
3.4581186771392822,-0.05855649709701538,0.08258945494890213,-0.01926451548933983,-0.029182879254221916,-0.0032425422687083483,-0.013923857361078262
3.4782516956329346,-0.05855649709701538,0.08258945494890213,-0.01888304017484188,-0.029564354568719864,-0.0036240178160369396,-0.013923857361078262
3.498293399810791,-0.05855649709701538,0.08258945494890213,-0.01888304017484188,-0.029564354568719864,-0.0036240178160369396,-0.01430533267557621
3.5183422565460205,-0.05893797054886818,0.08258945494890213,-0.018501564860343933,-0.029564354568719864,-0.0036240178160369396,-0.01430533267557621
3.538525342941284,-0.05893797054886818,0.08182650804519653,-0.018501564860343933,-0.02994582988321781,-0.0036240178160369396,-0.01430533267557621
3.558650255203247,-0.05970092490315437,0.08144503086805344,-0.018120087683200836,-0.02994582988321781,-0.0036240178160369396,-0.01430533267557621
3.578792095184326,-0.06008239835500717,0.08144503086805344,-0.018120087683200836,-0.03032730519771576,-0.0036240178160369396,-0.01430533267557621
3.5988540649414062,-0.06046387553215027,0.08144503086805344,-0.018120087683200836,-0.03032730519771576,-0.0036240178160369396,-0.01430533267557621
3.6189842224121094,-0.06084534898400307,0.08106355369091034,-0.01773861236870289,-0.03032730519771576,-0.004005493130534887,-0.01430533267557621
3.639183759689331,-0.061226826161146164,0.08068207651376724,-0.016975661739706993,-0.03032730519771576,-0.004005493130534887,-0.01430533267557621
3.6592395305633545,-0.06160829961299896,0.08068207651376724,-0.016975661739706993,-0.030708782374858856,-0.004005493130534887,-0.014686808921396732
3.6792490482330322,-0.06237125024199486,0.08068207651376724,-0.016594186425209045,-0.030708782374858856,-0.004005493130534887,-0.014686808921396732
3.6993319988250732,-0.06275273114442825,0.08068207651376724,-0.016212711110711098,-0.030708782374858856,-0.0036240178160369396,-0.014686808921396732
3.7194008827209473,-0.06313420087099075,0.08068207651376724,-0.016212711110711098,-0.031090257689356804,-0.004005493130534887,-0.014686808921396732
3.739494800567627,-0.06313420087099075,0.08030059933662415,-0.016212711110711098,-0.031090257689356804,-0.004386968910694122,-0.014686808921396732
3.759612560272217,-0.06389715522527695,0.08030059933662415,-0.01583123579621315,-0.031090257689356804,-0.004005493130534887,-0.01506828423589468
3.779726028442383,-0.06427863240242004,0.07953765243291855,-0.015449759550392628,-0.03147173300385475,-0.004386968910694122,-0.01506828423589468
3.799793004989624,-0.06504157930612564,0.07953765243291855,-0.014686808921396732,-0.03185320645570755,-0.004005493130534887,-0.01506828423589468
3.819849967956543,-0.06580453366041183,0.07953765243291855,-0.01430533267557621,-0.032616160809993744,-0.004005493130534887,-0.01506828423589468
3.8399691581726074,-0.06580453366041183,0.07953765243291855,-0.013923857361078262,-0.03337911143898964,-0.004386968910694122,-0.01506828423589468
3.8600261211395264,-0.06618601083755493,0.07953765243291855,-0.013542382046580315,-0.03337911143898964,-0.00476844422519207,-0.015449759550392628
3.880077600479126,-0.06618601083755493,0.07915617525577545,-0.013542382046580315,-0.03376058489084244,-0.00476844422519207,-0.015449759550392628
3.9002304077148438,-0.06618601083755493,0.07877469807863235,-0.013160906732082367,-0.03376058489084244,-0.00476844422519207,-0.01583123579621315
3.9203760623931885,-0.06694895774126053,0.07839322835206985,-0.012779430486261845,-0.034142062067985535,-0.004386968910694122,-0.01583123579621315
3.940446615219116,-0.06733043491840363,0.07839322835206985,-0.012397955171763897,-0.034142062067985535,-0.004386968910694122,-0.016212711110711098
3.9605369567871094,-0.06733043491840363,0.07839322835206985,-0.01201647985726595,-0.034142062067985535,-0.00476844422519207,-0.016212711110711098
3.980569839477539,-0.06809338182210922,0.07839322835206985,-0.01201647985726595,-0.034142062067985535,-0.00476844422519207,-0.016594186425209045
4.000672817230225,-0.06847485899925232,0.07801175117492676,-0.01201647985726595,-0.03452353551983833,-0.005149920005351305,-0.01735713705420494
4.020799875259399,-0.06885633617639542,0.07763027399778366,-0.011635004542768002,-0.03452353551983833,-0.005531395319849253,-0.01735713705420494
4.040864944458008,-0.06923781335353851,0.07763027399778366,-0.011635004542768002,-0.03490501269698143,-0.005531395319849253,-0.01773861236870289
4.061253786087036,-0.06923781335353851,0.07763027399778366,-0.011635004542768002,-0.03490501269698143,-0.005531395319849253,-0.01773861236870289
4.081359148025513,-0.07038223743438721,0.07763027399778366,-0.010872052982449532,-0.03528648987412453,-0.005149920005351305,-0.01773861236870289
4.101424217224121,-0.0711451917886734,0.07724879682064056,-0.010490577667951584,-0.03528648987412453,-0.005531395319849253,-0.01773861236870289
4.121508359909058,-0.0711451917886734,0.07724879682064056,-0.010490577667951584,-0.03604944050312042,-0.005531395319849253,-0.018120087683200836
4.141655445098877,-0.0711451917886734,0.07724879682064056,-0.010109102353453636,-0.03643091395497322,-0.005912871100008488,-0.018120087683200836
4.161741733551025,-0.0715266615152359,0.07648584991693497,-0.009727626107633114,-0.03681239113211632,-0.006294346414506435,-0.018120087683200836
4.181808233261108,-0.07267109304666519,0.07648584991693497,-0.009727626107633114,-0.037193864583969116,-0.005912871100008488,-0.018120087683200836
4.201855897903442,-0.07305257022380829,0.07648584991693497,-0.009727626107633114,-0.03757534176111221,-0.005912871100008488,-0.018501564860343933
4.221935510635376,-0.07305257022380829,0.07610437273979187,-0.009346150793135166,-0.03757534176111221,-0.006294346414506435,-0.018501564860343933
4.242004632949829,-0.07305257022380829,0.07610437273979187,-0.008964675478637218,-0.03757534176111221,-0.006294346414506435,-0.018501564860343933
4.2621002197265625,-0.07305257022380829,0.07572289556264877,-0.00858320016413927,-0.03757534176111221,-0.006294346414506435,-0.018501564860343933
4.282178640365601,-0.07343403995037079,0.07572289556264877,-0.0078202486038208,-0.03795681521296501,-0.006294346414506435,-0.01888304017484188
4.302255153656006,-0.07343403995037079,0.07572289556264877,-0.0078202486038208,-0.03795681521296501,-0.006294346414506435,-0.01888304017484188
4.322308778762817,-0.07419699430465698,0.07534141838550568,-0.007438773289322853,-0.03795681521296501,-0.005912871100008488,-0.01926451548933983
4.342329978942871,-0.07457847148180008,0.07534141838550568,-0.007438773289322853,-0.03795681521296501,-0.006294346414506435,-0.019645990803837776
4.362430572509766,-0.07534141838550568,0.07534141838550568,-0.007438773289322853,-0.03795681521296501,-0.006294346414506435,-0.02040894143283367
4.382513999938965,-0.07534141838550568,0.07534141838550568,-0.007057297509163618,-0.03833829239010811,-0.00667582219466567,-0.021171892061829567
4.402585506439209,-0.07572289556264877,0.07495994865894318,-0.00667582219466567,-0.03833829239010811,-0.00667582219466567,-0.021553369238972664
4.422682046890259,-0.07648584991693497,0.07457847148180008,-0.006294346414506435,-0.038719769567251205,-0.00667582219466567,-0.021553369238972664
4.44282865524292,-0.07686731964349747,0.07457847148180008,-0.006294346414506435,-0.038719769567251205,-0.006294346414506435,-0.021553369238972664
4.462920904159546,-0.07763027399778366,0.07419699430465698,-0.005912871100008488,-0.038719769567251205,-0.006294346414506435,-0.021553369238972664
4.482992172241211,-0.07763027399778366,0.07381551712751389,-0.005912871100008488,-0.039101243019104004,-0.006294346414506435,-0.02193484455347061
4.5030364990234375,-0.07763027399778366,0.07343403995037079,-0.005531395319849253,-0.0394827201962471,-0.007057297509163618,-0.021553369238972664
4.523122072219849,-0.07839322835206985,0.07343403995037079,-0.005531395319849253,-0.040245670825242996,-0.00667582219466567,-0.021553369238972664
4.543240308761597,-0.07877469807863235,0.07343403995037079,-0.005149920005351305,-0.04139009863138199,-0.00667582219466567,-0.02193484455347061
4.563276529312134,-0.07915617525577545,0.07343403995037079,-0.00476844422519207,-0.04139009863138199,-0.006294346414506435,-0.02193484455347061
4.583363771438599,-0.07953765243291855,0.07343403995037079,-0.004386968910694122,-0.04177157208323479,-0.00667582219466567,-0.02193484455347061
4.60342812538147,-0.07953765243291855,0.07343403995037079,-0.004386968910694122,-0.04177157208323479,-0.00667582219466567,-0.02193484455347061
4.62349271774292,-0.08030059933662415,0.07305257022380829,-0.004005493130534887,-0.04177157208323479,-0.00667582219466567,-0.02193484455347061
4.643558979034424,-0.08068207651376724,0.07305257022380829,-0.0036240178160369396,-0.04177157208323479,-0.007057297509163618,-0.02193484455347061
4.663729429244995,-0.08068207651376724,0.0722896158695221,-0.0036240178160369396,-0.04177157208323479,-0.00667582219466567,-0.02193484455347061
4.683816194534302,-0.08068207651376724,0.0722896158695221,-0.0032425422687083483,-0.042153049260377884,-0.00667582219466567,-0.02193484455347061
4.703896760940552,-0.08144503086805344,0.0722896158695221,-0.0032425422687083483,-0.042153049260377884,-0.00667582219466567,-0.02193484455347061
4.723964214324951,-0.08144503086805344,0.0722896158695221,-0.002861066721379757,-0.04253452271223068,-0.00667582219466567,-0.02231631986796856
4.744042634963989,-0.08220797777175903,0.071908138692379,-0.0024795911740511656,-0.04253452271223068,-0.00667582219466567,-0.02231631986796856
4.764106035232544,-0.08297093212604523,0.0715266615152359,-0.0020981156267225742,-0.04291599988937378,-0.00667582219466567,-0.02231631986796856
4.7842817306518555,-0.08297093212604523,0.0715266615152359,-0.0020981156267225742,-0.04329747334122658,-0.00667582219466567,-0.02231631986796856
4.804274559020996,-0.08373387902975082,0.0711451917886734,-0.001716639962978661,-0.043678950518369675,-0.007057297509163618,-0.02231631986796856
4.824355125427246,-0.08449683338403702,0.0711451917886734,-0.001716639962978661,-0.04406042397022247,-0.00667582219466567,-0.02231631986796856
4.84455132484436,-0.08525978773832321,0.0711451917886734,-0.0013351644156500697,-0.04444190114736557,-0.007057297509163618,-0.022697795182466507
4.864580869674683,-0.08564125746488571,0.0711451917886734,-0.0013351644156500697,-0.04444190114736557,-0.00667582219466567,-0.022697795182466507
4.884704351425171,-0.08564125746488571,0.0707637146115303,-0.00019073777366429567,-0.04482337832450867,-0.007057297509163618,-0.022697795182466507
4.904747247695923,-0.08564125746488571,0.07038223743438721,-0.00019073777366429567,-0.04482337832450867,-0.007438773289322853,-0.022697795182466507
4.924908638000488,-0.08602273464202881,0.07000076025724411,0.00019073777366429567,-0.04482337832450867,-0.007057297509163618,-0.022697795182466507
4.945400714874268,-0.086785688996315,0.07000076025724411,0.000572213320992887,-0.045204851776361465,-0.00667582219466567,-0.023079270496964455
4.965568780899048,-0.0875486359000206,0.06961929053068161,0.0009536888683214784,-0.045204851776361465,-0.00667582219466567,-0.023079270496964455
4.985725164413452,-0.0875486359000206,0.06923781335353851,0.0009536888683214784,-0.04558632895350456,-0.007057297509163618,-0.023079270496964455
5.005781173706055,-0.0875486359000206,0.06923781335353851,0.0009536888683214784,-0.04558632895350456,-0.007438773289322853,-0.023460745811462402
5.025918245315552,-0.0879301130771637,0.06923781335353851,0.0013351644156500697,-0.04558632895350456,-0.007438773289322853,-0.023460745811462402
5.046036243438721,-0.0879301130771637,0.06885633617639542,0.0020981156267225742,-0.04558632895350456,-0.007057297509163618,-0.023460745811462402
5.066102504730225,-0.08869306743144989,0.06885633617639542,0.0024795911740511656,-0.04558632895350456,-0.00667582219466567,-0.024223696440458298
5.086170673370361,-0.08907453715801239,0.06885633617639542,0.002861066721379757,-0.04558632895350456,-0.007057297509163618,-0.024605173617601395
5.106338739395142,-0.08983749151229858,0.06847485899925232,0.0032425422687083483,-0.04596780240535736,-0.00667582219466567,-0.024986648932099342
5.12637186050415,-0.08983749151229858,0.06809338182210922,0.0032425422687083483,-0.04596780240535736,-0.007438773289322853,-0.024986648932099342
5.146449089050293,-0.09021896868944168,0.06809338182210922,0.0036240178160369396,-0.04634927958250046,-0.007438773289322853,-0.024986648932099342
5.166665315628052,-0.09098191559314728,0.06809338182210922,0.004005493130534887,-0.04634927958250046,-0.007057297509163618,-0.02536812424659729
5.186778783798218,-0.09174486994743347,0.06809338182210922,0.004386968910694122,-0.046730753034353256,-0.007057297509163618,-0.02536812424659729
5.206920623779297,-0.09174486994743347,0.06809338182210922,0.00476844422519207,-0.04749370738863945,-0.007057297509163618,-0.02536812424659729
5.227054834365845,-0.09174486994743347,0.06771191209554672,0.00476844422519207,-0.048256658017635345,-0.007438773289322853,-0.02536812424659729
5.247196674346924,-0.09288929402828217,0.06694895774126053,0.00476844422519207,-0.048638131469488144,-0.007438773289322853,-0.02536812424659729
5.267288684844971,-0.09327077120542526,0.06656748056411743,0.00476844422519207,-0.048638131469488144,-0.007438773289322853,-0.025749599561095238
5.28739595413208,-0.09365224838256836,0.06618601083755493,0.005149920005351305,-0.04901960864663124,-0.007438773289322853,-0.025749599561095238
5.30743670463562,-0.09403372555971146,0.06618601083755493,0.005531395319849253,-0.04901960864663124,-0.007438773289322853,-0.025749599561095238
5.327569484710693,-0.09403372555971146,0.06618601083755493,0.006294346414506435,-0.04940108209848404,-0.007438773289322853,-0.025749599561095238
5.347718954086304,-0.09479667246341705,0.06580453366041183,0.00667582219466567,-0.04940108209848404,-0.007438773289322853,-0.025749599561095238
5.367732763290405,-0.09479667246341705,0.06618601083755493,0.007057297509163618,-0.04940108209848404,-0.007438773289322853,-0.026131074875593185
5.38778829574585,-0.09479667246341705,0.06618601083755493,0.007057297509163618,-0.049782559275627136,-0.007438773289322853,-0.026131074875593185
5.407864809036255,-0.09517814964056015,0.06580453366041183,0.007057297509163618,-0.049782559275627136,-0.007438773289322853,-0.026131074875593185
5.427955865859985,-0.09555962681770325,0.06580453366041183,0.007057297509163618,-0.050164032727479935,-0.007438773289322853,-0.026131074875593185
5.448001861572266,-0.09632257372140884,0.06504157930612564,0.0078202486038208,-0.05054550990462303,-0.007438773289322853,-0.026512550190091133
5.468070030212402,-0.09708552807569504,0.06504157930612564,0.008201723918318748,-0.05092698708176613,-0.007057297509163618,-0.026512550190091133
5.488195896148682,-0.09708552807569504,0.06504157930612564,0.00858320016413927,-0.05130846053361893,-0.007438773289322853,-0.026512550190091133
5.508252143859863,-0.09746700525283813,0.06504157930612564,0.008964675478637218,-0.051689937710762024,-0.0078202486038208,-0.02689402550458908
5.528326988220215,-0.09784847497940063,0.06466010212898254,0.008964675478637218,-0.05207141116261482,-0.007438773289322853,-0.02689402550458908
5.548448085784912,-0.09861142933368683,0.06466010212898254,0.008964675478637218,-0.05207141116261482,-0.007438773289322853,-0.02689402550458908
5.568495512008667,-0.09937438368797302,0.06389715522527695,0.009346150793135166,-0.05245288833975792,-0.007438773289322853,-0.02727550081908703
5.5885467529296875,-0.09937438368797302,0.06389715522527695,0.009727626107633114,-0.05245288833975792,-0.007438773289322853,-0.02841992862522602
5.608606815338135,-0.09975585341453552,0.06389715522527695,0.010109102353453636,-0.05245288833975792,-0.0078202486038208,-0.02880140393972397
5.628711462020874,-0.10013733059167862,0.06389715522527695,0.010109102353453636,-0.05283436179161072,-0.0078202486038208,-0.029182879254221916
5.6488165855407715,-0.10051880776882172,0.06389715522527695,0.010490577667951584,-0.05283436179161072,-0.0078202486038208,-0.029182879254221916
5.668909072875977,-0.10128175467252731,0.06351567804813385,0.010872052982449532,-0.05283436179161072,-0.007438773289322853,-0.029182879254221916
5.6890764236450195,-0.10204470902681351,0.06313420087099075,0.010872052982449532,-0.053215838968753815,-0.007438773289322853,-0.029564354568719864
5.709172248840332,-0.10204470902681351,0.06313420087099075,0.01125352829694748,-0.053215838968753815,-0.0078202486038208,-0.029564354568719864
5.729362726211548,-0.10204470902681351,0.06275273114442825,0.011635004542768002,-0.053215838968753815,-0.0078202486038208,-0.029564354568719864
5.749352216720581,-0.10204470902681351,0.06275273114442825,0.01201647985726595,-0.053215838968753815,-0.0078202486038208,-0.029564354568719864
5.769411087036133,-0.1024261862039566,0.06275273114442825,0.012397955171763897,-0.05359731614589691,-0.0078202486038208,-0.029564354568719864
5.789544105529785,-0.1028076633810997,0.06237125024199486,0.012779430486261845,-0.05359731614589691,-0.007438773289322853,-0.029564354568719864
5.8095903396606445,-0.1035706102848053,0.06198977679014206,0.013160906732082367,-0.05397878959774971,-0.007438773289322853,-0.02994582988321781
5.829655408859253,-0.1039520874619484,0.06160829961299896,0.013160906732082367,-0.05397878959774971,-0.007438773289322853,-0.02994582988321781
5.849942207336426,-0.1039520874619484,0.06160829961299896,0.013160906732082367,-0.05436026677489281,-0.008201723918318748,-0.02994582988321781
5.870065212249756,-0.10471503436565399,0.061226826161146164,0.013542382046580315,-0.05436026677489281,-0.008201723918318748,-0.02994582988321781
5.890162944793701,-0.10509651154279709,0.06084534898400307,0.01430533267557621,-0.054741740226745605,-0.008201723918318748,-0.02994582988321781
5.910212755203247,-0.10585946589708328,0.06084534898400307,0.014686808921396732,-0.0555046908557415,-0.0078202486038208,-0.03032730519771576
5.930347681045532,-0.10624094307422638,0.06084534898400307,0.01506828423589468,-0.0558861680328846,-0.007438773289322853,-0.03032730519771576
5.950382232666016,-0.10624094307422638,0.06084534898400307,0.015449759550392628,-0.056267641484737396,-0.0078202486038208,-0.03032730519771576
5.970461368560791,-0.10662241280078888,0.06084534898400307,0.015449759550392628,-0.056267641484737396,-0.008201723918318748,-0.03032730519771576
5.990516901016235,-0.10738536715507507,0.06046387553215027,0.015449759550392628,-0.05664911866188049,-0.0078202486038208,-0.03032730519771576
6.010610342025757,-0.10814831405878067,0.05970092490315437,0.01583123579621315,-0.05664911866188049,-0.0078202486038208,-0.030708782374858856
6.030729055404663,-0.10852979123592377,0.059319447726011276,0.016212711110711098,-0.05664911866188049,-0.0078202486038208,-0.030708782374858856
6.0508599281311035,-0.10852979123592377,0.05893797054886818,0.016594186425209045,-0.05703059583902359,-0.0078202486038208,-0.030708782374858856
6.070883274078369,-0.10929274559020996,0.05893797054886818,0.01735713705420494,-0.05703059583902359,-0.0078202486038208,-0.030708782374858856
6.091021537780762,-0.10929274559020996,0.05893797054886818,0.01735713705420494,-0.05741206929087639,-0.008201723918318748,-0.031090257689356804
6.1111156940460205,-0.10929274559020996,0.05893797054886818,0.01735713705420494,-0.05741206929087639,-0.0078202486038208,-0.031090257689356804
6.131181001663208,-0.10967422276735306,0.05855649709701538,0.01773861236870289,-0.057793546468019485,-0.008201723918318748,-0.03147173300385475
6.151248931884766,-0.10967422276735306,0.05855649709701538,0.018120087683200836,-0.058175019919872284,-0.0078202486038208,-0.03185320645570755
6.17142915725708,-0.11005569249391556,0.05855649709701538,0.018501564860343933,-0.05893797054886818,-0.0078202486038208,-0.03223468363285065
6.191533803939819,-0.11081864684820175,0.05855649709701538,0.01926451548933983,-0.05970092490315437,-0.0078202486038208,-0.032616160809993744
6.21161961555481,-0.11158160120248795,0.058175019919872284,0.019645990803837776,-0.05970092490315437,-0.0078202486038208,-0.032616160809993744
6.23165225982666,-0.11158160120248795,0.057793546468019485,0.019645990803837776,-0.06008239835500717,-0.008201723918318748,-0.032616160809993744
6.251698970794678,-0.11158160120248795,0.057793546468019485,0.019645990803837776,-0.06008239835500717,-0.008201723918318748,-0.032616160809993744
6.271786689758301,-0.11234454810619354,0.05741206929087639,0.019645990803837776,-0.06008239835500717,-0.008201723918318748,-0.032616160809993744
6.291853666305542,-0.11272602528333664,0.05741206929087639,0.02040894143283367,-0.06046387553215027,-0.0078202486038208,-0.032616160809993744
6.311971664428711,-0.11387044936418533,0.05664911866188049,0.021171892061829567,-0.06046387553215027,-0.007438773289322853,-0.03299763426184654
6.332040786743164,-0.11425192654132843,0.05664911866188049,0.021553369238972664,-0.06046387553215027,-0.0078202486038208,-0.03299763426184654
6.352126836776733,-0.11463340371847153,0.05664911866188049,0.021553369238972664,-0.06046387553215027,-0.008201723918318748,-0.03299763426184654
6.372230529785156,-0.11463340371847153,0.05664911866188049,0.021553369238972664,-0.06084534898400307,-0.00858320016413927,-0.03299763426184654
6.392315149307251,-0.11501488089561462,0.056267641484737396,0.021553369238972664,-0.06084534898400307,-0.008201723918318748,-0.03299763426184654
6.412398338317871,-0.11615930497646332,0.056267641484737396,0.02231631986796856,-0.06084534898400307,-0.0078202486038208,-0.03299763426184654
6.432538747787476,-0.11654078215360641,0.0558861680328846,0.022697795182466507,-0.061226826161146164,-0.0078202486038208,-0.03337911143898964
6.45257043838501,-0.11654078215360641,0.0558861680328846,0.023079270496964455,-0.06160829961299896,-0.0078202486038208,-0.03337911143898964
6.472623109817505,-0.11654078215360641,0.0555046908557415,0.023460745811462402,-0.06160829961299896,-0.008201723918318748,-0.03337911143898964
6.492719411849976,-0.11692225188016891,0.0555046908557415,0.02384222112596035,-0.06237125024199486,-0.008201723918318748,-0.03337911143898964
6.512786626815796,-0.11692225188016891,0.0551232174038887,0.02384222112596035,-0.06313420087099075,-0.008201723918318748,-0.03337911143898964
6.53294825553894,-0.11730372905731201,0.054741740226745605,0.024605173617601395,-0.06351567804813385,-0.0078202486038208,-0.03337911143898964
6.553005933761597,-0.1180666834115982,0.05436026677489281,0.024986648932099342,-0.06389715522527695,-0.0078202486038208,-0.03376058489084244
6.573096513748169,-0.1188296303153038,0.054741740226745605,0.02536812424659729,-0.06389715522527695,-0.0078202486038208,-0.03376058489084244
6.593173265457153,-0.1188296303153038,0.05436026677489281,0.02536812424659729,-0.06427863240242004,-0.008201723918318748,-0.03376058489084244
6.613209009170532,-0.1188296303153038,0.05397878959774971,0.02536812424659729,-0.06427863240242004,-0.00858320016413927,-0.03376058489084244
6.633641004562378,-0.11959258466959,0.05359731614589691,0.025749599561095238,-0.06427863240242004,-0.00858320016413927,-0.03376058489084244
6.653804540634155,-0.1203555315732956,0.05359731614589691,0.025749599561095238,-0.06466010212898254,-0.00858320016413927,-0.03376058489084244
6.673833131790161,-0.12073700875043869,0.05359731614589691,0.026131074875593185,-0.06466010212898254,-0.008201723918318748,-0.03376058489084244
6.693886041641235,-0.12073700875043869,0.05359731614589691,0.026512550190091133,-0.06504157930612564,-0.008201723918318748,-0.034142062067985535
6.714162588119507,-0.12111848592758179,0.05359731614589691,0.02689402550458908,-0.06504157930612564,-0.00858320016413927,-0.034142062067985535
6.734235048294067,-0.12188144028186798,0.05359731614589691,0.02727550081908703,-0.06542305648326874,-0.00858320016413927,-0.034142062067985535
6.754383563995361,-0.12226291000843048,0.053215838968753815,0.027656977996230125,-0.06618601083755493,-0.00858320016413927,-0.034142062067985535
6.774486303329468,-0.12226291000843048,0.05245288833975792,0.027656977996230125,-0.06694895774126053,-0.00858320016413927,-0.03452353551983833
6.79451060295105,-0.12302586436271667,0.05245288833975792,0.028038453310728073,-0.06733043491840363,-0.008201723918318748,-0.03490501269698143
6.814722537994385,-0.12378881871700287,0.051689937710762024,0.02880140393972397,-0.06771191209554672,-0.008201723918318748,-0.03490501269698143
6.834712266921997,-0.12417028844356537,0.051689937710762024,0.029182879254221916,-0.06771191209554672,-0.00858320016413927,-0.03528648987412453
6.854781866073608,-0.12378881871700287,0.051689937710762024,0.029564354568719864,-0.06771191209554672,-0.00858320016413927,-0.03528648987412453
6.874872446060181,-0.12417028844356537,0.051689937710762024,0.02994582988321781,-0.06809338182210922,-0.008964675478637218,-0.035667963325977325
6.8949103355407715,-0.12455176562070847,0.05130846053361893,0.02994582988321781,-0.06809338182210922,-0.00858320016413927,-0.035667963325977325
6.915018320083618,-0.12493324279785156,0.05130846053361893,0.03032730519771576,-0.06847485899925232,-0.008201723918318748,-0.03604944050312042
6.935105085372925,-0.12607766687870026,0.05054550990462303,0.031090257689356804,-0.06847485899925232,-0.008201723918318748,-0.03643091395497322
6.9552390575408936,-0.12607766687870026,0.05054550990462303,0.03147173300385475,-0.06885633617639542,-0.00858320016413927,-0.03643091395497322
6.97527813911438,-0.12607766687870026,0.05054550990462303,0.03185320645570755,-0.06885633617639542,-0.00858320016413927,-0.03643091395497322
6.995398283004761,-0.12684062123298645,0.05054550990462303,0.03185320645570755,-0.06923781335353851,-0.008964675478637218,-0.03681239113211632
7.01542592048645,-0.12722209095954895,0.050164032727479935,0.03223468363285065,-0.06923781335353851,-0.008964675478637218,-0.03681239113211632
7.035479307174683,-0.12798504531383514,0.049782559275627136,0.03223468363285065,-0.07000076025724411,-0.00858320016413927,-0.037193864583969116
7.0555806159973145,-0.12874799966812134,0.04940108209848404,0.03299763426184654,-0.07038223743438721,-0.00858320016413927,-0.037193864583969116
7.075692176818848,-0.12912946939468384,0.04940108209848404,0.03337911143898964,-0.0711451917886734,-0.00858320016413927,-0.037193864583969116
7.0957818031311035,-0.12912946939468384,0.04940108209848404,0.034142062067985535,-0.0711451917886734,-0.008964675478637218,-0.037193864583969116
7.115835666656494,-0.12912946939468384,0.04940108209848404,0.034142062067985535,-0.0711451917886734,-0.009346150793135166,-0.037193864583969116
7.135917901992798,-0.12989242374897003,0.048638131469488144,0.03490501269698143,-0.0715266615152359,-0.009346150793135166,-0.037193864583969116
7.155994415283203,-0.13065537810325623,0.048256658017635345,0.03528648987412453,-0.0715266615152359,-0.00858320016413927,-0.037193864583969116
7.1760900020599365,-0.13103684782981873,0.048256658017635345,0.03528648987412453,-0.071908138692379,-0.00858320016413927,-0.03757534176111221
7.196239471435547,-0.13103684782981873,0.048256658017635345,0.035667963325977325,-0.071908138692379,-0.008964675478637218,-0.03757534176111221
7.216317415237427,-0.13141833245754242,0.048256658017635345,0.03643091395497322,-0.071908138692379,-0.009727626107633114,-0.03757534176111221
7.2364606857299805,-0.13141833245754242,0.04749370738863945,0.03681239113211632,-0.0722896158695221,-0.010109102353453636,-0.03757534176111221
7.256588697433472,-0.13141833245754242,0.04749370738863945,0.037193864583969116,-0.0722896158695221,-0.009727626107633114,-0.03795681521296501
7.276700973510742,-0.13179980218410492,0.04711223021149635,0.037193864583969116,-0.0722896158695221,-0.009727626107633114,-0.03833829239010811
7.296787977218628,-0.1325627565383911,0.04711223021149635,0.037193864583969116,-0.07267109304666519,-0.009346150793135166,-0.03833829239010811
7.316948652267456,-0.1333257108926773,0.046730753034353256,0.03795681521296501,-0.07305257022380829,-0.009346150793135166,-0.03833829239010811
7.337045192718506,-0.1333257108926773,0.04634927958250046,0.03795681521296501,-0.07381551712751389,-0.009727626107633114,-0.038719769567251205
7.357080459594727,-0.134470134973526,0.04634927958250046,0.03833829239010811,-0.07419699430465698,-0.010109102353453636,-0.038719769567251205
7.377184152603149,-0.135233074426651,0.04634927958250046,0.039101243019104004,-0.07457847148180008,-0.010109102353453636,-0.039101243019104004
7.397234201431274,-0.1356145590543747,0.04634927958250046,0.039101243019104004,-0.07495994865894318,-0.009727626107633114,-0.0398641936480999
7.41728949546814,-0.1356145590543747,0.04634927958250046,0.0394827201962471,-0.07534141838550568,-0.009727626107633114,-0.0398641936480999
7.437368869781494,-0.1359960287809372,0.04596780240535736,0.0398641936480999,-0.07534141838550568,-0.010109102353453636,-0.0398641936480999
7.457430839538574,-0.1363775134086609,0.045204851776361465,0.0398641936480999,-0.07534141838550568,-0.009727626107633114,-0.040245670825242996
7.477493047714233,-0.1367589831352234,0.04482337832450867,0.040245670825242996,-0.07572289556264877,-0.010109102353453636,-0.040245670825242996
7.4975502490997314,-0.1367589831352234,0.04444190114736557,0.040245670825242996,-0.07572289556264877,-0.010109102353453636,-0.040245670825242996
7.5176239013671875,-0.13752193748950958,0.04444190114736557,0.04100862145423889,-0.07572289556264877,-0.010109102353453636,-0.040245670825242996
7.5377302169799805,-0.13790340721607208,0.04444190114736557,0.04139009863138199,-0.07610437273979187,-0.010109102353453636,-0.040627144277095795
7.5577943325042725,-0.13828489184379578,0.04444190114736557,0.04139009863138199,-0.07610437273979187,-0.010109102353453636,-0.040627144277095795
7.577864170074463,-0.13866636157035828,0.04444190114736557,0.04177157208323479,-0.07648584991693497,-0.010109102353453636,-0.040627144277095795
7.59802770614624,-0.13866636157035828,0.04406042397022247,0.042153049260377884,-0.07686731964349747,-0.010109102353453636,-0.040627144277095795
7.618042469024658,-0.13904783129692078,0.04329747334122658,0.042153049260377884,-0.07724879682064056,-0.010109102353453636,-0.040627144277095795
7.638109922409058,-0.13942931592464447,0.04329747334122658,0.04291599988937378,-0.07763027399778366,-0.010109102353453636,-0.04100862145423889
7.6581666469573975,-0.14019227027893066,0.04329747334122658,0.04329747334122658,-0.07839322835206985,-0.010109102353453636,-0.04100862145423889
7.67824125289917,-0.14095520973205566,0.04291599988937378,0.043678950518369675,-0.07877469807863235,-0.009727626107633114,-0.04100862145423889
7.698349475860596,-0.14095520973205566,0.04253452271223068,0.04444190114736557,-0.07877469807863235,-0.010109102353453636,-0.04100862145423889
7.718409776687622,-0.14171816408634186,0.04253452271223068,0.04444190114736557,-0.07877469807863235,-0.010490577667951584,-0.04100862145423889
7.73854398727417,-0.14209964871406555,0.042153049260377884,0.04444190114736557,-0.07915617525577545,-0.010490577667951584,-0.04100862145423889
7.758662700653076,-0.14286258816719055,0.042153049260377884,0.04482337832450867,-0.07915617525577545,-0.010490577667951584,-0.04100862145423889
7.778824329376221,-0.14324407279491425,0.04139009863138199,0.04558632895350456,-0.07953765243291855,-0.010109102353453636,-0.04139009863138199
7.798841953277588,-0.14362554252147675,0.04139009863138199,0.04634927958250046,-0.07953765243291855,-0.010109102353453636,-0.04139009863138199
7.8189380168914795,-0.14362554252147675,0.04139009863138199,0.04634927958250046,-0.07991912961006165,-0.010490577667951584,-0.04139009863138199
7.839113235473633,-0.14400701224803925,0.04139009863138199,0.046730753034353256,-0.07991912961006165,-0.010490577667951584,-0.04139009863138199
7.85919189453125,-0.14400701224803925,0.04100862145423889,0.046730753034353256,-0.07991912961006165,-0.010490577667951584,-0.04139009863138199
7.879197597503662,-0.14515145123004913,0.04100862145423889,0.04711223021149635,-0.08030059933662415,-0.010109102353453636,-0.04177157208323479
7.8992931842803955,-0.14591439068317413,0.040245670825242996,0.04749370738863945,-0.08106355369091034,-0.010109102353453636,-0.04177157208323479
7.9193644523620605,-0.14591439068317413,0.040245670825242996,0.048256658017635345,-0.08182650804519653,-0.010490577667951584,-0.042153049260377884
7.939484596252441,-0.14591439068317413,0.040245670825242996,0.048256658017635345,-0.08182650804519653,-0.010872052982449532,-0.042153049260377884
7.959625959396362,-0.14591439068317413,0.040245670825242996,0.048638131469488144,-0.08220797777175903,-0.010872052982449532,-0.042153049260377884
7.979814052581787,-0.14667734503746033,0.0398641936480999,0.048638131469488144,-0.08220797777175903,-0.010490577667951584,-0.04253452271223068
7.999825954437256,-0.14705882966518402,0.0394827201962471,0.04901960864663124,-0.08258945494890213,-0.010109102353453636,-0.04329747334122658
8.019872903823853,-0.14782176911830902,0.0394827201962471,0.049782559275627136,-0.08258945494890213,-0.010109102353453636,-0.043678950518369675
8.039958000183105,-0.14820325374603271,0.039101243019104004,0.05054550990462303,-0.08258945494890213,-0.010109102353453636,-0.04406042397022247
8.060049057006836,-0.14858472347259521,0.039101243019104004,0.05092698708176613,-0.08297093212604523,-0.010490577667951584,-0.04406042397022247
8.080143928527832,-0.1489662081003189,0.039101243019104004,0.051689937710762024,-0.08297093212604523,-0.010872052982449532,-0.04444190114736557
8.100167512893677,-0.1501106321811676,0.03833829239010811,0.051689937710762024,-0.08335240930318832,-0.010872052982449532,-0.04444190114736557
8.12028980255127,-0.1501106321811676,0.03795681521296501,0.05207141116261482,-0.08335240930318832,-0.010872052982449532,-0.04444190114736557
8.14033579826355,-0.1504921019077301,0.03795681521296501,0.05245288833975792,-0.08373387902975082,-0.010490577667951584,-0.04444190114736557
8.16047191619873,-0.1512550562620163,0.037193864583969116,0.05245288833975792,-0.08373387902975082,-0.010490577667951584,-0.04482337832450867
8.180544376373291,-0.1516365259885788,0.037193864583969116,0.053215838968753815,-0.08411535620689392,-0.010490577667951584,-0.04482337832450867
8.200680017471313,-0.1520180106163025,0.037193864583969116,0.05397878959774971,-0.08449683338403702,-0.010872052982449532,-0.04482337832450867
8.220770835876465,-0.1527809500694275,0.037193864583969116,0.05397878959774971,-0.08487831056118011,-0.010872052982449532,-0.04482337832450867
8.240816831588745,-0.15316243469715118,0.03681239113211632,0.05436026677489281,-0.08602273464202881,-0.010490577667951584,-0.045204851776361465
8.260906219482422,-0.15354390442371368,0.03604944050312042,0.0551232174038887,-0.0864042118191719,-0.010872052982449532,-0.045204851776361465
8.2809739112854,-0.15354390442371368,0.03604944050312042,0.0555046908557415,-0.0864042118191719,-0.010872052982449532,-0.04558632895350456
8.301041603088379,-0.15354390442371368,0.03604944050312042,0.0558861680328846,-0.086785688996315,-0.010872052982449532,-0.04558632895350456
8.321111679077148,-0.15430685877799988,0.035667963325977325,0.056267641484737396,-0.086785688996315,-0.010490577667951584,-0.04596780240535736
8.341221809387207,-0.15430685877799988,0.03528648987412453,0.05664911866188049,-0.0871671661734581,-0.010490577667951584,-0.04596780240535736
8.361244201660156,-0.15545128285884857,0.03490501269698143,0.05664911866188049,-0.0871671661734581,-0.010872052982449532,-0.04711223021149635
8.381380558013916,-0.15545128285884857,0.03490501269698143,0.05664911866188049,-0.0879301130771637,-0.010872052982449532,-0.048256658017635345
8.401414394378662,-0.15621423721313477,0.03452353551983833,0.05741206929087639,-0.0879301130771637,-0.010872052982449532,-0.048256658017635345
8.421578884124756,-0.15659570693969727,0.034142062067985535,0.058175019919872284,-0.08869306743144989,-0.010872052982449532,-0.048256658017635345
8.44158148765564,-0.15659570693969727,0.034142062067985535,0.058175019919872284,-0.08907453715801239,-0.010872052982449532,-0.048256658017635345
8.461688995361328,-0.15735866129398346,0.034142062067985535,0.05855649709701538,-0.08945601433515549,-0.010490577667951584,-0.048256658017635345
8.481815576553345,-0.15774014592170715,0.03376058489084244,0.05893797054886818,-0.08983749151229858,-0.010490577667951584,-0.048256658017635345
8.501837491989136,-0.15812161564826965,0.03376058489084244,0.05893797054886818,-0.08983749151229858,-0.010872052982449532,-0.048256658017635345
8.521897077560425,-0.15850308537483215,0.03299763426184654,0.05893797054886818,-0.08983749151229858,-0.010872052982449532,-0.048256658017635345
8.54198169708252,-0.15888457000255585,0.03299763426184654,0.06008239835500717,-0.09021896868944168,-0.010872052982449532,-0.048256658017635345
8.562081336975098,-0.15964750945568085,0.032616160809993744,0.06046387553215027,-0.09021896868944168,-0.010872052982449532,-0.048256658017635345
8.582087278366089,-0.16041046380996704,0.032616160809993744,0.06084534898400307,-0.09060044586658478,-0.010490577667951584,-0.048638131469488144
8.60216999053955,-0.16041046380996704,0.03223468363285065,0.061226826161146164,-0.09098191559314728,-0.010872052982449532,-0.048638131469488144
8.622259378433228,-0.16079194843769073,0.03223468363285065,0.06160829961299896,-0.09098191559314728,-0.010872052982449532,-0.048638131469488144
8.64231538772583,-0.16079194843769073,0.03185320645570755,0.06198977679014206,-0.09136339277029037,-0.010872052982449532,-0.048638131469488144
8.662361860275269,-0.16117341816425323,0.03185320645570755,0.06237125024199486,-0.09136339277029037,-0.010872052982449532,-0.048638131469488144
8.68244743347168,-0.16193637251853943,0.03147173300385475,0.06275273114442825,-0.09174486994743347,-0.010872052982449532,-0.048638131469488144
8.702517986297607,-0.16269932687282562,0.031090257689356804,0.06313420087099075,-0.09250781685113907,-0.010490577667951584,-0.048638131469488144
8.722571849822998,-0.16269932687282562,0.031090257689356804,0.06389715522527695,-0.09365224838256836,-0.010872052982449532,-0.04901960864663124
8.742702007293701,-0.16308079659938812,0.030708782374858856,0.06466010212898254,-0.09403372555971146,-0.01125352829694748,-0.04901960864663124
8.762784719467163,-0.16384375095367432,0.02994582988321781,0.06504157930612564,-0.09403372555971146,-0.010872052982449532,-0.04901960864663124
8.782853364944458,-0.1646067053079605,0.02994582988321781,0.06542305648326874,-0.09441519528627396,-0.010490577667951584,-0.04940108209848404
8.80291199684143,-0.164988175034523,0.02994582988321781,0.06618601083755493,-0.09441519528627396,-0.010872052982449532,-0.04940108209848404
8.822980880737305,-0.164988175034523,0.029564354568719864,0.06656748056411743,-0.09441519528627396,-0.010490577667951584,-0.049782559275627136
8.843061447143555,-0.1657511293888092,0.029182879254221916,0.06694895774126053,-0.09441519528627396,-0.010490577667951584,-0.049782559275627136
8.863198280334473,-0.1665140837430954,0.02880140393972397,0.06733043491840363,-0.09479667246341705,-0.010872052982449532,-0.050164032727479935
8.883219957351685,-0.1668955534696579,0.02880140393972397,0.06809338182210922,-0.09517814964056015,-0.010872052982449532,-0.05054550990462303
8.903312683105469,-0.1672770231962204,0.028038453310728073,0.06847485899925232,-0.09555962681770325,-0.010872052982449532,-0.05092698708176613
8.923369884490967,-0.1676585078239441,0.028038453310728073,0.06885633617639542,-0.09594109654426575,-0.010490577667951584,-0.05130846053361893
8.943441152572632,-0.1676585078239441,0.027656977996230125,0.06923781335353851,-0.09670405089855194,-0.010490577667951584,-0.051689937710762024
8.96348762512207,-0.1676585078239441,0.027656977996230125,0.06923781335353851,-0.09708552807569504,-0.010490577667951584,-0.051689937710762024
8.983569860458374,-0.1680399775505066,0.027656977996230125,0.06961929053068161,-0.09746700525283813,-0.010490577667951584,-0.051689937710762024
9.0036461353302,-0.1684214472770691,0.02689402550458908,0.07038223743438721,-0.09746700525283813,-0.010490577667951584,-0.051689937710762024
9.023736000061035,-0.16918440163135529,0.02689402550458908,0.0707637146115303,-0.09746700525283813,-0.010490577667951584,-0.051689937710762024
9.043766021728516,-0.16994735598564148,0.02689402550458908,0.0715266615152359,-0.09784847497940063,-0.010490577667951584,-0.05207141116261482
9.063854932785034,-0.16994735598564148,0.026512550190091133,0.071908138692379,-0.09784847497940063,-0.010490577667951584,-0.05207141116261482
9.083915948867798,-0.17032882571220398,0.026131074875593185,0.07267109304666519,-0.09784847497940063,-0.010872052982449532,-0.05207141116261482
9.103976488113403,-0.17071031033992767,0.025749599561095238,0.07267109304666519,-0.09784847497940063,-0.010490577667951584,-0.05207141116261482
9.12402057647705,-0.17147326469421387,0.025749599561095238,0.07305257022380829,-0.09822995215654373,-0.010490577667951584,-0.05245288833975792
9.144109964370728,-0.17223620414733887,0.025749599561095238,0.07343403995037079,-0.09822995215654373,-0.010109102353453636,-0.05245288833975792
9.164172410964966,-0.17223620414733887,0.02536812424659729,0.07381551712751389,-0.09861142933368683,-0.010109102353453636,-0.05245288833975792
9.18426513671875,-0.17261768877506256,0.024986648932099342,0.07381551712751389,-0.09861142933368683,-0.010490577667951584,-0.05245288833975792
9.204659461975098,-0.17299915850162506,0.024986648932099342,0.07457847148180008,-0.09899290651082993,-0.010490577667951584,-0.05245288833975792
9.2247474193573,-0.17376211285591125,0.024605173617601395,0.07495994865894318,-0.09937438368797302,-0.010109102353453636,-0.05283436179161072
9.244812965393066,-0.17414358258247375,0.024605173617601395,0.07572289556264877,-0.09975585341453552,-0.010109102353453636,-0.05283436179161072
9.264887571334839,-0.17452506721019745,0.024605173617601395,0.07572289556264877,-0.10090028494596481,-0.010109102353453636,-0.05283436179161072
9.284942626953125,-0.17490653693675995,0.02384222112596035,0.07610437273979187,-0.10128175467252731,-0.010490577667951584,-0.053215838968753815
9.305207967758179,-0.17528800666332245,0.023460745811462402,0.07686731964349747,-0.10128175467252731,-0.010490577667951584,-0.053215838968753815
9.32522201538086,-0.17528800666332245,0.022697795182466507,0.07686731964349747,-0.10166323184967041,-0.010490577667951584,-0.053215838968753815
9.345281839370728,-0.17566949129104614,0.022697795182466507,0.07724879682064056,-0.10166323184967041,-0.010490577667951584,-0.05359731614589691
9.365429639816284,-0.17643244564533234,0.022697795182466507,0.07801175117492676,-0.10204470902681351,-0.010109102353453636,-0.05397878959774971
9.385447978973389,-0.17719538509845734,0.022697795182466507,0.07839322835206985,-0.1024261862039566,-0.010109102353453636,-0.0555046908557415
9.405491352081299,-0.17719538509845734,0.022697795182466507,0.07915617525577545,-0.1028076633810997,-0.010109102353453636,-0.0558861680328846
9.42556881904602,-0.17795833945274353,0.02193484455347061,0.07991912961006165,-0.1031891331076622,-0.010490577667951584,-0.0558861680328846
9.445630311965942,-0.17910276353359222,0.021553369238972664,0.08068207651376724,-0.10433356463909149,-0.010490577667951584,-0.0558861680328846
9.465693950653076,-0.17948424816131592,0.021553369238972664,0.08106355369091034,-0.10471503436565399,-0.010109102353453636,-0.056267641484737396
9.485774993896484,-0.17986571788787842,0.021553369238972664,0.08106355369091034,-0.10471503436565399,-0.010109102353453636,-0.056267641484737396
9.505866765975952,-0.1802472025156021,0.02079041674733162,0.08144503086805344,-0.10509651154279709,-0.010490577667951584,-0.056267641484737396
9.525981426239014,-0.1806286722421646,0.02040894143283367,0.08182650804519653,-0.10509651154279709,-0.010490577667951584,-0.056267641484737396
9.54606294631958,-0.1810101419687271,0.02040894143283367,0.08297093212604523,-0.10509651154279709,-0.010109102353453636,-0.056267641484737396
9.56611704826355,-0.1817730963230133,0.02040894143283367,0.08335240930318832,-0.10547798871994019,-0.010490577667951584,-0.056267641484737396
9.58626103401184,-0.182154580950737,0.020027466118335724,0.08411535620689392,-0.10547798871994019,-0.010109102353453636,-0.05664911866188049
9.606287479400635,-0.182154580950737,0.019645990803837776,0.08449683338403702,-0.10585946589708328,-0.010490577667951584,-0.05664911866188049
9.626392126083374,-0.182154580950737,0.019645990803837776,0.08487831056118011,-0.10585946589708328,-0.010490577667951584,-0.05664911866188049
9.646451234817505,-0.1825360506772995,0.01926451548933983,0.08487831056118011,-0.10585946589708328,-0.010490577667951584,-0.05703059583902359
9.666632175445557,-0.1832990050315857,0.018501564860343933,0.08525978773832321,-0.10624094307422638,-0.010109102353453636,-0.05703059583902359
9.68669319152832,-0.1840619444847107,0.018501564860343933,0.08602273464202881,-0.10662241280078888,-0.010109102353453636,-0.05741206929087639
9.706759929656982,-0.1844434291124344,0.018120087683200836,0.0864042118191719,-0.10700388997793198,-0.010109102353453636,-0.057793546468019485
9.726814985275269,-0.1844434291124344,0.01773861236870289,0.0871671661734581,-0.10776684433221817,-0.010109102353453636,-0.057793546468019485
9.746923446655273,-0.18520638346672058,0.01773861236870289,0.0875486359000206,-0.10814831405878067,-0.010490577667951584,-0.058175019919872284
9.766998767852783,-0.18596932291984558,0.01735713705420494,0.0883115902543068,-0.10852979123592377,-0.010490577667951584,-0.05855649709701538
9.787091255187988,-0.18635080754756927,0.01735713705420494,0.0883115902543068,-0.10891126841306686,-0.010109102353453636,-0.05855649709701538
9.807282209396362,-0.18673227727413177,0.016975661739706993,0.08907453715801239,-0.10929274559020996,-0.010109102353453636,-0.05893797054886818
9.827377557754517,-0.18749523162841797,0.016594186425209045,0.08983749151229858,-0.10929274559020996,-0.010109102353453636,-0.05893797054886818
9.84743046760559,-0.18787670135498047,0.016212711110711098,0.09021896868944168,-0.10929274559020996,-0.010109102353453636,-0.05893797054886818
9.86771297454834,-0.18863965570926666,0.01583123579621315,0.09060044586658478,-0.10967422276735306,-0.010109102353453636,-0.05893797054886818
9.887802124023438,-0.18940261006355286,0.015449759550392628,0.09136339277029037,-0.11005569249391556,-0.010109102353453636,-0.059319447726011276
9.90786337852478,-0.18940261006355286,0.015449759550392628,0.09174486994743347,-0.11081864684820175,-0.010490577667951584,-0.059319447726011276
9.927922487258911,-0.18940261006355286,0.015449759550392628,0.09212634712457657,-0.11158160120248795,-0.010490577667951584,-0.059319447726011276
9.948001623153687,-0.18978407979011536,0.01506828423589468,0.09250781685113907,-0.11196307092905045,-0.010109102353453636,-0.059319447726011276
9.968155145645142,-0.19054703414440155,0.01430533267557621,0.09365224838256836,-0.11234454810619354,-0.010109102353453636,-0.059319447726011276
9.988189935684204,-0.19130998849868774,0.01430533267557621,0.09403372555971146,-0.11234454810619354,-0.009727626107633114,-0.059319447726011276
10.00833797454834,-0.19130998849868774,0.01430533267557621,0.09479667246341705,-0.11272602528333664,-0.010109102353453636,-0.05970092490315437
10.028501510620117,-0.19169145822525024,0.013923857361078262,0.09555962681770325,-0.11272602528333664,-0.010490577667951584,-0.05970092490315437
10.048598527908325,-0.19207294285297394,0.013160906732082367,0.09594109654426575,-0.11272602528333664,-0.010490577667951584,-0.05970092490315437
10.06861686706543,-0.19283588230609894,0.013160906732082367,0.09670405089855194,-0.11310750246047974,-0.010109102353453636,-0.05970092490315437
10.08872127532959,-0.19359883666038513,0.013160906732082367,0.09708552807569504,-0.11348897218704224,-0.009727626107633114,-0.05970092490315437
10.108801364898682,-0.19436179101467133,0.012397955171763897,0.09784847497940063,-0.11387044936418533,-0.009727626107633114,-0.06008239835500717
10.129019021987915,-0.19474326074123383,0.01201647985726595,0.09822995215654373,-0.11425192654132843,-0.009727626107633114,-0.06008239835500717
10.148998260498047,-0.19474326074123383,0.01201647985726595,0.09861142933368683,-0.11463340371847153,-0.010490577667951584,-0.06008239835500717
10.169083833694458,-0.1958876997232437,0.01125352829694748,0.09937438368797302,-0.11501488089561462,-0.010109102353453636,-0.06008239835500717
10.189176559448242,-0.1966506391763687,0.010872052982449532,0.09975585341453552,-0.11615930497646332,-0.010109102353453636,-0.06046387553215027
10.20932126045227,-0.1966506391763687,0.010872052982449532,0.10051880776882172,-0.11615930497646332,-0.009727626107633114,-0.06046387553215027
10.2294282913208,-0.1966506391763687,0.010490577667951584,0.10051880776882172,-0.11654078215360641,-0.010109102353453636,-0.06046387553215027
10.249465942382812,-0.1966506391763687,0.010109102353453636,0.10128175467252731,-0.11654078215360641,-0.010109102353453636,-0.06046387553215027
10.269577741622925,-0.1970321238040924,0.010109102353453636,0.10204470902681351,-0.11692225188016891,-0.009727626107633114,-0.06084534898400307
10.289638757705688,-0.1974135935306549,0.010109102353453636,0.10204470902681351,-0.11692225188016891,-0.009727626107633114,-0.06084534898400307
10.309802055358887,-0.1985580176115036,0.010109102353453636,0.1028076633810997,-0.11730372905731201,-0.009727626107633114,-0.06160829961299896
10.329859733581543,-0.1989395022392273,0.009346150793135166,0.1028076633810997,-0.11768520623445511,-0.009727626107633114,-0.06237125024199486
10.349975824356079,-0.1989395022392273,0.008964675478637218,0.1035706102848053,-0.1184481605887413,-0.010109102353453636,-0.06275273114442825
10.370033740997314,-0.1993209719657898,0.008201723918318748,0.1039520874619484,-0.1192111074924469,-0.010109102353453636,-0.06275273114442825
10.390102863311768,-0.200083926320076,0.008201723918318748,0.10433356463909149,-0.11959258466959,-0.009727626107633114,-0.06313420087099075
10.410245418548584,-0.20084688067436218,0.008201723918318748,0.10471503436565399,-0.1199740618467331,-0.009346150793135166,-0.06351567804813385
10.430274486541748,-0.20160982012748718,0.008201723918318748,0.10547798871994019,-0.1203555315732956,-0.009346150793135166,-0.06351567804813385
10.450422763824463,-0.20199130475521088,0.0078202486038208,0.10585946589708328,-0.1203555315732956,-0.009346150793135166,-0.06351567804813385
10.47041392326355,-0.20199130475521088,0.007057297509163618,0.10585946589708328,-0.12073700875043869,-0.009727626107633114,-0.06351567804813385
10.490516424179077,-0.20237277448177338,0.007057297509163618,0.10662241280078888,-0.12073700875043869,-0.009727626107633114,-0.06389715522527695
10.51057767868042,-0.20313572883605957,0.00667582219466567,0.10700388997793198,-0.12073700875043869,-0.009346150793135166,-0.06389715522527695
10.530647277832031,-0.20389868319034576,0.006294346414506435,0.10738536715507507,-0.12111848592758179,-0.009346150793135166,-0.06427863240242004
10.550714492797852,-0.20389868319034576,0.005912871100008488,0.10814831405878067,-0.12188144028186798,-0.009346150793135166,-0.06427863240242004
10.57081413269043,-0.20389868319034576,0.005912871100008488,0.10891126841306686,-0.12226291000843048,-0.009346150793135166,-0.06427863240242004
10.590899229049683,-0.20428015291690826,0.005531395319849253,0.10967422276735306,-0.12264438718557358,-0.009727626107633114,-0.06466010212898254
10.610952138900757,-0.20466163754463196,0.005531395319849253,0.11005569249391556,-0.12340734153985977,-0.009346150793135166,-0.06504157930612564
10.631107091903687,-0.20542457699775696,0.005149920005351305,0.11043716967105865,-0.12378881871700287,-0.008964675478637218,-0.06504157930612564
10.651196241378784,-0.20580606162548065,0.00476844422519207,0.11120012402534485,-0.12378881871700287,-0.00858320016413927,-0.06542305648326874
10.671261072158813,-0.20618753135204315,0.004005493130534887,0.11196307092905045,-0.12417028844356537,-0.008964675478637218,-0.06580453366041183
10.691326141357422,-0.20618753135204315,0.0036240178160369396,0.11234454810619354,-0.12417028844356537,-0.008964675478637218,-0.06618601083755493
10.711433410644531,-0.20695048570632935,0.004005493130534887,0.11272602528333664,-0.12417028844356537,-0.008964675478637218,-0.06656748056411743
10.731543064117432,-0.20771344006061554,0.0036240178160369396,0.11310750246047974,-0.12455176562070847,-0.00858320016413927,-0.06656748056411743
10.751618146896362,-0.20847637951374054,0.002861066721379757,0.11425192654132843,-0.12455176562070847,-0.008201723918318748,-0.06656748056411743
10.771652460098267,-0.20885786414146423,0.002861066721379757,0.11425192654132843,-0.12493324279785156,-0.008201723918318748,-0.06656748056411743
10.792080402374268,-0.20923933386802673,0.002861066721379757,0.11501488089561462,-0.12531471252441406,-0.00858320016413927,-0.06656748056411743
10.812175512313843,-0.21038375794887543,0.0024795911740511656,0.11539635062217712,-0.12569619715213776,-0.00858320016413927,-0.06694895774126053
10.832297086715698,-0.21038375794887543,0.001716639962978661,0.11654078215360641,-0.12645913660526276,-0.00858320016413927,-0.06694895774126053
10.852318048477173,-0.21114671230316162,0.001716639962978661,0.11692225188016891,-0.12722209095954895,-0.008201723918318748,-0.06694895774126053
10.872405290603638,-0.21114671230316162,0.0013351644156500697,0.11730372905731201,-0.12760357558727264,-0.00858320016413927,-0.06694895774126053
10.892491579055786,-0.21152819693088531,0.000572213320992887,0.11768520623445511,-0.12760357558727264,-0.008201723918318748,-0.06733043491840363
10.91256046295166,-0.21152819693088531,0.000572213320992887,0.1184481605887413,-0.12798504531383514,-0.008201723918318748,-0.06733043491840363
10.932619333267212,-0.21152819693088531,0.000572213320992887,0.1188296303153038,-0.12836651504039764,-0.008201723918318748,-0.06733043491840363
10.952714920043945,-0.21229113638401031,0.000572213320992887,0.1192111074924469,-0.12836651504039764,-0.008201723918318748,-0.06733043491840363
10.972779273986816,-0.2134355753660202,-0.00019073777366429567,0.1199740618467331,-0.12912946939468384,-0.008201723918318748,-0.06771191209554672
10.992858409881592,-0.2134355753660202,-0.000572213320992887,0.12111848592758179,-0.12912946939468384,-0.008201723918318748,-0.06771191209554672
11.012915134429932,-0.2141985148191452,-0.0013351644156500697,0.12111848592758179,-0.12989242374897003,-0.008201723918318748,-0.06771191209554672
11.032994508743286,-0.2145799994468689,-0.0013351644156500697,0.12149996310472488,-0.13103684782981873,-0.00858320016413927,-0.06771191209554672
11.053067684173584,-0.2157244235277176,-0.0013351644156500697,0.12188144028186798,-0.13103684782981873,-0.008201723918318748,-0.06771191209554672
11.073116064071655,-0.2161058932542801,-0.0013351644156500697,0.12264438718557358,-0.13141833245754242,-0.0078202486038208,-0.06809338182210922
11.09317660331726,-0.21648737788200378,-0.0020981156267225742,0.12340734153985977,-0.13141833245754242,-0.0078202486038208,-0.06809338182210922
11.113256216049194,-0.21648737788200378,-0.0024795911740511656,0.12455176562070847,-0.13179980218410492,-0.0078202486038208,-0.06847485899925232
11.133370876312256,-0.21686884760856628,-0.0024795911740511656,0.12493324279785156,-0.13179980218410492,-0.0078202486038208,-0.06885633617639542
11.15340781211853,-0.21763180196285248,-0.0032425422687083483,0.12531471252441406,-0.13179980218410492,-0.0078202486038208,-0.07000076025724411
11.173567533493042,-0.21839475631713867,-0.0036240178160369396,0.12569619715213776,-0.13218127191066742,-0.007438773289322853,-0.07038223743438721
11.193726301193237,-0.21839475631713867,-0.004005493130534887,0.12684062123298645,-0.1325627565383911,-0.007438773289322853,-0.0707637146115303
11.213741540908813,-0.21839475631713867,-0.004386968910694122,0.12722209095954895,-0.1333257108926773,-0.007438773289322853,-0.0707637146115303
11.233790636062622,-0.21877622604370117,-0.004386968910694122,0.12836651504039764,-0.1337071806192398,-0.0078202486038208,-0.0711451917886734
11.253893375396729,-0.21877622604370117,-0.004386968910694122,0.12874799966812134,-0.1340886503458023,-0.0078202486038208,-0.0711451917886734
11.273963451385498,-0.21953918039798737,-0.00476844422519207,0.12951095402240753,-0.134470134973526,-0.007438773289322853,-0.0715266615152359
11.294055938720703,-0.22030213475227356,-0.005149920005351305,0.12989242374897003,-0.1348516047000885,-0.007438773289322853,-0.0715266615152359
11.314114809036255,-0.22068360447883606,-0.005912871100008488,0.13065537810325623,-0.135233074426651,-0.007057297509163618,-0.071908138692379
11.334214210510254,-0.22182802855968475,-0.00667582219466567,0.13141833245754242,-0.135233074426651,-0.007438773289322853,-0.0722896158695221
11.354263305664062,-0.22220951318740845,-0.00667582219466567,0.1325627565383911,-0.1356145590543747,-0.0078202486038208,-0.0722896158695221
11.374358415603638,-0.22297245264053345,-0.00667582219466567,0.1329442262649536,-0.1356145590543747,-0.0078202486038208,-0.07267109304666519
11.394554138183594,-0.22335393726825714,-0.007438773289322853,0.1337071806192398,-0.1359960287809372,-0.007438773289322853,-0.07419699430465698
11.414662837982178,-0.22373540699481964,-0.0078202486038208,0.134470134973526,-0.1363775134086609,-0.007438773289322853,-0.07457847148180008
11.434727191925049,-0.22411687672138214,-0.0078202486038208,0.135233074426651,-0.1367589831352234,-0.007057297509163618,-0.07495994865894318
11.4547438621521,-0.22487983107566833,-0.00858320016413927,0.1356145590543747,-0.13752193748950958,-0.007057297509163618,-0.07495994865894318
11.474836826324463,-0.22526131570339203,-0.00858320016413927,0.1359960287809372,-0.13866636157035828,-0.007438773289322853,-0.07495994865894318
11.494911670684814,-0.22602425515651703,-0.008964675478637218,0.1367589831352234,-0.13866636157035828,-0.007057297509163618,-0.07495994865894318
11.515003204345703,-0.22602425515651703,-0.009727626107633114,0.13752193748950958,-0.13904783129692078,-0.007438773289322853,-0.07495994865894318
11.535139083862305,-0.22640573978424072,-0.010109102353453636,0.13828489184379578,-0.13942931592464447,-0.007438773289322853,-0.07495994865894318
11.55516266822815,-0.22678720951080322,-0.010109102353453636,0.13904783129692078,-0.13942931592464447,-0.007057297509163618,-0.07534141838550568
11.575310230255127,-0.22793163359165192,-0.010490577667951584,0.13904783129692078,-0.13981078565120697,-0.007057297509163618,-0.07534141838550568
11.595328569412231,-0.2283131182193756,-0.010872052982449532,0.13981078565120697,-0.14019227027893066,-0.00667582219466567,-0.07534141838550568
11.615509271621704,-0.2283131182193756,-0.01125352829694748,0.14019227027893066,-0.14095520973205566,-0.00667582219466567,-0.07534141838550568
11.63555359840393,-0.2290760725736618,-0.011635004542768002,0.14095520973205566,-0.14133669435977936,-0.007057297509163618,-0.07534141838550568
11.655677080154419,-0.2294575423002243,-0.011635004542768002,0.14171816408634186,-0.14209964871406555,-0.007057297509163618,-0.07572289556264877
11.675687789916992,-0.2302204966545105,-0.01201647985726595,0.14248111844062805,-0.14248111844062805,-0.00667582219466567,-0.07572289556264877
11.695716381072998,-0.230601966381073,-0.01201647985726595,0.14324407279491425,-0.14286258816719055,-0.00667582219466567,-0.07610437273979187
11.715811491012573,-0.2309834510087967,-0.012779430486261845,0.14324407279491425,-0.14286258816719055,-0.00667582219466567,-0.07610437273979187
11.735901832580566,-0.2313649207353592,-0.012779430486261845,0.14400701224803925,-0.14286258816719055,-0.00667582219466567,-0.07686731964349747
11.755985975265503,-0.23250934481620789,-0.013542382046580315,0.14400701224803925,-0.14286258816719055,-0.006294346414506435,-0.07686731964349747
11.776010751724243,-0.23327229917049408,-0.013923857361078262,0.14400701224803925,-0.14324407279491425,-0.00667582219466567,-0.07724879682064056
11.796153783798218,-0.23327229917049408,-0.013923857361078262,0.14438849687576294,-0.14324407279491425,-0.00667582219466567,-0.07763027399778366
11.816274404525757,-0.23403525352478027,-0.013923857361078262,0.14476996660232544,-0.14362554252147675,-0.007057297509163618,-0.07763027399778366
11.836333513259888,-0.23441672325134277,-0.01430533267557621,0.14553292095661163,-0.14362554252147675,-0.00667582219466567,-0.07763027399778366
11.85649561882019,-0.23517967760562897,-0.01506828423589468,0.14591439068317413,-0.14400701224803925,-0.006294346414506435,-0.07801175117492676
11.876660823822021,-0.23594263195991516,-0.015449759550392628,0.14591439068317413,-0.14476996660232544,-0.00667582219466567,-0.07801175117492676
11.89677882194519,-0.23670557141304016,-0.01583123579621315,0.14591439068317413,-0.14591439068317413,-0.00667582219466567,-0.07801175117492676
11.916800737380981,-0.23746852576732635,-0.01583123579621315,0.14591439068317413,-0.14629587531089783,-0.00667582219466567,-0.07801175117492676
11.936895847320557,-0.23785001039505005,-0.016212711110711098,0.14629587531089783,-0.14629587531089783,-0.007057297509163618,-0.07839322835206985
11.956962585449219,-0.23861294984817505,-0.016212711110711098,0.14705882966518402,-0.14667734503746033,-0.007057297509163618,-0.07839322835206985
11.97709584236145,-0.23937590420246124,-0.016594186425209045,0.14744029939174652,-0.14667734503746033,-0.00667582219466567,-0.07839322835206985
11.997148990631104,-0.23975738883018494,-0.016975661739706993,0.14820325374603271,-0.14705882966518402,-0.00667582219466567,-0.07839322835206985
12.017231464385986,-0.24052032828330994,-0.016975661739706993,0.14782176911830902,-0.14705882966518402,-0.00667582219466567,-0.07839322835206985
12.037266969680786,-0.24090181291103363,-0.01735713705420494,0.14820325374603271,-0.14744029939174652,-0.00667582219466567,-0.07877469807863235
12.057313680648804,-0.24128328263759613,-0.018120087683200836,0.14820325374603271,-0.14782176911830902,-0.00667582219466567,-0.07877469807863235
12.077381610870361,-0.24166475236415863,-0.018501564860343933,0.14858472347259521,-0.14820325374603271,-0.00667582219466567,-0.07877469807863235
12.097509860992432,-0.24242770671844482,-0.018501564860343933,0.1489662081003189,-0.14858472347259521,-0.006294346414506435,-0.07877469807863235
12.117574214935303,-0.24319066107273102,-0.01926451548933983,0.1497291475534439,-0.1497291475534439,-0.00667582219466567,-0.07915617525577545
12.137638330459595,-0.24357213079929352,-0.01926451548933983,0.1501106321811676,-0.1497291475534439,-0.006294346414506435,-0.07915617525577545
12.157801389694214,-0.2443350851535797,-0.01926451548933983,0.1501106321811676,-0.1497291475534439,-0.00667582219466567,-0.07953765243291855
12.177863836288452,-0.2450980395078659,-0.019645990803837776,0.1501106321811676,-0.1501106321811676,-0.00667582219466567,-0.07953765243291855
12.198024034500122,-0.2458609938621521,-0.02040894143283367,0.1501106321811676,-0.1501106321811676,-0.00667582219466567,-0.07953765243291855
12.218051671981812,-0.2466239482164383,-0.021171892061829567,0.1504921019077301,-0.1501106321811676,-0.00667582219466567,-0.07991912961006165
12.238218545913696,-0.2473868876695633,-0.021553369238972664,0.1512550562620163,-0.1501106321811676,-0.00667582219466567,-0.07991912961006165
12.258316278457642,-0.247768372297287,-0.021553369238972664,0.1516365259885788,-0.1504921019077301,-0.006294346414506435,-0.08030059933662415
12.278436660766602,-0.247768372297287,-0.02193484455347061,0.1520180106163025,-0.1504921019077301,-0.00667582219466567,-0.08182650804519653
12.298548221588135,-0.2481498420238495,-0.02231631986796856,0.152399480342865,-0.1508735716342926,-0.00667582219466567,-0.08220797777175903
12.31860613822937,-0.24891279637813568,-0.022697795182466507,0.1527809500694275,-0.1508735716342926,-0.006294346414506435,-0.08220797777175903
12.338775396347046,-0.24967575073242188,-0.022697795182466507,0.15316243469715118,-0.1508735716342926,-0.006294346414506435,-0.08220797777175903
12.358850955963135,-0.2508201599121094,-0.023460745811462402,0.15354390442371368,-0.1512550562620163,-0.006294346414506435,-0.08258945494890213
12.379050016403198,-0.25158312916755676,-0.02384222112596035,0.15430685877799988,-0.1516365259885788,-0.00667582219466567,-0.08258945494890213
12.399045705795288,-0.25234606862068176,-0.024223696440458298,0.15430685877799988,-0.1520180106163025,-0.00667582219466567,-0.08258945494890213
12.419137001037598,-0.25310903787612915,-0.024605173617601395,0.15468832850456238,-0.1527809500694275,-0.00667582219466567,-0.08258945494890213
12.439197063446045,-0.25387197732925415,-0.024605173617601395,0.15506981313228607,-0.15354390442371368,-0.006294346414506435,-0.08258945494890213
12.45954966545105,-0.25501641631126404,-0.02536812424659729,0.15545128285884857,-0.15392538905143738,-0.006294346414506435,-0.08258945494890213
12.47972559928894,-0.25539788603782654,-0.025749599561095238,0.15621423721313477,-0.15430685877799988,-0.006294346414506435,-0.08258945494890213
12.499730825424194,-0.25539788603782654,-0.026512550190091133,0.15621423721313477,-0.15430685877799988,-0.006294346414506435,-0.08297093212604523
12.519755601882935,-0.25616082549095154,-0.026512550190091133,0.15621423721313477,-0.15468832850456238,-0.006294346414506435,-0.08297093212604523
12.53996205329895,-0.2569237947463989,-0.026512550190091133,0.15659570693969727,-0.15468832850456238,-0.005912871100008488,-0.08297093212604523
12.559980392456055,-0.2580682039260864,-0.02689402550458908,0.15659570693969727,-0.15506981313228607,-0.006294346414506435,-0.08297093212604523
12.580112218856812,-0.2580682039260864,-0.027656977996230125,0.15735866129398346,-0.15545128285884857,-0.006294346414506435,-0.08335240930318832
12.600097179412842,-0.2592126429080963,-0.028038453310728073,0.15774014592170715,-0.15583276748657227,-0.005912871100008488,-0.08335240930318832
12.620264291763306,-0.2603570520877838,-0.02841992862522602,0.15850308537483215,-0.15697719156742096,-0.005912871100008488,-0.08373387902975082
12.640280485153198,-0.2611200213432312,-0.02841992862522602,0.15850308537483215,-0.15735866129398346,-0.005912871100008488,-0.08411535620689392
12.660388708114624,-0.2615014910697937,-0.02880140393972397,0.15888457000255585,-0.15735866129398346,-0.006294346414506435,-0.08487831056118011
12.680419921875,-0.2618829607963562,-0.02880140393972397,0.15964750945568085,-0.15735866129398346,-0.005912871100008488,-0.08525978773832321
12.70050859451294,-0.2622644305229187,-0.029564354568719864,0.16041046380996704,-0.15735866129398346,-0.006294346414506435,-0.08525978773832321
12.720568180084229,-0.2626459002494812,-0.02994582988321781,0.16079194843769073,-0.15774014592170715,-0.006294346414506435,-0.08525978773832321
12.740632057189941,-0.2630273997783661,-0.02994582988321781,0.16079194843769073,-0.15774014592170715,-0.005912871100008488,-0.08525978773832321
12.760677099227905,-0.2645532786846161,-0.03032730519771576,0.16117341816425323,-0.15774014592170715,-0.005531395319849253,-0.08564125746488571
12.780824422836304,-0.265697717666626,-0.030708782374858856,0.16231784224510193,-0.15812161564826965,-0.00476844422519207,-0.08564125746488571
12.801026344299316,-0.266460657119751,-0.03147173300385475,0.16269932687282562,-0.15812161564826965,-0.004386968910694122,-0.08564125746488571
12.821022987365723,-0.26760509610176086,-0.03185320645570755,0.16269932687282562,-0.15812161564826965,-0.005149920005351305,-0.08564125746488571
12.841103076934814,-0.26798656582832336,-0.03185320645570755,0.16346226632595062,-0.15850308537483215,-0.005912871100008488,-0.08564125746488571
12.861161470413208,-0.26874953508377075,-0.03223468363285065,0.16384375095367432,-0.15850308537483215,-0.005531395319849253,-0.08564125746488571
12.881221055984497,-0.26951247453689575,-0.03299763426184654,0.16384375095367432,-0.15888457000255585,-0.005149920005351305,-0.08564125746488571
12.9013032913208,-0.26951247453689575,-0.03299763426184654,0.1646067053079605,-0.15888457000255585,-0.005149920005351305,-0.08564125746488571
12.921374082565308,-0.26989394426345825,-0.03337911143898964,0.1646067053079605,-0.15926603972911835,-0.005149920005351305,-0.08564125746488571
12.941437244415283,-0.27065691351890564,-0.03376058489084244,0.164988175034523,-0.15964750945568085,-0.00476844422519207,-0.08564125746488571
12.961677312850952,-0.27141985297203064,-0.03376058489084244,0.164988175034523,-0.16041046380996704,-0.004386968910694122,-0.08564125746488571
12.981805801391602,-0.2725642919540405,-0.034142062067985535,0.164988175034523,-0.16079194843769073,-0.00476844422519207,-0.08602273464202881
13.00187063217163,-0.273708701133728,-0.03490501269698143,0.1657511293888092,-0.16079194843769073,-0.005149920005351305,-0.08602273464202881
13.021931409835815,-0.2740901708602905,-0.03528648987412453,0.1661325991153717,-0.16117341816425323,-0.00476844422519207,-0.08602273464202881
13.041987419128418,-0.2744716703891754,-0.035667963325977325,0.1665140837430954,-0.16117341816425323,-0.00476844422519207,-0.08602273464202881
13.062079906463623,-0.2748531401157379,-0.03604944050312042,0.1668955534696579,-0.16155488789081573,-0.00476844422519207,-0.08602273464202881
13.082160949707031,-0.2756160795688629,-0.03604944050312042,0.1672770231962204,-0.16155488789081573,-0.00476844422519207,-0.0864042118191719
13.10221815109253,-0.2767605185508728,-0.03681239113211632,0.1676585078239441,-0.16193637251853943,-0.004386968910694122,-0.0864042118191719
13.122350692749023,-0.2771419882774353,-0.037193864583969116,0.1684214472770691,-0.16231784224510193,-0.004386968910694122,-0.086785688996315
13.142457962036133,-0.2775234580039978,-0.03795681521296501,0.1684214472770691,-0.16231784224510193,-0.004386968910694122,-0.086785688996315
13.16252326965332,-0.2790493667125702,-0.03795681521296501,0.16880293190479279,-0.16269932687282562,-0.004386968910694122,-0.086785688996315
13.182695627212524,-0.2801937758922577,-0.038719769567251205,0.16956588625907898,-0.16346226632595062,-0.004005493130534887,-0.0871671661734581
13.202802658081055,-0.2809567451477051,-0.039101243019104004,0.17032882571220398,-0.16422522068023682,-0.0036240178160369396,-0.0871671661734581
13.222770690917969,-0.2817196846008301,-0.039101243019104004,0.17032882571220398,-0.164988175034523,-0.0036240178160369396,-0.0875486359000206
13.242828130722046,-0.2821011543273926,-0.0398641936480999,0.17071031033992767,-0.164988175034523,-0.004005493130534887,-0.0879301130771637
13.262911796569824,-0.28286412358283997,-0.040245670825242996,0.17109178006649017,-0.164988175034523,-0.004005493130534887,-0.0883115902543068
13.282990455627441,-0.28400853276252747,-0.040627144277095795,0.17147326469421387,-0.1653696447610855,-0.0036240178160369396,-0.08869306743144989
13.303067445755005,-0.28400853276252747,-0.04100862145423889,0.17147326469421387,-0.1653696447610855,-0.0032425422687083483,-0.08983749151229858
13.323126077651978,-0.28439003229141235,-0.04139009863138199,0.17223620414733887,-0.1653696447610855,-0.0032425422687083483,-0.08983749151229858
13.343196153640747,-0.28515297174453735,-0.04177157208323479,0.17223620414733887,-0.1657511293888092,-0.0032425422687083483,-0.08983749151229858
13.363340139389038,-0.28591591119766235,-0.042153049260377884,0.17299915850162506,-0.1661325991153717,-0.002861066721379757,-0.08983749151229858
13.38339638710022,-0.28706035017967224,-0.04291599988937378,0.17338064312934875,-0.1661325991153717,-0.002861066721379757,-0.09021896868944168
13.40347671508789,-0.28782328963279724,-0.04329747334122658,0.17414358258247375,-0.1665140837430954,-0.0032425422687083483,-0.09021896868944168
13.423541069030762,-0.28896772861480713,-0.043678950518369675,0.17452506721019745,-0.1668955534696579,-0.0032425422687083483,-0.09021896868944168
13.443631410598755,-0.28934919834136963,-0.04406042397022247,0.17528800666332245,-0.1676585078239441,-0.002861066721379757,-0.09021896868944168
13.463697910308838,-0.28934919834136963,-0.04406042397022247,0.17528800666332245,-0.1680399775505066,-0.0032425422687083483,-0.09021896868944168
13.483743906021118,-0.290112167596817,-0.04444190114736557,0.17566949129104614,-0.1684214472770691,-0.0024795911740511656,-0.09021896868944168
13.50382137298584,-0.2912565767765045,-0.045204851776361465,0.17643244564533234,-0.16880293190479279,-0.0024795911740511656,-0.09060044586658478
13.523954629898071,-0.2912565767765045,-0.04558632895350456,0.17719538509845734,-0.16918440163135529,-0.0024795911740511656,-0.09098191559314728
13.54402780532837,-0.291638046503067,-0.04596780240535736,0.17719538509845734,-0.16918440163135529,-0.0024795911740511656,-0.09136339277029037
13.564162969589233,-0.2924010157585144,-0.04634927958250046,0.17757686972618103,-0.16918440163135529,-0.0024795911740511656,-0.09136339277029037
13.584247589111328,-0.2935454249382019,-0.04634927958250046,0.17833982408046722,-0.16956588625907898,-0.0024795911740511656,-0.09212634712457657
13.604283571243286,-0.2943083941936493,-0.04711223021149635,0.17872129380702972,-0.16994735598564148,-0.0020981156267225742,-0.09288929402828217
13.624377489089966,-0.2954528033733368,-0.04749370738863945,0.17910276353359222,-0.17032882571220398,-0.0020981156267225742,-0.09288929402828217
13.644449472427368,-0.2965972423553467,-0.04787518084049225,0.17948424816131592,-0.17071031033992767,-0.0020981156267225742,-0.09288929402828217
13.664619445800781,-0.2969787120819092,-0.048256658017635345,0.17986571788787842,-0.17147326469421387,-0.0020981156267225742,-0.09288929402828217
13.684657096862793,-0.2977416515350342,-0.048256658017635345,0.1806286722421646,-0.17261768877506256,-0.0020981156267225742,-0.09327077120542526
13.704718351364136,-0.29850462079048157,-0.04901960864663124,0.1806286722421646,-0.17261768877506256,-0.0020981156267225742,-0.09327077120542526
13.724825620651245,-0.29850462079048157,-0.04940108209848404,0.1813916265964508,-0.17299915850162506,-0.0024795911740511656,-0.09327077120542526
