liuyurong129/humanoid-gym/humanoid/data/actual_q_20250523-001758.csv
timestamp,joint_1,joint_2,joint_3,joint_4,joint_5,joint_6
0.00010418891906738281,0.000572213320992887,0.17376211285591125,-0.0864042118191719,-0.00019073777366429567,0.000572213320992887,0.00019073777366429567
0.020194053649902344,0.000572213320992887,0.152399480342865,-0.07763027399778366,-0.000572213320992887,-0.00019073777366429567,0.00019073777366429567
0.0402987003326416,0.00019073777366429567,0.12874799966812134,-0.06694895774126053,-0.000572213320992887,0.001716639962978661,0.00019073777366429567
0.060346126556396484,0.00019073777366429567,0.11234454810619354,-0.06008239835500717,-0.00019073777366429567,0.0024795911740511656,0.00019073777366429567
0.0804128646850586,0.000572213320992887,0.10585946589708328,-0.05664911866188049,-0.000572213320992887,0.00019073777366429567,0.00019073777366429567
0.10057330131530762,0.0009536888683214784,0.1035706102848053,-0.054741740226745605,-0.00019073777366429567,0.000572213320992887,0.00019073777366429567
0.12072610855102539,0.001716639962978661,0.1039520874619484,-0.053215838968753815,-0.000572213320992887,0.00019073777366429567,0.00019073777366429567
0.1408088207244873,0.002861066721379757,0.10585946589708328,-0.051689937710762024,-0.000572213320992887,0.00019073777366429567,0.00019073777366429567
0.16087794303894043,0.002861066721379757,0.10547798871994019,-0.050164032727479935,-0.000572213320992887,0.000572213320992887,0.00019073777366429567
0.180924654006958,0.004005493130534887,0.10547798871994019,-0.049782559275627136,-0.0009536888683214784,0.000572213320992887,0.00019073777366429567
0.20107555389404297,0.005149920005351305,0.10547798871994019,-0.04901960864663124,-0.0013351644156500697,0.000572213320992887,0.00019073777366429567
0.22119927406311035,0.006294346414506435,0.10547798871994019,-0.04787518084049225,-0.0013351644156500697,0.0009536888683214784,0.00019073777366429567
0.24119186401367188,0.007057297509163618,0.10547798871994019,-0.04711223021149635,-0.0024795911740511656,0.000572213320992887,0.00019073777366429567
0.2612621784210205,0.0078202486038208,0.10547798871994019,-0.04596780240535736,-0.002861066721379757,0.000572213320992887,0.00019073777366429567
0.28135085105895996,0.008201723918318748,0.10471503436565399,-0.04444190114736557,-0.0036240178160369396,0.000572213320992887,0.00019073777366429567
0.3014211654663086,0.008964675478637218,0.10433356463909149,-0.043678950518369675,-0.0036240178160369396,0.000572213320992887,0.00019073777366429567
0.32146358489990234,0.009727626107633114,0.10433356463909149,-0.04291599988937378,-0.004386968910694122,0.000572213320992887,0.00019073777366429567
0.3415837287902832,0.010490577667951584,0.10433356463909149,-0.04139009863138199,-0.00476844422519207,0.000572213320992887,0.00019073777366429567
0.3616914749145508,0.01125352829694748,0.10433356463909149,-0.040245670825242996,-0.005912871100008488,0.000572213320992887,0.00019073777366429567
0.3817281723022461,0.01201647985726595,0.1035706102848053,-0.038719769567251205,-0.007057297509163618,0.000572213320992887,0.00019073777366429567
0.40212082862854004,0.013542382046580315,0.1031891331076622,-0.03757534176111221,-0.007438773289322853,0.000572213320992887,0.00019073777366429567
0.42218804359436035,0.01430533267557621,0.1028076633810997,-0.03604944050312042,-0.0078202486038208,0.000572213320992887,0.00019073777366429567
0.4422588348388672,0.014686808921396732,0.1024261862039566,-0.03528648987412453,-0.008201723918318748,0.0009536888683214784,0.00019073777366429567
0.4623136520385742,0.01506828423589468,0.1024261862039566,-0.034142062067985535,-0.008964675478637218,0.0009536888683214784,0.00019073777366429567
0.48241758346557617,0.01583123579621315,0.1024261862039566,-0.03299763426184654,-0.009346150793135166,0.000572213320992887,0.00019073777366429567
0.5024738311767578,0.016594186425209045,0.1024261862039566,-0.03223468363285065,-0.01125352829694748,0.000572213320992887,0.00019073777366429567
0.5226333141326904,0.01735713705420494,0.1024261862039566,-0.030708782374858856,-0.011635004542768002,0.00019073777366429567,0.00019073777366429567
0.5426368713378906,0.018501564860343933,0.10204470902681351,-0.02880140393972397,-0.012397955171763897,0.00019073777366429567,0.00019073777366429567
0.5628187656402588,0.019645990803837776,0.10128175467252731,-0.02689402550458908,-0.013542382046580315,0.000572213320992887,0.00019073777366429567
0.5829317569732666,0.02040894143283367,0.10128175467252731,-0.02536812424659729,-0.01506828423589468,0.000572213320992887,0.00019073777366429567
0.6029691696166992,0.021553369238972664,0.10090028494596481,-0.02384222112596035,-0.015449759550392628,0.000572213320992887,0.00019073777366429567
0.6230330467224121,0.02193484455347061,0.10051880776882172,-0.02231631986796856,-0.016212711110711098,0.0009536888683214784,0.00019073777366429567
0.6431159973144531,0.022697795182466507,0.10013733059167862,-0.02079041674733162,-0.01735713705420494,0.0009536888683214784,0.00019073777366429567
0.6632096767425537,0.02384222112596035,0.10051880776882172,-0.020027466118335724,-0.018501564860343933,0.000572213320992887,0.00019073777366429567
0.6833162307739258,0.024605173617601395,0.10013733059167862,-0.01888304017484188,-0.01888304017484188,0.000572213320992887,0.00019073777366429567
0.7034204006195068,0.025749599561095238,0.09937438368797302,-0.01735713705420494,-0.01888304017484188,0.000572213320992887,0.00019073777366429567
0.7234928607940674,0.02689402550458908,0.09937438368797302,-0.016212711110711098,-0.01926451548933983,0.000572213320992887,0.00019073777366429567
0.7435555458068848,0.02689402550458908,0.09937438368797302,-0.015449759550392628,-0.020027466118335724,0.000572213320992887,0.00019073777366429567
0.7636795043945312,0.028038453310728073,0.09861142933368683,-0.013923857361078262,-0.021171892061829567,0.0009536888683214784,0.00019073777366429567
0.783897876739502,0.029182879254221916,0.09822995215654373,-0.01201647985726595,-0.022697795182466507,0.000572213320992887,0.00019073777366429567
0.8039093017578125,0.02994582988321781,0.09784847497940063,-0.010490577667951584,-0.023079270496964455,0.000572213320992887,0.00019073777366429567
0.8239493370056152,0.02994582988321781,0.09822995215654373,-0.009727626107633114,-0.023460745811462402,0.000572213320992887,0.00019073777366429567
0.8440163135528564,0.031090257689356804,0.09746700525283813,-0.008201723918318748,-0.024223696440458298,0.000572213320992887,0.00019073777366429567
0.8641269207000732,0.03185320645570755,0.09708552807569504,-0.00667582219466567,-0.02536812424659729,0.000572213320992887,0.00019073777366429567
0.8843200206756592,0.032616160809993744,0.09708552807569504,-0.005912871100008488,-0.026131074875593185,0.000572213320992887,0.00019073777366429567
0.9043099880218506,0.03376058489084244,0.09670405089855194,-0.00476844422519207,-0.026512550190091133,0.0009536888683214784,0.00019073777366429567
0.9244987964630127,0.03490501269698143,0.09632257372140884,-0.0024795911740511656,-0.026512550190091133,0.0009536888683214784,0.00019073777366429567
0.9445977210998535,0.03643091395497322,0.09594109654426575,-0.000572213320992887,-0.027656977996230125,0.000572213320992887,0.00019073777366429567
0.9646553993225098,0.03681239113211632,0.09594109654426575,0.00019073777366429567,-0.02880140393972397,0.000572213320992887,0.00019073777366429567
0.9846537113189697,0.03757534176111221,0.09517814964056015,0.0020981156267225742,-0.02994582988321781,0.0009536888683214784,0.00019073777366429567
1.0047571659088135,0.038719769567251205,0.09479667246341705,0.004386968910694122,-0.030708782374858856,0.000572213320992887,0.00019073777366429567
1.0249128341674805,0.0394827201962471,0.09441519528627396,0.006294346414506435,-0.03147173300385475,0.000572213320992887,0.00019073777366429567
1.0449190139770508,0.040627144277095795,0.09403372555971146,0.008201723918318748,-0.032616160809993744,0.0009536888683214784,0.00019073777366429567
1.0650279521942139,0.04253452271223068,0.09327077120542526,0.010490577667951584,-0.03376058489084244,0.000572213320992887,0.00019073777366429567
1.085076093673706,0.043678950518369675,0.09288929402828217,0.011635004542768002,-0.03490501269698143,0.000572213320992887,0.00019073777366429567
1.105137586593628,0.04406042397022247,0.09327077120542526,0.012397955171763897,-0.035667963325977325,0.0009536888683214784,0.00019073777366429567
1.125209093093872,0.04482337832450867,0.09288929402828217,0.013923857361078262,-0.03757534176111221,0.0013351644156500697,0.00019073777366429567
1.1453757286071777,0.04634927958250046,0.09212634712457657,0.01583123579621315,-0.03795681521296501,0.0009536888683214784,0.00019073777366429567
1.1654510498046875,0.046730753034353256,0.09174486994743347,0.01773861236870289,-0.038719769567251205,0.0009536888683214784,0.00019073777366429567
1.1855590343475342,0.04749370738863945,0.09136339277029037,0.018501564860343933,-0.0398641936480999,0.0009536888683214784,0.00019073777366429567
1.2056012153625488,0.04901960864663124,0.09098191559314728,0.02040894143283367,-0.04139009863138199,0.0009536888683214784,0.00019073777366429567
1.2256815433502197,0.050164032727479935,0.09060044586658478,0.02231631986796856,-0.042153049260377884,0.000572213320992887,0.00019073777366429567
1.2457680702209473,0.05092698708176613,0.09021896868944168,0.023460745811462402,-0.04291599988937378,0.0013351644156500697,0.00019073777366429567
1.265824794769287,0.051689937710762024,0.09021896868944168,0.024986648932099342,-0.04482337832450867,0.0009536888683214784,0.00019073777366429567
1.285921573638916,0.053215838968753815,0.08983749151229858,0.02689402550458908,-0.04558632895350456,0.0013351644156500697,0.00019073777366429567
1.3059964179992676,0.05397878959774971,0.08983749151229858,0.02880140393972397,-0.04596780240535736,0.0009536888683214784,0.00019073777366429567
1.326063871383667,0.0551232174038887,0.08907453715801239,0.030708782374858856,-0.04634927958250046,0.0009536888683214784,0.00019073777366429567
1.3461213111877441,0.05664911866188049,0.0879301130771637,0.03223468363285065,-0.048256658017635345,0.000572213320992887,0.00019073777366429567
1.3662655353546143,0.058175019919872284,0.0871671661734581,0.03452353551983833,-0.04940108209848404,0.0009536888683214784,0.00019073777366429567
1.3863062858581543,0.05893797054886818,0.086785688996315,0.03604944050312042,-0.050164032727479935,0.0013351644156500697,0.00019073777366429567
1.4064593315124512,0.059319447726011276,0.08602273464202881,0.03795681521296501,-0.05207141116261482,0.001716639962978661,0.00019073777366429567
1.4265778064727783,0.06084534898400307,0.08564125746488571,0.040245670825242996,-0.05283436179161072,0.0013351644156500697,0.00019073777366429567
1.4466979503631592,0.06237125024199486,0.08564125746488571,0.042153049260377884,-0.053215838968753815,0.0013351644156500697,0.00019073777366429567
1.4667518138885498,0.06351567804813385,0.08564125746488571,0.04444190114736557,-0.05359731614589691,0.000572213320992887,0.00019073777366429567
1.4868841171264648,0.06542305648326874,0.08487831056118011,0.046730753034353256,-0.054741740226745605,0.000572213320992887,0.00019073777366429567
1.506929874420166,0.06618601083755493,0.08449683338403702,0.048256658017635345,-0.0558861680328846,0.001716639962978661,0.00019073777366429567
1.5270171165466309,0.06771191209554672,0.08373387902975082,0.050164032727479935,-0.05741206929087639,0.0013351644156500697,0.00019073777366429567
1.5470507144927979,0.06847485899925232,0.08297093212604523,0.05207141116261482,-0.05855649709701538,0.001716639962978661,0.00019073777366429567
1.5671422481536865,0.07000076025724411,0.08220797777175903,0.0551232174038887,-0.06008239835500717,0.0013351644156500697,0.00019073777366429567
1.5872035026550293,0.0711451917886734,0.08220797777175903,0.05741206929087639,-0.06084534898400307,0.0009536888683214784,-0.00019073777366429567
1.6072807312011719,0.07267109304666519,0.08144503086805344,0.059319447726011276,-0.06160829961299896,0.000572213320992887,0.00019073777366429567
1.627382755279541,0.07457847148180008,0.08068207651376724,0.06237125024199486,-0.06351567804813385,0.0009536888683214784,0.00019073777366429567
1.647479772567749,0.07572289556264877,0.07953765243291855,0.06504157930612564,-0.06427863240242004,0.0009536888683214784,0.00019073777366429567
1.6675772666931152,0.07686731964349747,0.07839322835206985,0.06771191209554672,-0.06542305648326874,0.001716639962978661,0.00019073777366429567
1.6876158714294434,0.07839322835206985,0.07763027399778366,0.06923781335353851,-0.06771191209554672,0.0020981156267225742,0.00019073777366429567
1.7077267169952393,0.07991912961006165,0.07648584991693497,0.0711451917886734,-0.06847485899925232,0.0013351644156500697,0.00019073777366429567
1.7278215885162354,0.08106355369091034,0.07572289556264877,0.07343403995037079,-0.06961929053068161,0.0013351644156500697,0.00019073777366429567
1.7479054927825928,0.08182650804519653,0.07534141838550568,0.07495994865894318,-0.0707637146115303,0.0013351644156500697,0.00019073777366429567
1.7679550647735596,0.08335240930318832,0.07495994865894318,0.07686731964349747,-0.071908138692379,0.0013351644156500697,0.00019073777366429567
1.7883050441741943,0.08525978773832321,0.07419699430465698,0.07915617525577545,-0.07343403995037079,0.0013351644156500697,0.00019073777366429567
1.8084161281585693,0.0871671661734581,0.07343403995037079,0.08220797777175903,-0.07495994865894318,0.001716639962978661,0.00019073777366429567
1.8285222053527832,0.08869306743144989,0.07267109304666519,0.08449683338403702,-0.07610437273979187,0.001716639962978661,0.00019073777366429567
1.8485710620880127,0.09021896868944168,0.0722896158695221,0.086785688996315,-0.07763027399778366,0.0009536888683214784,0.00019073777366429567
1.8687472343444824,0.09174486994743347,0.0715266615152359,0.08983749151229858,-0.07915617525577545,0.001716639962978661,0.00019073777366429567
1.888831615447998,0.09403372555971146,0.07038223743438721,0.09288929402828217,-0.07953765243291855,0.0020981156267225742,0.00019073777366429567
1.9089062213897705,0.09555962681770325,0.06961929053068161,0.09517814964056015,-0.08106355369091034,0.001716639962978661,0.00019073777366429567
1.9289567470550537,0.09708552807569504,0.06923781335353851,0.09784847497940063,-0.08258945494890213,0.0013351644156500697,0.00019073777366429567
1.9491755962371826,0.09937438368797302,0.06809338182210922,0.10128175467252731,-0.08373387902975082,0.001716639962978661,0.00019073777366429567
1.969259262084961,0.10166323184967041,0.06733043491840363,0.10471503436565399,-0.08525978773832321,0.001716639962978661,0.00019073777366429567
1.9893696308135986,0.1024261862039566,0.06618601083755493,0.10662241280078888,-0.086785688996315,0.0020981156267225742,0.00019073777366429567
2.009392023086548,0.1039520874619484,0.06504157930612564,0.10967422276735306,-0.0883115902543068,0.002861066721379757,0.000572213320992887
2.02947998046875,0.10585946589708328,0.06389715522527695,0.11310750246047974,-0.09021896868944168,0.0024795911740511656,0.00019073777366429567
2.0495433807373047,0.10814831405878067,0.06275273114442825,0.11615930497646332,-0.09060044586658478,0.0020981156267225742,0.000572213320992887
2.06960129737854,0.10967422276735306,0.06237125024199486,0.1188296303153038,-0.09250781685113907,0.0013351644156500697,0.000572213320992887
2.0898027420043945,0.11158160120248795,0.061226826161146164,0.12188144028186798,-0.09441519528627396,0.0020981156267225742,0.000572213320992887
2.109896183013916,0.11387044936418533,0.05970092490315437,0.12607766687870026,-0.09632257372140884,0.001716639962978661,0.000572213320992887
2.129983901977539,0.11654078215360641,0.05855649709701538,0.12874799966812134,-0.09822995215654373,0.0020981156267225742,0.000572213320992887
2.150019884109497,0.1188296303153038,0.05703059583902359,0.13179980218410492,-0.09861142933368683,0.002861066721379757,0.000572213320992887
2.17010498046875,0.12111848592758179,0.0555046908557415,0.1348516047000885,-0.10051880776882172,0.002861066721379757,0.000572213320992887
2.190186023712158,0.12340734153985977,0.05397878959774971,0.13866636157035828,-0.1024261862039566,0.002861066721379757,0.000572213320992887
2.210364580154419,0.12455176562070847,0.05245288833975792,0.14209964871406555,-0.10471503436565399,0.002861066721379757,0.000572213320992887
2.230342388153076,0.12760357558727264,0.05092698708176613,0.14591439068317413,-0.10662241280078888,0.0024795911740511656,0.000572213320992887
2.2504220008850098,0.13027389347553253,0.048638131469488144,0.1512550562620163,-0.10852979123592377,0.0024795911740511656,0.000572213320992887
2.2704899311065674,0.1325627565383911,0.04711223021149635,0.15545128285884857,-0.11043716967105865,0.002861066721379757,0.000572213320992887
2.290553331375122,0.134470134973526,0.04634927958250046,0.15926603972911835,-0.11272602528333664,0.002861066721379757,0.000572213320992887
2.311047315597534,0.13828489184379578,0.04406042397022247,0.1646067053079605,-0.11425192654132843,0.002861066721379757,0.000572213320992887
2.3311829566955566,0.14133669435977936,0.04139009863138199,0.17109178006649017,-0.11654078215360641,0.002861066721379757,0.000572213320992887
2.351407527923584,0.14400701224803925,0.039101243019104004,0.17566949129104614,-0.11768520623445511,0.0024795911740511656,0.000572213320992887
2.371382713317871,0.14629587531089783,0.037193864583969116,0.17986571788787842,-0.12073700875043869,0.0024795911740511656,0.0009536888683214784
2.3914568424224854,0.1493476778268814,0.03376058489084244,0.18596932291984558,-0.12226291000843048,0.0024795911740511656,0.0009536888683214784
2.411546230316162,0.1527809500694275,0.03032730519771576,0.19207294285297394,-0.12455176562070847,0.002861066721379757,0.0009536888683214784
2.431633949279785,0.15545128285884857,0.027656977996230125,0.1966506391763687,-0.12684062123298645,0.002861066721379757,0.0013351644156500697
2.451694965362549,0.15926603972911835,0.023460745811462402,0.20313572883605957,-0.12951095402240753,0.0024795911740511656,0.0013351644156500697
2.4719367027282715,0.16308079659938812,0.01888304017484188,0.21076524257659912,-0.1325627565383911,0.0020981156267225742,0.0013351644156500697
2.4919140338897705,0.1672770231962204,0.013923857361078262,0.21877622604370117,-0.1359960287809372,0.0024795911740511656,0.0020981156267225742
2.5119874477386475,0.17071031033992767,0.008964675478637218,0.22526131570339203,-0.13904783129692078,0.002861066721379757,0.002861066721379757
2.5320286750793457,0.17490653693675995,0.0032425422687083483,0.23327229917049408,-0.14209964871406555,0.0020981156267225742,0.0032425422687083483
2.5521154403686523,0.17910276353359222,-0.002861066721379757,0.24242770671844482,-0.14438849687576294,0.002861066721379757,0.002861066721379757
2.5721943378448486,0.1832990050315857,-0.00858320016413927,0.2500572204589844,-0.14744029939174652,0.0024795911740511656,0.0032425422687083483
2.5922653675079346,0.18825818598270416,-0.01583123579621315,0.2584496736526489,-0.1508735716342926,0.0020981156267225742,0.0032425422687083483
2.6123955249786377,0.19207294285297394,-0.02384222112596035,0.26760509610176086,-0.152399480342865,0.0024795911740511656,0.0032425422687083483
2.63248872756958,0.1970321238040924,-0.03337911143898964,0.2801937758922577,-0.15545128285884857,0.0013351644156500697,0.0036240178160369396
2.6526334285736084,0.20199130475521088,-0.042153049260377884,0.28934919834136963,-0.15850308537483215,0.0020981156267225742,0.0032425422687083483
2.6727089881896973,0.20695048570632935,-0.05207141116261482,0.30041199922561646,-0.16193637251853943,0.0013351644156500697,0.0036240178160369396
2.692772388458252,0.21229113638401031,-0.06389715522527695,0.3133821487426758,-0.1657511293888092,0.0009536888683214784,0.0036240178160369396
2.712839365005493,0.21877622604370117,-0.07534141838550568,0.3271152675151825,-0.17032882571220398,0.0009536888683214784,0.0036240178160369396
2.7329719066619873,0.22564278542995453,-0.09060044586658478,0.3427557647228241,-0.17528800666332245,0.001716639962978661,0.004005493130534887
2.752990484237671,0.23327229917049408,-0.10738536715507507,0.3614480793476105,-0.17948424816131592,0.0013351644156500697,0.004386968910694122
2.7731120586395264,0.24128328263759613,-0.12417028844356537,0.38014039397239685,-0.18520638346672058,0.00019073777366429567,0.00476844422519207
2.793170690536499,0.248531311750412,-0.13790340721607208,0.39616236090660095,-0.19016556441783905,0.000572213320992887,0.005531395319849253
2.8132190704345703,0.2573052644729614,-0.15468832850456238,0.41599908471107483,-0.1958876997232437,0.000572213320992887,0.007438773289322853
2.8333024978637695,0.2645532786846161,-0.17299915850162506,0.4354543387889862,-0.2004653960466385,0.0009536888683214784,0.0078202486038208
2.8534486293792725,0.27027541399002075,-0.19092851877212524,0.4507133662700653,-0.20695048570632935,0.000572213320992887,0.008201723918318748
2.8734958171844482,0.2756160795688629,-0.20771344006061554,0.4678797721862793,-0.21229113638401031,0.0009536888683214784,0.008201723918318748
2.893712282180786,0.2821011543273926,-0.22487983107566833,0.4888609051704407,-0.21839475631713867,0.000572213320992887,0.010109102353453636
2.913701057434082,0.28744181990623474,-0.24357213079929352,0.508316159248352,-0.22449836134910583,-0.0013351644156500697,0.010872052982449532
2.933788537979126,0.2920195460319519,-0.2645532786846161,0.5270084738731384,-0.2313649207353592,-0.004005493130534887,0.01125352829694748
2.954016923904419,0.2962157726287842,-0.28591591119766235,0.5483710765838623,-0.23746852576732635,-0.007057297509163618,0.011635004542768002
2.974107027053833,0.30003052949905396,-0.30346378684043884,0.5685893297195435,-0.2443350851535797,-0.007438773289322853,0.01201647985726595
2.9942376613616943,0.30231937766075134,-0.31986725330352783,0.5815594792366028,-0.2508201599121094,-0.007438773289322853,0.012397955171763897
3.0142574310302734,0.30498969554901123,-0.3385595381259918,0.5991073250770569,-0.2573052644729614,-0.009727626107633114,0.012779430486261845
3.0343716144561768,0.3061341345310211,-0.361066609621048,0.6162737607955933,-0.2641718089580536,-0.011635004542768002,0.013923857361078262
3.054508686065674,0.3061341345310211,-0.3770885765552521,0.6303883194923401,-0.26874953508377075,-0.013160906732082367,0.014686808921396732
3.0745608806610107,0.3065156042575836,-0.39730677008628845,0.6456473469734192,-0.2782863974571228,-0.01506828423589468,0.015449759550392628
3.0946316719055176,0.3072785437107086,-0.4194323718547821,0.6647211313247681,-0.28744181990623474,-0.016212711110711098,0.016594186425209045
3.1147243976593018,0.3072785437107086,-0.4388876259326935,0.6818875670433044,-0.2943083941936493,-0.018120087683200836,0.01773861236870289
3.134817123413086,0.3072785437107086,-0.45910581946372986,0.6994354128837585,-0.30117493867874146,-0.02040894143283367,0.01926451548933983
3.1548714637756348,0.308041512966156,-0.47779813408851624,0.7185091972351074,-0.3107118308544159,-0.02231631986796856,0.020027466118335724
3.1755387783050537,0.3084229826927185,-0.4968718886375427,0.7387273907661438,-0.32063019275665283,-0.024223696440458298,0.02040894143283367
3.1955976486206055,0.3084229826927185,-0.5148012638092041,0.7581826448440552,-0.33093002438545227,-0.024605173617601395,0.02193484455347061
3.2157459259033203,0.3084229826927185,-0.5331120491027832,0.776493489742279,-0.3400854468345642,-0.026512550190091133,0.022697795182466507
3.235915422439575,0.3084229826927185,-0.5548561811447144,0.7978560924530029,-0.34885939955711365,-0.030708782374858856,0.024986648932099342
3.256108045578003,0.308804452419281,-0.5743114352226257,0.8176928162574768,-0.3580147922039032,-0.034142062067985535,0.02689402550458908
3.2761645317077637,0.309567391872406,-0.5903334021568298,0.8318074345588684,-0.368314653635025,-0.038719769567251205,0.029564354568719864
3.2961809635162354,0.309567391872406,-0.6090257167816162,0.8524070978164673,-0.37861448526382446,-0.043678950518369675,0.031090257689356804
3.3162477016448975,0.3099488914012909,-0.6284809708595276,0.8718623518943787,-0.3904402256011963,-0.045204851776361465,0.032616160809993744
3.3363120555877686,0.3103303611278534,-0.6464102864265442,0.890554666519165,-0.4011215269565582,-0.048638131469488144,0.03452353551983833
3.3564391136169434,0.3103303611278534,-0.6643396615982056,0.9084840416908264,-0.41599908471107483,-0.05054550990462303,0.03757534176111221
3.37648606300354,0.3103303611278534,-0.6841763854026794,0.9267948269844055,-0.42935073375701904,-0.05397878959774971,0.0394827201962471
3.3966217041015625,0.3103303611278534,-0.7021057605743408,0.9435797929763794,-0.44422826170921326,-0.05855649709701538,0.04253452271223068
3.416693687438965,0.3103303611278534,-0.7188906669616699,0.9588387608528137,-0.45872434973716736,-0.06008239835500717,0.04444190114736557
3.436750888824463,0.3103303611278534,-0.733386754989624,0.970283031463623,-0.4720759987831116,-0.06275273114442825,0.04596780240535736
3.4568254947662354,0.3099488914012909,-0.7475013136863708,0.9817273020744324,-0.4854276478290558,-0.06771191209554672,0.049782559275627136
3.4769158363342285,0.3103303611278534,-0.7612344622612,0.9931715726852417,-0.4968718886375427,-0.0711451917886734,0.051689937710762024
3.496973991394043,0.3099488914012909,-0.768482506275177,0.9981307983398438,-0.509079098701477,-0.07572289556264877,0.057793546468019485
3.517040491104126,0.3099488914012909,-0.7753490209579468,1.0034713745117188,-0.5239566564559937,-0.07648584991693497,0.061226826161146164
3.537107467651367,0.3099488914012909,-0.7810711860656738,1.0065232515335083,-0.5384527444839478,-0.08144503086805344,0.06694895774126053
3.557321548461914,0.3099488914012909,-0.7841230034828186,1.0084306001663208,-0.5552376508712769,-0.08297093212604523,0.0722896158695221
3.5772926807403564,0.3099488914012909,-0.7856488823890686,1.0080491304397583,-0.576981782913208,-0.08525978773832321,0.07915617525577545
3.597414493560791,0.3091859221458435,-0.7867932915687561,1.0076676607131958,-0.5979629158973694,-0.0875486359000206,0.08525978773832321
3.6174941062927246,0.308041512966156,-0.7879377603530884,1.0069047212600708,-0.6212329268455505,-0.09021896868944168,0.09250781685113907
3.6375937461853027,0.3068970739841461,-0.7883192300796509,1.0057603120803833,-0.6456473469734192,-0.09479667246341705,0.10090028494596481
3.6576340198516846,0.30537116527557373,-0.7887006998062134,1.0038528442382812,-0.6715877056121826,-0.09937438368797302,0.11005569249391556
3.677715539932251,0.30460822582244873,-0.7887006998062134,1.0011825561523438,-0.7036316394805908,-0.10547798871994019,0.12226291000843048
3.6978137493133545,0.30270084738731384,-0.7887006998062134,0.9981307983398438,-0.7375829815864563,-0.10967422276735306,0.1367589831352234
3.7178573608398438,0.30079346895217896,-0.7887006998062134,0.9946975111961365,-0.7722972631454468,-0.11501488089561462,0.1508735716342926
3.737955331802368,0.29888609051704407,-0.7871748208999634,0.9897382855415344,-0.810826301574707,-0.1199740618467331,0.1668955534696579
3.758070468902588,0.2973601818084717,-0.7852674126625061,0.9828717708587646,-0.8520256280899048,-0.12226291000843048,0.18711376190185547
3.778162956237793,0.2954528033733368,-0.7818341255187988,0.9763866662979126,-0.8916990756988525,-0.12569619715213776,0.21000228822231293
3.7982237339019775,0.2931639552116394,-0.778782308101654,0.9714275002479553,-0.9313725233078003,-0.13141833245754242,0.23403525352478027
3.8183224201202393,0.290875107049942,-0.7745860815048218,0.9653238654136658,-0.970283031463623,-0.134470134973526,0.2592126429080963
3.8384592533111572,0.28896772861480713,-0.770008385181427,0.9580758213996887,-1.0061417818069458,-0.14171816408634186,0.28744181990623474
3.8584628105163574,0.28667888045310974,-0.7654306888580322,0.9515907764434814,-1.0450522899627686,-0.14820325374603271,0.31452658772468567
3.878598213195801,0.28362706303596497,-0.7608529925346375,0.9454871416091919,-1.0793850421905518,-0.1508735716342926,0.3423742949962616
3.898700714111328,0.2813382148742676,-0.7547493577003479,0.9355688095092773,-1.1175326108932495,-0.15545128285884857,0.3702220320701599
3.9187870025634766,0.2779049277305603,-0.7486457824707031,0.9279392957687378,-1.1564431190490723,-0.15468832850456238,0.4003585875034332
3.938876152038574,0.2752346098423004,-0.7429236173629761,0.9195467829704285,-1.1934462785720825,-0.16002899408340454,0.42896926403045654
3.958934783935547,0.2725642919540405,-0.735675573348999,0.9138246774673462,-1.2281605005264282,-0.15697719156742096,0.4549095928668976
3.979022264480591,0.26836803555488586,-0.7291905283927917,0.9027618765830994,-1.2636377811431885,-0.16193637251853943,0.4835202693939209
3.999070644378662,0.2660791873931885,-0.7227054238319397,0.8962767720222473,-1.2975890636444092,-0.164988175034523,0.5109865069389343
4.0191473960876465,0.2626459002494812,-0.7150759100914001,0.8863584399223328,-1.3323034048080444,-0.1684214472770691,0.5384527444839478
4.039222002029419,0.2599755823612213,-0.7074463963508606,0.8772030472755432,-1.3651102781295776,-0.17299915850162506,0.5651560425758362
4.059277296066284,0.25654229521751404,-0.7013428211212158,0.8707179427146912,-1.3960098028182983,-0.17261768877506256,0.5922408103942871
4.079362392425537,0.25387197732925415,-0.6960021257400513,0.8611810207366943,-1.4272907972335815,-0.17986571788787842,0.6174181699752808
4.099426746368408,0.2508201599121094,-0.6868467330932617,0.8527885675430298,-1.4551384449005127,-0.17719538509845734,0.6387808322906494
4.11953067779541,0.247768372297287,-0.6792172193527222,0.8428702354431152,-1.4829862117767334,-0.182154580950737,0.6658655405044556
4.139581203460693,0.2462424635887146,-0.6719691753387451,0.8367666006088257,-1.5127413272857666,-0.1817730963230133,0.6898985505104065
4.159743070602417,0.24357213079929352,-0.6662470698356628,0.8268482685089111,-1.5390630960464478,-0.18787670135498047,0.7131685614585876
4.179742336273193,0.24013885855674744,-0.6582360863685608,0.8161669373512268,-1.570344090461731,-0.19398032128810883,0.7360570430755615
4.1998231410980225,0.23823148012161255,-0.6521324515342712,0.810826301574707,-1.5955214500427246,-0.18902114033699036,0.7539864182472229
4.219914436340332,0.23517967760562897,-0.6437399983406067,0.8016708493232727,-1.6195544004440308,-0.20237277448177338,0.7745860815048218
4.239968299865723,0.23212787508964539,-0.6364919543266296,0.7936598658561707,-1.6432058811187744,-0.2004653960466385,0.7925154566764832
4.260195016860962,0.230601966381073,-0.6311513185501099,0.7848859429359436,-1.664568543434143,-0.20275425910949707,0.8104447722434998
4.280280828475952,0.2290760725736618,-0.6231403350830078,0.778019368648529,-1.6840238571166992,-0.20885786414146423,0.8295185565948486
4.300380706787109,0.22716869413852692,-0.6181811094284058,0.7711527943611145,-1.7057678699493408,-0.21076524257659912,0.8470664620399475
4.320460557937622,0.22564278542995453,-0.6132219433784485,0.7631418108940125,-1.7271305322647095,-0.21648737788200378,0.8634698987007141
4.340583801269531,0.22449836134910583,-0.6055924296379089,0.7555122971534729,-1.7484931945800781,-0.2134355753660202,0.8787289261817932
4.360612630844116,0.22259098291397095,-0.5971999764442444,0.7471198439598083,-1.7652781009674072,-0.22144655883312225,0.8962767720222473
4.381069660186768,0.22068360447883606,-0.5914778113365173,0.7413977384567261,-1.7835888862609863,-0.21915769577026367,0.9103913903236389
4.401162385940552,0.21877622604370117,-0.5853742361068726,0.7337682247161865,-1.800755262374878,-0.22678720951080322,0.9237430095672607
4.421257734298706,0.21763180196285248,-0.5788891315460205,0.7280460596084595,-1.816014289855957,-0.22678720951080322,0.9367132186889648
4.4412922859191895,0.21725031733512878,-0.5724040865898132,0.7204165458679199,-1.8312733173370361,-0.23365376889705658,0.9504463076591492
4.461383581161499,0.21686884760856628,-0.5663004517555237,0.7143129706382751,-1.8484398126602173,-0.23212787508964539,0.9626535177230835
4.481446743011475,0.2157244235277176,-0.5601968169212341,0.7063019871711731,-1.8633173704147339,-0.23327229917049408,0.9729533791542053
4.501508712768555,0.2153429538011551,-0.5544747114181519,0.7001983523368835,-1.8770503997802734,-0.23403525352478027,0.9836347103118896
4.5217204093933105,0.2141985148191452,-0.5487525463104248,0.693331778049469,-1.8869688510894775,-0.23746852576732635,0.9939345121383667
4.541903257369995,0.2134355753660202,-0.54264897108078,0.6872282028198242,-1.902227759361267,-0.23632410168647766,1.0042344331741333
4.562083959579468,0.21229113638401031,-0.5365453362464905,0.6811245679855347,-1.9136720895767212,-0.23861294984817505,1.0130083560943604
4.582156419754028,0.21114671230316162,-0.5308232307434082,0.6761654019355774,-1.9220645427703857,-0.24052032828330994,1.0233081579208374
4.602169036865234,0.21038375794887543,-0.5254825949668884,0.6715877056121826,-1.9335087537765503,-0.24128328263759613,1.030937671661377
4.622205018997192,0.21038375794887543,-0.5216678380966187,0.6666285395622253,-1.941519856452942,-0.2462424635887146,1.0393301248550415
4.642275094985962,0.21038375794887543,-0.5163271427154541,0.6609063744544983,-1.9514381885528564,-0.248531311750412,1.0465781688690186
4.66232967376709,0.21000228822231293,-0.509079098701477,0.6540398001670837,-1.9625009298324585,-0.24967575073242188,1.0545891523361206
4.682843208312988,0.20962081849575043,-0.5045014023780823,0.6490806341171265,-1.9705119132995605,-0.25349050760269165,1.0614557266235352
4.702986478805542,0.20923933386802673,-0.4991607666015625,0.6437399983406067,-1.9792858362197876,-0.25463491678237915,1.0679408311843872
4.723031282424927,0.20923933386802673,-0.49496451020240784,0.6403067111968994,-1.9857709407806396,-0.25616082549095154,1.0736628770828247
4.743088245391846,0.20885786414146423,-0.49076828360557556,0.6353475451469421,-1.9918745756149292,-0.2592126429080963,1.0793850421905518
4.763690233230591,0.20809490978717804,-0.4869535267353058,0.6319142580032349,-1.9975967407226562,-0.2588311731815338,1.0858701467514038
4.783803939819336,0.20809490978717804,-0.4827573001384735,0.6273365616798401,-2.0029373168945312,-0.2595941126346588,1.0912108421325684
4.8039021492004395,0.20809490978717804,-0.47932401299476624,0.6231403350830078,-2.0098040103912354,-0.2595941126346588,1.0946440696716309
4.823997259140015,0.20809490978717804,-0.47398337721824646,0.6174181699752808,-2.014763116836548,-0.2626459002494812,1.0992218255996704
4.844112873077393,0.20809490978717804,-0.4686427116394043,0.612077534198761,-2.0204851627349854,-0.2607385218143463,1.103417992591858
4.864165306091309,0.20809490978717804,-0.465209424495697,0.6094071865081787,-2.027733325958252,-0.2607385218143463,1.106088399887085
4.884214878082275,0.20809490978717804,-0.46215763688087463,0.6063553690910339,-2.031548023223877,-0.264934778213501,1.1110475063323975
4.9042816162109375,0.20847637951374054,-0.45910581946372986,0.6040665507316589,-2.036888599395752,-0.2622644305229187,1.1137179136276245
4.924354314804077,0.20809490978717804,-0.45719844102859497,0.6013962030410767,-2.039177656173706,-0.265697717666626,1.1167696714401245
4.944417238235474,0.20809490978717804,-0.4549095928668976,0.5983443856239319,-2.0418479442596436,-0.26722362637519836,1.120202898979187
4.9646008014678955,0.20809490978717804,-0.4514763057231903,0.5964370369911194,-2.0441367626190186,-0.266460657119751,1.1224918365478516
4.984717607498169,0.20809490978717804,-0.4488059878349304,0.5930037498474121,-2.0471885204315186,-0.26836803555488586,1.1255435943603516
5.004925727844238,0.20809490978717804,-0.44651713967323303,0.5918593406677246,-2.050621747970581,-0.26760509610176086,1.1285953521728516
5.024924039840698,0.20809490978717804,-0.44308385252952576,0.5899519324302673,-2.053673505783081,-0.27027541399002075,1.1305028200149536
5.04504919052124,0.20809490978717804,-0.4404135048389435,0.5880445837974548,-2.0563440322875977,-0.27027541399002075,1.1327916383743286
5.06513237953186,0.20809490978717804,-0.4388876259326935,0.5853742361068726,-2.0586328506469727,-0.27218279242515564,1.1350804567337036
5.085284233093262,0.20809490978717804,-0.4362172782421112,0.5819409489631653,-2.0601587295532227,-0.2752346098423004,1.1381323337554932
5.105362892150879,0.20809490978717804,-0.4350728690624237,0.5804150700569153,-2.0632104873657227,-0.27218279242515564,1.1392767429351807
5.125514268875122,0.20809490978717804,-0.4331654906272888,0.576981782913208,-2.066643714904785,-0.272945761680603,1.1400396823883057
5.145547389984131,0.20847637951374054,-0.43087664246559143,0.5750743746757507,-2.0704586505889893,-0.27065691351890564,1.1423285007476807
5.165708065032959,0.20847637951374054,-0.42935073375701904,0.5731670260429382,-2.0719845294952393,-0.27065691351890564,1.1434729099273682
5.18578839302063,0.20847637951374054,-0.42782482504844666,0.572022557258606,-2.0735104084014893,-0.27027541399002075,1.1453803777694702
5.205823183059692,0.20847637951374054,-0.42591744661331177,0.571259617805481,-2.0738918781280518,-0.27218279242515564,1.1465247869491577
5.225858926773071,0.20847637951374054,-0.42515450716018677,0.5701152086257935,-2.0754177570343018,-0.273708701133728,1.1484321355819702
5.245936393737793,0.20847637951374054,-0.4240100681781769,0.5693522691726685,-2.0765621662139893,-0.2748531401157379,1.1491950750350952
5.266033887863159,0.20847637951374054,-0.4228656589984894,0.5678263306617737,-2.0773251056671143,-0.2763790488243103,1.1503394842147827
5.286163091659546,0.20847637951374054,-0.4217212200164795,0.5666819214820862,-2.0799953937530518,-0.2759975492954254,1.1514838933944702
5.306185722351074,0.20847637951374054,-0.4209582805633545,0.5663004517555237,-2.0811398029327393,-0.2759975492954254,1.1522468328475952
5.326296091079712,0.20847637951374054,-0.4198138415813446,0.5647745728492737,-2.0811398029327393,-0.2771419882774353,1.1533913612365723
5.34645676612854,0.20847637951374054,-0.4175249934196472,0.5628671646118164,-2.0822842121124268,-0.2759975492954254,1.1537728309631348
5.366583585739136,0.20847637951374054,-0.41599908471107483,0.5624856948852539,-2.0826656818389893,-0.2756160795688629,1.1549172401428223
5.386559009552002,0.20847637951374054,-0.41447317600250244,0.5621042251586914,-2.0838100910186768,-0.2763790488243103,1.1556801795959473
5.406640291213989,0.20885786414146423,-0.41371023654937744,0.5609598159790039,-2.0841915607452393,-0.2767605185508728,1.1564431190490723
5.4267051219940186,0.20962081849575043,-0.41256579756736755,0.5594338774681091,-2.0841915607452393,-0.2771419882774353,1.1568245887756348
5.44685697555542,0.20962081849575043,-0.41256579756736755,0.5590524077415466,-2.0845730304718018,-0.2775234580039978,1.1568245887756348
5.467077732086182,0.20962081849575043,-0.41218432784080505,0.5579079985618591,-2.086099147796631,-0.2767605185508728,1.1572060585021973
5.487154006958008,0.20962081849575043,-0.41180285811424255,0.5571450591087341,-2.0872435569763184,-0.2759975492954254,1.1575875282287598
5.507279872894287,0.20962081849575043,-0.41142138838768005,0.5563820600509644,-2.087625026702881,-0.272945761680603,1.1575875282287598
5.5273261070251465,0.20962081849575043,-0.41142138838768005,0.5560005903244019,-2.0880064964294434,-0.272945761680603,1.1575875282287598
5.547465085983276,0.20962081849575043,-0.41027694940567017,0.5548561811447144,-2.0880064964294434,-0.27180132269859314,1.1583504676818848
5.567572355270386,0.20962081849575043,-0.40951400995254517,0.5540932416915894,-2.0880064964294434,-0.26913100481033325,1.1583504676818848
5.5875585079193115,0.20962081849575043,-0.4091325104236603,0.5537117719650269,-2.0880064964294434,-0.26913100481033325,1.1587319374084473
5.607619285583496,0.20962081849575043,-0.4083695709705353,0.5533303022384644,-2.088387966156006,-0.26951247453689575,1.1594948768615723
5.627781629562378,0.20962081849575043,-0.4079881012439728,0.5529488325119019,-2.0887694358825684,-0.26874953508377075,1.1602579355239868
5.647806644439697,0.20962081849575043,-0.4072251319885254,0.5529488325119019,-2.0887694358825684,-0.26951247453689575,1.1602579355239868
5.667865037918091,0.20962081849575043,-0.4064621925354004,0.5529488325119019,-2.0887694358825684,-0.27027541399002075,1.1606394052505493
5.6880271434783936,0.20962081849575043,-0.4060807228088379,0.5525673031806946,-2.0887694358825684,-0.27065691351890564,1.1610208749771118
5.708061695098877,0.20962081849575043,-0.4060807228088379,0.5525673031806946,-2.089150905609131,-0.27218279242515564,1.1610208749771118
5.7281389236450195,0.20962081849575043,-0.4056992530822754,0.5521858334541321,-2.0895323753356934,-0.2733272314071655,1.1617838144302368
5.748220205307007,0.20962081849575043,-0.4053177833557129,0.5521858334541321,-2.090676784515381,-0.272945761680603,1.1625467538833618
5.768301963806152,0.20962081849575043,-0.4053177833557129,0.5518043637275696,-2.091439723968506,-0.273708701133728,1.1625467538833618
5.7883501052856445,0.20962081849575043,-0.404936283826828,0.5510414242744446,-2.091439723968506,-0.2748531401157379,1.1633096933364868
5.808459043502808,0.20962081849575043,-0.404173344373703,0.5510414242744446,-2.0918211936950684,-0.2756160795688629,1.1633096933364868
5.8284947872161865,0.20962081849575043,-0.404173344373703,0.5506599545478821,-2.0918211936950684,-0.2759975492954254,1.1633096933364868
5.848602294921875,0.21000228822231293,-0.4037918746471405,0.5506599545478821,-2.0918211936950684,-0.2771419882774353,1.1636911630630493
5.8687050342559814,0.21038375794887543,-0.403410404920578,0.5502784848213196,-2.0918211936950684,-0.2763790488243103,1.1636911630630493
5.888784646987915,0.21038375794887543,-0.403410404920578,0.5502784848213196,-2.0918211936950684,-0.2763790488243103,1.1636911630630493
5.9089577198028564,0.21038375794887543,-0.403410404920578,0.5498970150947571,-2.0918211936950684,-0.2763790488243103,1.1636911630630493
5.929039716720581,0.21038375794887543,-0.4030289053916931,0.5498970150947571,-2.092202663421631,-0.2759975492954254,1.1636911630630493
5.949142932891846,0.21038375794887543,-0.4022659659385681,0.5491340756416321,-2.0918211936950684,-0.2763790488243103,1.1636911630630493
5.9691691398620605,0.21038375794887543,-0.4018844962120056,0.5491340756416321,-2.0918211936950684,-0.2756160795688629,1.1640726327896118
5.989340543746948,0.21038375794887543,-0.4022659659385681,0.5491340756416321,-2.0918211936950684,-0.2763790488243103,1.1640726327896118
6.009429216384888,0.21076524257659912,-0.4018844962120056,0.5487525463104248,-2.092202663421631,-0.2759975492954254,1.1640726327896118
6.0295093059539795,0.21076524257659912,-0.4015030264854431,0.5483710765838623,-2.0918211936950684,-0.2756160795688629,1.1640726327896118
6.049596309661865,0.21076524257659912,-0.4011215269565582,0.5483710765838623,-2.092202663421631,-0.2759975492954254,1.1644541025161743
6.0696494579315186,0.21076524257659912,-0.4011215269565582,0.5483710765838623,-2.0918211936950684,-0.2759975492954254,1.1644541025161743
6.089732646942139,0.21114671230316162,-0.4011215269565582,0.5483710765838623,-2.0918211936950684,-0.2759975492954254,1.1644541025161743
6.109795331954956,0.21152819693088531,-0.4011215269565582,0.5483710765838623,-2.0918211936950684,-0.2759975492954254,1.1644541025161743
6.129842758178711,0.21152819693088531,-0.4011215269565582,0.5479896068572998,-2.092202663421631,-0.2759975492954254,1.1644541025161743
6.15003776550293,0.21152819693088531,-0.4011215269565582,0.5479896068572998,-2.0918211936950684,-0.2759975492954254,1.1648355722427368
6.170125484466553,0.21152819693088531,-0.4007400572299957,0.5479896068572998,-2.0918211936950684,-0.2759975492954254,1.1648355722427368
6.1901938915252686,0.21152819693088531,-0.4003585875034332,0.5479896068572998,-2.0918211936950684,-0.2759975492954254,1.1648355722427368
6.2102978229522705,0.21152819693088531,-0.4003585875034332,0.5476081371307373,-2.0918211936950684,-0.2763790488243103,1.1652170419692993
6.2303626537323,0.21152819693088531,-0.3999771177768707,0.5472266674041748,-2.0918211936950684,-0.2771419882774353,1.1652170419692993
6.250446319580078,0.21152819693088531,-0.3999771177768707,0.5472266674041748,-2.0918211936950684,-0.2763790488243103,1.1652170419692993
6.270516395568848,0.21152819693088531,-0.3999771177768707,0.5472266674041748,-2.092202663421631,-0.2759975492954254,1.1652170419692993
6.290571928024292,0.21152819693088531,-0.3999771177768707,0.5468451976776123,-2.092202663421631,-0.2759975492954254,1.1655985116958618
6.311187028884888,0.21152819693088531,-0.3999771177768707,0.5468451976776123,-2.092202663421631,-0.2763790488243103,1.1655985116958618
6.331258535385132,0.21152819693088531,-0.3999771177768707,0.5468451976776123,-2.092202663421631,-0.2767605185508728,1.1655985116958618
6.351346731185913,0.21152819693088531,-0.39921414852142334,0.5468451976776123,-2.092202663421631,-0.2763790488243103,1.1655985116958618
6.371384620666504,0.21152819693088531,-0.39921414852142334,0.5464637279510498,-2.092202663421631,-0.2763790488243103,1.1655985116958618
6.391561508178711,0.21152819693088531,-0.39921414852142334,0.5464637279510498,-2.092202663421631,-0.2763790488243103,1.1659799814224243
6.41171407699585,0.21152819693088531,-0.39921414852142334,0.5464637279510498,-2.092202663421631,-0.2763790488243103,1.1659799814224243
6.431772708892822,0.21152819693088531,-0.39921414852142334,0.5464637279510498,-2.092202663421631,-0.2763790488243103,1.1659799814224243
6.451875448226929,0.21152819693088531,-0.39921414852142334,0.5464637279510498,-2.092202663421631,-0.2763790488243103,1.1659799814224243
6.472027540206909,0.21152819693088531,-0.39921414852142334,0.5464637279510498,-2.092202663421631,-0.2763790488243103,1.1663614511489868
6.492104530334473,0.21152819693088531,-0.39921414852142334,0.5464637279510498,-2.092202663421631,-0.2767605185508728,1.1663614511489868
6.51213002204895,0.21152819693088531,-0.39921414852142334,0.5464637279510498,-2.092202663421631,-0.2767605185508728,1.1663614511489868
6.5321714878082275,0.21152819693088531,-0.39921414852142334,0.5464637279510498,-2.092202663421631,-0.2763790488243103,1.1663614511489868
6.55225133895874,0.21152819693088531,-0.39921414852142334,0.5460822582244873,-2.092202663421631,-0.2763790488243103,1.1663614511489868
6.572358846664429,0.21152819693088531,-0.39921414852142334,0.5460822582244873,-2.092202663421631,-0.2763790488243103,1.1663614511489868
6.59246826171875,0.21152819693088531,-0.39921414852142334,0.5460822582244873,-2.092202663421631,-0.2763790488243103,1.1663614511489868
6.612529516220093,0.21152819693088531,-0.39921414852142334,0.5464637279510498,-2.092202663421631,-0.2763790488243103,1.1663614511489868
6.632585287094116,0.21152819693088531,-0.39921414852142334,0.5460822582244873,-2.092202663421631,-0.2763790488243103,1.1663614511489868
6.652711391448975,0.21152819693088531,-0.39921414852142334,0.5460822582244873,-2.092202663421631,-0.2763790488243103,1.1663614511489868
6.672730445861816,0.21152819693088531,-0.39883267879486084,0.5460822582244873,-2.092202663421631,-0.2767605185508728,1.1663614511489868
6.692885398864746,0.21152819693088531,-0.39883267879486084,0.5460822582244873,-2.092202663421631,-0.2767605185508728,1.1667429208755493
6.712925910949707,0.21152819693088531,-0.39883267879486084,0.5460822582244873,-2.092202663421631,-0.2767605185508728,1.1663614511489868
6.732952356338501,0.21152819693088531,-0.39845120906829834,0.5460822582244873,-2.092202663421631,-0.2763790488243103,1.1667429208755493
6.753540754318237,0.21152819693088531,-0.39806973934173584,0.5460822582244873,-2.092202663421631,-0.2767605185508728,1.1667429208755493
6.773668527603149,0.21152819693088531,-0.39806973934173584,0.5460822582244873,-2.092202663421631,-0.2767605185508728,1.1667429208755493
6.793787717819214,0.21152819693088531,-0.39845120906829834,0.5460822582244873,-2.092202663421631,-0.2771419882774353,1.1667429208755493
6.8138816356658936,0.21152819693088531,-0.39806973934173584,0.5460822582244873,-2.092202663421631,-0.2767605185508728,1.1667429208755493
6.833911895751953,0.21190966665744781,-0.39845120906829834,0.5460822582244873,-2.092202663421631,-0.2767605185508728,1.1667429208755493
6.85407280921936,0.21190966665744781,-0.39845120906829834,0.5460822582244873,-2.092202663421631,-0.2767605185508728,1.1667429208755493
6.874115228652954,0.21190966665744781,-0.39845120906829834,0.5460822582244873,-2.092202663421631,-0.2767605185508728,1.1667429208755493
6.8942320346832275,0.21190966665744781,-0.39845120906829834,0.5460822582244873,-2.092202663421631,-0.2771419882774353,1.1667429208755493
6.914289712905884,0.21190966665744781,-0.39845120906829834,0.5457007884979248,-2.092202663421631,-0.2767605185508728,1.1667429208755493
6.9343791007995605,0.21190966665744781,-0.39845120906829834,0.5457007884979248,-2.092202663421631,-0.2767605185508728,1.1667429208755493
6.954420328140259,0.21190966665744781,-0.39845120906829834,0.5457007884979248,-2.092202663421631,-0.2767605185508728,1.1667429208755493
6.974615812301636,0.21190966665744781,-0.39845120906829834,0.5457007884979248,-2.092202663421631,-0.2767605185508728,1.1667429208755493
6.99495792388916,0.21152819693088531,-0.39845120906829834,0.5457007884979248,-2.092202663421631,-0.2767605185508728,1.1667429208755493
7.015032768249512,0.21190966665744781,-0.39845120906829834,0.5453193187713623,-2.092202663421631,-0.2767605185508728,1.1667429208755493
7.0352325439453125,0.21190966665744781,-0.39845120906829834,0.5453193187713623,-2.092202663421631,-0.2767605185508728,1.1667429208755493
7.055271148681641,0.21190966665744781,-0.39845120906829834,0.5453193187713623,-2.092202663421631,-0.2767605185508728,1.1667429208755493
7.075362920761108,0.21190966665744781,-0.39845120906829834,0.5453193187713623,-2.092202663421631,-0.2767605185508728,1.1667429208755493
7.095486164093018,0.21190966665744781,-0.39845120906829834,0.5453193187713623,-2.092202663421631,-0.2767605185508728,1.1667429208755493
7.1155500411987305,0.21190966665744781,-0.39845120906829834,0.5453193187713623,-2.092202663421631,-0.2767605185508728,1.1667429208755493
7.135595083236694,0.21190966665744781,-0.39845120906829834,0.5453193187713623,-2.092202663421631,-0.2767605185508728,1.1667429208755493
7.155684947967529,0.21190966665744781,-0.39845120906829834,0.5453193187713623,-2.092202663421631,-0.2767605185508728,1.1667429208755493
7.175762891769409,0.21190966665744781,-0.39845120906829834,0.5453193187713623,-2.092202663421631,-0.2767605185508728,1.1667429208755493
7.222378253936768,0.21190966665744781,-0.39845120906829834,0.5453193187713623,-2.092202663421631,-0.2767605185508728,1.1667429208755493
7.242453336715698,0.21190966665744781,-0.39845120906829834,0.5453193187713623,-2.092202663421631,-0.2767605185508728,1.1667429208755493
7.2626564502716064,0.21190966665744781,-0.39845120906829834,0.5453193187713623,-2.092202663421631,-0.2767605185508728,1.1667429208755493
7.282785654067993,0.21190966665744781,-0.39806973934173584,0.5453193187713623,-2.092202663421631,-0.2767605185508728,1.1667429208755493
7.303008556365967,0.21190966665744781,-0.39845120906829834,0.5453193187713623,-2.092202663421631,-0.2767605185508728,1.1667429208755493
7.322952032089233,0.21190966665744781,-0.39806973934173584,0.5453193187713623,-2.092202663421631,-0.2767605185508728,1.1667429208755493
7.343050479888916,0.21190966665744781,-0.39845120906829834,0.5453193187713623,-2.092202663421631,-0.2767605185508728,1.1667429208755493
7.363098859786987,0.21190966665744781,-0.39806973934173584,0.5453193187713623,-2.092202663421631,-0.2767605185508728,1.1667429208755493
7.38318133354187,0.21190966665744781,-0.39845120906829834,0.5453193187713623,-2.092202663421631,-0.2767605185508728,1.1667429208755493
7.4032676219940186,0.21190966665744781,-0.39845120906829834,0.5453193187713623,-2.092202663421631,-0.2767605185508728,1.1667429208755493
7.423401355743408,0.21190966665744781,-0.39845120906829834,0.5453193187713623,-2.092202663421631,-0.2767605185508728,1.1667429208755493
7.443406343460083,0.21190966665744781,-0.39806973934173584,0.5453193187713623,-2.092202663421631,-0.2767605185508728,1.1667429208755493
7.4634926319122314,0.21190966665744781,-0.39845120906829834,0.5453193187713623,-2.092202663421631,-0.2767605185508728,1.1667429208755493
7.483629941940308,0.21190966665744781,-0.39806973934173584,0.5453193187713623,-2.092202663421631,-0.2767605185508728,1.1667429208755493
7.503664970397949,0.21190966665744781,-0.39806973934173584,0.5453193187713623,-2.092202663421631,-0.2767605185508728,1.1667429208755493
7.523719787597656,0.21190966665744781,-0.39806973934173584,0.5453193187713623,-2.092202663421631,-0.2767605185508728,1.1667429208755493
7.5437963008880615,0.21190966665744781,-0.39806973934173584,0.5453193187713623,-2.092202663421631,-0.2767605185508728,1.1667429208755493
7.563901662826538,0.21190966665744781,-0.39806973934173584,0.5453193187713623,-2.092202663421631,-0.2767605185508728,1.1667429208755493
7.583999156951904,0.21190966665744781,-0.39806973934173584,0.5453193187713623,-2.092202663421631,-0.2767605185508728,1.1667429208755493
7.604285717010498,0.21190966665744781,-0.39806973934173584,0.5453193187713623,-2.092202663421631,-0.2767605185508728,1.1667429208755493
7.624405860900879,0.21190966665744781,-0.39806973934173584,0.5453193187713623,-2.092202663421631,-0.2767605185508728,1.1667429208755493
7.644558668136597,0.21190966665744781,-0.39806973934173584,0.5453193187713623,-2.092202663421631,-0.2767605185508728,1.1667429208755493
7.664598703384399,0.21190966665744781,-0.39806973934173584,0.5453193187713623,-2.092202663421631,-0.2771419882774353,1.1667429208755493
7.685257434844971,0.21190966665744781,-0.39806973934173584,0.5453193187713623,-2.092202663421631,-0.2771419882774353,1.1667429208755493
7.7053422927856445,0.21190966665744781,-0.39806973934173584,0.5453193187713623,-2.092202663421631,-0.2771419882774353,1.1667429208755493
7.725449085235596,0.21190966665744781,-0.39806973934173584,0.5453193187713623,-2.092202663421631,-0.2767605185508728,1.1667429208755493
7.745495080947876,0.21190966665744781,-0.39806973934173584,0.5453193187713623,-2.092202663421631,-0.2767605185508728,1.1667429208755493
7.765673875808716,0.21190966665744781,-0.39806973934173584,0.5453193187713623,-2.092202663421631,-0.2767605185508728,1.1667429208755493
7.7857677936553955,0.21190966665744781,-0.39806973934173584,0.5453193187713623,-2.092202663421631,-0.2767605185508728,1.1667429208755493
7.8058435916900635,0.21190966665744781,-0.39806973934173584,0.5453193187713623,-2.092202663421631,-0.2767605185508728,1.1667429208755493
7.825911998748779,0.21190966665744781,-0.39806973934173584,0.5453193187713623,-2.092202663421631,-0.2767605185508728,1.1667429208755493
7.846311807632446,0.21190966665744781,-0.39806973934173584,0.5453193187713623,-2.092202663421631,-0.2767605185508728,1.1667429208755493
7.866495132446289,0.21190966665744781,-0.39806973934173584,0.5453193187713623,-2.092202663421631,-0.2767605185508728,1.1667429208755493
7.886536598205566,0.21190966665744781,-0.39806973934173584,0.5453193187713623,-2.092202663421631,-0.2771419882774353,1.1667429208755493
7.906585216522217,0.21190966665744781,-0.39806973934173584,0.5453193187713623,-2.092202663421631,-0.2767605185508728,1.1667429208755493
7.926687002182007,0.21190966665744781,-0.39806973934173584,0.5453193187713623,-2.092202663421631,-0.2767605185508728,1.1667429208755493
7.946756839752197,0.21190966665744781,-0.39806973934173584,0.5453193187713623,-2.092202663421631,-0.2771419882774353,1.1667429208755493
7.9668495655059814,0.21190966665744781,-0.39806973934173584,0.5453193187713623,-2.092202663421631,-0.2771419882774353,1.1667429208755493
7.986886739730835,0.21190966665744781,-0.39806973934173584,0.5453193187713623,-2.092202663421631,-0.2767605185508728,1.1667429208755493
8.00697636604309,0.21190966665744781,-0.39806973934173584,0.5453193187713623,-2.092202663421631,-0.2767605185508728,1.1667429208755493
8.027095079421997,0.21190966665744781,-0.39806973934173584,0.5453193187713623,-2.092202663421631,-0.2767605185508728,1.1667429208755493
8.047277212142944,0.21190966665744781,-0.39806973934173584,0.5453193187713623,-2.092202663421631,-0.2767605185508728,1.1667429208755493
8.067275285720825,0.21190966665744781,-0.39806973934173584,0.5453193187713623,-2.092202663421631,-0.2767605185508728,1.1667429208755493
8.087347984313965,0.21190966665744781,-0.39806973934173584,0.5453193187713623,-2.092202663421631,-0.2767605185508728,1.1667429208755493
8.10740852355957,0.21190966665744781,-0.39806973934173584,0.5453193187713623,-2.092202663421631,-0.2767605185508728,1.1667429208755493
8.127478122711182,0.21190966665744781,-0.39806973934173584,0.5453193187713623,-2.092202663421631,-0.2767605185508728,1.1667429208755493
8.147666931152344,0.21190966665744781,-0.39806973934173584,0.5453193187713623,-2.092202663421631,-0.2767605185508728,1.1667429208755493
8.167659044265747,0.21190966665744781,-0.39806973934173584,0.5453193187713623,-2.092202663421631,-0.2767605185508728,1.1667429208755493
8.187744617462158,0.21190966665744781,-0.39806973934173584,0.5453193187713623,-2.092202663421631,-0.2767605185508728,1.1667429208755493
8.20781421661377,0.21190966665744781,-0.39806973934173584,0.5453193187713623,-2.092202663421631,-0.2767605185508728,1.1667429208755493
8.2279212474823,0.21190966665744781,-0.39806973934173584,0.5453193187713623,-2.092202663421631,-0.2767605185508728,1.1667429208755493
8.248172283172607,0.21190966665744781,-0.39806973934173584,0.5453193187713623,-2.092202663421631,-0.2767605185508728,1.1667429208755493
8.268361330032349,0.21190966665744781,-0.39806973934173584,0.5453193187713623,-2.092202663421631,-0.2771419882774353,1.1667429208755493
8.288522958755493,0.21190966665744781,-0.39806973934173584,0.5453193187713623,-2.092202663421631,-0.2767605185508728,1.1667429208755493
8.308604717254639,0.21190966665744781,-0.39806973934173584,0.5453193187713623,-2.092202663421631,-0.2767605185508728,1.1667429208755493
8.328680753707886,0.21190966665744781,-0.39806973934173584,0.5453193187713623,-2.092202663421631,-0.2767605185508728,1.1667429208755493
8.348801374435425,0.21190966665744781,-0.39806973934173584,0.5453193187713623,-2.092202663421631,-0.2767605185508728,1.1667429208755493
8.368880987167358,0.21190966665744781,-0.39806973934173584,0.5453193187713623,-2.092202663421631,-0.2767605185508728,1.1667429208755493
8.389045715332031,0.21190966665744781,-0.39806973934173584,0.5453193187713623,-2.092202663421631,-0.2767605185508728,1.1667429208755493
8.4091055393219,0.21190966665744781,-0.39806973934173584,0.5453193187713623,-2.092202663421631,-0.2767605185508728,1.1667429208755493
8.429138898849487,0.21190966665744781,-0.39806973934173584,0.5453193187713623,-2.092202663421631,-0.2767605185508728,1.1667429208755493
8.449235200881958,0.21190966665744781,-0.39806973934173584,0.5453193187713623,-2.092202663421631,-0.2767605185508728,1.1667429208755493
8.469343900680542,0.21190966665744781,-0.39806973934173584,0.5453193187713623,-2.092202663421631,-0.2767605185508728,1.1667429208755493
8.489400625228882,0.21190966665744781,-0.39806973934173584,0.5453193187713623,-2.092202663421631,-0.2767605185508728,1.1667429208755493
8.509443521499634,0.21190966665744781,-0.39806973934173584,0.5453193187713623,-2.092202663421631,-0.2771419882774353,1.1667429208755493
8.529576301574707,0.21190966665744781,-0.39806973934173584,0.5453193187713623,-2.092202663421631,-0.2771419882774353,1.1667429208755493
8.549660444259644,0.21190966665744781,-0.39806973934173584,0.5453193187713623,-2.092202663421631,-0.2771419882774353,1.1667429208755493
8.5697021484375,0.21190966665744781,-0.39806973934173584,0.5453193187713623,-2.092202663421631,-0.2767605185508728,1.1667429208755493
8.589804887771606,0.21190966665744781,-0.39806973934173584,0.5453193187713623,-2.092202663421631,-0.2767605185508728,1.1667429208755493
8.609898328781128,0.21190966665744781,-0.39806973934173584,0.5453193187713623,-2.092202663421631,-0.2767605185508728,1.1667429208755493
8.629989385604858,0.21190966665744781,-0.39806973934173584,0.5453193187713623,-2.092202663421631,-0.2767605185508728,1.1667429208755493
8.650030612945557,0.21190966665744781,-0.39806973934173584,0.5453193187713623,-2.092202663421631,-0.2771419882774353,1.1667429208755493
8.670115947723389,0.21190966665744781,-0.39806973934173584,0.5453193187713623,-2.092202663421631,-0.2771419882774353,1.1667429208755493
8.690246820449829,0.21190966665744781,-0.39806973934173584,0.5453193187713623,-2.092202663421631,-0.2771419882774353,1.1667429208755493
8.710319995880127,0.21190966665744781,-0.39806973934173584,0.5453193187713623,-2.092202663421631,-0.2767605185508728,1.1667429208755493
8.730343103408813,0.21190966665744781,-0.39806973934173584,0.5453193187713623,-2.092202663421631,-0.2771419882774353,1.1667429208755493
8.750426530838013,0.21190966665744781,-0.39806973934173584,0.5453193187713623,-2.092202663421631,-0.2767605185508728,1.1667429208755493
8.77049446105957,0.21190966665744781,-0.39806973934173584,0.5453193187713623,-2.092202663421631,-0.2767605185508728,1.1667429208755493
8.790549516677856,0.21190966665744781,-0.39806973934173584,0.5453193187713623,-2.092202663421631,-0.2771419882774353,1.1667429208755493
8.810611724853516,0.21190966665744781,-0.39806973934173584,0.5453193187713623,-2.092202663421631,-0.2767605185508728,1.1667429208755493
8.830699682235718,0.21190966665744781,-0.39806973934173584,0.5453193187713623,-2.092202663421631,-0.2767605185508728,1.1667429208755493
8.850764989852905,0.21190966665744781,-0.39806973934173584,0.5453193187713623,-2.092202663421631,-0.2767605185508728,1.1667429208755493
8.870872735977173,0.21190966665744781,-0.39806973934173584,0.5453193187713623,-2.092202663421631,-0.2771419882774353,1.1667429208755493
8.890933752059937,0.21190966665744781,-0.39806973934173584,0.5453193187713623,-2.092202663421631,-0.2767605185508728,1.1667429208755493
8.911009073257446,0.21190966665744781,-0.39806973934173584,0.5453193187713623,-2.092202663421631,-0.2771419882774353,1.1667429208755493
8.931097030639648,0.21190966665744781,-0.39806973934173584,0.5453193187713623,-2.092202663421631,-0.2771419882774353,1.1667429208755493
8.951241254806519,0.21190966665744781,-0.39806973934173584,0.5453193187713623,-2.092202663421631,-0.2767605185508728,1.1667429208755493
8.971686363220215,0.21190966665744781,-0.39806973934173584,0.5453193187713623,-2.092202663421631,-0.2767605185508728,1.1671243906021118
8.991773128509521,0.21190966665744781,-0.39806973934173584,0.5453193187713623,-2.092202663421631,-0.2771419882774353,1.1671243906021118
9.011860609054565,0.21190966665744781,-0.39806973934173584,0.5453193187713623,-2.092202663421631,-0.2771419882774353,1.1667429208755493
9.031890630722046,0.21190966665744781,-0.39806973934173584,0.5453193187713623,-2.092202663421631,-0.2771419882774353,1.1667429208755493
9.051945924758911,0.21190966665744781,-0.39806973934173584,0.5453193187713623,-2.092202663421631,-0.2771419882774353,1.1671243906021118
9.072121381759644,0.21190966665744781,-0.39806973934173584,0.5453193187713623,-2.092202663421631,-0.2771419882774353,1.1671243906021118
9.092187404632568,0.21190966665744781,-0.39806973934173584,0.5453193187713623,-2.092202663421631,-0.2767605185508728,1.1671243906021118
9.112223386764526,0.21190966665744781,-0.39806973934173584,0.5453193187713623,-2.092202663421631,-0.2771419882774353,1.1671243906021118
9.132338762283325,0.21190966665744781,-0.39806973934173584,0.5453193187713623,-2.092202663421631,-0.2767605185508728,1.1671243906021118
9.152509927749634,0.21190966665744781,-0.39806973934173584,0.5453193187713623,-2.092202663421631,-0.2767605185508728,1.1671243906021118
9.172510147094727,0.21190966665744781,-0.39806973934173584,0.5453193187713623,-2.092202663421631,-0.2767605185508728,1.1671243906021118
9.192572832107544,0.21190966665744781,-0.39806973934173584,0.5453193187713623,-2.092202663421631,-0.2771419882774353,1.1671243906021118
9.212820053100586,0.21190966665744781,-0.39806973934173584,0.5453193187713623,-2.092202663421631,-0.2767605185508728,1.1671243906021118
9.232734441757202,0.21190966665744781,-0.39806973934173584,0.5453193187713623,-2.092202663421631,-0.2767605185508728,1.1671243906021118
9.252848625183105,0.21190966665744781,-0.39806973934173584,0.5453193187713623,-2.092202663421631,-0.2767605185508728,1.1671243906021118
9.2729172706604,0.21190966665744781,-0.39806973934173584,0.5453193187713623,-2.092202663421631,-0.2767605185508728,1.1671243906021118
9.293018341064453,0.21190966665744781,-0.39806973934173584,0.5453193187713623,-2.092202663421631,-0.2767605185508728,1.1671243906021118
9.313135862350464,0.21190966665744781,-0.39806973934173584,0.5453193187713623,-2.092202663421631,-0.2771419882774353,1.1671243906021118
9.333147287368774,0.21190966665744781,-0.39806973934173584,0.5453193187713623,-2.092202663421631,-0.2771419882774353,1.1667429208755493
9.353210926055908,0.21190966665744781,-0.39806973934173584,0.5453193187713623,-2.092202663421631,-0.2767605185508728,1.1671243906021118
9.373295307159424,0.21190966665744781,-0.39806973934173584,0.5453193187713623,-2.092202663421631,-0.2771419882774353,1.1671243906021118
9.393385648727417,0.21190966665744781,-0.39806973934173584,0.5453193187713623,-2.092202663421631,-0.2771419882774353,1.1671243906021118
9.413424491882324,0.21190966665744781,-0.39806973934173584,0.5453193187713623,-2.092202663421631,-0.2771419882774353,1.1671243906021118
9.433583498001099,0.21190966665744781,-0.39806973934173584,0.5453193187713623,-2.092202663421631,-0.2771419882774353,1.1671243906021118
9.453608274459839,0.21190966665744781,-0.39806973934173584,0.5453193187713623,-2.092202663421631,-0.2767605185508728,1.1671243906021118
9.473682880401611,0.21190966665744781,-0.39806973934173584,0.5453193187713623,-2.092202663421631,-0.2767605185508728,1.1671243906021118
9.49380612373352,0.21190966665744781,-0.39806973934173584,0.5453193187713623,-2.092202663421631,-0.2767605185508728,1.1671243906021118
9.513885021209717,0.21190966665744781,-0.39806973934173584,0.5453193187713623,-2.092202663421631,-0.2767605185508728,1.1671243906021118
9.534003496170044,0.21190966665744781,-0.39806973934173584,0.5453193187713623,-2.092202663421631,-0.2767605185508728,1.1671243906021118
9.554025411605835,0.21190966665744781,-0.39806973934173584,0.5453193187713623,-2.092202663421631,-0.2767605185508728,1.1671243906021118
9.57460880279541,0.21190966665744781,-0.39806973934173584,0.5453193187713623,-2.092202663421631,-0.2771419882774353,1.1671243906021118
9.594773292541504,0.21190966665744781,-0.39806973934173584,0.5453193187713623,-2.092202663421631,-0.2771419882774353,1.1671243906021118
9.61488676071167,0.21190966665744781,-0.39806973934173584,0.5453193187713623,-2.092202663421631,-0.2767605185508728,1.1667429208755493
9.634931325912476,0.21190966665744781,-0.39806973934173584,0.5453193187713623,-2.092202663421631,-0.2767605185508728,1.1671243906021118
9.655357599258423,0.21190966665744781,-0.39806973934173584,0.5453193187713623,-2.092202663421631,-0.2767605185508728,1.1671243906021118
9.675441265106201,0.21190966665744781,-0.39806973934173584,0.5453193187713623,-2.092202663421631,-0.2767605185508728,1.1671243906021118
9.695516109466553,0.21190966665744781,-0.39806973934173584,0.5453193187713623,-2.092202663421631,-0.2767605185508728,1.1671243906021118
9.715630531311035,0.21190966665744781,-0.39806973934173584,0.5453193187713623,-2.092202663421631,-0.2767605185508728,1.1671243906021118
9.735941886901855,0.21190966665744781,-0.39806973934173584,0.5453193187713623,-2.092202663421631,-0.2767605185508728,1.1671243906021118
9.756057024002075,0.21190966665744781,-0.39806973934173584,0.5453193187713623,-2.092202663421631,-0.2767605185508728,1.1667429208755493
9.776129484176636,0.21190966665744781,-0.39806973934173584,0.5453193187713623,-2.092202663421631,-0.2771419882774353,1.1671243906021118
9.796184062957764,0.21190966665744781,-0.39806973934173584,0.5453193187713623,-2.092202663421631,-0.2771419882774353,1.1671243906021118
9.816270351409912,0.21190966665744781,-0.39806973934173584,0.5453193187713623,-2.092202663421631,-0.2771419882774353,1.1671243906021118
9.836393117904663,0.21190966665744781,-0.39806973934173584,0.5453193187713623,-2.092202663421631,-0.2767605185508728,1.1671243906021118
9.856481790542603,0.21190966665744781,-0.39806973934173584,0.5453193187713623,-2.092202663421631,-0.2767605185508728,1.1671243906021118
9.876513242721558,0.21190966665744781,-0.39806973934173584,0.5453193187713623,-2.092202663421631,-0.2767605185508728,1.1671243906021118
9.896644115447998,0.21190966665744781,-0.39806973934173584,0.5453193187713623,-2.092202663421631,-0.2771419882774353,1.1671243906021118
9.916667222976685,0.21190966665744781,-0.39806973934173584,0.5453193187713623,-2.092202663421631,-0.2767605185508728,1.1671243906021118
9.936731576919556,0.21190966665744781,-0.39806973934173584,0.5453193187713623,-2.092202663421631,-0.2767605185508728,1.1671243906021118
9.956792831420898,0.21190966665744781,-0.39806973934173584,0.5453193187713623,-2.092202663421631,-0.2767605185508728,1.1667429208755493
9.97701120376587,0.21190966665744781,-0.39806973934173584,0.5453193187713623,-2.092202663421631,-0.2767605185508728,1.1667429208755493
9.997074127197266,0.21190966665744781,-0.39806973934173584,0.5453193187713623,-2.092202663421631,-0.2767605185508728,1.1671243906021118
10.017131090164185,0.21190966665744781,-0.39806973934173584,0.5453193187713623,-2.092202663421631,-0.2767605185508728,1.1671243906021118
10.037246704101562,0.21190966665744781,-0.39806973934173584,0.5453193187713623,-2.092202663421631,-0.2767605185508728,1.1671243906021118
10.057326555252075,0.21190966665744781,-0.39806973934173584,0.5453193187713623,-2.092202663421631,-0.2767605185508728,1.1671243906021118
10.077433824539185,0.21190966665744781,-0.39806973934173584,0.5453193187713623,-2.092202663421631,-0.2767605185508728,1.1667429208755493
10.09746527671814,0.21190966665744781,-0.39806973934173584,0.5453193187713623,-2.092202663421631,-0.2767605185508728,1.1671243906021118
10.11757516860962,0.21190966665744781,-0.39806973934173584,0.5453193187713623,-2.092202663421631,-0.2767605185508728,1.1671243906021118
10.137683868408203,0.21190966665744781,-0.39806973934173584,0.5453193187713623,-2.092202663421631,-0.2767605185508728,1.1671243906021118
10.157746315002441,0.21190966665744781,-0.39806973934173584,0.5453193187713623,-2.092202663421631,-0.2771419882774353,1.1671243906021118
10.177774429321289,0.21190966665744781,-0.39806973934173584,0.5453193187713623,-2.092202663421631,-0.2767605185508728,1.1671243906021118
10.197896480560303,0.21190966665744781,-0.39806973934173584,0.5453193187713623,-2.092202663421631,-0.2767605185508728,1.1671243906021118
10.21795392036438,0.21190966665744781,-0.39806973934173584,0.5453193187713623,-2.092202663421631,-0.2767605185508728,1.1671243906021118
10.238017559051514,0.21190966665744781,-0.39806973934173584,0.5453193187713623,-2.092202663421631,-0.2767605185508728,1.1671243906021118
10.258131504058838,0.21190966665744781,-0.39806973934173584,0.5453193187713623,-2.092202663421631,-0.2767605185508728,1.1667429208755493
10.278219223022461,0.21190966665744781,-0.39806973934173584,0.5453193187713623,-2.092202663421631,-0.2767605185508728,1.1671243906021118
10.29832410812378,0.21190966665744781,-0.39806973934173584,0.5453193187713623,-2.092202663421631,-0.2767605185508728,1.1667429208755493
10.318352222442627,0.21190966665744781,-0.39806973934173584,0.5453193187713623,-2.092202663421631,-0.2767605185508728,1.1671243906021118
10.338431119918823,0.21190966665744781,-0.39806973934173584,0.5453193187713623,-2.092202663421631,-0.2767605185508728,1.1671243906021118
10.358509302139282,0.21190966665744781,-0.39806973934173584,0.5453193187713623,-2.092202663421631,-0.2767605185508728,1.1671243906021118
10.378546953201294,0.21190966665744781,-0.39806973934173584,0.5453193187713623,-2.092202663421631,-0.2767605185508728,1.1667429208755493
10.398627042770386,0.21190966665744781,-0.39806973934173584,0.5453193187713623,-2.092202663421631,-0.2771419882774353,1.1671243906021118
10.41877555847168,0.21190966665744781,-0.39806973934173584,0.5453193187713623,-2.092202663421631,-0.2767605185508728,1.1671243906021118
10.438981056213379,0.21190966665744781,-0.39806973934173584,0.5453193187713623,-2.092202663421631,-0.2767605185508728,1.1671243906021118
10.459102392196655,0.21190966665744781,-0.39806973934173584,0.5453193187713623,-2.092202663421631,-0.2767605185508728,1.1671243906021118
10.479245662689209,0.21190966665744781,-0.39806973934173584,0.5453193187713623,-2.092202663421631,-0.2767605185508728,1.1671243906021118
10.499296426773071,0.21190966665744781,-0.39806973934173584,0.5453193187713623,-2.092202663421631,-0.2767605185508728,1.1671243906021118
10.519343614578247,0.21190966665744781,-0.39806973934173584,0.5453193187713623,-2.092202663421631,-0.2767605185508728,1.1667429208755493
10.53944706916809,0.21190966665744781,-0.39806973934173584,0.5453193187713623,-2.092202663421631,-0.2767605185508728,1.1667429208755493
10.559500694274902,0.21190966665744781,-0.39806973934173584,0.5453193187713623,-2.092202663421631,-0.2767605185508728,1.1671243906021118
10.579566240310669,0.21190966665744781,-0.39806973934173584,0.5453193187713623,-2.092202663421631,-0.2767605185508728,1.1671243906021118
10.599670648574829,0.21190966665744781,-0.39806973934173584,0.5453193187713623,-2.092202663421631,-0.2767605185508728,1.1671243906021118
10.619874238967896,0.21190966665744781,-0.39806973934173584,0.5453193187713623,-2.092202663421631,-0.2767605185508728,1.1667429208755493
10.639835596084595,0.21190966665744781,-0.39806973934173584,0.5453193187713623,-2.092202663421631,-0.2767605185508728,1.1667429208755493
10.659918069839478,0.21190966665744781,-0.39806973934173584,0.5453193187713623,-2.092202663421631,-0.2767605185508728,1.1667429208755493
10.679954528808594,0.21190966665744781,-0.39806973934173584,0.5453193187713623,-2.092202663421631,-0.2767605185508728,1.1671243906021118
10.700062990188599,0.21190966665744781,-0.39806973934173584,0.5453193187713623,-2.092202663421631,-0.2771419882774353,1.1667429208755493
10.720150470733643,0.21190966665744781,-0.39806973934173584,0.5453193187713623,-2.092202663421631,-0.2767605185508728,1.1671243906021118
10.740180015563965,0.21190966665744781,-0.39806973934173584,0.5453193187713623,-2.092202663421631,-0.2767605185508728,1.1671243906021118
10.76026439666748,0.21190966665744781,-0.39806973934173584,0.5453193187713623,-2.092202663421631,-0.2767605185508728,1.1671243906021118
10.780391216278076,0.21190966665744781,-0.39806973934173584,0.5453193187713623,-2.092202663421631,-0.2767605185508728,1.1667429208755493
10.800614595413208,0.21190966665744781,-0.39806973934173584,0.5453193187713623,-2.092202663421631,-0.2771419882774353,1.1667429208755493
10.820622205734253,0.21190966665744781,-0.39806973934173584,0.5453193187713623,-2.092202663421631,-0.2771419882774353,1.1667429208755493
10.840763807296753,0.21190966665744781,-0.39806973934173584,0.5453193187713623,-2.092202663421631,-0.2767605185508728,1.1667429208755493
10.860867977142334,0.21190966665744781,-0.39806973934173584,0.5453193187713623,-2.092202663421631,-0.2771419882774353,1.1667429208755493
10.880944728851318,0.21190966665744781,-0.39806973934173584,0.5453193187713623,-2.092202663421631,-0.2767605185508728,1.1667429208755493
10.90098524093628,0.21190966665744781,-0.39806973934173584,0.5453193187713623,-2.092202663421631,-0.2767605185508728,1.1667429208755493
10.921033143997192,0.21190966665744781,-0.39806973934173584,0.5453193187713623,-2.092202663421631,-0.2767605185508728,1.1667429208755493
10.941121101379395,0.21190966665744781,-0.39806973934173584,0.5453193187713623,-2.092202663421631,-0.2767605185508728,1.1671243906021118
10.96118950843811,0.21190966665744781,-0.39806973934173584,0.5453193187713623,-2.092202663421631,-0.2771419882774353,1.1667429208755493
10.98137903213501,0.21190966665744781,-0.39806973934173584,0.5453193187713623,-2.092202663421631,-0.2767605185508728,1.1667429208755493
11.001471996307373,0.21190966665744781,-0.39806973934173584,0.5453193187713623,-2.092202663421631,-0.2767605185508728,1.1667429208755493
11.021694660186768,0.21190966665744781,-0.39806973934173584,0.5453193187713623,-2.092202663421631,-0.2767605185508728,1.1667429208755493
11.041693687438965,0.21190966665744781,-0.39806973934173584,0.5453193187713623,-2.092202663421631,-0.2767605185508728,1.1667429208755493
11.062133550643921,0.21190966665744781,-0.39806973934173584,0.5453193187713623,-2.092202663421631,-0.2767605185508728,1.1667429208755493
11.082205057144165,0.21190966665744781,-0.39806973934173584,0.5453193187713623,-2.092202663421631,-0.2767605185508728,1.1667429208755493
11.10226845741272,0.21190966665744781,-0.39806973934173584,0.5453193187713623,-2.092202663421631,-0.2767605185508728,1.1667429208755493
11.122286081314087,0.21190966665744781,-0.39806973934173584,0.5453193187713623,-2.092202663421631,-0.2767605185508728,1.1667429208755493
11.142368793487549,0.21190966665744781,-0.39806973934173584,0.5453193187713623,-2.092202663421631,-0.2771419882774353,1.1667429208755493
11.16255807876587,0.21190966665744781,-0.39806973934173584,0.5453193187713623,-2.092202663421631,-0.2771419882774353,1.1667429208755493
11.182538986206055,0.21190966665744781,-0.39806973934173584,0.5453193187713623,-2.092202663421631,-0.2767605185508728,1.1667429208755493
11.202695846557617,0.21190966665744781,-0.39806973934173584,0.5453193187713623,-2.092202663421631,-0.2767605185508728,1.1667429208755493
11.222838640213013,0.21190966665744781,-0.39806973934173584,0.5453193187713623,-2.092202663421631,-0.2771419882774353,1.1667429208755493
11.242884397506714,0.21190966665744781,-0.39806973934173584,0.5453193187713623,-2.092202663421631,-0.2767605185508728,1.1667429208755493
11.26292872428894,0.21190966665744781,-0.39806973934173584,0.5453193187713623,-2.092202663421631,-0.2767605185508728,1.1667429208755493
11.282986402511597,0.21190966665744781,-0.39806973934173584,0.5453193187713623,-2.092202663421631,-0.2767605185508728,1.1667429208755493
11.303142309188843,0.21190966665744781,-0.39806973934173584,0.5453193187713623,-2.092202663421631,-0.2767605185508728,1.1667429208755493
11.323224306106567,0.21190966665744781,-0.39806973934173584,0.5453193187713623,-2.092202663421631,-0.2771419882774353,1.1667429208755493
11.34331727027893,0.21190966665744781,-0.39806973934173584,0.5453193187713623,-2.092202663421631,-0.2767605185508728,1.1667429208755493
11.363374471664429,0.21190966665744781,-0.39806973934173584,0.5453193187713623,-2.092202663421631,-0.2767605185508728,1.1667429208755493
11.383639335632324,0.21190966665744781,-0.39806973934173584,0.5453193187713623,-2.092202663421631,-0.2767605185508728,1.1667429208755493
11.403736591339111,0.21190966665744781,-0.39806973934173584,0.5453193187713623,-2.092202663421631,-0.2767605185508728,1.1667429208755493
11.423810482025146,0.21190966665744781,-0.39806973934173584,0.5453193187713623,-2.092202663421631,-0.2767605185508728,1.1667429208755493
11.44408655166626,0.21190966665744781,-0.39806973934173584,0.5453193187713623,-2.092202663421631,-0.2767605185508728,1.1667429208755493
11.464232683181763,0.21190966665744781,-0.39806973934173584,0.5453193187713623,-2.092202663421631,-0.2771419882774353,1.1667429208755493
11.484296798706055,0.21190966665744781,-0.39806973934173584,0.5453193187713623,-2.092202663421631,-0.2767605185508728,1.1667429208755493
11.504376411437988,0.21190966665744781,-0.39806973934173584,0.5453193187713623,-2.092202663421631,-0.2771419882774353,1.1667429208755493
11.524437189102173,0.21190966665744781,-0.39806973934173584,0.5453193187713623,-2.092202663421631,-0.2767605185508728,1.1667429208755493
11.544493436813354,0.21190966665744781,-0.39806973934173584,0.5453193187713623,-2.092202663421631,-0.2771419882774353,1.1667429208755493
11.564544200897217,0.21190966665744781,-0.39806973934173584,0.5453193187713623,-2.092202663421631,-0.2767605185508728,1.1667429208755493
11.584590435028076,0.21190966665744781,-0.39806973934173584,0.5453193187713623,-2.092202663421631,-0.2767605185508728,1.1667429208755493
11.604694604873657,0.21190966665744781,-0.39806973934173584,0.5453193187713623,-2.092202663421631,-0.2771419882774353,1.1667429208755493
11.624748468399048,0.21190966665744781,-0.39806973934173584,0.5453193187713623,-2.092202663421631,-0.2767605185508728,1.1667429208755493
11.644876956939697,0.21190966665744781,-0.39806973934173584,0.5453193187713623,-2.092202663421631,-0.2767605185508728,1.1667429208755493
11.664923906326294,0.21190966665744781,-0.39806973934173584,0.5453193187713623,-2.092202663421631,-0.2767605185508728,1.1667429208755493
11.685072898864746,0.21190966665744781,-0.39806973934173584,0.5453193187713623,-2.092202663421631,-0.2771419882774353,1.1667429208755493
11.705100536346436,0.21190966665744781,-0.39806973934173584,0.5453193187713623,-2.092202663421631,-0.2767605185508728,1.1667429208755493
11.72515869140625,0.21190966665744781,-0.39806973934173584,0.5453193187713623,-2.092202663421631,-0.2767605185508728,1.1667429208755493
11.745267868041992,0.21190966665744781,-0.39806973934173584,0.5453193187713623,-2.092202663421631,-0.2767605185508728,1.1667429208755493
11.765361547470093,0.21190966665744781,-0.39845120906829834,0.5453193187713623,-2.092202663421631,-0.2771419882774353,1.1667429208755493
11.785402774810791,0.21190966665744781,-0.39845120906829834,0.5453193187713623,-2.092202663421631,-0.2771419882774353,1.1667429208755493
11.805654287338257,0.21190966665744781,-0.39845120906829834,0.5449378490447998,-2.092202663421631,-0.2771419882774353,1.1667429208755493
11.825805425643921,0.21190966665744781,-0.39845120906829834,0.5449378490447998,-2.092202663421631,-0.2767605185508728,1.1667429208755493
11.845878601074219,0.21152819693088531,-0.39845120906829834,0.5449378490447998,-2.092202663421631,-0.2767605185508728,1.1667429208755493
11.866080522537231,0.21152819693088531,-0.3995956480503082,0.5449378490447998,-2.092202663421631,-0.2771419882774353,1.1667429208755493
11.886260986328125,0.21114671230316162,-0.3995956480503082,0.5449378490447998,-2.092202663421631,-0.2775234580039978,1.1667429208755493
11.906341075897217,0.21038375794887543,-0.4003585875034332,0.5445563197135925,-2.092202663421631,-0.2775234580039978,1.1667429208755493
11.926444292068481,0.21038375794887543,-0.4007400572299957,0.54417484998703,-2.092202663421631,-0.2775234580039978,1.1667429208755493
11.94646668434143,0.21000228822231293,-0.4022659659385681,0.5437933802604675,-2.092202663421631,-0.2775234580039978,1.1663614511489868
11.966598510742188,0.20923933386802673,-0.4026474356651306,0.543411910533905,-2.092202663421631,-0.2771419882774353,1.1663614511489868
11.986679077148438,0.20885786414146423,-0.4026474356651306,0.54264897108078,-2.092202663421631,-0.2771419882774353,1.1663614511489868
12.006749629974365,0.20809490978717804,-0.4026474356651306,0.54264897108078,-2.0925841331481934,-0.2767605185508728,1.1659799814224243
12.027103185653687,0.20733195543289185,-0.4037918746471405,0.54264897108078,-2.092202663421631,-0.2771419882774353,1.1659799814224243
12.047267198562622,0.20695048570632935,-0.4045548141002655,0.54264897108078,-2.092202663421631,-0.2779049277305603,1.1659799814224243
12.06728458404541,0.20656901597976685,-0.4045548141002655,0.5422675013542175,-2.092202663421631,-0.2775234580039978,1.1655985116958618
12.087347269058228,0.20580606162548065,-0.4053177833557129,0.541886031627655,-2.092202663421631,-0.2771419882774353,1.1659799814224243
12.107406854629517,0.20542457699775696,-0.4064621925354004,0.541886031627655,-2.092202663421631,-0.2775234580039978,1.1655985116958618
12.127501010894775,0.20504310727119446,-0.4083695709705353,0.5415045619010925,-2.092202663421631,-0.2779049277305603,1.1655985116958618
12.147561311721802,0.20504310727119446,-0.4091325104236603,0.5415045619010925,-2.092202663421631,-0.2775234580039978,1.1655985116958618
12.167702436447144,0.20389868319034576,-0.41065841913223267,0.5407415628433228,-2.092202663421631,-0.2775234580039978,1.1652170419692993
12.187730312347412,0.20313572883605957,-0.41142138838768005,0.5407415628433228,-2.092202663421631,-0.2771419882774353,1.1652170419692993
12.207820415496826,0.20313572883605957,-0.41218432784080505,0.5407415628433228,-2.092202663421631,-0.2767605185508728,1.1652170419692993
12.227950811386108,0.20275425910949707,-0.41294726729393005,0.5403600931167603,-2.092202663421631,-0.2767605185508728,1.1652170419692993
12.247978687286377,0.20275425910949707,-0.41294726729393005,0.5403600931167603,-2.092202663421631,-0.2775234580039978,1.1652170419692993
12.26802682876587,0.20199130475521088,-0.41294726729393005,0.5399786233901978,-2.092202663421631,-0.2775234580039978,1.1652170419692993
12.288121223449707,0.20084688067436218,-0.41294726729393005,0.5395971536636353,-2.092202663421631,-0.2775234580039978,1.1648355722427368
12.308197021484375,0.20084688067436218,-0.41409170627593994,0.5395971536636353,-2.092202663421631,-0.2779049277305603,1.1648355722427368
12.328374862670898,0.20084688067436218,-0.41485464572906494,0.5395971536636353,-2.092202663421631,-0.2779049277305603,1.1648355722427368
12.348505020141602,0.1997024416923523,-0.41485464572906494,0.5388342142105103,-2.092202663421631,-0.2775234580039978,1.1648355722427368
12.368595361709595,0.1989395022392273,-0.41485464572906494,0.5384527444839478,-2.092202663421631,-0.2767605185508728,1.1644541025161743
12.388665437698364,0.1985580176115036,-0.41561761498451233,0.5380712747573853,-2.092202663421631,-0.2771419882774353,1.1644541025161743
12.408740043640137,0.1985580176115036,-0.41638055443763733,0.5380712747573853,-2.092202663421631,-0.2782863974571228,1.1644541025161743
12.428837299346924,0.1977950781583786,-0.41676202416419983,0.5376898050308228,-2.092202663421631,-0.2782863974571228,1.1644541025161743
12.448895692825317,0.1974135935306549,-0.4171435236930847,0.5376898050308228,-2.092202663421631,-0.2775234580039978,1.1644541025161743
12.468959093093872,0.1970321238040924,-0.4182879328727722,0.5373083353042603,-2.092202663421631,-0.2775234580039978,1.1644541025161743
12.48912501335144,0.1962691694498062,-0.4190509021282196,0.5373083353042603,-2.092202663421631,-0.2779049277305603,1.1644541025161743
12.509222269058228,0.19550621509552002,-0.4190509021282196,0.5365453362464905,-2.092202663421631,-0.2775234580039978,1.1644541025161743
12.529280662536621,0.19550621509552002,-0.4194323718547821,0.5357823967933655,-2.092202663421631,-0.2775234580039978,1.1644541025161743
12.5493483543396,0.19512474536895752,-0.4205767810344696,0.5357823967933655,-2.092202663421631,-0.2775234580039978,1.1640726327896118
12.569645643234253,0.19474326074123383,-0.4217212200164795,0.5357823967933655,-2.092202663421631,-0.2782863974571228,1.1640726327896118
12.589732646942139,0.19398032128810883,-0.4232471287250519,0.5357823967933655,-2.092202663421631,-0.2782863974571228,1.1640726327896118
12.609821081161499,0.19321736693382263,-0.4247730076313019,0.535400927066803,-2.092202663421631,-0.2779049277305603,1.1640726327896118
12.629856586456299,0.19283588230609894,-0.42591744661331177,0.535400927066803,-2.092202663421631,-0.2779049277305603,1.1640726327896118
12.650310039520264,0.19207294285297394,-0.42668038606643677,0.535400927066803,-2.092202663421631,-0.2775234580039978,1.1636911630630493
12.670395135879517,0.19092851877212524,-0.42744335532188416,0.5342565178871155,-2.092202663421631,-0.2779049277305603,1.1636911630630493
12.690463066101074,0.19054703414440155,-0.42744335532188416,0.5342565178871155,-2.092202663421631,-0.2775234580039978,1.1636911630630493
12.710517644882202,0.19016556441783905,-0.42820629477500916,0.5342565178871155,-2.0918211936950684,-0.2779049277305603,1.1636911630630493
12.730600833892822,0.18978407979011536,-0.42896926403045654,0.533875048160553,-2.0918211936950684,-0.2779049277305603,1.1636911630630493
12.750712156295776,0.18863965570926666,-0.42935073375701904,0.533875048160553,-2.092202663421631,-0.2779049277305603,1.1636911630630493
12.770728826522827,0.18863965570926666,-0.43011367321014404,0.5334935784339905,-2.092202663421631,-0.2779049277305603,1.1636911630630493
12.790805578231812,0.18863965570926666,-0.43049514293670654,0.5334935784339905,-2.0918211936950684,-0.2779049277305603,1.1636911630630493
12.810913801193237,0.18825818598270416,-0.43125811219215393,0.5334935784339905,-2.0918211936950684,-0.2779049277305603,1.1636911630630493
12.830979824066162,0.18787670135498047,-0.43163958191871643,0.5334935784339905,-2.0918211936950684,-0.2779049277305603,1.1636911630630493
12.851038932800293,0.18711376190185547,-0.43163958191871643,0.5327305793762207,-2.0918211936950684,-0.2782863974571228,1.1636911630630493
12.871154308319092,0.18635080754756927,-0.43163958191871643,0.5319676399230957,-2.0918211936950684,-0.2786678969860077,1.1636911630630493
12.891243696212769,0.18558785319328308,-0.4327840209007263,0.5315861701965332,-2.0918211936950684,-0.2790493667125702,1.1636911630630493
12.911259174346924,0.1848248988389969,-0.4331654906272888,0.5315861701965332,-2.0918211936950684,-0.2790493667125702,1.1633096933364868
12.931506395339966,0.1840619444847107,-0.4335469603538513,0.5315861701965332,-2.0918211936950684,-0.2782863974571228,1.1633096933364868
12.951805353164673,0.1832990050315857,-0.4350728690624237,0.5312047004699707,-2.0918211936950684,-0.2775234580039978,1.1636911630630493
12.971825122833252,0.1832990050315857,-0.4354543387889862,0.5312047004699707,-2.0918211936950684,-0.2779049277305603,1.1633096933364868
12.991804838180542,0.182917520403862,-0.4358358085155487,0.5312047004699707,-2.0918211936950684,-0.2786678969860077,1.1633096933364868
13.011877059936523,0.182154580950737,-0.4358358085155487,0.5304417610168457,-2.0918211936950684,-0.2782863974571228,1.1633096933364868
13.031947135925293,0.182154580950737,-0.4358358085155487,0.5300602912902832,-2.0918211936950684,-0.2782863974571228,1.1633096933364868
13.052000999450684,0.1813916265964508,-0.4369802474975586,0.5300602912902832,-2.0918211936950684,-0.2790493667125702,1.1633096933364868
13.072062730789185,0.1810101419687271,-0.4377431869506836,0.5300602912902832,-2.091439723968506,-0.2790493667125702,1.1633096933364868
13.09223222732544,0.1806286722421646,-0.440032035112381,0.5292973518371582,-2.091439723968506,-0.2790493667125702,1.1633096933364868
13.112287521362305,0.1802472025156021,-0.44193941354751587,0.5292973518371582,-2.091439723968506,-0.2786678969860077,1.1633096933364868
13.132330656051636,0.17986571788787842,-0.44308385252952576,0.5292973518371582,-2.091439723968506,-0.2786678969860077,1.1633096933364868
13.152399063110352,0.17948424816131592,-0.44422826170921326,0.5285343527793884,-2.0918211936950684,-0.2782863974571228,1.1633096933364868
13.172537803649902,0.17910276353359222,-0.44499123096466064,0.5281528830528259,-2.0918211936950684,-0.2779049277305603,1.1629282236099243
13.192737817764282,0.17795833945274353,-0.44613564014434814,0.5281528830528259,-2.091439723968506,-0.2786678969860077,1.1633096933364868
13.212913274765015,0.17681391537189484,-0.44613564014434814,0.5281528830528259,-2.091439723968506,-0.2794308364391327,1.1629282236099243
13.233039379119873,0.17605096101760864,-0.44728007912635803,0.5273899435997009,-2.091439723968506,-0.2794308364391327,1.1629282236099243
13.253070831298828,0.17490653693675995,-0.44728007912635803,0.5273899435997009,-2.0910582542419434,-0.2794308364391327,1.1629282236099243
13.273207426071167,0.17414358258247375,-0.44804301857948303,0.5270084738731384,-2.091439723968506,-0.2794308364391327,1.1621652841567993
13.293250560760498,0.17414358258247375,-0.44804301857948303,0.5266270041465759,-2.091439723968506,-0.2786678969860077,1.1617838144302368
13.313335657119751,0.17376211285591125,-0.44804301857948303,0.5262455344200134,-2.091439723968506,-0.2782863974571228,1.1617838144302368
13.333410024642944,0.17376211285591125,-0.4484245181083679,0.5262455344200134,-2.0910582542419434,-0.2790493667125702,1.1617838144302368
13.353492259979248,0.17299915850162506,-0.4484245181083679,0.5262455344200134,-2.091439723968506,-0.2798123061656952,1.1614023447036743
13.37352967262268,0.17185473442077637,-0.4499503970146179,0.5258640646934509,-2.091439723968506,-0.2809567451477051,1.1614023447036743
13.393660068511963,0.17147326469421387,-0.4510948359966278,0.5258640646934509,-2.091439723968506,-0.2809567451477051,1.1610208749771118
13.41374397277832,0.17109178006649017,-0.4522392749786377,0.5254825949668884,-2.0910582542419434,-0.2809567451477051,1.1606394052505493
13.433791399002075,0.16956588625907898,-0.4537651538848877,0.5251010656356812,-2.091439723968506,-0.2798123061656952,1.1602579355239868
13.453870058059692,0.16880293190479279,-0.4549095928668976,0.5243381261825562,-2.091439723968506,-0.2801937758922577,1.1598763465881348
13.473939895629883,0.1680399775505066,-0.45681697130203247,0.5243381261825562,-2.0910582542419434,-0.2801937758922577,1.1602579355239868
13.494054079055786,0.1672770231962204,-0.45834288001060486,0.5239566564559937,-2.0910582542419434,-0.2798123061656952,1.1598763465881348
13.514285802841187,0.1668955534696579,-0.45948728919029236,0.5239566564559937,-2.0910582542419434,-0.2798123061656952,1.1594948768615723
13.534427165985107,0.1668955534696579,-0.46025025844573975,0.5235751867294312,-2.091439723968506,-0.2798123061656952,1.1594948768615723
13.554476022720337,0.1665140837430954,-0.46063172817230225,0.5231937170028687,-2.0910582542419434,-0.2801937758922577,1.1594948768615723
13.574598789215088,0.1665140837430954,-0.46101319789886475,0.5231937170028687,-2.0910582542419434,-0.2801937758922577,1.1594948768615723
13.595266580581665,0.1657511293888092,-0.46101319789886475,0.5231937170028687,-2.0910582542419434,-0.2801937758922577,1.1594948768615723
13.615350246429443,0.1646067053079605,-0.46215763688087463,0.5231937170028687,-2.0910582542419434,-0.2805752754211426,1.1594948768615723
13.635457515716553,0.16422522068023682,-0.46292057633399963,0.5228122472763062,-2.0910582542419434,-0.2817196846008301,1.1591134071350098
13.655527114868164,0.16384375095367432,-0.4640650153160095,0.5228122472763062,-2.090676784515381,-0.2813382148742676,1.1591134071350098
13.675577640533447,0.16269932687282562,-0.4648279547691345,0.5216678380966187,-2.090676784515381,-0.2813382148742676,1.1591134071350098
13.695729494094849,0.16193637251853943,-0.4659723937511444,0.5209048390388489,-2.090676784515381,-0.2805752754211426,1.1587319374084473
13.715861082077026,0.16117341816425323,-0.4671168029308319,0.5209048390388489,-2.0910582542419434,-0.2794308364391327,1.1583504676818848
13.735887289047241,0.16041046380996704,-0.4671168029308319,0.5205233693122864,-2.0910582542419434,-0.2798123061656952,1.1579689979553223
13.756365537643433,0.15964750945568085,-0.4678797721862793,0.5201418995857239,-2.090676784515381,-0.2805752754211426,1.1575875282287598
13.776533842086792,0.15964750945568085,-0.4678797721862793,0.5197604298591614,-2.090676784515381,-0.2805752754211426,1.1572060585021973
13.79658031463623,0.15926603972911835,-0.4678797721862793,0.5197604298591614,-2.090676784515381,-0.2801937758922577,1.1572060585021973
13.81662130355835,0.15888457000255585,-0.4678797721862793,0.5193789601325989,-2.090676784515381,-0.2805752754211426,1.1572060585021973
13.836726903915405,0.15774014592170715,-0.4690241813659668,0.5189974904060364,-2.090676784515381,-0.2809567451477051,1.1568245887756348
13.856780290603638,0.15735866129398346,-0.4697871506214142,0.5189974904060364,-2.090676784515381,-0.2817196846008301,1.1568245887756348
13.876858949661255,0.15621423721313477,-0.4713130295276642,0.5189974904060364,-2.090676784515381,-0.2821011543273926,1.1568245887756348
13.896925210952759,0.15506981313228607,-0.4736018776893616,0.5189974904060364,-2.0902953147888184,-0.2821011543273926,1.1568245887756348
13.917067766189575,0.15430685877799988,-0.47512778639793396,0.5186160206794739,-2.0902953147888184,-0.2813382148742676,1.1568245887756348
13.93715763092041,0.15392538905143738,-0.47627222537994385,0.5178530812263489,-2.0902953147888184,-0.2801937758922577,1.1564431190490723
13.957339525222778,0.152399480342865,-0.47703516483306885,0.5174715518951416,-2.0902953147888184,-0.2805752754211426,1.1564431190490723
13.977337837219238,0.152399480342865,-0.47817960381507874,0.5170900821685791,-2.0902953147888184,-0.2805752754211426,1.1560616493225098
13.997434377670288,0.1520180106163025,-0.47856107354164124,0.5170900821685791,-2.0902953147888184,-0.2817196846008301,1.1564431190490723
14.017472267150879,0.1516365259885788,-0.47932401299476624,0.5170900821685791,-2.089913845062256,-0.28248265385627747,1.1564431190490723
14.037556409835815,0.1508735716342926,-0.4804684519767761,0.5167086124420166,-2.089913845062256,-0.2821011543273926,1.1560616493225098
14.057711362838745,0.1501106321811676,-0.481612890958786,0.5167086124420166,-2.089913845062256,-0.2821011543273926,1.1560616493225098
14.077725410461426,0.1497291475534439,-0.482375830411911,0.5163271427154541,-2.089913845062256,-0.28248265385627747,1.1560616493225098
14.09808087348938,0.14820325374603271,-0.483138769865036,0.5155642032623291,-2.0895323753356934,-0.2821011543273926,1.1560616493225098
14.118250846862793,0.14744029939174652,-0.4842832088470459,0.5151827335357666,-2.089913845062256,-0.2813382148742676,1.1560616493225098
14.138335466384888,0.14667734503746033,-0.4842832088470459,0.5148012638092041,-2.0895323753356934,-0.2817196846008301,1.1560616493225098
14.158373594284058,0.14553292095661163,-0.4842832088470459,0.5148012638092041,-2.0895323753356934,-0.2817196846008301,1.1560616493225098
14.178448915481567,0.14515145123004913,-0.4842832088470459,0.5144197940826416,-2.089150905609131,-0.2817196846008301,1.1556801795959473
14.198514699935913,0.14476996660232544,-0.4850461483001709,0.5140383243560791,-2.0887694358825684,-0.2821011543273926,1.1556801795959473
14.218580961227417,0.14438849687576294,-0.4858091175556183,0.5136567950248718,-2.0887694358825684,-0.28324559330940247,1.1556801795959473
14.238651990890503,0.14324407279491425,-0.4877164959907532,0.5136567950248718,-2.0887694358825684,-0.28439003229141235,1.1556801795959473
14.2587411403656,0.14248111844062805,-0.49000534415245056,0.5136567950248718,-2.0887694358825684,-0.28439003229141235,1.1552987098693848
14.278797388076782,0.14209964871406555,-0.49191272258758545,0.5132753252983093,-2.0887694358825684,-0.28324559330940247,1.1556801795959473
14.298911571502686,0.14057374000549316,-0.49305713176727295,0.5128938555717468,-2.088387966156006,-0.28248265385627747,1.1549172401428223
14.318942546844482,0.13942931592464447,-0.49420157074928284,0.5128938555717468,-2.088387966156006,-0.2821011543273926,1.1545357704162598
14.339022874832153,0.13790340721607208,-0.49496451020240784,0.5125123858451843,-2.088387966156006,-0.28248265385627747,1.1545357704162598
14.3590989112854,0.13790340721607208,-0.4957274794578552,0.5125123858451843,-2.088387966156006,-0.28286412358283997,1.1545357704162598
14.379154682159424,0.13790340721607208,-0.4961089491844177,0.5121309161186218,-2.0880064964294434,-0.28324559330940247,1.1549172401428223
14.399368047714233,0.13752193748950958,-0.4968718886375427,0.5117494463920593,-2.0880064964294434,-0.28362706303596497,1.1545357704162598
14.41946005821228,0.1367589831352234,-0.4976348578929901,0.5113679766654968,-2.0880064964294434,-0.28362706303596497,1.1545357704162598
14.439529180526733,0.1356145590543747,-0.4987792670726776,0.5113679766654968,-2.0880064964294434,-0.28439003229141235,1.1541543006896973
