liuyurong129/humanoid-gym/humanoid/data/actual_q_20250522-042006.csv
timestamp,joint_1,joint_2,joint_3,joint_4,joint_5,joint_6
5.316734313964844e-05,0.000572213320992887,0.16308079659938812,-0.08220797777175903,-0.00019073777366429567,-0.00019073777366429567,0.00019073777366429567
0.02019524574279785,0.000572213320992887,0.14057374000549316,-0.07267109304666519,-0.00019073777366429567,-0.00019073777366429567,0.00019073777366429567
0.04022526741027832,0.00019073777366429567,0.11959258466959,-0.06313420087099075,-0.00019073777366429567,0.001716639962978661,0.00019073777366429567
0.060320377349853516,0.00019073777366429567,0.10585946589708328,-0.05741206929087639,-0.00019073777366429567,0.0009536888683214784,0.00019073777366429567
0.08049893379211426,0.00019073777366429567,0.09594109654426575,-0.05054550990462303,-0.00019073777366429567,0.00019073777366429567,-0.00019073777366429567
0.10057544708251953,0.00019073777366429567,0.08525978773832321,-0.04406042397022247,-0.00019073777366429567,0.00019073777366429567,0.00019073777366429567
0.1206507682800293,0.0009536888683214784,0.07839322835206985,-0.03757534176111221,-0.00019073777366429567,-0.00019073777366429567,-0.00019073777366429567
0.14096975326538086,0.0020981156267225742,0.07457847148180008,-0.03299763426184654,-0.00019073777366429567,-0.00019073777366429567,0.00019073777366429567
0.1610579490661621,0.002861066721379757,0.0707637146115303,-0.029182879254221916,-0.00019073777366429567,-0.0009536888683214784,-0.00019073777366429567
0.18116068840026855,0.0036240178160369396,0.06733043491840363,-0.026512550190091133,-0.00019073777366429567,-0.000572213320992887,-0.00019073777366429567
0.20122551918029785,0.005531395319849253,0.06275273114442825,-0.021171892061829567,-0.00019073777366429567,-0.000572213320992887,-0.00019073777366429567
0.22130537033081055,0.007057297509163618,0.05855649709701538,-0.016212711110711098,0.00019073777366429567,-0.000572213320992887,-0.00019073777366429567
0.24136018753051758,0.0078202486038208,0.056267641484737396,-0.012397955171763897,0.00019073777366429567,-0.000572213320992887,-0.000572213320992887
0.26145100593566895,0.009346150793135166,0.05245288833975792,-0.006294346414506435,0.000572213320992887,-0.0009536888683214784,-0.000572213320992887
0.2816166877746582,0.010872052982449532,0.050164032727479935,-0.002861066721379757,0.0009536888683214784,-0.0009536888683214784,-0.000572213320992887
0.3016777038574219,0.012397955171763897,0.04634927958250046,0.0020981156267225742,0.001716639962978661,-0.0009536888683214784,-0.0013351644156500697
0.3218080997467041,0.01430533267557621,0.04177157208323479,0.008201723918318748,0.002861066721379757,-0.0009536888683214784,-0.0013351644156500697
0.34188008308410645,0.01506828423589468,0.03681239113211632,0.012397955171763897,0.004005493130534887,-0.0009536888683214784,-0.0024795911740511656
0.3619518280029297,0.016594186425209045,0.03185320645570755,0.01926451548933983,0.004386968910694122,-0.0009536888683214784,-0.004386968910694122
0.3820319175720215,0.01773861236870289,0.029182879254221916,0.023460745811462402,0.00476844422519207,-0.001716639962978661,-0.00476844422519207
0.4020998477935791,0.01926451548933983,0.02536812424659729,0.029182879254221916,0.005912871100008488,-0.001716639962978661,-0.005149920005351305
0.4221787452697754,0.021553369238972664,0.02040894143283367,0.03643091395497322,0.007438773289322853,-0.0024795911740511656,-0.005912871100008488
0.4423055648803711,0.022697795182466507,0.014686808921396732,0.04177157208323479,0.008201723918318748,-0.0032425422687083483,-0.006294346414506435
0.4623756408691406,0.024605173617601395,0.0078202486038208,0.04940108209848404,0.008964675478637218,-0.004005493130534887,-0.007438773289322853
0.4825136661529541,0.02689402550458908,0.002861066721379757,0.05664911866188049,0.009727626107633114,-0.004386968910694122,-0.007438773289322853
0.5027539730072021,0.02841992862522602,-0.000572213320992887,0.06160829961299896,0.010872052982449532,-0.005531395319849253,-0.0078202486038208
0.5228667259216309,0.03032730519771576,-0.007057297509163618,0.06961929053068161,0.01201647985726595,-0.005531395319849253,-0.008201723918318748
0.5429396629333496,0.03147173300385475,-0.01506828423589468,0.07686731964349747,0.012779430486261845,-0.007057297509163618,-0.00858320016413927
0.5630142688751221,0.03376058489084244,-0.024986648932099342,0.086785688996315,0.015449759550392628,-0.0078202486038208,-0.008964675478637218
0.5831825733184814,0.03643091395497322,-0.03147173300385475,0.09632257372140884,0.016975661739706993,-0.008201723918318748,-0.009346150793135166
0.6032474040985107,0.039101243019104004,-0.03833829239010811,0.10662241280078888,0.01926451548933983,-0.009346150793135166,-0.010872052982449532
0.6232929229736328,0.04177157208323479,-0.050164032727479935,0.1184481605887413,0.020027466118335724,-0.009346150793135166,-0.011635004542768002
0.6433870792388916,0.04444190114736557,-0.06542305648326874,0.12989242374897003,0.021553369238972664,-0.01201647985726595,-0.012779430486261845
0.6634893417358398,0.048256658017635345,-0.07953765243291855,0.14400701224803925,0.023079270496964455,-0.01506828423589468,-0.013923857361078262
0.6835429668426514,0.051689937710762024,-0.0875486359000206,0.15621423721313477,0.024605173617601395,-0.015449759550392628,-0.014686808921396732
0.7040443420410156,0.0551232174038887,-0.09861142933368683,0.17071031033992767,0.026512550190091133,-0.016212711110711098,-0.015449759550392628
0.7241530418395996,0.05855649709701538,-0.11348897218704224,0.18596932291984558,0.02727550081908703,-0.016975661739706993,-0.01583123579621315
0.7442164421081543,0.06046387553215027,-0.13103684782981873,0.1989395022392273,0.02841992862522602,-0.01735713705420494,-0.016212711110711098
0.7642881870269775,0.06427863240242004,-0.14820325374603271,0.2161058932542801,0.03032730519771576,-0.019645990803837776,-0.016975661739706993
0.7843961715698242,0.06885633617639542,-0.16002899408340454,0.2309834510087967,0.03185320645570755,-0.019645990803837776,-0.018120087683200836
0.8047215938568115,0.071908138692379,-0.17109178006649017,0.24357213079929352,0.034142062067985535,-0.02079041674733162,-0.01926451548933983
0.8248226642608643,0.07572289556264877,-0.19054703414440155,0.2611200213432312,0.03490501269698143,-0.02079041674733162,-0.02040894143283367
0.844876766204834,0.07877469807863235,-0.212672621011734,0.2767605185508728,0.03643091395497322,-0.023079270496964455,-0.02193484455347061
0.8649773597717285,0.08411535620689392,-0.23365376889705658,0.29964902997016907,0.03833829239010811,-0.02536812424659729,-0.023460745811462402
0.8850789070129395,0.09021896868944168,-0.248531311750412,0.31948578357696533,0.04177157208323479,-0.028038453310728073,-0.024223696440458298
0.9051625728607178,0.09670405089855194,-0.264934778213501,0.3442816734313965,0.04634927958250046,-0.02994582988321781,-0.024986648932099342
0.9252638816833496,0.1039520874619484,-0.2904936373233795,0.3736552894115448,0.049782559275627136,-0.03376058489084244,-0.02689402550458908
0.9453535079956055,0.11310750246047974,-0.31757840514183044,0.404936283826828,0.05359731614589691,-0.034142062067985535,-0.02841992862522602
0.9654641151428223,0.12455176562070847,-0.3404669165611267,0.44117647409439087,0.058175019919872284,-0.035667963325977325,-0.031090257689356804
0.9855422973632812,0.1367589831352234,-0.3587777614593506,0.47474631667137146,0.06313420087099075,-0.039101243019104004,-0.032616160809993744
1.0056352615356445,0.1520180106163025,-0.3839551508426666,0.5148012638092041,0.06771191209554672,-0.0394827201962471,-0.034142062067985535
1.0257174968719482,0.1676585078239441,-0.41332876682281494,0.5533303022384644,0.07457847148180008,-0.04406042397022247,-0.03681239113211632
1.0458672046661377,0.18863965570926666,-0.44422826170921326,0.6021591424942017,0.08297093212604523,-0.04749370738863945,-0.0398641936480999
1.065931797027588,0.21190966665744781,-0.4713130295276642,0.6563286781311035,0.09365224838256836,-0.054741740226745605,-0.04444190114736557
1.0860931873321533,0.23899443447589874,-0.5052643418312073,0.7150759100914001,0.10891126841306686,-0.057793546468019485,-0.051689937710762024
1.10618257522583,0.2645532786846161,-0.5464637279510498,0.7715343236923218,0.12607766687870026,-0.06160829961299896,-0.06084534898400307
1.1270275115966797,0.28553444147109985,-0.5853742361068726,0.8245593905448914,0.14515145123004913,-0.06275273114442825,-0.06885633617639542
1.1472008228302002,0.3061341345310211,-0.620088517665863,0.8791103959083557,0.1653696447610855,-0.06504157930612564,-0.07839322835206985
1.1673853397369385,0.3213931620121002,-0.649462103843689,0.9275577664375305,0.1832990050315857,-0.06389715522527695,-0.0871671661734581
1.1874725818634033,0.33321890234947205,-0.6822690367698669,0.9737163186073303,0.1985580176115036,-0.06466010212898254,-0.09441519528627396
1.2075495719909668,0.3393225073814392,-0.7085908055305481,1.0103379487991333,0.21038375794887543,-0.06847485899925232,-0.09975585341453552
1.2276339530944824,0.34504464268684387,-0.7314793467521667,1.0450522899627686,0.22220951318740845,-0.07343403995037079,-0.10433356463909149
1.2477035522460938,0.34542611241340637,-0.7463569045066833,1.0694667100906372,0.22793163359165192,-0.07267109304666519,-0.10624094307422638
1.2677843570709229,0.34504464268684387,-0.7581826448440552,1.0908293724060059,0.23327229917049408,-0.07495994865894318,-0.11005569249391556
1.2878639698028564,0.3435187339782715,-0.7661936283111572,1.104180932044983,0.23746852576732635,-0.08030059933662415,-0.11272602528333664
1.3080551624298096,0.3412298858165741,-0.7715343236923218,1.11142897605896,0.24013885855674744,-0.0875486359000206,-0.11387044936418533
1.328155517578125,0.3397039771080017,-0.7745860815048218,1.11295485496521,0.24319066107273102,-0.08945601433515549,-0.11577782779932022
1.3482205867767334,0.3381780683994293,-0.7749675512313843,1.1118104457855225,0.2454795092344284,-0.09441519528627396,-0.11730372905731201
1.3683438301086426,0.33550775051116943,-0.7749675512313843,1.10837721824646,0.24891279637813568,-0.09594109654426575,-0.1184481605887413
1.388420581817627,0.33360037207603455,-0.7749675512313843,1.1057069301605225,0.25158312916755676,-0.09822995215654373,-0.1199740618467331
1.4086143970489502,0.33131152391433716,-0.7742046117782593,1.1030365228652954,0.25310903787612915,-0.09975585341453552,-0.12111848592758179
1.4287126064300537,0.3278782367706299,-0.7730602025985718,1.099603295326233,0.25539788603782654,-0.10090028494596481,-0.12149996310472488
1.448777675628662,0.3248264193534851,-0.7722972631454468,1.0973143577575684,0.2569237947463989,-0.1024261862039566,-0.12378881871700287
1.4688730239868164,0.32101166248321533,-0.7711527943611145,1.0942625999450684,0.2588311731815338,-0.1039520874619484,-0.12569619715213776
1.4889554977416992,0.31795987486839294,-0.7703898549079895,1.0908293724060059,0.2603570520877838,-0.10624094307422638,-0.12760357558727264
1.5089952945709229,0.31490805745124817,-0.770008385181427,1.0881589651107788,0.2622644305229187,-0.10776684433221817,-0.12836651504039764
1.5290918350219727,0.3114747703075409,-0.770008385181427,1.0843442678451538,0.2626459002494812,-0.11005569249391556,-0.12951095402240753
1.549156665802002,0.3091859221458435,-0.7696269154548645,1.0816738605499268,0.2637903392314911,-0.11120012402534485,-0.13141833245754242
1.5692405700683594,0.30537116527557373,-0.769245445728302,1.0782406330108643,0.265697717666626,-0.11310750246047974,-0.1329442262649536
1.5894460678100586,0.30308231711387634,-0.768482506275177,1.0748074054718018,0.26760509610176086,-0.11387044936418533,-0.1356145590543747
1.609600305557251,0.29964902997016907,-0.767719566822052,1.0717555284500122,0.26989394426345825,-0.11310750246047974,-0.1371404528617859
1.6297156810760498,0.2962157726287842,-0.7665750980377197,1.0679408311843872,0.27027541399002075,-0.11501488089561462,-0.13866636157035828
1.6508047580718994,0.2927824854850769,-0.7661936283111572,1.0652704238891602,0.27065691351890564,-0.11577782779932022,-0.13981078565120697
1.670928716659546,0.28820478916168213,-0.7646677494049072,1.0610742568969727,0.272945761680603,-0.11730372905731201,-0.14171816408634186
1.6909716129302979,0.28362706303596497,-0.7646677494049072,1.0576409101486206,0.2744716703891754,-0.11959258466959,-0.14286258816719055
1.7110545635223389,0.2775234580039978,-0.7639048099517822,1.052681803703308,0.2771419882774353,-0.12073700875043869,-0.14553292095661163
1.7313041687011719,0.272945761680603,-0.76276034116745,1.0473411083221436,0.2782863974571228,-0.12073700875043869,-0.14629587531089783
1.7516546249389648,0.26722362637519836,-0.76276034116745,1.042763352394104,0.2817196846008301,-0.12417028844356537,-0.14782176911830902
1.7717335224151611,0.2622644305229187,-0.7623788714408875,1.037422776222229,0.28477150201797485,-0.12531471252441406,-0.1497291475534439
1.7917931079864502,0.2569237947463989,-0.7616159319877625,1.032463550567627,0.28667888045310974,-0.12760357558727264,-0.1508735716342926
1.811899185180664,0.2508201599121094,-0.7600900530815125,1.02521550655365,0.28934919834136963,-0.13141833245754242,-0.15354390442371368
1.8320088386535645,0.2458609938621521,-0.7585641145706177,1.0191118717193604,0.2904936373233795,-0.13027389347553253,-0.15545128285884857
1.8520922660827637,0.23899443447589874,-0.7562752962112427,1.0107194185256958,0.2927824854850769,-0.13218127191066742,-0.15812161564826965
1.8721587657928467,0.23289081454277039,-0.7539864182472229,1.0019454956054688,0.2943083941936493,-0.1329442262649536,-0.16155488789081573
1.893085241317749,0.22678720951080322,-0.7516975402832031,0.9935530424118042,0.2969787120819092,-0.1367589831352234,-0.1653696447610855
1.9132437705993652,0.21915769577026367,-0.7482643127441406,0.9832532405853271,0.29926756024360657,-0.14133669435977936,-0.1672770231962204
1.9333016872406006,0.2130540907382965,-0.7463569045066833,0.9737163186073303,0.30422675609588623,-0.14591439068317413,-0.17147326469421387
1.9534342288970947,0.20428015291690826,-0.7410162687301636,0.9596017599105835,0.309567391872406,-0.1527809500694275,-0.17528800666332245
1.97349214553833,0.1970321238040924,-0.734149694442749,0.9439612627029419,0.31528952717781067,-0.15964750945568085,-0.1810101419687271
1.99361252784729,0.19092851877212524,-0.728427529335022,0.9306095838546753,0.3217746317386627,-0.1680399775505066,-0.18635080754756927
2.0136630535125732,0.18558785319328308,-0.7185091972351074,0.9138246774673462,0.32978561520576477,-0.17872129380702972,-0.19245441257953644
2.0337421894073486,0.1806286722421646,-0.7085908055305481,0.8993285894393921,0.3385595381259918,-0.19016556441783905,-0.1997024416923523
2.054356098175049,0.1802472025156021,-0.699816882610321,0.8909361362457275,0.35114824771881104,-0.20847637951374054,-0.20923933386802673
2.0744664669036865,0.1806286722421646,-0.6929503083229065,0.8871213793754578,0.36335545778274536,-0.22335393726825714,-0.22220951318740845
2.0945565700531006,0.1813916265964508,-0.6876096725463867,0.8855955004692078,0.3725108802318573,-0.230601966381073,-0.23365376889705658
2.114804267883301,0.1825360506772995,-0.6818875670433044,0.8836880922317505,0.3778515160083771,-0.23327229917049408,-0.2473868876695633
2.1348750591278076,0.18520638346672058,-0.6750209927558899,0.8806362748146057,0.3854810297489166,-0.23823148012161255,-0.2603570520877838
2.1549289226531982,0.18825818598270416,-0.6715877056121826,0.8779659867286682,0.39578089118003845,-0.24357213079929352,-0.27141985297203064
2.1750330924987793,0.18978407979011536,-0.6685358881950378,0.8749141693115234,0.4026474356651306,-0.2462424635887146,-0.2813382148742676
2.1951279640197754,0.19169145822525024,-0.6666285395622253,0.8718623518943787,0.41103988885879517,-0.2481498420238495,-0.2904936373233795
2.215306043624878,0.19398032128810883,-0.6654840707778931,0.8688105344772339,0.4186694025993347,-0.25616082549095154,-0.29964902997016907
2.23544979095459,0.19436179101467133,-0.6624323129653931,0.8661402463912964,0.4243915379047394,-0.2653162479400635,-0.3068970739841461
2.2554948329925537,0.1962691694498062,-0.6601434350013733,0.8642328381538391,0.42858776450157166,-0.2733272314071655,-0.3133821487426758
2.2756245136260986,0.1970321238040924,-0.656710147857666,0.8627069592475891,0.43163958191871643,-0.2775234580039978,-0.3213931620121002
2.29573917388916,0.1993209719657898,-0.6528953909873962,0.8607995510101318,0.4343098998069763,-0.2813382148742676,-0.3274967670440674
2.316046953201294,0.20122835040092468,-0.650225043296814,0.8592736721038818,0.4381246566772461,-0.2817196846008301,-0.33321890234947205
2.336155652999878,0.20389868319034576,-0.6483176946640015,0.8573662638664246,0.44117647409439087,-0.2805752754211426,-0.3393225073814392
2.3562498092651367,0.20656901597976685,-0.647173285484314,0.8546959757804871,0.44537270069122314,-0.2798123061656952,-0.34695202112197876
2.37631893157959,0.20771344006061554,-0.6460288166999817,0.8520256280899048,0.4495689272880554,-0.2813382148742676,-0.35114824771881104
2.3964154720306396,0.20885786414146423,-0.6441214680671692,0.8493552803993225,0.4522392749786377,-0.28248265385627747,-0.3557259440422058
2.4166083335876465,0.20962081849575043,-0.6425955891609192,0.846684992313385,0.4537651538848877,-0.28591591119766235,-0.3599221706390381
2.4367563724517822,0.21076524257659912,-0.6399252414703369,0.8436331748962402,0.4552910625934601,-0.28782328963279724,-0.36564430594444275
2.4567933082580566,0.21190966665744781,-0.6376363635063171,0.8428702354431152,0.45719844102859497,-0.2927824854850769,-0.3702220320701599
2.4769363403320312,0.2138170450925827,-0.6361104846000671,0.840962827205658,0.45834288001060486,-0.2950713336467743,-0.3740367889404297
2.497001886367798,0.2157244235277176,-0.6349660754203796,0.8398184180259705,0.46025025844573975,-0.2939268946647644,-0.3770885765552521
2.5171029567718506,0.21801327168941498,-0.6342030763626099,0.838674008846283,0.46253910660743713,-0.2912565767765045,-0.38128480315208435
2.5371692180633545,0.21992065012454987,-0.6330586671829224,0.8367666006088257,0.465209424495697,-0.28934919834136963,-0.3843366205692291
2.5572285652160645,0.22144655883312225,-0.6319142580032349,0.8356221914291382,0.4667353332042694,-0.28744181990623474,-0.3904402256011963
2.5773308277130127,0.22297245264053345,-0.6307697892189026,0.8340963125228882,0.4678797721862793,-0.28667888045310974,-0.3931105434894562
2.5974326133728027,0.22335393726825714,-0.6292439103126526,0.8325703740119934,0.4686427116394043,-0.28553444147109985,-0.39539939165115356
2.617604970932007,0.22335393726825714,-0.6277180314064026,0.8310444951057434,0.4690241813659668,-0.28629741072654724,-0.39845120906829834
2.6376945972442627,0.22449836134910583,-0.6261920928955078,0.8295185565948486,0.4705500900745392,-0.28782328963279724,-0.4011215269565582
2.657757043838501,0.22526131570339203,-0.6258106231689453,0.8283741474151611,0.4716945290565491,-0.28820478916168213,-0.4026474356651306
2.677851676940918,0.22602425515651703,-0.6246662139892578,0.8268482685089111,0.4724574685096741,-0.28706035017967224,-0.4060807228088379
2.697922468185425,0.22793163359165192,-0.6235218048095703,0.8245593905448914,0.47398337721824646,-0.28515297174453735,-0.40989547967910767
2.718001127243042,0.2309834510087967,-0.620851457118988,0.8215075731277466,0.47550925612449646,-0.28248265385627747,-0.41294726729393005
2.738111972808838,0.23327229917049408,-0.6189440488815308,0.8188372850418091,0.47741663455963135,-0.2809567451477051,-0.4171435236930847
2.7582743167877197,0.23365376889705658,-0.6181811094284058,0.8184558153152466,0.47932401299476624,-0.2801937758922577,-0.4190509021282196
2.7783713340759277,0.23365376889705658,-0.6181811094284058,0.8180742859840393,0.47932401299476624,-0.2763790488243103,-0.4217212200164795
2.7984468936920166,0.23365376889705658,-0.6177996397018433,0.8169298768043518,0.4797055125236511,-0.2748531401157379,-0.42515450716018677
2.8185267448425293,0.23327229917049408,-0.6170367002487183,0.8154039978981018,0.47932401299476624,-0.2752346098423004,-0.42744335532188416
2.8386080265045166,0.23327229917049408,-0.6158922910690308,0.812352180480957,0.4797055125236511,-0.2748531401157379,-0.42935073375701904
2.858665704727173,0.23327229917049408,-0.6139848828315735,0.8089188933372498,0.4800869822502136,-0.2759975492954254,-0.43202105164527893
2.8788046836853027,0.23365376889705658,-0.6132219433784485,0.8070115447044373,0.4827573001384735,-0.2767605185508728,-0.4346913993358612
2.8988685607910156,0.23479819297790527,-0.612840473651886,0.80663001537323,0.4861905872821808,-0.2771419882774353,-0.4354543387889862
2.918963670730591,0.23556114733219147,-0.6124590039253235,0.80663001537323,0.4865720570087433,-0.2725642919540405,-0.4388876259326935
2.9392871856689453,0.23594263195991516,-0.6109330654144287,0.8062485456466675,0.4869535267353058,-0.27065691351890564,-0.44193941354751587
2.9593822956085205,0.23708705604076385,-0.6078813076019287,0.80510413646698,0.4873350262641907,-0.26913100481033325,-0.44422826170921326
2.9794349670410156,0.23785001039505005,-0.6048294901847839,0.80357825756073,0.4880979657173157,-0.26798656582832336,-0.44651713967323303
2.9995381832122803,0.23823148012161255,-0.6036850810050964,0.802815318107605,0.49000534415245056,-0.26760509610176086,-0.4495689272880554
3.0195865631103516,0.23937590420246124,-0.6036850810050964,0.8020523190498352,0.49076828360557556,-0.264934778213501,-0.4518577754497528
3.0399348735809326,0.23975738883018494,-0.6040665507316589,0.8005264401435852,0.49114975333213806,-0.2626459002494812,-0.4533836841583252
3.060142755508423,0.23975738883018494,-0.6040665507316589,0.7986190319061279,0.49420157074928284,-0.2626459002494812,-0.4556725323200226
3.080129384994507,0.24013885855674744,-0.6040665507316589,0.7974746227264404,0.4964904189109802,-0.2634088695049286,-0.45757991075515747
3.1002190113067627,0.24052032828330994,-0.6040665507316589,0.7967116832733154,0.4980163276195526,-0.2630273997783661,-0.45986875891685486
3.12027907371521,0.24128328263759613,-0.6033035516738892,0.7955672740936279,0.4980163276195526,-0.2622644305229187,-0.46177613735198975
3.140450954437256,0.24166475236415863,-0.6025406122207642,0.7944228053092957,0.4991607666015625,-0.2622644305229187,-0.46368351578712463
3.160576581954956,0.24204623699188232,-0.6013962030410767,0.7928969264030457,0.50030517578125,-0.2607385218143463,-0.4659723937511444
3.1806480884552,0.24280919134616852,-0.6006332635879517,0.7909895181655884,0.5014495849609375,-0.2599755823612213,-0.4690241813659668
3.2007334232330322,0.24319066107273102,-0.6006332635879517,0.7902265787124634,0.5048828721046448,-0.2588311731815338,-0.4713130295276642
3.2216074466705322,0.24357213079929352,-0.6006332635879517,0.7871748208999634,0.5056458115577698,-0.2573052644729614,-0.4728389382362366
3.241818904876709,0.2439536154270172,-0.5998703241348267,0.7848859429359436,0.5064088106155396,-0.25654229521751404,-0.47703516483306885
3.2623729705810547,0.2450980395078659,-0.5987258553504944,0.7806897163391113,0.5079346895217896,-0.25654229521751404,-0.47932401299476624
3.2824792861938477,0.2458609938621521,-0.5971999764442444,0.7768749594688416,0.509079098701477,-0.25654229521751404,-0.4800869822502136
3.3026187419891357,0.2470054179430008,-0.5956740379333496,0.7734416723251343,0.5098420977592468,-0.25654229521751404,-0.482375830411911
3.322699546813965,0.2473868876695633,-0.5949110984802246,0.7722972631454468,0.5132753252983093,-0.2576867341995239,-0.4846646785736084
3.3428637981414795,0.2473868876695633,-0.5949110984802246,0.7722972631454468,0.5140383243560791,-0.25654229521751404,-0.4869535267353058
3.3628833293914795,0.2473868876695633,-0.5941481590270996,0.7730602025985718,0.5151827335357666,-0.25425344705581665,-0.4892423748970032
3.3830058574676514,0.2473868876695633,-0.5930037498474121,0.7734416723251343,0.5159456729888916,-0.25310903787612915,-0.49114975333213806
3.403064012527466,0.2473868876695633,-0.5914778113365173,0.7738231420516968,0.5159456729888916,-0.25120165944099426,-0.49420157074928284
3.4231982231140137,0.2473868876695633,-0.5899519324302673,0.7738231420516968,0.5163271427154541,-0.2500572204589844,-0.4957274794578552
3.4433271884918213,0.2473868876695633,-0.5888075232505798,0.7734416723251343,0.5170900821685791,-0.24929426610469818,-0.4983977973461151
3.4634552001953125,0.2473868876695633,-0.5884260535240173,0.7734416723251343,0.5186160206794739,-0.248531311750412,-0.50030517578125
3.4836106300354004,0.2473868876695633,-0.5884260535240173,0.7730602025985718,0.5197604298591614,-0.2454795092344284,-0.5029755234718323
3.5036563873291016,0.2473868876695633,-0.5880445837974548,0.7722972631454468,0.5209048390388489,-0.24357213079929352,-0.5041199326515198
3.5237174034118652,0.2473868876695633,-0.5880445837974548,0.7715343236923218,0.5228122472763062,-0.24319066107273102,-0.5052643418312073
3.543907642364502,0.2473868876695633,-0.5872815847396851,0.7703898549079895,0.5239566564559937,-0.24242770671844482,-0.5056458115577698
3.5638937950134277,0.2473868876695633,-0.5861371755599976,0.768482506275177,0.5251010656356812,-0.24204623699188232,-0.5064088106155396
3.584035634994507,0.2473868876695633,-0.5861371755599976,0.7669565677642822,0.5266270041465759,-0.24166475236415863,-0.5086976289749146
3.6040823459625244,0.2473868876695633,-0.5857557058334351,0.7658121585845947,0.5277714133262634,-0.23975738883018494,-0.5094605684280396
3.6246755123138428,0.2473868876695633,-0.5849927663803101,0.7650492191314697,0.5304417610168457,-0.23937590420246124,-0.5125123858451843
3.6447975635528564,0.2473868876695633,-0.5846112966537476,0.7642862796783447,0.5315861701965332,-0.23899443447589874,-0.5132753252983093
3.664872169494629,0.2473868876695633,-0.5846112966537476,0.7639048099517822,0.5315861701965332,-0.23746852576732635,-0.5144197940826416
3.6850204467773438,0.2473868876695633,-0.5838482975959778,0.76276034116745,0.5323491096496582,-0.23556114733219147,-0.5167086124420166
3.7050795555114746,0.2473868876695633,-0.5830853581428528,0.761997401714325,0.533875048160553,-0.23556114733219147,-0.5193789601325989
3.7251689434051514,0.2473868876695633,-0.5827038884162903,0.760471522808075,0.535400927066803,-0.23403525352478027,-0.5212863087654114
3.7452213764190674,0.2473868876695633,-0.5819409489631653,0.7600900530815125,0.5376898050308228,-0.23441672325134277,-0.5243381261825562
3.765333414077759,0.2473868876695633,-0.5819409489631653,0.7593270540237427,0.5395971536636353,-0.23441672325134277,-0.5247195959091187
3.785675525665283,0.2473868876695633,-0.5815594792366028,0.7585641145706177,0.5407415628433228,-0.23365376889705658,-0.5277714133262634
3.8057785034179688,0.2473868876695633,-0.5807965397834778,0.7578011751174927,0.54264897108078,-0.23327229917049408,-0.5296788215637207
3.8258419036865234,0.2473868876695633,-0.580033540725708,0.7558938264846802,0.5430304408073425,-0.2317463904619217,-0.5312047004699707
3.846027374267578,0.2473868876695633,-0.5788891315460205,0.7539864182472229,0.543411910533905,-0.2298390120267868,-0.5319676399230957
3.8660686016082764,0.2473868876695633,-0.5781261920928955,0.7536049485206604,0.5457007884979248,-0.2290760725736618,-0.5334935784339905
3.8861846923828125,0.2473868876695633,-0.5781261920928955,0.7528420090675354,0.5464637279510498,-0.22793163359165192,-0.5350194573402405
3.906264066696167,0.2473868876695633,-0.5781261920928955,0.7516975402832031,0.5468451976776123,-0.22564278542995453,-0.5373083353042603
3.926424741744995,0.2473868876695633,-0.577744722366333,0.7516975402832031,0.5476081371307373,-0.22526131570339203,-0.5388342142105103
3.9466187953948975,0.2473868876695633,-0.5773632526397705,0.7513160705566406,0.5487525463104248,-0.22449836134910583,-0.5392156839370728
3.966681480407715,0.2473868876695633,-0.5766003131866455,0.7497901916503906,0.5502784848213196,-0.22259098291397095,-0.54112309217453
3.986788272857666,0.2473868876695633,-0.5758373141288757,0.7486457824707031,0.5514228940010071,-0.22220951318740845,-0.543411910533905
4.006904125213623,0.2473868876695633,-0.5754558444023132,0.7482643127441406,0.5533303022384644,-0.21915769577026367,-0.5453193187713623
4.027029514312744,0.2473868876695633,-0.5746929049491882,0.7475013136863708,0.5540932416915894,-0.2153429538011551,-0.5468451976776123
4.0470781326293945,0.2473868876695633,-0.5739299654960632,0.7463569045066833,0.5556191205978394,-0.2138170450925827,-0.5491340756416321
4.067203044891357,0.2473868876695633,-0.5727855563163757,0.7452124953269958,0.5575265288352966,-0.212672621011734,-0.5506599545478821
4.087295055389404,0.2473868876695633,-0.5724040865898132,0.7440680265426636,0.5579079985618591,-0.21114671230316162,-0.5514228940010071
4.10741400718689,0.2473868876695633,-0.572022557258606,0.7433050870895386,0.5590524077415466,-0.21076524257659912,-0.5540932416915894
4.127483367919922,0.2470054179430008,-0.5716410875320435,0.7425421476364136,0.5605783462524414,-0.21038375794887543,-0.5552376508712769
4.147562026977539,0.2470054179430008,-0.5716410875320435,0.7413977384567261,0.5621042251586914,-0.20923933386802673,-0.5560005903244019
4.167651176452637,0.2470054179430008,-0.5716410875320435,0.7406347990036011,0.5628671646118164,-0.20962081849575043,-0.5575265288352966
4.188364744186401,0.2470054179430008,-0.5716410875320435,0.7387273907661438,0.5655375123023987,-0.20885786414146423,-0.5579079985618591
4.208465814590454,0.2462424635887146,-0.571259617805481,0.7379644513130188,0.5674448609352112,-0.20847637951374054,-0.5586709380149841
4.22853422164917,0.2454795092344284,-0.571259617805481,0.7375829815864563,0.569733738899231,-0.20847637951374054,-0.5601968169212341
4.248617649078369,0.2443350851535797,-0.570496678352356,0.7368200421333313,0.5701152086257935,-0.20695048570632935,-0.5624856948852539
4.26870059967041,0.24319066107273102,-0.5701152086257935,0.7368200421333313,0.572022557258606,-0.20618753135204315,-0.5647745728492737
4.2887513637542725,0.24242770671844482,-0.569733738899231,0.7368200421333313,0.5724040865898132,-0.20580606162548065,-0.5651560425758362
4.30898904800415,0.24166475236415863,-0.5693522691726685,0.735675573348999,0.5727855563163757,-0.20466163754463196,-0.5659189820289612
4.328984022140503,0.24128328263759613,-0.568970799446106,0.734149694442749,0.5731670260429382,-0.20466163754463196,-0.5670633912086487
4.349163770675659,0.24090181291103363,-0.5685893297195435,0.733386754989624,0.5746929049491882,-0.20428015291690826,-0.568970799446106
4.369263172149658,0.24090181291103363,-0.5685893297195435,0.732623815536499,0.5766003131866455,-0.20351719856262207,-0.5701152086257935
4.389326333999634,0.24090181291103363,-0.5682078003883362,0.7318608164787292,0.5773632526397705,-0.2004653960466385,-0.5727855563163757
4.409409761428833,0.24090181291103363,-0.5674448609352112,0.7318608164787292,0.577744722366333,-0.1985580176115036,-0.5739299654960632
4.429489612579346,0.24090181291103363,-0.5666819214820862,0.7314793467521667,0.5796520709991455,-0.1974135935306549,-0.5754558444023132
4.449564218521118,0.24090181291103363,-0.5663004517555237,0.7310978770256042,0.5804150700569153,-0.19512474536895752,-0.5766003131866455
4.469699144363403,0.24052032828330994,-0.5659189820289612,0.7303349375724792,0.5815594792366028,-0.19359883666038513,-0.578507661819458
4.48974609375,0.24052032828330994,-0.5655375123023987,0.7291905283927917,0.5838482975959778,-0.19169145822525024,-0.5807965397834778
4.5098254680633545,0.23975738883018494,-0.5655375123023987,0.727664589881897,0.5853742361068726,-0.19054703414440155,-0.5819409489631653
4.529892921447754,0.23975738883018494,-0.5655375123023987,0.7272831201553345,0.5869001150131226,-0.19016556441783905,-0.5842298269271851
4.550105571746826,0.23975738883018494,-0.5655375123023987,0.726901650428772,0.5884260535240173,-0.18940261006355286,-0.5842298269271851
4.570208549499512,0.23937590420246124,-0.5647745728492737,0.7265201807022095,0.5884260535240173,-0.18940261006355286,-0.5849927663803101
4.590555906295776,0.23899443447589874,-0.5643930435180664,0.7257572412490845,0.5903334021568298,-0.18825818598270416,-0.5869001150131226
4.6106486320495605,0.23861294984817505,-0.5636301040649414,0.7249943017959595,0.5918593406677246,-0.18558785319328308,-0.5880445837974548
4.630697250366211,0.23785001039505005,-0.5636301040649414,0.724612832069397,0.5918593406677246,-0.1832990050315857,-0.5891889929771423
4.650949954986572,0.23746852576732635,-0.5636301040649414,0.7242313027381897,0.5933852195739746,-0.1832990050315857,-0.5914778113365173
4.671043634414673,0.23708705604076385,-0.5636301040649414,0.7234683632850647,0.5956740379333496,-0.1817730963230133,-0.5926222801208496
4.691526412963867,0.23556114733219147,-0.5636301040649414,0.7230868935585022,0.5975814461708069,-0.1817730963230133,-0.5952925682067871
4.711696147918701,0.23441672325134277,-0.5636301040649414,0.7227054238319397,0.5983443856239319,-0.1802472025156021,-0.5979629158973694
4.731764078140259,0.23441672325134277,-0.5632486343383789,0.7223239541053772,0.5991073250770569,-0.1802472025156021,-0.5987258553504944
4.751906633377075,0.23441672325134277,-0.5624856948852539,0.7207980751991272,0.5994887948036194,-0.17948424816131592,-0.5991073250770569
4.772002935409546,0.23441672325134277,-0.5613412857055664,0.7196536064147949,0.5998703241348267,-0.17910276353359222,-0.5994887948036194
4.792046070098877,0.23441672325134277,-0.5613412857055664,0.7192721366882324,0.6017776727676392,-0.17872129380702972,-0.6006332635879517
4.812141418457031,0.23441672325134277,-0.5613412857055664,0.7188906669616699,0.6025406122207642,-0.17528800666332245,-0.6017776727676392
4.832222938537598,0.23441672325134277,-0.5613412857055664,0.7185091972351074,0.6029220819473267,-0.17376211285591125,-0.6029220819473267
4.852282285690308,0.23403525352478027,-0.5613412857055664,0.7177462577819824,0.6036850810050964,-0.17338064312934875,-0.6040665507316589
4.872364044189453,0.23327229917049408,-0.5613412857055664,0.7173647880554199,0.6040665507316589,-0.17185473442077637,-0.6063553690910339
4.892477750778198,0.23250934481620789,-0.5609598159790039,0.7173647880554199,0.6055924296379089,-0.17223620414733887,-0.6071183085441589
4.91277003288269,0.23250934481620789,-0.5605783462524414,0.7166017889976501,0.6074998378753662,-0.17223620414733887,-0.6074998378753662
4.932908535003662,0.23250934481620789,-0.5598153471946716,0.7154573798179626,0.6090257167816162,-0.17223620414733887,-0.6078813076019287
4.952963590621948,0.23250934481620789,-0.5594338774681091,0.7150759100914001,0.6101701259613037,-0.17071031033992767,-0.6097886562347412
4.9730329513549805,0.23250934481620789,-0.5590524077415466,0.7143129706382751,0.6105515956878662,-0.1672770231962204,-0.6101701259613037
4.993122577667236,0.23250934481620789,-0.5590524077415466,0.7139315009117126,0.6109330654144287,-0.1646067053079605,-0.6116960644721985
5.013335466384888,0.2317463904619217,-0.5590524077415466,0.7131685614585876,0.6132219433784485,-0.16384375095367432,-0.6132219433784485
5.033446550369263,0.2309834510087967,-0.5582894682884216,0.7124055624008179,0.615129292011261,-0.16384375095367432,-0.6139848828315735
5.053600549697876,0.2302204966545105,-0.5582894682884216,0.7124055624008179,0.6162737607955933,-0.16346226632595062,-0.6147478222846985
5.0736424922943115,0.2302204966545105,-0.5582894682884216,0.7120240926742554,0.6181811094284058,-0.16346226632595062,-0.6155108213424683
5.093729496002197,0.2294575423002243,-0.5582894682884216,0.7120240926742554,0.6181811094284058,-0.16193637251853943,-0.6166552305221558
5.113790273666382,0.2290760725736618,-0.5582894682884216,0.7112611532211304,0.6181811094284058,-0.16041046380996704,-0.6174181699752808
5.133925676345825,0.2290760725736618,-0.5582894682884216,0.7108796834945679,0.620088517665863,-0.16002899408340454,-0.6177996397018433
5.154016494750977,0.2290760725736618,-0.5582894682884216,0.7101167440414429,0.621614396572113,-0.15812161564826965,-0.6181811094284058
5.174141883850098,0.2286945879459381,-0.5582894682884216,0.7101167440414429,0.622377336025238,-0.15774014592170715,-0.6197070479393005
5.194224119186401,0.2283131182193756,-0.5582894682884216,0.7101167440414429,0.622377336025238,-0.15774014592170715,-0.620088517665863
5.214505195617676,0.22755016386508942,-0.5582894682884216,0.7101167440414429,0.622377336025238,-0.15735866129398346,-0.6212329268455505
5.2346367835998535,0.22602425515651703,-0.5582894682884216,0.7093538045883179,0.6227588057518005,-0.15735866129398346,-0.6219958662986755
5.254743814468384,0.22487983107566833,-0.5582894682884216,0.7082093358039856,0.6235218048095703,-0.15735866129398346,-0.6235218048095703
5.274986982345581,0.22411687672138214,-0.5582894682884216,0.7070649266242981,0.6250476837158203,-0.15735866129398346,-0.6250476837158203
5.295241594314575,0.22373540699481964,-0.5582894682884216,0.7059205174446106,0.6261920928955078,-0.15697719156742096,-0.6261920928955078
5.3153746128082275,0.22297245264053345,-0.5582894682884216,0.7059205174446106,0.6284809708595276,-0.15659570693969727,-0.6280995011329651
5.335429430007935,0.22297245264053345,-0.5582894682884216,0.7059205174446106,0.6288624405860901,-0.15506981313228607,-0.6288624405860901
5.355544567108154,0.22297245264053345,-0.5579079985618591,0.7055390477180481,0.6288624405860901,-0.15316243469715118,-0.6292439103126526
5.375666379928589,0.22259098291397095,-0.5575265288352966,0.7047760486602783,0.6288624405860901,-0.1501106321811676,-0.6307697892189026
5.395931243896484,0.22259098291397095,-0.5571450591087341,0.7047760486602783,0.6288624405860901,-0.1497291475534439,-0.6330586671829224
5.416025638580322,0.22220951318740845,-0.5575265288352966,0.7047760486602783,0.6292439103126526,-0.1489662081003189,-0.6326771974563599
5.436086177825928,0.22182802855968475,-0.5575265288352966,0.7040131092071533,0.6292439103126526,-0.14782176911830902,-0.6338216066360474
5.456340074539185,0.22068360447883606,-0.5575265288352966,0.7032501697540283,0.6307697892189026,-0.14782176911830902,-0.6349660754203796
5.476429224014282,0.21992065012454987,-0.5571450591087341,0.7028687000274658,0.6322957277297974,-0.14591439068317413,-0.6361104846000671
5.496522426605225,0.21992065012454987,-0.5571450591087341,0.7024872303009033,0.6334401369094849,-0.14629587531089783,-0.6361104846000671
5.516632556915283,0.21953918039798737,-0.5571450591087341,0.7017242908477783,0.6349660754203796,-0.14629587531089783,-0.6361104846000671
5.536756992340088,0.21953918039798737,-0.5571450591087341,0.7009612917900085,0.6361104846000671,-0.14553292095661163,-0.6364919543266296
5.556802034378052,0.21839475631713867,-0.5571450591087341,0.7009612917900085,0.6368734240531921,-0.14476996660232544,-0.6372548937797546
5.576909303665161,0.21801327168941498,-0.5571450591087341,0.700579822063446,0.6380178332328796,-0.14324407279491425,-0.6387808322906494
5.597106695175171,0.21763180196285248,-0.5571450591087341,0.700579822063446,0.6399252414703369,-0.14133669435977936,-0.6403067111968994
5.617314100265503,0.21763180196285248,-0.5571450591087341,0.7001983523368835,0.6406881809234619,-0.13904783129692078,-0.6410696506500244
5.6374125480651855,0.21686884760856628,-0.5571450591087341,0.699816882610321,0.6410696506500244,-0.1371404528617859,-0.6418325901031494
5.6575047969818115,0.2157244235277176,-0.5563820600509644,0.6994354128837585,0.6429770588874817,-0.134470134973526,-0.6437399983406067
5.67792272567749,0.2157244235277176,-0.5563820600509644,0.698291003704071,0.6448844075202942,-0.13218127191066742,-0.6437399983406067
5.6981024742126465,0.2153429538011551,-0.5563820600509644,0.6979095339775085,0.6464102864265442,-0.13103684782981873,-0.6448844075202942
5.71809458732605,0.2145799994468689,-0.5563820600509644,0.6979095339775085,0.647936224937439,-0.13065537810325623,-0.6456473469734192
5.73818564414978,0.2141985148191452,-0.5563820600509644,0.6979095339775085,0.647936224937439,-0.12989242374897003,-0.647173285484314
5.758294582366943,0.2138170450925827,-0.5563820600509644,0.6979095339775085,0.648699164390564,-0.12951095402240753,-0.647936224937439
5.7784264087677,0.21229113638401031,-0.5563820600509644,0.6979095339775085,0.6506065726280212,-0.12874799966812134,-0.649462103843689
5.798514127731323,0.21152819693088531,-0.5563820600509644,0.697528064250946,0.6517509818077087,-0.12836651504039764,-0.6509880423545837
5.8185834884643555,0.21076524257659912,-0.5563820600509644,0.6963835954666138,0.6525139212608337,-0.12684062123298645,-0.6517509818077087
5.838738203048706,0.21038375794887543,-0.5563820600509644,0.6956206560134888,0.654421329498291,-0.12493324279785156,-0.6528953909873962
5.858776330947876,0.21038375794887543,-0.5563820600509644,0.6952391862869263,0.655184268951416,-0.12455176562070847,-0.6540398001670837
5.8791399002075195,0.21038375794887543,-0.5563820600509644,0.6944762468338013,0.655184268951416,-0.12226291000843048,-0.655184268951416
5.899248123168945,0.21038375794887543,-0.5563820600509644,0.6944762468338013,0.6563286781311035,-0.12073700875043869,-0.6555657386779785
5.91927170753479,0.21000228822231293,-0.5563820600509644,0.6944762468338013,0.6578545570373535,-0.1188296303153038,-0.6563286781311035
5.93936562538147,0.20923933386802673,-0.5563820600509644,0.6944762468338013,0.6589990258216858,-0.11692225188016891,-0.657473087310791
5.959442615509033,0.20809490978717804,-0.5563820600509644,0.6944762468338013,0.6597619652748108,-0.11501488089561462,-0.6593804955482483
5.979526996612549,0.20809490978717804,-0.5563820600509644,0.6944762468338013,0.6605249047279358,-0.11501488089561462,-0.6593804955482483
5.999624490737915,0.20771344006061554,-0.5563820600509644,0.6940947771072388,0.6631952524185181,-0.11463340371847153,-0.6593804955482483
6.0199267864227295,0.20733195543289185,-0.5563820600509644,0.6937133073806763,0.6631952524185181,-0.11425192654132843,-0.6601434350013733
6.0400660037994385,0.20733195543289185,-0.5563820600509644,0.6937133073806763,0.6635767221450806,-0.11387044936418533,-0.6612878441810608
6.060091257095337,0.20695048570632935,-0.5563820600509644,0.693331778049469,0.6651026010513306,-0.11272602528333664,-0.6616693139076233
6.080158472061157,0.20618753135204315,-0.5563820600509644,0.693331778049469,0.6662470698356628,-0.11120012402534485,-0.6620507836341858
6.100251197814941,0.20580606162548065,-0.5563820600509644,0.6929503083229065,0.6662470698356628,-0.10967422276735306,-0.6624323129653931
6.12032151222229,0.20504310727119446,-0.5563820600509644,0.6921873688697815,0.6670100092887878,-0.10662241280078888,-0.6628137826919556
6.140432357788086,0.20504310727119446,-0.5563820600509644,0.691805899143219,0.6677729487419128,-0.10662241280078888,-0.6635767221450806
6.1605224609375,0.20313572883605957,-0.5563820600509644,0.6914244294166565,0.6704432964324951,-0.10471503436565399,-0.6643396615982056
6.180564880371094,0.20313572883605957,-0.5567635893821716,0.6906614899635315,0.6712062358856201,-0.10433356463909149,-0.6651026010513306
6.200761318206787,0.20199130475521088,-0.5567635893821716,0.690280020236969,0.6723506450653076,-0.10166323184967041,-0.6666285395622253
6.220801830291748,0.20160982012748718,-0.5571450591087341,0.690280020236969,0.6742580533027649,-0.10051880776882172,-0.6673914790153503
6.240980625152588,0.20122835040092468,-0.5571450591087341,0.690280020236969,0.6742580533027649,-0.09937438368797302,-0.6689173579216003
6.261210918426514,0.20122835040092468,-0.5571450591087341,0.690280020236969,0.6742580533027649,-0.10051880776882172,-0.6692988276481628
6.28127384185791,0.20122835040092468,-0.5571450591087341,0.690280020236969,0.6742580533027649,-0.09975585341453552,-0.6692988276481628
6.301387548446655,0.20122835040092468,-0.5571450591087341,0.690280020236969,0.6742580533027649,-0.09975585341453552,-0.6692988276481628
6.321554660797119,0.20122835040092468,-0.5571450591087341,0.690280020236969,0.6746395230293274,-0.09937438368797302,-0.6692988276481628
6.341872692108154,0.20084688067436218,-0.5571450591087341,0.6898985505104065,0.6746395230293274,-0.09822995215654373,-0.6696802973747253
6.361977577209473,0.2004653960466385,-0.5575265288352966,0.689517080783844,0.6754024624824524,-0.09670405089855194,-0.6700618267059326
6.382075309753418,0.1997024416923523,-0.5575265288352966,0.6887540817260742,0.6773098111152649,-0.09594109654426575,-0.6704432964324951
6.402156591415405,0.1989395022392273,-0.5575265288352966,0.6883726119995117,0.6780728101730347,-0.09555962681770325,-0.6712062358856201
6.422220945358276,0.1985580176115036,-0.5575265288352966,0.6883726119995117,0.6795986890792847,-0.09517814964056015,-0.6731135845184326
6.44230318069458,0.1974135935306549,-0.5575265288352966,0.6883726119995117,0.6811245679855347,-0.09365224838256836,-0.6738765835762024
6.46245002746582,0.1962691694498062,-0.5575265288352966,0.6883726119995117,0.6818875670433044,-0.09288929402828217,-0.6761654019355774
6.482488632202148,0.19512474536895752,-0.5575265288352966,0.6883726119995117,0.6818875670433044,-0.09174486994743347,-0.6780728101730347
6.5035669803619385,0.19474326074123383,-0.5582894682884216,0.6883726119995117,0.6830319762229919,-0.09136339277029037,-0.6792172193527222
6.523675918579102,0.19474326074123383,-0.5586709380149841,0.6883726119995117,0.6853207945823669,-0.08983749151229858,-0.6799801588058472
6.543786287307739,0.19436179101467133,-0.5598153471946716,0.6879911422729492,0.6857023239135742,-0.08869306743144989,-0.6807430982589722
6.563876628875732,0.19321736693382263,-0.5605783462524414,0.6872282028198242,0.6872282028198242,-0.08602273464202881,-0.6811245679855347
6.58394718170166,0.19092851877212524,-0.5605783462524414,0.6864652633666992,0.6887540817260742,-0.08449683338403702,-0.6815060377120972
6.604261159896851,0.19016556441783905,-0.5605783462524414,0.6860837936401367,0.6891355514526367,-0.08258945494890213,-0.6822690367698669
6.624354839324951,0.18940261006355286,-0.5605783462524414,0.6860837936401367,0.690280020236969,-0.08258945494890213,-0.6837949156761169
6.6444244384765625,0.18863965570926666,-0.5605783462524414,0.6860837936401367,0.6914244294166565,-0.08220797777175903,-0.6845578551292419
6.664578199386597,0.18863965570926666,-0.5605783462524414,0.6860837936401367,0.6921873688697815,-0.08182650804519653,-0.6845578551292419
6.684673547744751,0.18863965570926666,-0.5605783462524414,0.6860837936401367,0.6921873688697815,-0.08144503086805344,-0.6849393248558044
6.704708814620972,0.18863965570926666,-0.5605783462524414,0.6860837936401367,0.692568838596344,-0.07991912961006165,-0.6853207945823669
6.724799394607544,0.18863965570926666,-0.5605783462524414,0.6860837936401367,0.6937133073806763,-0.07839322835206985,-0.6857023239135742
6.745116472244263,0.18863965570926666,-0.5605783462524414,0.6860837936401367,0.6948577165603638,-0.07686731964349747,-0.6864652633666992
6.765232563018799,0.18863965570926666,-0.5605783462524414,0.6860837936401367,0.6963835954666138,-0.07610437273979187,-0.6872282028198242
6.7853474617004395,0.18863965570926666,-0.5605783462524414,0.6860837936401367,0.6963835954666138,-0.07534141838550568,-0.6876096725463867
6.8054423332214355,0.18863965570926666,-0.5605783462524414,0.6860837936401367,0.6967650651931763,-0.07534141838550568,-0.6876096725463867
6.825557470321655,0.18825818598270416,-0.5605783462524414,0.6860837936401367,0.6971465349197388,-0.07534141838550568,-0.6879911422729492
6.846064805984497,0.18825818598270416,-0.5605783462524414,0.6857023239135742,0.697528064250946,-0.07495994865894318,-0.6883726119995117
6.866177558898926,0.18749523162841797,-0.5605783462524414,0.6853207945823669,0.699053943157196,-0.07305257022380829,-0.6887540817260742
6.886269569396973,0.18635080754756927,-0.5605783462524414,0.6853207945823669,0.699816882610321,-0.07038223743438721,-0.6887540817260742
6.906304836273193,0.18596932291984558,-0.5605783462524414,0.6849393248558044,0.699816882610321,-0.06961929053068161,-0.6891355514526367
6.92638897895813,0.1848248988389969,-0.5605783462524414,0.6849393248558044,0.7001983523368835,-0.06923781335353851,-0.6891355514526367
6.946443796157837,0.1840619444847107,-0.5613412857055664,0.6849393248558044,0.700579822063446,-0.06885633617639542,-0.689517080783844
6.96666693687439,0.1840619444847107,-0.5617227554321289,0.6849393248558044,0.7024872303009033,-0.06847485899925232,-0.690280020236969
6.986701726913452,0.1840619444847107,-0.5617227554321289,0.6845578551292419,0.7040131092071533,-0.06771191209554672,-0.6906614899635315
7.006814479827881,0.1832990050315857,-0.5617227554321289,0.6841763854026794,0.7043945789337158,-0.06618601083755493,-0.691805899143219
7.026881694793701,0.1832990050315857,-0.5617227554321289,0.6841763854026794,0.7043945789337158,-0.06466010212898254,-0.692568838596344
7.046947240829468,0.182917520403862,-0.5617227554321289,0.6841763854026794,0.7055390477180481,-0.06237125024199486,-0.693331778049469
7.067096948623657,0.1825360506772995,-0.5617227554321289,0.6841763854026794,0.7070649266242981,-0.061226826161146164,-0.693331778049469
7.0871806144714355,0.1817730963230133,-0.5617227554321289,0.6841763854026794,0.7074463963508606,-0.06046387553215027,-0.6940947771072388
7.107224941253662,0.1813916265964508,-0.5621042251586914,0.6841763854026794,0.7082093358039856,-0.06008239835500717,-0.6952391862869263
7.1272923946380615,0.1813916265964508,-0.5624856948852539,0.6841763854026794,0.7089722752571106,-0.05970092490315437,-0.6956206560134888
7.147383451461792,0.1810101419687271,-0.5624856948852539,0.6841763854026794,0.7108796834945679,-0.05970092490315437,-0.6960021257400513
7.167790651321411,0.17986571788787842,-0.5624856948852539,0.6837949156761169,0.7116426229476929,-0.05893797054886818,-0.6960021257400513
7.187880516052246,0.17910276353359222,-0.5624856948852539,0.6837949156761169,0.7127870321273804,-0.05664911866188049,-0.6963835954666138
7.207977533340454,0.17910276353359222,-0.5624856948852539,0.6841763854026794,0.7143129706382751,-0.054741740226745605,-0.6967650651931763
7.228081226348877,0.17833982408046722,-0.5624856948852539,0.6837949156761169,0.7146944403648376,-0.05359731614589691,-0.6967650651931763
7.248132944107056,0.17681391537189484,-0.5628671646118164,0.6837949156761169,0.7150759100914001,-0.05207141116261482,-0.6979095339775085
7.268242835998535,0.17681391537189484,-0.5636301040649414,0.6837949156761169,0.7154573798179626,-0.051689937710762024,-0.699053943157196
7.288338899612427,0.17681391537189484,-0.5636301040649414,0.6837949156761169,0.7158388495445251,-0.05130846053361893,-0.699816882610321
7.30854868888855,0.17605096101760864,-0.5636301040649414,0.6830319762229919,0.7169833183288574,-0.05130846053361893,-0.699816882610321
7.328622579574585,0.17605096101760864,-0.5636301040649414,0.6834134459495544,0.7181277275085449,-0.05092698708176613,-0.7001983523368835
7.34895658493042,0.17605096101760864,-0.5636301040649414,0.6834134459495544,0.7181277275085449,-0.048638131469488144,-0.700579822063446
7.369046211242676,0.17566949129104614,-0.5636301040649414,0.6830319762229919,0.7185091972351074,-0.04787518084049225,-0.700579822063446
7.389101028442383,0.17452506721019745,-0.5636301040649414,0.6834134459495544,0.7185091972351074,-0.04634927958250046,-0.7013428211212158
7.4093217849731445,0.17376211285591125,-0.5643930435180664,0.6830319762229919,0.7188906669616699,-0.045204851776361465,-0.7024872303009033
7.429333686828613,0.17338064312934875,-0.5643930435180664,0.6830319762229919,0.7192721366882324,-0.04444190114736557,-0.7036316394805908
7.449489593505859,0.17223620414733887,-0.5647745728492737,0.6830319762229919,0.7211795449256897,-0.04444190114736557,-0.7036316394805908
7.469602346420288,0.17185473442077637,-0.5647745728492737,0.6830319762229919,0.7223239541053772,-0.04444190114736557,-0.7036316394805908
7.489645481109619,0.17185473442077637,-0.5647745728492737,0.6830319762229919,0.7227054238319397,-0.04291599988937378,-0.7036316394805908
7.509734869003296,0.17185473442077637,-0.5647745728492737,0.6830319762229919,0.7230868935585022,-0.04139009863138199,-0.7040131092071533
7.5299012660980225,0.17147326469421387,-0.5647745728492737,0.6830319762229919,0.7238498330116272,-0.040627144277095795,-0.7043945789337158
7.549911260604858,0.17071031033992767,-0.5647745728492737,0.6826505064964294,0.7249943017959595,-0.0398641936480999,-0.7047760486602783
7.570014953613281,0.16994735598564148,-0.5647745728492737,0.6822690367698669,0.7257572412490845,-0.039101243019104004,-0.7051575779914856
7.590095520019531,0.16994735598564148,-0.5663004517555237,0.6818875670433044,0.726138710975647,-0.038719769567251205,-0.7059205174446106
7.610245227813721,0.16880293190479279,-0.5670633912086487,0.6818875670433044,0.726901650428772,-0.03757534176111221,-0.7059205174446106
7.630331039428711,0.1676585078239441,-0.5678263306617737,0.6818875670433044,0.7280460596084595,-0.03833829239010811,-0.7066834568977356
7.650552272796631,0.1672770231962204,-0.5685893297195435,0.6815060377120972,0.7291905283927917,-0.03833829239010811,-0.7070649266242981
7.670648813247681,0.1668955534696579,-0.5685893297195435,0.6815060377120972,0.7295719981193542,-0.03643091395497322,-0.7074463963508606
7.690764904022217,0.1668955534696579,-0.5685893297195435,0.6815060377120972,0.7299534678459167,-0.03452353551983833,-0.7078278660774231
7.710819244384766,0.1668955534696579,-0.5685893297195435,0.6815060377120972,0.7303349375724792,-0.03299763426184654,-0.7082093358039856
7.730943918228149,0.1665140837430954,-0.5685893297195435,0.6815060377120972,0.7310978770256042,-0.03147173300385475,-0.7085908055305481
7.750963449478149,0.1661325991153717,-0.5685893297195435,0.6815060377120972,0.732623815536499,-0.03032730519771576,-0.7104982137680054
7.771057605743408,0.1657511293888092,-0.568970799446106,0.6815060377120972,0.7330052852630615,-0.02880140393972397,-0.7112611532211304
7.791244983673096,0.1646067053079605,-0.569733738899231,0.6815060377120972,0.733386754989624,-0.026512550190091133,-0.7112611532211304
7.811572551727295,0.1646067053079605,-0.569733738899231,0.6815060377120972,0.7337682247161865,-0.026131074875593185,-0.7116426229476929
7.831710577011108,0.16384375095367432,-0.569733738899231,0.6815060377120972,0.734912633895874,-0.026512550190091133,-0.7116426229476929
7.851795673370361,0.16231784224510193,-0.569733738899231,0.6815060377120972,0.7360570430755615,-0.025749599561095238,-0.7120240926742554
7.8719048500061035,0.16155488789081573,-0.569733738899231,0.6815060377120972,0.7368200421333313,-0.02536812424659729,-0.7127870321273804
7.89194393157959,0.16117341816425323,-0.569733738899231,0.6815060377120972,0.7375829815864563,-0.02536812424659729,-0.7131685614585876
7.912122488021851,0.16002899408340454,-0.5701152086257935,0.6815060377120972,0.7379644513130188,-0.024605173617601395,-0.7139315009117126
7.93222713470459,0.15964750945568085,-0.5708781480789185,0.6815060377120972,0.7383459210395813,-0.024605173617601395,-0.7143129706382751
7.952298879623413,0.15964750945568085,-0.5708781480789185,0.6815060377120972,0.7398717999458313,-0.02384222112596035,-0.7143129706382751
7.972929954528809,0.15964750945568085,-0.5708781480789185,0.6815060377120972,0.7406347990036011,-0.024223696440458298,-0.7143129706382751
7.993024110794067,0.15964750945568085,-0.5708781480789185,0.6811245679855347,0.7413977384567261,-0.023460745811462402,-0.7146944403648376
8.013094902038574,0.15926603972911835,-0.5716410875320435,0.6811245679855347,0.7421606779098511,-0.021553369238972664,-0.7150759100914001
8.033174753189087,0.15850308537483215,-0.572022557258606,0.6811245679855347,0.7425421476364136,-0.01888304017484188,-0.7150759100914001
8.053303003311157,0.15774014592170715,-0.5724040865898132,0.6811245679855347,0.7433050870895386,-0.01773861236870289,-0.7154573798179626
8.073335886001587,0.15774014592170715,-0.5727855563163757,0.6811245679855347,0.7440680265426636,-0.01735713705420494,-0.7154573798179626
8.093461036682129,0.15735866129398346,-0.5727855563163757,0.6811245679855347,0.7444495558738708,-0.01735713705420494,-0.7154573798179626
8.113532543182373,0.15697719156742096,-0.5727855563163757,0.6811245679855347,0.7448310256004333,-0.016975661739706993,-0.7158388495445251
8.133600950241089,0.15545128285884857,-0.5727855563163757,0.6811245679855347,0.7452124953269958,-0.016212711110711098,-0.7158388495445251
8.15370798110962,0.15430685877799988,-0.5731670260429382,0.6811245679855347,0.7455939650535583,-0.01430533267557621,-0.7173647880554199
8.173791408538818,0.15430685877799988,-0.5739299654960632,0.6811245679855347,0.7463569045066833,-0.013542382046580315,-0.7185091972351074
8.193887948989868,0.15316243469715118,-0.5739299654960632,0.6811245679855347,0.7478827834129333,-0.012397955171763897,-0.7188906669616699
8.214026927947998,0.152399480342865,-0.5743114352226257,0.6811245679855347,0.7486457824707031,-0.012397955171763897,-0.7192721366882324
8.234167575836182,0.152399480342865,-0.5746929049491882,0.6811245679855347,0.7486457824707031,-0.01201647985726595,-0.7192721366882324
8.254258632659912,0.152399480342865,-0.5750743746757507,0.6811245679855347,0.7490272521972656,-0.010872052982449532,-0.7200350761413574
8.274366617202759,0.152399480342865,-0.5750743746757507,0.6811245679855347,0.7494087219238281,-0.009346150793135166,-0.7207980751991272
8.294428825378418,0.152399480342865,-0.5750743746757507,0.6811245679855347,0.7501716613769531,-0.008964675478637218,-0.7211795449256897
8.31453824043274,0.152399480342865,-0.5758373141288757,0.6811245679855347,0.7505531311035156,-0.0078202486038208,-0.7219424843788147
8.334659576416016,0.1520180106163025,-0.576218843460083,0.6811245679855347,0.7516975402832031,-0.005531395319849253,-0.7219424843788147
8.354785442352295,0.1516365259885788,-0.576218843460083,0.6811245679855347,0.7520790696144104,-0.005149920005351305,-0.7219424843788147
8.3748459815979,0.1508735716342926,-0.5766003131866455,0.6811245679855347,0.7524605393409729,-0.004005493130534887,-0.7219424843788147
8.394968271255493,0.1497291475534439,-0.576981782913208,0.6811245679855347,0.7528420090675354,-0.0020981156267225742,-0.7223239541053772
8.415037870407104,0.14820325374603271,-0.576981782913208,0.6811245679855347,0.7536049485206604,-0.001716639962978661,-0.7223239541053772
8.43511700630188,0.14782176911830902,-0.576981782913208,0.6811245679855347,0.7551308274269104,-0.001716639962978661,-0.7223239541053772
8.455206155776978,0.14744029939174652,-0.5773632526397705,0.6811245679855347,0.7562752962112427,-0.000572213320992887,-0.7223239541053772
8.475268840789795,0.14744029939174652,-0.5781261920928955,0.6811245679855347,0.7566567659378052,0.00019073777366429567,-0.7227054238319397
8.495378971099854,0.14744029939174652,-0.5788891315460205,0.6811245679855347,0.7570382356643677,0.001716639962978661,-0.7227054238319397
8.515475749969482,0.14744029939174652,-0.5788891315460205,0.6811245679855347,0.7578011751174927,0.0013351644156500697,-0.7230868935585022
8.536117792129517,0.14705882966518402,-0.5788891315460205,0.6811245679855347,0.7578011751174927,0.0013351644156500697,-0.7230868935585022
8.55624771118164,0.14705882966518402,-0.5788891315460205,0.6811245679855347,0.7585641145706177,0.0020981156267225742,-0.7234683632850647
8.576336145401001,0.14591439068317413,-0.5788891315460205,0.6811245679855347,0.7589455842971802,0.0036240178160369396,-0.7238498330116272
8.596760988235474,0.14515145123004913,-0.5788891315460205,0.6815060377120972,0.7593270540237427,0.004386968910694122,-0.724612832069397
8.616873502731323,0.14515145123004913,-0.5788891315460205,0.6815060377120972,0.7593270540237427,0.00476844422519207,-0.725375771522522
8.636915922164917,0.14515145123004913,-0.5788891315460205,0.6815060377120972,0.7597085237503052,0.004005493130534887,-0.725375771522522
8.657043933868408,0.14515145123004913,-0.579270601272583,0.6815060377120972,0.7597085237503052,0.004386968910694122,-0.726138710975647
8.67711853981018,0.14515145123004913,-0.580033540725708,0.6815060377120972,0.7597085237503052,0.00476844422519207,-0.7265201807022095
8.697202920913696,0.14476996660232544,-0.5811780095100403,0.6815060377120972,0.7600900530815125,0.007438773289322853,-0.726901650428772
8.717372417449951,0.14438849687576294,-0.5819409489631653,0.6815060377120972,0.760471522808075,0.00858320016413927,-0.727664589881897
8.737536191940308,0.14286258816719055,-0.5823224186897278,0.6815060377120972,0.7608529925346375,0.009346150793135166,-0.7288090586662292
8.757630586624146,0.14133669435977936,-0.5830853581428528,0.6815060377120972,0.761997401714325,0.010490577667951584,-0.7299534678459167
8.777760982513428,0.13828489184379578,-0.5834668278694153,0.6815060377120972,0.76276034116745,0.01125352829694748,-0.7303349375724792
8.797844171524048,0.1356145590543747,-0.5842298269271851,0.6815060377120972,0.7631418108940125,0.01201647985726595,-0.7303349375724792
8.81791377067566,0.134470134973526,-0.5849927663803101,0.6815060377120972,0.7642862796783447,0.011635004542768002,-0.7307164072990417
8.837993860244751,0.1325627565383911,-0.5853742361068726,0.6815060377120972,0.7654306888580322,0.01201647985726595,-0.7303349375724792
8.85808539390564,0.1325627565383911,-0.5853742361068726,0.6815060377120972,0.7665750980377197,0.01125352829694748,-0.7307164072990417
8.87830924987793,0.1325627565383911,-0.5853742361068726,0.6815060377120972,0.7669565677642822,0.012397955171763897,-0.7307164072990417
8.898404836654663,0.1329442262649536,-0.5853742361068726,0.6818875670433044,0.7673380374908447,0.01430533267557621,-0.7307164072990417
8.91847825050354,0.1333257108926773,-0.5849927663803101,0.6818875670433044,0.767719566822052,0.019645990803837776,-0.7307164072990417
8.938660144805908,0.1337071806192398,-0.5849927663803101,0.6822690367698669,0.768482506275177,0.021553369238972664,-0.7307164072990417
8.958680868148804,0.1340886503458023,-0.5849927663803101,0.6822690367698669,0.7696269154548645,0.023460745811462402,-0.7310978770256042
8.978931665420532,0.1359960287809372,-0.5849927663803101,0.6822690367698669,0.7703898549079895,0.024223696440458298,-0.7310978770256042
8.99902868270874,0.1371404528617859,-0.5849927663803101,0.6822690367698669,0.7711527943611145,0.024605173617601395,-0.7310978770256042
9.019102573394775,0.13790340721607208,-0.5853742361068726,0.6822690367698669,0.7719157934188843,0.024223696440458298,-0.7310978770256042
9.03968334197998,0.13790340721607208,-0.5853742361068726,0.6822690367698669,0.7734416723251343,0.026131074875593185,-0.7318608164787292
9.059778451919556,0.13790340721607208,-0.5853742361068726,0.6826505064964294,0.7742046117782593,0.02689402550458908,-0.7322422862052917
9.07984209060669,0.13790340721607208,-0.5853742361068726,0.6830319762229919,0.7745860815048218,0.02689402550458908,-0.7330052852630615
9.100013732910156,0.13790340721607208,-0.5853742361068726,0.6830319762229919,0.7749675512313843,0.028038453310728073,-0.7330052852630615
9.1202073097229,0.13752193748950958,-0.5861371755599976,0.6834134459495544,0.775730550289154,0.027656977996230125,-0.7330052852630615
9.140411138534546,0.13752193748950958,-0.5865186452865601,0.6834134459495544,0.7761120200157166,0.028038453310728073,-0.7330052852630615
9.160459756851196,0.13752193748950958,-0.5872815847396851,0.6834134459495544,0.7768749594688416,0.027656977996230125,-0.7330052852630615
9.180522918701172,0.1371404528617859,-0.5872815847396851,0.6834134459495544,0.777256429195404,0.027656977996230125,-0.7330052852630615
9.200587034225464,0.1367589831352234,-0.5876630544662476,0.6834134459495544,0.777256429195404,0.027656977996230125,-0.7330052852630615
9.22114086151123,0.1363775134086609,-0.5880445837974548,0.6834134459495544,0.777256429195404,0.02841992862522602,-0.733386754989624
9.241270065307617,0.1356145590543747,-0.5884260535240173,0.6834134459495544,0.7776378989219666,0.03032730519771576,-0.733386754989624
9.261504173278809,0.1337071806192398,-0.5884260535240173,0.6834134459495544,0.7776378989219666,0.03032730519771576,-0.733386754989624
9.281605005264282,0.1325627565383911,-0.5884260535240173,0.6834134459495544,0.7776378989219666,0.02994582988321781,-0.733386754989624
9.30165958404541,0.13103684782981873,-0.5891889929771423,0.6834134459495544,0.778019368648529,0.030708782374858856,-0.733386754989624
9.321738719940186,0.13065537810325623,-0.5891889929771423,0.6834134459495544,0.778782308101654,0.031090257689356804,-0.7337682247161865
9.341886520385742,0.13065537810325623,-0.5895704627037048,0.6834134459495544,0.7791637778282166,0.03223468363285065,-0.7337682247161865
9.361946821212769,0.13065537810325623,-0.5895704627037048,0.6834134459495544,0.7791637778282166,0.03299763426184654,-0.7337682247161865
9.382088899612427,0.13065537810325623,-0.5895704627037048,0.6834134459495544,0.7795453071594238,0.03452353551983833,-0.734149694442749
9.402156352996826,0.13027389347553253,-0.5903334021568298,0.6834134459495544,0.7799267768859863,0.035667963325977325,-0.734912633895874
9.422319412231445,0.12989242374897003,-0.5903334021568298,0.6834134459495544,0.7810711860656738,0.03833829239010811,-0.735675573348999
9.442389011383057,0.12912946939468384,-0.5903334021568298,0.6834134459495544,0.7814526557922363,0.038719769567251205,-0.7364385724067688
9.462459325790405,0.12836651504039764,-0.5903334021568298,0.6837949156761169,0.7822155952453613,0.038719769567251205,-0.7368200421333313
9.482608079910278,0.12836651504039764,-0.5903334021568298,0.6841763854026794,0.7825970649719238,0.038719769567251205,-0.7368200421333313
9.502671480178833,0.12798504531383514,-0.5907148718833923,0.6841763854026794,0.7837415337562561,0.0398641936480999,-0.7364385724067688
9.522752285003662,0.12684062123298645,-0.5907148718833923,0.6841763854026794,0.7845044732093811,0.04177157208323479,-0.7368200421333313
9.54281997680664,0.12607766687870026,-0.5914778113365173,0.6841763854026794,0.7852674126625061,0.04329747334122658,-0.7368200421333313
9.56288766860962,0.12645913660526276,-0.5914778113365173,0.6841763854026794,0.7856488823890686,0.045204851776361465,-0.7368200421333313
9.582989692687988,0.12645913660526276,-0.5918593406677246,0.6841763854026794,0.7856488823890686,0.045204851776361465,-0.7372015118598938
9.60307788848877,0.12607766687870026,-0.5926222801208496,0.6841763854026794,0.7860303521156311,0.04596780240535736,-0.7372015118598938
9.62316083908081,0.12493324279785156,-0.5933852195739746,0.6841763854026794,0.7864118218421936,0.04787518084049225,-0.7372015118598938
9.64333963394165,0.12493324279785156,-0.5933852195739746,0.6841763854026794,0.7871748208999634,0.04787518084049225,-0.7375829815864563
9.66332197189331,0.12493324279785156,-0.5933852195739746,0.6841763854026794,0.7879377603530884,0.04787518084049225,-0.7375829815864563
9.683430194854736,0.12417028844356537,-0.5933852195739746,0.6845578551292419,0.7883192300796509,0.04901960864663124,-0.7375829815864563
9.70350694656372,0.12378881871700287,-0.5933852195739746,0.6849393248558044,0.7890821695327759,0.049782559275627136,-0.7379644513130188
9.723585844039917,0.12340734153985977,-0.5937666893005371,0.6853207945823669,0.7894636392593384,0.05054550990462303,-0.7379644513130188
9.74367618560791,0.12302586436271667,-0.5937666893005371,0.6853207945823669,0.7894636392593384,0.051689937710762024,-0.7383459210395813
9.763861179351807,0.12264438718557358,-0.5937666893005371,0.6857023239135742,0.7898451089859009,0.051689937710762024,-0.7387273907661438
9.783970594406128,0.12226291000843048,-0.5941481590270996,0.6857023239135742,0.7902265787124634,0.05207141116261482,-0.7391088604927063
9.804086923599243,0.12188144028186798,-0.5945296287536621,0.6860837936401367,0.7906080484390259,0.05245288833975792,-0.7398717999458313
9.824117660522461,0.12111848592758179,-0.5952925682067871,0.6860837936401367,0.7909895181655884,0.05245288833975792,-0.7402533292770386
9.84426736831665,0.1199740618467331,-0.5956740379333496,0.6857023239135742,0.7913710474967957,0.05245288833975792,-0.7402533292770386
9.864848613739014,0.1188296303153038,-0.5956740379333496,0.6857023239135742,0.7925154566764832,0.05283436179161072,-0.7406347990036011
9.884937286376953,0.1188296303153038,-0.5960555672645569,0.6857023239135742,0.7928969264030457,0.053215838968753815,-0.7406347990036011
9.905014276504517,0.1184481605887413,-0.5968185067176819,0.6857023239135742,0.7932783961296082,0.05359731614589691,-0.7406347990036011
9.925280570983887,0.1180666834115982,-0.5968185067176819,0.6853207945823669,0.7936598658561707,0.05397878959774971,-0.7402533292770386
9.945376873016357,0.1180666834115982,-0.5971999764442444,0.6849393248558044,0.7936598658561707,0.053215838968753815,-0.7406347990036011
9.965448141098022,0.1180666834115982,-0.5975814461708069,0.6849393248558044,0.7936598658561707,0.05359731614589691,-0.7406347990036011
9.985588788986206,0.1180666834115982,-0.5979629158973694,0.6849393248558044,0.7940413355827332,0.054741740226745605,-0.7410162687301636
10.005677223205566,0.11768520623445511,-0.5987258553504944,0.6849393248558044,0.7951858043670654,0.0551232174038887,-0.7410162687301636
10.026015996932983,0.11654078215360641,-0.5991073250770569,0.6849393248558044,0.7967116832733154,0.05703059583902359,-0.7410162687301636
10.046044111251831,0.11577782779932022,-0.6002517938613892,0.6849393248558044,0.7974746227264404,0.058175019919872284,-0.7410162687301636
10.066109418869019,0.11463340371847153,-0.6010147333145142,0.6849393248558044,0.7978560924530029,0.05855649709701538,-0.7413977384567261
10.08619737625122,0.11387044936418533,-0.6025406122207642,0.6849393248558044,0.7982375621795654,0.05893797054886818,-0.7413977384567261
10.106314897537231,0.11272602528333664,-0.6029220819473267,0.6849393248558044,0.7990005612373352,0.059319447726011276,-0.7417792081832886
10.126423358917236,0.11234454810619354,-0.6029220819473267,0.6849393248558044,0.7997635006904602,0.05970092490315437,-0.7417792081832886
10.14650297164917,0.11234454810619354,-0.6029220819473267,0.6853207945823669,0.8005264401435852,0.06046387553215027,-0.7417792081832886
10.166645526885986,0.11196307092905045,-0.6025406122207642,0.6860837936401367,0.8009079098701477,0.06313420087099075,-0.7421606779098511
10.18671989440918,0.11158160120248795,-0.6025406122207642,0.6864652633666992,0.8016708493232727,0.06542305648326874,-0.7425421476364136
10.20686149597168,0.11196307092905045,-0.6025406122207642,0.6864652633666992,0.8024337887763977,0.06809338182210922,-0.7433050870895386
10.226999044418335,0.11196307092905045,-0.6025406122207642,0.6864652633666992,0.8031967878341675,0.07038223743438721,-0.7440680265426636
10.247043371200562,0.11196307092905045,-0.6025406122207642,0.6864652633666992,0.80357825756073,0.0711451917886734,-0.7444495558738708
10.267114639282227,0.11196307092905045,-0.6025406122207642,0.6864652633666992,0.80357825756073,0.0715266615152359,-0.7444495558738708
10.287192344665527,0.11196307092905045,-0.6025406122207642,0.6864652633666992,0.8039597272872925,0.071908138692379,-0.7448310256004333
10.307366609573364,0.11158160120248795,-0.6025406122207642,0.6864652633666992,0.8039597272872925,0.071908138692379,-0.7448310256004333
10.327484369277954,0.11196307092905045,-0.6025406122207642,0.6864652633666992,0.804341197013855,0.0715266615152359,-0.7448310256004333
10.347899436950684,0.11158160120248795,-0.6025406122207642,0.6864652633666992,0.8047226667404175,0.0715266615152359,-0.7448310256004333
10.36809229850769,0.11158160120248795,-0.6029220819473267,0.6868467330932617,0.8047226667404175,0.071908138692379,-0.7448310256004333
10.388223886489868,0.11158160120248795,-0.6029220819473267,0.6872282028198242,0.80510413646698,0.07267109304666519,-0.7448310256004333
10.40837025642395,0.11081864684820175,-0.6029220819473267,0.6876096725463867,0.805867075920105,0.07457847148180008,-0.7448310256004333
10.428794860839844,0.11043716967105865,-0.6029220819473267,0.6876096725463867,0.8070115447044373,0.07648584991693497,-0.7448310256004333
10.448888301849365,0.10929274559020996,-0.6029220819473267,0.6876096725463867,0.8081559538841248,0.07915617525577545,-0.7448310256004333
10.468952894210815,0.10891126841306686,-0.6033035516738892,0.6876096725463867,0.8085374236106873,0.07877469807863235,-0.7448310256004333
10.489051342010498,0.10852979123592377,-0.6036850810050964,0.6876096725463867,0.8089188933372498,0.07915617525577545,-0.7448310256004333
10.509133100509644,0.10814831405878067,-0.6040665507316589,0.6876096725463867,0.8093003630638123,0.07915617525577545,-0.7448310256004333
10.529189825057983,0.10814831405878067,-0.6040665507316589,0.6876096725463867,0.8096818327903748,0.07915617525577545,-0.7448310256004333
10.549301385879517,0.10738536715507507,-0.6052109599113464,0.6876096725463867,0.8100633025169373,0.07953765243291855,-0.7452124953269958
10.569425344467163,0.10738536715507507,-0.6052109599113464,0.6879911422729492,0.8104447722434998,0.08030059933662415,-0.7452124953269958
10.589747667312622,0.10662241280078888,-0.6055924296379089,0.6879911422729492,0.810826301574707,0.08030059933662415,-0.7452124953269958
10.60984754562378,0.10662241280078888,-0.6059738993644714,0.6879911422729492,0.8112077713012695,0.08068207651376724,-0.7452124953269958
10.629921436309814,0.10624094307422638,-0.6059738993644714,0.6883726119995117,0.811589241027832,0.08220797777175903,-0.7452124953269958
10.64997935295105,0.10585946589708328,-0.6059738993644714,0.6883726119995117,0.811589241027832,0.08220797777175903,-0.7452124953269958
10.670069694519043,0.10547798871994019,-0.6059738993644714,0.6883726119995117,0.811589241027832,0.08335240930318832,-0.7452124953269958
10.690127849578857,0.10547798871994019,-0.6067368388175964,0.6883726119995117,0.8119707107543945,0.08449683338403702,-0.7452124953269958
10.71021842956543,0.10433356463909149,-0.6071183085441589,0.6883726119995117,0.812352180480957,0.0864042118191719,-0.7455939650535583
10.730321168899536,0.1031891331076622,-0.6078813076019287,0.6883726119995117,0.8127336502075195,0.0871671661734581,-0.7455939650535583
10.750413417816162,0.10204470902681351,-0.6082627773284912,0.6883726119995117,0.8127336502075195,0.0871671661734581,-0.7459754347801208
10.770561218261719,0.10204470902681351,-0.6090257167816162,0.6883726119995117,0.813115119934082,0.086785688996315,-0.7459754347801208
10.790576696395874,0.10128175467252731,-0.6097886562347412,0.6883726119995117,0.8146410584449768,0.0875486359000206,-0.7459754347801208
10.81068229675293,0.10128175467252731,-0.6101701259613037,0.6883726119995117,0.8154039978981018,0.0875486359000206,-0.7459754347801208
10.830808639526367,0.10128175467252731,-0.6101701259613037,0.6883726119995117,0.8161669373512268,0.0875486359000206,-0.7459754347801208
10.850872993469238,0.10128175467252731,-0.6105515956878662,0.6883726119995117,0.8165484070777893,0.0875486359000206,-0.7467383742332458
10.871025800704956,0.10128175467252731,-0.6109330654144287,0.6883726119995117,0.8173113465309143,0.08945601433515549,-0.7471198439598083
10.891048431396484,0.10128175467252731,-0.6113145351409912,0.6883726119995117,0.8180742859840393,0.09174486994743347,-0.7478827834129333
10.911396503448486,0.10128175467252731,-0.6113145351409912,0.6887540817260742,0.8184558153152466,0.09327077120542526,-0.7478827834129333
10.931481122970581,0.10090028494596481,-0.6113145351409912,0.6887540817260742,0.8188372850418091,0.09327077120542526,-0.7478827834129333
10.951541662216187,0.10051880776882172,-0.6113145351409912,0.689517080783844,0.8192187547683716,0.09327077120542526,-0.7478827834129333
10.97161316871643,0.09975585341453552,-0.612077534198761,0.6898985505104065,0.8192187547683716,0.09365224838256836,-0.7478827834129333
10.991743087768555,0.09899290651082993,-0.6124590039253235,0.690280020236969,0.8192187547683716,0.09555962681770325,-0.7478827834129333
11.01182222366333,0.09899290651082993,-0.6124590039253235,0.6906614899635315,0.8192187547683716,0.09632257372140884,-0.7482643127441406
11.03199553489685,0.09822995215654373,-0.6124590039253235,0.690280020236969,0.8192187547683716,0.09670405089855194,-0.7482643127441406
11.05204153060913,0.09822995215654373,-0.612840473651886,0.690280020236969,0.8196002244949341,0.09708552807569504,-0.7482643127441406
11.072135925292969,0.09784847497940063,-0.6132219433784485,0.6906614899635315,0.8199816942214966,0.09784847497940063,-0.7482643127441406
11.092211484909058,0.09708552807569504,-0.613603413105011,0.6906614899635315,0.8199816942214966,0.09861142933368683,-0.7482643127441406
11.112655639648438,0.09708552807569504,-0.613603413105011,0.690280020236969,0.8207446336746216,0.09861142933368683,-0.7482643127441406
11.132787704467773,0.09708552807569504,-0.613603413105011,0.690280020236969,0.8215075731277466,0.09899290651082993,-0.7482643127441406
11.152883768081665,0.09670405089855194,-0.6139848828315735,0.6906614899635315,0.8222705721855164,0.10013733059167862,-0.7482643127441406
11.172962188720703,0.09594109654426575,-0.614366352558136,0.6906614899635315,0.8226520419120789,0.10128175467252731,-0.7482643127441406
11.193045377731323,0.09555962681770325,-0.614366352558136,0.690280020236969,0.8226520419120789,0.10166323184967041,-0.7486457824707031
11.213102102279663,0.09517814964056015,-0.6147478222846985,0.6906614899635315,0.8230335116386414,0.10166323184967041,-0.7486457824707031
11.233302354812622,0.09517814964056015,-0.6155108213424683,0.6906614899635315,0.8234149813652039,0.1024261862039566,-0.7486457824707031
11.253389835357666,0.09479667246341705,-0.6162737607955933,0.6906614899635315,0.8241779208183289,0.1031891331076622,-0.7486457824707031
11.273946523666382,0.09403372555971146,-0.6166552305221558,0.6906614899635315,0.8249408602714539,0.1035706102848053,-0.7486457824707031
11.29405951499939,0.09403372555971146,-0.6174181699752808,0.6906614899635315,0.8257037997245789,0.1031891331076622,-0.7490272521972656
11.314128160476685,0.09403372555971146,-0.6177996397018433,0.6906614899635315,0.8260852694511414,0.10471503436565399,-0.7490272521972656
11.334221839904785,0.09403372555971146,-0.6177996397018433,0.691042959690094,0.8260852694511414,0.10471503436565399,-0.7490272521972656
11.354349374771118,0.09365224838256836,-0.6174181699752808,0.6914244294166565,0.8264667987823486,0.10509651154279709,-0.7490272521972656
11.374404430389404,0.09288929402828217,-0.6177996397018433,0.691805899143219,0.8268482685089111,0.10738536715507507,-0.7490272521972656
11.394535541534424,0.09250781685113907,-0.6174181699752808,0.6921873688697815,0.8268482685089111,0.10852979123592377,-0.7494087219238281
11.414654016494751,0.09212634712457657,-0.6177996397018433,0.6921873688697815,0.8272297382354736,0.10891126841306686,-0.7494087219238281
11.43469786643982,0.09212634712457657,-0.6177996397018433,0.6921873688697815,0.8279926776885986,0.10929274559020996,-0.7494087219238281
11.454769611358643,0.09212634712457657,-0.6181811094284058,0.6921873688697815,0.8279926776885986,0.10852979123592377,-0.7494087219238281
11.47490119934082,0.09174486994743347,-0.6185625791549683,0.6921873688697815,0.8283741474151611,0.10929274559020996,-0.7497901916503906
11.495000123977661,0.09174486994743347,-0.6185625791549683,0.6921873688697815,0.8291370868682861,0.10929274559020996,-0.7501716613769531
11.515135526657104,0.09098191559314728,-0.619325578212738,0.6921873688697815,0.8295185565948486,0.10929274559020996,-0.7509346008300781
11.535261154174805,0.09098191559314728,-0.619325578212738,0.692568838596344,0.8299000263214111,0.11120012402534485,-0.7516975402832031
11.555476188659668,0.09060044586658478,-0.6197070479393005,0.692568838596344,0.8306630253791809,0.11158160120248795,-0.7513160705566406
11.575545072555542,0.08983749151229858,-0.6197070479393005,0.692568838596344,0.8306630253791809,0.11234454810619354,-0.7513160705566406
11.595707416534424,0.08945601433515549,-0.6197070479393005,0.692568838596344,0.8314259648323059,0.11348897218704224,-0.7516975402832031
11.615787982940674,0.08945601433515549,-0.6197070479393005,0.692568838596344,0.8325703740119934,0.11425192654132843,-0.7516975402832031
11.636409997940063,0.08907453715801239,-0.6197070479393005,0.692568838596344,0.8329518437385559,0.11539635062217712,-0.7516975402832031
11.656501054763794,0.08907453715801239,-0.620088517665863,0.692568838596344,0.8337147831916809,0.11615930497646332,-0.7516975402832031
11.676545143127441,0.08907453715801239,-0.6204699873924255,0.692568838596344,0.8337147831916809,0.11692225188016891,-0.7516975402832031
11.69664216041565,0.08907453715801239,-0.6204699873924255,0.692568838596344,0.8340963125228882,0.11692225188016891,-0.7516975402832031
11.71685791015625,0.0879301130771637,-0.6204699873924255,0.6929503083229065,0.8344777822494507,0.11730372905731201,-0.7516975402832031
11.736858606338501,0.0875486359000206,-0.620851457118988,0.693331778049469,0.8344777822494507,0.1180666834115982,-0.7516975402832031
11.757000923156738,0.0875486359000206,-0.621614396572113,0.6937133073806763,0.8352407217025757,0.1192111074924469,-0.7516975402832031
11.777062892913818,0.0871671661734581,-0.6227588057518005,0.6937133073806763,0.8360036611557007,0.12226291000843048,-0.7516975402832031
11.797194242477417,0.0871671661734581,-0.6235218048095703,0.6937133073806763,0.8367666006088257,0.12302586436271667,-0.7516975402832031
11.81731128692627,0.0871671661734581,-0.6239032745361328,0.6937133073806763,0.8367666006088257,0.12340734153985977,-0.7516975402832031
11.837347984313965,0.086785688996315,-0.6246662139892578,0.6937133073806763,0.8367666006088257,0.12340734153985977,-0.7516975402832031
11.85747742652893,0.086785688996315,-0.6246662139892578,0.6937133073806763,0.8371480703353882,0.12340734153985977,-0.7516975402832031
11.877521514892578,0.0864042118191719,-0.6246662139892578,0.6940947771072388,0.8375295400619507,0.12378881871700287,-0.7516975402832031
11.897602319717407,0.08564125746488571,-0.6246662139892578,0.6944762468338013,0.837911069393158,0.12417028844356537,-0.7516975402832031
11.917685508728027,0.08487831056118011,-0.6246662139892578,0.6944762468338013,0.837911069393158,0.12455176562070847,-0.7516975402832031
11.937950611114502,0.08487831056118011,-0.6246662139892578,0.6944762468338013,0.8382925391197205,0.12455176562070847,-0.7516975402832031
11.958039045333862,0.08449683338403702,-0.6246662139892578,0.6944762468338013,0.838674008846283,0.12455176562070847,-0.7516975402832031
11.978095054626465,0.08373387902975082,-0.6246662139892578,0.6948577165603638,0.838674008846283,0.12569619715213776,-0.7516975402832031
11.998193264007568,0.08373387902975082,-0.6246662139892578,0.6948577165603638,0.839436948299408,0.12607766687870026,-0.7516975402832031
12.01826286315918,0.08297093212604523,-0.6246662139892578,0.6948577165603638,0.840199887752533,0.12836651504039764,-0.7516975402832031
12.0383460521698,0.08297093212604523,-0.6250476837158203,0.6956206560134888,0.840962827205658,0.12912946939468384,-0.7520790696144104
12.058424711227417,0.08258945494890213,-0.6250476837158203,0.6956206560134888,0.8413442969322205,0.13065537810325623,-0.7520790696144104
12.078510522842407,0.08220797777175903,-0.6250476837158203,0.6956206560134888,0.8413442969322205,0.13065537810325623,-0.7520790696144104
12.098609209060669,0.08182650804519653,-0.6258106231689453,0.6956206560134888,0.841725766658783,0.13103684782981873,-0.7520790696144104
12.11868691444397,0.08144503086805344,-0.6265735626220703,0.6956206560134888,0.8421072959899902,0.13141833245754242,-0.7520790696144104
12.138856410980225,0.08106355369091034,-0.6269550919532776,0.6956206560134888,0.8421072959899902,0.13103684782981873,-0.7520790696144104
12.158950328826904,0.08068207651376724,-0.6269550919532776,0.6956206560134888,0.8424887657165527,0.13065537810325623,-0.7520790696144104
12.17900824546814,0.08030059933662415,-0.6269550919532776,0.6956206560134888,0.8428702354431152,0.13103684782981873,-0.7524605393409729
12.199102878570557,0.07991912961006165,-0.6269550919532776,0.6956206560134888,0.8440146446228027,0.13218127191066742,-0.7524605393409729
12.219200849533081,0.07953765243291855,-0.6269550919532776,0.6956206560134888,0.8447775840759277,0.13218127191066742,-0.7524605393409729
12.239254474639893,0.07953765243291855,-0.6273365616798401,0.6956206560134888,0.8447775840759277,0.13218127191066742,-0.7524605393409729
12.2592933177948,0.07953765243291855,-0.6280995011329651,0.6956206560134888,0.8451590538024902,0.1329442262649536,-0.7524605393409729
12.279357433319092,0.07953765243291855,-0.6288624405860901,0.6956206560134888,0.8455405235290527,0.1333257108926773,-0.7528420090675354
12.299625158309937,0.07953765243291855,-0.6292439103126526,0.6956206560134888,0.8451590538024902,0.1337071806192398,-0.7528420090675354
12.319589614868164,0.07877469807863235,-0.6296253800392151,0.6956206560134888,0.8455405235290527,0.1340886503458023,-0.7528420090675354
12.339834928512573,0.07839322835206985,-0.6300068497657776,0.6956206560134888,0.8455405235290527,0.1363775134086609,-0.7532234787940979
12.359930038452148,0.07763027399778366,-0.6300068497657776,0.6956206560134888,0.8455405235290527,0.13752193748950958,-0.7532234787940979
12.380070447921753,0.07763027399778366,-0.6300068497657776,0.6956206560134888,0.84592205286026,0.1371404528617859,-0.7532234787940979
12.400151252746582,0.07763027399778366,-0.6300068497657776,0.6960021257400513,0.8463035225868225,0.13790340721607208,-0.7536049485206604
12.420210838317871,0.07763027399778366,-0.6300068497657776,0.6960021257400513,0.8470664620399475,0.13828489184379578,-0.7536049485206604
12.440377712249756,0.07724879682064056,-0.6300068497657776,0.6960021257400513,0.8478294014930725,0.13866636157035828,-0.7536049485206604
12.46039891242981,0.07686731964349747,-0.6300068497657776,0.6960021257400513,0.8485923409461975,0.13904783129692078,-0.7539864182472229
12.480472087860107,0.07648584991693497,-0.6303883194923401,0.6960021257400513,0.8485923409461975,0.13942931592464447,-0.7547493577003479
12.500565528869629,0.07534141838550568,-0.6303883194923401,0.6963835954666138,0.84897381067276,0.13981078565120697,-0.7555122971534729
12.520631074905396,0.07534141838550568,-0.6319142580032349,0.6967650651931763,0.84897381067276,0.13981078565120697,-0.7555122971534729
12.540766477584839,0.07495994865894318,-0.6322957277297974,0.6967650651931763,0.8497368097305298,0.14209964871406555,-0.7555122971534729
12.560794115066528,0.07457847148180008,-0.6330586671829224,0.6967650651931763,0.8497368097305298,0.14133669435977936,-0.7555122971534729
12.581008434295654,0.07457847148180008,-0.6330586671829224,0.6967650651931763,0.8497368097305298,0.14095520973205566,-0.7555122971534729
12.601165771484375,0.07457847148180008,-0.6330586671829224,0.6967650651931763,0.8497368097305298,0.14171816408634186,-0.7555122971534729
12.62159514427185,0.07457847148180008,-0.6330586671829224,0.6967650651931763,0.8497368097305298,0.14209964871406555,-0.7555122971534729
12.641717433929443,0.07457847148180008,-0.6330586671829224,0.6967650651931763,0.8497368097305298,0.14248111844062805,-0.7555122971534729
12.661816358566284,0.07381551712751389,-0.6330586671829224,0.6967650651931763,0.8501182794570923,0.14248111844062805,-0.7555122971534729
12.682234048843384,0.07343403995037079,-0.6334401369094849,0.6967650651931763,0.8504997491836548,0.14209964871406555,-0.7555122971534729
12.702358484268188,0.07305257022380829,-0.6342030763626099,0.6967650651931763,0.8508812189102173,0.14209964871406555,-0.7555122971534729
12.722452640533447,0.0715266615152359,-0.6349660754203796,0.6967650651931763,0.8516441583633423,0.14286258816719055,-0.7555122971534729
12.742496967315674,0.06847485899925232,-0.6364919543266296,0.6967650651931763,0.8524070978164673,0.14476996660232544,-0.7555122971534729
12.762644529342651,0.06466010212898254,-0.6383993029594421,0.6971465349197388,0.8527885675430298,0.14667734503746033,-0.7555122971534729
12.782813310623169,0.06160829961299896,-0.6410696506500244,0.697528064250946,0.8539330363273621,0.14744029939174652,-0.7551308274269104
12.802969455718994,0.056267641484737396,-0.6441214680671692,0.6979095339775085,0.8562218546867371,0.14782176911830902,-0.7551308274269104
12.822995662689209,0.05130846053361893,-0.6467918157577515,0.6979095339775085,0.8577477931976318,0.14820325374603271,-0.7547493577003479
12.84304666519165,0.04558632895350456,-0.6498435735702515,0.6979095339775085,0.8596551418304443,0.14782176911830902,-0.7539864182472229
12.863144636154175,0.0398641936480999,-0.6536583304405212,0.6979095339775085,0.8619440197944641,0.14820325374603271,-0.7513160705566406
12.883422136306763,0.03490501269698143,-0.656710147857666,0.6979095339775085,0.8638513684272766,0.14858472347259521,-0.7486457824707031
12.90358018875122,0.03032730519771576,-0.6597619652748108,0.6979095339775085,0.8653773069381714,0.14705882966518402,-0.7478827834129333
12.92404317855835,0.024986648932099342,-0.6624323129653931,0.6979095339775085,0.8672846555709839,0.14744029939174652,-0.7475013136863708
12.944144248962402,0.019645990803837776,-0.6658655405044556,0.698291003704071,0.8691920638084412,0.1508735716342926,-0.7463569045066833
12.964205980300903,0.013923857361078262,-0.6692988276481628,0.6986724734306335,0.8718623518943787,0.1527809500694275,-0.7448310256004333
12.98426604270935,0.00858320016413927,-0.6727321147918701,0.6986724734306335,0.8733882904052734,0.15354390442371368,-0.7425421476364136
13.004361629486084,0.002861066721379757,-0.6769283413887024,0.6986724734306335,0.8756771087646484,0.15354390442371368,-0.7406347990036011
13.024457931518555,-0.0024795911740511656,-0.6807430982589722,0.6986724734306335,0.8787289261817932,0.15316243469715118,-0.7394903302192688
13.044533729553223,-0.007438773289322853,-0.6837949156761169,0.699053943157196,0.8806362748146057,0.15354390442371368,-0.7375829815864563
13.064619064331055,-0.013160906732082367,-0.6876096725463867,0.699053943157196,0.8836880922317505,0.15354390442371368,-0.7360570430755615
13.084831237792969,-0.018120087683200836,-0.690280020236969,0.699816882610321,0.8863584399223328,0.15430685877799988,-0.7330052852630615
13.104963779449463,-0.023460745811462402,-0.6948577165603638,0.700579822063446,0.889028787612915,0.15545128285884857,-0.7307164072990417
13.125070333480835,-0.02880140393972397,-0.699053943157196,0.7009612917900085,0.8916990756988525,0.15735866129398346,-0.7291905283927917
13.145128011703491,-0.03299763426184654,-0.7032501697540283,0.7017242908477783,0.8947508931159973,0.15888457000255585,-0.728427529335022
13.165191650390625,-0.03833829239010811,-0.7078278660774231,0.7021057605743408,0.8966583013534546,0.16002899408340454,-0.726138710975647
13.185332298278809,-0.04253452271223068,-0.7108796834945679,0.7021057605743408,0.9000915288925171,0.16041046380996704,-0.7242313027381897
13.205415964126587,-0.04634927958250046,-0.7146944403648376,0.7024872303009033,0.9023804068565369,0.15964750945568085,-0.7215610146522522
13.225581645965576,-0.051689937710762024,-0.7192721366882324,0.7032501697540283,0.9054322242736816,0.16231784224510193,-0.7211795449256897
13.245731353759766,-0.0558861680328846,-0.7230868935585022,0.7036316394805908,0.9088655114173889,0.1646067053079605,-0.7200350761413574
13.265839338302612,-0.05970092490315437,-0.7265201807022095,0.7040131092071533,0.9111543297767639,0.16422522068023682,-0.7166017889976501
13.285921812057495,-0.06427863240242004,-0.7303349375724792,0.7051575779914856,0.9149690866470337,0.1657511293888092,-0.7146944403648376
13.306057691574097,-0.06733043491840363,-0.7337682247161865,0.7055390477180481,0.9180209040641785,0.1680399775505066,-0.7131685614585876
13.326176643371582,-0.0722896158695221,-0.7383459210395813,0.7063019871711731,0.9203097820281982,0.16956588625907898,-0.7124055624008179
13.34629225730896,-0.07457847148180008,-0.7413977384567261,0.7070649266242981,0.9233615398406982,0.16918440163135529,-0.7112611532211304
13.36642575263977,-0.07877469807863235,-0.7455939650535583,0.7074463963508606,0.925650417804718,0.17032882571220398,-0.7085908055305481
13.386486530303955,-0.08182650804519653,-0.7501716613769531,0.7082093358039856,0.9283207654953003,0.17261768877506256,-0.7066834568977356
13.40657663345337,-0.08525978773832321,-0.7543678879737854,0.7089722752571106,0.9317540526390076,0.17566949129104614,-0.7043945789337158
13.426662921905518,-0.0879301130771637,-0.7574197053909302,0.7097352743148804,0.9344243407249451,0.17643244564533234,-0.7028687000274658
13.446847915649414,-0.09098191559314728,-0.7608529925346375,0.7104982137680054,0.9374761581420898,0.17681391537189484,-0.7021057605743408
13.466884136199951,-0.09479667246341705,-0.7646677494049072,0.7116426229476929,0.9401465058326721,0.17986571788787842,-0.7009612917900085
13.486976146697998,-0.09708552807569504,-0.7681010365486145,0.7131685614585876,0.9431982636451721,0.1832990050315857,-0.6986724734306335
13.507123231887817,-0.10051880776882172,-0.7719157934188843,0.7143129706382751,0.9458686113357544,0.1840619444847107,-0.6948577165603638
13.527193069458008,-0.1024261862039566,-0.7745860815048218,0.7154573798179626,0.9481574892997742,0.18520638346672058,-0.6940947771072388
13.547353506088257,-0.10509651154279709,-0.778782308101654,0.7166017889976501,0.9515907764434814,0.18635080754756927,-0.693331778049469
13.567551851272583,-0.10852979123592377,-0.7829785346984863,0.7177462577819824,0.9546425342559814,0.18902114033699036,-0.690280020236969
13.587637186050415,-0.11043716967105865,-0.7864118218421936,0.7185091972351074,0.9576943516731262,0.19092851877212524,-0.6883726119995117
13.607712745666504,-0.11272602528333664,-0.7898451089859009,0.7196536064147949,0.9611276388168335,0.19130998849868774,-0.6868467330932617
13.627785444259644,-0.11539635062217712,-0.7932783961296082,0.7200350761413574,0.9626535177230835,0.19245441257953644,-0.6868467330932617
13.647895336151123,-0.1184481605887413,-0.7978560924530029,0.7215610146522522,0.9664682745933533,0.19512474536895752,-0.6864652633666992
13.667968511581421,-0.1203555315732956,-0.802815318107605,0.7230868935585022,0.969520092010498,0.1974135935306549,-0.6841763854026794
13.688051700592041,-0.12302586436271667,-0.8070115447044373,0.7238498330116272,0.9721904397010803,0.1993209719657898,-0.6830319762229919
13.708152055740356,-0.12569619715213776,-0.8119707107543945,0.724612832069397,0.9756237268447876,0.1997024416923523,-0.6815060377120972
13.728246212005615,-0.12645913660526276,-0.8146410584449768,0.725375771522522,0.9779125452041626,0.2004653960466385,-0.6776912808418274
13.76076889038086,-0.12951095402240753,-0.8196002244949341,0.727664589881897,0.9824903011322021,0.20199130475521088,-0.6757839322090149
13.780860185623169,-0.13103684782981873,-0.8222705721855164,0.7288090586662292,0.9855420589447021,0.20656901597976685,-0.6742580533027649
13.800915241241455,-0.13218127191066742,-0.8245593905448914,0.7299534678459167,0.9882124066352844,0.20733195543289185,-0.6719691753387451
13.821071147918701,-0.1340886503458023,-0.8276112079620361,0.7314793467521667,0.9908827543258667,0.21114671230316162,-0.6692988276481628
13.841176509857178,-0.1356145590543747,-0.8310444951057434,0.7322422862052917,0.9927901029586792,0.2141985148191452,-0.6685358881950378
13.861266374588013,-0.1367589831352234,-0.8337147831916809,0.733386754989624,0.995078980922699,0.2145799994468689,-0.6681544184684753
13.881356000900269,-0.13828489184379578,-0.8367666006088257,0.734149694442749,0.9969863295555115,0.2138170450925827,-0.6673914790153503
13.901416063308716,-0.14019227027893066,-0.840199887752533,0.735675573348999,0.9996566772460938,0.2141985148191452,-0.6666285395622253
13.921483278274536,-0.14209964871406555,-0.8428702354431152,0.7372015118598938,1.0030899047851562,0.21648737788200378,-0.6647211313247681
13.941587686538696,-0.14400701224803925,-0.846684992313385,0.7383459210395813,1.0057603120803833,0.21839475631713867,-0.6635767221450806
13.961646795272827,-0.14591439068317413,-0.8508812189102173,0.7402533292770386,1.0084306001663208,0.22144655883312225,-0.6616693139076233
13.98172402381897,-0.14629587531089783,-0.8539330363273621,0.7410162687301636,1.0118639469146729,0.22297245264053345,-0.6612878441810608
14.001870155334473,-0.14744029939174652,-0.8573662638664246,0.7421606779098511,1.0141527652740479,0.22259098291397095,-0.6601434350013733
14.02196979522705,-0.14858472347259521,-0.8600366115570068,0.7429236173629761,1.0160601139068604,0.22449836134910583,-0.6601434350013733
14.042066097259521,-0.1497291475534439,-0.8634698987007141,0.7448310256004333,1.0183489322662354,0.22716869413852692,-0.6582360863685608
14.062125444412231,-0.1508735716342926,-0.8672846555709839,0.7467383742332458,1.0217822790145874,0.2309834510087967,-0.6570916175842285
14.082475900650024,-0.1516365259885788,-0.8691920638084412,0.7475013136863708,1.0236896276474,0.23365376889705658,-0.6563286781311035
14.102563858032227,-0.15316243469715118,-0.8718623518943787,0.7486457824707031,1.0263599157333374,0.23365376889705658,-0.6532768607139587
14.122665166854858,-0.15354390442371368,-0.8749141693115234,0.7509346008300781,1.029411792755127,0.23556114733219147,-0.6521324515342712
14.142741203308105,-0.15430685877799988,-0.8779659867286682,0.7524605393409729,1.0320820808410645,0.23785001039505005,-0.6498435735702515
14.162855386734009,-0.15545128285884857,-0.881017804145813,0.7532234787940979,1.034752368927002,0.23899443447589874,-0.649462103843689
14.183159589767456,-0.15621423721313477,-0.884069561958313,0.7543678879737854,1.036659836769104,0.23937590420246124,-0.6483176946640015
14.203237533569336,-0.15697719156742096,-0.8867399096488953,0.7551308274269104,1.0385671854019165,0.24090181291103363,-0.6460288166999817
14.223371505737305,-0.15812161564826965,-0.890554666519165,0.7566567659378052,1.0408560037612915,0.24204623699188232,-0.6429770588874817
14.243568897247314,-0.15888457000255585,-0.8947508931159973,0.7581826448440552,1.0442893505096436,0.2458609938621521,-0.6422140598297119
14.263949632644653,-0.16041046380996704,-0.8985656499862671,0.7600900530815125,1.047722578048706,0.247768372297287,-0.6414511203765869
14.284123659133911,-0.16041046380996704,-0.9023804068565369,0.7612344622612,1.0496299266815186,0.2473868876695633,-0.6399252414703369
14.304235935211182,-0.16079194843769073,-0.9046692848205566,0.7623788714408875,1.051918864250183,0.2481498420238495,-0.6380178332328796
14.32431960105896,-0.16155488789081573,-0.9069581031799316,0.763523280620575,1.0545891523361206,0.24929426610469818,-0.6376363635063171
14.344476699829102,-0.16231784224510193,-0.9100099205970764,0.7661936283111572,1.056496500968933,0.25272753834724426,-0.6368734240531921
14.364497184753418,-0.16269932687282562,-0.9134432077407837,0.768482506275177,1.0587854385375977,0.2573052644729614,-0.6353475451469421
14.38456106185913,-0.16308079659938812,-0.9157320261001587,0.7696269154548645,1.0618371963500977,0.2599755823612213,-0.6349660754203796
14.404725313186646,-0.16422522068023682,-0.9187838435173035,0.7715343236923218,1.0637445449829102,0.2615014910697937,-0.6342030763626099
14.424814701080322,-0.1646067053079605,-0.9210727214813232,0.7726787328720093,1.0664149522781372,0.2645532786846161,-0.6334401369094849
14.444836139678955,-0.164988175034523,-0.9237430095672607,0.7734416723251343,1.0687037706375122,0.2637903392314911,-0.6322957277297974
14.46494460105896,-0.1661325991153717,-0.9267948269844055,0.7745860815048218,1.0713740587234497,0.264934778213501,-0.6307697892189026
14.485043048858643,-0.1665140837430954,-0.9302281141281128,0.775730550289154,1.0732814073562622,0.264934778213501,-0.6300068497657776
14.505204200744629,-0.1668955534696579,-0.9325169920921326,0.7776378989219666,1.0744259357452393,0.265697717666626,-0.6269550919532776
14.52535080909729,-0.1668955534696579,-0.9344243407249451,0.7791637778282166,1.0767147541046143,0.266460657119751,-0.6246662139892578
14.545386791229248,-0.1676585078239441,-0.9378576278686523,0.7803082466125488,1.0797665119171143,0.26951247453689575,-0.6235218048095703
