liuyurong129/humanoid-gym/humanoid/data/actual_q_20250521-035736.csv
timestamp,joint_1,joint_2,joint_3,joint_4,joint_5,joint_6
5.7220458984375e-05,-0.00019073777366429567,0.15583276748657227,-0.07915617525577545,-0.00019073777366429567,-0.000572213320992887,0.00019073777366429567
0.020165443420410156,-0.00019073777366429567,0.1325627565383911,-0.06809338182210922,-0.00019073777366429567,0.0009536888683214784,0.00019073777366429567
0.040242910385131836,0.00019073777366429567,0.11463340371847153,-0.06046387553215027,-0.00019073777366429567,0.0013351644156500697,0.00019073777366429567
0.06031060218811035,0.00019073777366429567,0.1035706102848053,-0.0551232174038887,-0.00019073777366429567,-0.00019073777366429567,0.00019073777366429567
0.08038783073425293,-0.00019073777366429567,0.09174486994743347,-0.04749370738863945,-0.00019073777366429567,0.00019073777366429567,0.00019073777366429567
0.1004788875579834,-0.00019073777366429567,0.08335240930318832,-0.04139009863138199,-0.00019073777366429567,0.000572213320992887,0.00019073777366429567
0.12055659294128418,-0.00019073777366429567,0.07839322835206985,-0.039101243019104004,0.00019073777366429567,0.000572213320992887,0.00019073777366429567
0.14062285423278809,-0.00019073777366429567,0.07877469807863235,-0.039101243019104004,0.00019073777366429567,0.00019073777366429567,0.000572213320992887
0.16068291664123535,-0.00019073777366429567,0.07877469807863235,-0.0398641936480999,0.00019073777366429567,-0.00019073777366429567,0.000572213320992887
0.18077778816223145,-0.000572213320992887,0.07763027399778366,-0.0398641936480999,0.000572213320992887,0.00019073777366429567,0.000572213320992887
0.20085430145263672,-0.000572213320992887,0.07724879682064056,-0.0394827201962471,0.0009536888683214784,0.00019073777366429567,0.000572213320992887
0.22090864181518555,-0.0009536888683214784,0.07763027399778366,-0.039101243019104004,0.0024795911740511656,0.00019073777366429567,0.0009536888683214784
0.24099421501159668,-0.001716639962978661,0.07801175117492676,-0.038719769567251205,0.0032425422687083483,0.000572213320992887,0.0013351644156500697
0.2610616683959961,-0.002861066721379757,0.07763027399778366,-0.03833829239010811,0.004005493130534887,0.0009536888683214784,0.0020981156267225742
0.2811305522918701,-0.0036240178160369396,0.07763027399778366,-0.03833829239010811,0.004386968910694122,0.000572213320992887,0.0032425422687083483
0.30130791664123535,-0.00476844422519207,0.07724879682064056,-0.03833829239010811,0.005912871100008488,0.0009536888683214784,0.0036240178160369396
0.3213162422180176,-0.005531395319849253,0.07648584991693497,-0.03795681521296501,0.007057297509163618,0.0009536888683214784,0.004005493130534887
0.3413670063018799,-0.006294346414506435,0.07648584991693497,-0.03757534176111221,0.007438773289322853,0.0009536888683214784,0.004005493130534887
0.361466646194458,-0.007438773289322853,0.07648584991693497,-0.03681239113211632,0.008201723918318748,0.0009536888683214784,0.00476844422519207
0.38153719902038574,-0.0078202486038208,0.07648584991693497,-0.03681239113211632,0.009346150793135166,0.0009536888683214784,0.00476844422519207
0.4016125202178955,-0.0078202486038208,0.07648584991693497,-0.03681239113211632,0.010872052982449532,0.000572213320992887,0.005531395319849253
0.4216885566711426,-0.008964675478637218,0.07610437273979187,-0.03681239113211632,0.011635004542768002,0.0009536888683214784,0.007438773289322853
0.44179224967956543,-0.010109102353453636,0.07572289556264877,-0.03643091395497322,0.01201647985726595,0.0013351644156500697,0.008201723918318748
0.4619162082672119,-0.010490577667951584,0.07534141838550568,-0.035667963325977325,0.012397955171763897,0.0009536888683214784,0.008201723918318748
0.48194098472595215,-0.01201647985726595,0.07572289556264877,-0.035667963325977325,0.013923857361078262,0.0013351644156500697,0.008964675478637218
0.5020077228546143,-0.012779430486261845,0.07534141838550568,-0.03490501269698143,0.01506828423589468,0.0013351644156500697,0.010490577667951584
0.5220770835876465,-0.013160906732082367,0.07534141838550568,-0.03490501269698143,0.015449759550392628,0.0013351644156500697,0.01125352829694748
0.5422916412353516,-0.01430533267557621,0.07534141838550568,-0.03452353551983833,0.016594186425209045,0.001716639962978661,0.011635004542768002
0.5623929500579834,-0.01506828423589468,0.07495994865894318,-0.034142062067985535,0.018120087683200836,0.001716639962978661,0.011635004542768002
0.5824651718139648,-0.01506828423589468,0.07419699430465698,-0.03337911143898964,0.01926451548933983,0.001716639962978661,0.01201647985726595
0.6034648418426514,-0.01583123579621315,0.07343403995037079,-0.03337911143898964,0.019645990803837776,0.001716639962978661,0.012397955171763897
0.6235580444335938,-0.016975661739706993,0.07343403995037079,-0.03299763426184654,0.021171892061829567,0.0024795911740511656,0.012779430486261845
0.643622636795044,-0.01773861236870289,0.07343403995037079,-0.032616160809993744,0.02231631986796856,0.002861066721379757,0.013542382046580315
0.6636898517608643,-0.018501564860343933,0.07343403995037079,-0.032616160809993744,0.023460745811462402,0.002861066721379757,0.014686808921396732
0.6837806701660156,-0.01926451548933983,0.07343403995037079,-0.03223468363285065,0.024605173617601395,0.002861066721379757,0.01506828423589468
0.7038676738739014,-0.020027466118335724,0.07305257022380829,-0.03185320645570755,0.026131074875593185,0.002861066721379757,0.015449759550392628
0.7239177227020264,-0.021171892061829567,0.07267109304666519,-0.03147173300385475,0.026512550190091133,0.0024795911740511656,0.016212711110711098
0.7440147399902344,-0.02231631986796856,0.0722896158695221,-0.031090257689356804,0.02689402550458908,0.002861066721379757,0.016594186425209045
0.7640886306762695,-0.02231631986796856,0.071908138692379,-0.030708782374858856,0.02727550081908703,0.002861066721379757,0.01735713705420494
0.7841556072235107,-0.02231631986796856,0.071908138692379,-0.030708782374858856,0.02880140393972397,0.002861066721379757,0.018120087683200836
0.8043396472930908,-0.023079270496964455,0.071908138692379,-0.03032730519771576,0.02994582988321781,0.002861066721379757,0.01888304017484188
0.8245084285736084,-0.024605173617601395,0.0711451917886734,-0.029564354568719864,0.031090257689356804,0.0036240178160369396,0.01888304017484188
0.8445694446563721,-0.024986648932099342,0.0711451917886734,-0.02880140393972397,0.032616160809993744,0.0036240178160369396,0.01926451548933983
0.864614725112915,-0.025749599561095238,0.0711451917886734,-0.02880140393972397,0.03376058489084244,0.0036240178160369396,0.020027466118335724
0.8847231864929199,-0.02689402550458908,0.0711451917886734,-0.02841992862522602,0.03452353551983833,0.0036240178160369396,0.02040894143283367
0.904780387878418,-0.027656977996230125,0.07038223743438721,-0.028038453310728073,0.03528648987412453,0.0032425422687083483,0.02079041674733162
0.9248709678649902,-0.02841992862522602,0.07000076025724411,-0.027656977996230125,0.03681239113211632,0.0036240178160369396,0.02193484455347061
0.9449474811553955,-0.029564354568719864,0.06961929053068161,-0.02727550081908703,0.03757534176111221,0.0036240178160369396,0.022697795182466507
0.9650201797485352,-0.029564354568719864,0.06923781335353851,-0.026512550190091133,0.03833829239010811,0.0036240178160369396,0.023079270496964455
0.9851009845733643,-0.029564354568719864,0.06923781335353851,-0.026512550190091133,0.0394827201962471,0.004005493130534887,0.023460745811462402
1.0051772594451904,-0.02994582988321781,0.06923781335353851,-0.026512550190091133,0.04100862145423889,0.004386968910694122,0.02384222112596035
1.0253052711486816,-0.030708782374858856,0.06885633617639542,-0.026131074875593185,0.04139009863138199,0.005149920005351305,0.024986648932099342
1.0453150272369385,-0.03147173300385475,0.06885633617639542,-0.026131074875593185,0.042153049260377884,0.005912871100008488,0.026512550190091133
1.0654115676879883,-0.03223468363285065,0.06809338182210922,-0.025749599561095238,0.04329747334122658,0.005912871100008488,0.02727550081908703
1.085486650466919,-0.03337911143898964,0.06809338182210922,-0.024986648932099342,0.04482337832450867,0.006294346414506435,0.027656977996230125
1.1055610179901123,-0.03490501269698143,0.06809338182210922,-0.024605173617601395,0.04596780240535736,0.006294346414506435,0.028038453310728073
1.1259105205535889,-0.035667963325977325,0.06809338182210922,-0.024223696440458298,0.04711223021149635,0.00667582219466567,0.029182879254221916
1.1460084915161133,-0.03643091395497322,0.06771191209554672,-0.024223696440458298,0.048638131469488144,0.006294346414506435,0.02994582988321781
1.1661531925201416,-0.03681239113211632,0.06694895774126053,-0.024223696440458298,0.049782559275627136,0.006294346414506435,0.03032730519771576
1.1862101554870605,-0.03681239113211632,0.06618601083755493,-0.023460745811462402,0.05092698708176613,0.00667582219466567,0.03032730519771576
1.2063031196594238,-0.037193864583969116,0.06580453366041183,-0.023079270496964455,0.05245288833975792,0.00667582219466567,0.031090257689356804
1.2263877391815186,-0.037193864583969116,0.06580453366041183,-0.02231631986796856,0.05283436179161072,0.00667582219466567,0.031090257689356804
1.2464423179626465,-0.03795681521296501,0.06618601083755493,-0.02231631986796856,0.05359731614589691,0.0078202486038208,0.03185320645570755
1.266533613204956,-0.039101243019104004,0.06580453366041183,-0.02193484455347061,0.054741740226745605,0.0078202486038208,0.03299763426184654
1.2866542339324951,-0.0398641936480999,0.06580453366041183,-0.021171892061829567,0.056267641484737396,0.0078202486038208,0.03452353551983833
1.3067054748535156,-0.04100862145423889,0.06504157930612564,-0.021171892061829567,0.05664911866188049,0.007438773289322853,0.03490501269698143
1.3267760276794434,-0.042153049260377884,0.06466010212898254,-0.02079041674733162,0.05741206929087639,0.007057297509163618,0.03604944050312042
1.3468585014343262,-0.04253452271223068,0.06466010212898254,-0.02040894143283367,0.05893797054886818,0.007057297509163618,0.037193864583969116
1.3669421672821045,-0.04329747334122658,0.06427863240242004,-0.020027466118335724,0.06008239835500717,0.007438773289322853,0.03795681521296501
1.3872056007385254,-0.04406042397022247,0.06389715522527695,-0.019645990803837776,0.061226826161146164,0.0078202486038208,0.03795681521296501
1.4073717594146729,-0.04406042397022247,0.06389715522527695,-0.01888304017484188,0.06198977679014206,0.008201723918318748,0.03833829239010811
1.4274208545684814,-0.04444190114736557,0.06351567804813385,-0.01888304017484188,0.06351567804813385,0.008201723918318748,0.039101243019104004
1.4474782943725586,-0.04482337832450867,0.06313420087099075,-0.018120087683200836,0.06427863240242004,0.008201723918318748,0.0394827201962471
1.467599868774414,-0.04596780240535736,0.06275273114442825,-0.018120087683200836,0.06504157930612564,0.008201723918318748,0.0398641936480999
1.4876823425292969,-0.04634927958250046,0.06275273114442825,-0.01773861236870289,0.06694895774126053,0.00858320016413927,0.04139009863138199
1.5077452659606934,-0.04749370738863945,0.06275273114442825,-0.01735713705420494,0.06809338182210922,0.00858320016413927,0.042153049260377884
1.527841329574585,-0.048256658017635345,0.06198977679014206,-0.016975661739706993,0.06885633617639542,0.008964675478637218,0.04253452271223068
1.5479111671447754,-0.04940108209848404,0.06160829961299896,-0.016212711110711098,0.0707637146115303,0.008964675478637218,0.04291599988937378
1.567976474761963,-0.04940108209848404,0.06084534898400307,-0.016212711110711098,0.0715266615152359,0.008964675478637218,0.04482337832450867
1.58805513381958,-0.050164032727479935,0.06084534898400307,-0.01583123579621315,0.0722896158695221,0.008964675478637218,0.045204851776361465
1.608125925064087,-0.05092698708176613,0.06084534898400307,-0.01506828423589468,0.07381551712751389,0.009346150793135166,0.04558632895350456
1.6281933784484863,-0.051689937710762024,0.06084534898400307,-0.014686808921396732,0.07495994865894318,0.010490577667951584,0.04596780240535736
1.648266315460205,-0.051689937710762024,0.06046387553215027,-0.013923857361078262,0.07610437273979187,0.010109102353453636,0.04634927958250046
1.6683955192565918,-0.05245288833975792,0.05970092490315437,-0.013160906732082367,0.07801175117492676,0.010109102353453636,0.04711223021149635
1.6884386539459229,-0.05283436179161072,0.059319447726011276,-0.012397955171763897,0.07877469807863235,0.010490577667951584,0.048638131469488144
1.7086291313171387,-0.05359731614589691,0.05893797054886818,-0.012397955171763897,0.07915617525577545,0.010490577667951584,0.04940108209848404
1.728715181350708,-0.054741740226745605,0.05855649709701538,-0.01201647985726595,0.07953765243291855,0.010872052982449532,0.049782559275627136
1.7487871646881104,-0.0555046908557415,0.05855649709701538,-0.011635004542768002,0.08068207651376724,0.010872052982449532,0.050164032727479935
1.7688539028167725,-0.05664911866188049,0.05893797054886818,-0.011635004542768002,0.08182650804519653,0.010872052982449532,0.05130846053361893
1.7889454364776611,-0.05664911866188049,0.05855649709701538,-0.010872052982449532,0.08297093212604523,0.010872052982449532,0.05283436179161072
1.809028148651123,-0.05703059583902359,0.057793546468019485,-0.010490577667951584,0.08411535620689392,0.010872052982449532,0.05359731614589691
1.8290798664093018,-0.057793546468019485,0.057793546468019485,-0.010490577667951584,0.08564125746488571,0.01125352829694748,0.05397878959774971
1.8491625785827637,-0.05855649709701538,0.05741206929087639,-0.010109102353453636,0.0864042118191719,0.011635004542768002,0.054741740226745605
1.8692355155944824,-0.05893797054886818,0.05664911866188049,-0.009727626107633114,0.0871671661734581,0.01125352829694748,0.0555046908557415
1.8892905712127686,-0.05893797054886818,0.05664911866188049,-0.009346150793135166,0.0883115902543068,0.01125352829694748,0.056267641484737396
1.9093670845031738,-0.059319447726011276,0.05664911866188049,-0.008964675478637218,0.08983749151229858,0.01125352829694748,0.05703059583902359
1.9294469356536865,-0.06008239835500717,0.056267641484737396,-0.008201723918318748,0.09060044586658478,0.011635004542768002,0.05703059583902359
1.9495301246643066,-0.06084534898400307,0.0558861680328846,-0.0078202486038208,0.09212634712457657,0.01201647985726595,0.05741206929087639
1.9696202278137207,-0.06084534898400307,0.0555046908557415,-0.007438773289322853,0.09365224838256836,0.012397955171763897,0.057793546468019485
1.98970365524292,-0.061226826161146164,0.0555046908557415,-0.007438773289322853,0.09403372555971146,0.012397955171763897,0.05855649709701538
2.0097954273223877,-0.06198977679014206,0.0551232174038887,-0.00667582219466567,0.09517814964056015,0.012397955171763897,0.05970092490315437
2.0301294326782227,-0.06275273114442825,0.05436026677489281,-0.006294346414506435,0.09708552807569504,0.013160906732082367,0.06084534898400307
2.0502078533172607,-0.06351567804813385,0.05359731614589691,-0.005912871100008488,0.09822995215654373,0.013542382046580315,0.06160829961299896
2.0702760219573975,-0.06427863240242004,0.05359731614589691,-0.005531395319849253,0.10013733059167862,0.013923857361078262,0.06275273114442825
2.090557813644409,-0.06504157930612564,0.05359731614589691,-0.005149920005351305,0.10166323184967041,0.014686808921396732,0.06427863240242004
2.110642433166504,-0.06580453366041183,0.053215838968753815,-0.004386968910694122,0.1024261862039566,0.01506828423589468,0.06466010212898254
2.1308023929595947,-0.06618601083755493,0.05245288833975792,-0.004005493130534887,0.1039520874619484,0.01506828423589468,0.06466010212898254
2.1508820056915283,-0.06618601083755493,0.05245288833975792,-0.0036240178160369396,0.10509651154279709,0.01506828423589468,0.06542305648326874
2.1709768772125244,-0.06618601083755493,0.051689937710762024,-0.0032425422687083483,0.10547798871994019,0.01506828423589468,0.06542305648326874
2.1910393238067627,-0.06656748056411743,0.05130846053361893,-0.002861066721379757,0.10700388997793198,0.015449759550392628,0.06618601083755493
2.211099147796631,-0.06694895774126053,0.05130846053361893,-0.0024795911740511656,0.10852979123592377,0.01583123579621315,0.06733043491840363
2.2311885356903076,-0.06809338182210922,0.05092698708176613,-0.0020981156267225742,0.10929274559020996,0.016975661739706993,0.06847485899925232
2.251253843307495,-0.06847485899925232,0.05054550990462303,-0.0013351644156500697,0.11043716967105865,0.01735713705420494,0.06885633617639542
2.271308422088623,-0.06923781335353851,0.05054550990462303,-0.000572213320992887,0.11234454810619354,0.01773861236870289,0.06961929053068161
2.291402578353882,-0.07000076025724411,0.049782559275627136,-0.00019073777366429567,0.11310750246047974,0.018120087683200836,0.0715266615152359
2.311483383178711,-0.0711451917886734,0.04940108209848404,0.000572213320992887,0.11501488089561462,0.018120087683200836,0.071908138692379
2.331563949584961,-0.0711451917886734,0.04901960864663124,0.0009536888683214784,0.11577782779932022,0.018501564860343933,0.0722896158695221
2.3516347408294678,-0.0715266615152359,0.048638131469488144,0.001716639962978661,0.11692225188016891,0.018120087683200836,0.07267109304666519
2.3717100620269775,-0.07267109304666519,0.048256658017635345,0.0020981156267225742,0.11768520623445511,0.018501564860343933,0.07305257022380829
2.3918020725250244,-0.07305257022380829,0.048256658017635345,0.002861066721379757,0.11959258466959,0.018501564860343933,0.07343403995037079
2.4118754863739014,-0.07305257022380829,0.04787518084049225,0.0032425422687083483,0.1203555315732956,0.018501564860343933,0.07495994865894318
2.4319567680358887,-0.07305257022380829,0.04711223021149635,0.004005493130534887,0.12264438718557358,0.018501564860343933,0.07572289556264877
2.4523112773895264,-0.07343403995037079,0.046730753034353256,0.00476844422519207,0.12417028844356537,0.018501564860343933,0.07648584991693497
2.4723973274230957,-0.07343403995037079,0.04634927958250046,0.005149920005351305,0.12531471252441406,0.01888304017484188,0.07686731964349747
2.4924774169921875,-0.07419699430465698,0.04634927958250046,0.005149920005351305,0.12722209095954895,0.01926451548933983,0.07801175117492676
2.5129520893096924,-0.07495994865894318,0.04634927958250046,0.005912871100008488,0.12874799966812134,0.01926451548933983,0.07953765243291855
2.5330440998077393,-0.07572289556264877,0.04558632895350456,0.00667582219466567,0.13027389347553253,0.01926451548933983,0.07991912961006165
2.5531277656555176,-0.07648584991693497,0.04444190114736557,0.007438773289322853,0.13141833245754242,0.019645990803837776,0.08106355369091034
2.573409080505371,-0.07724879682064056,0.04444190114736557,0.007438773289322853,0.13218127191066742,0.019645990803837776,0.08182650804519653
2.5935120582580566,-0.07763027399778366,0.04444190114736557,0.008201723918318748,0.134470134973526,0.01926451548933983,0.08258945494890213
2.613598108291626,-0.07763027399778366,0.04406042397022247,0.008201723918318748,0.1356145590543747,0.020027466118335724,0.08335240930318832
2.6336429119110107,-0.07839322835206985,0.043678950518369675,0.008964675478637218,0.1371404528617859,0.02079041674733162,0.08335240930318832
2.653738260269165,-0.07915617525577545,0.04329747334122658,0.009727626107633114,0.13866636157035828,0.02193484455347061,0.08411535620689392
2.673854351043701,-0.07953765243291855,0.04291599988937378,0.010109102353453636,0.13942931592464447,0.02231631986796856,0.08487831056118011
2.693911075592041,-0.07953765243291855,0.04253452271223068,0.010490577667951584,0.14019227027893066,0.022697795182466507,0.08602273464202881
2.713999032974243,-0.08030059933662415,0.042153049260377884,0.01125352829694748,0.14209964871406555,0.022697795182466507,0.0871671661734581
2.7341413497924805,-0.08068207651376724,0.04177157208323479,0.011635004542768002,0.14324407279491425,0.022697795182466507,0.0879301130771637
2.7541515827178955,-0.08068207651376724,0.04139009863138199,0.012397955171763897,0.14553292095661163,0.022697795182466507,0.08869306743144989
2.7742927074432373,-0.08106355369091034,0.04100862145423889,0.012779430486261845,0.14667734503746033,0.023460745811462402,0.09136339277029037
2.7943966388702393,-0.08182650804519653,0.040245670825242996,0.013542382046580315,0.14820325374603271,0.02384222112596035,0.09136339277029037
2.8144571781158447,-0.08258945494890213,0.040245670825242996,0.014686808921396732,0.1497291475534439,0.024986648932099342,0.09136339277029037
2.8351352214813232,-0.08297093212604523,0.0394827201962471,0.015449759550392628,0.1504921019077301,0.02536812424659729,0.09174486994743347
2.855226993560791,-0.08373387902975082,0.0394827201962471,0.016212711110711098,0.152399480342865,0.02536812424659729,0.09212634712457657
2.875328540802002,-0.08449683338403702,0.039101243019104004,0.016975661739706993,0.15354390442371368,0.025749599561095238,0.09327077120542526
2.8953728675842285,-0.08564125746488571,0.039101243019104004,0.01735713705420494,0.15468832850456238,0.02536812424659729,0.09479667246341705
2.9155821800231934,-0.08564125746488571,0.03833829239010811,0.01773861236870289,0.15659570693969727,0.025749599561095238,0.09517814964056015
2.9356367588043213,-0.08564125746488571,0.03795681521296501,0.01888304017484188,0.15735866129398346,0.025749599561095238,0.09632257372140884
2.955721378326416,-0.08564125746488571,0.037193864583969116,0.01926451548933983,0.15812161564826965,0.025749599561095238,0.09784847497940063
2.9757838249206543,-0.0864042118191719,0.037193864583969116,0.019645990803837776,0.15964750945568085,0.026131074875593185,0.09822995215654373
2.9958744049072266,-0.0871671661734581,0.03681239113211632,0.02040894143283367,0.16079194843769073,0.026512550190091133,0.09861142933368683
3.0159168243408203,-0.0875486359000206,0.03643091395497322,0.02079041674733162,0.16193637251853943,0.026512550190091133,0.09899290651082993
3.036217212677002,-0.0875486359000206,0.03528648987412453,0.021553369238972664,0.16346226632595062,0.026131074875593185,0.09975585341453552
3.0563082695007324,-0.0879301130771637,0.03490501269698143,0.022697795182466507,0.1653696447610855,0.025749599561095238,0.10051880776882172
3.0763754844665527,-0.0879301130771637,0.03452353551983833,0.023460745811462402,0.1661325991153717,0.026512550190091133,0.10166323184967041
3.09657621383667,-0.0883115902543068,0.034142062067985535,0.02384222112596035,0.1680399775505066,0.026512550190091133,0.1024261862039566
3.1166634559631348,-0.08907453715801239,0.03376058489084244,0.024605173617601395,0.16918440163135529,0.02727550081908703,0.1031891331076622
3.1367411613464355,-0.08983749151229858,0.03299763426184654,0.024986648932099342,0.17032882571220398,0.028038453310728073,0.1035706102848053
3.1568191051483154,-0.08983749151229858,0.03299763426184654,0.02536812424659729,0.17223620414733887,0.027656977996230125,0.10471503436565399
3.176891803741455,-0.08983749151229858,0.032616160809993744,0.025749599561095238,0.17338064312934875,0.02727550081908703,0.10662241280078888
3.1969666481018066,-0.09060044586658478,0.03185320645570755,0.026512550190091133,0.17490653693675995,0.02727550081908703,0.10700388997793198
3.217026472091675,-0.09174486994743347,0.03185320645570755,0.02689402550458908,0.17605096101760864,0.027656977996230125,0.10814831405878067
3.2371129989624023,-0.09212634712457657,0.031090257689356804,0.027656977996230125,0.17681391537189484,0.02841992862522602,0.10929274559020996
3.2571794986724854,-0.09212634712457657,0.030708782374858856,0.02880140393972397,0.17833982408046722,0.02841992862522602,0.10967422276735306
3.2772634029388428,-0.09212634712457657,0.03032730519771576,0.029182879254221916,0.1806286722421646,0.02880140393972397,0.11043716967105865
3.2973363399505615,-0.09288929402828217,0.02994582988321781,0.02994582988321781,0.1825360506772995,0.02841992862522602,0.11081864684820175
3.317429780960083,-0.09327077120542526,0.029182879254221916,0.030708782374858856,0.1832990050315857,0.02880140393972397,0.11120012402534485
3.337482452392578,-0.09327077120542526,0.02880140393972397,0.03147173300385475,0.1840619444847107,0.029182879254221916,0.11234454810619354
3.357558012008667,-0.09403372555971146,0.028038453310728073,0.03185320645570755,0.1848248988389969,0.029564354568719864,0.11387044936418533
3.3776488304138184,-0.09403372555971146,0.027656977996230125,0.032616160809993744,0.18673227727413177,0.029564354568719864,0.11463340371847153
3.397717237472534,-0.09403372555971146,0.027656977996230125,0.03337911143898964,0.18787670135498047,0.029564354568719864,0.11692225188016891
3.417788028717041,-0.09479667246341705,0.02689402550458908,0.034142062067985535,0.19092851877212524,0.029564354568719864,0.11730372905731201
3.4378724098205566,-0.09479667246341705,0.026512550190091133,0.03490501269698143,0.19169145822525024,0.03032730519771576,0.11768520623445511
3.457979679107666,-0.09517814964056015,0.025749599561095238,0.03604944050312042,0.19245441257953644,0.03032730519771576,0.1180666834115982
3.478039264678955,-0.09517814964056015,0.025749599561095238,0.03643091395497322,0.19436179101467133,0.030708782374858856,0.1184481605887413
3.4981141090393066,-0.09517814964056015,0.025749599561095238,0.037193864583969116,0.19550621509552002,0.030708782374858856,0.11959258466959
3.5181875228881836,-0.09594109654426575,0.024986648932099342,0.03757534176111221,0.1977950781583786,0.03185320645570755,0.1203555315732956
3.5382437705993652,-0.09670405089855194,0.024605173617601395,0.03795681521296501,0.1989395022392273,0.032616160809993744,0.12149996310472488
3.5583746433258057,-0.09708552807569504,0.02384222112596035,0.03833829239010811,0.200083926320076,0.03299763426184654,0.12188144028186798
3.5784010887145996,-0.09708552807569504,0.023079270496964455,0.039101243019104004,0.20237277448177338,0.03299763426184654,0.12302586436271667
3.598463535308838,-0.09746700525283813,0.02231631986796856,0.0398641936480999,0.20351719856262207,0.03337911143898964,0.12455176562070847
3.618626594543457,-0.09746700525283813,0.02231631986796856,0.040245670825242996,0.20580606162548065,0.03337911143898964,0.12493324279785156
3.6387135982513428,-0.09822995215654373,0.021553369238972664,0.04100862145423889,0.20656901597976685,0.03376058489084244,0.12531471252441406
3.658853769302368,-0.09899290651082993,0.021171892061829567,0.04177157208323479,0.20809490978717804,0.03452353551983833,0.12531471252441406
3.6792049407958984,-0.09937438368797302,0.02040894143283367,0.042153049260377884,0.21000228822231293,0.034142062067985535,0.12684062123298645
3.6993017196655273,-0.09937438368797302,0.019645990803837776,0.04253452271223068,0.21229113638401031,0.034142062067985535,0.12760357558727264
3.719425678253174,-0.09975585341453552,0.01926451548933983,0.043678950518369675,0.2138170450925827,0.034142062067985535,0.12874799966812134
3.739473581314087,-0.09975585341453552,0.018501564860343933,0.04406042397022247,0.21648737788200378,0.034142062067985535,0.12912946939468384
3.7595643997192383,-0.10013733059167862,0.01773861236870289,0.045204851776361465,0.21801327168941498,0.03528648987412453,0.13027389347553253
3.7796106338500977,-0.10013733059167862,0.016594186425209045,0.04596780240535736,0.22030213475227356,0.03528648987412453,0.13179980218410492
3.7997071743011475,-0.10013733059167862,0.015449759550392628,0.04634927958250046,0.22144655883312225,0.035667963325977325,0.1333257108926773
3.8197860717773438,-0.10013733059167862,0.015449759550392628,0.04711223021149635,0.22335393726825714,0.03604944050312042,0.1337071806192398
3.8398585319519043,-0.10128175467252731,0.01506828423589468,0.04787518084049225,0.22487983107566833,0.03604944050312042,0.1356145590543747
3.859907865524292,-0.10204470902681351,0.01506828423589468,0.048638131469488144,0.22678720951080322,0.03681239113211632,0.1359960287809372
3.879990577697754,-0.10204470902681351,0.01430533267557621,0.049782559275627136,0.2283131182193756,0.03681239113211632,0.1367589831352234
3.9000720977783203,-0.10204470902681351,0.013160906732082367,0.05054550990462303,0.2294575423002243,0.037193864583969116,0.13752193748950958
3.920128107070923,-0.10204470902681351,0.012397955171763897,0.051689937710762024,0.2313649207353592,0.03681239113211632,0.13981078565120697
3.940213203430176,-0.10204470902681351,0.01125352829694748,0.053215838968753815,0.23327229917049408,0.03757534176111221,0.14209964871406555
3.960280656814575,-0.10204470902681351,0.010490577667951584,0.05397878959774971,0.23556114733219147,0.03795681521296501,0.14324407279491425
3.9803428649902344,-0.10204470902681351,0.009727626107633114,0.054741740226745605,0.23632410168647766,0.038719769567251205,0.14362554252147675
4.000430345535278,-0.10204470902681351,0.009346150793135166,0.0555046908557415,0.23785001039505005,0.038719769567251205,0.14400701224803925
4.020504951477051,-0.1024261862039566,0.008201723918318748,0.056267641484737396,0.23975738883018494,0.0394827201962471,0.14438849687576294
4.040570020675659,-0.1024261862039566,0.007057297509163618,0.05703059583902359,0.24242770671844482,0.040627144277095795,0.14591439068317413
4.0606608390808105,-0.1031891331076622,0.005531395319849253,0.057793546468019485,0.24357213079929352,0.04139009863138199,0.14744029939174652
4.080731391906738,-0.1039520874619484,0.00476844422519207,0.05893797054886818,0.2447165697813034,0.042153049260377884,0.14820325374603271
4.100826025009155,-0.1039520874619484,0.004386968910694122,0.059319447726011276,0.2466239482164383,0.04253452271223068,0.1489662081003189
4.120905637741089,-0.1039520874619484,0.0032425422687083483,0.06046387553215027,0.2481498420238495,0.04253452271223068,0.1508735716342926
4.140986204147339,-0.10433356463909149,0.002861066721379757,0.061226826161146164,0.2508201599121094,0.04253452271223068,0.1512550562620163
4.16103720664978,-0.10433356463909149,0.0020981156267225742,0.06198977679014206,0.25196459889411926,0.04291599988937378,0.1516365259885788
4.181135654449463,-0.10433356463909149,0.0009536888683214784,0.06313420087099075,0.25425344705581665,0.043678950518369675,0.1520180106163025
4.20121693611145,-0.10433356463909149,0.00019073777366429567,0.06466010212898254,0.25577935576438904,0.04444190114736557,0.15354390442371368
4.221301078796387,-0.10433356463909149,-0.000572213320992887,0.06542305648326874,0.2580682039260864,0.04482337832450867,0.15430685877799988
4.241364002227783,-0.10471503436565399,-0.0009536888683214784,0.06694895774126053,0.2599755823612213,0.045204851776361465,0.15545128285884857
4.261458158493042,-0.10509651154279709,-0.0020981156267225742,0.06847485899925232,0.2626459002494812,0.045204851776361465,0.15621423721313477
4.2815163135528564,-0.10547798871994019,-0.0024795911740511656,0.06923781335353851,0.264934778213501,0.04558632895350456,0.15850308537483215
4.301682710647583,-0.10585946589708328,-0.0036240178160369396,0.07000076025724411,0.26684215664863586,0.04558632895350456,0.16041046380996704
4.321768522262573,-0.10624094307422638,-0.00476844422519207,0.0711451917886734,0.26989394426345825,0.04558632895350456,0.16155488789081573
4.341826677322388,-0.10624094307422638,-0.005531395319849253,0.0711451917886734,0.272945761680603,0.04558632895350456,0.16269932687282562
4.3619256019592285,-0.10624094307422638,-0.00667582219466567,0.07267109304666519,0.2744716703891754,0.04634927958250046,0.16384375095367432
4.381990194320679,-0.10624094307422638,-0.0078202486038208,0.07381551712751389,0.2779049277305603,0.04711223021149635,0.1657511293888092
4.402058839797974,-0.10624094307422638,-0.00858320016413927,0.07419699430465698,0.2805752754211426,0.048638131469488144,0.1672770231962204
4.422151565551758,-0.10624094307422638,-0.009346150793135166,0.07534141838550568,0.2821011543273926,0.048638131469488144,0.16956588625907898
4.442238092422485,-0.10624094307422638,-0.010872052982449532,0.07610437273979187,0.28439003229141235,0.04901960864663124,0.16956588625907898
4.462275743484497,-0.10624094307422638,-0.01125352829694748,0.07648584991693497,0.28667888045310974,0.04940108209848404,0.17032882571220398
4.482513189315796,-0.10624094307422638,-0.012779430486261845,0.07763027399778366,0.28820478916168213,0.04940108209848404,0.17071031033992767
4.502619028091431,-0.10662241280078888,-0.01506828423589468,0.07915617525577545,0.28934919834136963,0.050164032727479935,0.17147326469421387
4.522743225097656,-0.10662241280078888,-0.016975661739706993,0.08030059933662415,0.290875107049942,0.05092698708176613,0.17261768877506256
4.542784690856934,-0.10662241280078888,-0.018120087683200836,0.08144503086805344,0.2927824854850769,0.05130846053361893,0.17414358258247375
4.562875270843506,-0.10700388997793198,-0.01926451548933983,0.08297093212604523,0.2954528033733368,0.05207141116261482,0.17490653693675995
4.582959890365601,-0.10738536715507507,-0.019645990803837776,0.08449683338403702,0.2973601818084717,0.05245288833975792,0.17681391537189484
4.6030638217926025,-0.10738536715507507,-0.02040894143283367,0.08564125746488571,0.30041199922561646,0.05245288833975792,0.17757686972618103
4.623221158981323,-0.10738536715507507,-0.021553369238972664,0.0871671661734581,0.30308231711387634,0.05245288833975792,0.17795833945274353
4.643205642700195,-0.10738536715507507,-0.023460745811462402,0.08869306743144989,0.3057526648044586,0.05283436179161072,0.17910276353359222
4.663284063339233,-0.10738536715507507,-0.024605173617601395,0.08945601433515549,0.308804452419281,0.053215838968753815,0.1810101419687271
4.683406829833984,-0.10738536715507507,-0.026131074875593185,0.09021896868944168,0.3118562698364258,0.05283436179161072,0.1817730963230133
4.703496217727661,-0.10738536715507507,-0.027656977996230125,0.09136339277029037,0.31452658772468567,0.053215838968753815,0.1832990050315857
4.723575115203857,-0.10738536715507507,-0.02880140393972397,0.09212634712457657,0.31605249643325806,0.05359731614589691,0.18596932291984558
4.743799686431885,-0.10738536715507507,-0.03032730519771576,0.09327077120542526,0.31872281432151794,0.05359731614589691,0.18711376190185547
4.7638890743255615,-0.10738536715507507,-0.032616160809993744,0.09517814964056015,0.32024872303009033,0.05397878959774971,0.18825818598270416
4.7839906215667725,-0.10738536715507507,-0.03490501269698143,0.09670405089855194,0.3221561014652252,0.05397878959774971,0.18863965570926666
4.804255247116089,-0.10738536715507507,-0.03681239113211632,0.09822995215654373,0.32520791888237,0.05436026677489281,0.18902114033699036
4.824326515197754,-0.10738536715507507,-0.038719769567251205,0.10013733059167862,0.3274967670440674,0.0551232174038887,0.19092851877212524
4.844408750534058,-0.10738536715507507,-0.0394827201962471,0.10204470902681351,0.33131152391433716,0.0551232174038887,0.19321736693382263
4.864472389221191,-0.10738536715507507,-0.04100862145423889,0.1035706102848053,0.33436331152915955,0.0555046908557415,0.1958876997232437
4.884572982788086,-0.10738536715507507,-0.04253452271223068,0.10547798871994019,0.33665215969085693,0.0558861680328846,0.1962691694498062
4.904733180999756,-0.10738536715507507,-0.04444190114736557,0.10662241280078888,0.3389410376548767,0.056267641484737396,0.1966506391763687
4.9247260093688965,-0.10738536715507507,-0.04558632895350456,0.10776684433221817,0.3408484160900116,0.056267641484737396,0.1977950781583786
4.9448466300964355,-0.10738536715507507,-0.04749370738863945,0.10891126841306686,0.343900203704834,0.056267641484737396,0.1997024416923523
4.964893341064453,-0.10738536715507507,-0.050164032727479935,0.11043716967105865,0.34695202112197876,0.056267641484737396,0.20084688067436218
4.9849512577056885,-0.10738536715507507,-0.05359731614589691,0.11196307092905045,0.34962233901023865,0.05741206929087639,0.20389868319034576
5.005094528198242,-0.10738536715507507,-0.05741206929087639,0.11387044936418533,0.3526741564273834,0.057793546468019485,0.20389868319034576
5.0251593589782715,-0.10738536715507507,-0.05970092490315437,0.11577782779932022,0.3553444743156433,0.05855649709701538,0.20428015291690826
5.045220613479614,-0.10738536715507507,-0.061226826161146164,0.11692225188016891,0.3572518527507782,0.058175019919872284,0.20656901597976685
5.065311670303345,-0.10738536715507507,-0.06466010212898254,0.1184481605887413,0.3603036403656006,0.05893797054886818,0.20733195543289185
5.085376024246216,-0.10738536715507507,-0.06771191209554672,0.12073700875043869,0.36297398805618286,0.05970092490315437,0.20809490978717804
5.1054370403289795,-0.10700388997793198,-0.0707637146115303,0.12149996310472488,0.36526283621788025,0.06046387553215027,0.21076524257659912
5.125629425048828,-0.10700388997793198,-0.07343403995037079,0.12302586436271667,0.36755168437957764,0.06008239835500717,0.212672621011734
5.145651340484619,-0.10700388997793198,-0.07534141838550568,0.12455176562070847,0.3706035017967224,0.06046387553215027,0.2134355753660202
5.165709972381592,-0.10662241280078888,-0.07648584991693497,0.12607766687870026,0.3747997283935547,0.06008239835500717,0.2145799994468689
5.185823202133179,-0.10585946589708328,-0.07877469807863235,0.12760357558727264,0.3774700462818146,0.06008239835500717,0.2157244235277176
5.205915927886963,-0.10509651154279709,-0.08106355369091034,0.12951095402240753,0.37975889444351196,0.06084534898400307,0.21763180196285248
5.225951671600342,-0.10433356463909149,-0.08297093212604523,0.13065537810325623,0.38357365131378174,0.06160829961299896,0.21953918039798737
5.246029615402222,-0.1035706102848053,-0.08487831056118011,0.13141833245754242,0.3866254687309265,0.06237125024199486,0.22220951318740845
5.266099691390991,-0.1028076633810997,-0.0864042118191719,0.1329442262649536,0.3908216953277588,0.06275273114442825,0.22220951318740845
5.286191940307617,-0.10166323184967041,-0.0875486359000206,0.1337071806192398,0.3934920132160187,0.06275273114442825,0.22297245264053345
5.306314706802368,-0.10128175467252731,-0.08869306743144989,0.1348516047000885,0.39768826961517334,0.06313420087099075,0.22487983107566833
5.326383829116821,-0.10090028494596481,-0.08983749151229858,0.1359960287809372,0.4015030264854431,0.06389715522527695,0.22716869413852692
5.34646201133728,-0.10090028494596481,-0.09174486994743347,0.1371404528617859,0.4060807228088379,0.06389715522527695,0.2294575423002243
5.366586685180664,-0.09975585341453552,-0.09403372555971146,0.13790340721607208,0.41218432784080505,0.06427863240242004,0.2302204966545105
5.386651277542114,-0.09861142933368683,-0.09632257372140884,0.13942931592464447,0.41599908471107483,0.06427863240242004,0.23212787508964539
5.406721591949463,-0.09784847497940063,-0.09784847497940063,0.14057374000549316,0.4198138415813446,0.06427863240242004,0.23327229917049408
5.426811456680298,-0.09632257372140884,-0.10013733059167862,0.14248111844062805,0.4236285984516144,0.06466010212898254,0.23479819297790527
5.446890830993652,-0.09555962681770325,-0.1039520874619484,0.14553292095661163,0.42820629477500916,0.06504157930612564,0.23785001039505005
5.466991662979126,-0.09441519528627396,-0.10929274559020996,0.14782176911830902,0.43202105164527893,0.06580453366041183,0.24013885855674744
5.487097263336182,-0.09288929402828217,-0.11501488089561462,0.1516365259885788,0.4373617172241211,0.06809338182210922,0.24128328263759613
5.507188558578491,-0.09174486994743347,-0.12111848592758179,0.15621423721313477,0.4404135048389435,0.07000076025724411,0.24319066107273102
5.527259826660156,-0.09060044586658478,-0.12455176562070847,0.15888457000255585,0.44499123096466064,0.0711451917886734,0.2454795092344284
5.547553062438965,-0.0879301130771637,-0.12760357558727264,0.16308079659938812,0.4484245181083679,0.0711451917886734,0.24929426610469818
5.567644834518433,-0.08564125746488571,-0.1337071806192398,0.1676585078239441,0.4530022144317627,0.071908138692379,0.2500572204589844
5.58771824836731,-0.08411535620689392,-0.14095520973205566,0.17071031033992767,0.45719844102859497,0.071908138692379,0.25349050760269165
5.608547687530518,-0.08258945494890213,-0.14744029939174652,0.17414358258247375,0.46139466762542725,0.07267109304666519,0.25501641631126404
5.62867283821106,-0.08030059933662415,-0.15392538905143738,0.17872129380702972,0.4674982726573944,0.07305257022380829,0.25654229521751404
5.64879846572876,-0.07724879682064056,-0.15697719156742096,0.1810101419687271,0.4720759987831116,0.07381551712751389,0.2576867341995239
5.668832540512085,-0.07419699430465698,-0.16041046380996704,0.182917520403862,0.47741663455963135,0.07534141838550568,0.2595941126346588
5.688954591751099,-0.0722896158695221,-0.16384375095367432,0.1844434291124344,0.483138769865036,0.07610437273979187,0.2615014910697937
5.7090044021606445,-0.0715266615152359,-0.17109178006649017,0.18635080754756927,0.48962387442588806,0.07839322835206985,0.2637903392314911
5.729061841964722,-0.07038223743438721,-0.1802472025156021,0.18749523162841797,0.4961089491844177,0.07991912961006165,0.266460657119751
5.749143123626709,-0.06809338182210922,-0.18787670135498047,0.18978407979011536,0.5029755234718323,0.07991912961006165,0.26798656582832336
5.769209861755371,-0.06580453366041183,-0.19283588230609894,0.19130998849868774,0.5086976289749146,0.07877469807863235,0.27141985297203064
5.789299011230469,-0.06389715522527695,-0.1958876997232437,0.19359883666038513,0.5148012638092041,0.07839322835206985,0.2752346098423004
5.809369087219238,-0.06160829961299896,-0.20160982012748718,0.1981765478849411,0.5209048390388489,0.07877469807863235,0.2767605185508728
5.829455375671387,-0.06008239835500717,-0.20771344006061554,0.20084688067436218,0.5266270041465759,0.07839322835206985,0.2790493667125702
5.8495001792907715,-0.05855649709701538,-0.2157244235277176,0.20199130475521088,0.5323491096496582,0.07915617525577545,0.2817196846008301
5.8695902824401855,-0.05664911866188049,-0.21839475631713867,0.20351719856262207,0.5395971536636353,0.08335240930318832,0.28248265385627747
5.889675855636597,-0.05436026677489281,-0.2153429538011551,0.20428015291690826,0.5483710765838623,0.08449683338403702,0.28477150201797485
5.909741640090942,-0.05245288833975792,-0.212672621011734,0.20237277448177338,0.5563820600509644,0.086785688996315,0.28667888045310974
5.9298694133758545,-0.04940108209848404,-0.21000228822231293,0.1997024416923523,0.5651560425758362,0.08487831056118011,0.2904936373233795
5.950068473815918,-0.048638131469488144,-0.20580606162548065,0.19245441257953644,0.5739299654960632,0.0864042118191719,0.2939268946647644
5.9701032638549805,-0.04749370738863945,-0.1997024416923523,0.18596932291984558,0.5823224186897278,0.09403372555971146,0.2965972423553467
5.990170478820801,-0.04634927958250046,-0.1962691694498062,0.182917520403862,0.5945296287536621,0.09479667246341705,0.30117493867874146
6.01025390625,-0.04291599988937378,-0.18825818598270416,0.17338064312934875,0.6048294901847839,0.09746700525283813,0.30346378684043884
6.030316114425659,-0.0394827201962471,-0.17948424816131592,0.1646067053079605,0.614366352558136,0.09594109654426575,0.3061341345310211
6.050555467605591,-0.039101243019104004,-0.17299915850162506,0.16079194843769073,0.6261920928955078,0.08449683338403702,0.3118562698364258
6.070641040802002,-0.032616160809993744,-0.17261768877506256,0.16002899408340454,0.6334401369094849,0.07839322835206985,0.31567102670669556
6.090714454650879,-0.025749599561095238,-0.17338064312934875,0.16117341816425323,0.6406881809234619,0.07915617525577545,0.31757840514183044
6.1111366748809814,-0.034142062067985535,-0.17109178006649017,0.16193637251853943,0.648699164390564,0.08182650804519653,0.3217746317386627
6.131237745285034,-0.031090257689356804,-0.16956588625907898,0.16079194843769073,0.6528953909873962,0.08030059933662415,0.3217746317386627
6.151317358016968,-0.02384222112596035,-0.1684214472770691,0.15812161564826965,0.6593804955482483,0.08449683338403702,0.3221561014652252
6.17139196395874,-0.03299763426184654,-0.1672770231962204,0.15735866129398346,0.6658655405044556,0.08220797777175903,0.325970858335495
6.191477298736572,-0.029182879254221916,-0.16994735598564148,0.15735866129398346,0.6700618267059326,0.07763027399778366,0.32520791888237
6.211593151092529,-0.024986648932099342,-0.17299915850162506,0.16269932687282562,0.6761654019355774,0.07763027399778366,0.32673379778862
6.2316224575042725,-0.02727550081908703,-0.17643244564533234,0.16994735598564148,0.6811245679855347,0.06771191209554672,0.3282597064971924
6.25172233581543,-0.02193484455347061,-0.17833982408046722,0.17414358258247375,0.6811245679855347,0.07801175117492676,0.3255893886089325
6.271814584732056,-0.014686808921396732,-0.17757686972618103,0.17376211285591125,0.6818875670433044,0.08144503086805344,0.3255893886089325
6.291895389556885,-0.02231631986796856,-0.17261768877506256,0.1684214472770691,0.6849393248558044,0.08983749151229858,0.3248264193534851
6.3120951652526855,-0.026131074875593185,-0.17299915850162506,0.16117341816425323,0.6857023239135742,0.09746700525283813,0.3248264193534851
6.332183599472046,-0.018120087683200836,-0.17910276353359222,0.16422522068023682,0.6876096725463867,0.08220797777175903,0.3213931620121002
6.352261543273926,-0.014686808921396732,-0.18673227727413177,0.16994735598564148,0.693331778049469,0.06923781335353851,0.3240634799003601
6.372374773025513,-0.021553369238972664,-0.18787670135498047,0.17719538509845734,0.6952391862869263,0.061226826161146164,0.3229190409183502
6.392484903335571,-0.019645990803837776,-0.1832990050315857,0.1836804747581482,0.697528064250946,0.05664911866188049,0.3221561014652252
6.412549018859863,-0.018120087683200836,-0.17719538509845734,0.1840619444847107,0.699053943157196,0.06656748056411743,0.32063019275665283
6.432601451873779,-0.01926451548933983,-0.17071031033992767,0.17605096101760864,0.700579822063446,0.07267109304666519,0.31872281432151794
6.4526917934417725,-0.021171892061829567,-0.16994735598564148,0.1646067053079605,0.7009612917900085,0.07991912961006165,0.31719690561294556
6.472779273986816,-0.018501564860343933,-0.17338064312934875,0.16079194843769073,0.7028687000274658,0.08602273464202881,0.31452658772468567
6.492840766906738,-0.016975661739706993,-0.1813916265964508,0.1653696447610855,0.7043945789337158,0.06351567804813385,0.31643396615982056
6.512927055358887,-0.01735713705420494,-0.19054703414440155,0.17071031033992767,0.7059205174446106,0.0555046908557415,0.31528952717781067
6.533041954040527,-0.016594186425209045,-0.19283588230609894,0.182917520403862,0.7078278660774231,0.049782559275627136,0.31605249643325806
6.553068399429321,-0.01735713705420494,-0.19283588230609894,0.19398032128810883,0.7089722752571106,0.0551232174038887,0.31528952717781067
6.573151111602783,-0.018501564860343933,-0.19169145822525024,0.1985580176115036,0.7085908055305481,0.06771191209554672,0.3130006790161133
6.593285083770752,-0.01926451548933983,-0.18711376190185547,0.1993209719657898,0.7089722752571106,0.07724879682064056,0.3122377395629883
6.613309860229492,-0.01926451548933983,-0.18520638346672058,0.19283588230609894,0.7082093358039856,0.08373387902975082,0.3099488914012909
6.633551597595215,-0.018501564860343933,-0.18596932291984558,0.182917520403862,0.7078278660774231,0.09327077120542526,0.308804452419281
6.65365195274353,-0.019645990803837776,-0.18863965570926666,0.1813916265964508,0.7093538045883179,0.08030059933662415,0.309567391872406
6.673745632171631,-0.019645990803837776,-0.19436179101467133,0.1813916265964508,0.7116426229476929,0.06542305648326874,0.3091859221458435
6.693786144256592,-0.01888304017484188,-0.1977950781583786,0.18711376190185547,0.7154573798179626,0.053215838968753815,0.309567391872406
6.713969945907593,-0.016212711110711098,-0.1970321238040924,0.1977950781583786,0.7181277275085449,0.04901960864663124,0.3091859221458435
6.734031677246094,-0.01430533267557621,-0.19283588230609894,0.1977950781583786,0.7185091972351074,0.05855649709701538,0.3076600432395935
6.754087924957275,-0.01430533267557621,-0.1844434291124344,0.18787670135498047,0.7185091972351074,0.0707637146115303,0.3072785437107086
6.774190425872803,-0.016212711110711098,-0.1813916265964508,0.17872129380702972,0.7185091972351074,0.08068207651376724,0.3065156042575836
6.794287443161011,-0.016212711110711098,-0.182917520403862,0.17452506721019745,0.7185091972351074,0.09021896868944168,0.30537116527557373
6.814364194869995,-0.014686808921396732,-0.18711376190185547,0.17299915850162506,0.7211795449256897,0.06847485899925232,0.3068970739841461
6.834641218185425,-0.01430533267557621,-0.19436179101467133,0.17795833945274353,0.7219424843788147,0.05703059583902359,0.3065156042575836
6.854726552963257,-0.013542382046580315,-0.1981765478849411,0.18940261006355286,0.725375771522522,0.04177157208323479,0.3068970739841461
6.874797105789185,-0.012397955171763897,-0.19550621509552002,0.1985580176115036,0.7272831201553345,0.04100862145423889,0.3061341345310211
6.895250082015991,-0.010490577667951584,-0.18940261006355286,0.1989395022392273,0.7265201807022095,0.054741740226745605,0.30460822582244873
6.915347576141357,-0.010872052982449532,-0.1817730963230133,0.19283588230609894,0.7265201807022095,0.06466010212898254,0.30346378684043884
6.935400485992432,-0.01125352829694748,-0.17643244564533234,0.1810101419687271,0.7257572412490845,0.07267109304666519,0.30270084738731384
6.955632448196411,-0.01201647985726595,-0.17757686972618103,0.17147326469421387,0.725375771522522,0.08602273464202881,0.29964902997016907
6.975721597671509,-0.01430533267557621,-0.182154580950737,0.16994735598564148,0.7265201807022095,0.07038223743438721,0.30155640840530396
6.995790243148804,-0.01430533267557621,-0.19130998849868774,0.17147326469421387,0.726138710975647,0.05130846053361893,0.30117493867874146
7.01585054397583,-0.01430533267557621,-0.1958876997232437,0.17681391537189484,0.7280460596084595,0.043678950518369675,0.30155640840530396
7.035943508148193,-0.01506828423589468,-0.1966506391763687,0.18863965570926666,0.7318608164787292,0.040245670825242996,0.30155640840530396
7.056160926818848,-0.013542382046580315,-0.19474326074123383,0.19436179101467133,0.7314793467521667,0.04482337832450867,0.29964902997016907
7.076124668121338,-0.011635004542768002,-0.18940261006355286,0.18711376190185547,0.7318608164787292,0.06313420087099075,0.29964902997016907
7.096217393875122,-0.012779430486261845,-0.1844434291124344,0.17490653693675995,0.7307164072990417,0.07457847148180008,0.29926756024360657
7.116299867630005,-0.01430533267557621,-0.1840619444847107,0.1665140837430954,0.728427529335022,0.09441519528627396,0.2977416515350342
7.136404752731323,-0.014686808921396732,-0.18825818598270416,0.1653696447610855,0.7288090586662292,0.08335240930318832,0.2977416515350342
7.1564600467681885,-0.013542382046580315,-0.1970321238040924,0.17147326469421387,0.7288090586662292,0.06237125024199486,0.29888609051704407
7.17658257484436,-0.012779430486261845,-0.20275425910949707,0.1810101419687271,0.7299534678459167,0.050164032727479935,0.29964902997016907
7.19661808013916,-0.011635004542768002,-0.1989395022392273,0.19283588230609894,0.7310978770256042,0.04406042397022247,0.29926756024360657
7.216708183288574,-0.01201647985726595,-0.19283588230609894,0.1966506391763687,0.7307164072990417,0.06160829961299896,0.2973601818084717
7.236785650253296,-0.012779430486261845,-0.1848248988389969,0.19474326074123383,0.7307164072990417,0.06961929053068161,0.2973601818084717
7.256866931915283,-0.012779430486261845,-0.1813916265964508,0.18940261006355286,0.7295719981193542,0.08144503086805344,0.2962157726287842
7.276933193206787,-0.012397955171763897,-0.1810101419687271,0.17833982408046722,0.7272831201553345,0.09288929402828217,0.2946898639202118
7.297020196914673,-0.013542382046580315,-0.1810101419687271,0.1668955534696579,0.7257572412490845,0.09517814964056015,0.2946898639202118
7.317113161087036,-0.016212711110711098,-0.1825360506772995,0.164988175034523,0.7257572412490845,0.07419699430465698,0.2962157726287842
7.337204456329346,-0.01583123579621315,-0.18825818598270416,0.1672770231962204,0.726138710975647,0.05893797054886818,0.2962157726287842
7.357295989990234,-0.01583123579621315,-0.19207294285297394,0.17452506721019745,0.7265201807022095,0.048638131469488144,0.2965972423553467
7.377371549606323,-0.016212711110711098,-0.18978407979011536,0.1840619444847107,0.7291905283927917,0.04901960864663124,0.2965972423553467
7.397465229034424,-0.013542382046580315,-0.18635080754756927,0.18558785319328308,0.7288090586662292,0.06008239835500717,0.2950713336467743
7.417594909667969,-0.012779430486261845,-0.17986571788787842,0.17605096101760864,0.7288090586662292,0.0715266615152359,0.2954528033733368
7.437641859054565,-0.015449759550392628,-0.17833982408046722,0.16918440163135529,0.728427529335022,0.08449683338403702,0.2950713336467743
7.457705020904541,-0.01506828423589468,-0.1810101419687271,0.1661325991153717,0.725375771522522,0.09403372555971146,0.2943083941936493
7.477761268615723,-0.013160906732082367,-0.18558785319328308,0.16346226632595062,0.7257572412490845,0.07343403995037079,0.2958342730998993
7.497853755950928,-0.013542382046580315,-0.19245441257953644,0.1672770231962204,0.7257572412490845,0.06198977679014206,0.2962157726287842
7.517930507659912,-0.013542382046580315,-0.1962691694498062,0.17643244564533234,0.726138710975647,0.049782559275627136,0.2969787120819092
7.538005352020264,-0.012779430486261845,-0.19474326074123383,0.18558785319328308,0.727664589881897,0.04558632895350456,0.2969787120819092
7.558355093002319,-0.010490577667951584,-0.19245441257953644,0.18711376190185547,0.726901650428772,0.059319447726011276,0.2950713336467743
7.578393459320068,-0.010872052982449532,-0.18673227727413177,0.17910276353359222,0.7272831201553345,0.07267109304666519,0.2958342730998993
7.598463773727417,-0.01506828423589468,-0.182154580950737,0.17071031033992767,0.726138710975647,0.09136339277029037,0.2950713336467743
7.618517160415649,-0.014686808921396732,-0.18596932291984558,0.164988175034523,0.725375771522522,0.09937438368797302,0.2931639552116394
7.638629913330078,-0.012779430486261845,-0.19207294285297394,0.1684214472770691,0.726138710975647,0.07572289556264877,0.2954528033733368
7.658718109130859,-0.01201647985726595,-0.2004653960466385,0.17299915850162506,0.726138710975647,0.06160829961299896,0.2958342730998993
7.678791046142578,-0.011635004542768002,-0.20199130475521088,0.1832990050315857,0.7272831201553345,0.046730753034353256,0.2977416515350342
7.698846101760864,-0.010490577667951584,-0.1966506391763687,0.18978407979011536,0.7288090586662292,0.04558632895350456,0.29812315106391907
7.71893048286438,-0.009727626107633114,-0.18902114033699036,0.18940261006355286,0.728427529335022,0.05970092490315437,0.2962157726287842
7.739001274108887,-0.009727626107633114,-0.1802472025156021,0.18558785319328308,0.7288090586662292,0.06618601083755493,0.2965972423553467
7.759165048599243,-0.010490577667951584,-0.17452506721019745,0.17681391537189484,0.7280460596084595,0.08220797777175903,0.2958342730998993
7.779264688491821,-0.011635004542768002,-0.17490653693675995,0.16231784224510193,0.724612832069397,0.09212634712457657,0.2954528033733368
7.799326419830322,-0.01506828423589468,-0.17719538509845734,0.15964750945568085,0.7257572412490845,0.08487831056118011,0.2973601818084717
7.8195481300354,-0.016594186425209045,-0.1844434291124344,0.16422522068023682,0.7257572412490845,0.06656748056411743,0.2973601818084717
7.839643239974976,-0.016594186425209045,-0.19092851877212524,0.17299915850162506,0.7265201807022095,0.056267641484737396,0.29926756024360657
7.859705448150635,-0.015449759550392628,-0.19016556441783905,0.1848248988389969,0.7295719981193542,0.045204851776361465,0.29926756024360657
7.879817485809326,-0.013542382046580315,-0.18749523162841797,0.19016556441783905,0.7291905283927917,0.057793546468019485,0.29812315106391907
7.8999342918396,-0.013923857361078262,-0.1817730963230133,0.19016556441783905,0.7291905283927917,0.06885633617639542,0.29850462079048157
7.919969320297241,-0.01430533267557621,-0.17681391537189484,0.1848248988389969,0.7288090586662292,0.07915617525577545,0.2973601818084717
7.940261363983154,-0.013542382046580315,-0.17643244564533234,0.17414358258247375,0.7265201807022095,0.09098191559314728,0.2962157726287842
7.960350275039673,-0.018120087683200836,-0.17986571788787842,0.17147326469421387,0.7257572412490845,0.08907453715801239,0.2962157726287842
7.98043417930603,-0.020027466118335724,-0.18558785319328308,0.17528800666332245,0.726138710975647,0.06427863240242004,0.29850462079048157
8.000481367111206,-0.01773861236870289,-0.19130998849868774,0.1844434291124344,0.726901650428772,0.05359731614589691,0.29926756024360657
8.020575761795044,-0.013923857361078262,-0.18978407979011536,0.19321736693382263,0.7288090586662292,0.045204851776361465,0.29964902997016907
8.040767669677734,-0.015449759550392628,-0.1848248988389969,0.19474326074123383,0.7291905283927917,0.06198977679014206,0.29888609051704407
8.060802936553955,-0.018120087683200836,-0.17757686972618103,0.18787670135498047,0.7291905283927917,0.0707637146115303,0.29888609051704407
8.080867767333984,-0.018501564860343933,-0.17452506721019745,0.17528800666332245,0.7288090586662292,0.08068207651376724,0.29812315106391907
8.100946426391602,-0.016975661739706993,-0.17719538509845734,0.1680399775505066,0.7280460596084595,0.09670405089855194,0.2965972423553467
8.121010065078735,-0.01583123579621315,-0.182917520403862,0.16918440163135529,0.7272831201553345,0.07991912961006165,0.2973601818084717
8.141084432601929,-0.01583123579621315,-0.19321736693382263,0.17643244564533234,0.726901650428772,0.05703059583902359,0.29888609051704407
