liuyurong129/humanoid-gym/humanoid/data/actual_q_20250522-231410.csv
timestamp,joint_1,joint_2,joint_3,joint_4,joint_5,joint_6
0.00013780593872070312,0.00019073777366429567,0.17376211285591125,-0.086785688996315,-0.00019073777366429567,0.00019073777366429567,0.00019073777366429567
0.0202791690826416,0.00019073777366429567,0.1520180106163025,-0.07763027399778366,-0.00019073777366429567,-0.00019073777366429567,0.00019073777366429567
0.04030299186706543,-0.00019073777366429567,0.12874799966812134,-0.06656748056411743,-0.00019073777366429567,0.000572213320992887,0.00019073777366429567
0.06037139892578125,-0.00019073777366429567,0.11196307092905045,-0.06008239835500717,-0.00019073777366429567,0.0020981156267225742,0.00019073777366429567
0.08044719696044922,-0.00019073777366429567,0.10738536715507507,-0.05741206929087639,-0.00019073777366429567,0.00019073777366429567,0.00019073777366429567
0.10049581527709961,-0.00019073777366429567,0.10204470902681351,-0.0551232174038887,-0.00019073777366429567,0.00019073777366429567,0.00019073777366429567
0.12059879302978516,-0.00019073777366429567,0.10051880776882172,-0.053215838968753815,-0.00019073777366429567,-0.00019073777366429567,0.00019073777366429567
0.14070463180541992,-0.00019073777366429567,0.09746700525283813,-0.05130846053361893,-0.00019073777366429567,0.000572213320992887,0.00019073777366429567
0.1607680320739746,-0.00019073777366429567,0.09670405089855194,-0.05130846053361893,0.00019073777366429567,0.00019073777366429567,0.000572213320992887
0.1808180809020996,-0.000572213320992887,0.09441519528627396,-0.05130846053361893,0.00019073777366429567,-0.00019073777366429567,0.00019073777366429567
0.20088815689086914,-0.000572213320992887,0.09174486994743347,-0.051689937710762024,0.000572213320992887,0.00019073777366429567,0.000572213320992887
0.22096014022827148,-0.0013351644156500697,0.09021896868944168,-0.05130846053361893,0.0009536888683214784,0.000572213320992887,0.00019073777366429567
0.24103188514709473,-0.0024795911740511656,0.08869306743144989,-0.05092698708176613,0.0013351644156500697,0.000572213320992887,0.000572213320992887
0.26112818717956543,-0.0024795911740511656,0.0883115902543068,-0.050164032727479935,0.0020981156267225742,-0.000572213320992887,0.000572213320992887
0.28120946884155273,-0.0036240178160369396,0.0864042118191719,-0.050164032727479935,0.002861066721379757,-0.00019073777366429567,0.000572213320992887
0.301283597946167,-0.00476844422519207,0.08564125746488571,-0.050164032727479935,0.0032425422687083483,-0.00019073777366429567,0.000572213320992887
0.32134509086608887,-0.00476844422519207,0.08411535620689392,-0.049782559275627136,0.0036240178160369396,-0.00019073777366429567,0.000572213320992887
0.3413968086242676,-0.00476844422519207,0.08297093212604523,-0.04940108209848404,0.0036240178160369396,-0.00019073777366429567,0.000572213320992887
0.36147427558898926,-0.005531395319849253,0.08182650804519653,-0.04901960864663124,0.004386968910694122,-0.00019073777366429567,0.000572213320992887
0.3815896511077881,-0.006294346414506435,0.08030059933662415,-0.04787518084049225,0.004386968910694122,-0.00019073777366429567,0.000572213320992887
0.40170955657958984,-0.00667582219466567,0.07953765243291855,-0.04787518084049225,0.005149920005351305,-0.00019073777366429567,0.000572213320992887
0.42175841331481934,-0.007438773289322853,0.07839322835206985,-0.04711223021149635,0.005912871100008488,-0.000572213320992887,0.000572213320992887
0.44184160232543945,-0.0078202486038208,0.07686731964349747,-0.04711223021149635,0.007057297509163618,-0.00019073777366429567,0.000572213320992887
0.46190714836120605,-0.007438773289322853,0.07572289556264877,-0.04596780240535736,0.007057297509163618,-0.000572213320992887,0.000572213320992887
0.4819512367248535,-0.0078202486038208,0.07305257022380829,-0.04596780240535736,0.007438773289322853,-0.000572213320992887,0.000572213320992887
0.5020337104797363,-0.00858320016413927,0.071908138692379,-0.045204851776361465,0.0078202486038208,-0.000572213320992887,0.000572213320992887
0.5220999717712402,-0.009727626107633114,0.06923781335353851,-0.04482337832450867,0.008201723918318748,-0.000572213320992887,0.000572213320992887
0.542278528213501,-0.009727626107633114,0.06847485899925232,-0.04444190114736557,0.00858320016413927,-0.000572213320992887,0.0009536888683214784
0.5623173713684082,-0.010109102353453636,0.06618601083755493,-0.04406042397022247,0.009727626107633114,-0.0009536888683214784,0.0009536888683214784
0.5823681354522705,-0.010490577667951584,0.06504157930612564,-0.04329747334122658,0.010490577667951584,-0.0009536888683214784,0.0009536888683214784
0.6024315357208252,-0.01201647985726595,0.06389715522527695,-0.04291599988937378,0.010872052982449532,-0.0009536888683214784,0.0009536888683214784
0.6225202083587646,-0.012397955171763897,0.06198977679014206,-0.042153049260377884,0.01125352829694748,-0.0013351644156500697,0.0013351644156500697
0.642613410949707,-0.012397955171763897,0.06084534898400307,-0.04139009863138199,0.011635004542768002,-0.0013351644156500697,0.001716639962978661
0.6626849174499512,-0.013160906732082367,0.05855649709701538,-0.04100862145423889,0.01201647985726595,-0.0013351644156500697,0.001716639962978661
0.6828012466430664,-0.013160906732082367,0.058175019919872284,-0.04100862145423889,0.012397955171763897,-0.001716639962978661,0.0024795911740511656
0.7028694152832031,-0.01430533267557621,0.0558861680328846,-0.040245670825242996,0.013542382046580315,-0.001716639962978661,0.0024795911740511656
0.7229495048522949,-0.01506828423589468,0.05436026677489281,-0.0398641936480999,0.014686808921396732,-0.001716639962978661,0.0024795911740511656
0.7430300712585449,-0.014686808921396732,0.05359731614589691,-0.039101243019104004,0.01506828423589468,-0.0024795911740511656,0.002861066721379757
0.7630844116210938,-0.015449759550392628,0.05130846053361893,-0.038719769567251205,0.015449759550392628,-0.002861066721379757,0.0032425422687083483
0.783196210861206,-0.016212711110711098,0.05054550990462303,-0.03833829239010811,0.01583123579621315,-0.0032425422687083483,0.0032425422687083483
0.8032553195953369,-0.016975661739706993,0.04787518084049225,-0.03757534176111221,0.016975661739706993,-0.0032425422687083483,0.0032425422687083483
0.8233215808868408,-0.016975661739706993,0.04634927958250046,-0.037193864583969116,0.01773861236870289,-0.004005493130534887,0.0032425422687083483
0.843416690826416,-0.01773861236870289,0.04482337832450867,-0.03681239113211632,0.01888304017484188,-0.004005493130534887,0.0032425422687083483
0.8635053634643555,-0.018501564860343933,0.04291599988937378,-0.035667963325977325,0.01888304017484188,-0.004386968910694122,0.0032425422687083483
0.8837013244628906,-0.01888304017484188,0.042153049260377884,-0.03490501269698143,0.019645990803837776,-0.00476844422519207,0.0032425422687083483
0.9036943912506104,-0.020027466118335724,0.039101243019104004,-0.03337911143898964,0.020027466118335724,-0.00476844422519207,0.0032425422687083483
0.923795223236084,-0.02040894143283367,0.038719769567251205,-0.03299763426184654,0.021553369238972664,-0.00476844422519207,0.0032425422687083483
0.9438745975494385,-0.021171892061829567,0.03643091395497322,-0.032616160809993744,0.02231631986796856,-0.00476844422519207,0.0032425422687083483
0.9639341831207275,-0.02231631986796856,0.03452353551983833,-0.03185320645570755,0.02231631986796856,-0.00476844422519207,0.0036240178160369396
0.9840569496154785,-0.02193484455347061,0.03299763426184654,-0.03147173300385475,0.023079270496964455,-0.005531395319849253,0.0036240178160369396
1.004077672958374,-0.022697795182466507,0.030708782374858856,-0.031090257689356804,0.023460745811462402,-0.006294346414506435,0.0036240178160369396
1.024156093597412,-0.023079270496964455,0.02880140393972397,-0.03032730519771576,0.024605173617601395,-0.007057297509163618,0.0036240178160369396
1.044238567352295,-0.024223696440458298,0.026131074875593185,-0.029564354568719864,0.02536812424659729,-0.007438773289322853,0.0036240178160369396
1.0643439292907715,-0.024223696440458298,0.025749599561095238,-0.029182879254221916,0.026131074875593185,-0.008201723918318748,0.0036240178160369396
1.0843665599822998,-0.024986648932099342,0.023079270496964455,-0.02841992862522602,0.026512550190091133,-0.0078202486038208,0.0036240178160369396
1.104447603225708,-0.025749599561095238,0.02193484455347061,-0.027656977996230125,0.02689402550458908,-0.008201723918318748,0.004005493130534887
1.1245191097259521,-0.026512550190091133,0.02079041674733162,-0.026512550190091133,0.027656977996230125,-0.0078202486038208,0.004005493130534887
1.1445577144622803,-0.02727550081908703,0.018120087683200836,-0.026131074875593185,0.02880140393972397,-0.008201723918318748,0.004005493130534887
1.1646442413330078,-0.02727550081908703,0.01735713705420494,-0.02536812424659729,0.029564354568719864,-0.008201723918318748,0.004005493130534887
1.1847114562988281,-0.02841992862522602,0.01430533267557621,-0.024605173617601395,0.03032730519771576,-0.008201723918318748,0.004005493130534887
1.2047739028930664,-0.029182879254221916,0.013542382046580315,-0.024223696440458298,0.030708782374858856,-0.008201723918318748,0.004386968910694122
1.2248578071594238,-0.029182879254221916,0.01125352829694748,-0.02384222112596035,0.03147173300385475,-0.008201723918318748,0.004386968910694122
1.2449560165405273,-0.029564354568719864,0.008964675478637218,-0.023079270496964455,0.032616160809993744,-0.00858320016413927,0.004386968910694122
1.2650439739227295,-0.03032730519771576,0.0078202486038208,-0.02231631986796856,0.03376058489084244,-0.00858320016413927,0.00476844422519207
1.285165548324585,-0.03147173300385475,0.00476844422519207,-0.021553369238972664,0.03376058489084244,-0.008201723918318748,0.00476844422519207
1.305196762084961,-0.03147173300385475,0.0036240178160369396,-0.02079041674733162,0.034142062067985535,-0.00858320016413927,0.005149920005351305
1.32527494430542,-0.032616160809993744,0.0009536888683214784,-0.020027466118335724,0.03452353551983833,-0.00858320016413927,0.005149920005351305
1.345337152481079,-0.03337911143898964,-0.00019073777366429567,-0.01926451548933983,0.035667963325977325,-0.00858320016413927,0.005531395319849253
1.3654091358184814,-0.034142062067985535,-0.0020981156267225742,-0.018501564860343933,0.03681239113211632,-0.00858320016413927,0.006294346414506435
1.3854570388793945,-0.03490501269698143,-0.004386968910694122,-0.01773861236870289,0.03757534176111221,-0.008201723918318748,0.007438773289322853
1.405540943145752,-0.03604944050312042,-0.005531395319849253,-0.016975661739706993,0.038719769567251205,-0.008964675478637218,0.007438773289322853
1.425628662109375,-0.03681239113211632,-0.00858320016413927,-0.016594186425209045,0.0394827201962471,-0.00858320016413927,0.007438773289322853
1.4457130432128906,-0.03681239113211632,-0.009727626107633114,-0.016212711110711098,0.04100862145423889,-0.009727626107633114,0.007438773289322853
1.4658422470092773,-0.03681239113211632,-0.012397955171763897,-0.015449759550392628,0.04139009863138199,-0.010109102353453636,0.0078202486038208
1.4858760833740234,-0.03757534176111221,-0.01430533267557621,-0.014686808921396732,0.04177157208323479,-0.010109102353453636,0.007438773289322853
1.5059609413146973,-0.03833829239010811,-0.01583123579621315,-0.013923857361078262,0.04253452271223068,-0.009727626107633114,0.0078202486038208
1.5260822772979736,-0.039101243019104004,-0.018120087683200836,-0.013542382046580315,0.043678950518369675,-0.009346150793135166,0.0078202486038208
1.5461721420288086,-0.0398641936480999,-0.01926451548933983,-0.012397955171763897,0.045204851776361465,-0.010490577667951584,0.0078202486038208
1.5662407875061035,-0.04100862145423889,-0.022697795182466507,-0.011635004542768002,0.04558632895350456,-0.010109102353453636,0.008201723918318748
1.5863151550292969,-0.04139009863138199,-0.023460745811462402,-0.01125352829694748,0.04596780240535736,-0.010490577667951584,0.008201723918318748
1.6064062118530273,-0.04177157208323479,-0.026131074875593185,-0.010109102353453636,0.04711223021149635,-0.01201647985726595,0.008201723918318748
1.6264779567718506,-0.04177157208323479,-0.027656977996230125,-0.009346150793135166,0.048256658017635345,-0.011635004542768002,0.008201723918318748
1.6465635299682617,-0.042153049260377884,-0.029564354568719864,-0.008201723918318748,0.04901960864663124,-0.012397955171763897,0.009346150793135166
1.6665959358215332,-0.04291599988937378,-0.03185320645570755,-0.0078202486038208,0.04940108209848404,-0.01201647985726595,0.009727626107633114
1.6866798400878906,-0.04406042397022247,-0.03299763426184654,-0.00667582219466567,0.050164032727479935,-0.011635004542768002,0.010490577667951584
1.7067756652832031,-0.04406042397022247,-0.03604944050312042,-0.005912871100008488,0.05130846053361893,-0.011635004542768002,0.010490577667951584
1.7268333435058594,-0.04406042397022247,-0.03643091395497322,-0.005531395319849253,0.05245288833975792,-0.01201647985726595,0.010872052982449532
1.7469065189361572,-0.04482337832450867,-0.038719769567251205,-0.004386968910694122,0.05245288833975792,-0.012779430486261845,0.010490577667951584
1.7669966220855713,-0.04558632895350456,-0.04139009863138199,-0.004005493130534887,0.05283436179161072,-0.012397955171763897,0.010872052982449532
1.7870824337005615,-0.04596780240535736,-0.04291599988937378,-0.0032425422687083483,0.05397878959774971,-0.012397955171763897,0.010872052982449532
1.8071775436401367,-0.04711223021149635,-0.04596780240535736,-0.0024795911740511656,0.05436026677489281,-0.012397955171763897,0.010872052982449532
1.8272290229797363,-0.04749370738863945,-0.04749370738863945,-0.0013351644156500697,0.056267641484737396,-0.012397955171763897,0.010872052982449532
1.84735107421875,-0.048638131469488144,-0.05054550990462303,-0.00019073777366429567,0.05664911866188049,-0.012397955171763897,0.010872052982449532
1.867408275604248,-0.04940108209848404,-0.051689937710762024,0.00019073777366429567,0.05703059583902359,-0.012779430486261845,0.010872052982449532
1.8874821662902832,-0.05054550990462303,-0.053215838968753815,0.0009536888683214784,0.058175019919872284,-0.012779430486261845,0.010872052982449532
1.9075298309326172,-0.05130846053361893,-0.0558861680328846,0.0020981156267225742,0.05970092490315437,-0.012397955171763897,0.01125352829694748
1.9276225566864014,-0.05130846053361893,-0.05741206929087639,0.0032425422687083483,0.06008239835500717,-0.01430533267557621,0.01125352829694748
1.9477028846740723,-0.051689937710762024,-0.06084534898400307,0.004386968910694122,0.06046387553215027,-0.014686808921396732,0.01125352829694748
1.9677660465240479,-0.051689937710762024,-0.061226826161146164,0.00476844422519207,0.06084534898400307,-0.014686808921396732,0.01125352829694748
1.9878411293029785,-0.05245288833975792,-0.06466010212898254,0.005912871100008488,0.06160829961299896,-0.014686808921396732,0.01125352829694748
2.0080013275146484,-0.05359731614589691,-0.06618601083755493,0.007057297509163618,0.06313420087099075,-0.01430533267557621,0.01125352829694748
2.0281026363372803,-0.05359731614589691,-0.06771191209554672,0.008201723918318748,0.06389715522527695,-0.014686808921396732,0.011635004542768002
2.048109769821167,-0.054741740226745605,-0.07038223743438721,0.00858320016413927,0.06389715522527695,-0.01430533267557621,0.011635004542768002
2.0681910514831543,-0.056267641484737396,-0.071908138692379,0.009346150793135166,0.06580453366041183,-0.014686808921396732,0.011635004542768002
2.088256359100342,-0.057793546468019485,-0.07534141838550568,0.010490577667951584,0.06694895774126053,-0.014686808921396732,0.011635004542768002
2.1083359718322754,-0.057793546468019485,-0.07648584991693497,0.010872052982449532,0.06771191209554672,-0.014686808921396732,0.011635004542768002
2.1284124851226807,-0.05855649709701538,-0.07953765243291855,0.012397955171763897,0.06885633617639542,-0.01506828423589468,0.011635004542768002
2.1484498977661133,-0.05855649709701538,-0.08030059933662415,0.013542382046580315,0.07000076025724411,-0.014686808921396732,0.01201647985726595
2.1685218811035156,-0.05855649709701538,-0.08220797777175903,0.01506828423589468,0.0711451917886734,-0.014686808921396732,0.01201647985726595
2.188570976257324,-0.05970092490315437,-0.08449683338403702,0.015449759550392628,0.0715266615152359,-0.014686808921396732,0.01201647985726595
2.2087221145629883,-0.06008239835500717,-0.08449683338403702,0.016594186425209045,0.0722896158695221,-0.01430533267557621,0.01201647985726595
2.2287559509277344,-0.06084534898400307,-0.0875486359000206,0.01735713705420494,0.07305257022380829,-0.01506828423589468,0.01201647985726595
2.248826742172241,-0.06160829961299896,-0.0883115902543068,0.01773861236870289,0.07495994865894318,-0.01506828423589468,0.01201647985726595
2.268967390060425,-0.06275273114442825,-0.09136339277029037,0.01888304017484188,0.07534141838550568,-0.01583123579621315,0.012397955171763897
2.2893872261047363,-0.06389715522527695,-0.09365224838256836,0.020027466118335724,0.07572289556264877,-0.01506828423589468,0.012397955171763897
2.3094866275787354,-0.06389715522527695,-0.09479667246341705,0.021171892061829567,0.07686731964349747,-0.015449759550392628,0.012779430486261845
2.3295416831970215,-0.06542305648326874,-0.09784847497940063,0.02193484455347061,0.07801175117492676,-0.01506828423589468,0.012779430486261845
2.3496170043945312,-0.06618601083755493,-0.09822995215654373,0.022697795182466507,0.07839322835206985,-0.01506828423589468,0.013160906732082367
2.369765520095825,-0.06656748056411743,-0.10128175467252731,0.02384222112596035,0.07915617525577545,-0.01506828423589468,0.013160906732082367
2.389801502227783,-0.06694895774126053,-0.10204470902681351,0.024986648932099342,0.07991912961006165,-0.015449759550392628,0.01430533267557621
2.4099087715148926,-0.06771191209554672,-0.10433356463909149,0.025749599561095238,0.08106355369091034,-0.015449759550392628,0.01430533267557621
2.430079936981201,-0.06847485899925232,-0.10700388997793198,0.026512550190091133,0.08220797777175903,-0.01583123579621315,0.01430533267557621
2.450226068496704,-0.06847485899925232,-0.10852979123592377,0.028038453310728073,0.08297093212604523,-0.015449759550392628,0.014686808921396732
2.470208168029785,-0.06923781335353851,-0.11234454810619354,0.02994582988321781,0.08335240930318832,-0.01583123579621315,0.014686808921396732
2.4902896881103516,-0.07038223743438721,-0.11310750246047974,0.030708782374858856,0.08487831056118011,-0.015449759550392628,0.014686808921396732
2.510352849960327,-0.0711451917886734,-0.11615930497646332,0.03185320645570755,0.08602273464202881,-0.016594186425209045,0.01506828423589468
2.530421018600464,-0.0711451917886734,-0.11730372905731201,0.03299763426184654,0.08602273464202881,-0.016212711110711098,0.01506828423589468
2.5504682064056396,-0.0715266615152359,-0.1188296303153038,0.03452353551983833,0.0871671661734581,-0.01735713705420494,0.01506828423589468
2.5706467628479004,-0.07267109304666519,-0.12149996310472488,0.035667963325977325,0.0879301130771637,-0.016975661739706993,0.01506828423589468
2.590644359588623,-0.07305257022380829,-0.12264438718557358,0.037193864583969116,0.08945601433515549,-0.016594186425209045,0.015449759550392628
2.61071515083313,-0.07343403995037079,-0.12645913660526276,0.03833829239010811,0.09021896868944168,-0.01735713705420494,0.015449759550392628
2.6308176517486572,-0.07343403995037079,-0.12760357558727264,0.039101243019104004,0.09060044586658478,-0.01735713705420494,0.015449759550392628
2.6509015560150146,-0.07457847148180008,-0.13027389347553253,0.040245670825242996,0.09250781685113907,-0.016975661739706993,0.015449759550392628
2.6709537506103516,-0.07534141838550568,-0.13218127191066742,0.04100862145423889,0.09327077120542526,-0.016975661739706993,0.01583123579621315
2.691044807434082,-0.07610437273979187,-0.1337071806192398,0.04177157208323479,0.09365224838256836,-0.016975661739706993,0.016212711110711098
2.711108922958374,-0.07686731964349747,-0.1363775134086609,0.04329747334122658,0.09403372555971146,-0.01735713705420494,0.016212711110711098
2.731234073638916,-0.07724879682064056,-0.13752193748950958,0.04406042397022247,0.09555962681770325,-0.01773861236870289,0.016975661739706993
2.751298427581787,-0.07763027399778366,-0.14095520973205566,0.04596780240535736,0.09746700525283813,-0.018120087683200836,0.01735713705420494
2.7713844776153564,-0.07801175117492676,-0.14171816408634186,0.046730753034353256,0.09784847497940063,-0.018120087683200836,0.018120087683200836
2.7915892601013184,-0.07877469807863235,-0.14438849687576294,0.048256658017635345,0.09899290651082993,-0.018501564860343933,0.018120087683200836
2.811868667602539,-0.07953765243291855,-0.14705882966518402,0.048638131469488144,0.10090028494596481,-0.01735713705420494,0.018120087683200836
2.8319461345672607,-0.08030059933662415,-0.14858472347259521,0.050164032727479935,0.10128175467252731,-0.018501564860343933,0.018120087683200836
2.852055072784424,-0.08068207651376724,-0.1516365259885788,0.05054550990462303,0.10166323184967041,-0.01888304017484188,0.018120087683200836
2.872102737426758,-0.08068207651376724,-0.1527809500694275,0.051689937710762024,0.1035706102848053,-0.018501564860343933,0.018120087683200836
2.8921916484832764,-0.08106355369091034,-0.15545128285884857,0.05283436179161072,0.10471503436565399,-0.018501564860343933,0.018501564860343933
2.912289619445801,-0.08144503086805344,-0.15621423721313477,0.05397878959774971,0.10471503436565399,-0.018501564860343933,0.018501564860343933
2.932413339614868,-0.08258945494890213,-0.15621423721313477,0.0555046908557415,0.10585946589708328,-0.018120087683200836,0.018120087683200836
2.952432870864868,-0.08335240930318832,-0.15735866129398346,0.05664911866188049,0.10700388997793198,-0.018120087683200836,0.018501564860343933
2.9725325107574463,-0.08373387902975082,-0.15812161564826965,0.058175019919872284,0.10814831405878067,-0.018501564860343933,0.018501564860343933
2.992706537246704,-0.08487831056118011,-0.16079194843769073,0.059319447726011276,0.10891126841306686,-0.01888304017484188,0.018501564860343933
3.0127158164978027,-0.08564125746488571,-0.16155488789081573,0.06008239835500717,0.10929274559020996,-0.01888304017484188,0.018501564860343933
3.0327870845794678,-0.086785688996315,-0.1646067053079605,0.061226826161146164,0.11005569249391556,-0.01926451548933983,0.018501564860343933
3.052856206893921,-0.0875486359000206,-0.1657511293888092,0.06275273114442825,0.11158160120248795,-0.01926451548933983,0.018501564860343933
3.073011875152588,-0.0875486359000206,-0.1684214472770691,0.06427863240242004,0.11234454810619354,-0.01888304017484188,0.01888304017484188
3.09301495552063,-0.0879301130771637,-0.17032882571220398,0.06618601083755493,0.11272602528333664,-0.019645990803837776,0.01888304017484188
3.113089084625244,-0.0879301130771637,-0.17147326469421387,0.06733043491840363,0.11387044936418533,-0.019645990803837776,0.01926451548933983
3.133164167404175,-0.08869306743144989,-0.17338064312934875,0.06923781335353851,0.11463340371847153,-0.019645990803837776,0.01926451548933983
3.153252363204956,-0.08983749151229858,-0.17376211285591125,0.07038223743438721,0.11577782779932022,-0.01888304017484188,0.01926451548933983
3.1733763217926025,-0.08983749151229858,-0.17490653693675995,0.071908138692379,0.11615930497646332,-0.019645990803837776,0.01926451548933983
3.19352126121521,-0.09021896868944168,-0.17566949129104614,0.07267109304666519,0.11654078215360641,-0.019645990803837776,0.01926451548933983
3.213655948638916,-0.09174486994743347,-0.17681391537189484,0.07381551712751389,0.1180666834115982,-0.019645990803837776,0.01926451548933983
3.233703136444092,-0.09288929402828217,-0.17910276353359222,0.07534141838550568,0.11959258466959,-0.019645990803837776,0.01926451548933983
3.253779411315918,-0.09288929402828217,-0.17910276353359222,0.07572289556264877,0.1203555315732956,-0.020027466118335724,0.019645990803837776
3.273973226547241,-0.09365224838256836,-0.182154580950737,0.07763027399778366,0.12188144028186798,-0.02079041674733162,0.019645990803837776
3.293962001800537,-0.09403372555971146,-0.1840619444847107,0.07877469807863235,0.12378881871700287,-0.020027466118335724,0.020027466118335724
3.3140339851379395,-0.09365224838256836,-0.18596932291984558,0.08030059933662415,0.12417028844356537,-0.02040894143283367,0.020027466118335724
3.3340866565704346,-0.09441519528627396,-0.18863965570926666,0.08144503086805344,0.12455176562070847,-0.020027466118335724,0.020027466118335724
3.35416579246521,-0.09479667246341705,-0.19054703414440155,0.08297093212604523,0.12607766687870026,-0.020027466118335724,0.020027466118335724
3.3742308616638184,-0.09517814964056015,-0.19321736693382263,0.08411535620689392,0.12760357558727264,-0.02040894143283367,0.02040894143283367
3.394299268722534,-0.09517814964056015,-0.19359883666038513,0.08487831056118011,0.12798504531383514,-0.02040894143283367,0.02079041674733162
3.414374351501465,-0.09555962681770325,-0.19474326074123383,0.08602273464202881,0.12912946939468384,-0.02079041674733162,0.02079041674733162
3.4344418048858643,-0.09708552807569504,-0.19512474536895752,0.0871671661734581,0.13065537810325623,-0.02079041674733162,0.02079041674733162
3.4545278549194336,-0.09708552807569504,-0.1966506391763687,0.08907453715801239,0.13103684782981873,-0.021171892061829567,0.021171892061829567
3.4745898246765137,-0.09746700525283813,-0.1974135935306549,0.09060044586658478,0.13141833245754242,-0.021171892061829567,0.021553369238972664
3.4947118759155273,-0.09822995215654373,-0.1977950781583786,0.09174486994743347,0.1325627565383911,-0.021171892061829567,0.021553369238972664
3.5147573947906494,-0.09899290651082993,-0.200083926320076,0.09403372555971146,0.1340886503458023,-0.021171892061829567,0.02193484455347061
3.5348408222198486,-0.09899290651082993,-0.20122835040092468,0.09441519528627396,0.135233074426651,-0.021553369238972664,0.02193484455347061
3.5549190044403076,-0.09975585341453552,-0.20428015291690826,0.09594109654426575,0.1359960287809372,-0.02193484455347061,0.02193484455347061
3.5749917030334473,-0.10013733059167862,-0.20466163754463196,0.09670405089855194,0.13752193748950958,-0.021553369238972664,0.02193484455347061
3.595055341720581,-0.10013733059167862,-0.20695048570632935,0.09861142933368683,0.13866636157035828,-0.022697795182466507,0.02231631986796856
3.615111827850342,-0.10090028494596481,-0.20847637951374054,0.09975585341453552,0.13866636157035828,-0.02231631986796856,0.02231631986796856
3.635227918624878,-0.10204470902681351,-0.20923933386802673,0.10090028494596481,0.13981078565120697,-0.02193484455347061,0.02231631986796856
3.655284881591797,-0.10204470902681351,-0.21076524257659912,0.1024261862039566,0.14019227027893066,-0.02231631986796856,0.02231631986796856
3.675400495529175,-0.10204470902681351,-0.21038375794887543,0.1035706102848053,0.14171816408634186,-0.02193484455347061,0.02231631986796856
3.6954424381256104,-0.10204470902681351,-0.21229113638401031,0.10585946589708328,0.14248111844062805,-0.022697795182466507,0.02231631986796856
3.7155873775482178,-0.1024261862039566,-0.2130540907382965,0.10700388997793198,0.14324407279491425,-0.02193484455347061,0.02231631986796856
3.7356832027435303,-0.1031891331076622,-0.2145799994468689,0.10852979123592377,0.14515145123004913,-0.021553369238972664,0.022697795182466507
3.755751371383667,-0.1039520874619484,-0.2161058932542801,0.11005569249391556,0.14629587531089783,-0.021171892061829567,0.022697795182466507
3.775819778442383,-0.1039520874619484,-0.21763180196285248,0.11081864684820175,0.14667734503746033,-0.021171892061829567,0.022697795182466507
3.795896530151367,-0.1039520874619484,-0.21953918039798737,0.11196307092905045,0.14705882966518402,-0.021553369238972664,0.022697795182466507
3.8159587383270264,-0.10471503436565399,-0.21953918039798737,0.11310750246047974,0.1497291475534439,-0.021553369238972664,0.023079270496964455
3.8360207080841064,-0.10547798871994019,-0.22182802855968475,0.11463340371847153,0.1501106321811676,-0.02193484455347061,0.023460745811462402
3.856088161468506,-0.10624094307422638,-0.22182802855968475,0.11615930497646332,0.1508735716342926,-0.02079041674733162,0.023460745811462402
3.8761746883392334,-0.10624094307422638,-0.22182802855968475,0.11730372905731201,0.15316243469715118,-0.021553369238972664,0.023460745811462402
3.8962464332580566,-0.10738536715507507,-0.22449836134910583,0.1192111074924469,0.15392538905143738,-0.02079041674733162,0.024223696440458298
3.916322708129883,-0.10852979123592377,-0.22487983107566833,0.1199740618467331,0.15430685877799988,-0.02040894143283367,0.024605173617601395
3.9363691806793213,-0.10929274559020996,-0.22793163359165192,0.12149996310472488,0.15545128285884857,-0.020027466118335724,0.024986648932099342
3.956437587738037,-0.10929274559020996,-0.2294575423002243,0.12302586436271667,0.15697719156742096,-0.019645990803837776,0.026512550190091133
3.9765403270721436,-0.10929274559020996,-0.2317463904619217,0.12455176562070847,0.15774014592170715,-0.020027466118335724,0.02689402550458908
3.996609687805176,-0.10929274559020996,-0.23517967760562897,0.12607766687870026,0.15850308537483215,-0.020027466118335724,0.02689402550458908
4.016680717468262,-0.10929274559020996,-0.23708705604076385,0.12760357558727264,0.16079194843769073,-0.019645990803837776,0.02689402550458908
4.0367677211761475,-0.11005569249391556,-0.24090181291103363,0.12951095402240753,0.16117341816425323,-0.019645990803837776,0.02689402550458908
4.056827783584595,-0.11043716967105865,-0.24052032828330994,0.13065537810325623,0.16155488789081573,-0.018501564860343933,0.02689402550458908
4.0768959522247314,-0.11120012402534485,-0.24357213079929352,0.1325627565383911,0.16384375095367432,-0.019645990803837776,0.02689402550458908
4.09697151184082,-0.11158160120248795,-0.2443350851535797,0.1340886503458023,0.1646067053079605,-0.01926451548933983,0.02727550081908703
4.117038726806641,-0.11158160120248795,-0.2462424635887146,0.1356145590543747,0.164988175034523,-0.01926451548933983,0.027656977996230125
4.137093544006348,-0.11234454810619354,-0.2481498420238495,0.1371404528617859,0.1657511293888092,-0.01926451548933983,0.02727550081908703
4.157170534133911,-0.11310750246047974,-0.24967575073242188,0.13790340721607208,0.1676585078239441,-0.019645990803837776,0.027656977996230125
4.177236795425415,-0.11387044936418533,-0.25272753834724426,0.13981078565120697,0.16880293190479279,-0.01926451548933983,0.027656977996230125
4.1973114013671875,-0.11425192654132843,-0.25387197732925415,0.14133669435977936,0.16880293190479279,-0.018501564860343933,0.027656977996230125
4.217458486557007,-0.11463340371847153,-0.25577935576438904,0.14324407279491425,0.17071031033992767,-0.020027466118335724,0.027656977996230125
4.237586259841919,-0.11577782779932022,-0.2576867341995239,0.14515145123004913,0.17338064312934875,-0.01926451548933983,0.02880140393972397
4.257670879364014,-0.11654078215360641,-0.2595941126346588,0.14705882966518402,0.17490653693675995,-0.019645990803837776,0.029564354568719864
4.277747869491577,-0.11692225188016891,-0.2622644305229187,0.1493476778268814,0.17605096101760864,-0.019645990803837776,0.029564354568719864
4.29783296585083,-0.11692225188016891,-0.2630273997783661,0.1504921019077301,0.17681391537189484,-0.01888304017484188,0.02994582988321781
4.3178935050964355,-0.11730372905731201,-0.266460657119751,0.152399480342865,0.17757686972618103,-0.019645990803837776,0.029564354568719864
4.3379645347595215,-0.1180666834115982,-0.266460657119751,0.15392538905143738,0.17986571788787842,-0.01926451548933983,0.02994582988321781
4.358036994934082,-0.1184481605887413,-0.26951247453689575,0.15621423721313477,0.1802472025156021,-0.019645990803837776,0.02994582988321781
4.378094434738159,-0.1188296303153038,-0.27180132269859314,0.15774014592170715,0.1806286722421646,-0.01926451548933983,0.02994582988321781
4.398233413696289,-0.1188296303153038,-0.272945761680603,0.16002899408340454,0.1832990050315857,-0.02040894143283367,0.03032730519771576
4.418268918991089,-0.1199740618467331,-0.2756160795688629,0.16231784224510193,0.1840619444847107,-0.020027466118335724,0.03032730519771576
4.438336133956909,-0.12073700875043869,-0.2759975492954254,0.16308079659938812,0.1840619444847107,-0.01926451548933983,0.03032730519771576
4.4584267139434814,-0.12188144028186798,-0.2798123061656952,0.164988175034523,0.18596932291984558,-0.019645990803837776,0.03032730519771576
4.478514194488525,-0.12188144028186798,-0.2801937758922577,0.1668955534696579,0.18749523162841797,-0.01926451548933983,0.03032730519771576
4.498575210571289,-0.12188144028186798,-0.28324559330940247,0.16918440163135529,0.18787670135498047,-0.019645990803837776,0.03032730519771576
4.518640756607056,-0.12226291000843048,-0.28591591119766235,0.17071031033992767,0.18940261006355286,-0.01926451548933983,0.03032730519771576
4.538833141326904,-0.12302586436271667,-0.28706035017967224,0.17261768877506256,0.19130998849868774,-0.019645990803837776,0.030708782374858856
4.558842658996582,-0.12340734153985977,-0.290875107049942,0.17528800666332245,0.19169145822525024,-0.019645990803837776,0.030708782374858856
4.578956365585327,-0.12378881871700287,-0.2912565767765045,0.17643244564533234,0.19283588230609894,-0.018501564860343933,0.030708782374858856
4.599003553390503,-0.12378881871700287,-0.2935454249382019,0.17833982408046722,0.19474326074123383,-0.020027466118335724,0.030708782374858856
4.619203567504883,-0.12378881871700287,-0.2939268946647644,0.17986571788787842,0.19550621509552002,-0.019645990803837776,0.030708782374858856
4.639287948608398,-0.12417028844356537,-0.2962157726287842,0.1813916265964508,0.1981765478849411,-0.021171892061829567,0.031090257689356804
4.659375429153442,-0.12417028844356537,-0.2973601818084717,0.1836804747581482,0.1989395022392273,-0.019645990803837776,0.031090257689356804
4.679446697235107,-0.12493324279785156,-0.29850462079048157,0.1848248988389969,0.1993209719657898,-0.020027466118335724,0.031090257689356804
4.699517250061035,-0.12493324279785156,-0.30041199922561646,0.18711376190185547,0.20122835040092468,-0.019645990803837776,0.030708782374858856
4.719633102416992,-0.12569619715213776,-0.30079346895217896,0.18863965570926666,0.20237277448177338,-0.01888304017484188,0.031090257689356804
4.739680051803589,-0.12607766687870026,-0.30231937766075134,0.19130998849868774,0.20313572883605957,-0.020027466118335724,0.031090257689356804
4.759732246398926,-0.12684062123298645,-0.30270084738731384,0.19321736693382263,0.20466163754463196,-0.01926451548933983,0.031090257689356804
4.7798237800598145,-0.12874799966812134,-0.30422675609588623,0.1958876997232437,0.20618753135204315,-0.019645990803837776,0.03147173300385475
4.7999207973480225,-0.12912946939468384,-0.3061341345310211,0.1981765478849411,0.20656901597976685,-0.018501564860343933,0.03147173300385475
4.819974422454834,-0.12912946939468384,-0.3065156042575836,0.1993209719657898,0.20885786414146423,-0.01888304017484188,0.03185320645570755
4.8400444984436035,-0.12912946939468384,-0.308804452419281,0.20122835040092468,0.20962081849575043,-0.019645990803837776,0.032616160809993744
4.8601133823394775,-0.12912946939468384,-0.3091859221458435,0.20237277448177338,0.21038375794887543,-0.018501564860343933,0.03299763426184654
4.880174398422241,-0.12912946939468384,-0.3110933005809784,0.20389868319034576,0.2134355753660202,-0.019645990803837776,0.03299763426184654
4.900227069854736,-0.12951095402240753,-0.3133821487426758,0.20542457699775696,0.2141985148191452,-0.018501564860343933,0.034142062067985535
4.920372247695923,-0.13065537810325623,-0.31490805745124817,0.20695048570632935,0.2161058932542801,-0.018120087683200836,0.03376058489084244
4.940412521362305,-0.13103684782981873,-0.31872281432151794,0.20923933386802673,0.21725031733512878,-0.018120087683200836,0.034142062067985535
4.960459232330322,-0.13103684782981873,-0.31948578357696533,0.21038375794887543,0.21763180196285248,-0.018120087683200836,0.034142062067985535
4.980576038360596,-0.13141833245754242,-0.3233005404472351,0.2130540907382965,0.21953918039798737,-0.01888304017484188,0.034142062067985535
5.000878572463989,-0.13179980218410492,-0.325970858335495,0.2149614691734314,0.22106507420539856,-0.01735713705420494,0.03490501269698143
5.02098274230957,-0.1325627565383911,-0.3290226459503174,0.21686884760856628,0.22182802855968475,-0.01773861236870289,0.03490501269698143
5.041038990020752,-0.1333257108926773,-0.33283740282058716,0.21915769577026367,0.22297245264053345,-0.01583123579621315,0.03490501269698143
5.061104774475098,-0.1333257108926773,-0.33474478125572205,0.22068360447883606,0.22487983107566833,-0.01583123579621315,0.03528648987412453
5.08119010925293,-0.1337071806192398,-0.3393225073814392,0.22297245264053345,0.22602425515651703,-0.016594186425209045,0.035667963325977325
5.101270437240601,-0.134470134973526,-0.3412298858165741,0.22373540699481964,0.22793163359165192,-0.01583123579621315,0.03643091395497322
5.121342658996582,-0.135233074426651,-0.343900203704834,0.22602425515651703,0.2290760725736618,-0.01735713705420494,0.03681239113211632
5.141393184661865,-0.1356145590543747,-0.34771496057510376,0.2283131182193756,0.2294575423002243,-0.015449759550392628,0.037193864583969116
5.161555051803589,-0.1356145590543747,-0.34962233901023865,0.2309834510087967,0.23212787508964539,-0.015449759550392628,0.037193864583969116
5.181560516357422,-0.1359960287809372,-0.3542000353336334,0.23365376889705658,0.23289081454277039,-0.01583123579621315,0.03757534176111221
5.2016401290893555,-0.1363775134086609,-0.3557259440422058,0.23479819297790527,0.23403525352478027,-0.01506828423589468,0.037193864583969116
5.221704483032227,-0.1363775134086609,-0.3603036403656006,0.23670557141304016,0.23594263195991516,-0.01583123579621315,0.03757534176111221
5.241886377334595,-0.1367589831352234,-0.3622110188007355,0.23823148012161255,0.23632410168647766,-0.014686808921396732,0.03757534176111221
5.261933326721191,-0.13752193748950958,-0.36640727519989014,0.24128328263759613,0.23861294984817505,-0.01583123579621315,0.03757534176111221
5.281960725784302,-0.13790340721607208,-0.3709849715232849,0.24357213079929352,0.23975738883018494,-0.01506828423589468,0.03757534176111221
5.302043676376343,-0.13866636157035828,-0.3725108802318573,0.2450980395078659,0.24052032828330994,-0.01506828423589468,0.03795681521296501
5.3221213817596436,-0.13866636157035828,-0.3767071068286896,0.248531311750412,0.24204623699188232,-0.015449759550392628,0.03757534176111221
5.342187166213989,-0.13866636157035828,-0.37823301553726196,0.24967575073242188,0.24357213079929352,-0.01430533267557621,0.03833829239010811
5.362286806106567,-0.13866636157035828,-0.38242924213409424,0.25196459889411926,0.24357213079929352,-0.014686808921396732,0.03795681521296501
5.3823418617248535,-0.13904783129692078,-0.3847180902957916,0.25310903787612915,0.2443350851535797,-0.012779430486261845,0.03795681521296501
5.402415752410889,-0.13981078565120697,-0.3873884081840515,0.25463491678237915,0.2454795092344284,-0.014686808921396732,0.03833829239010811
5.42246150970459,-0.14057374000549316,-0.3912031650543213,0.2569237947463989,0.2470054179430008,-0.013542382046580315,0.03795681521296501
5.44256854057312,-0.14095520973205566,-0.3931105434894562,0.2584496736526489,0.247768372297287,-0.013542382046580315,0.03833829239010811
5.462634563446045,-0.14171816408634186,-0.39730677008628845,0.2615014910697937,0.24929426610469818,-0.012779430486261845,0.03795681521296501
5.4827001094818115,-0.14248111844062805,-0.3995956480503082,0.2626459002494812,0.2508201599121094,-0.012779430486261845,0.03833829239010811
5.502778053283691,-0.14286258816719055,-0.4022659659385681,0.265697717666626,0.25196459889411926,-0.012779430486261845,0.03833829239010811
5.5230255126953125,-0.14400701224803925,-0.4053177833557129,0.26760509610176086,0.25196459889411926,-0.010490577667951584,0.03795681521296501
5.543112516403198,-0.14515145123004913,-0.4068436622619629,0.26989394426345825,0.25463491678237915,-0.010872052982449532,0.03833829239010811
5.563177108764648,-0.14591439068317413,-0.41103988885879517,0.27218279242515564,0.25501641631126404,-0.008964675478637218,0.03795681521296501
5.583323955535889,-0.14591439068317413,-0.41180285811424255,0.272945761680603,0.25577935576438904,-0.009346150793135166,0.03833829239010811
5.603349924087524,-0.14705882966518402,-0.41676202416419983,0.2756160795688629,0.2576867341995239,-0.00858320016413927,0.03795681521296501
5.623420476913452,-0.14782176911830902,-0.4198138415813446,0.2771419882774353,0.2588311731815338,-0.0078202486038208,0.03833829239010811
5.643497943878174,-0.14782176911830902,-0.4224841594696045,0.2794308364391327,0.2595941126346588,-0.008201723918318748,0.03833829239010811
5.663558006286621,-0.14858472347259521,-0.42629891633987427,0.2813382148742676,0.2611200213432312,-0.00667582219466567,0.03833829239010811
5.683638095855713,-0.1493476778268814,-0.42820629477500916,0.28362706303596497,0.2622644305229187,-0.005912871100008488,0.038719769567251205
5.703735113143921,-0.1497291475534439,-0.43163958191871643,0.28629741072654724,0.2630273997783661,-0.005149920005351305,0.03833829239010811
5.723811864852905,-0.1504921019077301,-0.4327840209007263,0.28744181990623474,0.264934778213501,-0.00476844422519207,0.03833829239010811
5.743915557861328,-0.1501106321811676,-0.4335469603538513,0.28973066806793213,0.2660791873931885,-0.006294346414506435,0.038719769567251205
5.763958930969238,-0.1504921019077301,-0.4354543387889862,0.2912565767765045,0.266460657119751,-0.005149920005351305,0.03833829239010811
5.7840256690979,-0.1512550562620163,-0.4358358085155487,0.2939268946647644,0.26913100481033325,-0.005149920005351305,0.038719769567251205
5.804073095321655,-0.1512550562620163,-0.438506156206131,0.2962157726287842,0.26951247453689575,-0.0036240178160369396,0.038719769567251205
5.8241517543792725,-0.1516365259885788,-0.440032035112381,0.29812315106391907,0.27027541399002075,-0.004005493130534887,0.038719769567251205
5.844256401062012,-0.1520180106163025,-0.44422826170921326,0.30117493867874146,0.27218279242515564,-0.0036240178160369396,0.03833829239010811
5.864323616027832,-0.152399480342865,-0.44728007912635803,0.30117493867874146,0.2733272314071655,-0.0032425422687083483,0.03833829239010811
5.884382009506226,-0.15316243469715118,-0.4491874575614929,0.30384528636932373,0.2752346098423004,-0.00476844422519207,0.038719769567251205
5.904457092285156,-0.15316243469715118,-0.4518577754497528,0.30537116527557373,0.2767605185508728,-0.004005493130534887,0.03833829239010811
5.924526691436768,-0.15354390442371368,-0.4526207447052002,0.308041512966156,0.2779049277305603,-0.004386968910694122,0.039101243019104004
5.944618463516235,-0.15354390442371368,-0.4545281231403351,0.3103303611278534,0.2786678969860077,-0.0036240178160369396,0.038719769567251205
5.964734315872192,-0.15354390442371368,-0.4556725323200226,0.3122377395629883,0.2809567451477051,-0.0024795911740511656,0.038719769567251205
5.984764099121094,-0.15392538905143738,-0.45872434973716736,0.31567102670669556,0.2821011543273926,-0.0020981156267225742,0.038719769567251205
6.004831314086914,-0.15430685877799988,-0.46139466762542725,0.31643396615982056,0.28362706303596497,-0.0009536888683214784,0.038719769567251205
6.02490758895874,-0.15430685877799988,-0.46330204606056213,0.31872281432151794,0.28477150201797485,-0.0013351644156500697,0.039101243019104004
6.044954538345337,-0.15545128285884857,-0.4667353332042694,0.32024872303009033,0.28591591119766235,-0.000572213320992887,0.039101243019104004
6.065037965774536,-0.15545128285884857,-0.4686427116394043,0.3225375711917877,0.28820478916168213,-0.0009536888683214784,0.039101243019104004
6.085191965103149,-0.15621423721313477,-0.4720759987831116,0.32520791888237,0.28896772861480713,-0.00019073777366429567,0.039101243019104004
6.1052327156066895,-0.15659570693969727,-0.4736018776893616,0.32673379778862,0.290112167596817,-0.00019073777366429567,0.0394827201962471
6.125379800796509,-0.15735866129398346,-0.47550925612449646,0.3290226459503174,0.2924010157585144,-0.000572213320992887,0.0394827201962471
6.1453962326049805,-0.15812161564826965,-0.47741663455963135,0.33093002438545227,0.2927824854850769,0.00019073777366429567,0.0398641936480999
6.165459394454956,-0.15812161564826965,-0.47932401299476624,0.33321890234947205,0.2954528033733368,-0.000572213320992887,0.040245670825242996
6.18552303314209,-0.15850308537483215,-0.481612890958786,0.33550775051116943,0.2962157726287842,0.00019073777366429567,0.040627144277095795
6.205610275268555,-0.15850308537483215,-0.4827573001384735,0.3374151289463043,0.2973601818084717,0.00019073777366429567,0.04139009863138199
6.225675582885742,-0.15926603972911835,-0.4846646785736084,0.3408484160900116,0.29926756024360657,-0.000572213320992887,0.04139009863138199
6.245742559432983,-0.16002899408340454,-0.4869535267353058,0.3427557647228241,0.30003052949905396,0.0013351644156500697,0.04139009863138199
6.265810966491699,-0.16041046380996704,-0.4884794354438782,0.34542611241340637,0.30270084738731384,0.0009536888683214784,0.04139009863138199
6.28588604927063,-0.16041046380996704,-0.49153125286102295,0.34771496057510376,0.30346378684043884,0.0020981156267225742,0.04139009863138199
6.305952310562134,-0.16079194843769073,-0.49229419231414795,0.35000380873680115,0.30498969554901123,0.00019073777366429567,0.04177157208323479
6.3259968757629395,-0.16041046380996704,-0.4957274794578552,0.35229265689849854,0.3068970739841461,0.000572213320992887,0.04177157208323479
6.346084833145142,-0.16079194843769073,-0.4983977973461151,0.3542000353336334,0.308041512966156,0.0013351644156500697,0.042153049260377884
6.3661534786224365,-0.16117341816425323,-0.501068115234375,0.3583962619304657,0.3107118308544159,0.000572213320992887,0.04177157208323479
6.386225938796997,-0.16155488789081573,-0.5029755234718323,0.3595407009124756,0.3122377395629883,0.001716639962978661,0.042153049260377884
6.406296730041504,-0.16155488789081573,-0.5048828721046448,0.36259251832962036,0.31490805745124817,0.00019073777366429567,0.042153049260377884
6.426345109939575,-0.16269932687282562,-0.507553219795227,0.36526283621788025,0.31605249643325806,0.0020981156267225742,0.042153049260377884
6.446444272994995,-0.16269932687282562,-0.5098420977592468,0.36793315410614014,0.31834134459495544,0.001716639962978661,0.04253452271223068
6.466584205627441,-0.16384375095367432,-0.5128938555717468,0.3706035017967224,0.31986725330352783,0.002861066721379757,0.04291599988937378
6.486624479293823,-0.164988175034523,-0.5144197940826416,0.3713664412498474,0.3217746317386627,0.0032425422687083483,0.04291599988937378
6.506676197052002,-0.1646067053079605,-0.5170900821685791,0.3744182586669922,0.3225375711917877,0.0032425422687083483,0.04291599988937378
6.526746988296509,-0.164988175034523,-0.5197604298591614,0.3763256371021271,0.3240634799003601,0.00476844422519207,0.04329747334122658
6.5468175411224365,-0.1653696447610855,-0.5209048390388489,0.37861448526382446,0.32673379778862,0.004005493130534887,0.043678950518369675
6.566864728927612,-0.1657511293888092,-0.5243381261825562,0.38128480315208435,0.3274967670440674,0.005912871100008488,0.04444190114736557
6.586988687515259,-0.1657511293888092,-0.5262455344200134,0.38319218158721924,0.32978561520576477,0.005531395319849253,0.04444190114736557
6.60705828666687,-0.1661325991153717,-0.5289158225059509,0.387006938457489,0.33131152391433716,0.005912871100008488,0.04444190114736557
6.627120733261108,-0.1661325991153717,-0.5300602912902832,0.3885328471660614,0.33321890234947205,0.0078202486038208,0.04444190114736557
6.647192478179932,-0.1668955534696579,-0.5319676399230957,0.3923476040363312,0.33550775051116943,0.007057297509163618,0.04444190114736557
6.667275428771973,-0.1676585078239441,-0.533875048160553,0.39463645219802856,0.3370336592197418,0.010109102353453636,0.04444190114736557
6.687380313873291,-0.1676585078239441,-0.5357823967933655,0.39806973934173584,0.3393225073814392,0.00858320016413927,0.04444190114736557
6.707398414611816,-0.1684214472770691,-0.5392156839370728,0.4015030264854431,0.3404669165611267,0.010109102353453636,0.04444190114736557
6.727482080459595,-0.16880293190479279,-0.541886031627655,0.4037918746471405,0.3416113555431366,0.01125352829694748,0.04482337832450867
6.747653961181641,-0.16956588625907898,-0.5457007884979248,0.4072251319885254,0.3442816734313965,0.010872052982449532,0.04482337832450867
6.767662763595581,-0.16994735598564148,-0.5479896068572998,0.4083695709705353,0.34504464268684387,0.012779430486261845,0.04482337832450867
6.787737607955933,-0.16994735598564148,-0.5506599545478821,0.41218432784080505,0.34809643030166626,0.01125352829694748,0.04482337832450867
6.807808876037598,-0.16994735598564148,-0.5540932416915894,0.41485464572906494,0.34885939955711365,0.011635004542768002,0.04482337832450867
6.82787823677063,-0.16994735598564148,-0.5560005903244019,0.4179064631462097,0.35191118717193604,0.010872052982449532,0.04482337832450867
6.847952365875244,-0.17032882571220398,-0.5594338774681091,0.4205767810344696,0.3526741564273834,0.010872052982449532,0.04482337832450867
6.868025302886963,-0.17071031033992767,-0.5609598159790039,0.4224841594696045,0.3553444743156433,0.011635004542768002,0.04482337832450867
6.888096570968628,-0.17071031033992767,-0.5640115737915039,0.42591744661331177,0.3568703830242157,0.010872052982449532,0.04482337832450867
6.908174276351929,-0.17185473442077637,-0.5670633912086487,0.42820629477500916,0.3576333224773407,0.012397955171763897,0.04482337832450867
6.928255796432495,-0.17185473442077637,-0.569733738899231,0.43125811219215393,0.361066609621048,0.010490577667951584,0.04482337832450867
6.9483020305633545,-0.17299915850162506,-0.5731670260429382,0.4343098998069763,0.36259251832962036,0.012397955171763897,0.04482337832450867
6.968370676040649,-0.17338064312934875,-0.5750743746757507,0.4369802474975586,0.36449989676475525,0.01125352829694748,0.04482337832450867
6.988518238067627,-0.17414358258247375,-0.578507661819458,0.440032035112381,0.36678874492645264,0.01201647985726595,0.04482337832450867
7.008551359176636,-0.17490653693675995,-0.5811780095100403,0.44270238280296326,0.368314653635025,0.012397955171763897,0.045204851776361465
7.02868127822876,-0.17490653693675995,-0.5838482975959778,0.44651713967323303,0.3709849715232849,0.01125352829694748,0.045204851776361465
7.048717021942139,-0.17490653693675995,-0.5869001150131226,0.4488059878349304,0.3732738196849823,0.013542382046580315,0.045204851776361465
7.0687949657440186,-0.17490653693675995,-0.5891889929771423,0.4522392749786377,0.3767071068286896,0.01125352829694748,0.045204851776361465
7.088836908340454,-0.17528800666332245,-0.5937666893005371,0.4556725323200226,0.37899595499038696,0.013923857361078262,0.045204851776361465
7.108942747116089,-0.17528800666332245,-0.5956740379333496,0.45796138048171997,0.38204777240753174,0.013542382046580315,0.045204851776361465
7.129006862640381,-0.17605096101760864,-0.5991073250770569,0.46177613735198975,0.3850995600223541,0.01430533267557621,0.045204851776361465
7.149107456207275,-0.17681391537189484,-0.6013962030410767,0.46368351578712463,0.386243999004364,0.01583123579621315,0.045204851776361465
7.169161319732666,-0.17719538509845734,-0.6044480204582214,0.4678797721862793,0.3896772861480713,0.014686808921396732,0.045204851776361465
7.189226388931274,-0.17795833945274353,-0.6082627773284912,0.4709315598011017,0.3923476040363312,0.016975661739706993,0.04558632895350456
7.209313631057739,-0.17872129380702972,-0.6105515956878662,0.47436484694480896,0.39425498247146606,0.016594186425209045,0.04596780240535736
7.229372501373291,-0.17986571788787842,-0.6139848828315735,0.47741663455963135,0.39730677008628845,0.018501564860343933,0.04558632895350456
7.249443531036377,-0.1802472025156021,-0.6166552305221558,0.4804684519767761,0.4011215269565582,0.020027466118335724,0.04596780240535736
7.26953649520874,-0.1802472025156021,-0.620851457118988,0.4850461483001709,0.404173344373703,0.020027466118335724,0.04596780240535736
7.2895896434783936,-0.1802472025156021,-0.6235218048095703,0.4873350262641907,0.4060807228088379,0.022697795182466507,0.04596780240535736
7.309660196304321,-0.1802472025156021,-0.6261920928955078,0.49153125286102295,0.40951400995254517,0.02079041674733162,0.04634927958250046
7.329943418502808,-0.1810101419687271,-0.6307697892189026,0.4953460097312927,0.41218432784080505,0.024986648932099342,0.04634927958250046
7.350105047225952,-0.1810101419687271,-0.6334401369094849,0.499542236328125,0.41561761498451233,0.02536812424659729,0.04634927958250046
7.370105743408203,-0.182154580950737,-0.6380178332328796,0.5037384629249573,0.4182879328727722,0.02536812424659729,0.04634927958250046
7.390192747116089,-0.182154580950737,-0.6406881809234619,0.5064088106155396,0.4201953113079071,0.026512550190091133,0.046730753034353256
7.410260200500488,-0.182917520403862,-0.6441214680671692,0.5113679766654968,0.4240100681781769,0.024986648932099342,0.04634927958250046
7.430336236953735,-0.1832990050315857,-0.647173285484314,0.5144197940826416,0.42668038606643677,0.026131074875593185,0.04634927958250046
7.4504148960113525,-0.1836804747581482,-0.6498435735702515,0.5186160206794739,0.43011367321014404,0.023079270496964455,0.046730753034353256
7.470457553863525,-0.1840619444847107,-0.6540398001670837,0.5220493078231812,0.43240252137184143,0.024986648932099342,0.046730753034353256
7.490612030029297,-0.1840619444847107,-0.6570916175842285,0.5258640646934509,0.4362172782421112,0.02231631986796856,0.04711223021149635
7.5106353759765625,-0.1840619444847107,-0.6612878441810608,0.5296788215637207,0.4396505653858185,0.02079041674733162,0.046730753034353256
7.53075098991394,-0.1844434291124344,-0.6639581918716431,0.5319676399230957,0.44308385252952576,0.021171892061829567,0.04711223021149635
7.55080771446228,-0.1840619444847107,-0.6670100092887878,0.535400927066803,0.44689860939979553,0.02040894143283367,0.046730753034353256
7.570873498916626,-0.1844434291124344,-0.6712062358856201,0.5380712747573853,0.4499503970146179,0.02231631986796856,0.046730753034353256
7.590946674346924,-0.1844434291124344,-0.6738765835762024,0.5415045619010925,0.4545281231403351,0.02079041674733162,0.04711223021149635
7.610992193222046,-0.1840619444847107,-0.6784542798995972,0.5453193187713623,0.45757991075515747,0.022697795182466507,0.046730753034353256
7.631133079528809,-0.1844434291124344,-0.6811245679855347,0.5483710765838623,0.46139466762542725,0.023460745811462402,0.04711223021149635
7.651210784912109,-0.1844434291124344,-0.6853207945823669,0.5525673031806946,0.4659723937511444,0.02384222112596035,0.04634927958250046
7.671283960342407,-0.1844434291124344,-0.6883726119995117,0.5548561811447144,0.4701686203479767,0.025749599561095238,0.046730753034353256
7.691347360610962,-0.1844434291124344,-0.691042959690094,0.5598153471946716,0.47436484694480896,0.024223696440458298,0.046730753034353256
7.711453676223755,-0.1844434291124344,-0.6956206560134888,0.5640115737915039,0.47741663455963135,0.026131074875593185,0.046730753034353256
7.731548309326172,-0.1844434291124344,-0.698291003704071,0.5678263306617737,0.482375830411911,0.02536812424659729,0.046730753034353256
7.751713991165161,-0.18520638346672058,-0.7032501697540283,0.5735484957695007,0.4869535267353058,0.024986648932099342,0.046730753034353256
7.771796464920044,-0.18558785319328308,-0.7063019871711731,0.5758373141288757,0.49076828360557556,0.025749599561095238,0.046730753034353256
7.791974782943726,-0.18635080754756927,-0.7097352743148804,0.5815594792366028,0.49496451020240784,0.023460745811462402,0.04634927958250046
7.811978578567505,-0.18635080754756927,-0.7135500311851501,0.5849927663803101,0.4983977973461151,0.024986648932099342,0.046730753034353256
7.832103490829468,-0.18635080754756927,-0.7166017889976501,0.5899519324302673,0.5022125840187073,0.02231631986796856,0.046730753034353256
7.852194786071777,-0.18635080754756927,-0.7219424843788147,0.5941481590270996,0.5056458115577698,0.02384222112596035,0.046730753034353256
7.87224555015564,-0.18635080754756927,-0.7249943017959595,0.5983443856239319,0.5109865069389343,0.023079270496964455,0.046730753034353256
7.892328977584839,-0.18635080754756927,-0.7303349375724792,0.6029220819473267,0.5174715518951416,0.022697795182466507,0.04711223021149635
7.912421941757202,-0.18635080754756927,-0.7337682247161865,0.6055924296379089,0.5235751867294312,0.023079270496964455,0.04711223021149635
7.932497262954712,-0.18635080754756927,-0.7368200421333313,0.6101701259613037,0.5285343527793884,0.01926451548933983,0.046730753034353256
7.95262885093689,-0.18635080754756927,-0.7413977384567261,0.6139848828315735,0.533875048160553,0.02040894143283367,0.04711223021149635
7.972723722457886,-0.18635080754756927,-0.7444495558738708,0.6177996397018433,0.54112309217453,0.01888304017484188,0.046730753034353256
7.992794513702393,-0.18635080754756927,-0.7486457824707031,0.6219958662986755,0.5464637279510498,0.01926451548933983,0.04711223021149635
8.012845516204834,-0.18635080754756927,-0.7520790696144104,0.6258106231689453,0.5525673031806946,0.020027466118335724,0.04711223021149635
8.032933473587036,-0.18635080754756927,-0.7562752962112427,0.6311513185501099,0.5594338774681091,0.01773861236870289,0.046730753034353256
8.052998304367065,-0.18635080754756927,-0.7593270540237427,0.6345845460891724,0.5659189820289612,0.01926451548933983,0.04711223021149635
8.073071241378784,-0.18635080754756927,-0.7616159319877625,0.6391623020172119,0.5739299654960632,0.016212711110711098,0.046730753034353256
8.093148231506348,-0.18635080754756927,-0.7661936283111572,0.6445029377937317,0.5811780095100403,0.016594186425209045,0.04711223021149635
8.113263368606567,-0.18635080754756927,-0.7688639760017395,0.6483176946640015,0.5903334021568298,0.01506828423589468,0.046730753034353256
8.133309602737427,-0.18635080754756927,-0.7726787328720093,0.6525139212608337,0.5983443856239319,0.012397955171763897,0.04711223021149635
8.153412818908691,-0.18635080754756927,-0.7761120200157166,0.6548027992248535,0.6059738993644714,0.010490577667951584,0.04711223021149635
8.173577308654785,-0.18635080754756927,-0.7799267768859863,0.6586175560951233,0.6158922910690308,0.005149920005351305,0.046730753034353256
8.19363021850586,-0.18635080754756927,-0.7837415337562561,0.6609063744544983,0.6250476837158203,0.005149920005351305,0.04711223021149635
8.213745832443237,-0.18596932291984558,-0.7856488823890686,0.6631952524185181,0.6368734240531921,-0.0009536888683214784,0.046730753034353256
8.233798265457153,-0.18596932291984558,-0.7890821695327759,0.6647211313247681,0.6464102864265442,-0.004386968910694122,0.046730753034353256
8.253877401351929,-0.18520638346672058,-0.7902265787124634,0.6654840707778931,0.6582360863685608,-0.007057297509163618,0.04634927958250046
8.273923397064209,-0.1840619444847107,-0.7921339869499207,0.6666285395622253,0.6673914790153503,-0.01125352829694748,0.04596780240535736
8.29400372505188,-0.1832990050315857,-0.7932783961296082,0.6666285395622253,0.6807430982589722,-0.013542382046580315,0.04596780240535736
8.314107894897461,-0.1813916265964508,-0.7944228053092957,0.6670100092887878,0.691042959690094,-0.016594186425209045,0.04482337832450867
8.334170818328857,-0.17948424816131592,-0.7951858043670654,0.6670100092887878,0.7017242908477783,-0.016975661739706993,0.04482337832450867
8.35428762435913,-0.17757686972618103,-0.7959487438201904,0.6670100092887878,0.7131685614585876,-0.016594186425209045,0.04291599988937378
8.374349594116211,-0.17490653693675995,-0.7959487438201904,0.6666285395622253,0.7215610146522522,-0.01583123579621315,0.04139009863138199
8.394509553909302,-0.17376211285591125,-0.7959487438201904,0.6662470698356628,0.7314793467521667,-0.013160906732082367,0.039101243019104004
8.414505958557129,-0.17261768877506256,-0.7951858043670654,0.6651026010513306,0.7421606779098511,-0.010490577667951584,0.037193864583969116
8.43461537361145,-0.17261768877506256,-0.7944228053092957,0.6639581918716431,0.7497901916503906,-0.006294346414506435,0.03604944050312042
8.454684019088745,-0.17261768877506256,-0.7940413355827332,0.6628137826919556,0.7600900530815125,-0.0032425422687083483,0.03299763426184654
8.474751710891724,-0.17299915850162506,-0.7936598658561707,0.6612878441810608,0.7669565677642822,-0.0009536888683214784,0.03032730519771576
8.494925022125244,-0.17490653693675995,-0.7928969264030457,0.6597619652748108,0.7742046117782593,0.004386968910694122,0.02841992862522602
8.514987468719482,-0.17643244564533234,-0.7917525172233582,0.6570916175842285,0.7810711860656738,0.006294346414506435,0.026131074875593185
8.535081624984741,-0.17910276353359222,-0.7913710474967957,0.655184268951416,0.7871748208999634,0.009727626107633114,0.024605173617601395
8.555126905441284,-0.1806286722421646,-0.7898451089859009,0.6536583304405212,0.7925154566764832,0.01583123579621315,0.021553369238972664
8.575235605239868,-0.1817730963230133,-0.7883192300796509,0.6513695120811462,0.7970931529998779,0.01888304017484188,0.019645990803837776
8.595308303833008,-0.182917520403862,-0.7875562906265259,0.6490806341171265,0.8016708493232727,0.023079270496964455,0.01735713705420494
8.615379333496094,-0.1844434291124344,-0.7864118218421936,0.6475547552108765,0.8073930144309998,0.027656977996230125,0.01583123579621315
8.635443687438965,-0.18635080754756927,-0.7848859429359436,0.6452658772468567,0.8119707107543945,0.02689402550458908,0.013542382046580315
8.655506134033203,-0.18749523162841797,-0.7833600640296936,0.6422140598297119,0.8157854676246643,0.029564354568719864,0.01125352829694748
8.675832033157349,-0.18940261006355286,-0.7814526557922363,0.6399252414703369,0.8196002244949341,0.03032730519771576,0.009727626107633114
8.695915937423706,-0.18978407979011536,-0.7799267768859863,0.6376363635063171,0.8230335116386414,0.03337911143898964,0.007057297509163618
8.71596884727478,-0.19169145822525024,-0.778019368648529,0.6357290148735046,0.8268482685089111,0.03490501269698143,0.005149920005351305
8.73599362373352,-0.19207294285297394,-0.7768749594688416,0.6345845460891724,0.8299000263214111,0.03528648987412453,0.0024795911740511656
8.756057500839233,-0.19359883666038513,-0.775730550289154,0.6319142580032349,0.8329518437385559,0.042153049260377884,0.0009536888683214784
8.776142835617065,-0.19474326074123383,-0.7742046117782593,0.6296253800392151,0.8352407217025757,0.04291599988937378,-0.000572213320992887
8.796207904815674,-0.19474326074123383,-0.7730602025985718,0.6280995011329651,0.8382925391197205,0.04329747334122658,-0.0024795911740511656
8.816283226013184,-0.1958876997232437,-0.7711527943611145,0.6265735626220703,0.8405813574790955,0.04482337832450867,-0.005149920005351305
8.836372375488281,-0.1966506391763687,-0.769245445728302,0.6250476837158203,0.8432517051696777,0.04558632895350456,-0.007057297509163618
8.85645055770874,-0.1970321238040924,-0.767719566822052,0.6227588057518005,0.8455405235290527,0.04749370738863945,-0.008201723918318748
8.876577615737915,-0.1985580176115036,-0.7669565677642822,0.621614396572113,0.84744793176651,0.05054550990462303,-0.008964675478637218
8.89661955833435,-0.1993209719657898,-0.7654306888580322,0.620088517665863,0.8497368097305298,0.05130846053361893,-0.010872052982449532
8.91672945022583,-0.1997024416923523,-0.7646677494049072,0.6185625791549683,0.8504997491836548,0.051689937710762024,-0.012397955171763897
8.93683648109436,-0.20084688067436218,-0.7631418108940125,0.6166552305221558,0.8531700372695923,0.05207141116261482,-0.013542382046580315
8.956926822662354,-0.20122835040092468,-0.7616159319877625,0.6155108213424683,0.8543145060539246,0.05283436179161072,-0.01506828423589468
8.977009296417236,-0.20160982012748718,-0.760471522808075,0.614366352558136,0.8562218546867371,0.05436026677489281,-0.015449759550392628
8.99711298942566,-0.20199130475521088,-0.7597085237503052,0.612840473651886,0.8573662638664246,0.05664911866188049,-0.016212711110711098
9.017163038253784,-0.20199130475521088,-0.7593270540237427,0.6116960644721985,0.8588922023773193,0.05741206929087639,-0.01773861236870289
9.037238359451294,-0.20351719856262207,-0.7585641145706177,0.6105515956878662,0.8604180812835693,0.05703059583902359,-0.01926451548933983
9.057307720184326,-0.20351719856262207,-0.7574197053909302,0.6086442470550537,0.8607995510101318,0.056267641484737396,-0.02040894143283367
9.077359199523926,-0.20351719856262207,-0.7562752962112427,0.6082627773284912,0.8627069592475891,0.0558861680328846,-0.021553369238972664
9.097466945648193,-0.20389868319034576,-0.7555122971534729,0.6067368388175964,0.8638513684272766,0.05855649709701538,-0.023079270496964455
9.11753249168396,-0.20389868319034576,-0.7547493577003479,0.6059738993644714,0.8642328381538391,0.06046387553215027,-0.023460745811462402
9.137617826461792,-0.20428015291690826,-0.7539864182472229,0.6048294901847839,0.8649957776069641,0.06198977679014206,-0.024223696440458298
9.15769076347351,-0.20504310727119446,-0.7528420090675354,0.6040665507316589,0.8657587766647339,0.06198977679014206,-0.025749599561095238
9.177757978439331,-0.20580606162548065,-0.7520790696144104,0.6017776727676392,0.8665217161178589,0.06198977679014206,-0.026512550190091133
9.197833776473999,-0.20618753135204315,-0.7509346008300781,0.6010147333145142,0.8676661252975464,0.06198977679014206,-0.02727550081908703
9.217920780181885,-0.20618753135204315,-0.7501716613769531,0.6010147333145142,0.8684290647506714,0.05970092490315437,-0.028038453310728073
9.237992286682129,-0.20695048570632935,-0.7494087219238281,0.6002517938613892,0.8695735335350037,0.06313420087099075,-0.029182879254221916
9.258061408996582,-0.20695048570632935,-0.7486457824707031,0.5994887948036194,0.8707179427146912,0.06313420087099075,-0.03032730519771576
9.278196334838867,-0.20695048570632935,-0.7482643127441406,0.5987258553504944,0.8714808821678162,0.06351567804813385,-0.030708782374858856
9.298233985900879,-0.20695048570632935,-0.7482643127441406,0.5979629158973694,0.8714808821678162,0.06351567804813385,-0.030708782374858856
9.318312644958496,-0.20695048570632935,-0.7482643127441406,0.5975814461708069,0.8714808821678162,0.06237125024199486,-0.03147173300385475
9.338393449783325,-0.20695048570632935,-0.7471198439598083,0.5968185067176819,0.8718623518943787,0.06275273114442825,-0.03223468363285065
9.358431577682495,-0.20695048570632935,-0.7459754347801208,0.5968185067176819,0.8718623518943787,0.06160829961299896,-0.03299763426184654
9.37852931022644,-0.20733195543289185,-0.7459754347801208,0.5960555672645569,0.8726252913475037,0.06275273114442825,-0.03337911143898964
9.398643970489502,-0.20733195543289185,-0.7459754347801208,0.5960555672645569,0.8733882904052734,0.06427863240242004,-0.03376058489084244
9.418748378753662,-0.20771344006061554,-0.7452124953269958,0.5952925682067871,0.8745326995849609,0.06313420087099075,-0.034142062067985535
9.43900179862976,-0.20809490978717804,-0.7448310256004333,0.5937666893005371,0.8749141693115234,0.06237125024199486,-0.034142062067985535
9.459030389785767,-0.20809490978717804,-0.7444495558738708,0.5937666893005371,0.8752956390380859,0.06160829961299896,-0.034142062067985535
9.47905445098877,-0.20809490978717804,-0.7440680265426636,0.5937666893005371,0.8756771087646484,0.06275273114442825,-0.03452353551983833
9.49911642074585,-0.20809490978717804,-0.7436865568161011,0.5937666893005371,0.8760585784912109,0.06427863240242004,-0.03490501269698143
9.519206285476685,-0.20809490978717804,-0.7433050870895386,0.5937666893005371,0.8764400482177734,0.06466010212898254,-0.03490501269698143
9.539305448532104,-0.20809490978717804,-0.7429236173629761,0.5930037498474121,0.8772030472755432,0.06389715522527695,-0.03528648987412453
9.559404611587524,-0.20809490978717804,-0.7429236173629761,0.5926222801208496,0.8779659867286682,0.06351567804813385,-0.03528648987412453
9.579452753067017,-0.20809490978717804,-0.7429236173629761,0.5918593406677246,0.8779659867286682,0.06313420087099075,-0.035667963325977325
9.599716424942017,-0.20809490978717804,-0.7425421476364136,0.5918593406677246,0.8783474564552307,0.06313420087099075,-0.03604944050312042
9.619786024093628,-0.20809490978717804,-0.7421606779098511,0.5914778113365173,0.8783474564552307,0.06389715522527695,-0.03643091395497322
9.639894723892212,-0.20809490978717804,-0.7421606779098511,0.5914778113365173,0.8783474564552307,0.06504157930612564,-0.03757534176111221
9.660096406936646,-0.20809490978717804,-0.7417792081832886,0.5914778113365173,0.8787289261817932,0.06504157930612564,-0.03757534176111221
9.680074453353882,-0.20809490978717804,-0.7417792081832886,0.5903334021568298,0.8791103959083557,0.06427863240242004,-0.03757534176111221
9.700167179107666,-0.20847637951374054,-0.7410162687301636,0.5899519324302673,0.8791103959083557,0.06275273114442825,-0.03757534176111221
9.72022819519043,-0.20847637951374054,-0.7410162687301636,0.5895704627037048,0.8791103959083557,0.06275273114442825,-0.03757534176111221
9.740277528762817,-0.20885786414146423,-0.7406347990036011,0.5895704627037048,0.8791103959083557,0.06466010212898254,-0.03795681521296501
9.760538101196289,-0.20923933386802673,-0.7402533292770386,0.5895704627037048,0.8794918656349182,0.06580453366041183,-0.03833829239010811
9.780513048171997,-0.20923933386802673,-0.7402533292770386,0.5895704627037048,0.8798733353614807,0.06580453366041183,-0.03833829239010811
9.800589561462402,-0.20923933386802673,-0.7402533292770386,0.5895704627037048,0.8798733353614807,0.06542305648326874,-0.03833829239010811
9.82067322731018,-0.20923933386802673,-0.7402533292770386,0.5891889929771423,0.8802548050880432,0.06389715522527695,-0.03833829239010811
9.840752601623535,-0.20923933386802673,-0.7402533292770386,0.5884260535240173,0.8802548050880432,0.06389715522527695,-0.038719769567251205
9.860834836959839,-0.20923933386802673,-0.7398717999458313,0.5884260535240173,0.881017804145813,0.06389715522527695,-0.038719769567251205
9.880868673324585,-0.20923933386802673,-0.7398717999458313,0.5884260535240173,0.881017804145813,0.06389715522527695,-0.039101243019104004
9.900951385498047,-0.20923933386802673,-0.7398717999458313,0.5884260535240173,0.881780743598938,0.06427863240242004,-0.040245670825242996
9.921026945114136,-0.20923933386802673,-0.7398717999458313,0.5884260535240173,0.881780743598938,0.06427863240242004,-0.040627144277095795
9.94109320640564,-0.20923933386802673,-0.7398717999458313,0.5884260535240173,0.8821622133255005,0.06427863240242004,-0.04100862145423889
9.961161851882935,-0.20923933386802673,-0.7398717999458313,0.5884260535240173,0.8821622133255005,0.06427863240242004,-0.04139009863138199
9.981231927871704,-0.20923933386802673,-0.7398717999458313,0.5884260535240173,0.882543683052063,0.06427863240242004,-0.04139009863138199
10.001383781433105,-0.20923933386802673,-0.7394903302192688,0.5884260535240173,0.882543683052063,0.06427863240242004,-0.04177157208323479
10.021456480026245,-0.20923933386802673,-0.7391088604927063,0.5880445837974548,0.882543683052063,0.06389715522527695,-0.04177157208323479
10.041544437408447,-0.20923933386802673,-0.7387273907661438,0.5880445837974548,0.882543683052063,0.06427863240242004,-0.04139009863138199
10.061596870422363,-0.20923933386802673,-0.7387273907661438,0.5880445837974548,0.8829251527786255,0.06504157930612564,-0.04177157208323479
10.081663846969604,-0.20923933386802673,-0.7387273907661438,0.5876630544662476,0.882543683052063,0.06542305648326874,-0.04177157208323479
10.101739883422852,-0.20923933386802673,-0.7387273907661438,0.5876630544662476,0.882543683052063,0.06504157930612564,-0.04177157208323479
10.121816635131836,-0.20923933386802673,-0.7387273907661438,0.5872815847396851,0.882543683052063,0.06504157930612564,-0.04177157208323479
10.141978025436401,-0.20923933386802673,-0.7387273907661438,0.5872815847396851,0.882543683052063,0.06504157930612564,-0.04177157208323479
10.162043809890747,-0.20923933386802673,-0.7387273907661438,0.5869001150131226,0.882543683052063,0.06504157930612564,-0.04177157208323479
10.182099103927612,-0.20923933386802673,-0.7383459210395813,0.5865186452865601,0.882543683052063,0.06580453366041183,-0.042153049260377884
10.202151536941528,-0.20923933386802673,-0.7379644513130188,0.5865186452865601,0.882543683052063,0.06466010212898254,-0.04177157208323479
10.2222318649292,-0.20923933386802673,-0.7379644513130188,0.5865186452865601,0.882543683052063,0.06504157930612564,-0.04177157208323479
10.242296695709229,-0.20923933386802673,-0.7379644513130188,0.5865186452865601,0.882543683052063,0.06580453366041183,-0.042153049260377884
10.262350797653198,-0.20923933386802673,-0.7379644513130188,0.5865186452865601,0.882543683052063,0.06656748056411743,-0.04177157208323479
10.282461404800415,-0.20923933386802673,-0.7379644513130188,0.5865186452865601,0.882543683052063,0.06694895774126053,-0.042153049260377884
10.302510023117065,-0.20923933386802673,-0.7379644513130188,0.5865186452865601,0.882543683052063,0.06694895774126053,-0.04177157208323479
10.322588682174683,-0.20923933386802673,-0.7375829815864563,0.5865186452865601,0.882543683052063,0.06694895774126053,-0.042153049260377884
10.342656135559082,-0.21000228822231293,-0.7375829815864563,0.5865186452865601,0.882543683052063,0.06694895774126053,-0.04177157208323479
10.362772703170776,-0.21038375794887543,-0.7372015118598938,0.5865186452865601,0.882543683052063,0.06694895774126053,-0.04177157208323479
10.382881879806519,-0.21000228822231293,-0.7372015118598938,0.5865186452865601,0.882543683052063,0.06694895774126053,-0.04177157208323479
10.402914047241211,-0.21038375794887543,-0.7372015118598938,0.5865186452865601,0.8829251527786255,0.06733043491840363,-0.04177157208323479
10.422996759414673,-0.21038375794887543,-0.7379644513130188,0.5865186452865601,0.8829251527786255,0.06771191209554672,-0.04177157208323479
10.443068504333496,-0.21000228822231293,-0.7379644513130188,0.5861371755599976,0.8829251527786255,0.06694895774126053,-0.04177157208323479
10.463244915008545,-0.21000228822231293,-0.7379644513130188,0.5861371755599976,0.8829251527786255,0.06580453366041183,-0.042153049260377884
10.483250856399536,-0.21000228822231293,-0.7379644513130188,0.5861371755599976,0.8829251527786255,0.06580453366041183,-0.042153049260377884
10.503318309783936,-0.21000228822231293,-0.7375829815864563,0.5861371755599976,0.883306622505188,0.06694895774126053,-0.042153049260377884
10.523382902145386,-0.21000228822231293,-0.7368200421333313,0.5861371755599976,0.8829251527786255,0.06694895774126053,-0.042153049260377884
10.543448209762573,-0.21038375794887543,-0.7375829815864563,0.5861371755599976,0.8829251527786255,0.06694895774126053,-0.042153049260377884
10.563592195510864,-0.21114671230316162,-0.7383459210395813,0.5861371755599976,0.8829251527786255,0.06809338182210922,-0.04253452271223068
10.583718299865723,-0.21152819693088531,-0.7398717999458313,0.5861371755599976,0.8829251527786255,0.06694895774126053,-0.04291599988937378
10.603731393814087,-0.21152819693088531,-0.7410162687301636,0.5857557058334351,0.8829251527786255,0.06542305648326874,-0.04329747334122658
10.623807907104492,-0.2134355753660202,-0.7421606779098511,0.5857557058334351,0.8829251527786255,0.06580453366041183,-0.04406042397022247
10.643851280212402,-0.2138170450925827,-0.7440680265426636,0.5853742361068726,0.8829251527786255,0.06504157930612564,-0.045204851776361465
10.663959264755249,-0.2157244235277176,-0.7452124953269958,0.5853742361068726,0.8829251527786255,0.06466010212898254,-0.045204851776361465
10.684045314788818,-0.21648737788200378,-0.7478827834129333,0.5853742361068726,0.8829251527786255,0.06275273114442825,-0.04596780240535736
10.704115152359009,-0.21801327168941498,-0.7490272521972656,0.5853742361068726,0.8829251527786255,0.06275273114442825,-0.04634927958250046
10.724184513092041,-0.21839475631713867,-0.7516975402832031,0.5853742361068726,0.8829251527786255,0.06198977679014206,-0.048256658017635345
10.74425482749939,-0.21877622604370117,-0.7536049485206604,0.5853742361068726,0.882543683052063,0.06084534898400307,-0.048638131469488144
10.764386653900146,-0.22068360447883606,-0.7558938264846802,0.5853742361068726,0.882543683052063,0.061226826161146164,-0.04940108209848404
10.785079956054688,-0.22182802855968475,-0.7581826448440552,0.5853742361068726,0.882543683052063,0.05970092490315437,-0.049782559275627136
10.805126428604126,-0.22373540699481964,-0.7600900530815125,0.5853742361068726,0.8821622133255005,0.06008239835500717,-0.049782559275627136
10.825200319290161,-0.22640573978424072,-0.7631418108940125,0.5853742361068726,0.882543683052063,0.05741206929087639,-0.050164032727479935
10.845263719558716,-0.22716869413852692,-0.7646677494049072,0.5853742361068726,0.882543683052063,0.056267641484737396,-0.05054550990462303
10.865334272384644,-0.230601966381073,-0.767719566822052,0.5853742361068726,0.882543683052063,0.0551232174038887,-0.051689937710762024
10.885414123535156,-0.23250934481620789,-0.7711527943611145,0.5853742361068726,0.8821622133255005,0.05245288833975792,-0.05245288833975792
10.905512571334839,-0.23327229917049408,-0.7742046117782593,0.5853742361068726,0.8821622133255005,0.05207141116261482,-0.05283436179161072
10.925559043884277,-0.23708705604076385,-0.7795453071594238,0.5853742361068726,0.8821622133255005,0.04940108209848404,-0.05359731614589691
10.945647239685059,-0.23937590420246124,-0.7829785346984863,0.5853742361068726,0.881780743598938,0.05054550990462303,-0.0558861680328846
10.965711116790771,-0.2447165697813034,-0.7890821695327759,0.5857557058334351,0.8813992738723755,0.048256658017635345,-0.05703059583902359
10.985799312591553,-0.2470054179430008,-0.7932783961296082,0.5857557058334351,0.881017804145813,0.04711223021149635,-0.057793546468019485
11.005858659744263,-0.25349050760269165,-0.7990005612373352,0.5865186452865601,0.8802548050880432,0.04329747334122658,-0.05893797054886818
11.025959730148315,-0.2573052644729614,-0.8073930144309998,0.5869001150131226,0.8787289261817932,0.03833829239010811,-0.06046387553215027
11.046034336090088,-0.2626459002494812,-0.8142595291137695,0.5895704627037048,0.8779659867286682,0.035667963325977325,-0.06084534898400307
11.066094636917114,-0.26951247453689575,-0.8253223299980164,0.5922408103942871,0.8760585784912109,0.03299763426184654,-0.06389715522527695
11.086172103881836,-0.2771419882774353,-0.8360036611557007,0.5949110984802246,0.8737697601318359,0.03223468363285065,-0.06733043491840363
11.106242895126343,-0.28629741072654724,-0.846684992313385,0.6002517938613892,0.8707179427146912,0.028038453310728073,-0.0711451917886734
11.12636399269104,-0.2946898639202118,-0.8585107326507568,0.6052109599113464,0.8672846555709839,0.02727550081908703,-0.07610437273979187
11.146407842636108,-0.30270084738731384,-0.8665217161178589,0.6116960644721985,0.8642328381538391,0.020027466118335724,-0.07877469807863235
11.166458129882812,-0.3122377395629883,-0.8794918656349182,0.620088517665863,0.8615625500679016,0.01735713705420494,-0.08258945494890213
11.186540603637695,-0.31795987486839294,-0.8886472582817078,0.6277180314064026,0.8577477931976318,0.018501564860343933,-0.08602273464202881
11.2066330909729,-0.3255893886089325,-0.8970397710800171,0.6372548937797546,0.8546959757804871,0.014686808921396732,-0.09060044586658478
11.226690292358398,-0.3290226459503174,-0.9046692848205566,0.6441214680671692,0.8508812189102173,0.01773861236870289,-0.09670405089855194
11.246789455413818,-0.33321890234947205,-0.9111543297767639,0.6528953909873962,0.84744793176651,0.01430533267557621,-0.10051880776882172
11.266841888427734,-0.33627068996429443,-0.9203097820281982,0.6628137826919556,0.8440146446228027,0.016975661739706993,-0.10547798871994019
11.286921501159668,-0.33665215969085693,-0.9260318875312805,0.6696802973747253,0.840962827205658,0.01583123579621315,-0.10891126841306686
11.306981086730957,-0.3370336592197418,-0.9340428709983826,0.6792172193527222,0.8382925391197205,0.01201647985726595,-0.11196307092905045
11.32706069946289,-0.33665215969085693,-0.9397650361061096,0.6853207945823669,0.8363851308822632,0.012779430486261845,-0.11425192654132843
11.347135543823242,-0.33283740282058716,-0.9451056718826294,0.6929503083229065,0.8352407217025757,0.0024795911740511656,-0.11692225188016891
11.3672034740448,-0.3290226459503174,-0.9504463076591492,0.699053943157196,0.8321889042854309,0.00019073777366429567,-0.12111848592758179
11.38733196258545,-0.3225375711917877,-0.953498125076294,0.7043945789337158,0.8318074345588684,-0.01125352829694748,-0.12264438718557358
11.407387971878052,-0.31528952717781067,-0.9580758213996887,0.7104982137680054,0.8295185565948486,-0.013923857361078262,-0.12645913660526276
11.427468538284302,-0.308041512966156,-0.960746169090271,0.7135500311851501,0.8283741474151611,-0.01583123579621315,-0.12912946939468384
11.447545289993286,-0.29964902997016907,-0.962272047996521,0.7173647880554199,0.8253223299980164,-0.023079270496964455,-0.1333257108926773
11.46760869026184,-0.2943083941936493,-0.9630350470542908,0.7196536064147949,0.8215075731277466,-0.020027466118335724,-0.13866636157035828
11.487681150436401,-0.2920195460319519,-0.9630350470542908,0.7211795449256897,0.8192187547683716,-0.023460745811462402,-0.14209964871406555
11.507749795913696,-0.290112167596817,-0.9634165167808533,0.7223239541053772,0.8169298768043518,-0.026131074875593185,-0.14553292095661163
11.527826070785522,-0.290875107049942,-0.9641794562339783,0.7230868935585022,0.8157854676246643,-0.02231631986796856,-0.14782176911830902
11.547991037368774,-0.290875107049942,-0.9657053351402283,0.7238498330116272,0.8142595291137695,-0.02536812424659729,-0.1516365259885788
11.568081140518188,-0.2912565767765045,-0.9668498039245605,0.7238498330116272,0.8134965896606445,-0.02384222112596035,-0.15430685877799988
11.588150262832642,-0.2912565767765045,-0.9676127433776855,0.724612832069397,0.8134965896606445,-0.025749599561095238,-0.15621423721313477
11.608226299285889,-0.2912565767765045,-0.9683756828308105,0.725375771522522,0.8119707107543945,-0.024605173617601395,-0.15850308537483215
11.628312826156616,-0.290875107049942,-0.968757152557373,0.7257572412490845,0.8112077713012695,-0.01773861236870289,-0.16117341816425323
11.648377180099487,-0.290875107049942,-0.969520092010498,0.7280460596084595,0.8104447722434998,-0.008964675478637218,-0.16346226632595062
11.668443441390991,-0.2904936373233795,-0.9699015617370605,0.7291905283927917,0.8100633025169373,-0.0009536888683214784,-0.164988175034523
11.688532590866089,-0.2904936373233795,-0.9706645011901855,0.7299534678459167,0.8093003630638123,0.004005493130534887,-0.1657511293888092
11.708610773086548,-0.2912565767765045,-0.9710460305213928,0.7310978770256042,0.8085374236106873,0.007057297509163618,-0.1665140837430954
11.738008975982666,-0.2939268946647644,-0.9706645011901855,0.7318608164787292,0.8081559538841248,0.005531395319849253,-0.1684214472770691
11.758094072341919,-0.2962157726287842,-0.970283031463623,0.7330052852630615,0.8081559538841248,0.005531395319849253,-0.16918440163135529
11.778156280517578,-0.29888609051704407,-0.9699015617370605,0.7345311641693115,0.8081559538841248,0.007057297509163618,-0.16994735598564148
11.798227310180664,-0.29850462079048157,-0.9706645011901855,0.7345311641693115,0.8081559538841248,0.010872052982449532,-0.17109178006649017
11.81829833984375,-0.29850462079048157,-0.9714275002479553,0.7337682247161865,0.8081559538841248,0.018120087683200836,-0.17223620414733887
11.838367938995361,-0.29850462079048157,-0.9718089699745178,0.7337682247161865,0.8081559538841248,0.018120087683200836,-0.17261768877506256
11.858445882797241,-0.29812315106391907,-0.9725719094276428,0.733386754989624,0.8081559538841248,0.016975661739706993,-0.17299915850162506
11.878500699996948,-0.29850462079048157,-0.9725719094276428,0.7337682247161865,0.8081559538841248,0.018501564860343933,-0.17338064312934875
11.898590564727783,-0.29850462079048157,-0.9725719094276428,0.7345311641693115,0.8077744841575623,0.021171892061829567,-0.17452506721019745
11.918656349182129,-0.30003052949905396,-0.9718089699745178,0.7352941036224365,0.8081559538841248,0.024986648932099342,-0.17605096101760864
11.938743352890015,-0.30155640840530396,-0.9721904397010803,0.734912633895874,0.8081559538841248,0.02727550081908703,-0.17681391537189484
11.958823204040527,-0.30422675609588623,-0.9737163186073303,0.734912633895874,0.8081559538841248,0.026512550190091133,-0.17719538509845734
11.978899002075195,-0.30460822582244873,-0.9729533791542053,0.7345311641693115,0.8081559538841248,0.023460745811462402,-0.17757686972618103
11.998969078063965,-0.30460822582244873,-0.9725719094276428,0.7337682247161865,0.8081559538841248,0.01926451548933983,-0.17757686972618103
12.019008159637451,-0.30460822582244873,-0.9721904397010803,0.7337682247161865,0.8081559538841248,0.01888304017484188,-0.17833982408046722
12.039203405380249,-0.30346378684043884,-0.9714275002479553,0.734149694442749,0.8081559538841248,0.026512550190091133,-0.17986571788787842
12.059412479400635,-0.30308231711387634,-0.9714275002479553,0.7345311641693115,0.8081559538841248,0.030708782374858856,-0.1802472025156021
12.079408645629883,-0.30270084738731384,-0.9714275002479553,0.734912633895874,0.8081559538841248,0.03452353551983833,-0.1806286722421646
12.099471807479858,-0.30270084738731384,-0.9718089699745178,0.734912633895874,0.8081559538841248,0.03490501269698143,-0.1806286722421646
12.119585752487183,-0.30270084738731384,-0.9718089699745178,0.7345311641693115,0.8081559538841248,0.03223468363285065,-0.1806286722421646
12.139666080474854,-0.30384528636932373,-0.9718089699745178,0.734149694442749,0.8085374236106873,0.031090257689356804,-0.1810101419687271
12.159732103347778,-0.30498969554901123,-0.9718089699745178,0.734149694442749,0.8085374236106873,0.02880140393972397,-0.1810101419687271
12.179816246032715,-0.3057526648044586,-0.9714275002479553,0.734149694442749,0.8089188933372498,0.029564354568719864,-0.1810101419687271
12.199954986572266,-0.3057526648044586,-0.9714275002479553,0.734149694442749,0.8093003630638123,0.031090257689356804,-0.1813916265964508
12.21997857093811,-0.3057526648044586,-0.9714275002479553,0.734149694442749,0.8096818327903748,0.031090257689356804,-0.182154580950737
12.24005126953125,-0.3057526648044586,-0.9718089699745178,0.7337682247161865,0.8100633025169373,0.031090257689356804,-0.1825360506772995
12.260115623474121,-0.30537116527557373,-0.9718089699745178,0.733386754989624,0.8100633025169373,0.03185320645570755,-0.1832990050315857
12.280203342437744,-0.30498969554901123,-0.9718089699745178,0.733386754989624,0.8104447722434998,0.03299763426184654,-0.1836804747581482
12.300270795822144,-0.30498969554901123,-0.9714275002479553,0.733386754989624,0.8104447722434998,0.034142062067985535,-0.1840619444847107
12.320438146591187,-0.30537116527557373,-0.9714275002479553,0.733386754989624,0.8104447722434998,0.034142062067985535,-0.1844434291124344
12.340450763702393,-0.3057526648044586,-0.9714275002479553,0.733386754989624,0.810826301574707,0.03337911143898964,-0.1844434291124344
12.360592126846313,-0.3057526648044586,-0.9714275002479553,0.733386754989624,0.810826301574707,0.03299763426184654,-0.1844434291124344
12.3806893825531,-0.3057526648044586,-0.9714275002479553,0.7330052852630615,0.8112077713012695,0.03299763426184654,-0.1844434291124344
12.400707483291626,-0.3061341345310211,-0.9714275002479553,0.7330052852630615,0.8112077713012695,0.03299763426184654,-0.1844434291124344
12.420793056488037,-0.3061341345310211,-0.9714275002479553,0.7330052852630615,0.8112077713012695,0.03337911143898964,-0.1848248988389969
12.440885543823242,-0.3065156042575836,-0.9714275002479553,0.7330052852630615,0.8112077713012695,0.03376058489084244,-0.1848248988389969
12.460983037948608,-0.3065156042575836,-0.9710460305213928,0.7330052852630615,0.8112077713012695,0.03337911143898964,-0.18520638346672058
12.481091022491455,-0.3068970739841461,-0.9706645011901855,0.7330052852630615,0.811589241027832,0.03337911143898964,-0.18520638346672058
12.501127481460571,-0.3068970739841461,-0.9706645011901855,0.7330052852630615,0.8119707107543945,0.03376058489084244,-0.18520638346672058
12.521270036697388,-0.3068970739841461,-0.9706645011901855,0.7330052852630615,0.8119707107543945,0.03337911143898964,-0.18520638346672058
12.541268110275269,-0.3068970739841461,-0.9706645011901855,0.732623815536499,0.812352180480957,0.03337911143898964,-0.18520638346672058
12.561355113983154,-0.3068970739841461,-0.9706645011901855,0.7322422862052917,0.8127336502075195,0.03337911143898964,-0.18520638346672058
12.58142614364624,-0.3068970739841461,-0.9706645011901855,0.7322422862052917,0.813115119934082,0.03337911143898964,-0.18520638346672058
12.601511240005493,-0.3068970739841461,-0.9706645011901855,0.7322422862052917,0.8134965896606445,0.03376058489084244,-0.18520638346672058
12.621692180633545,-0.3068970739841461,-0.9706645011901855,0.7322422862052917,0.813878059387207,0.03376058489084244,-0.18520638346672058
12.642112016677856,-0.3068970739841461,-0.970283031463623,0.7322422862052917,0.8142595291137695,0.03376058489084244,-0.18520638346672058
12.662207841873169,-0.3068970739841461,-0.970283031463623,0.7322422862052917,0.8146410584449768,0.03376058489084244,-0.18520638346672058
12.682307720184326,-0.3072785437107086,-0.970283031463623,0.7322422862052917,0.8146410584449768,0.03376058489084244,-0.18520638346672058
12.702404499053955,-0.3076600432395935,-0.970283031463623,0.7322422862052917,0.8146410584449768,0.03376058489084244,-0.18520638346672058
12.7224760055542,-0.3076600432395935,-0.970283031463623,0.7322422862052917,0.8146410584449768,0.03337911143898964,-0.18558785319328308
12.742545127868652,-0.3076600432395935,-0.969520092010498,0.7322422862052917,0.8146410584449768,0.03376058489084244,-0.18520638346672058
12.762619972229004,-0.3076600432395935,-0.969520092010498,0.7318608164787292,0.8146410584449768,0.03376058489084244,-0.18520638346672058
12.782692432403564,-0.3076600432395935,-0.969520092010498,0.7318608164787292,0.8150225281715393,0.03452353551983833,-0.18558785319328308
12.802783012390137,-0.3076600432395935,-0.969520092010498,0.7318608164787292,0.8146410584449768,0.034142062067985535,-0.18596932291984558
12.822863340377808,-0.3076600432395935,-0.969520092010498,0.7314793467521667,0.8150225281715393,0.03376058489084244,-0.18596932291984558
12.842936277389526,-0.3076600432395935,-0.969520092010498,0.7314793467521667,0.8150225281715393,0.03376058489084244,-0.18596932291984558
12.863027095794678,-0.3076600432395935,-0.969520092010498,0.7314793467521667,0.8150225281715393,0.03376058489084244,-0.18596932291984558
12.883142232894897,-0.3076600432395935,-0.969520092010498,0.7314793467521667,0.8150225281715393,0.034142062067985535,-0.18596932291984558
12.903225183486938,-0.3076600432395935,-0.969520092010498,0.7314793467521667,0.8150225281715393,0.03452353551983833,-0.18635080754756927
12.92325210571289,-0.3076600432395935,-0.969520092010498,0.7314793467521667,0.8150225281715393,0.03452353551983833,-0.18635080754756927
12.943338394165039,-0.3076600432395935,-0.969520092010498,0.7310978770256042,0.8150225281715393,0.03452353551983833,-0.18635080754756927
12.963410377502441,-0.3076600432395935,-0.969520092010498,0.7310978770256042,0.8150225281715393,0.034142062067985535,-0.18635080754756927
12.983483791351318,-0.3076600432395935,-0.969520092010498,0.7310978770256042,0.8154039978981018,0.034142062067985535,-0.18635080754756927
13.003556489944458,-0.3076600432395935,-0.969520092010498,0.7310978770256042,0.8154039978981018,0.034142062067985535,-0.18635080754756927
13.023629426956177,-0.3076600432395935,-0.9691386222839355,0.7310978770256042,0.8154039978981018,0.034142062067985535,-0.18635080754756927
13.043705224990845,-0.3076600432395935,-0.9691386222839355,0.7310978770256042,0.8154039978981018,0.03452353551983833,-0.18635080754756927
13.06375789642334,-0.3072785437107086,-0.9691386222839355,0.7310978770256042,0.8154039978981018,0.03452353551983833,-0.18635080754756927
13.08383822441101,-0.3068970739841461,-0.9691386222839355,0.7310978770256042,0.8154039978981018,0.03452353551983833,-0.18635080754756927
13.103909254074097,-0.30537116527557373,-0.9691386222839355,0.7310978770256042,0.8157854676246643,0.034142062067985535,-0.18635080754756927
13.123987913131714,-0.3057526648044586,-0.9691386222839355,0.7310978770256042,0.8157854676246643,0.03452353551983833,-0.18635080754756927
13.144062995910645,-0.30537116527557373,-0.968757152557373,0.7310978770256042,0.8154039978981018,0.03452353551983833,-0.18635080754756927
13.164112329483032,-0.3057526648044586,-0.968757152557373,0.7310978770256042,0.8154039978981018,0.03490501269698143,-0.18635080754756927
13.184203147888184,-0.3057526648044586,-0.968757152557373,0.7310978770256042,0.8157854676246643,0.03490501269698143,-0.18673227727413177
13.204278945922852,-0.3057526648044586,-0.968757152557373,0.7307164072990417,0.8157854676246643,0.03490501269698143,-0.18711376190185547
13.224363327026367,-0.3061341345310211,-0.968757152557373,0.7307164072990417,0.8157854676246643,0.03452353551983833,-0.18711376190185547
13.244434595108032,-0.3068970739841461,-0.968757152557373,0.7307164072990417,0.8157854676246643,0.03452353551983833,-0.18711376190185547
13.264563798904419,-0.3068970739841461,-0.968757152557373,0.7303349375724792,0.8154039978981018,0.03452353551983833,-0.18711376190185547
13.284595727920532,-0.3068970739841461,-0.968757152557373,0.7299534678459167,0.8154039978981018,0.03452353551983833,-0.18711376190185547
13.3046555519104,-0.3068970739841461,-0.968757152557373,0.7299534678459167,0.8154039978981018,0.034142062067985535,-0.18711376190185547
13.324753284454346,-0.3068970739841461,-0.968757152557373,0.7299534678459167,0.8157854676246643,0.03452353551983833,-0.18711376190185547
13.344830989837646,-0.3072785437107086,-0.9683756828308105,0.7303349375724792,0.8154039978981018,0.03452353551983833,-0.18711376190185547
13.3649160861969,-0.3076600432395935,-0.9683756828308105,0.7303349375724792,0.8154039978981018,0.03528648987412453,-0.18711376190185547
13.384971380233765,-0.3076600432395935,-0.9683756828308105,0.7303349375724792,0.8157854676246643,0.03528648987412453,-0.18711376190185547
13.405061483383179,-0.3076600432395935,-0.9683756828308105,0.7303349375724792,0.8157854676246643,0.03490501269698143,-0.18711376190185547
13.425204992294312,-0.3076600432395935,-0.9683756828308105,0.7303349375724792,0.8157854676246643,0.03452353551983833,-0.18711376190185547
13.445254564285278,-0.3076600432395935,-0.968757152557373,0.7303349375724792,0.8157854676246643,0.03452353551983833,-0.18711376190185547
13.465331554412842,-0.3076600432395935,-0.968757152557373,0.7303349375724792,0.8157854676246643,0.03490501269698143,-0.18711376190185547
13.485390663146973,-0.3076600432395935,-0.9683756828308105,0.7303349375724792,0.8157854676246643,0.03490501269698143,-0.18711376190185547
13.50546669960022,-0.3076600432395935,-0.9683756828308105,0.7303349375724792,0.8157854676246643,0.03490501269698143,-0.18711376190185547
13.525537252426147,-0.3076600432395935,-0.968757152557373,0.7303349375724792,0.8157854676246643,0.03490501269698143,-0.18711376190185547
13.5458664894104,-0.3076600432395935,-0.9683756828308105,0.7303349375724792,0.8161669373512268,0.03490501269698143,-0.18711376190185547
13.565951585769653,-0.3076600432395935,-0.9683756828308105,0.7303349375724792,0.8161669373512268,0.03490501269698143,-0.18711376190185547
13.586019277572632,-0.3076600432395935,-0.9683756828308105,0.7303349375724792,0.8161669373512268,0.03490501269698143,-0.18711376190185547
13.606093406677246,-0.3076600432395935,-0.9683756828308105,0.7303349375724792,0.8161669373512268,0.03490501269698143,-0.18711376190185547
13.62617540359497,-0.3076600432395935,-0.968757152557373,0.7303349375724792,0.8161669373512268,0.03490501269698143,-0.18711376190185547
13.646233081817627,-0.3076600432395935,-0.968757152557373,0.7303349375724792,0.8161669373512268,0.03490501269698143,-0.18711376190185547
13.666310548782349,-0.3076600432395935,-0.9683756828308105,0.7303349375724792,0.8161669373512268,0.03490501269698143,-0.18711376190185547
13.686376333236694,-0.3076600432395935,-0.9683756828308105,0.7303349375724792,0.8165484070777893,0.03490501269698143,-0.18711376190185547
13.706460237503052,-0.3076600432395935,-0.9683756828308105,0.7303349375724792,0.8165484070777893,0.03490501269698143,-0.18711376190185547
13.726531744003296,-0.3076600432395935,-0.968757152557373,0.7303349375724792,0.8165484070777893,0.03490501269698143,-0.18711376190185547
13.74660587310791,-0.3076600432395935,-0.9683756828308105,0.7303349375724792,0.8165484070777893,0.03490501269698143,-0.18711376190185547
13.766673564910889,-0.3076600432395935,-0.9683756828308105,0.7303349375724792,0.8165484070777893,0.03490501269698143,-0.18711376190185547
13.786753416061401,-0.3076600432395935,-0.9683756828308105,0.7303349375724792,0.8165484070777893,0.03490501269698143,-0.18711376190185547
13.806816101074219,-0.3076600432395935,-0.968757152557373,0.7303349375724792,0.8165484070777893,0.03490501269698143,-0.18711376190185547
13.826881885528564,-0.3076600432395935,-0.968757152557373,0.7303349375724792,0.8165484070777893,0.03490501269698143,-0.18711376190185547
13.846954345703125,-0.3076600432395935,-0.968757152557373,0.7303349375724792,0.8165484070777893,0.03490501269698143,-0.18711376190185547
13.867039442062378,-0.3076600432395935,-0.9683756828308105,0.7303349375724792,0.8165484070777893,0.03490501269698143,-0.18711376190185547
13.887106657028198,-0.3076600432395935,-0.9683756828308105,0.7303349375724792,0.8165484070777893,0.03490501269698143,-0.18711376190185547
13.907182216644287,-0.3076600432395935,-0.9683756828308105,0.7303349375724792,0.8165484070777893,0.03490501269698143,-0.18711376190185547
13.92749571800232,-0.3076600432395935,-0.9683756828308105,0.7303349375724792,0.8165484070777893,0.03490501269698143,-0.18711376190185547
13.94762659072876,-0.3076600432395935,-0.9683756828308105,0.7303349375724792,0.8165484070777893,0.03490501269698143,-0.18673227727413177
13.96766209602356,-0.3076600432395935,-0.9683756828308105,0.7303349375724792,0.8165484070777893,0.03490501269698143,-0.18711376190185547
13.987735509872437,-0.3076600432395935,-0.9683756828308105,0.7303349375724792,0.8165484070777893,0.03490501269698143,-0.18711376190185547
14.007813692092896,-0.3076600432395935,-0.9683756828308105,0.7299534678459167,0.8165484070777893,0.03490501269698143,-0.18711376190185547
14.027921438217163,-0.3076600432395935,-0.9683756828308105,0.7299534678459167,0.8165484070777893,0.03490501269698143,-0.18673227727413177
14.047978401184082,-0.3076600432395935,-0.9683756828308105,0.7303349375724792,0.8165484070777893,0.03490501269698143,-0.18673227727413177
14.068020820617676,-0.3076600432395935,-0.968757152557373,0.7303349375724792,0.8165484070777893,0.03490501269698143,-0.18711376190185547
14.088106393814087,-0.3076600432395935,-0.9683756828308105,0.7299534678459167,0.8165484070777893,0.03490501269698143,-0.18711376190185547
14.10817003250122,-0.3076600432395935,-0.968757152557373,0.7299534678459167,0.8165484070777893,0.03490501269698143,-0.18711376190185547
14.128245830535889,-0.3076600432395935,-0.9683756828308105,0.7303349375724792,0.8165484070777893,0.03490501269698143,-0.18711376190185547
14.148346424102783,-0.3076600432395935,-0.9683756828308105,0.7299534678459167,0.8165484070777893,0.03490501269698143,-0.18673227727413177
14.168444633483887,-0.3076600432395935,-0.9683756828308105,0.7299534678459167,0.8165484070777893,0.03490501269698143,-0.18711376190185547
14.188443899154663,-0.3076600432395935,-0.968757152557373,0.7303349375724792,0.8165484070777893,0.03490501269698143,-0.18673227727413177
