liuyurong129/humanoid-gym/humanoid/data/actual_q_20250522-035703.csv
timestamp,joint_1,joint_2,joint_3,joint_4,joint_5,joint_6
7.009506225585938e-05,-0.00019073777366429567,0.002861066721379757,-0.0013351644156500697,-0.00019073777366429567,0.00019073777366429567,-0.00019073777366429567
0.020161867141723633,-0.00019073777366429567,0.0024795911740511656,-0.0013351644156500697,-0.00019073777366429567,0.00019073777366429567,-0.00019073777366429567
0.040238142013549805,-0.00019073777366429567,0.001716639962978661,-0.0013351644156500697,-0.00019073777366429567,0.00019073777366429567,-0.00019073777366429567
0.060323476791381836,-0.00019073777366429567,0.0013351644156500697,-0.0013351644156500697,-0.00019073777366429567,0.00019073777366429567,-0.00019073777366429567
0.08039236068725586,-0.00019073777366429567,0.0013351644156500697,-0.0013351644156500697,-0.00019073777366429567,0.00019073777366429567,-0.00019073777366429567
0.10048937797546387,-0.00019073777366429567,0.000572213320992887,-0.00019073777366429567,-0.00019073777366429567,0.00019073777366429567,-0.00019073777366429567
0.12060546875,0.00019073777366429567,-0.0078202486038208,0.005912871100008488,-0.00019073777366429567,-0.000572213320992887,-0.00019073777366429567
0.14062047004699707,0.000572213320992887,-0.02231631986796856,0.012397955171763897,0.00019073777366429567,-0.00019073777366429567,-0.00019073777366429567
0.16073369979858398,0.0009536888683214784,-0.03833829239010811,0.023079270496964455,0.0009536888683214784,-0.000572213320992887,-0.00019073777366429567
0.18085885047912598,0.0009536888683214784,-0.05207141116261482,0.030708782374858856,0.0024795911740511656,-0.0009536888683214784,-0.00019073777366429567
0.20118403434753418,0.0009536888683214784,-0.0711451917886734,0.04100862145423889,0.004005493130534887,-0.001716639962978661,-0.00019073777366429567
0.2212984561920166,0.001716639962978661,-0.08869306743144989,0.05092698708176613,0.00476844422519207,-0.0020981156267225742,-0.00019073777366429567
0.2413785457611084,0.0020981156267225742,-0.1035706102848053,0.059319447726011276,0.007057297509163618,-0.004386968910694122,-0.000572213320992887
0.2615513801574707,0.001716639962978661,-0.12111848592758179,0.0707637146115303,0.00858320016413927,-0.005149920005351305,-0.00019073777366429567
0.2817103862762451,0.001716639962978661,-0.13828489184379578,0.08068207651376724,0.010490577667951584,-0.006294346414506435,-0.000572213320992887
0.30204057693481445,0.0020981156267225742,-0.15545128285884857,0.09174486994743347,0.01201647985726595,-0.007438773289322853,-0.00019073777366429567
0.32215332984924316,0.001716639962978661,-0.17185473442077637,0.1039520874619484,0.01506828423589468,-0.008201723918318748,-0.000572213320992887
0.34227538108825684,0.0020981156267225742,-0.18520638346672058,0.11196307092905045,0.016212711110711098,-0.00858320016413927,-0.00019073777366429567
0.3623642921447754,0.001716639962978661,-0.1993209719657898,0.12188144028186798,0.018501564860343933,-0.008964675478637218,-0.000572213320992887
0.38248562812805176,0.001716639962978661,-0.2141985148191452,0.13179980218410492,0.019645990803837776,-0.010490577667951584,-0.000572213320992887
0.4026005268096924,0.001716639962978661,-0.2313649207353592,0.13981078565120697,0.021171892061829567,-0.011635004542768002,-0.000572213320992887
0.422682523727417,0.0020981156267225742,-0.2454795092344284,0.14820325374603271,0.023079270496964455,-0.012779430486261845,-0.000572213320992887
0.44280099868774414,0.0024795911740511656,-0.25501641631126404,0.15468832850456238,0.024605173617601395,-0.01430533267557621,-0.000572213320992887
0.46282315254211426,0.0024795911740511656,-0.2645532786846161,0.16041046380996704,0.026512550190091133,-0.015449759550392628,-0.000572213320992887
0.4830019474029541,0.0020981156267225742,-0.2798123061656952,0.16880293190479279,0.02727550081908703,-0.016975661739706993,-0.0009536888683214784
0.5030612945556641,0.0024795911740511656,-0.2954528033733368,0.17490653693675995,0.02841992862522602,-0.016594186425209045,-0.0009536888683214784
0.5232040882110596,0.0024795911740511656,-0.3122377395629883,0.1806286722421646,0.03032730519771576,-0.01773861236870289,-0.0009536888683214784
0.5433230400085449,0.0024795911740511656,-0.3233005404472351,0.18902114033699036,0.03185320645570755,-0.01926451548933983,-0.0009536888683214784
0.5633623600006104,0.0020981156267225742,-0.33360037207603455,0.19512474536895752,0.03376058489084244,-0.01926451548933983,-0.0013351644156500697
0.5835063457489014,0.001716639962978661,-0.34924086928367615,0.20389868319034576,0.03452353551983833,-0.01926451548933983,-0.001716639962978661
0.6036303043365479,0.0013351644156500697,-0.36793315410614014,0.21000228822231293,0.035667963325977325,-0.01926451548933983,-0.001716639962978661
0.6238498687744141,0.0013351644156500697,-0.3847180902957916,0.21648737788200378,0.037193864583969116,-0.01926451548933983,-0.002861066721379757
0.6439971923828125,0.001716639962978661,-0.39578089118003845,0.22411687672138214,0.03833829239010811,-0.020027466118335724,-0.004005493130534887
0.6640369892120361,0.001716639962978661,-0.4056992530822754,0.2313649207353592,0.0398641936480999,-0.02231631986796856,-0.004005493130534887
0.6841673851013184,0.001716639962978661,-0.4190509021282196,0.23899443447589874,0.04177157208323479,-0.02231631986796856,-0.004386968910694122
0.7042808532714844,0.001716639962978661,-0.43202105164527893,0.247768372297287,0.04253452271223068,-0.023079270496964455,-0.004386968910694122
0.7243750095367432,0.0013351644156500697,-0.44728007912635803,0.25310903787612915,0.04444190114736557,-0.024223696440458298,-0.004386968910694122
0.7444424629211426,0.001716639962978661,-0.46139466762542725,0.2618829607963562,0.04634927958250046,-0.024605173617601395,-0.004386968910694122
0.764561653137207,0.001716639962978661,-0.4694056510925293,0.26836803555488586,0.048256658017635345,-0.02536812424659729,-0.00476844422519207
0.7848653793334961,0.001716639962978661,-0.47817960381507874,0.2744716703891754,0.04940108209848404,-0.026131074875593185,-0.00476844422519207
0.8050222396850586,0.001716639962978661,-0.49000534415245056,0.28248265385627747,0.050164032727479935,-0.02689402550458908,-0.00476844422519207
0.8250889778137207,0.001716639962978661,-0.5018310546875,0.28782328963279724,0.05130846053361893,-0.026131074875593185,-0.005149920005351305
0.8451879024505615,0.0013351644156500697,-0.5128938555717468,0.2954528033733368,0.05283436179161072,-0.026131074875593185,-0.00476844422519207
0.8652338981628418,0.001716639962978661,-0.5193789601325989,0.30117493867874146,0.05359731614589691,-0.026512550190091133,-0.005149920005351305
0.8852922916412354,0.001716639962978661,-0.5262455344200134,0.3068970739841461,0.05397878959774971,-0.02689402550458908,-0.005531395319849253
0.9053752422332764,0.001716639962978661,-0.533875048160553,0.31567102670669556,0.05664911866188049,-0.02689402550458908,-0.005531395319849253
0.9255411624908447,0.001716639962978661,-0.54112309217453,0.3213931620121002,0.05703059583902359,-0.02689402550458908,-0.005912871100008488
0.9457442760467529,0.001716639962978661,-0.5491340756416321,0.3286411762237549,0.05855649709701538,-0.026512550190091133,-0.006294346414506435
0.9659476280212402,0.001716639962978661,-0.5556191205978394,0.3374151289463043,0.06046387553215027,-0.02689402550458908,-0.007057297509163618
0.9859838485717773,0.001716639962978661,-0.5613412857055664,0.3435187339782715,0.06160829961299896,-0.02689402550458908,-0.007057297509163618
1.006040096282959,0.001716639962978661,-0.5693522691726685,0.3538185656070709,0.06351567804813385,-0.02727550081908703,-0.007438773289322853
1.0263237953186035,0.0013351644156500697,-0.5766003131866455,0.361829549074173,0.06427863240242004,-0.028038453310728073,-0.007438773289322853
1.0463004112243652,0.0013351644156500697,-0.5857557058334351,0.3725108802318573,0.06694895774126053,-0.028038453310728073,-0.007438773289322853
1.0663940906524658,0.0013351644156500697,-0.5949110984802246,0.3839551508426666,0.06885633617639542,-0.02994582988321781,-0.007438773289322853
1.086477518081665,0.0009536888683214784,-0.6033035516738892,0.39463645219802856,0.0711451917886734,-0.02994582988321781,-0.007438773289322853
1.1076464653015137,0.00019073777366429567,-0.612840473651886,0.4076066315174103,0.07267109304666519,-0.030708782374858856,-0.007438773289322853
1.127737045288086,-0.000572213320992887,-0.6231403350830078,0.422102689743042,0.07534141838550568,-0.03299763426184654,-0.0078202486038208
1.1478044986724854,-0.00019073777366429567,-0.6319142580032349,0.43202105164527893,0.07648584991693497,-0.03528648987412453,-0.0078202486038208
1.1679081916809082,-0.00019073777366429567,-0.6422140598297119,0.44537270069122314,0.07953765243291855,-0.03833829239010811,-0.007438773289322853
1.188004732131958,-0.00019073777366429567,-0.654421329498291,0.45872434973716736,0.08144503086805344,-0.040245670825242996,-0.008201723918318748
1.2080776691436768,-0.00019073777366429567,-0.6677729487419128,0.4705500900745392,0.08373387902975082,-0.04139009863138199,-0.0078202486038208
1.228149652481079,-0.000572213320992887,-0.6811245679855347,0.4861905872821808,0.0864042118191719,-0.04177157208323479,-0.0078202486038208
1.248255968093872,-0.00019073777366429567,-0.693331778049469,0.499542236328125,0.0883115902543068,-0.043678950518369675,-0.0078202486038208
1.2682974338531494,-0.00019073777366429567,-0.7043945789337158,0.5117494463920593,0.09060044586658478,-0.043678950518369675,-0.0078202486038208
1.2884089946746826,-0.00019073777366429567,-0.7166017889976501,0.5277714133262634,0.09403372555971146,-0.04482337832450867,-0.0078202486038208
1.3084945678710938,-0.000572213320992887,-0.7280460596084595,0.5422675013542175,0.09555962681770325,-0.04596780240535736,-0.008201723918318748
1.3285534381866455,-0.000572213320992887,-0.7410162687301636,0.5579079985618591,0.09784847497940063,-0.04558632895350456,-0.0078202486038208
1.3487017154693604,-0.000572213320992887,-0.7543678879737854,0.576218843460083,0.10051880776882172,-0.04558632895350456,-0.008201723918318748
1.3688011169433594,-0.000572213320992887,-0.7650492191314697,0.5903334021568298,0.1035706102848053,-0.04634927958250046,-0.008201723918318748
1.3888027667999268,-0.000572213320992887,-0.776493489742279,0.6078813076019287,0.10585946589708328,-0.04749370738863945,-0.008201723918318748
1.4088947772979736,-0.000572213320992887,-0.7902265787124634,0.6269550919532776,0.10852979123592377,-0.048256658017635345,-0.008201723918318748
1.4289560317993164,-0.000572213320992887,-0.8047226667404175,0.6448844075202942,0.11005569249391556,-0.04901960864663124,-0.00858320016413927
1.4490623474121094,-0.0009536888683214784,-0.8215075731277466,0.6666285395622253,0.11310750246047974,-0.048256658017635345,-0.00858320016413927
1.4691498279571533,-0.0009536888683214784,-0.8356221914291382,0.6857023239135742,0.11539635062217712,-0.049782559275627136,-0.008964675478637218
1.4892022609710693,-0.0013351644156500697,-0.84897381067276,0.7032501697540283,0.1180666834115982,-0.05054550990462303,-0.008964675478637218
1.5092878341674805,-0.0020981156267225742,-0.8638513684272766,0.7238498330116272,0.12264438718557358,-0.05054550990462303,-0.009346150793135166
1.5293653011322021,-0.0020981156267225742,-0.8787289261817932,0.7429236173629761,0.12760357558727264,-0.05283436179161072,-0.010872052982449532
1.5494346618652344,-0.0024795911740511656,-0.8951323628425598,0.7631418108940125,0.13179980218410492,-0.053215838968753815,-0.010872052982449532
1.569516658782959,-0.002861066721379757,-0.9126802682876587,0.7871748208999634,0.1348516047000885,-0.05397878959774971,-0.011635004542768002
1.5897636413574219,-0.002861066721379757,-0.9275577664375305,0.8081559538841248,0.13942931592464447,-0.0558861680328846,-0.012397955171763897
1.6096739768981934,-0.0024795911740511656,-0.9431982636451721,0.8314259648323059,0.14438849687576294,-0.05664911866188049,-0.013160906732082367
1.6297614574432373,-0.0024795911740511656,-0.9611276388168335,0.8562218546867371,0.1512550562620163,-0.056267641484737396,-0.01430533267557621
1.649848222732544,-0.0024795911740511656,-0.9756237268447876,0.8791103959083557,0.15621423721313477,-0.05703059583902359,-0.01506828423589468
1.6699697971343994,-0.0024795911740511656,-0.9905012845993042,0.9023804068565369,0.16231784224510193,-0.05741206929087639,-0.01506828423589468
1.6900811195373535,-0.002861066721379757,-1.0049973726272583,0.9260318875312805,0.1676585078239441,-0.06046387553215027,-0.01583123579621315
1.710153579711914,-0.002861066721379757,-1.0164415836334229,0.9466315507888794,0.17414358258247375,-0.06084534898400307,-0.016594186425209045
1.7302660942077637,-0.0036240178160369396,-1.029411792755127,0.969520092010498,0.1813916265964508,-0.06275273114442825,-0.01773861236870289
1.7502946853637695,-0.004386968910694122,-1.0370413064956665,0.9851605892181396,0.18711376190185547,-0.06504157930612564,-0.01888304017484188
1.7703773975372314,-0.00476844422519207,-1.0458152294158936,1.0038528442382812,0.19283588230609894,-0.06847485899925232,-0.02079041674733162
1.790452241897583,-0.005531395319849253,-1.0515373945236206,1.0160601139068604,0.1985580176115036,-0.071908138692379,-0.022697795182466507
1.8105075359344482,-0.00667582219466567,-1.0545891523361206,1.0263599157333374,0.20542457699775696,-0.07610437273979187,-0.024223696440458298
1.83060622215271,-0.007057297509163618,-1.0568779706954956,1.0351338386535645,0.21229113638401031,-0.08106355369091034,-0.025749599561095238
1.850670337677002,-0.007438773289322853,-1.0568779706954956,1.038185715675354,0.21801327168941498,-0.08449683338403702,-0.027656977996230125
1.8707571029663086,-0.0078202486038208,-1.0561150312423706,1.0385671854019165,0.22373540699481964,-0.08907453715801239,-0.02994582988321781
1.8908421993255615,-0.0078202486038208,-1.0553520917892456,1.037422776222229,0.2313649207353592,-0.09441519528627396,-0.032616160809993744
1.9110560417175293,-0.007438773289322853,-1.0545891523361206,1.0336079597473145,0.24242770671844482,-0.09975585341453552,-0.03604944050312042
1.9310722351074219,-0.007438773289322853,-1.0538262128829956,1.030174732208252,0.25577935576438904,-0.10547798871994019,-0.04139009863138199
1.9513604640960693,-0.002861066721379757,-1.050011396408081,1.024452567100525,0.2759975492954254,-0.11539635062217712,-0.049782559275627136
1.9713895320892334,0.005149920005351305,-1.043907880783081,1.019874930381775,0.30460822582244873,-0.13027389347553253,-0.06198977679014206
1.9915249347686768,0.010872052982449532,-1.0343708992004395,1.0160601139068604,0.33207446336746216,-0.14133669435977936,-0.07457847148180008
2.011672019958496,0.016594186425209045,-1.0217822790145874,1.0133898258209229,0.3534370958805084,-0.14820325374603271,-0.08945601433515549
2.03171443939209,0.02040894143283367,-1.0095750093460083,1.0080491304397583,0.36755168437957764,-0.14362554252147675,-0.10509651154279709
2.051783561706543,0.02231631986796856,-0.9977492690086365,0.9996566772460938,0.3755626678466797,-0.1367589831352234,-0.12073700875043869
2.07185959815979,0.02193484455347061,-0.9878309369087219,0.9885938763618469,0.3850995600223541,-0.13027389347553253,-0.134470134973526
2.091913938522339,0.020027466118335724,-0.9775310754776001,0.9729533791542053,0.39501792192459106,-0.12607766687870026,-0.14782176911830902
2.1120412349700928,0.01773861236870289,-0.9691386222839355,0.9554055333137512,0.4056992530822754,-0.12455176562070847,-0.16193637251853943
2.13211989402771,0.01735713705420494,-0.9657053351402283,0.9458686113357544,0.4186694025993347,-0.1333257108926773,-0.17566949129104614
2.152182102203369,0.01773861236870289,-0.967231273651123,0.9401465058326721,0.438506156206131,-0.14324407279491425,-0.1844434291124344
2.1722655296325684,0.020027466118335724,-0.9657053351402283,0.9355688095092773,0.4537651538848877,-0.1516365259885788,-0.19398032128810883
2.192366123199463,0.02231631986796856,-0.9630350470542908,0.9336614012718201,0.4667353332042694,-0.15659570693969727,-0.20084688067436218
2.2124311923980713,0.026131074875593185,-0.9584572911262512,0.9351872801780701,0.4732204079627991,-0.15545128285884857,-0.20771344006061554
2.232492208480835,0.02994582988321781,-0.9523537158966064,0.9370946884155273,0.47779813408851624,-0.1497291475534439,-0.2149614691734314
2.252577066421509,0.03299763426184654,-0.9481574892997742,0.9367132186889648,0.4873350262641907,-0.14133669435977936,-0.22373540699481964
2.2726645469665527,0.03376058489084244,-0.9454871416091919,0.9317540526390076,0.499542236328125,-0.12073700875043869,-0.23517967760562897
2.2927374839782715,0.032616160809993744,-0.9454871416091919,0.924887478351593,0.5144197940826416,-0.10891126841306686,-0.2462424635887146
2.3128271102905273,0.029564354568719864,-0.9458686113357544,0.9203097820281982,0.5315861701965332,-0.1028076633810997,-0.25654229521751404
2.332888603210449,0.02841992862522602,-0.9515907764434814,0.916876494884491,0.5491340756416321,-0.1028076633810997,-0.2660791873931885
2.35323166847229,0.02880140393972397,-0.9573128819465637,0.916113555431366,0.5663004517555237,-0.10776684433221817,-0.2759975492954254
2.3733553886413574,0.029182879254221916,-0.961509108543396,0.9172579646110535,0.5869001150131226,-0.11501488089561462,-0.28515297174453735
2.393378734588623,0.029564354568719864,-0.962272047996521,0.919165313243866,0.6033035516738892,-0.1199740618467331,-0.2924010157585144
2.413512945175171,0.03147173300385475,-0.960746169090271,0.9222171306610107,0.6139848828315735,-0.11959258466959,-0.29888609051704407
2.43359375,0.03299763426184654,-0.9580758213996887,0.9252689480781555,0.6254291534423828,-0.11768520623445511,-0.30537116527557373
2.4538040161132812,0.03376058489084244,-0.9565499424934387,0.9260318875312805,0.6345845460891724,-0.10929274559020996,-0.31376364827156067
2.4739022254943848,0.03299763426184654,-0.9561684727668762,0.9214541912078857,0.6460288166999817,-0.09517814964056015,-0.3236820101737976
2.4939558506011963,0.03223468363285065,-0.9561684727668762,0.916876494884491,0.6593804955482483,-0.08449683338403702,-0.33245593309402466
2.5140466690063477,0.02994582988321781,-0.9588387608528137,0.9130617380142212,0.6731135845184326,-0.07763027399778366,-0.3408484160900116
2.5341384410858154,0.02880140393972397,-0.9626535177230835,0.9100099205970764,0.6857023239135742,-0.07801175117492676,-0.34847790002822876
2.554210901260376,0.02841992862522602,-0.9660868048667908,0.9081025123596191,0.6994354128837585,-0.07686731964349747,-0.3545815348625183
2.574352979660034,0.02841992862522602,-0.968757152557373,0.9084840416908264,0.7135500311851501,-0.07610437273979187,-0.3595407009124756
2.5943994522094727,0.02727550081908703,-0.967231273651123,0.9088655114173889,0.7242313027381897,-0.07419699430465698,-0.36564430594444275
2.614546537399292,0.024605173617601395,-0.9660868048667908,0.9100099205970764,0.7345311641693115,-0.06847485899925232,-0.3709849715232849
2.6346044540405273,0.023079270496964455,-0.9641794562339783,0.9103913903236389,0.7433050870895386,-0.05664911866188049,-0.3759441375732422
2.654728412628174,0.021553369238972664,-0.9637979865074158,0.9081025123596191,0.7543678879737854,-0.04329747334122658,-0.38319218158721924
2.674818992614746,0.02079041674733162,-0.9645609259605408,0.9035248160362244,0.7654306888580322,-0.029182879254221916,-0.3896772861480713
2.6948859691619873,0.018501564860343933,-0.9676127433776855,0.9004730582237244,0.776493489742279,-0.022697795182466507,-0.39692530035972595
2.715057134628296,0.016975661739706993,-0.9725719094276428,0.8981841802597046,0.7879377603530884,-0.021553369238972664,-0.4022659659385681
2.7352263927459717,0.016975661739706993,-0.9782940149307251,0.8978027105331421,0.7993820309638977,-0.01926451548933983,-0.4076066315174103
2.755286693572998,0.016975661739706993,-0.9798199534416199,0.8966583013534546,0.810826301574707,-0.02040894143283367,-0.41103988885879517
2.775426149368286,0.01583123579621315,-0.9802014231681824,0.8981841802597046,0.8211261034011841,-0.021553369238972664,-0.41447317600250244
2.7955005168914795,0.013923857361078262,-0.9786755442619324,0.9000915288925171,0.8310444951057434,-0.016975661739706993,-0.4179064631462097
2.815547466278076,0.013923857361078262,-0.9775310754776001,0.9023804068565369,0.839436948299408,-0.00858320016413927,-0.4224841594696045
2.835634469985962,0.013923857361078262,-0.9771496057510376,0.9027618765830994,0.8470664620399475,0.005149920005351305,-0.42820629477500916
2.8557095527648926,0.01125352829694748,-0.9779125452041626,0.9008545279502869,0.8558403849601746,0.02079041674733162,-0.4327840209007263
2.875816583633423,0.00858320016413927,-0.9794384837150574,0.8970397710800171,0.8630884289741516,0.03185320645570755,-0.4365987777709961
2.8958773612976074,0.005531395319849253,-0.9836347103118896,0.8936064839363098,0.8710994124412537,0.03490501269698143,-0.44117647409439087
2.915945291519165,0.004386968910694122,-0.9885938763618469,0.8916990756988525,0.8791103959083557,0.03376058489084244,-0.44460976123809814
2.9360344409942627,0.0036240178160369396,-0.9924086332321167,0.892080545425415,0.8882657885551453,0.032616160809993744,-0.44689860939979553
2.956164598464966,0.0013351644156500697,-0.9962233901023865,0.8924620151519775,0.8966583013534546,0.02994582988321781,-0.4491874575614929
2.976219415664673,0.00019073777366429567,-0.996604859828949,0.8943694233894348,0.9035248160362244,0.02880140393972397,-0.4514763057231903
2.9963202476501465,-0.000572213320992887,-0.9962233901023865,0.8974212408065796,0.9096284508705139,0.03299763426184654,-0.4530022144317627
3.016404390335083,-0.000572213320992887,-0.9954604506492615,0.9008545279502869,0.9145876169204712,0.040245670825242996,-0.4545281231403351
3.036707878112793,-0.000572213320992887,-0.995078980922699,0.9023804068565369,0.9195467829704285,0.053215838968753815,-0.45681697130203247
3.0567967891693115,-0.000572213320992887,-0.9962233901023865,0.9008545279502869,0.9252689480781555,0.06542305648326874,-0.45986875891685486
3.0769450664520264,-0.0032425422687083483,-0.9981307983398438,0.8989471197128296,0.9306095838546753,0.07801175117492676,-0.46215763688087463
3.0970306396484375,-0.006294346414506435,-1.0008010864257812,0.8966583013534546,0.9367132186889648,0.08449683338403702,-0.4648279547691345
3.1171069145202637,-0.008201723918318748,-1.0046159029006958,0.8951323628425598,0.9435797929763794,0.08449683338403702,-0.4671168029308319
3.137176752090454,-0.010109102353453636,-1.0084306001663208,0.8936064839363098,0.9504463076591492,0.08220797777175903,-0.4678797721862793
3.1573452949523926,-0.010872052982449532,-1.0099564790725708,0.8943694233894348,0.9565499424934387,0.07953765243291855,-0.4686427116394043
3.1773698329925537,-0.012779430486261845,-1.0103379487991333,0.8947508931159973,0.9637979865074158,0.07953765243291855,-0.4690241813659668
3.197521209716797,-0.013542382046580315,-1.0099564790725708,0.8962767720222473,0.969520092010498,0.08220797777175903,-0.4701686203479767
3.217611074447632,-0.013542382046580315,-1.0099564790725708,0.8985656499862671,0.9748607873916626,0.08983749151229858,-0.4716945290565491
3.237684488296509,-0.013160906732082367,-1.0099564790725708,0.8997100591659546,0.9794384837150574,0.10204470902681351,-0.4724574685096741
3.2578108310699463,-0.012397955171763897,-1.0107194185256958,0.8993285894393921,0.9847791194915771,0.11234454810619354,-0.47550925612449646
3.277872085571289,-0.012397955171763897,-1.0130083560943604,0.8993285894393921,0.9885938763618469,0.12073700875043869,-0.47703516483306885
3.2980945110321045,-0.013923857361078262,-1.0156786441802979,0.8993285894393921,0.9927901029586792,0.12607766687870026,-0.47856107354164124
3.318183422088623,-0.015449759550392628,-1.0191118717193604,0.8993285894393921,0.9969863295555115,0.12798504531383514,-0.47894254326820374
3.3382644653320312,-0.016975661739706993,-1.0225452184677124,0.8997100591659546,1.0023269653320312,0.12874799966812134,-0.47932401299476624
3.358299970626831,-0.01888304017484188,-1.0236896276474,0.9004730582237244,1.0076676607131958,0.12874799966812134,-0.47932401299476624
3.3783764839172363,-0.02040894143283367,-1.0248340368270874,0.9027618765830994,1.0126268863677979,0.12874799966812134,-0.47932401299476624
3.398441791534424,-0.020027466118335724,-1.0248340368270874,0.9042877554893494,1.0175859928131104,0.1325627565383911,-0.47932401299476624
3.418558359146118,-0.019645990803837776,-1.0248340368270874,0.9058136940002441,1.0217822790145874,0.14019227027893066,-0.4797055125236511
3.43861985206604,-0.01926451548933983,-1.02521550655365,0.9061951637268066,1.0255969762802124,0.1504921019077301,-0.4804684519767761
3.4586966037750244,-0.01888304017484188,-1.0255969762802124,0.9061951637268066,1.0282673835754395,0.16079194843769073,-0.481612890958786
3.4788458347320557,-0.020027466118335724,-1.027885913848877,0.9046692848205566,1.029411792755127,0.1668955534696579,-0.482375830411911
3.498875141143799,-0.021553369238972664,-1.0305562019348145,0.9042877554893494,1.0313191413879395,0.1680399775505066,-0.483138769865036
3.5189478397369385,-0.022697795182466507,-1.0336079597473145,0.9042877554893494,1.0343708992004395,0.1653696447610855,-0.4827573001384735
3.5389976501464844,-0.023079270496964455,-1.035896897315979,0.9046692848205566,1.0378042459487915,0.16155488789081573,-0.4827573001384735
3.5590920448303223,-0.024605173617601395,-1.036659836769104,0.9061951637268066,1.042000412940979,0.16002899408340454,-0.482375830411911
3.579176425933838,-0.024223696440458298,-1.037422776222229,0.9088655114173889,1.0458152294158936,0.16079194843769073,-0.482375830411911
3.599231719970703,-0.024605173617601395,-1.036659836769104,0.9103913903236389,1.0488669872283936,0.1646067053079605,-0.482375830411911
3.619319200515747,-0.024223696440458298,-1.0355154275894165,0.9107728600502014,1.0515373945236206,0.17261768877506256,-0.4827573001384735
3.6393966674804688,-0.024223696440458298,-1.035896897315979,0.9103913903236389,1.053444743156433,0.1836804747581482,-0.4827573001384735
3.659900665283203,-0.024223696440458298,-1.0362783670425415,0.9100099205970764,1.054970622062683,0.19207294285297394,-0.4827573001384735
3.6800646781921387,-0.025749599561095238,-1.0378042459487915,0.9084840416908264,1.0553520917892456,0.19398032128810883,-0.4827573001384735
3.7000701427459717,-0.02727550081908703,-1.0393301248550415,0.9073395729064941,1.056496500968933,0.19321736693382263,-0.4827573001384735
3.7201621532440186,-0.027656977996230125,-1.041237473487854,0.9069581031799316,1.0587854385375977,0.18940261006355286,-0.482375830411911
3.740218162536621,-0.02880140393972397,-1.0423818826675415,0.9077210426330566,1.0614557266235352,0.18635080754756927,-0.4819943606853485
3.760312080383301,-0.029182879254221916,-1.0435264110565186,0.9092469811439514,1.0648889541625977,0.18673227727413177,-0.4812313914299011
3.7803919315338135,-0.02841992862522602,-1.0435264110565186,0.9119172692298889,1.0694667100906372,0.18978407979011536,-0.4804684519767761
3.800445795059204,-0.02727550081908703,-1.043144941329956,0.9130617380142212,1.0725184679031372,0.19474326074123383,-0.4804684519767761
3.820542097091675,-0.02689402550458908,-1.042763352394104,0.9142061471939087,1.0736628770828247,0.20237277448177338,-0.4800869822502136
3.8406178951263428,-0.02689402550458908,-1.042763352394104,0.9138246774673462,1.0736628770828247,0.21076524257659912,-0.4804684519767761
3.8608171939849854,-0.02689402550458908,-1.0435264110565186,0.9134432077407837,1.0736628770828247,0.2153429538011551,-0.4804684519767761
3.880899429321289,-0.028038453310728073,-1.0442893505096436,0.9126802682876587,1.0736628770828247,0.21686884760856628,-0.4800869822502136
3.9009501934051514,-0.029564354568719864,-1.0458152294158936,0.9115357995033264,1.0740443468093872,0.21648737788200378,-0.4800869822502136
3.9210453033447266,-0.03147173300385475,-1.046959638595581,0.9107728600502014,1.0755703449249268,0.2138170450925827,-0.4797055125236511
3.941166877746582,-0.03223468363285065,-1.047722578048706,0.9107728600502014,1.0782406330108643,0.21076524257659912,-0.47894254326820374
3.961451530456543,-0.034142062067985535,-1.048485517501831,0.9111543297767639,1.0809109210968018,0.20771344006061554,-0.47817960381507874
3.98158860206604,-0.03185320645570755,-1.0481040477752686,0.9122987985610962,1.0820554494857788,0.20847637951374054,-0.47779813408851624
4.001672983169556,-0.03032730519771576,-1.047722578048706,0.9134432077407837,1.0831998586654663,0.212672621011734,-0.47779813408851624
4.021942138671875,-0.029182879254221916,-1.0473411083221436,0.9142061471939087,1.0843442678451538,0.21953918039798737,-0.47779813408851624
4.042060852050781,-0.02841992862522602,-1.0473411083221436,0.9145876169204712,1.0843442678451538,0.22755016386508942,-0.47779813408851624
4.062109708786011,-0.02841992862522602,-1.047722578048706,0.9145876169204712,1.0843442678451538,0.23212787508964539,-0.47779813408851624
4.082321882247925,-0.02994582988321781,-1.048485517501831,0.9142061471939087,1.0843442678451538,0.23327229917049408,-0.47817960381507874
4.102396011352539,-0.03223468363285065,-1.0496299266815186,0.9134432077407837,1.0843442678451538,0.23212787508964539,-0.47741663455963135
4.122535943984985,-0.03452353551983833,-1.050774335861206,0.9122987985610962,1.0847257375717163,0.2283131182193756,-0.47741663455963135
4.1426355838775635,-0.03604944050312042,-1.0515373945236206,0.9119172692298889,1.0858701467514038,0.22449836134910583,-0.47550925612449646
4.162721395492554,-0.03643091395497322,-1.0515373945236206,0.9119172692298889,1.0885404348373413,0.21763180196285248,-0.4736018776893616
4.182950019836426,-0.03452353551983833,-1.051918864250183,0.9119172692298889,1.0900664329528809,0.21686884760856628,-0.4705500900745392
4.20306396484375,-0.03147173300385475,-1.051155924797058,0.9142061471939087,1.0923552513122559,0.21801327168941498,-0.4697871506214142
4.2231035232543945,-0.02994582988321781,-1.0515373945236206,0.916113555431366,1.0931181907653809,0.22182802855968475,-0.4690241813659668
4.243190050125122,-0.02880140393972397,-1.051155924797058,0.917639434337616,1.0927367210388184,0.2286945879459381,-0.4690241813659668
4.263259410858154,-0.02841992862522602,-1.051155924797058,0.918402373790741,1.0923552513122559,0.23670557141304016,-0.4694056510925293
4.28346061706543,-0.02880140393972397,-1.0515373945236206,0.918402373790741,1.0923552513122559,0.23975738883018494,-0.4697871506214142
4.303561449050903,-0.031090257689356804,-1.0523003339767456,0.917639434337616,1.0923552513122559,0.23899443447589874,-0.4694056510925293
4.323675155639648,-0.03299763426184654,-1.0530632734298706,0.9164950251579285,1.0919737815856934,0.23708705604076385,-0.4694056510925293
4.343736410140991,-0.03490501269698143,-1.054207682609558,0.9153505563735962,1.0923552513122559,0.2309834510087967,-0.4682612419128418
4.363932371139526,-0.03681239113211632,-1.0545891523361206,0.9149690866470337,1.0927367210388184,0.22297245264053345,-0.4671168029308319
4.384361743927002,-0.03681239113211632,-1.0545891523361206,0.9145876169204712,1.0931181907653809,0.21953918039798737,-0.4671168029308319
4.404495000839233,-0.034142062067985535,-1.053444743156433,0.9149690866470337,1.0946440696716309,0.22030213475227356,-0.4659723937511444
4.424753427505493,-0.032616160809993744,-1.052681803703308,0.916113555431366,1.0961699485778809,0.22182802855968475,-0.465209424495697
4.444856882095337,-0.03032730519771576,-1.051918864250183,0.9180209040641785,1.0961699485778809,0.22716869413852692,-0.4640650153160095
4.46494460105896,-0.029182879254221916,-1.0515373945236206,0.9187838435173035,1.0957884788513184,0.23632410168647766,-0.464446485042572
4.485072612762451,-0.02880140393972397,-1.0515373945236206,0.9187838435173035,1.0957884788513184,0.24204623699188232,-0.464446485042572
4.505154609680176,-0.030708782374858856,-1.0523003339767456,0.918402373790741,1.0954070091247559,0.24357213079929352,-0.464446485042572
4.525268316268921,-0.032616160809993744,-1.052681803703308,0.9172579646110535,1.0946440696716309,0.24319066107273102,-0.464446485042572
4.545325040817261,-0.03490501269698143,-1.054207682609558,0.9157320261001587,1.0942625999450684,0.23746852576732635,-0.4640650153160095
4.565397262573242,-0.03528648987412453,-1.0545891523361206,0.9157320261001587,1.0950255393981934,0.22793163359165192,-0.46368351578712463
4.585529565811157,-0.03681239113211632,-1.054970622062683,0.9157320261001587,1.0954070091247559,0.22297245264053345,-0.46253910660743713
4.605649709701538,-0.034142062067985535,-1.0538262128829956,0.916113555431366,1.0957884788513184,0.22106507420539856,-0.46215763688087463
4.625774383544922,-0.03223468363285065,-1.0530632734298706,0.9172579646110535,1.0965514183044434,0.22297245264053345,-0.46063172817230225
4.646060466766357,-0.031090257689356804,-1.0523003339767456,0.9187838435173035,1.0973143577575684,0.2302204966545105,-0.46025025844573975
4.6662681102752686,-0.03032730519771576,-1.0515373945236206,0.9195467829704285,1.0969328880310059,0.23937590420246124,-0.46025025844573975
4.686265468597412,-0.029182879254221916,-1.0515373945236206,0.9195467829704285,1.0961699485778809,0.2450980395078659,-0.46063172817230225
4.7063844203948975,-0.03147173300385475,-1.051918864250183,0.9187838435173035,1.0957884788513184,0.248531311750412,-0.46063172817230225
4.726435661315918,-0.03490501269698143,-1.053444743156433,0.9164950251579285,1.0946440696716309,0.2481498420238495,-0.46063172817230225
4.7466630935668945,-0.03528648987412453,-1.0545891523361206,0.9145876169204712,1.0942625999450684,0.24280919134616852,-0.46063172817230225
4.766805410385132,-0.03681239113211632,-1.0561150312423706,0.9130617380142212,1.0946440696716309,0.23746852576732635,-0.46025025844573975
4.7869038581848145,-0.03643091395497322,-1.056496500968933,0.9134432077407837,1.0954070091247559,0.2283131182193756,-0.45986875891685486
4.806980609893799,-0.03528648987412453,-1.0568779706954956,0.9138246774673462,1.0957884788513184,0.22335393726825714,-0.45948728919029236
4.827073574066162,-0.03223468363285065,-1.055733561515808,0.916876494884491,1.0965514183044434,0.22144655883312225,-0.45948728919029236
4.847227096557617,-0.02994582988321781,-1.0553520917892456,0.9195467829704285,1.0969328880310059,0.22335393726825714,-0.45910581946372986
4.867248773574829,-0.029182879254221916,-1.0538262128829956,0.9214541912078857,1.0969328880310059,0.230601966381073,-0.45948728919029236
4.887420892715454,-0.02880140393972397,-1.053444743156433,0.9218356609344482,1.0961699485778809,0.23975738883018494,-0.45986875891685486
4.907511472702026,-0.029182879254221916,-1.052681803703308,0.9206912517547607,1.0961699485778809,0.2458609938621521,-0.45986875891685486
4.9276487827301025,-0.03223468363285065,-1.0530632734298706,0.919165313243866,1.0954070091247559,0.2454795092344284,-0.45986875891685486
4.947723150253296,-0.03452353551983833,-1.054207682609558,0.9164950251579285,1.0942625999450684,0.24242770671844482,-0.45986875891685486
4.967766046524048,-0.03681239113211632,-1.0553520917892456,0.9138246774673462,1.0942625999450684,0.23517967760562897,-0.45948728919029236
4.987849950790405,-0.03681239113211632,-1.0561150312423706,0.9130617380142212,1.0946440696716309,0.22564278542995453,-0.45948728919029236
5.007999897003174,-0.03643091395497322,-1.055733561515808,0.9134432077407837,1.0954070091247559,0.21839475631713867,-0.45872434973716736
5.028204441070557,-0.03376058489084244,-1.055733561515808,0.9145876169204712,1.0961699485778809,0.21763180196285248,-0.45834288001060486
5.048291444778442,-0.03032730519771576,-1.054207682609558,0.9180209040641785,1.0969328880310059,0.21953918039798737,-0.45834288001060486
5.068369388580322,-0.029182879254221916,-1.0523003339767456,0.9203097820281982,1.0969328880310059,0.22449836134910583,-0.45834288001060486
5.088455438613892,-0.029182879254221916,-1.0515373945236206,0.9203097820281982,1.0961699485778809,0.23632410168647766,-0.45910581946372986
5.108561754226685,-0.029182879254221916,-1.0515373945236206,0.9199283123016357,1.0957884788513184,0.24204623699188232,-0.45910581946372986
5.128616571426392,-0.03032730519771576,-1.052681803703308,0.9187838435173035,1.0954070091247559,0.2439536154270172,-0.45948728919029236
5.148810625076294,-0.03299763426184654,-1.0538262128829956,0.9172579646110535,1.0938811302185059,0.24090181291103363,-0.45948728919029236
5.168884515762329,-0.03528648987412453,-1.055733561515808,0.9153505563735962,1.0927367210388184,0.23289081454277039,-0.45910581946372986
5.18889307975769,-0.03604944050312042,-1.0568779706954956,0.9142061471939087,1.0931181907653809,0.22373540699481964,-0.45910581946372986
5.209009170532227,-0.03528648987412453,-1.056496500968933,0.9153505563735962,1.0942625999450684,0.2153429538011551,-0.45796138048171997
5.229086637496948,-0.03337911143898964,-1.056496500968933,0.916876494884491,1.0957884788513184,0.2138170450925827,-0.45757991075515747
5.2492992877960205,-0.031090257689356804,-1.055733561515808,0.919165313243866,1.0969328880310059,0.2138170450925827,-0.45719844102859497
5.269396066665649,-0.029182879254221916,-1.053444743156433,0.9222171306610107,1.0976959466934204,0.22068360447883606,-0.45681697130203247
5.289472818374634,-0.029182879254221916,-1.0515373945236206,0.9229800701141357,1.0976959466934204,0.2317463904619217,-0.45719844102859497
5.310051918029785,-0.029182879254221916,-1.050774335861206,0.9222171306610107,1.0961699485778809,0.24128328263759613,-0.45796138048171997
5.330195426940918,-0.03185320645570755,-1.050774335861206,0.9195467829704285,1.0957884788513184,0.2462424635887146,-0.45834288001060486
5.350265979766846,-0.03528648987412453,-1.051918864250183,0.916113555431366,1.0938811302185059,0.2481498420238495,-0.45910581946372986
5.370342493057251,-0.03681239113211632,-1.0538262128829956,0.9134432077407837,1.0915923118591309,0.24280919134616852,-0.45948728919029236
5.390397548675537,-0.03833829239010811,-1.0568779706954956,0.9115357995033264,1.0915923118591309,0.23403525352478027,-0.45910581946372986
5.410465240478516,-0.038719769567251205,-1.0591669082641602,0.9107728600502014,1.0923552513122559,0.22449836134910583,-0.45834288001060486
5.4305455684661865,-0.03681239113211632,-1.0587854385375977,0.9130617380142212,1.0927367210388184,0.21686884760856628,-0.45796138048171997
5.450616121292114,-0.03376058489084244,-1.0587854385375977,0.9145876169204712,1.0946440696716309,0.2149614691734314,-0.45681697130203247
5.470907688140869,-0.029182879254221916,-1.0576409101486206,0.918402373790741,1.0965514183044434,0.2153429538011551,-0.45643550157546997
5.490990877151489,-0.027656977996230125,-1.055733561515808,0.9214541912078857,1.0973143577575684,0.22182802855968475,-0.4560540020465851
5.511151075363159,-0.02727550081908703,-1.0538262128829956,0.9233615398406982,1.0965514183044434,0.23212787508964539,-0.45719844102859497
5.5312933921813965,-0.02727550081908703,-1.0523003339767456,0.9233615398406982,1.0957884788513184,0.23861294984817505,-0.45757991075515747
5.5513012409210205,-0.02994582988321781,-1.051918864250183,0.9210727214813232,1.0954070091247559,0.24204623699188232,-0.45757991075515747
5.57187557220459,-0.03299763426184654,-1.051155924797058,0.9180209040641785,1.0927367210388184,0.24280919134616852,-0.45796138048171997
5.592034339904785,-0.035667963325977325,-1.0523003339767456,0.9138246774673462,1.0908293724060059,0.23746852576732635,-0.45872434973716736
5.612339019775391,-0.03681239113211632,-1.052681803703308,0.9111543297767639,1.0912108421325684,0.2302204966545105,-0.45796138048171997
5.632436275482178,-0.03681239113211632,-1.052681803703308,0.9100099205970764,1.0915923118591309,0.22106507420539856,-0.45681697130203247
5.652493476867676,-0.03681239113211632,-1.0523003339767456,0.9100099205970764,1.0915923118591309,0.21686884760856628,-0.45643550157546997
5.672570705413818,-0.03452353551983833,-1.051918864250183,0.9115357995033264,1.0927367210388184,0.21839475631713867,-0.4560540020465851
5.692725419998169,-0.03185320645570755,-1.050774335861206,0.9142061471939087,1.0931181907653809,0.22259098291397095,-0.4560540020465851
5.712761640548706,-0.02994582988321781,-1.0503928661346436,0.9157320261001587,1.0934996604919434,0.23365376889705658,-0.45643550157546997
5.732860326766968,-0.029182879254221916,-1.0503928661346436,0.916876494884491,1.0923552513122559,0.24090181291103363,-0.45719844102859497
5.752922058105469,-0.03032730519771576,-1.051155924797058,0.9164950251579285,1.0923552513122559,0.2450980395078659,-0.45719844102859497
5.772974491119385,-0.03337911143898964,-1.051918864250183,0.9157320261001587,1.0912108421325684,0.2439536154270172,-0.45719844102859497
5.79310154914856,-0.03452353551983833,-1.0538262128829956,0.9138246774673462,1.0896848440170288,0.24128328263759613,-0.45719844102859497
5.813145160675049,-0.03452353551983833,-1.054970622062683,0.9138246774673462,1.0896848440170288,0.2313649207353592,-0.45681697130203247
5.833217144012451,-0.03490501269698143,-1.055733561515808,0.9142061471939087,1.0912108421325684,0.22182802855968475,-0.45681697130203247
5.853294849395752,-0.034142062067985535,-1.0561150312423706,0.9157320261001587,1.0919737815856934,0.21839475631713867,-0.4560540020465851
5.873368740081787,-0.032616160809993744,-1.0553520917892456,0.918402373790741,1.0931181907653809,0.21801327168941498,-0.4560540020465851
5.893465995788574,-0.03032730519771576,-1.053444743156433,0.9203097820281982,1.0961699485778809,0.22106507420539856,-0.4560540020465851
5.913569450378418,-0.029564354568719864,-1.051155924797058,0.9214541912078857,1.0961699485778809,0.22793163359165192,-0.4556725323200226
5.933710336685181,-0.029564354568719864,-1.050011396408081,0.9206912517547607,1.0954070091247559,0.23441672325134277,-0.45643550157546997
5.953723192214966,-0.029564354568719864,-1.048485517501831,0.9187838435173035,1.0954070091247559,0.2454795092344284,-0.45681697130203247
5.97392201423645,-0.03337911143898964,-1.0496299266815186,0.916113555431366,1.0931181907653809,0.2462424635887146,-0.45681697130203247
5.9939610958099365,-0.035667963325977325,-1.050774335861206,0.9126802682876587,1.0908293724060059,0.2450980395078659,-0.45719844102859497
6.014070749282837,-0.035667963325977325,-1.052681803703308,0.9115357995033264,1.0908293724060059,0.23556114733219147,-0.45681697130203247
6.034212112426758,-0.03604944050312042,-1.0553520917892456,0.9103913903236389,1.0912108421325684,0.22716869413852692,-0.45681697130203247
6.054354190826416,-0.03528648987412453,-1.055733561515808,0.9126802682876587,1.0915923118591309,0.22030213475227356,-0.4560540020465851
6.074324369430542,-0.03376058489084244,-1.0568779706954956,0.9138246774673462,1.0923552513122559,0.2153429538011551,-0.4556725323200226
6.0944013595581055,-0.03032730519771576,-1.0561150312423706,0.9172579646110535,1.0934996604919434,0.2153429538011551,-0.4552910625934601
6.114503860473633,-0.02880140393972397,-1.054207682609558,0.9206912517547607,1.0938811302185059,0.22030213475227356,-0.4556725323200226
6.134551048278809,-0.028038453310728073,-1.0523003339767456,0.9225986003875732,1.0942625999450684,0.2302204966545105,-0.4556725323200226
6.154645681381226,-0.027656977996230125,-1.0515373945236206,0.9225986003875732,1.0934996604919434,0.23785001039505005,-0.4560540020465851
6.17472243309021,-0.029564354568719864,-1.050774335861206,0.9210727214813232,1.0934996604919434,0.2450980395078659,-0.45643550157546997
6.194784164428711,-0.03376058489084244,-1.0515373945236206,0.9180209040641785,1.0919737815856934,0.2450980395078659,-0.45681697130203247
6.214870929718018,-0.03604944050312042,-1.052681803703308,0.9145876169204712,1.0912108421325684,0.23975738883018494,-0.45719844102859497
6.23503565788269,-0.03681239113211632,-1.0538262128829956,0.9126802682876587,1.0912108421325684,0.2294575423002243,-0.45643550157546997
6.25509238243103,-0.03681239113211632,-1.055733561515808,0.9119172692298889,1.0915923118591309,0.21953918039798737,-0.4560540020465851
6.275171279907227,-0.03528648987412453,-1.056496500968933,0.9134432077407837,1.0919737815856934,0.2138170450925827,-0.4556725323200226
6.295217990875244,-0.03223468363285065,-1.054207682609558,0.9153505563735962,1.0927367210388184,0.2130540907382965,-0.4556725323200226
6.315298318862915,-0.029564354568719864,-1.051918864250183,0.9180209040641785,1.0934996604919434,0.2149614691734314,-0.4560540020465851
6.3353753089904785,-0.029182879254221916,-1.050011396408081,0.919165313243866,1.0934996604919434,0.22526131570339203,-0.4560540020465851
6.356290817260742,-0.029182879254221916,-1.046959638595581,0.9187838435173035,1.0927367210388184,0.24204623699188232,-0.45681697130203247
6.376381874084473,-0.031090257689356804,-1.046959638595581,0.9164950251579285,1.0919737815856934,0.2470054179430008,-0.45719844102859497
6.396480083465576,-0.03490501269698143,-1.0465781688690186,0.9134432077407837,1.0908293724060059,0.2481498420238495,-0.45757991075515747
6.4166131019592285,-0.03643091395497322,-1.048485517501831,0.9111543297767639,1.0885404348373413,0.2462424635887146,-0.45796138048171997
6.436679840087891,-0.03681239113211632,-1.051155924797058,0.9100099205970764,1.0885404348373413,0.23746852576732635,-0.45796138048171997
6.45674991607666,-0.03681239113211632,-1.0545891523361206,0.9100099205970764,1.0893033742904663,0.22564278542995453,-0.45757991075515747
6.476804971694946,-0.035667963325977325,-1.0545891523361206,0.9119172692298889,1.0896848440170288,0.21877622604370117,-0.45643550157546997
6.496892929077148,-0.034142062067985535,-1.055733561515808,0.9142061471939087,1.0915923118591309,0.21725031733512878,-0.45643550157546997
6.517090082168579,-0.03032730519771576,-1.0538262128829956,0.9180209040641785,1.0931181907653809,0.21839475631713867,-0.4560540020465851
6.5371856689453125,-0.029182879254221916,-1.0515373945236206,0.9203097820281982,1.0946440696716309,0.22373540699481964,-0.45643550157546997
6.55730414390564,-0.02841992862522602,-1.0496299266815186,0.9214541912078857,1.0942625999450684,0.23479819297790527,-0.45681697130203247
6.577359437942505,-0.029564354568719864,-1.0481040477752686,0.9199283123016357,1.0938811302185059,0.2454795092344284,-0.45719844102859497
6.597494125366211,-0.03185320645570755,-1.047722578048706,0.9180209040641785,1.0923552513122559,0.2500572204589844,-0.45719844102859497
6.61753511428833,-0.03528648987412453,-1.0488669872283936,0.9142061471939087,1.0904479026794434,0.25120165944099426,-0.45757991075515747
6.637612581253052,-0.03681239113211632,-1.051155924797058,0.9115357995033264,1.0893033742904663,0.2443350851535797,-0.45757991075515747
6.657702684402466,-0.037193864583969116,-1.0530632734298706,0.9100099205970764,1.0896848440170288,0.2313649207353592,-0.45719844102859497
6.677743673324585,-0.03757534176111221,-1.0553520917892456,0.9100099205970764,1.0900664329528809,0.22106507420539856,-0.45643550157546997
6.697840213775635,-0.035667963325977325,-1.054970622062683,0.9126802682876587,1.0908293724060059,0.21725031733512878,-0.4560540020465851
6.71796441078186,-0.03223468363285065,-1.052681803703308,0.9153505563735962,1.0927367210388184,0.21686884760856628,-0.4560540020465851
6.7380664348602295,-0.02994582988321781,-1.050011396408081,0.918402373790741,1.0938811302185059,0.22144655883312225,-0.4560540020465851
6.758207321166992,-0.02880140393972397,-1.0481040477752686,0.9203097820281982,1.0942625999450684,0.23556114733219147,-0.4560540020465851
6.7782628536224365,-0.02841992862522602,-1.0473411083221436,0.9199283123016357,1.0938811302185059,0.2458609938621521,-0.45681697130203247
6.798354864120483,-0.03032730519771576,-1.047722578048706,0.9180209040641785,1.0931181907653809,0.24967575073242188,-0.45681697130203247
6.8184287548065186,-0.03337911143898964,-1.048485517501831,0.9153505563735962,1.0908293724060059,0.2500572204589844,-0.45681697130203247
6.838596343994141,-0.03604944050312042,-1.050774335861206,0.9115357995033264,1.0885404348373413,0.2443350851535797,-0.45719844102859497
6.858694553375244,-0.035667963325977325,-1.051918864250183,0.9115357995033264,1.0885404348373413,0.23365376889705658,-0.45643550157546997
6.878772735595703,-0.035667963325977325,-1.0530632734298706,0.9119172692298889,1.0893033742904663,0.22182802855968475,-0.4560540020465851
6.898859977722168,-0.03376058489084244,-1.0530632734298706,0.9130617380142212,1.0908293724060059,0.21992065012454987,-0.4556725323200226
6.918926477432251,-0.03032730519771576,-1.051918864250183,0.9164950251579285,1.0927367210388184,0.22220951318740845,-0.4556725323200226
6.938993692398071,-0.029564354568719864,-1.0496299266815186,0.9187838435173035,1.0950255393981934,0.22716869413852692,-0.4552910625934601
6.959075689315796,-0.02880140393972397,-1.0481040477752686,0.919165313243866,1.0957884788513184,0.23746852576732635,-0.4556725323200226
6.9791483879089355,-0.029564354568719864,-1.0481040477752686,0.9180209040641785,1.0942625999450684,0.2466239482164383,-0.45643550157546997
6.999199390411377,-0.02994582988321781,-1.0481040477752686,0.9164950251579285,1.0927367210388184,0.248531311750412,-0.45643550157546997
7.019315719604492,-0.032616160809993744,-1.0496299266815186,0.9138246774673462,1.0904479026794434,0.2462424635887146,-0.45681697130203247
7.039408445358276,-0.034142062067985535,-1.0515373945236206,0.9115357995033264,1.0881589651107788,0.24090181291103363,-0.45681697130203247
7.059494972229004,-0.035667963325977325,-1.054207682609558,0.9096284508705139,1.0881589651107788,0.23212787508964539,-0.45643550157546997
7.079585552215576,-0.035667963325977325,-1.055733561515808,0.9107728600502014,1.0881589651107788,0.22030213475227356,-0.4560540020465851
7.09964656829834,-0.034142062067985535,-1.055733561515808,0.9126802682876587,1.0889219045639038,0.21648737788200378,-0.4556725323200226
7.119718790054321,-0.03185320645570755,-1.0553520917892456,0.9153505563735962,1.0900664329528809,0.21725031733512878,-0.4556725323200226
7.139773607254028,-0.02880140393972397,-1.053444743156433,0.9187838435173035,1.0923552513122559,0.21839475631713867,-0.4556725323200226
7.159996747970581,-0.028038453310728073,-1.051155924797058,0.9214541912078857,1.0927367210388184,0.22526131570339203,-0.4552910625934601
7.1800148487091064,-0.02727550081908703,-1.050011396408081,0.9214541912078857,1.0915923118591309,0.23441672325134277,-0.45643550157546997
7.200235366821289,-0.029564354568719864,-1.0488669872283936,0.9206912517547607,1.0919737815856934,0.2447165697813034,-0.45643550157546997
7.220293760299683,-0.03376058489084244,-1.048485517501831,0.9172579646110535,1.0904479026794434,0.247768372297287,-0.45719844102859497
7.240346431732178,-0.03681239113211632,-1.048485517501831,0.9126802682876587,1.0881589651107788,0.2481498420238495,-0.45757991075515747
7.260453939437866,-0.03757534176111221,-1.0503928661346436,0.9096284508705139,1.0877774953842163,0.24319066107273102,-0.45719844102859497
7.2805705070495605,-0.03757534176111221,-1.052681803703308,0.9088655114173889,1.0885404348373413,0.2294575423002243,-0.4560540020465851
7.300621747970581,-0.037193864583969116,-1.054970622062683,0.9088655114173889,1.0885404348373413,0.22297245264053345,-0.4560540020465851
7.320711374282837,-0.03490501269698143,-1.0561150312423706,0.9119172692298889,1.0889219045639038,0.2157244235277176,-0.4556725323200226
7.340777635574341,-0.03223468363285065,-1.0561150312423706,0.9138246774673462,1.0912108421325684,0.2145799994468689,-0.4556725323200226
7.360935211181641,-0.02841992862522602,-1.0545891523361206,0.917639434337616,1.0923552513122559,0.2161058932542801,-0.4556725323200226
7.3810036182403564,-0.02689402550458908,-1.0530632734298706,0.9210727214813232,1.0923552513122559,0.22259098291397095,-0.4560540020465851
7.401091575622559,-0.02689402550458908,-1.0515373945236206,0.9218356609344482,1.0919737815856934,0.23556114733219147,-0.4560540020465851
7.421167850494385,-0.02880140393972397,-1.050774335861206,0.9210727214813232,1.0915923118591309,0.23937590420246124,-0.45643550157546997
7.441237211227417,-0.030708782374858856,-1.0496299266815186,0.919165313243866,1.0908293724060059,0.24242770671844482,-0.45681697130203247
7.461950302124023,-0.03452353551983833,-1.050774335861206,0.9157320261001587,1.0893033742904663,0.23937590420246124,-0.45719844102859497
7.482093572616577,-0.03604944050312042,-1.051918864250183,0.9134432077407837,1.0889219045639038,0.23250934481620789,-0.45719844102859497
7.502123832702637,-0.03681239113211632,-1.0538262128829956,0.9111543297767639,1.0896848440170288,0.22030213475227356,-0.4560540020465851
7.522225618362427,-0.03490501269698143,-1.0538262128829956,0.9122987985610962,1.0904479026794434,0.2130540907382965,-0.4560540020465851
7.5423583984375,-0.03376058489084244,-1.0553520917892456,0.9126802682876587,1.0923552513122559,0.20809490978717804,-0.4556725323200226
7.562463283538818,-0.029564354568719864,-1.0545891523361206,0.9153505563735962,1.0934996604919434,0.20695048570632935,-0.4556725323200226
7.582650184631348,-0.025749599561095238,-1.053444743156433,0.918402373790741,1.0961699485778809,0.20733195543289185,-0.4552910625934601
7.60271692276001,-0.024223696440458298,-1.051918864250183,0.9214541912078857,1.0957884788513184,0.2138170450925827,-0.4552910625934601
7.622833013534546,-0.02384222112596035,-1.050774335861206,0.9229800701141357,1.0950255393981934,0.22487983107566833,-0.45643550157546997
7.64309024810791,-0.024223696440458298,-1.050011396408081,0.9229800701141357,1.0946440696716309,0.23289081454277039,-0.45681697130203247
7.663131475448608,-0.028038453310728073,-1.0503928661346436,0.9214541912078857,1.0919737815856934,0.23785001039505005,-0.45681697130203247
7.683239221572876,-0.03223468363285065,-1.0503928661346436,0.919165313243866,1.0908293724060059,0.23861294984817505,-0.45719844102859497
7.703508138656616,-0.03490501269698143,-1.050774335861206,0.916113555431366,1.0896848440170288,0.23479819297790527,-0.45719844102859497
7.723664283752441,-0.03604944050312042,-1.051918864250183,0.9130617380142212,1.0908293724060059,0.22487983107566833,-0.45643550157546997
7.743696212768555,-0.03643091395497322,-1.051918864250183,0.9126802682876587,1.0912108421325684,0.21686884760856628,-0.45643550157546997
7.763841152191162,-0.035667963325977325,-1.052681803703308,0.9119172692298889,1.0919737815856934,0.2134355753660202,-0.4560540020465851
7.783963203430176,-0.032616160809993744,-1.051918864250183,0.9134432077407837,1.0927367210388184,0.2138170450925827,-0.4560540020465851
7.8046040534973145,-0.029182879254221916,-1.0515373945236206,0.9153505563735962,1.0938811302185059,0.2157244235277176,-0.4560540020465851
7.824756145477295,-0.02727550081908703,-1.051155924797058,0.9187838435173035,1.0942625999450684,0.22144655883312225,-0.4560540020465851
7.844836711883545,-0.02689402550458908,-1.051155924797058,0.9199283123016357,1.0927367210388184,0.2309834510087967,-0.45719844102859497
7.864941358566284,-0.026131074875593185,-1.0515373945236206,0.9210727214813232,1.0927367210388184,0.23594263195991516,-0.45719844102859497
7.885093450546265,-0.02880140393972397,-1.051918864250183,0.9206912517547607,1.0915923118591309,0.23861294984817505,-0.45757991075515747
7.905136585235596,-0.03032730519771576,-1.052681803703308,0.9195467829704285,1.0908293724060059,0.23708705604076385,-0.45757991075515747
7.925209045410156,-0.03223468363285065,-1.053444743156433,0.917639434337616,1.0908293724060059,0.23403525352478027,-0.45757991075515747
7.945285081863403,-0.034142062067985535,-1.0538262128829956,0.9164950251579285,1.0915923118591309,0.22564278542995453,-0.45719844102859497
7.9653637409210205,-0.035667963325977325,-1.0538262128829956,0.916113555431366,1.0919737815856934,0.21725031733512878,-0.45681697130203247
7.985545873641968,-0.03376058489084244,-1.0538262128829956,0.9157320261001587,1.0927367210388184,0.2138170450925827,-0.45681697130203247
8.005578756332397,-0.03032730519771576,-1.053444743156433,0.9172579646110535,1.0942625999450684,0.212672621011734,-0.45643550157546997
8.02567172050476,-0.028038453310728073,-1.052681803703308,0.919165313243866,1.0961699485778809,0.2145799994468689,-0.4560540020465851
8.045730113983154,-0.026512550190091133,-1.0515373945236206,0.9206912517547607,1.0965514183044434,0.21953918039798737,-0.4560540020465851
8.065844774246216,-0.026512550190091133,-1.051155924797058,0.9210727214813232,1.0950255393981934,0.2283131182193756,-0.45681697130203247
8.085950374603271,-0.026512550190091133,-1.0515373945236206,0.9210727214813232,1.0950255393981934,0.23517967760562897,-0.45681697130203247
8.106067657470703,-0.028038453310728073,-1.051918864250183,0.9206912517547607,1.0934996604919434,0.23708705604076385,-0.45757991075515747
8.126152515411377,-0.029564354568719864,-1.052681803703308,0.9199283123016357,1.0915923118591309,0.23517967760562897,-0.45796138048171997
8.146414756774902,-0.03185320645570755,-1.0538262128829956,0.9187838435173035,1.0915923118591309,0.23289081454277039,-0.45796138048171997
8.166517496109009,-0.034142062067985535,-1.0545891523361206,0.9180209040641785,1.0919737815856934,0.22526131570339203,-0.45796138048171997
8.186603546142578,-0.03452353551983833,-1.0545891523361206,0.9180209040641785,1.0923552513122559,0.21992065012454987,-0.45757991075515747
8.206712484359741,-0.03299763426184654,-1.054207682609558,0.9180209040641785,1.0931181907653809,0.21915769577026367,-0.45719844102859497
8.226776599884033,-0.030708782374858856,-1.053444743156433,0.919165313243866,1.0950255393981934,0.21953918039798737,-0.45719844102859497
8.24681544303894,-0.029182879254221916,-1.0530632734298706,0.9206912517547607,1.0961699485778809,0.22335393726825714,-0.45719844102859497
8.266911745071411,-0.02841992862522602,-1.0523003339767456,0.9214541912078857,1.0961699485778809,0.2294575423002243,-0.45719844102859497
8.28698444366455,-0.02841992862522602,-1.0523003339767456,0.9222171306610107,1.0954070091247559,0.23556114733219147,-0.45796138048171997
8.307125329971313,-0.02841992862522602,-1.052681803703308,0.9218356609344482,1.0954070091247559,0.23823148012161255,-0.45796138048171997
8.327298879623413,-0.029564354568719864,-1.0538262128829956,0.9206912517547607,1.0938811302185059,0.23708705604076385,-0.45796138048171997
8.347363471984863,-0.03032730519771576,-1.0545891523361206,0.9199283123016357,1.0931181907653809,0.23403525352478027,-0.45796138048171997
8.367578029632568,-0.03185320645570755,-1.054970622062683,0.919165313243866,1.0927367210388184,0.2286945879459381,-0.45796138048171997
8.387722730636597,-0.03376058489084244,-1.055733561515808,0.9187838435173035,1.0934996604919434,0.22335393726825714,-0.45757991075515747
8.407876014709473,-0.03452353551983833,-1.054970622062683,0.919165313243866,1.0938811302185059,0.21915769577026367,-0.45757991075515747
8.428176403045654,-0.032616160809993744,-1.0538262128829956,0.919165313243866,1.0957884788513184,0.21953918039798737,-0.45681697130203247
8.44827389717102,-0.031090257689356804,-1.052681803703308,0.9203097820281982,1.0961699485778809,0.22144655883312225,-0.45719844102859497
8.468360662460327,-0.03032730519771576,-1.0523003339767456,0.9206912517547607,1.0961699485778809,0.22755016386508942,-0.45719844102859497
8.488686323165894,-0.029182879254221916,-1.0515373945236206,0.9206912517547607,1.0957884788513184,0.23517967760562897,-0.45719844102859497
8.508786916732788,-0.029182879254221916,-1.0515373945236206,0.9199283123016357,1.0954070091247559,0.23823148012161255,-0.45757991075515747
8.528837442398071,-0.029564354568719864,-1.0523003339767456,0.9187838435173035,1.0950255393981934,0.23861294984817505,-0.45796138048171997
8.548924207687378,-0.03185320645570755,-1.053444743156433,0.917639434337616,1.0931181907653809,0.23632410168647766,-0.45796138048171997
8.568994998931885,-0.03337911143898964,-1.054970622062683,0.9164950251579285,1.0919737815856934,0.23289081454277039,-0.45796138048171997
8.589051485061646,-0.034142062067985535,-1.055733561515808,0.9164950251579285,1.0919737815856934,0.22678720951080322,-0.45757991075515747
8.6091468334198,-0.035667963325977325,-1.0561150312423706,0.9164950251579285,1.0923552513122559,0.22068360447883606,-0.45719844102859497
8.629216432571411,-0.03490501269698143,-1.0553520917892456,0.917639434337616,1.0931181907653809,0.21953918039798737,-0.45719844102859497
8.649511575698853,-0.03223468363285065,-1.0545891523361206,0.9195467829704285,1.0942625999450684,0.22030213475227356,-0.45719844102859497
8.669599533081055,-0.031090257689356804,-1.0538262128829956,0.9206912517547607,1.0957884788513184,0.22564278542995453,-0.45681697130203247
8.68969202041626,-0.03032730519771576,-1.0523003339767456,0.9214541912078857,1.0954070091247559,0.23479819297790527,-0.45757991075515747
8.709761619567871,-0.029182879254221916,-1.051918864250183,0.9210727214813232,1.0950255393981934,0.23975738883018494,-0.45796138048171997
8.729857683181763,-0.03032730519771576,-1.052681803703308,0.9199283123016357,1.0946440696716309,0.24242770671844482,-0.45757991075515747
8.750076293945312,-0.032616160809993744,-1.0530632734298706,0.9187838435173035,1.0931181907653809,0.24204623699188232,-0.45796138048171997
8.770167589187622,-0.03452353551983833,-1.0538262128829956,0.9164950251579285,1.0919737815856934,0.23746852576732635,-0.45834288001060486
8.790244817733765,-0.03681239113211632,-1.054970622062683,0.9145876169204712,1.0919737815856934,0.2302204966545105,-0.45796138048171997
8.810297012329102,-0.037193864583969116,-1.055733561515808,0.9138246774673462,1.0923552513122559,0.22297245264053345,-0.45796138048171997
8.83038878440857,-0.035667963325977325,-1.0553520917892456,0.9149690866470337,1.0927367210388184,0.22030213475227356,-0.45719844102859497
8.850504398345947,-0.034142062067985535,-1.0561150312423706,0.9157320261001587,1.0938811302185059,0.21915769577026367,-0.45681697130203247
8.87069034576416,-0.02994582988321781,-1.055733561515808,0.919165313243866,1.0954070091247559,0.22068360447883606,-0.45681697130203247
8.891300201416016,-0.027656977996230125,-1.054970622062683,0.9214541912078857,1.0957884788513184,0.22297245264053345,-0.45681697130203247
8.911547422409058,-0.026131074875593185,-1.054207682609558,0.9233615398406982,1.0954070091247559,0.230601966381073,-0.45719844102859497
8.931568145751953,-0.026131074875593185,-1.0538262128829956,0.924124538898468,1.0950255393981934,0.23670557141304016,-0.45719844102859497
8.951652765274048,-0.026131074875593185,-1.0538262128829956,0.924124538898468,1.0950255393981934,0.24013885855674744,-0.45757991075515747
8.971716403961182,-0.02841992862522602,-1.054207682609558,0.9229800701141357,1.0942625999450684,0.23937590420246124,-0.45757991075515747
8.991768836975098,-0.02994582988321781,-1.054970622062683,0.9214541912078857,1.0938811302185059,0.23594263195991516,-0.45757991075515747
9.011857032775879,-0.03185320645570755,-1.0561150312423706,0.9199283123016357,1.0942625999450684,0.2290760725736618,-0.45719844102859497
9.03196406364441,-0.03299763426184654,-1.055733561515808,0.9199283123016357,1.0950255393981934,0.22106507420539856,-0.45719844102859497
9.052440166473389,-0.03223468363285065,-1.055733561515808,0.9199283123016357,1.0954070091247559,0.21915769577026367,-0.45643550157546997
9.072607517242432,-0.02994582988321781,-1.0538262128829956,0.9210727214813232,1.0961699485778809,0.21953918039798737,-0.45681697130203247
9.092666864395142,-0.02880140393972397,-1.0523003339767456,0.9222171306610107,1.0961699485778809,0.22373540699481964,-0.45643550157546997
9.112897872924805,-0.02880140393972397,-1.051155924797058,0.9225986003875732,1.0957884788513184,0.23250934481620789,-0.45719844102859497
9.133013725280762,-0.02841992862522602,-1.0503928661346436,0.9218356609344482,1.0954070091247559,0.24280919134616852,-0.45719844102859497
9.15310263633728,-0.029564354568719864,-1.050774335861206,0.9203097820281982,1.0954070091247559,0.2458609938621521,-0.45757991075515747
9.17317819595337,-0.03223468363285065,-1.051918864250183,0.9180209040641785,1.0934996604919434,0.2443350851535797,-0.45796138048171997
9.193350791931152,-0.034142062067985535,-1.0538262128829956,0.916113555431366,1.0919737815856934,0.24052032828330994,-0.45796138048171997
9.21364712715149,-0.03528648987412453,-1.0553520917892456,0.9142061471939087,1.0919737815856934,0.2302204966545105,-0.45719844102859497
9.233717679977417,-0.035667963325977325,-1.0561150312423706,0.9142061471939087,1.0927367210388184,0.22487983107566833,-0.45719844102859497
9.253889322280884,-0.03452353551983833,-1.056496500968933,0.9145876169204712,1.0931181907653809,0.2161058932542801,-0.45643550157546997
9.27420711517334,-0.030708782374858856,-1.055733561515808,0.917639434337616,1.0950255393981934,0.2153429538011551,-0.45643550157546997
9.294302225112915,-0.02880140393972397,-1.054207682609558,0.9206912517547607,1.0961699485778809,0.21992065012454987,-0.45643550157546997
9.314371347427368,-0.02841992862522602,-1.052681803703308,0.9222171306610107,1.0961699485778809,0.2286945879459381,-0.45681697130203247
9.334484338760376,-0.028038453310728073,-1.051155924797058,0.9233615398406982,1.0957884788513184,0.23861294984817505,-0.45719844102859497
9.354596614837646,-0.02880140393972397,-1.051155924797058,0.9214541912078857,1.0957884788513184,0.2458609938621521,-0.45757991075515747
9.374687910079956,-0.030708782374858856,-1.0515373945236206,0.9195467829704285,1.0942625999450684,0.247768372297287,-0.45757991075515747
9.394819498062134,-0.03376058489084244,-1.052681803703308,0.916876494884491,1.0923552513122559,0.2450980395078659,-0.45796138048171997
9.414858341217041,-0.03490501269698143,-1.054207682609558,0.9149690866470337,1.0919737815856934,0.23746852576732635,-0.45796138048171997
9.43515920639038,-0.03643091395497322,-1.055733561515808,0.9134432077407837,1.0927367210388184,0.22755016386508942,-0.45757991075515747
9.455290794372559,-0.035667963325977325,-1.055733561515808,0.9145876169204712,1.0931181907653809,0.22068360447883606,-0.45681697130203247
9.475309133529663,-0.03376058489084244,-1.056496500968933,0.9157320261001587,1.0942625999450684,0.21953918039798737,-0.45643550157546997
9.495402812957764,-0.03032730519771576,-1.0553520917892456,0.919165313243866,1.0961699485778809,0.22068360447883606,-0.45643550157546997
9.515501022338867,-0.029182879254221916,-1.0538262128829956,0.9214541912078857,1.0965514183044434,0.22716869413852692,-0.45643550157546997
9.536542415618896,-0.02841992862522602,-1.052681803703308,0.9225986003875732,1.0957884788513184,0.23670557141304016,-0.45719844102859497
9.55664587020874,-0.029182879254221916,-1.052681803703308,0.9218356609344482,1.0957884788513184,0.2447165697813034,-0.45719844102859497
9.576778650283813,-0.03032730519771576,-1.051918864250183,0.9203097820281982,1.0950255393981934,0.2462424635887146,-0.45757991075515747
9.597214698791504,-0.03376058489084244,-1.0530632734298706,0.917639434337616,1.0931181907653809,0.2443350851535797,-0.45757991075515747
9.617316722869873,-0.03528648987412453,-1.0545891523361206,0.9153505563735962,1.0919737815856934,0.23937590420246124,-0.45757991075515747
9.63741159439087,-0.035667963325977325,-1.054970622062683,0.9145876169204712,1.0923552513122559,0.22793163359165192,-0.45681697130203247
9.657493114471436,-0.03528648987412453,-1.054970622062683,0.9142061471939087,1.0931181907653809,0.22259098291397095,-0.45681697130203247
9.677662372589111,-0.03337911143898964,-1.054207682609558,0.9157320261001587,1.0942625999450684,0.22068360447883606,-0.45643550157546997
9.69774341583252,-0.03147173300385475,-1.053444743156433,0.917639434337616,1.0961699485778809,0.22106507420539856,-0.45643550157546997
9.717878341674805,-0.02994582988321781,-1.0515373945236206,0.919165313243866,1.0961699485778809,0.230601966381073,-0.4560540020465851
9.737940788269043,-0.02880140393972397,-1.0503928661346436,0.9199283123016357,1.0957884788513184,0.24052032828330994,-0.45681697130203247
9.758043050765991,-0.02880140393972397,-1.050774335861206,0.919165313243866,1.0950255393981934,0.2470054179430008,-0.45681697130203247
9.778175115585327,-0.029182879254221916,-1.051155924797058,0.9180209040641785,1.0950255393981934,0.248531311750412,-0.45681697130203247
9.79833173751831,-0.03185320645570755,-1.052681803703308,0.9164950251579285,1.0931181907653809,0.2462424635887146,-0.45681697130203247
9.81837010383606,-0.03299763426184654,-1.0538262128829956,0.9149690866470337,1.0915923118591309,0.23975738883018494,-0.45719844102859497
9.838509559631348,-0.03452353551983833,-1.054970622062683,0.9138246774673462,1.0919737815856934,0.2313649207353592,-0.45643550157546997
9.85859489440918,-0.03452353551983833,-1.0545891523361206,0.9145876169204712,1.0927367210388184,0.22602425515651703,-0.45643550157546997
9.878685712814331,-0.03376058489084244,-1.054207682609558,0.916113555431366,1.0931181907653809,0.22297245264053345,-0.4560540020465851
9.898823738098145,-0.031090257689356804,-1.053444743156433,0.9187838435173035,1.0954070091247559,0.22716869413852692,-0.4560540020465851
9.918927192687988,-0.03032730519771576,-1.0523003339767456,0.9203097820281982,1.0965514183044434,0.23403525352478027,-0.4560540020465851
9.938984394073486,-0.029564354568719864,-1.051155924797058,0.9210727214813232,1.0961699485778809,0.24013885855674744,-0.4560540020465851
9.959079265594482,-0.02994582988321781,-1.051155924797058,0.9199283123016357,1.0954070091247559,0.2481498420238495,-0.45681697130203247
9.979160070419312,-0.03147173300385475,-1.0515373945236206,0.918402373790741,1.0950255393981934,0.24929426610469818,-0.45681697130203247
9.999683141708374,-0.034142062067985535,-1.0530632734298706,0.916113555431366,1.0923552513122559,0.2462424635887146,-0.45681697130203247
10.019821882247925,-0.03452353551983833,-1.0545891523361206,0.9145876169204712,1.0915923118591309,0.23861294984817505,-0.45681697130203247
10.039913892745972,-0.03452353551983833,-1.0561150312423706,0.9142061471939087,1.0919737815856934,0.2298390120267868,-0.45643550157546997
10.060152530670166,-0.03528648987412453,-1.0561150312423706,0.9145876169204712,1.0927367210388184,0.22411687672138214,-0.4556725323200226
10.08027958869934,-0.03337911143898964,-1.0553520917892456,0.916876494884491,1.0934996604919434,0.22144655883312225,-0.4552910625934601
10.10034704208374,-0.030708782374858856,-1.054207682609558,0.9195467829704285,1.0957884788513184,0.22182802855968475,-0.4556725323200226
10.120527505874634,-0.029182879254221916,-1.0530632734298706,0.9210727214813232,1.0961699485778809,0.22755016386508942,-0.4552910625934601
10.140555620193481,-0.029182879254221916,-1.0515373945236206,0.9218356609344482,1.0957884788513184,0.23708705604076385,-0.4560540020465851
10.160612344741821,-0.029182879254221916,-1.0515373945236206,0.9210727214813232,1.0954070091247559,0.2439536154270172,-0.4560540020465851
10.180719375610352,-0.03032730519771576,-1.051918864250183,0.9199283123016357,1.0950255393981934,0.2458609938621521,-0.4560540020465851
10.200789451599121,-0.03223468363285065,-1.0530632734298706,0.9180209040641785,1.0931181907653809,0.2447165697813034,-0.4560540020465851
10.220872163772583,-0.03376058489084244,-1.0545891523361206,0.9164950251579285,1.0919737815856934,0.23975738883018494,-0.45643550157546997
10.240970849990845,-0.03528648987412453,-1.0561150312423706,0.9157320261001587,1.0923552513122559,0.230601966381073,-0.4556725323200226
10.261080265045166,-0.03490501269698143,-1.055733561515808,0.916113555431366,1.0927367210388184,0.22373540699481964,-0.4556725323200226
10.281134128570557,-0.03337911143898964,-1.056496500968933,0.916876494884491,1.0938811302185059,0.22030213475227356,-0.4552910625934601
10.301255464553833,-0.02994582988321781,-1.054970622062683,0.9195467829704285,1.0954070091247559,0.22106507420539856,-0.4552910625934601
10.321284055709839,-0.02880140393972397,-1.054207682609558,0.9214541912078857,1.0961699485778809,0.22487983107566833,-0.4549095928668976
10.34139347076416,-0.02841992862522602,-1.0530632734298706,0.9229800701141357,1.0957884788513184,0.23441672325134277,-0.4552910625934601
10.361451148986816,-0.02841992862522602,-1.0523003339767456,0.9229800701141357,1.0954070091247559,0.24319066107273102,-0.4556725323200226
10.381595373153687,-0.02841992862522602,-1.051918864250183,0.9222171306610107,1.0954070091247559,0.2473868876695633,-0.4556725323200226
10.401679277420044,-0.031090257689356804,-1.0530632734298706,0.9199283123016357,1.0938811302185059,0.2481498420238495,-0.4556725323200226
10.421764135360718,-0.03376058489084244,-1.0538262128829956,0.9180209040641785,1.0919737815856934,0.2447165697813034,-0.4560540020465851
10.441949605941772,-0.03490501269698143,-1.0553520917892456,0.9164950251579285,1.0919737815856934,0.23746852576732635,-0.4556725323200226
10.462095499038696,-0.03681239113211632,-1.056496500968933,0.9157320261001587,1.0923552513122559,0.2286945879459381,-0.4552910625934601
10.482183456420898,-0.03604944050312042,-1.057259440422058,0.916113555431366,1.0927367210388184,0.22335393726825714,-0.4552910625934601
10.502304792404175,-0.03337911143898964,-1.056496500968933,0.917639434337616,1.0938811302185059,0.22144655883312225,-0.4549095928668976
10.522388219833374,-0.029564354568719864,-1.0553520917892456,0.9206912517547607,1.0961699485778809,0.22259098291397095,-0.4545281231403351
10.542460441589355,-0.029182879254221916,-1.0538262128829956,0.9218356609344482,1.0961699485778809,0.2309834510087967,-0.4541466534137726
10.56251573562622,-0.029182879254221916,-1.0530632734298706,0.9229800701141357,1.0954070091247559,0.23861294984817505,-0.4552910625934601
10.582608461380005,-0.029182879254221916,-1.052681803703308,0.9218356609344482,1.0954070091247559,0.2458609938621521,-0.4552910625934601
10.602668046951294,-0.03032730519771576,-1.0523003339767456,0.9206912517547607,1.0942625999450684,0.2462424635887146,-0.4552910625934601
10.622751951217651,-0.03376058489084244,-1.053444743156433,0.917639434337616,1.0919737815856934,0.2454795092344284,-0.4556725323200226
10.642830610275269,-0.03528648987412453,-1.0545891523361206,0.9157320261001587,1.0915923118591309,0.23975738883018494,-0.4560540020465851
10.66379165649414,-0.03681239113211632,-1.0561150312423706,0.9134432077407837,1.0919737815856934,0.230601966381073,-0.4552910625934601
10.683890342712402,-0.035667963325977325,-1.0561150312423706,0.9142061471939087,1.0923552513122559,0.21992065012454987,-0.4549095928668976
10.703947305679321,-0.03490501269698143,-1.0568779706954956,0.9138246774673462,1.0931181907653809,0.2161058932542801,-0.4541466534137726
10.724139213562012,-0.03147173300385475,-1.0561150312423706,0.9157320261001587,1.0946440696716309,0.21648737788200378,-0.4537651538848877
10.744148969650269,-0.027656977996230125,-1.0545891523361206,0.9195467829704285,1.0957884788513184,0.21801327168941498,-0.4537651538848877
10.764234781265259,-0.025749599561095238,-1.0538262128829956,0.9225986003875732,1.0954070091247559,0.22259098291397095,-0.4537651538848877
10.784509658813477,-0.024986648932099342,-1.0530632734298706,0.924124538898468,1.0950255393981934,0.23289081454277039,-0.4549095928668976
10.804472208023071,-0.024605173617601395,-1.051918864250183,0.924124538898468,1.0946440696716309,0.23937590420246124,-0.4552910625934601
10.82463264465332,-0.029564354568719864,-1.051918864250183,0.9225986003875732,1.0923552513122559,0.24242770671844482,-0.4560540020465851
10.84474229812622,-0.03337911143898964,-1.0515373945236206,0.9199283123016357,1.0908293724060059,0.24319066107273102,-0.45681697130203247
10.864890575408936,-0.03490501269698143,-1.052681803703308,0.917639434337616,1.0908293724060059,0.23861294984817505,-0.45681697130203247
10.884982585906982,-0.037193864583969116,-1.0538262128829956,0.9153505563735962,1.0919737815856934,0.2290760725736618,-0.4560540020465851
10.905049324035645,-0.03681239113211632,-1.0545891523361206,0.9142061471939087,1.0919737815856934,0.22068360447883606,-0.4556725323200226
10.925106525421143,-0.03490501269698143,-1.054970622062683,0.9142061471939087,1.0923552513122559,0.2161058932542801,-0.4552910625934601
10.945226669311523,-0.03185320645570755,-1.054970622062683,0.9157320261001587,1.0934996604919434,0.2134355753660202,-0.4549095928668976
10.965292692184448,-0.02880140393972397,-1.0538262128829956,0.918402373790741,1.0950255393981934,0.2138170450925827,-0.4549095928668976
10.985376834869385,-0.028038453310728073,-1.0523003339767456,0.9206912517547607,1.0946440696716309,0.22182802855968475,-0.4552910625934601
11.00549578666687,-0.02727550081908703,-1.0515373945236206,0.9210727214813232,1.0938811302185059,0.23517967760562897,-0.4560540020465851
11.025522470474243,-0.028038453310728073,-1.051155924797058,0.9210727214813232,1.0938811302185059,0.24166475236415863,-0.4560540020465851
11.045673370361328,-0.031090257689356804,-1.051918864250183,0.919165313243866,1.0915923118591309,0.24357213079929352,-0.45643550157546997
11.065735340118408,-0.03490501269698143,-1.052681803703308,0.916113555431366,1.0904479026794434,0.24204623699188232,-0.45681697130203247
11.085781335830688,-0.035667963325977325,-1.0538262128829956,0.9138246774673462,1.0900664329528809,0.23441672325134277,-0.45681697130203247
11.105897426605225,-0.03604944050312042,-1.054970622062683,0.9130617380142212,1.0904479026794434,0.22449836134910583,-0.4560540020465851
11.126006364822388,-0.03604944050312042,-1.0553520917892456,0.9130617380142212,1.0915923118591309,0.2153429538011551,-0.4556725323200226
11.146050930023193,-0.03376058489084244,-1.0545891523361206,0.9142061471939087,1.0923552513122559,0.212672621011734,-0.4556725323200226
11.166260480880737,-0.03032730519771576,-1.053444743156433,0.916876494884491,1.0934996604919434,0.2134355753660202,-0.4556725323200226
11.186352968215942,-0.02841992862522602,-1.0515373945236206,0.9195467829704285,1.0954070091247559,0.21725031733512878,-0.4556725323200226
11.206425428390503,-0.028038453310728073,-1.0503928661346436,0.9206912517547607,1.0946440696716309,0.2283131182193756,-0.45643550157546997
11.22651720046997,-0.02841992862522602,-1.0503928661346436,0.9199283123016357,1.0942625999450684,0.23823148012161255,-0.45681697130203247
11.246572256088257,-0.029564354568719864,-1.050774335861206,0.9187838435173035,1.0934996604919434,0.24052032828330994,-0.45681697130203247
11.2666494846344,-0.03185320645570755,-1.0523003339767456,0.916876494884491,1.0912108421325684,0.23899443447589874,-0.45719844102859497
11.286725759506226,-0.03299763426184654,-1.0538262128829956,0.9157320261001587,1.0900664329528809,0.23212787508964539,-0.45719844102859497
11.30706262588501,-0.03452353551983833,-1.054970622062683,0.9149690866470337,1.0904479026794434,0.22335393726825714,-0.45681697130203247
11.327155590057373,-0.034142062067985535,-1.054207682609558,0.9153505563735962,1.0919737815856934,0.2157244235277176,-0.45643550157546997
11.347291946411133,-0.03337911143898964,-1.0538262128829956,0.916876494884491,1.0923552513122559,0.2134355753660202,-0.45643550157546997
11.367425203323364,-0.030708782374858856,-1.052681803703308,0.9187838435173035,1.0946440696716309,0.21725031733512878,-0.4560540020465851
11.38751482963562,-0.029564354568719864,-1.051155924797058,0.9206912517547607,1.0965514183044434,0.22297245264053345,-0.4560540020465851
11.40761399269104,-0.029182879254221916,-1.0496299266815186,0.9206912517547607,1.0961699485778809,0.2317463904619217,-0.45643550157546997
11.427821636199951,-0.029182879254221916,-1.0488669872283936,0.9199283123016357,1.0942625999450684,0.24052032828330994,-0.45719844102859497
11.447911024093628,-0.03147173300385475,-1.0488669872283936,0.917639434337616,1.0938811302185059,0.2443350851535797,-0.45757991075515747
11.467989921569824,-0.03490501269698143,-1.0503928661346436,0.9145876169204712,1.0912108421325684,0.2443350851535797,-0.45796138048171997
11.488077163696289,-0.035667963325977325,-1.051918864250183,0.9122987985610962,1.0900664329528809,0.23975738883018494,-0.45872434973716736
11.508184432983398,-0.03681239113211632,-1.054207682609558,0.9111543297767639,1.0900664329528809,0.2294575423002243,-0.45834288001060486
11.528313636779785,-0.03681239113211632,-1.0553520917892456,0.9115357995033264,1.0908293724060059,0.21992065012454987,-0.45796138048171997
11.548445224761963,-0.03528648987412453,-1.054970622062683,0.9134432077407837,1.0915923118591309,0.2157244235277176,-0.45757991075515747
11.568487405776978,-0.032616160809993744,-1.0545891523361206,0.9149690866470337,1.0931181907653809,0.2149614691734314,-0.45719844102859497
11.58856725692749,-0.02994582988321781,-1.052681803703308,0.917639434337616,1.0938811302185059,0.21763180196285248,-0.45681697130203247
11.60863971710205,-0.029564354568719864,-1.051155924797058,0.9187838435173035,1.0946440696716309,0.22487983107566833,-0.45681697130203247
11.628767251968384,-0.029182879254221916,-1.049248456954956,0.919165313243866,1.0938811302185059,0.23556114733219147,-0.45757991075515747
11.648859739303589,-0.03032730519771576,-1.0496299266815186,0.9172579646110535,1.0931181907653809,0.24242770671844482,-0.45796138048171997
11.668940305709839,-0.032616160809993744,-1.0496299266815186,0.9149690866470337,1.0915923118591309,0.2447165697813034,-0.45834288001060486
11.689135313034058,-0.03604944050312042,-1.0503928661346436,0.9119172692298889,1.0893033742904663,0.2439536154270172,-0.45872434973716736
11.709231853485107,-0.03681239113211632,-1.0523003339767456,0.9103913903236389,1.0885404348373413,0.23632410168647766,-0.45872434973716736
11.72930359840393,-0.03681239113211632,-1.0538262128829956,0.9107728600502014,1.0896848440170288,0.22487983107566833,-0.45796138048171997
11.749382019042969,-0.035667963325977325,-1.054970622062683,0.9115357995033264,1.0908293724060059,0.21992065012454987,-0.45757991075515747
11.769454956054688,-0.03376058489084244,-1.055733561515808,0.9142061471939087,1.0923552513122559,0.21953918039798737,-0.45681697130203247
11.78951096534729,-0.030708782374858856,-1.054970622062683,0.9172579646110535,1.0938811302185059,0.22030213475227356,-0.45681697130203247
11.809617757797241,-0.029564354568719864,-1.053444743156433,0.9195467829704285,1.0950255393981934,0.22564278542995453,-0.45643550157546997
11.829678773880005,-0.029182879254221916,-1.052681803703308,0.9199283123016357,1.0946440696716309,0.23785001039505005,-0.45719844102859497
11.849879503250122,-0.029182879254221916,-1.051918864250183,0.919165313243866,1.0934996604919434,0.24242770671844482,-0.45719844102859497
11.869833946228027,-0.032616160809993744,-1.052681803703308,0.917639434337616,1.0923552513122559,0.24280919134616852,-0.45757991075515747
11.889910221099854,-0.03452353551983833,-1.0538262128829956,0.9153505563735962,1.0904479026794434,0.24052032828330994,-0.45757991075515747
11.910062551498413,-0.03528648987412453,-1.0561150312423706,0.9130617380142212,1.0908293724060059,0.2309834510087967,-0.45719844102859497
11.930146932601929,-0.035667963325977325,-1.056496500968933,0.9130617380142212,1.0912108421325684,0.22411687672138214,-0.45719844102859497
11.95020866394043,-0.035667963325977325,-1.0584038496017456,0.9134432077407837,1.0919737815856934,0.21190966665744781,-0.4560540020465851
11.970330953598022,-0.03299763426184654,-1.058022379875183,0.9153505563735962,1.0931181907653809,0.21114671230316162,-0.4560540020465851
11.990412712097168,-0.029182879254221916,-1.056496500968933,0.9187838435173035,1.0938811302185059,0.21076524257659912,-0.45643550157546997
12.010473489761353,-0.027656977996230125,-1.054207682609558,0.9214541912078857,1.0957884788513184,0.2149614691734314,-0.45643550157546997
12.030558347702026,-0.02727550081908703,-1.0523003339767456,0.9229800701141357,1.0950255393981934,0.22487983107566833,-0.45681697130203247
12.050625324249268,-0.028038453310728073,-1.051155924797058,0.9214541912078857,1.0946440696716309,0.23708705604076385,-0.45719844102859497
12.070676803588867,-0.02994582988321781,-1.0503928661346436,0.9195467829704285,1.0938811302185059,0.2447165697813034,-0.45796138048171997
12.090806007385254,-0.03452353551983833,-1.050774335861206,0.9164950251579285,1.0912108421325684,0.2450980395078659,-0.45834288001060486
12.110845565795898,-0.03681239113211632,-1.051918864250183,0.9130617380142212,1.0896848440170288,0.24128328263759613,-0.45910581946372986
12.131128549575806,-0.03833829239010811,-1.054207682609558,0.9096284508705139,1.0896848440170288,0.2309834510087967,-0.45834288001060486
12.151292324066162,-0.03795681521296501,-1.0553520917892456,0.9096284508705139,1.0904479026794434,0.22106507420539856,-0.45796138048171997
12.171299457550049,-0.03643091395497322,-1.0568779706954956,0.9100099205970764,1.0912108421325684,0.21190966665744781,-0.45719844102859497
12.191446304321289,-0.03452353551983833,-1.056496500968933,0.9122987985610962,1.0923552513122559,0.20733195543289185,-0.45643550157546997
12.211489915847778,-0.030708782374858856,-1.054970622062683,0.916113555431366,1.0927367210388184,0.20962081849575043,-0.45643550157546997
12.231544017791748,-0.027656977996230125,-1.0530632734298706,0.9195467829704285,1.0934996604919434,0.2149614691734314,-0.45681697130203247
12.251631498336792,-0.026512550190091133,-1.051155924797058,0.9214541912078857,1.0923552513122559,0.22526131570339203,-0.45757991075515747
12.271777629852295,-0.02689402550458908,-1.0503928661346436,0.9210727214813232,1.0919737815856934,0.23556114733219147,-0.45796138048171997
12.291838884353638,-0.029182879254221916,-1.050011396408081,0.9203097820281982,1.0919737815856934,0.2439536154270172,-0.45948728919029236
12.311930656433105,-0.03376058489084244,-1.050774335861206,0.916876494884491,1.0896848440170288,0.2450980395078659,-0.45986875891685486
12.331994533538818,-0.03681239113211632,-1.0515373945236206,0.9130617380142212,1.0889219045639038,0.24204623699188232,-0.45986875891685486
12.352171182632446,-0.03757534176111221,-1.052681803703308,0.9100099205970764,1.0893033742904663,0.2313649207353592,-0.45910581946372986
12.372204780578613,-0.03757534176111221,-1.053444743156433,0.9103913903236389,1.0896848440170288,0.21953918039798737,-0.45872434973716736
12.392249345779419,-0.03681239113211632,-1.0553520917892456,0.9096284508705139,1.0908293724060059,0.2145799994468689,-0.45834288001060486
12.412357330322266,-0.03376058489084244,-1.0545891523361206,0.9119172692298889,1.0927367210388184,0.212672621011734,-0.45796138048171997
12.432476282119751,-0.03147173300385475,-1.0530632734298706,0.9142061471939087,1.0938811302185059,0.2130540907382965,-0.45757991075515747
12.452584028244019,-0.02880140393972397,-1.050774335861206,0.9172579646110535,1.0938811302185059,0.21725031733512878,-0.45757991075515747
12.472663164138794,-0.027656977996230125,-1.049248456954956,0.9187838435173035,1.0931181907653809,0.2286945879459381,-0.45834288001060486
12.492716312408447,-0.02727550081908703,-1.048485517501831,0.918402373790741,1.0923552513122559,0.23861294984817505,-0.45910581946372986
12.512927532196045,-0.03032730519771576,-1.0481040477752686,0.916876494884491,1.0915923118591309,0.2447165697813034,-0.45910581946372986
12.533037900924683,-0.03452353551983833,-1.0481040477752686,0.9122987985610962,1.0908293724060059,0.247768372297287,-0.45948728919029236
12.553066492080688,-0.03833829239010811,-1.048485517501831,0.9069581031799316,1.0912108421325684,0.2466239482164383,-0.45948728919029236
12.573206901550293,-0.040627144277095795,-1.050011396408081,0.9023804068565369,1.0927367210388184,0.24013885855674744,-0.45834288001060486
12.59327483177185,-0.04253452271223068,-1.0523003339767456,0.8989471197128296,1.0984588861465454,0.2309834510087967,-0.4541466534137726
12.613353967666626,-0.04406042397022247,-1.053444743156433,0.8978027105331421,1.1037994623184204,0.22755016386508942,-0.4503318965435028
12.63344693183899,-0.04406042397022247,-1.054207682609558,0.8974212408065796,1.10990309715271,0.22526131570339203,-0.44728007912635803
12.653525829315186,-0.04406042397022247,-1.0538262128829956,0.8974212408065796,1.1160067319869995,0.2283131182193756,-0.44308385252952576
12.673614978790283,-0.04329747334122658,-1.0530632734298706,0.8981841802597046,1.1217288970947266,0.23403525352478027,-0.4404135048389435
12.693755865097046,-0.040627144277095795,-1.052681803703308,0.8989471197128296,1.1263065338134766,0.24319066107273102,-0.4388876259326935
12.71487307548523,-0.037193864583969116,-1.052681803703308,0.8993285894393921,1.1308842897415161,0.25120165944099426,-0.4358358085155487
12.73499870300293,-0.03490501269698143,-1.0538262128829956,0.8993285894393921,1.1362248659133911,0.25654229521751404,-0.43163958191871643
12.755077838897705,-0.03299763426184654,-1.054970622062683,0.8993285894393921,1.1419470310211182,0.2607385218143463,-0.42820629477500916
12.775129556655884,-0.032616160809993744,-1.058022379875183,0.8993285894393921,1.1476691961288452,0.2630273997783661,-0.4236285984516144
12.79526400566101,-0.03223468363285065,-1.0610742568969727,0.9000915288925171,1.1533913612365723,0.2641718089580536,-0.4182879328727722
12.815261602401733,-0.032616160809993744,-1.0629816055297852,0.9008545279502869,1.1594948768615723,0.2622644305229187,-0.41256579756736755
12.835356712341309,-0.032616160809993744,-1.0645074844360352,0.9027618765830994,1.1655985116958618,0.2592126429080963,-0.4056992530822754
12.855480432510376,-0.03490501269698143,-1.0652704238891602,0.9046692848205566,1.1739909648895264,0.2584496736526489,-0.3999771177768707
12.875508546829224,-0.03452353551983833,-1.0652704238891602,0.9058136940002441,1.1812390089035034,0.2584496736526489,-0.39578089118003845
12.89560317993164,-0.03299763426184654,-1.0652704238891602,0.9077210426330566,1.1861982345581055,0.2607385218143463,-0.3915846347808838
12.915741920471191,-0.03147173300385475,-1.0652704238891602,0.9088655114173889,1.1907758712768555,0.2645532786846161,-0.387006938457489
12.93583607673645,-0.030708782374858856,-1.0664149522781372,0.9096284508705139,1.193827748298645,0.26684215664863586,-0.38357365131378174
12.955894947052002,-0.02841992862522602,-1.0671778917312622,0.9103913903236389,1.19611656665802,0.26874953508377075,-0.37899595499038696
12.976035594940186,-0.02841992862522602,-1.0687037706375122,0.9107728600502014,1.1987868547439575,0.26874953508377075,-0.3740367889404297
12.996097564697266,-0.02841992862522602,-1.0706111192703247,0.9115357995033264,1.2014572620391846,0.26760509610176086,-0.3713664412498474
13.016190767288208,-0.02841992862522602,-1.0713740587234497,0.9134432077407837,1.2045090198516846,0.2645532786846161,-0.368314653635025
13.036302328109741,-0.02880140393972397,-1.0717555284500122,0.9149690866470337,1.2083238363265991,0.2607385218143463,-0.36335545778274536
13.056417226791382,-0.029564354568719864,-1.0713740587234497,0.916876494884491,1.2125200033187866,0.2580682039260864,-0.3587777614593506
13.076512336730957,-0.029182879254221916,-1.0702296495437622,0.918402373790741,1.2155718803405762,0.2588311731815338,-0.3538185656070709
13.096692085266113,-0.02880140393972397,-1.0694667100906372,0.919165313243866,1.2174792289733887,0.2611200213432312,-0.35076677799224854
13.11672329902649,-0.02880140393972397,-1.0683223009109497,0.9187838435173035,1.2190051078796387,0.264934778213501,-0.34962233901023865
13.136903524398804,-0.02841992862522602,-1.0683223009109497,0.9180209040641785,1.2193865776062012,0.2660791873931885,-0.34695202112197876
13.157518148422241,-0.02841992862522602,-1.0683223009109497,0.916876494884491,1.2193865776062012,0.2660791873931885,-0.34618905186653137
13.177615404129028,-0.02841992862522602,-1.0683223009109497,0.9157320261001587,1.2193865776062012,0.2630273997783661,-0.343900203704834
13.197671175003052,-0.02841992862522602,-1.0683223009109497,0.9157320261001587,1.2205309867858887,0.2573052644729614,-0.3397039771080017
13.217752695083618,-0.02841992862522602,-1.0683223009109497,0.9157320261001587,1.2224383354187012,0.25501641631126404,-0.33588922023773193
13.237862348556519,-0.028038453310728073,-1.0671778917312622,0.9164950251579285,1.2239643335342407,0.25463491678237915,-0.33321890234947205
13.257914781570435,-0.02689402550458908,-1.0656518936157227,0.916876494884491,1.2254902124404907,0.25501641631126404,-0.32940414547920227
13.278034448623657,-0.026131074875593185,-1.0641260147094727,0.9172579646110535,1.2270160913467407,0.2588311731815338,-0.3274967670440674
13.298148393630981,-0.026131074875593185,-1.0629816055297852,0.9172579646110535,1.2266346216201782,0.2626459002494812,-0.3274967670440674
13.318341255187988,-0.026131074875593185,-1.0629816055297852,0.916876494884491,1.2262531518936157,0.2641718089580536,-0.3271152675151825
13.338422060012817,-0.026131074875593185,-1.0633630752563477,0.9157320261001587,1.2258716821670532,0.2630273997783661,-0.325970858335495
13.358470678329468,-0.026512550190091133,-1.0637445449829102,0.9149690866470337,1.2258716821670532,0.2595941126346588,-0.3233005404472351
13.378573656082153,-0.02689402550458908,-1.0641260147094727,0.9138246774673462,1.2262531518936157,0.25349050760269165,-0.32024872303009033
13.398662567138672,-0.027656977996230125,-1.0641260147094727,0.9142061471939087,1.2262531518936157,0.2470054179430008,-0.31910428404808044
13.418706893920898,-0.02841992862522602,-1.0641260147094727,0.9145876169204712,1.2266346216201782,0.24280919134616852,-0.31681543588638306
13.438798427581787,-0.026131074875593185,-1.0629816055297852,0.916113555431366,1.2270160913467407,0.24319066107273102,-0.31567102670669556
13.458985567092896,-0.024223696440458298,-1.0614557266235352,0.9172579646110535,1.2266346216201782,0.2462424635887146,-0.3133821487426758
13.47917127609253,-0.02193484455347061,-1.0595483779907227,0.9187838435173035,1.2266346216201782,0.25158312916755676,-0.3122377395629883
13.499264001846313,-0.02193484455347061,-1.0591669082641602,0.9187838435173035,1.2262531518936157,0.25654229521751404,-0.3118562698364258
13.519315958023071,-0.02193484455347061,-1.058022379875183,0.9180209040641785,1.2247272729873657,0.2599755823612213,-0.3118562698364258
13.539502382278442,-0.025749599561095238,-1.0584038496017456,0.916113555431366,1.2228199243545532,0.2595941126346588,-0.3114747703075409
13.559598922729492,-0.027656977996230125,-1.0591669082641602,0.9138246774673462,1.2220568656921387,0.25539788603782654,-0.3099488914012909
13.579645872116089,-0.029182879254221916,-1.0603113174438477,0.9122987985610962,1.2228199243545532,0.2450980395078659,-0.3084229826927185
13.599741697311401,-0.029564354568719864,-1.0610742568969727,0.9111543297767639,1.2228199243545532,0.23594263195991516,-0.3061341345310211
13.619816064834595,-0.02841992862522602,-1.0610742568969727,0.9119172692298889,1.2232013940811157,0.2302204966545105,-0.30270084738731384
13.64008903503418,-0.02384222112596035,-1.0610742568969727,0.9134432077407837,1.2239643335342407,0.2290760725736618,-0.30155640840530396
13.660157203674316,-0.02079041674733162,-1.0599298477172852,0.917639434337616,1.2243458032608032,0.2290760725736618,-0.30117493867874146
13.680224895477295,-0.019645990803837776,-1.0587854385375977,0.9206912517547607,1.2239643335342407,0.23479819297790527,-0.30117493867874146
13.700498819351196,-0.018120087683200836,-1.0576409101486206,0.9210727214813232,1.2228199243545532,0.2443350851535797,-0.30155640840530396
13.720632076263428,-0.019645990803837776,-1.057259440422058,0.9210727214813232,1.2228199243545532,0.2473868876695633,-0.30155640840530396
13.740654468536377,-0.02231631986796856,-1.0561150312423706,0.9203097820281982,1.2212939262390137,0.2470054179430008,-0.30155640840530396
13.76075530052185,-0.02384222112596035,-1.057259440422058,0.9180209040641785,1.2193865776062012,0.24319066107273102,-0.30155640840530396
13.780827760696411,-0.024605173617601395,-1.0584038496017456,0.9164950251579285,1.2193865776062012,0.23479819297790527,-0.30079346895217896
13.800952911376953,-0.02536812424659729,-1.0599298477172852,0.9149690866470337,1.2197680473327637,0.22335393726825714,-0.29926756024360657
13.821049451828003,-0.024605173617601395,-1.0587854385375977,0.916113555431366,1.2197680473327637,0.2161058932542801,-0.2973601818084717
13.841135501861572,-0.022697795182466507,-1.0584038496017456,0.9164950251579285,1.2205309867858887,0.21114671230316162,-0.2969787120819092
13.861211776733398,-0.02040894143283367,-1.057259440422058,0.9187838435173035,1.2216753959655762,0.212672621011734,-0.2954528033733368
13.881436109542847,-0.018120087683200836,-1.054970622062683,0.9210727214813232,1.2220568656921387,0.21725031733512878,-0.2954528033733368
13.901425838470459,-0.01773861236870289,-1.0538262128829956,0.9218356609344482,1.2212939262390137,0.22678720951080322,-0.2958342730998993
13.922047138214111,-0.01773861236870289,-1.0523003339767456,0.9214541912078857,1.2193865776062012,0.23632410168647766,-0.2962157726287842
13.94213604927063,-0.02040894143283367,-1.0523003339767456,0.9195467829704285,1.2186236381530762,0.23670557141304016,-0.2958342730998993
13.962275981903076,-0.02384222112596035,-1.0530632734298706,0.9164950251579285,1.2144273519515991,0.23594263195991516,-0.2958342730998993
13.982413053512573,-0.024605173617601395,-1.054970622062683,0.9138246774673462,1.2140458822250366,0.22793163359165192,-0.2962157726287842
14.002539157867432,-0.024223696440458298,-1.055733561515808,0.9134432077407837,1.2144273519515991,0.21763180196285248,-0.2950713336467743
14.022626638412476,-0.024223696440458298,-1.057259440422058,0.9138246774673462,1.2148088216781616,0.20656901597976685,-0.2946898639202118
14.042687177658081,-0.02231631986796856,-1.0561150312423706,0.9157320261001587,1.2148088216781616,0.20351719856262207,-0.2943083941936493
14.062873601913452,-0.01888304017484188,-1.054970622062683,0.9187838435173035,1.2159533500671387,0.20389868319034576,-0.2943083941936493
14.082907438278198,-0.01773861236870289,-1.053444743156433,0.9210727214813232,1.2159533500671387,0.20962081849575043,-0.2943083941936493
14.10296893119812,-0.016975661739706993,-1.0515373945236206,0.9225986003875732,1.2155718803405762,0.21953918039798737,-0.2950713336467743
14.123112916946411,-0.016975661739706993,-1.050774335861206,0.9218356609344482,1.2148088216781616,0.22716869413852692,-0.2946898639202118
14.143200635910034,-0.019645990803837776,-1.0503928661346436,0.9206912517547607,1.2136644124984741,0.2290760725736618,-0.2950713336467743
14.163346290588379,-0.02231631986796856,-1.0515373945236206,0.9180209040641785,1.2117570638656616,0.22755016386508942,-0.2950713336467743
14.1834077835083,-0.023079270496964455,-1.051918864250183,0.9157320261001587,1.2109941244125366,0.21915769577026367,-0.2946898639202118
14.203527450561523,-0.024223696440458298,-1.0530632734298706,0.9134432077407837,1.2113755941390991,0.20847637951374054,-0.2946898639202118
14.223642349243164,-0.024223696440458298,-1.0538262128829956,0.9126802682876587,1.2117570638656616,0.1981765478849411,-0.2943083941936493
14.24370288848877,-0.022697795182466507,-1.053444743156433,0.9134432077407837,1.2117570638656616,0.1958876997232437,-0.2943083941936493
14.263805150985718,-0.01926451548933983,-1.0523003339767456,0.916113555431366,1.2125200033187866,0.19436179101467133,-0.2943083941936493
14.283910036087036,-0.016594186425209045,-1.050011396408081,0.918402373790741,1.2129014730453491,0.1958876997232437,-0.2943083941936493
14.304057359695435,-0.01583123579621315,-1.048485517501831,0.9203097820281982,1.2125200033187866,0.20504310727119446,-0.2943083941936493
14.32412052154541,-0.01583123579621315,-1.0481040477752686,0.9199283123016357,1.2113755941390991,0.21686884760856628,-0.2950713336467743
14.344207763671875,-0.016212711110711098,-1.0481040477752686,0.9195467829704285,1.2113755941390991,0.22220951318740845,-0.2950713336467743
14.364285707473755,-0.019645990803837776,-1.0488669872283936,0.917639434337616,1.2098497152328491,0.22259098291397095,-0.2954528033733368
14.384391069412231,-0.021553369238972664,-1.050011396408081,0.9153505563735962,1.2079423666000366,0.21877622604370117,-0.2954528033733368
14.404439926147461,-0.02193484455347061,-1.051155924797058,0.9134432077407837,1.2079423666000366,0.21076524257659912,-0.2950713336467743
