liuyurong129/humanoid-gym/humanoid/data/actual_q_20250521-050647.csv
timestamp,joint_1,joint_2,joint_3,joint_4,joint_5,joint_6
5.507469177246094e-05,0.000572213320992887,0.1668955534696579,-0.08335240930318832,-0.00019073777366429567,-0.00019073777366429567,0.00019073777366429567
0.020143747329711914,0.000572213320992887,0.14324407279491425,-0.07381551712751389,-0.00019073777366429567,-0.00019073777366429567,0.00019073777366429567
0.040220022201538086,-0.00019073777366429567,0.12149996310472488,-0.06427863240242004,-0.00019073777366429567,0.002861066721379757,0.00019073777366429567
0.06028485298156738,0.00019073777366429567,0.10814831405878067,-0.058175019919872284,-0.00019073777366429567,0.0009536888683214784,0.00019073777366429567
0.08035731315612793,0.00019073777366429567,0.09822995215654373,-0.051689937710762024,-0.00019073777366429567,0.00019073777366429567,0.00019073777366429567
0.10042738914489746,0.00019073777366429567,0.0883115902543068,-0.045204851776361465,-0.00019073777366429567,0.00019073777366429567,0.00019073777366429567
0.12051272392272949,0.0009536888683214784,0.08297093212604523,-0.04177157208323479,-0.00019073777366429567,0.00019073777366429567,0.00019073777366429567
0.14058470726013184,0.001716639962978661,0.08182650804519653,-0.04100862145423889,-0.00019073777366429567,-0.0009536888683214784,0.00019073777366429567
0.16070079803466797,0.0024795911740511656,0.07953765243291855,-0.04100862145423889,-0.00019073777366429567,-0.000572213320992887,0.00019073777366429567
0.18086934089660645,0.0036240178160369396,0.07419699430465698,-0.040627144277095795,-0.00019073777366429567,-0.00019073777366429567,0.00019073777366429567
0.2010633945465088,0.005149920005351305,0.0711451917886734,-0.0394827201962471,-0.000572213320992887,0.00019073777366429567,0.00019073777366429567
0.22106647491455078,0.005531395319849253,0.06885633617639542,-0.03833829239010811,-0.00019073777366429567,0.000572213320992887,0.00019073777366429567
0.24114370346069336,0.00667582219466567,0.06771191209554672,-0.037193864583969116,-0.000572213320992887,0.00019073777366429567,0.00019073777366429567
0.2612276077270508,0.0078202486038208,0.06504157930612564,-0.03490501269698143,-0.00019073777366429567,0.00019073777366429567,0.00019073777366429567
0.28130006790161133,0.0078202486038208,0.06237125024199486,-0.03376058489084244,-0.00019073777366429567,0.00019073777366429567,0.00019073777366429567
0.3015120029449463,0.008964675478637218,0.05893797054886818,-0.03337911143898964,-0.000572213320992887,0.00019073777366429567,0.000572213320992887
0.3216063976287842,0.009727626107633114,0.0555046908557415,-0.032616160809993744,-0.000572213320992887,0.00019073777366429567,0.00019073777366429567
0.3417196273803711,0.010109102353453636,0.053215838968753815,-0.03223468363285065,-0.000572213320992887,0.00019073777366429567,0.000572213320992887
0.3617525100708008,0.010872052982449532,0.049782559275627136,-0.031090257689356804,-0.000572213320992887,0.00019073777366429567,0.000572213320992887
0.3818378448486328,0.01201647985726595,0.04711223021149635,-0.029182879254221916,-0.000572213320992887,0.00019073777366429567,0.000572213320992887
0.40189313888549805,0.013160906732082367,0.04482337832450867,-0.027656977996230125,-0.00019073777366429567,0.00019073777366429567,0.000572213320992887
0.421964168548584,0.01430533267557621,0.04253452271223068,-0.026512550190091133,-0.000572213320992887,0.00019073777366429567,0.000572213320992887
0.44205331802368164,0.01506828423589468,0.038719769567251205,-0.024986648932099342,-0.000572213320992887,0.000572213320992887,0.000572213320992887
0.4621105194091797,0.015449759550392628,0.03643091395497322,-0.024223696440458298,-0.000572213320992887,0.00019073777366429567,0.000572213320992887
0.482175350189209,0.016212711110711098,0.034142062067985535,-0.023460745811462402,-0.000572213320992887,0.00019073777366429567,0.000572213320992887
0.5022656917572021,0.01735713705420494,0.02994582988321781,-0.021553369238972664,-0.000572213320992887,0.00019073777366429567,0.0009536888683214784
0.5223455429077148,0.018501564860343933,0.026512550190091133,-0.020027466118335724,-0.000572213320992887,0.0009536888683214784,0.0009536888683214784
0.5424144268035889,0.01926451548933983,0.02384222112596035,-0.01926451548933983,-0.000572213320992887,0.000572213320992887,0.0009536888683214784
0.5625061988830566,0.02040894143283367,0.02040894143283367,-0.018501564860343933,-0.000572213320992887,0.000572213320992887,0.0009536888683214784
0.5826232433319092,0.021553369238972664,0.01773861236870289,-0.016975661739706993,-0.000572213320992887,0.0009536888683214784,0.0009536888683214784
0.6026914119720459,0.021553369238972664,0.015449759550392628,-0.016594186425209045,-0.0009536888683214784,0.000572213320992887,0.0013351644156500697
0.6229076385498047,0.02193484455347061,0.012397955171763897,-0.01506828423589468,-0.0009536888683214784,0.0009536888683214784,0.0013351644156500697
0.6429905891418457,0.023460745811462402,0.00858320016413927,-0.013542382046580315,-0.0009536888683214784,0.000572213320992887,0.0013351644156500697
0.6630649566650391,0.024605173617601395,0.005149920005351305,-0.011635004542768002,-0.0009536888683214784,0.000572213320992887,0.001716639962978661
0.683265209197998,0.025749599561095238,0.000572213320992887,-0.010109102353453636,-0.0013351644156500697,0.0009536888683214784,0.0024795911740511656
0.7033882141113281,0.02689402550458908,-0.002861066721379757,-0.008201723918318748,-0.0013351644156500697,0.0009536888683214784,0.002861066721379757
0.7234494686126709,0.028038453310728073,-0.005149920005351305,-0.007438773289322853,-0.0013351644156500697,0.0009536888683214784,0.002861066721379757
0.7435240745544434,0.029182879254221916,-0.0078202486038208,-0.006294346414506435,-0.0013351644156500697,0.0009536888683214784,0.002861066721379757
0.7636208534240723,0.029564354568719864,-0.011635004542768002,-0.00476844422519207,-0.0013351644156500697,0.0009536888683214784,0.002861066721379757
0.7837066650390625,0.02994582988321781,-0.01583123579621315,-0.0032425422687083483,-0.0013351644156500697,0.0013351644156500697,0.002861066721379757
0.8041424751281738,0.03147173300385475,-0.019645990803837776,-0.001716639962978661,-0.001716639962978661,0.0013351644156500697,0.002861066721379757
0.8242311477661133,0.032616160809993744,-0.02384222112596035,0.00019073777366429567,-0.001716639962978661,0.001716639962978661,0.0032425422687083483
0.8442978858947754,0.034142062067985535,-0.026512550190091133,0.001716639962978661,-0.001716639962978661,0.0013351644156500697,0.0032425422687083483
0.8645343780517578,0.03528648987412453,-0.03032730519771576,0.0032425422687083483,-0.0020981156267225742,0.001716639962978661,0.0032425422687083483
0.8846182823181152,0.03643091395497322,-0.03452353551983833,0.005531395319849253,-0.0020981156267225742,0.001716639962978661,0.0032425422687083483
0.9046998023986816,0.03681239113211632,-0.03795681521296501,0.007057297509163618,-0.0024795911740511656,0.001716639962978661,0.0032425422687083483
0.9247598648071289,0.03795681521296501,-0.04329747334122658,0.008964675478637218,-0.0024795911740511656,0.0020981156267225742,0.0032425422687083483
0.944847822189331,0.0394827201962471,-0.04711223021149635,0.01125352829694748,-0.002861066721379757,0.0020981156267225742,0.0032425422687083483
0.9649543762207031,0.0398641936480999,-0.049782559275627136,0.012397955171763897,-0.002861066721379757,0.0020981156267225742,0.0032425422687083483
0.9849836826324463,0.04139009863138199,-0.053215838968753815,0.01430533267557621,-0.0032425422687083483,0.0020981156267225742,0.0032425422687083483
1.0050740242004395,0.04253452271223068,-0.05664911866188049,0.01583123579621315,-0.0032425422687083483,0.0020981156267225742,0.0032425422687083483
1.0251548290252686,0.04329747334122658,-0.06084534898400307,0.01773861236870289,-0.0032425422687083483,0.0020981156267225742,0.0032425422687083483
1.0452063083648682,0.04406042397022247,-0.06504157930612564,0.01926451548933983,-0.0036240178160369396,0.002861066721379757,0.0032425422687083483
1.0652964115142822,0.04482337832450867,-0.06923781335353851,0.021553369238972664,-0.0036240178160369396,0.002861066721379757,0.0036240178160369396
1.0853776931762695,0.04596780240535736,-0.071908138692379,0.022697795182466507,-0.0036240178160369396,0.0024795911740511656,0.0036240178160369396
1.1054339408874512,0.04711223021149635,-0.07534141838550568,0.024605173617601395,-0.004005493130534887,0.0024795911740511656,0.0036240178160369396
1.1255171298980713,0.048256658017635345,-0.07953765243291855,0.026131074875593185,-0.004005493130534887,0.0024795911740511656,0.0036240178160369396
1.1455881595611572,0.04940108209848404,-0.08411535620689392,0.027656977996230125,-0.004005493130534887,0.0024795911740511656,0.0036240178160369396
1.1656575202941895,0.05092698708176613,-0.08907453715801239,0.029564354568719864,-0.004386968910694122,0.0024795911740511656,0.0036240178160369396
1.1857430934906006,0.051689937710762024,-0.09365224838256836,0.03185320645570755,-0.004386968910694122,0.0032425422687083483,0.0036240178160369396
1.2058393955230713,0.05283436179161072,-0.09555962681770325,0.03337911143898964,-0.004386968910694122,0.002861066721379757,0.0036240178160369396
1.2259018421173096,0.05359731614589691,-0.09899290651082993,0.03528648987412453,-0.00476844422519207,0.002861066721379757,0.004005493130534887
1.2459900379180908,0.0551232174038887,-0.1039520874619484,0.03833829239010811,-0.005149920005351305,0.0032425422687083483,0.0036240178160369396
1.266066074371338,0.056267641484737396,-0.10776684433221817,0.040245670825242996,-0.005531395319849253,0.0032425422687083483,0.004005493130534887
1.2861199378967285,0.058175019919872284,-0.11272602528333664,0.042153049260377884,-0.005912871100008488,0.002861066721379757,0.004005493130534887
1.3062028884887695,0.05893797054886818,-0.11730372905731201,0.04444190114736557,-0.006294346414506435,0.0032425422687083483,0.004005493130534887
1.326286792755127,0.059319447726011276,-0.1203555315732956,0.04634927958250046,-0.00667582219466567,0.0032425422687083483,0.004005493130534887
1.3463339805603027,0.06008239835500717,-0.12378881871700287,0.04749370738863945,-0.00667582219466567,0.0032425422687083483,0.004386968910694122
1.3664374351501465,0.061226826161146164,-0.12836651504039764,0.049782559275627136,-0.007057297509163618,0.0032425422687083483,0.004386968910694122
1.3865313529968262,0.06237125024199486,-0.1329442262649536,0.05130846053361893,-0.007057297509163618,0.0036240178160369396,0.004386968910694122
1.4065754413604736,0.06389715522527695,-0.13790340721607208,0.053215838968753815,-0.007057297509163618,0.0032425422687083483,0.00476844422519207
1.426664113998413,0.06542305648326874,-0.14248111844062805,0.0558861680328846,-0.007057297509163618,0.0032425422687083483,0.00476844422519207
1.4467353820800781,0.06580453366041183,-0.14591439068317413,0.058175019919872284,-0.007438773289322853,0.0036240178160369396,0.005149920005351305
1.466817855834961,0.06656748056411743,-0.14820325374603271,0.05970092490315437,-0.007438773289322853,0.0032425422687083483,0.005149920005351305
1.486966848373413,0.06809338182210922,-0.1520180106163025,0.06160829961299896,-0.007438773289322853,0.0036240178160369396,0.005531395319849253
1.5069856643676758,0.06923781335353851,-0.15697719156742096,0.06389715522527695,-0.007438773289322853,0.0036240178160369396,0.006294346414506435
1.5271053314208984,0.0707637146115303,-0.16231784224510193,0.06618601083755493,-0.007438773289322853,0.0036240178160369396,0.007057297509163618
1.5471618175506592,0.0722896158695221,-0.1668955534696579,0.06961929053068161,-0.0078202486038208,0.0032425422687083483,0.007438773289322853
1.5672321319580078,0.07457847148180008,-0.16994735598564148,0.07343403995037079,-0.0078202486038208,0.0036240178160369396,0.0078202486038208
1.5872845649719238,0.07572289556264877,-0.17338064312934875,0.07572289556264877,-0.0078202486038208,0.0036240178160369396,0.0078202486038208
1.6074013710021973,0.07648584991693497,-0.17757686972618103,0.07877469807863235,-0.008201723918318748,0.004386968910694122,0.0078202486038208
1.6274700164794922,0.07763027399778366,-0.1817730963230133,0.08106355369091034,-0.008201723918318748,0.004005493130534887,0.0078202486038208
1.6475417613983154,0.07991912961006165,-0.18596932291984558,0.08335240930318832,-0.008201723918318748,0.004386968910694122,0.0078202486038208
1.6676416397094727,0.08106355369091034,-0.19092851877212524,0.086785688996315,-0.00858320016413927,0.004005493130534887,0.008201723918318748
1.6876983642578125,0.08182650804519653,-0.19512474536895752,0.08983749151229858,-0.00858320016413927,0.0036240178160369396,0.008201723918318748
1.7077581882476807,0.08297093212604523,-0.1993209719657898,0.09174486994743347,-0.00858320016413927,0.0036240178160369396,0.008201723918318748
1.7278497219085693,0.08487831056118011,-0.20351719856262207,0.09441519528627396,-0.008964675478637218,0.0036240178160369396,0.008201723918318748
1.7479734420776367,0.086785688996315,-0.20733195543289185,0.09708552807569504,-0.009346150793135166,0.004005493130534887,0.00858320016413927
1.7679965496063232,0.0879301130771637,-0.21190966665744781,0.09975585341453552,-0.009346150793135166,0.004005493130534887,0.00858320016413927
1.7880876064300537,0.0883115902543068,-0.21648737788200378,0.1028076633810997,-0.010109102353453636,0.004386968910694122,0.009346150793135166
1.8081512451171875,0.08945601433515549,-0.21992065012454987,0.10547798871994019,-0.010490577667951584,0.00476844422519207,0.010109102353453636
1.8282229900360107,0.09021896868944168,-0.22335393726825714,0.10700388997793198,-0.010872052982449532,0.004386968910694122,0.010490577667951584
1.8483128547668457,0.09174486994743347,-0.22793163359165192,0.10929274559020996,-0.010872052982449532,0.004005493130534887,0.010490577667951584
1.8683929443359375,0.09403372555971146,-0.23403525352478027,0.11310750246047974,-0.01125352829694748,0.004005493130534887,0.010872052982449532
1.8884656429290771,0.09594109654426575,-0.24204623699188232,0.11577782779932022,-0.01125352829694748,0.004386968910694122,0.010872052982449532
1.908627986907959,0.09746700525283813,-0.24929426610469818,0.1199740618467331,-0.01125352829694748,0.004386968910694122,0.010872052982449532
1.928722620010376,0.09861142933368683,-0.25539788603782654,0.12378881871700287,-0.01125352829694748,0.00476844422519207,0.010872052982449532
1.9487874507904053,0.10013733059167862,-0.2595941126346588,0.12645913660526276,-0.011635004542768002,0.004386968910694122,0.010872052982449532
1.968881607055664,0.10166323184967041,-0.2641718089580536,0.12912946939468384,-0.011635004542768002,0.004386968910694122,0.010872052982449532
1.9890079498291016,0.1024261862039566,-0.27103838324546814,0.1329442262649536,-0.011635004542768002,0.005912871100008488,0.01125352829694748
2.009073495864868,0.1028076633810997,-0.2767605185508728,0.1356145590543747,-0.01201647985726595,0.007438773289322853,0.010872052982449532
2.0291690826416016,0.10471503436565399,-0.28286412358283997,0.13866636157035828,-0.01201647985726595,0.007057297509163618,0.01125352829694748
2.0492355823516846,0.10662241280078888,-0.28782328963279724,0.14286258816719055,-0.01201647985726595,0.007057297509163618,0.01125352829694748
2.069301128387451,0.10852979123592377,-0.2924010157585144,0.14629587531089783,-0.012397955171763897,0.00667582219466567,0.011635004542768002
2.0894439220428467,0.10967422276735306,-0.2958342730998993,0.1497291475534439,-0.012779430486261845,0.00667582219466567,0.011635004542768002
2.109466075897217,0.11081864684820175,-0.30117493867874146,0.15392538905143738,-0.013160906732082367,0.00667582219466567,0.01201647985726595
2.1295511722564697,0.11196307092905045,-0.3072785437107086,0.15774014592170715,-0.013923857361078262,0.00667582219466567,0.011635004542768002
2.1496052742004395,0.11348897218704224,-0.31376364827156067,0.16079194843769073,-0.014686808921396732,0.007057297509163618,0.01201647985726595
2.169682741165161,0.11539635062217712,-0.31986725330352783,0.1657511293888092,-0.01506828423589468,0.007057297509163618,0.012397955171763897
2.1897506713867188,0.11654078215360641,-0.3240634799003601,0.16918440163135529,-0.01506828423589468,0.007057297509163618,0.012397955171763897
2.2098371982574463,0.11730372905731201,-0.3290226459503174,0.17223620414733887,-0.015449759550392628,0.007438773289322853,0.012397955171763897
2.2299036979675293,0.1188296303153038,-0.33550775051116943,0.17681391537189484,-0.015449759550392628,0.00667582219466567,0.012779430486261845
2.24997878074646,0.12111848592758179,-0.343137264251709,0.1817730963230133,-0.01583123579621315,0.00667582219466567,0.013160906732082367
2.2700555324554443,0.12302586436271667,-0.35038527846336365,0.18520638346672058,-0.01583123579621315,0.00667582219466567,0.01430533267557621
2.290627956390381,0.12531471252441406,-0.3580147922039032,0.18978407979011536,-0.01583123579621315,0.007057297509163618,0.014686808921396732
2.3107187747955322,0.12645913660526276,-0.36373692750930786,0.19512474536895752,-0.01583123579621315,0.007057297509163618,0.014686808921396732
2.330801248550415,0.12722209095954895,-0.368314653635025,0.200083926320076,-0.016594186425209045,0.007438773289322853,0.014686808921396732
2.350870370864868,0.12912946939468384,-0.3747997283935547,0.20542457699775696,-0.016975661739706993,0.0078202486038208,0.01506828423589468
2.3709535598754883,0.13141833245754242,-0.38014039397239685,0.21152819693088531,-0.01773861236870289,0.007438773289322853,0.015449759550392628
2.3910248279571533,0.1325627565383911,-0.386243999004364,0.21648737788200378,-0.018120087683200836,0.007057297509163618,0.015449759550392628
2.411086082458496,0.1337071806192398,-0.3923476040363312,0.22068360447883606,-0.018501564860343933,0.007057297509163618,0.015449759550392628
2.4312102794647217,0.1359960287809372,-0.39883267879486084,0.22678720951080322,-0.018501564860343933,0.00667582219466567,0.01583123579621315
2.451251983642578,0.13828489184379578,-0.4060807228088379,0.23327229917049408,-0.018501564860343933,0.00667582219466567,0.016594186425209045
2.4713659286499023,0.14095520973205566,-0.41409170627593994,0.23861294984817505,-0.01888304017484188,0.007057297509163618,0.016975661739706993
2.491436004638672,0.14362554252147675,-0.4217212200164795,0.2447165697813034,-0.01888304017484188,0.007057297509163618,0.01735713705420494
2.511486291885376,0.14515145123004913,-0.42782482504844666,0.2500572204589844,-0.01888304017484188,0.007438773289322853,0.01773861236870289
2.531684398651123,0.14629587531089783,-0.4350728690624237,0.25616082549095154,-0.01926451548933983,0.007438773289322853,0.018120087683200836
2.551914930343628,0.14858472347259521,-0.44346532225608826,0.2622644305229187,-0.01926451548933983,0.00858320016413927,0.018501564860343933
2.5720038414001465,0.1508735716342926,-0.4518577754497528,0.26913100481033325,-0.01926451548933983,0.008201723918318748,0.018501564860343933
2.5920863151550293,0.1527809500694275,-0.46025025844573975,0.2748531401157379,-0.019645990803837776,0.00667582219466567,0.018501564860343933
2.6121344566345215,0.15392538905143738,-0.4686427116394043,0.2817196846008301,-0.019645990803837776,0.006294346414506435,0.01888304017484188
2.6322216987609863,0.15621423721313477,-0.47665369510650635,0.28973066806793213,-0.020027466118335724,0.005912871100008488,0.01888304017484188
2.652373790740967,0.15964750945568085,-0.4854276478290558,0.2973601818084717,-0.020027466118335724,0.005531395319849253,0.01926451548933983
2.6723906993865967,0.16269932687282562,-0.49496451020240784,0.30498969554901123,-0.02040894143283367,0.005149920005351305,0.019645990803837776
2.692476749420166,0.1653696447610855,-0.5056458115577698,0.31567102670669556,-0.021553369238972664,0.005912871100008488,0.019645990803837776
2.712550163269043,0.1684214472770691,-0.5144197940826416,0.3233005404472351,-0.02193484455347061,0.006294346414506435,0.019645990803837776
2.732611894607544,0.17032882571220398,-0.5239566564559937,0.33245593309402466,-0.02231631986796856,0.006294346414506435,0.020027466118335724
2.7526793479919434,0.17261768877506256,-0.5357823967933655,0.3427557647228241,-0.022697795182466507,0.005912871100008488,0.02040894143283367
2.772763729095459,0.17566949129104614,-0.5491340756416321,0.3561074137687683,-0.023079270496964455,0.0078202486038208,0.021171892061829567
2.7928192615509033,0.17910276353359222,-0.5624856948852539,0.36793315410614014,-0.023079270496964455,0.007438773289322853,0.02193484455347061
2.812920331954956,0.1817730963230133,-0.5758373141288757,0.38128480315208435,-0.023079270496964455,0.00667582219466567,0.02231631986796856
2.8330655097961426,0.1836804747581482,-0.5880445837974548,0.3934920132160187,-0.023460745811462402,0.006294346414506435,0.022697795182466507
2.853100299835205,0.18711376190185547,-0.6006332635879517,0.4060807228088379,-0.023460745811462402,0.005149920005351305,0.023079270496964455
2.8731579780578613,0.18940261006355286,-0.6132219433784485,0.4171435236930847,-0.02384222112596035,0.0036240178160369396,0.023460745811462402
2.8932483196258545,0.19207294285297394,-0.6277180314064026,0.43163958191871643,-0.02384222112596035,0.002861066721379757,0.024223696440458298
2.913318395614624,0.19550621509552002,-0.6422140598297119,0.44384679198265076,-0.024223696440458298,0.0032425422687083483,0.025749599561095238
2.933375120162964,0.1989395022392273,-0.6586175560951233,0.45910581946372986,-0.024605173617601395,0.0024795911740511656,0.02689402550458908
2.953460693359375,0.20237277448177338,-0.6754024624824524,0.47779813408851624,-0.024605173617601395,0.0020981156267225742,0.02727550081908703
2.973522901535034,0.20580606162548065,-0.691042959690094,0.49458304047584534,-0.02536812424659729,0.0020981156267225742,0.027656977996230125
2.993675470352173,0.20962081849575043,-0.7089722752571106,0.5155642032623291,-0.025749599561095238,0.0020981156267225742,0.02841992862522602
3.0138278007507324,0.2145799994468689,-0.7288090586662292,0.5388342142105103,-0.025749599561095238,0.001716639962978661,0.029564354568719864
3.033914566040039,0.21992065012454987,-0.7471198439598083,0.5613412857055664,-0.026131074875593185,0.0009536888683214784,0.03032730519771576
3.0540058612823486,0.22602425515651703,-0.7673380374908447,0.5853742361068726,-0.026131074875593185,-0.0009536888683214784,0.030708782374858856
3.0741617679595947,0.23365376889705658,-0.7902265787124634,0.613603413105011,-0.026512550190091133,-0.004005493130534887,0.03223468363285065
3.0942628383636475,0.2443350851535797,-0.8188372850418091,0.6475547552108765,-0.026512550190091133,-0.007438773289322853,0.03490501269698143
3.1143240928649902,0.25463491678237915,-0.84897381067276,0.6807430982589722,-0.02689402550458908,-0.008964675478637218,0.038719769567251205
3.1343889236450195,0.26798656582832336,-0.8821622133255005,0.7223239541053772,-0.02689402550458908,-0.008201723918318748,0.040627144277095795
3.1544809341430664,0.2782863974571228,-0.9126802682876587,0.7631418108940125,-0.027656977996230125,-0.008201723918318748,0.04253452271223068
3.1745686531066895,0.28782328963279724,-0.9470130205154419,0.802815318107605,-0.02880140393972397,-0.007057297509163618,0.04596780240535736
3.194711923599243,0.2958342730998993,-0.9798199534416199,0.838674008846283,-0.02994582988321781,-0.000572213320992887,0.04940108209848404
3.2148029804229736,0.30308231711387634,-1.0099564790725708,0.8733882904052734,-0.030708782374858856,0.000572213320992887,0.05130846053361893
3.234877109527588,0.3068970739841461,-1.0450522899627686,0.9058136940002441,-0.03147173300385475,0.0013351644156500697,0.054741740226745605
3.2550816535949707,0.3114747703075409,-1.0843442678451538,0.9443427324295044,-0.032616160809993744,0.0009536888683214784,0.058175019919872284
3.2751777172088623,0.31681543588638306,-1.127450942993164,0.9863049983978271,-0.034142062067985535,-0.00476844422519207,0.06313420087099075
3.29526948928833,0.3255893886089325,-1.176279902458191,1.0320820808410645,-0.03604944050312042,-0.01430533267557621,0.0711451917886734
3.315311908721924,0.33627068996429443,-1.2228199243545532,1.0736628770828247,-0.0394827201962471,-0.032616160809993744,0.08297093212604523
3.3354251384735107,0.34847790002822876,-1.261730432510376,1.104180932044983,-0.04558632895350456,-0.04787518084049225,0.09670405089855194
3.355520248413086,0.3564889132976532,-1.2922483682632446,1.1255435943603516,-0.049782559275627136,-0.0558861680328846,0.10891126841306686
3.3755640983581543,0.36335545778274536,-1.3189517259597778,1.1434729099273682,-0.05092698708176613,-0.056267641484737396,0.11654078215360641
3.3956682682037354,0.36678874492645264,-1.3403143882751465,1.1572060585021973,-0.05245288833975792,-0.05207141116261482,0.1199740618467331
3.415722608566284,0.36717021465301514,-1.353284478187561,1.1655985116958618,-0.05359731614589691,-0.043678950518369675,0.1199740618467331
3.4357941150665283,0.36717021465301514,-1.357480764389038,1.1682689189910889,-0.05359731614589691,-0.04406042397022247,0.1203555315732956
3.455876111984253,0.36602577567100525,-1.357480764389038,1.1705577373504639,-0.05397878959774971,-0.04482337832450867,0.12111848592758179
3.47598934173584,0.36373692750930786,-1.3551918268203735,1.1720836162567139,-0.05436026677489281,-0.05130846053361893,0.12149996310472488
3.4960107803344727,0.3606851398944855,-1.3529030084609985,1.1736094951629639,-0.05397878959774971,-0.057793546468019485,0.12264438718557358
3.5161068439483643,0.3568703830242157,-1.3513771295547485,1.1743724346160889,-0.05397878959774971,-0.06580453366041183,0.12455176562070847
3.5361788272857666,0.3530556261539459,-1.3506141901016235,1.1747539043426514,-0.05397878959774971,-0.0711451917886734,0.12455176562070847
3.5562453269958496,0.34924086928367615,-1.3506141901016235,1.1747539043426514,-0.05397878959774971,-0.07305257022380829,0.12493324279785156
3.576328992843628,0.34733349084854126,-1.3513771295547485,1.1747539043426514,-0.05397878959774971,-0.07343403995037079,0.12493324279785156
3.596449613571167,0.34504464268684387,-1.3513771295547485,1.1747539043426514,-0.05397878959774971,-0.07381551712751389,0.12493324279785156
3.616462469100952,0.3442816734313965,-1.3513771295547485,1.1751353740692139,-0.05397878959774971,-0.07381551712751389,0.12531471252441406
3.6365530490875244,0.3435187339782715,-1.3506141901016235,1.1758984327316284,-0.05397878959774971,-0.07419699430465698,0.12531471252441406
3.6566364765167236,0.343137264251709,-1.349469780921936,1.1766613721847534,-0.05397878959774971,-0.07381551712751389,0.12569619715213776
3.676694869995117,0.343137264251709,-1.3490883111953735,1.1774243116378784,-0.05397878959774971,-0.07343403995037079,0.12569619715213776
3.6968698501586914,0.3427557647228241,-1.3490883111953735,1.177805781364441,-0.05397878959774971,-0.07267109304666519,0.12569619715213776
3.7169580459594727,0.3419928252696991,-1.348706841468811,1.177805781364441,-0.05397878959774971,-0.0711451917886734,0.12569619715213776
3.7370316982269287,0.3412298858165741,-1.3490883111953735,1.177805781364441,-0.05397878959774971,-0.071908138692379,0.12607766687870026
3.7571616172790527,0.3408484160900116,-1.3490883111953735,1.1781872510910034,-0.05397878959774971,-0.07305257022380829,0.12645913660526276
3.777261257171631,0.3397039771080017,-1.348706841468811,1.178568720817566,-0.05397878959774971,-0.07457847148180008,0.12722209095954895
3.7973461151123047,0.3385595381259918,-1.3483253717422485,1.1789501905441284,-0.05397878959774971,-0.07534141838550568,0.12722209095954895
3.817477226257324,0.33627068996429443,-1.3483253717422485,1.1797131299972534,-0.05397878959774971,-0.07648584991693497,0.12798504531383514
3.837566614151001,0.33360037207603455,-1.347562313079834,1.1804760694503784,-0.05397878959774971,-0.07724879682064056,0.12798504531383514
3.8576393127441406,0.33169299364089966,-1.3471808433532715,1.180857539176941,-0.05397878959774971,-0.07877469807863235,0.12836651504039764
3.8787429332733154,0.3290226459503174,-1.3464179039001465,1.181620478630066,-0.05397878959774971,-0.07839322835206985,0.12874799966812134
3.898798704147339,0.3263523280620575,-1.345273494720459,1.1827648878097534,-0.05397878959774971,-0.07877469807863235,0.13027389347553253
3.918877124786377,0.3233005404472351,-1.343747615814209,1.184290885925293,-0.05397878959774971,-0.08297093212604523,0.13218127191066742
3.938944101333618,0.31910428404808044,-1.3418402671813965,1.185816764831543,-0.05359731614589691,-0.0871671661734581,0.1333257108926773
3.959030866622925,0.31528952717781067,-1.338025450706482,1.188868522644043,-0.05359731614589691,-0.09060044586658478,0.1356145590543747
3.979104518890381,0.3118562698364258,-1.334973692893982,1.19153892993927,-0.053215838968753815,-0.09479667246341705,0.13752193748950958
3.9991562366485596,0.308804452419281,-1.3307774066925049,1.19459068775177,-0.053215838968753815,-0.09784847497940063,0.14286258816719055
4.019257545471191,0.3072785437107086,-1.3273441791534424,1.1964980363845825,-0.05283436179161072,-0.1028076633810997,0.14820325374603271
4.039326190948486,0.30537116527557373,-1.3239108324050903,1.199549913406372,-0.05283436179161072,-0.10776684433221817,0.15354390442371368
4.059395790100098,0.30498969554901123,-1.3208590745925903,1.2014572620391846,-0.05245288833975792,-0.11387044936418533,0.15964750945568085
4.0802483558654785,0.30384528636932373,-1.3193331956863403,1.202601671218872,-0.05245288833975792,-0.11730372905731201,0.1665140837430954
4.1003406047821045,0.30270084738731384,-1.3162813186645508,1.2045090198516846,-0.05130846053361893,-0.12073700875043869,0.17299915850162506
4.120399475097656,0.30193790793418884,-1.3151369094848633,1.2060348987579346,-0.05054550990462303,-0.12111848592758179,0.17948424816131592
4.140463829040527,0.30041199922561646,-1.3136110305786133,1.2079423666000366,-0.04901960864663124,-0.12111848592758179,0.18520638346672058
4.160556793212891,0.29926756024360657,-1.3101778030395508,1.2094682455062866,-0.048256658017635345,-0.12188144028186798,0.18978407979011536
4.180627346038818,0.29850462079048157,-1.3056000471115112,1.2094682455062866,-0.04787518084049225,-0.12264438718557358,0.19550621509552002
4.200718879699707,0.2977416515350342,-1.3025482892990112,1.2098497152328491,-0.04749370738863945,-0.12455176562070847,0.200083926320076
4.220809698104858,0.2962157726287842,-1.2998778820037842,1.2106126546859741,-0.04634927958250046,-0.12645913660526276,0.20504310727119446
4.240884304046631,0.2977416515350342,-1.2987334728240967,1.2106126546859741,-0.04482337832450867,-0.13027389347553253,0.21000228822231293
4.260929107666016,0.29888609051704407,-1.2975890636444092,1.2106126546859741,-0.04406042397022247,-0.13790340721607208,0.2157244235277176
4.281055927276611,0.30079346895217896,-1.2949187755584717,1.2094682455062866,-0.04329747334122658,-0.13942931592464447,0.21915769577026367
4.301161050796509,0.29964902997016907,-1.2922483682632446,1.2098497152328491,-0.040245670825242996,-0.13828489184379578,0.22297245264053345
4.3212339878082275,0.29926756024360657,-1.2899595499038696,1.2102311849594116,-0.040245670825242996,-0.1359960287809372,0.22640573978424072
4.341421127319336,0.2965972423553467,-1.2861448526382446,1.2109941244125366,-0.040245670825242996,-0.13218127191066742,0.2298390120267868
4.361501932144165,0.2954528033733368,-1.2834744453430176,1.2087053060531616,-0.040627144277095795,-0.13218127191066742,0.23250934481620789
4.381582260131836,0.2931639552116394,-1.2804226875305176,1.2087053060531616,-0.040245670825242996,-0.134470134973526,0.23594263195991516
4.401646137237549,0.2931639552116394,-1.2811856269836426,1.2079423666000366,-0.040245670825242996,-0.13828489184379578,0.23975738883018494
4.421730995178223,0.2950713336467743,-1.28233003616333,1.2098497152328491,-0.03795681521296501,-0.14744029939174652,0.24280919134616852
4.441816091537476,0.2973601818084717,-1.2842373847961426,1.2094682455062866,-0.03452353551983833,-0.15774014592170715,0.248531311750412
4.46186089515686,0.30041199922561646,-1.284618854522705,1.2098497152328491,-0.03337911143898964,-0.15964750945568085,0.24929426610469818
4.481950521469116,0.30079346895217896,-1.2842373847961426,1.2109941244125366,-0.03337911143898964,-0.16041046380996704,0.25234606862068176
4.502053260803223,0.30117493867874146,-1.27927827835083,1.2098497152328491,-0.034142062067985535,-0.15545128285884857,0.25349050760269165
4.52210545539856,0.29850462079048157,-1.2754634618759155,1.2098497152328491,-0.03376058489084244,-0.14858472347259521,0.25539788603782654
4.5422163009643555,0.2962157726287842,-1.2716487646102905,1.2075608968734741,-0.034142062067985535,-0.14133669435977936,0.25577935576438904
4.562381744384766,0.2939268946647644,-1.2689783573150635,1.2075608968734741,-0.034142062067985535,-0.14362554252147675,0.2576867341995239
4.582382917404175,0.2943083941936493,-1.2689783573150635,1.206416368484497,-0.03337911143898964,-0.14782176911830902,0.2595941126346588
4.6024863719940186,0.2977416515350342,-1.2689783573150635,1.204127550125122,-0.03337911143898964,-0.15354390442371368,0.2637903392314911
4.622575759887695,0.29964902997016907,-1.267833948135376,1.201838731765747,-0.03223468363285065,-0.16308079659938812,0.266460657119751
4.642638444900513,0.30193790793418884,-1.2682154178619385,1.199549913406372,-0.03185320645570755,-0.164988175034523,0.26913100481033325
4.662729740142822,0.30308231711387634,-1.2689783573150635,1.202601671218872,-0.03147173300385475,-0.1646067053079605,0.2733272314071655
4.6828014850616455,0.30155640840530396,-1.2659265995025635,1.201075792312622,-0.03337911143898964,-0.15545128285884857,0.2744716703891754
4.702883958816528,0.2977416515350342,-1.2628748416900635,1.202601671218872,-0.03376058489084244,-0.14438849687576294,0.2744716703891754
4.722938060760498,0.29850462079048157,-1.2594414949417114,1.19916832447052,-0.034142062067985535,-0.134470134973526,0.2744716703891754
4.743050575256348,0.2965972423553467,-1.256771206855774,1.1980239152908325,-0.03490501269698143,-0.135233074426651,0.2748531401157379
4.763123273849487,0.2965972423553467,-1.2571526765823364,1.1957350969314575,-0.03452353551983833,-0.14057374000549316,0.2767605185508728
4.783292293548584,0.2954528033733368,-1.2579156160354614,1.195353627204895,-0.03337911143898964,-0.1516365259885788,0.2809567451477051
4.803376197814941,0.29812315106391907,-1.2602044343948364,1.1942092180252075,-0.03299763426184654,-0.15888457000255585,0.2817196846008301
4.823437929153442,0.29926756024360657,-1.261348843574524,1.1980239152908325,-0.032616160809993744,-0.16041046380996704,0.28477150201797485
4.843717098236084,0.30041199922561646,-1.261348843574524,1.19764244556427,-0.03376058489084244,-0.15850308537483215,0.28591591119766235
4.8638083934783936,0.29812315106391907,-1.259060025215149,1.1980239152908325,-0.03528648987412453,-0.15392538905143738,0.28706035017967224
4.883911371231079,0.29812315106391907,-1.255245327949524,1.19611656665802,-0.03528648987412453,-0.14286258816719055,0.28858625888824463
4.903955459594727,0.2939268946647644,-1.2533378601074219,1.19611656665802,-0.03681239113211632,-0.1333257108926773,0.28934919834136963
4.924047470092773,0.2946898639202118,-1.2518119812011719,1.1926833391189575,-0.037193864583969116,-0.13027389347553253,0.28896772861480713
4.94415807723999,0.2962157726287842,-1.2521934509277344,1.191157341003418,-0.03681239113211632,-0.135233074426651,0.2920195460319519
4.964197158813477,0.2965972423553467,-1.2533378601074219,1.1900129318237305,-0.03604944050312042,-0.14515145123004913,0.2935454249382019
4.984290599822998,0.30079346895217896,-1.2548638582229614,1.189631462097168,-0.03490501269698143,-0.15354390442371368,0.2946898639202118
5.004393577575684,0.29926756024360657,-1.2556267976760864,1.192301869392395,-0.03452353551983833,-0.15392538905143738,0.29850462079048157
5.024463891983032,0.29850462079048157,-1.2563897371292114,1.1926833391189575,-0.03528648987412453,-0.1508735716342926,0.30003052949905396
5.0446226596832275,0.29850462079048157,-1.2556267976760864,1.1926833391189575,-0.037193864583969116,-0.1497291475534439,0.30079346895217896
5.06467604637146,0.29812315106391907,-1.2548638582229614,1.1926833391189575,-0.03757534176111221,-0.14515145123004913,0.30079346895217896
5.084730386734009,0.29850462079048157,-1.254482388496399,1.1926833391189575,-0.03757534176111221,-0.14476996660232544,0.30155640840530396
5.104830026626587,0.2977416515350342,-1.2548638582229614,1.1926833391189575,-0.037193864583969116,-0.14553292095661163,0.30270084738731384
5.1248862743377686,0.29964902997016907,-1.2548638582229614,1.1919203996658325,-0.037193864583969116,-0.14553292095661163,0.30422675609588623
5.144941568374634,0.29888609051704407,-1.2556267976760864,1.1942092180252075,-0.03681239113211632,-0.1508735716342926,0.3076600432395935
5.165027379989624,0.29926756024360657,-1.2563897371292114,1.19306480884552,-0.03757534176111221,-0.1516365259885788,0.308041512966156
5.185099124908447,0.29888609051704407,-1.2556267976760864,1.19611656665802,-0.03757534176111221,-0.15392538905143738,0.309567391872406
5.205161094665527,0.2977416515350342,-1.255245327949524,1.1964980363845825,-0.03795681521296501,-0.15659570693969727,0.3110933005809784
5.2253594398498535,0.29888609051704407,-1.255245327949524,1.1957350969314575,-0.039101243019104004,-0.15545128285884857,0.3118562698364258
5.245471715927124,0.2977416515350342,-1.255245327949524,1.1964980363845825,-0.040627144277095795,-0.15621423721313477,0.3126192092895508
5.265533924102783,0.2977416515350342,-1.255245327949524,1.1949721574783325,-0.040627144277095795,-0.15506981313228607,0.31376364827156067
5.285691022872925,0.2977416515350342,-1.2556267976760864,1.195353627204895,-0.040245670825242996,-0.15392538905143738,0.31605249643325806
5.305782794952393,0.2965972423553467,-1.2556267976760864,1.19611656665802,-0.040627144277095795,-0.152399480342865,0.31757840514183044
5.3258583545684814,0.2965972423553467,-1.2556267976760864,1.1964980363845825,-0.04100862145423889,-0.15316243469715118,0.31910428404808044
5.345931768417358,0.2965972423553467,-1.255245327949524,1.1957350969314575,-0.04177157208323479,-0.15621423721313477,0.31986725330352783
5.366008043289185,0.2973601818084717,-1.2548638582229614,1.1949721574783325,-0.043678950518369675,-0.15621423721313477,0.32063019275665283
5.3860764503479,0.2958342730998993,-1.2548638582229614,1.19459068775177,-0.04329747334122658,-0.15774014592170715,0.3221561014652252
5.406134366989136,0.2950713336467743,-1.255245327949524,1.19306480884552,-0.04329747334122658,-0.15545128285884857,0.3236820101737976
5.426203012466431,0.2958342730998993,-1.2556267976760864,1.19459068775177,-0.04329747334122658,-0.15430685877799988,0.3263523280620575
5.446286916732788,0.2977416515350342,-1.255245327949524,1.191157341003418,-0.04329747334122658,-0.15468832850456238,0.32673379778862
5.4663615226745605,0.29888609051704407,-1.2548638582229614,1.191157341003418,-0.04406042397022247,-0.15506981313228607,0.3271152675151825
5.486712217330933,0.2973601818084717,-1.2533378601074219,1.190394401550293,-0.04444190114736557,-0.15659570693969727,0.3282597064971924
5.506798267364502,0.29812315106391907,-1.2533378601074219,1.190394401550293,-0.04482337832450867,-0.152399480342865,0.3282597064971924
5.526869773864746,0.2973601818084717,-1.2533378601074219,1.191157341003418,-0.04444190114736557,-0.1497291475534439,0.3286411762237549
5.546919822692871,0.2969787120819092,-1.2533378601074219,1.191157341003418,-0.04482337832450867,-0.1501106321811676,0.3290226459503174
5.567009925842285,0.29850462079048157,-1.2533378601074219,1.191157341003418,-0.04482337832450867,-0.1516365259885788,0.32978561520576477
5.58708119392395,0.30079346895217896,-1.2521934509277344,1.189631462097168,-0.04482337832450867,-0.15392538905143738,0.33054855465888977
5.6071577072143555,0.30155640840530396,-1.2525749206542969,1.1900129318237305,-0.045204851776361465,-0.15659570693969727,0.33131152391433716
5.627260446548462,0.30003052949905396,-1.2521934509277344,1.189631462097168,-0.04558632895350456,-0.15506981313228607,0.33283740282058716
5.647346019744873,0.30041199922561646,-1.2518119812011719,1.1892499923706055,-0.04634927958250046,-0.1516365259885788,0.33398184180259705
5.667423963546753,0.30041199922561646,-1.2506675720214844,1.1892499923706055,-0.04711223021149635,-0.1497291475534439,0.33398184180259705
5.687678337097168,0.30003052949905396,-1.2502861022949219,1.1892499923706055,-0.04787518084049225,-0.14782176911830902,0.33436331152915955
5.707850694656372,0.2973601818084717,-1.2499046325683594,1.1892499923706055,-0.04787518084049225,-0.14820325374603271,0.33474478125572205
5.7278807163238525,0.29850462079048157,-1.2499046325683594,1.188868522644043,-0.048256658017635345,-0.14820325374603271,0.33512628078460693
5.747932434082031,0.29888609051704407,-1.2502861022949219,1.188868522644043,-0.04787518084049225,-0.1527809500694275,0.33665215969085693
5.768036842346191,0.29964902997016907,-1.2502861022949219,1.1877241134643555,-0.048256658017635345,-0.15468832850456238,0.3381780683994293
5.788094997406006,0.2973601818084717,-1.2518119812011719,1.1884870529174805,-0.048638131469488144,-0.15659570693969727,0.3389410376548767
5.8081700801849365,0.2973601818084717,-1.2518119812011719,1.1884870529174805,-0.04901960864663124,-0.15735866129398346,0.3419928252696991
5.828275680541992,0.2962157726287842,-1.2529563903808594,1.1892499923706055,-0.04940108209848404,-0.15697719156742096,0.3427557647228241
5.848458528518677,0.29812315106391907,-1.2521934509277344,1.1892499923706055,-0.04940108209848404,-0.15697719156742096,0.3435187339782715
5.868445158004761,0.29926756024360657,-1.2521934509277344,1.188868522644043,-0.050164032727479935,-0.15774014592170715,0.344663143157959
5.888607025146484,0.29926756024360657,-1.2510490417480469,1.1884870529174805,-0.051689937710762024,-0.15697719156742096,0.344663143157959
5.908622980117798,0.29850462079048157,-1.2499046325683594,1.188105583190918,-0.05207141116261482,-0.152399480342865,0.344663143157959
5.928807258605957,0.2954528033733368,-1.2491416931152344,1.188105583190918,-0.051689937710762024,-0.14782176911830902,0.34504464268684387
5.948821067810059,0.2962157726287842,-1.2491416931152344,1.1877241134643555,-0.051689937710762024,-0.14591439068317413,0.344663143157959
5.968891620635986,0.2962157726287842,-1.2491416931152344,1.188105583190918,-0.051689937710762024,-0.152399480342865,0.34504464268684387
5.988988876342773,0.2943083941936493,-1.2491416931152344,1.1877241134643555,-0.05245288833975792,-0.15430685877799988,0.34618905186653137
6.00905179977417,0.2946898639202118,-1.2495231628417969,1.1869611740112305,-0.05245288833975792,-0.15468832850456238,0.34618905186653137
6.029142618179321,0.2958342730998993,-1.2506675720214844,1.1884870529174805,-0.05207141116261482,-0.16041046380996704,0.34809643030166626
6.049160718917847,0.2973601818084717,-1.2521934509277344,1.1869611740112305,-0.053215838968753815,-0.15888457000255585,0.34924086928367615
6.069971323013306,0.30003052949905396,-1.2518119812011719,1.188105583190918,-0.05207141116261482,-0.15774014592170715,0.35076677799224854
6.090094327926636,0.29888609051704407,-1.2506675720214844,1.188105583190918,-0.05283436179161072,-0.15545128285884857,0.35152971744537354
6.110137939453125,0.30231937766075134,-1.2487602233886719,1.185816764831543,-0.053215838968753815,-0.1489662081003189,0.35152971744537354
6.130198240280151,0.30384528636932373,-1.2460898160934448,1.185816764831543,-0.05283436179161072,-0.14476996660232544,0.35229265689849854
6.150288105010986,0.30155640840530396,-1.2438009977340698,1.1854352951049805,-0.053215838968753815,-0.14515145123004913,0.35191118717193604
6.170408725738525,0.30003052949905396,-1.2430380582809448,1.182383418083191,-0.05397878959774971,-0.13828489184379578,0.35152971744537354
6.190419435501099,0.30270084738731384,-1.2434195280075073,1.1827648878097534,-0.05359731614589691,-0.14515145123004913,0.35191118717193604
6.210512638092041,0.30422675609588623,-1.2441824674606323,1.1804760694503784,-0.05397878959774971,-0.152399480342865,0.3526741564273834
6.230586051940918,0.3057526648044586,-1.2453268766403198,1.1827648878097534,-0.05397878959774971,-0.16155488789081573,0.3530556261539459
6.250657081604004,0.30422675609588623,-1.2472343444824219,1.1820019483566284,-0.05359731614589691,-0.16155488789081573,0.3549630045890808
6.270858526229858,0.30498969554901123,-1.2487602233886719,1.182383418083191,-0.05664911866188049,-0.15774014592170715,0.3542000353336334
6.291001558303833,0.30308231711387634,-1.2479972839355469,1.1827648878097534,-0.05664911866188049,-0.15621423721313477,0.3549630045890808
6.31104302406311,0.30308231711387634,-1.2468528747558594,1.182383418083191,-0.05741206929087639,-0.1504921019077301,0.3549630045890808
6.331106662750244,0.29888609051704407,-1.2464714050292969,1.182383418083191,-0.05741206929087639,-0.1489662081003189,0.3549630045890808
6.351189851760864,0.29888609051704407,-1.2457083463668823,1.1820019483566284,-0.05741206929087639,-0.14705882966518402,0.3549630045890808
6.371259450912476,0.29850462079048157,-1.2472343444824219,1.183146357536316,-0.05741206929087639,-0.15316243469715118,0.3553444743156433
6.391324281692505,0.29964902997016907,-1.2476158142089844,1.182383418083191,-0.058175019919872284,-0.15506981313228607,0.3568703830242157
6.411419153213501,0.2962157726287842,-1.2495231628417969,1.1839094161987305,-0.05855649709701538,-0.16002899408340454,0.3580147922039032
6.431479454040527,0.2973601818084717,-1.2506675720214844,1.1839094161987305,-0.059319447726011276,-0.1653696447610855,0.3587777614593506
6.45180344581604,0.2950713336467743,-1.2525749206542969,1.185053825378418,-0.06008239835500717,-0.16079194843769073,0.3599221706390381
6.471963405609131,0.29850462079048157,-1.2537193298339844,1.185816764831543,-0.06008239835500717,-0.15964750945568085,0.3599221706390381
6.4920814037323,0.29888609051704407,-1.2541009187698364,1.185816764831543,-0.06046387553215027,-0.16002899408340454,0.3603036403656006
6.512513160705566,0.30079346895217896,-1.2525749206542969,1.185816764831543,-0.06046387553215027,-0.15812161564826965,0.3603036403656006
6.532635450363159,0.29964902997016907,-1.2510490417480469,1.185816764831543,-0.06046387553215027,-0.15621423721313477,0.3606851398944855
6.552689552307129,0.29926756024360657,-1.2491416931152344,1.185816764831543,-0.061226826161146164,-0.1497291475534439,0.3599221706390381
6.572788715362549,0.2973601818084717,-1.2476158142089844,1.185053825378418,-0.061226826161146164,-0.14782176911830902,0.3603036403656006
6.5928919315338135,0.2969787120819092,-1.2468528747558594,1.184290885925293,-0.06084534898400307,-0.1512550562620163,0.3603036403656006
6.613001108169556,0.2977416515350342,-1.2483787536621094,1.1835278272628784,-0.06084534898400307,-0.15659570693969727,0.3603036403656006
6.633035898208618,0.2977416515350342,-1.2495231628417969,1.1835278272628784,-0.06084534898400307,-0.16079194843769073,0.361066609621048
6.653139352798462,0.30193790793418884,-1.2510490417480469,1.182383418083191,-0.06084534898400307,-0.1672770231962204,0.3614480793476105
6.6731884479522705,0.30079346895217896,-1.2518119812011719,1.185053825378418,-0.06046387553215027,-0.1672770231962204,0.36297398805618286
6.693267822265625,0.30003052949905396,-1.2521934509277344,1.1846723556518555,-0.06084534898400307,-0.16193637251853943,0.36335545778274536
6.71336555480957,0.29888609051704407,-1.2510490417480469,1.1846723556518555,-0.06198977679014206,-0.15735866129398346,0.36335545778274536
6.733437538146973,0.30155640840530396,-1.2472343444824219,1.183146357536316,-0.06313420087099075,-0.15430685877799988,0.36297398805618286
6.753535032272339,0.29812315106391907,-1.2457083463668823,1.182383418083191,-0.06389715522527695,-0.1489662081003189,0.36335545778274536
6.77360463142395,0.2962157726287842,-1.2453268766403198,1.181620478630066,-0.06389715522527695,-0.14705882966518402,0.36297398805618286
6.7936906814575195,0.29812315106391907,-1.2472343444824219,1.183146357536316,-0.06389715522527695,-0.15354390442371368,0.36335545778274536
6.813776254653931,0.29926756024360657,-1.2499046325683594,1.182383418083191,-0.06427863240242004,-0.15774014592170715,0.36411839723587036
6.834097146987915,0.30231937766075134,-1.2514305114746094,1.1827648878097534,-0.06351567804813385,-0.1672770231962204,0.36449989676475525
6.8541765213012695,0.30422675609588623,-1.2525749206542969,1.182383418083191,-0.06427863240242004,-0.1676585078239441,0.36488136649131775
6.874257564544678,0.30460822582244873,-1.2533378601074219,1.1854352951049805,-0.06504157930612564,-0.1661325991153717,0.36640727519989014
6.894305944442749,0.30231937766075134,-1.2521934509277344,1.1854352951049805,-0.06733043491840363,-0.15964750945568085,0.36717021465301514
6.914443731307983,0.30231937766075134,-1.2487602233886719,1.181620478630066,-0.06885633617639542,-0.14782176911830902,0.36678874492645264
6.934507369995117,0.29926756024360657,-1.2460898160934448,1.1827648878097534,-0.06771191209554672,-0.14133669435977936,0.36717021465301514
6.954575300216675,0.2958342730998993,-1.2453268766403198,1.1820019483566284,-0.06809338182210922,-0.14019227027893066,0.36717021465301514
6.974661111831665,0.2969787120819092,-1.2460898160934448,1.181620478630066,-0.06809338182210922,-0.14400701224803925,0.36717021465301514
6.994744777679443,0.2969787120819092,-1.2479972839355469,1.1827648878097534,-0.06771191209554672,-0.15583276748657227,0.3686961233615875
7.01480507850647,0.30003052949905396,-1.2495231628417969,1.181620478630066,-0.06809338182210922,-0.16384375095367432,0.3686961233615875
7.03488826751709,0.29964902997016907,-1.2514305114746094,1.182383418083191,-0.06771191209554672,-0.1668955534696579,0.3706035017967224
7.054968357086182,0.30308231711387634,-1.2521934509277344,1.182383418083191,-0.06847485899925232,-0.1665140837430954,0.3706035017967224
7.0750415325164795,0.30384528636932373,-1.2521934509277344,1.184290885925293,-0.06847485899925232,-0.16231784224510193,0.3706035017967224
7.0951173305511475,0.30193790793418884,-1.2495231628417969,1.1839094161987305,-0.06923781335353851,-0.15430685877799988,0.3706035017967224
7.115196466445923,0.30079346895217896,-1.2468528747558594,1.1827648878097534,-0.07038223743438721,-0.14095520973205566,0.3706035017967224
7.135236740112305,0.29888609051704407,-1.2441824674606323,1.180857539176941,-0.0707637146115303,-0.14057374000549316,0.3706035017967224
7.155317306518555,0.2954528033733368,-1.2438009977340698,1.181620478630066,-0.07038223743438721,-0.14324407279491425,0.3702220320701599
7.175408363342285,0.2935454249382019,-1.2441824674606323,1.1804760694503784,-0.07000076025724411,-0.14782176911830902,0.3706035017967224
7.195465087890625,0.2950713336467743,-1.2460898160934448,1.1804760694503784,-0.06961929053068161,-0.15735866129398346,0.3713664412498474
7.2155373096466064,0.2977416515350342,-1.2487602233886719,1.1797131299972534,-0.06961929053068161,-0.17109178006649017,0.3717479109764099
7.2356178760528564,0.30193790793418884,-1.2510490417480469,1.179331660270691,-0.06961929053068161,-0.17795833945274353,0.3725108802318573
7.255664110183716,0.29964902997016907,-1.2521934509277344,1.1804760694503784,-0.06961929053068161,-0.17185473442077637,0.3740367889404297
7.275776147842407,0.30041199922561646,-1.2514305114746094,1.1804760694503784,-0.07038223743438721,-0.1646067053079605,0.3744182586669922
7.295856237411499,0.29888609051704407,-1.2499046325683594,1.1820019483566284,-0.07038223743438721,-0.15430685877799988,0.3744182586669922
7.315948247909546,0.2965972423553467,-1.2468528747558594,1.1804760694503784,-0.0707637146115303,-0.14438849687576294,0.3744182586669922
7.336033344268799,0.2935454249382019,-1.2434195280075073,1.180094599723816,-0.0707637146115303,-0.14400701224803925,0.3740367889404297
7.356100797653198,0.2924010157585144,-1.2418936491012573,1.1781872510910034,-0.07038223743438721,-0.14591439068317413,0.3744182586669922
7.3761820793151855,0.2927824854850769,-1.2430380582809448,1.1781872510910034,-0.0707637146115303,-0.15468832850456238,0.3744182586669922
7.396258354187012,0.2943083941936493,-1.2457083463668823,1.177805781364441,-0.07000076025724411,-0.1646067053079605,0.3759441375732422
7.416327714920044,0.29926756024360657,-1.2495231628417969,1.1781872510910034,-0.07000076025724411,-0.17490653693675995,0.3770885765552521
7.43638014793396,0.29888609051704407,-1.2510490417480469,1.178568720817566,-0.07000076025724411,-0.17223620414733887,0.37899595499038696
7.456469774246216,0.30003052949905396,-1.2491416931152344,1.1797131299972534,-0.07000076025724411,-0.15964750945568085,0.37899595499038696
7.476546287536621,0.30193790793418884,-1.2476158142089844,1.180094599723816,-0.0711451917886734,-0.152399480342865,0.37823301553726196
7.496614217758179,0.30308231711387634,-1.2441824674606323,1.180857539176941,-0.0715266615152359,-0.14591439068317413,0.37823301553726196
7.516703844070435,0.30193790793418884,-1.2392233610153198,1.180857539176941,-0.071908138692379,-0.14095520973205566,0.37823301553726196
7.536793231964111,0.29812315106391907,-1.2365529537200928,1.1758984327316284,-0.07381551712751389,-0.1359960287809372,0.3778515160083771
7.556907653808594,0.2973601818084717,-1.2350270748138428,1.1766613721847534,-0.07343403995037079,-0.1356145590543747,0.3774700462818146
7.577691316604614,0.29926756024360657,-1.2380788326263428,1.1781872510910034,-0.0715266615152359,-0.14782176911830902,0.37823301553726196
7.597771883010864,0.30041199922561646,-1.2418936491012573,1.1766613721847534,-0.0722896158695221,-0.15774014592170715,0.37861448526382446
7.617847919464111,0.30308231711387634,-1.2445639371871948,1.1758984327316284,-0.0707637146115303,-0.1684214472770691,0.37975889444351196
7.637920141220093,0.3065156042575836,-1.2476158142089844,1.1755168437957764,-0.0711451917886734,-0.17414358258247375,0.37975889444351196
7.65800142288208,0.3061341345310211,-1.2491416931152344,1.1789501905441284,-0.071908138692379,-0.17223620414733887,0.37937742471694946
7.6780760288238525,0.3057526648044586,-1.2472343444824219,1.1766613721847534,-0.07305257022380829,-0.15850308537483215,0.37937742471694946
7.698123931884766,0.30308231711387634,-1.2445639371871948,1.1774243116378784,-0.07457847148180008,-0.14705882966518402,0.37937742471694946
7.718211650848389,0.30079346895217896,-1.2403677701950073,1.1747539043426514,-0.07534141838550568,-0.14324407279491425,0.37861448526382446
7.738309860229492,0.29964902997016907,-1.2388418912887573,1.176279902458191,-0.07572289556264877,-0.14209964871406555,0.37823301553726196
7.758379220962524,0.2973601818084717,-1.2384604215621948,1.1766613721847534,-0.07343403995037079,-0.14744029939174652,0.37975889444351196
7.7784507274627686,0.2954528033733368,-1.2403677701950073,1.1758984327316284,-0.07457847148180008,-0.15735866129398346,0.37937742471694946
7.798570871353149,0.2969787120819092,-1.2430380582809448,1.176279902458191,-0.07343403995037079,-0.1668955534696579,0.37975889444351196
7.81865119934082,0.2977416515350342,-1.2460898160934448,1.176279902458191,-0.07343403995037079,-0.17643244564533234,0.38281071186065674
7.839017152786255,0.30041199922561646,-1.2499046325683594,1.1766613721847534,-0.07419699430465698,-0.1802472025156021,0.38281071186065674
7.859113931655884,0.29926756024360657,-1.2499046325683594,1.180094599723816,-0.07381551712751389,-0.17986571788787842,0.38319218158721924
7.879183769226074,0.29888609051704407,-1.2487602233886719,1.1781872510910034,-0.07534141838550568,-0.1684214472770691,0.38281071186065674
7.899240970611572,0.29888609051704407,-1.2457083463668823,1.178568720817566,-0.07495994865894318,-0.15621423721313477,0.38242924213409424
7.919340133666992,0.2946898639202118,-1.2411307096481323,1.177805781364441,-0.07534141838550568,-0.1512550562620163,0.38242924213409424
7.939414739608765,0.2924010157585144,-1.2373158931732178,1.1747539043426514,-0.07572289556264877,-0.14782176911830902,0.38166627287864685
7.959484100341797,0.2931639552116394,-1.2369344234466553,1.1743724346160889,-0.07534141838550568,-0.14705882966518402,0.38166627287864685
7.979628324508667,0.291638046503067,-1.2392233610153198,1.1758984327316284,-0.07495994865894318,-0.1504921019077301,0.38242924213409424
7.999674081802368,0.290875107049942,-1.2426565885543823,1.1758984327316284,-0.07495994865894318,-0.15697719156742096,0.38242924213409424
8.019732475280762,0.2939268946647644,-1.2457083463668823,1.1758984327316284,-0.07381551712751389,-0.1665140837430954,0.38281071186065674
8.039831638336182,0.29850462079048157,-1.2479972839355469,1.1781872510910034,-0.07343403995037079,-0.17376211285591125,0.38319218158721924
8.059898853302002,0.29926756024360657,-1.2479972839355469,1.1766613721847534,-0.07495994865894318,-0.1668955534696579,0.38242924213409424
8.079961061477661,0.30117493867874146,-1.2464714050292969,1.177042841911316,-0.07495994865894318,-0.16308079659938812,0.38242924213409424
8.100133180618286,0.30041199922561646,-1.2445639371871948,1.177805781364441,-0.07534141838550568,-0.15506981313228607,0.38204777240753174
8.120246171951294,0.29812315106391907,-1.2411307096481323,1.1739909648895264,-0.07724879682064056,-0.14667734503746033,0.38204777240753174
8.140305042266846,0.2958342730998993,-1.2380788326263428,1.1709392070770264,-0.07724879682064056,-0.14324407279491425,0.37975889444351196
8.160390138626099,0.2973601818084717,-1.2392233610153198,1.1697947978973389,-0.07648584991693497,-0.14553292095661163,0.37975889444351196
8.18049669265747,0.29964902997016907,-1.2407492399215698,1.1678873300552368,-0.07495994865894318,-0.1504921019077301,0.38014039397239685
8.200595378875732,0.30117493867874146,-1.2430380582809448,1.1682689189910889,-0.07381551712751389,-0.15926603972911835,0.38166627287864685
8.220733642578125,0.30384528636932373,-1.2445639371871948,1.1686503887176514,-0.07305257022380829,-0.16956588625907898,0.38281071186065674
8.24083399772644,0.3061341345310211,-1.2460898160934448,1.1701762676239014,-0.07419699430465698,-0.16994735598564148,0.38319218158721924
8.260946035385132,0.30498969554901123,-1.2453268766403198,1.1713206768035889,-0.07457847148180008,-0.1672770231962204,0.38319218158721924
8.2809739112854,0.30537116527557373,-1.2434195280075073,1.1713206768035889,-0.07534141838550568,-0.15888457000255585,0.38281071186065674
8.301060438156128,0.30155640840530396,-1.2407492399215698,1.1713206768035889,-0.07572289556264877,-0.14744029939174652,0.38281071186065674
8.321147918701172,0.30231937766075134,-1.2396048307418823,1.1697947978973389,-0.07534141838550568,-0.14629587531089783,0.38281071186065674
8.341171979904175,0.30003052949905396,-1.2392233610153198,1.1697947978973389,-0.07534141838550568,-0.14744029939174652,0.38281071186065674
8.361350297927856,0.30003052949905396,-1.2403677701950073,1.1697947978973389,-0.07534141838550568,-0.152399480342865,0.38319218158721924
8.381472110748291,0.30117493867874146,-1.2430380582809448,1.1713206768035889,-0.07495994865894318,-0.16002899408340454,0.38357365131378174
8.401530265808105,0.30346378684043884,-1.2460898160934448,1.1717021465301514,-0.07534141838550568,-0.1657511293888092,0.3854810297489166
8.421651124954224,0.3057526648044586,-1.2468528747558594,1.1724650859832764,-0.07534141838550568,-0.16956588625907898,0.3866254687309265
8.441737413406372,0.30460822582244873,-1.2468528747558594,1.1736094951629639,-0.07610437273979187,-0.1646067053079605,0.3858625292778015
8.461848258972168,0.30270084738731384,-1.2445639371871948,1.1736094951629639,-0.07724879682064056,-0.15430685877799988,0.386243999004364
8.484206438064575,0.29964902997016907,-1.2415121793746948,1.1732280254364014,-0.07724879682064056,-0.14438849687576294,0.3858625292778015
8.504290103912354,0.30308231711387634,-1.2403677701950073,1.1713206768035889,-0.07724879682064056,-0.14629587531089783,0.3858625292778015
8.524338483810425,0.30346378684043884,-1.2392233610153198,1.1705577373504639,-0.07724879682064056,-0.15354390442371368,0.386243999004364
8.544430017471313,0.29888609051704407,-1.2422751188278198,1.1709392070770264,-0.07724879682064056,-0.15774014592170715,0.3866254687309265
8.564558744430542,0.29812315106391907,-1.2468528747558594,1.1713206768035889,-0.07724879682064056,-0.15812161564826965,0.3866254687309265
8.584606409072876,0.30079346895217896,-1.2502861022949219,1.1724650859832764,-0.07686731964349747,-0.15850308537483215,0.3873884081840515
8.604699611663818,0.30193790793418884,-1.2514305114746094,1.1758984327316284,-0.07610437273979187,-0.16994735598564148,0.3881513774394989
8.624751091003418,0.3076600432395935,-1.2525749206542969,1.1758984327316284,-0.07763027399778366,-0.16956588625907898,0.3889143168926239
8.645017385482788,0.3084229826927185,-1.2506675720214844,1.177042841911316,-0.07991912961006165,-0.1680399775505066,0.3896772861480713
8.665132284164429,0.3057526648044586,-1.2468528747558594,1.1758984327316284,-0.08297093212604523,-0.16346226632595062,0.3892957866191864
8.685194253921509,0.30308231711387634,-1.2441824674606323,1.1751353740692139,-0.08487831056118011,-0.14820325374603271,0.3881513774394989
8.705280542373657,0.30231937766075134,-1.2438009977340698,1.1743724346160889,-0.08335240930318832,-0.14019227027893066,0.3885328471660614
8.725357055664062,0.30308231711387634,-1.2411307096481323,1.1736094951629639,-0.08373387902975082,-0.14362554252147675,0.3889143168926239
8.745429039001465,0.30498969554901123,-1.2418936491012573,1.1724650859832764,-0.08258945494890213,-0.14858472347259521,0.3889143168926239
8.765514612197876,0.30460822582244873,-1.2438009977340698,1.1736094951629639,-0.08144503086805344,-0.15812161564826965,0.3915846347808838
8.785568714141846,0.3057526648044586,-1.2453268766403198,1.1728465557098389,-0.08449683338403702,-0.16193637251853943,0.3927290737628937
8.805658340454102,0.3084229826927185,-1.2457083463668823,1.1739909648895264,-0.08411535620689392,-0.16193637251853943,0.3934920132160187
8.82571816444397,0.308041512966156,-1.2449454069137573,1.1732280254364014,-0.08411535620689392,-0.15774014592170715,0.39463645219802856
8.845804214477539,0.3076600432395935,-1.2445639371871948,1.1732280254364014,-0.08449683338403702,-0.1501106321811676,0.39425498247146606
8.865876913070679,0.30422675609588623,-1.2430380582809448,1.1736094951629639,-0.08449683338403702,-0.14095520973205566,0.39463645219802856
8.885927200317383,0.30346378684043884,-1.2418936491012573,1.1732280254364014,-0.08487831056118011,-0.13866636157035828,0.39387351274490356
8.906006813049316,0.30041199922561646,-1.2399863004684448,1.1732280254364014,-0.08449683338403702,-0.14248111844062805,0.39425498247146606
8.926093339920044,0.29926756024360657,-1.2396048307418823,1.1713206768035889,-0.08449683338403702,-0.14705882966518402,0.39425498247146606
8.946166515350342,0.30003052949905396,-1.2418936491012573,1.1717021465301514,-0.08411535620689392,-0.152399480342865,0.39501792192459106
8.96640920639038,0.30346378684043884,-1.2445639371871948,1.1713206768035889,-0.08373387902975082,-0.16384375095367432,0.39616236090660095
8.986523628234863,0.30498969554901123,-1.2476158142089844,1.1728465557098389,-0.08373387902975082,-0.17071031033992767,0.39692530035972595
9.006614923477173,0.3084229826927185,-1.2495231628417969,1.1732280254364014,-0.08373387902975082,-0.16384375095367432,0.39654383063316345
9.026674509048462,0.3099488914012909,-1.2499046325683594,1.1736094951629639,-0.08411535620689392,-0.16002899408340454,0.39730677008628845
9.046770334243774,0.3103303611278534,-1.2491416931152344,1.1739909648895264,-0.08525978773832321,-0.1504921019077301,0.39692530035972595
9.066829204559326,0.3084229826927185,-1.2468528747558594,1.1739909648895264,-0.08602273464202881,-0.14133669435977936,0.39692530035972595
9.086881399154663,0.3068970739841461,-1.2445639371871948,1.1728465557098389,-0.0864042118191719,-0.1333257108926773,0.39616236090660095
9.106970310211182,0.30498969554901123,-1.2434195280075073,1.1717021465301514,-0.0864042118191719,-0.1367589831352234,0.39616236090660095
9.127062559127808,0.30537116527557373,-1.2445639371871948,1.1717021465301514,-0.08602273464202881,-0.14324407279491425,0.39654383063316345
9.147116661071777,0.3057526648044586,-1.2464714050292969,1.1717021465301514,-0.0864042118191719,-0.15430685877799988,0.39730677008628845
9.167316675186157,0.3099488914012909,-1.2491416931152344,1.1717021465301514,-0.0864042118191719,-0.1665140837430954,0.39845120906829834
9.187427520751953,0.3099488914012909,-1.2506675720214844,1.1724650859832764,-0.0864042118191719,-0.1676585078239441,0.4003585875034332
9.20748496055603,0.3099488914012909,-1.2525749206542969,1.1739909648895264,-0.086785688996315,-0.16155488789081573,0.4015030264854431
9.22762131690979,0.3103303611278534,-1.2510490417480469,1.1736094951629639,-0.0875486359000206,-0.1520180106163025,0.4018844962120056
9.24770450592041,0.3076600432395935,-1.2483787536621094,1.1739909648895264,-0.08907453715801239,-0.13790340721607208,0.4015030264854431
9.267785787582397,0.30384528636932373,-1.2457083463668823,1.1736094951629639,-0.09021896868944168,-0.13065537810325623,0.4015030264854431
9.287834167480469,0.30422675609588623,-1.2445639371871948,1.1720836162567139,-0.09021896868944168,-0.12951095402240753,0.4007400572299957
9.307899475097656,0.30155640840530396,-1.2453268766403198,1.1728465557098389,-0.08983749151229858,-0.13904783129692078,0.4015030264854431
9.328007221221924,0.29850462079048157,-1.2464714050292969,1.1720836162567139,-0.08945601433515549,-0.14476996660232544,0.4015030264854431
9.348066091537476,0.2965972423553467,-1.2495231628417969,1.1717021465301514,-0.08869306743144989,-0.1516365259885788,0.4022659659385681
9.368149757385254,0.30003052949905396,-1.2525749206542969,1.1713206768035889,-0.08869306743144989,-0.15964750945568085,0.4045548141002655
9.388306379318237,0.30117493867874146,-1.254482388496399,1.1736094951629639,-0.0883115902543068,-0.17032882571220398,0.4053177833557129
9.408318519592285,0.30422675609588623,-1.255245327949524,1.1739909648895264,-0.08869306743144989,-0.1668955534696579,0.4053177833557129
9.428491115570068,0.30270084738731384,-1.2529563903808594,1.1747539043426514,-0.08945601433515549,-0.16155488789081573,0.404936283826828
9.44857931137085,0.30231937766075134,-1.2483787536621094,1.1736094951629639,-0.08983749151229858,-0.1493476778268814,0.404936283826828
9.468650817871094,0.30003052949905396,-1.2441824674606323,1.1720836162567139,-0.08983749151229858,-0.14171816408634186,0.404936283826828
9.488966226577759,0.2962157726287842,-1.2411307096481323,1.1709392070770264,-0.08983749151229858,-0.1363775134086609,0.404173344373703
9.509087324142456,0.29812315106391907,-1.2411307096481323,1.1678873300552368,-0.08945601433515549,-0.13790340721607208,0.404173344373703
9.529145956039429,0.2977416515350342,-1.2399863004684448,1.1682689189910889,-0.08907453715801239,-0.14744029939174652,0.4045548141002655
9.549347877502441,0.2965972423553467,-1.2418936491012573,1.1671243906021118,-0.0875486359000206,-0.1527809500694275,0.4053177833557129
9.569448709487915,0.30041199922561646,-1.2457083463668823,1.1671243906021118,-0.0875486359000206,-0.16041046380996704,0.404936283826828
9.589499950408936,0.30003052949905396,-1.2468528747558594,1.1713206768035889,-0.0871671661734581,-0.15964750945568085,0.4053177833557129
9.609618902206421,0.30308231711387634,-1.2483787536621094,1.1713206768035889,-0.0875486359000206,-0.15735866129398346,0.4053177833557129
9.62970232963562,0.30498969554901123,-1.2476158142089844,1.1713206768035889,-0.0883115902543068,-0.15659570693969727,0.404936283826828
9.649776458740234,0.3065156042575836,-1.2445639371871948,1.1713206768035889,-0.08907453715801239,-0.15354390442371368,0.404936283826828
9.669880151748657,0.30460822582244873,-1.2430380582809448,1.1709392070770264,-0.08869306743144989,-0.13866636157035828,0.4045548141002655
9.689980030059814,0.29888609051704407,-1.2399863004684448,1.1701762676239014,-0.08907453715801239,-0.13141833245754242,0.4045548141002655
9.710050344467163,0.2965972423553467,-1.2380788326263428,1.1686503887176514,-0.0883115902543068,-0.1325627565383911,0.404173344373703
9.730332851409912,0.2973601818084717,-1.2384604215621948,1.1686503887176514,-0.0879301130771637,-0.14019227027893066,0.404173344373703
9.75042176246643,0.29964902997016907,-1.2407492399215698,1.1697947978973389,-0.086785688996315,-0.1504921019077301,0.4053177833557129
9.770490407943726,0.29850462079048157,-1.2441824674606323,1.1705577373504639,-0.0871671661734581,-0.16308079659938812,0.404936283826828
9.790583610534668,0.30041199922561646,-1.2449454069137573,1.1697947978973389,-0.086785688996315,-0.1657511293888092,0.404936283826828
9.810678243637085,0.30003052949905396,-1.2479972839355469,1.1724650859832764,-0.086785688996315,-0.1661325991153717,0.404936283826828
9.830750465393066,0.30346378684043884,-1.2476158142089844,1.1724650859832764,-0.0871671661734581,-0.16002899408340454,0.4045548141002655
9.850812673568726,0.30384528636932373,-1.2472343444824219,1.1736094951629639,-0.0875486359000206,-0.1504921019077301,0.404173344373703
9.87090516090393,0.30384528636932373,-1.2453268766403198,1.1739909648895264,-0.0883115902543068,-0.14667734503746033,0.4045548141002655
9.891000032424927,0.30422675609588623,-1.2426565885543823,1.1724650859832764,-0.08945601433515549,-0.14019227027893066,0.4037918746471405
9.911057472229004,0.30117493867874146,-1.2411307096481323,1.1717021465301514,-0.08945601433515549,-0.13828489184379578,0.4037918746471405
9.93115234375,0.30231937766075134,-1.2407492399215698,1.1713206768035889,-0.08907453715801239,-0.14133669435977936,0.404173344373703
9.951241970062256,0.29926756024360657,-1.2434195280075073,1.1728465557098389,-0.08869306743144989,-0.1516365259885788,0.4045548141002655
9.97130823135376,0.30155640840530396,-1.2457083463668823,1.1736094951629639,-0.08869306743144989,-0.16002899408340454,0.4045548141002655
9.991391897201538,0.30117493867874146,-1.2479972839355469,1.1743724346160889,-0.08869306743144989,-0.1672770231962204,0.404936283826828
10.011513471603394,0.3057526648044586,-1.2502861022949219,1.1743724346160889,-0.08907453715801239,-0.17071031033992767,0.404936283826828
10.031580924987793,0.30537116527557373,-1.2502861022949219,1.1755168437957764,-0.08945601433515549,-0.1672770231962204,0.404936283826828
10.051771640777588,0.308041512966156,-1.2491416931152344,1.1732280254364014,-0.08983749151229858,-0.16155488789081573,0.404936283826828
10.071856498718262,0.3084229826927185,-1.2472343444824219,1.1732280254364014,-0.08983749151229858,-0.1527809500694275,0.404936283826828
10.091939210891724,0.308041512966156,-1.2453268766403198,1.1732280254364014,-0.09060044586658478,-0.14744029939174652,0.4045548141002655
10.112005949020386,0.3061341345310211,-1.2434195280075073,1.1720836162567139,-0.09060044586658478,-0.14248111844062805,0.4045548141002655
10.132189512252808,0.30537116527557373,-1.2418936491012573,1.1717021465301514,-0.09021896868944168,-0.14515145123004913,0.404173344373703
10.152202367782593,0.30498969554901123,-1.2438009977340698,1.1713206768035889,-0.08983749151229858,-0.15392538905143738,0.4045548141002655
10.172296285629272,0.30498969554901123,-1.2449454069137573,1.1713206768035889,-0.09021896868944168,-0.15812161564826965,0.404936283826828
10.192425012588501,0.3076600432395935,-1.2464714050292969,1.1709392070770264,-0.08983749151229858,-0.16994735598564148,0.4056992530822754
10.21246862411499,0.3076600432395935,-1.2479972839355469,1.1717021465301514,-0.09021896868944168,-0.17299915850162506,0.4060807228088379
10.232544660568237,0.3076600432395935,-1.2491416931152344,1.1732280254364014,-0.09060044586658478,-0.1672770231962204,0.4056992530822754
10.252621173858643,0.3061341345310211,-1.2472343444824219,1.1739909648895264,-0.09060044586658478,-0.15850308537483215,0.4064621925354004
10.272708892822266,0.30231937766075134,-1.2438009977340698,1.1736094951629639,-0.09212634712457657,-0.14782176911830902,0.4060807228088379
10.292770147323608,0.30041199922561646,-1.2399863004684448,1.1713206768035889,-0.09212634712457657,-0.14438849687576294,0.4056992530822754
10.312982082366943,0.30041199922561646,-1.2388418912887573,1.1705577373504639,-0.09174486994743347,-0.14820325374603271,0.4056992530822754
10.333125829696655,0.30079346895217896,-1.2411307096481323,1.1701762676239014,-0.09136339277029037,-0.1520180106163025,0.4056992530822754
10.353185892105103,0.30384528636932373,-1.2441824674606323,1.1724650859832764,-0.09060044586658478,-0.16041046380996704,0.4060807228088379
10.373449563980103,0.30308231711387634,-1.2479972839355469,1.1728465557098389,-0.08983749151229858,-0.16918440163135529,0.4083695709705353
10.39357590675354,0.3065156042575836,-1.2514305114746094,1.1728465557098389,-0.08983749151229858,-0.17147326469421387,0.4087510406970978
10.41365361213684,0.3076600432395935,-1.2518119812011719,1.1739909648895264,-0.09021896868944168,-0.16918440163135529,0.40951400995254517
10.433705568313599,0.308804452419281,-1.2499046325683594,1.1728465557098389,-0.09021896868944168,-0.16422522068023682,0.40989547967910767
10.45380973815918,0.3065156042575836,-1.2468528747558594,1.1728465557098389,-0.09060044586658478,-0.1516365259885788,0.40951400995254517
10.473901271820068,0.30460822582244873,-1.2434195280075073,1.1717021465301514,-0.09060044586658478,-0.14553292095661163,0.40951400995254517
10.49395489692688,0.30384528636932373,-1.2411307096481323,1.1697947978973389,-0.09060044586658478,-0.14476996660232544,0.4087510406970978
10.514066457748413,0.29926756024360657,-1.2407492399215698,1.1709392070770264,-0.09060044586658478,-0.1504921019077301,0.4091325104236603
10.534138679504395,0.29926756024360657,-1.2411307096481323,1.1682689189910889,-0.09098191559314728,-0.1527809500694275,0.4091325104236603
10.554338455200195,0.2977416515350342,-1.2441824674606323,1.1720836162567139,-0.08945601433515549,-0.16231784224510193,0.40989547967910767
10.57443618774414,0.29850462079048157,-1.2479972839355469,1.1736094951629639,-0.08945601433515549,-0.17071031033992767,0.41142138838768005
10.594513654708862,0.30308231711387634,-1.2506675720214844,1.1755168437957764,-0.08945601433515549,-0.17681391537189484,0.41103988885879517
10.61456561088562,0.30498969554901123,-1.2499046325683594,1.1743724346160889,-0.08983749151229858,-0.17566949129104614,0.41218432784080505
10.634660482406616,0.30231937766075134,-1.2472343444824219,1.1747539043426514,-0.09098191559314728,-0.16956588625907898,0.41180285811424255
10.654809474945068,0.30270084738731384,-1.2460898160934448,1.1736094951629639,-0.09098191559314728,-0.15354390442371368,0.41142138838768005
10.674927711486816,0.30270084738731384,-1.2445639371871948,1.1736094951629639,-0.09060044586658478,-0.1501106321811676,0.41142138838768005
10.695022344589233,0.2977416515350342,-1.2418936491012573,1.1732280254364014,-0.09060044586658478,-0.14591439068317413,0.40951400995254517
10.715103387832642,0.29812315106391907,-1.2376973628997803,1.1697947978973389,-0.09021896868944168,-0.1493476778268814,0.4087510406970978
10.735161304473877,0.2954528033733368,-1.2384604215621948,1.1705577373504639,-0.08945601433515549,-0.15583276748657227,0.4091325104236603
10.755286455154419,0.2958342730998993,-1.2403677701950073,1.1717021465301514,-0.08907453715801239,-0.16269932687282562,0.4087510406970978
10.775326490402222,0.2935454249382019,-1.2430380582809448,1.1732280254364014,-0.08983749151229858,-0.1672770231962204,0.4087510406970978
10.795417308807373,0.2931639552116394,-1.2441824674606323,1.1728465557098389,-0.08983749151229858,-0.1676585078239441,0.4091325104236603
10.815475702285767,0.2977416515350342,-1.2460898160934448,1.1732280254364014,-0.08983749151229858,-0.16994735598564148,0.4087510406970978
10.83555006980896,0.29964902997016907,-1.2472343444824219,1.1743724346160889,-0.08983749151229858,-0.16956588625907898,0.4087510406970978
10.855612993240356,0.29926756024360657,-1.2457083463668823,1.1739909648895264,-0.08983749151229858,-0.16346226632595062,0.4083695709705353
10.875753402709961,0.30003052949905396,-1.2441824674606323,1.1736094951629639,-0.08945601433515549,-0.1520180106163025,0.4076066315174103
10.895853757858276,0.29850462079048157,-1.2411307096481323,1.1736094951629639,-0.08983749151229858,-0.14629587531089783,0.4076066315174103
10.915901899337769,0.29850462079048157,-1.2388418912887573,1.1717021465301514,-0.08983749151229858,-0.14400701224803925,0.4060807228088379
10.936074495315552,0.2977416515350342,-1.2376973628997803,1.1705577373504639,-0.08945601433515549,-0.14858472347259521,0.4053177833557129
10.956172943115234,0.2969787120819092,-1.2388418912887573,1.1709392070770264,-0.0883115902543068,-0.15316243469715118,0.404936283826828
10.976227760314941,0.2973601818084717,-1.2415121793746948,1.1701762676239014,-0.0879301130771637,-0.15735866129398346,0.4056992530822754
10.996313333511353,0.30231937766075134,-1.2438009977340698,1.1705577373504639,-0.086785688996315,-0.1684214472770691,0.4056992530822754
11.016419649124146,0.30193790793418884,-1.2453268766403198,1.1724650859832764,-0.086785688996315,-0.17223620414733887,0.4056992530822754
11.03646993637085,0.30460822582244873,-1.2468528747558594,1.1724650859832764,-0.0871671661734581,-0.1668955534696579,0.4053177833557129
11.05655837059021,0.3057526648044586,-1.2449454069137573,1.1728465557098389,-0.0871671661734581,-0.16269932687282562,0.4053177833557129
11.076625347137451,0.30308231711387634,-1.2411307096481323,1.1728465557098389,-0.0883115902543068,-0.1520180106163025,0.404936283826828
11.096780776977539,0.30041199922561646,-1.2384604215621948,1.1709392070770264,-0.0883115902543068,-0.14248111844062805,0.404936283826828
11.116806030273438,0.29964902997016907,-1.2369344234466553,1.1694133281707764,-0.0883115902543068,-0.14591439068317413,0.404173344373703
11.136880159378052,0.2977416515350342,-1.2392233610153198,1.1701762676239014,-0.0879301130771637,-0.1512550562620163,0.4045548141002655
11.156939506530762,0.29964902997016907,-1.2399863004684448,1.1697947978973389,-0.0871671661734581,-0.15964750945568085,0.4045548141002655
11.177270412445068,0.30003052949905396,-1.2430380582809448,1.1697947978973389,-0.0871671661734581,-0.16956588625907898,0.404936283826828
11.197360754013062,0.30498969554901123,-1.2457083463668823,1.1694133281707764,-0.0864042118191719,-0.17757686972618103,0.4053177833557129
11.21743655204773,0.30498969554901123,-1.2468528747558594,1.1717021465301514,-0.086785688996315,-0.17223620414733887,0.404936283826828
11.237517595291138,0.30384528636932373,-1.2449454069137573,1.1713206768035889,-0.0871671661734581,-0.1661325991153717,0.4053177833557129
11.257599592208862,0.30346378684043884,-1.2426565885543823,1.1713206768035889,-0.0879301130771637,-0.15506981313228607,0.404936283826828
11.277673721313477,0.30193790793418884,-1.2392233610153198,1.1717021465301514,-0.08983749151229858,-0.14629587531089783,0.4045548141002655
11.2978835105896,0.2977416515350342,-1.2369344234466553,1.1701762676239014,-0.09021896868944168,-0.13981078565120697,0.403410404920578
11.317970037460327,0.29850462079048157,-1.2361714839935303,1.1686503887176514,-0.08983749151229858,-0.14057374000549316,0.4037918746471405
11.338019847869873,0.2954528033733368,-1.2380788326263428,1.1694133281707764,-0.08907453715801239,-0.14667734503746033,0.4037918746471405
11.358148574829102,0.2943083941936493,-1.2399863004684448,1.1694133281707764,-0.08907453715801239,-0.15316243469715118,0.404173344373703
11.378237009048462,0.2962157726287842,-1.2422751188278198,1.1694133281707764,-0.0875486359000206,-0.16041046380996704,0.4045548141002655
11.398316860198975,0.29926756024360657,-1.2453268766403198,1.1705577373504639,-0.0875486359000206,-0.1680399775505066,0.4045548141002655
11.4183828830719,0.30308231711387634,-1.2457083463668823,1.1709392070770264,-0.0879301130771637,-0.17223620414733887,0.4045548141002655
11.438483715057373,0.30079346895217896,-1.2453268766403198,1.1720836162567139,-0.0879301130771637,-0.16880293190479279,0.4045548141002655
11.458562850952148,0.29964902997016907,-1.2449454069137573,1.1728465557098389,-0.08907453715801239,-0.15888457000255585,0.404173344373703
11.478652477264404,0.2969787120819092,-1.2438009977340698,1.1736094951629639,-0.08869306743144989,-0.1497291475534439,0.4037918746471405
11.498716115951538,0.2962157726287842,-1.2422751188278198,1.1728465557098389,-0.08907453715801239,-0.14553292095661163,0.4030289053916931
11.518794059753418,0.2935454249382019,-1.2407492399215698,1.1728465557098389,-0.0883115902543068,-0.14820325374603271,0.4030289053916931
11.538889408111572,0.2935454249382019,-1.2407492399215698,1.1713206768035889,-0.0879301130771637,-0.15468832850456238,0.4030289053916931
11.55941653251648,0.2931639552116394,-1.2430380582809448,1.1724650859832764,-0.0871671661734581,-0.16002899408340454,0.4030289053916931
11.579506635665894,0.2950713336467743,-1.2460898160934448,1.1724650859832764,-0.0871671661734581,-0.17032882571220398,0.4030289053916931
11.599647760391235,0.30003052949905396,-1.2476158142089844,1.1724650859832764,-0.0871671661734581,-0.17452506721019745,0.4030289053916931
11.61964750289917,0.29850462079048157,-1.2495231628417969,1.1743724346160889,-0.086785688996315,-0.17452506721019745,0.4030289053916931
11.639781951904297,0.29812315106391907,-1.2499046325683594,1.1755168437957764,-0.0871671661734581,-0.16384375095367432,0.4026474356651306
11.659822225570679,0.2969787120819092,-1.2483787536621094,1.1766613721847534,-0.0871671661734581,-0.1493476778268814,0.4015030264854431
11.679879426956177,0.2958342730998993,-1.2449454069137573,1.1755168437957764,-0.0871671661734581,-0.14515145123004913,0.4003585875034332
11.699966430664062,0.29812315106391907,-1.2434195280075073,1.1736094951629639,-0.0871671661734581,-0.1493476778268814,0.39921414852142334
11.72003960609436,0.2965972423553467,-1.2415121793746948,1.1736094951629639,-0.0871671661734581,-0.15545128285884857,0.39883267879486084
11.740115642547607,0.2965972423553467,-1.2426565885543823,1.1728465557098389,-0.086785688996315,-0.15697719156742096,0.39921414852142334
11.7601900100708,0.30003052949905396,-1.2449454069137573,1.1736094951629639,-0.086785688996315,-0.16231784224510193,0.39883267879486084
11.780279159545898,0.30079346895217896,-1.2464714050292969,1.1743724346160889,-0.08602273464202881,-0.1665140837430954,0.39921414852142334
11.800413370132446,0.30231937766075134,-1.2476158142089844,1.176279902458191,-0.08602273464202881,-0.16422522068023682,0.39883267879486084
11.820564031600952,0.30308231711387634,-1.2479972839355469,1.177805781364441,-0.08602273464202881,-0.16041046380996704,0.39883267879486084
11.840657234191895,0.30041199922561646,-1.2445639371871948,1.178568720817566,-0.0864042118191719,-0.1501106321811676,0.39845120906829834
11.860875606536865,0.29964902997016907,-1.2422751188278198,1.176279902458191,-0.086785688996315,-0.14744029939174652,0.39730677008628845
11.880996704101562,0.29850462079048157,-1.2399863004684448,1.1751353740692139,-0.0871671661734581,-0.14858472347259521,0.39692530035972595
11.901079416275024,0.2977416515350342,-1.2418936491012573,1.1736094951629639,-0.086785688996315,-0.14667734503746033,0.39654383063316345
11.921195983886719,0.2973601818084717,-1.2418936491012573,1.176279902458191,-0.08602273464202881,-0.1527809500694275,0.39654383063316345
11.941602945327759,0.29964902997016907,-1.2453268766403198,1.1774243116378784,-0.08525978773832321,-0.15850308537483215,0.39692530035972595
11.96171259880066,0.30270084738731384,-1.2464714050292969,1.1774243116378784,-0.08487831056118011,-0.1668955534696579,0.39730677008628845
11.98179817199707,0.30346378684043884,-1.2472343444824219,1.177805781364441,-0.08449683338403702,-0.16994735598564148,0.39768826961517334
12.002072095870972,0.30117493867874146,-1.2460898160934448,1.1774243116378784,-0.08602273464202881,-0.16918440163135529,0.39730677008628845
12.022169589996338,0.2973601818084717,-1.2453268766403198,1.177805781364441,-0.0864042118191719,-0.15583276748657227,0.39654383063316345
12.042288064956665,0.29812315106391907,-1.2430380582809448,1.1751353740692139,-0.08602273464202881,-0.15354390442371368,0.39616236090660095
12.062323570251465,0.29926756024360657,-1.2418936491012573,1.1751353740692139,-0.08602273464202881,-0.15697719156742096,0.39654383063316345
12.08241081237793,0.29850462079048157,-1.2418936491012573,1.1751353740692139,-0.08602273464202881,-0.15430685877799988,0.39654383063316345
12.10248351097107,0.29812315106391907,-1.2418936491012573,1.1751353740692139,-0.08602273464202881,-0.15545128285884857,0.39654383063316345
12.12255597114563,0.2973601818084717,-1.2418936491012573,1.1743724346160889,-0.08602273464202881,-0.15735866129398346,0.39654383063316345
12.142727613449097,0.2973601818084717,-1.2415121793746948,1.1743724346160889,-0.08602273464202881,-0.15774014592170715,0.39692530035972595
12.162827968597412,0.2969787120819092,-1.2411307096481323,1.1743724346160889,-0.08602273464202881,-0.15774014592170715,0.39654383063316345
12.182917833328247,0.2969787120819092,-1.2407492399215698,1.1743724346160889,-0.08602273464202881,-0.15774014592170715,0.39654383063316345
12.202969789505005,0.2965972423553467,-1.2403677701950073,1.1743724346160889,-0.08602273464202881,-0.15621423721313477,0.39654383063316345
12.223057985305786,0.2962157726287842,-1.2396048307418823,1.1743724346160889,-0.0864042118191719,-0.15583276748657227,0.39654383063316345
12.24318265914917,0.2962157726287842,-1.2396048307418823,1.1739909648895264,-0.0864042118191719,-0.15583276748657227,0.39654383063316345
12.263276815414429,0.2958342730998993,-1.2396048307418823,1.1736094951629639,-0.0864042118191719,-0.15506981313228607,0.39654383063316345
12.283373594284058,0.2950713336467743,-1.2392233610153198,1.1736094951629639,-0.0864042118191719,-0.15545128285884857,0.39654383063316345
12.303449392318726,0.2946898639202118,-1.2384604215621948,1.1736094951629639,-0.0864042118191719,-0.15697719156742096,0.39654383063316345
12.323500871658325,0.2943083941936493,-1.2384604215621948,1.1736094951629639,-0.086785688996315,-0.15735866129398346,0.39654383063316345
12.343596935272217,0.2931639552116394,-1.2380788326263428,1.1736094951629639,-0.086785688996315,-0.15735866129398346,0.39654383063316345
12.363672733306885,0.2931639552116394,-1.2373158931732178,1.1736094951629639,-0.0871671661734581,-0.15735866129398346,0.39654383063316345
12.383740663528442,0.2931639552116394,-1.2373158931732178,1.1736094951629639,-0.0871671661734581,-0.15735866129398346,0.39616236090660095
12.40381383895874,0.2927824854850769,-1.2373158931732178,1.1732280254364014,-0.0879301130771637,-0.15659570693969727,0.39616236090660095
12.423895835876465,0.2924010157585144,-1.2365529537200928,1.1732280254364014,-0.0883115902543068,-0.15621423721313477,0.39616236090660095
12.44396448135376,0.2924010157585144,-1.2365529537200928,1.1732280254364014,-0.0883115902543068,-0.15621423721313477,0.39616236090660095
12.464654684066772,0.2920195460319519,-1.2365529537200928,1.1728465557098389,-0.08869306743144989,-0.15659570693969727,0.39616236090660095
12.484738826751709,0.2912565767765045,-1.2361714839935303,1.1724650859832764,-0.08907453715801239,-0.15621423721313477,0.39616236090660095
12.504809141159058,0.2912565767765045,-1.2354085445404053,1.1720836162567139,-0.08907453715801239,-0.15659570693969727,0.39578089118003845
12.524850845336914,0.2904936373233795,-1.2354085445404053,1.1717021465301514,-0.08907453715801239,-0.15697719156742096,0.39578089118003845
12.544942617416382,0.290112167596817,-1.2350270748138428,1.1717021465301514,-0.08945601433515549,-0.15735866129398346,0.39578089118003845
12.565011978149414,0.290112167596817,-1.2342641353607178,1.1713206768035889,-0.08945601433515549,-0.15735866129398346,0.39578089118003845
12.585079669952393,0.28973066806793213,-1.2342641353607178,1.1713206768035889,-0.08945601433515549,-0.15735866129398346,0.39578089118003845
12.60515832901001,0.28934919834136963,-1.2338826656341553,1.1713206768035889,-0.08983749151229858,-0.15697719156742096,0.39539939165115356
12.625246286392212,0.28896772861480713,-1.2331197261810303,1.1713206768035889,-0.08983749151229858,-0.15621423721313477,0.39501792192459106
12.645291805267334,0.28896772861480713,-1.2331197261810303,1.1713206768035889,-0.08983749151229858,-0.15659570693969727,0.39501792192459106
12.665578842163086,0.28820478916168213,-1.2327382564544678,1.1713206768035889,-0.09021896868944168,-0.15659570693969727,0.39463645219802856
12.685694456100464,0.28782328963279724,-1.2323567867279053,1.1713206768035889,-0.09060044586658478,-0.15697719156742096,0.39425498247146606
12.705753803253174,0.28706035017967224,-1.2323567867279053,1.1709392070770264,-0.09021896868944168,-0.15774014592170715,0.39425498247146606
12.725939273834229,0.28706035017967224,-1.2323567867279053,1.1709392070770264,-0.09060044586658478,-0.15774014592170715,0.39425498247146606
12.746034145355225,0.28629741072654724,-1.2315938472747803,1.1701762676239014,-0.09060044586658478,-0.15735866129398346,0.39425498247146606
12.766111850738525,0.28591591119766235,-1.2312123775482178,1.1701762676239014,-0.09098191559314728,-0.15735866129398346,0.39387351274490356
12.786163091659546,0.28591591119766235,-1.2308309078216553,1.1701762676239014,-0.09098191559314728,-0.15735866129398346,0.39387351274490356
12.806252479553223,0.28553444147109985,-1.2304493188858032,1.1701762676239014,-0.09136339277029037,-0.15735866129398346,0.3934920132160187
12.826355457305908,0.28515297174453735,-1.2300678491592407,1.1697947978973389,-0.09136339277029037,-0.15697719156742096,0.3934920132160187
12.846426010131836,0.28477150201797485,-1.2300678491592407,1.1697947978973389,-0.09212634712457657,-0.15735866129398346,0.3934920132160187
12.866510152816772,0.28400853276252747,-1.2296863794326782,1.1694133281707764,-0.09250781685113907,-0.15697719156742096,0.3934920132160187
12.886581659317017,0.28400853276252747,-1.2289234399795532,1.1690318584442139,-0.09288929402828217,-0.15735866129398346,0.3934920132160187
12.9066321849823,0.28324559330940247,-1.2289234399795532,1.1690318584442139,-0.09327077120542526,-0.15735866129398346,0.3934920132160187
12.926729679107666,0.28286412358283997,-1.2285419702529907,1.1690318584442139,-0.09327077120542526,-0.15774014592170715,0.3934920132160187
12.946810007095337,0.28286412358283997,-1.2277790307998657,1.1686503887176514,-0.09365224838256836,-0.15774014592170715,0.3931105434894562
12.966869592666626,0.28286412358283997,-1.2277790307998657,1.1686503887176514,-0.09403372555971146,-0.15774014592170715,0.3931105434894562
12.986949443817139,0.28248265385627747,-1.2270160913467407,1.1682689189910889,-0.09441519528627396,-0.15735866129398346,0.3931105434894562
13.007005453109741,0.2821011543273926,-1.2266346216201782,1.1678873300552368,-0.09403372555971146,-0.15697719156742096,0.3931105434894562
13.027073383331299,0.2821011543273926,-1.2262531518936157,1.1678873300552368,-0.09441519528627396,-0.15697719156742096,0.3927290737628937
13.047152280807495,0.2813382148742676,-1.2258716821670532,1.1678873300552368,-0.09441519528627396,-0.15735866129398346,0.3927290737628937
13.067230463027954,0.2805752754211426,-1.2254902124404907,1.1678873300552368,-0.09441519528627396,-0.15774014592170715,0.3927290737628937
13.087279558181763,0.2801937758922577,-1.2254902124404907,1.1678873300552368,-0.09517814964056015,-0.15774014592170715,0.3927290737628937
13.107364892959595,0.2798123061656952,-1.2247272729873657,1.1678873300552368,-0.09517814964056015,-0.15774014592170715,0.3927290737628937
13.127504348754883,0.2794308364391327,-1.2243458032608032,1.1675058603286743,-0.09555962681770325,-0.15812161564826965,0.3927290737628937
13.147505760192871,0.2786678969860077,-1.2243458032608032,1.1675058603286743,-0.09632257372140884,-0.15774014592170715,0.3923476040363312
13.167585134506226,0.2786678969860077,-1.2239643335342407,1.1671243906021118,-0.09632257372140884,-0.15774014592170715,0.3923476040363312
13.187674760818481,0.2786678969860077,-1.2235828638076782,1.1671243906021118,-0.09670405089855194,-0.15774014592170715,0.3923476040363312
13.207751989364624,0.2782863974571228,-1.2235828638076782,1.1671243906021118,-0.09708552807569504,-0.15774014592170715,0.3919661343097687
13.227931022644043,0.2779049277305603,-1.2228199243545532,1.1667429208755493,-0.09708552807569504,-0.15774014592170715,0.3919661343097687
13.248096704483032,0.2775234580039978,-1.2224383354187012,1.1663614511489868,-0.09708552807569504,-0.15774014592170715,0.3919661343097687
13.268123626708984,0.2767605185508728,-1.2220568656921387,1.1663614511489868,-0.09746700525283813,-0.15774014592170715,0.3915846347808838
13.288177967071533,0.2763790488243103,-1.2216753959655762,1.1659799814224243,-0.09746700525283813,-0.15774014592170715,0.3912031650543213
13.30827522277832,0.2759975492954254,-1.2216753959655762,1.1659799814224243,-0.09746700525283813,-0.15812161564826965,0.3908216953277588
13.328455686569214,0.2759975492954254,-1.2212939262390137,1.1659799814224243,-0.09784847497940063,-0.15774014592170715,0.3908216953277588
13.348522186279297,0.2756160795688629,-1.2205309867858887,1.1659799814224243,-0.09746700525283813,-0.15812161564826965,0.3904402256011963
13.368613004684448,0.2756160795688629,-1.2201495170593262,1.1655985116958618,-0.09784847497940063,-0.15774014592170715,0.3900587558746338
13.388731002807617,0.2752346098423004,-1.2197680473327637,1.1655985116958618,-0.09822995215654373,-0.15774014592170715,0.3896772861480713
13.408761024475098,0.2748531401157379,-1.2193865776062012,1.1652170419692993,-0.09822995215654373,-0.15774014592170715,0.3896772861480713
13.42885446548462,0.2740901708602905,-1.2190051078796387,1.1652170419692993,-0.09822995215654373,-0.15774014592170715,0.3896772861480713
13.448922872543335,0.273708701133728,-1.2186236381530762,1.1648355722427368,-0.09861142933368683,-0.15774014592170715,0.3896772861480713
13.469058275222778,0.2733272314071655,-1.2182421684265137,1.1648355722427368,-0.09861142933368683,-0.15774014592170715,0.3896772861480713
13.489096641540527,0.2725642919540405,-1.2182421684265137,1.1648355722427368,-0.09861142933368683,-0.15812161564826965,0.3892957866191864
13.509165525436401,0.27180132269859314,-1.2178606986999512,1.1644541025161743,-0.09899290651082993,-0.15850308537483215,0.3892957866191864
13.529249668121338,0.27141985297203064,-1.2174792289733887,1.1640726327896118,-0.09937438368797302,-0.15812161564826965,0.3892957866191864
13.549376010894775,0.27141985297203064,-1.2174792289733887,1.1640726327896118,-0.09937438368797302,-0.15812161564826965,0.3892957866191864
13.569494485855103,0.27103838324546814,-1.2167162895202637,1.1640726327896118,-0.10013733059167862,-0.15812161564826965,0.3892957866191864
13.58962631225586,0.27065691351890564,-1.2163348197937012,1.1636911630630493,-0.10013733059167862,-0.15774014592170715,0.3892957866191864
13.6096510887146,0.27027541399002075,-1.2159533500671387,1.1636911630630493,-0.10090028494596481,-0.15774014592170715,0.3892957866191864
13.62973141670227,0.26989394426345825,-1.2151904106140137,1.1636911630630493,-0.10128175467252731,-0.15812161564826965,0.3889143168926239
13.649814128875732,0.26951247453689575,-1.2144273519515991,1.1633096933364868,-0.10166323184967041,-0.15812161564826965,0.3889143168926239
13.669909477233887,0.26913100481033325,-1.2144273519515991,1.1633096933364868,-0.10166323184967041,-0.15812161564826965,0.3889143168926239
13.690002202987671,0.26874953508377075,-1.2140458822250366,1.1629282236099243,-0.10166323184967041,-0.15774014592170715,0.3889143168926239
13.710062265396118,0.26836803555488586,-1.2136644124984741,1.1629282236099243,-0.10204470902681351,-0.15812161564826965,0.3885328471660614
13.730561256408691,0.26836803555488586,-1.2132829427719116,1.1629282236099243,-0.10204470902681351,-0.15850308537483215,0.3885328471660614
13.750655174255371,0.26798656582832336,-1.2129014730453491,1.1629282236099243,-0.10204470902681351,-0.15850308537483215,0.3885328471660614
13.770776510238647,0.26760509610176086,-1.2125200033187866,1.1629282236099243,-0.1028076633810997,-0.15812161564826965,0.3881513774394989
13.79080867767334,0.26760509610176086,-1.2121385335922241,1.1625467538833618,-0.1031891331076622,-0.15812161564826965,0.3881513774394989
13.810899496078491,0.26684215664863586,-1.2113755941390991,1.1621652841567993,-0.1039520874619484,-0.15812161564826965,0.3881513774394989
13.830970764160156,0.266460657119751,-1.2109941244125366,1.1617838144302368,-0.10433356463909149,-0.15812161564826965,0.3877699077129364
13.851250648498535,0.265697717666626,-1.2109941244125366,1.1617838144302368,-0.10433356463909149,-0.15812161564826965,0.3877699077129364
13.87134051322937,0.264934778213501,-1.2102311849594116,1.1614023447036743,-0.10471503436565399,-0.15850308537483215,0.3873884081840515
13.891417741775513,0.2641718089580536,-1.2098497152328491,1.1610208749771118,-0.10471503436565399,-0.15812161564826965,0.3873884081840515
13.911472082138062,0.2641718089580536,-1.2094682455062866,1.1610208749771118,-0.10471503436565399,-0.15888457000255585,0.387006938457489
13.931560039520264,0.2637903392314911,-1.2090867757797241,1.1610208749771118,-0.10509651154279709,-0.15888457000255585,0.3866254687309265
13.951788902282715,0.2637903392314911,-1.2083238363265991,1.1610208749771118,-0.10509651154279709,-0.15888457000255585,0.3866254687309265
13.971800804138184,0.2634088695049286,-1.2079423666000366,1.1610208749771118,-0.10509651154279709,-0.15850308537483215,0.386243999004364
13.991944551467896,0.2634088695049286,-1.2079423666000366,1.1610208749771118,-0.10547798871994019,-0.15812161564826965,0.386243999004364
14.011988162994385,0.2630273997783661,-1.2075608968734741,1.1610208749771118,-0.10547798871994019,-0.15812161564826965,0.386243999004364
14.032047033309937,0.2622644305229187,-1.2071794271469116,1.1606394052505493,-0.10547798871994019,-0.15812161564826965,0.386243999004364
14.052132844924927,0.2618829607963562,-1.2067978382110596,1.1598763465881348,-0.10585946589708328,-0.15888457000255585,0.386243999004364
14.072221517562866,0.2615014910697937,-1.2060348987579346,1.1598763465881348,-0.10585946589708328,-0.15888457000255585,0.3858625292778015
14.092289686203003,0.2615014910697937,-1.2060348987579346,1.1594948768615723,-0.10624094307422638,-0.15926603972911835,0.3858625292778015
14.112393856048584,0.2611200213432312,-1.205653429031372,1.1594948768615723,-0.10662241280078888,-0.15926603972911835,0.3858625292778015
14.132506847381592,0.2611200213432312,-1.204890489578247,1.1591134071350098,-0.10700388997793198,-0.15888457000255585,0.3858625292778015
14.152618169784546,0.2607385218143463,-1.204890489578247,1.1591134071350098,-0.10738536715507507,-0.15888457000255585,0.3854810297489166
14.172704219818115,0.2603570520877838,-1.204127550125122,1.1591134071350098,-0.10814831405878067,-0.15812161564826965,0.3854810297489166
14.192801475524902,0.2595941126346588,-1.2037460803985596,1.1591134071350098,-0.10814831405878067,-0.15812161564826965,0.3854810297489166
14.212865352630615,0.2592126429080963,-1.2037460803985596,1.1591134071350098,-0.10852979123592377,-0.15850308537483215,0.3854810297489166
14.232993602752686,0.2588311731815338,-1.2029831409454346,1.1591134071350098,-0.10891126841306686,-0.15888457000255585,0.3854810297489166
14.25306749343872,0.2580682039260864,-1.202601671218872,1.1587319374084473,-0.10891126841306686,-0.15964750945568085,0.3854810297489166
14.273157596588135,0.2573052644729614,-1.202601671218872,1.1587319374084473,-0.10891126841306686,-0.16002899408340454,0.3854810297489166
14.293403625488281,0.2569237947463989,-1.201838731765747,1.1587319374084473,-0.10929274559020996,-0.16002899408340454,0.3850995600223541
14.313501596450806,0.2569237947463989,-1.2014572620391846,1.1575875282287598,-0.10929274559020996,-0.16002899408340454,0.3850995600223541
