liuyurong129/humanoid-gym/humanoid/data/actual_q_20250522-035003.csv
timestamp,joint_1,joint_2,joint_3,joint_4,joint_5,joint_6
5.078315734863281e-05,0.00019073777366429567,0.1665140837430954,-0.08258945494890213,-0.00019073777366429567,-0.00019073777366429567,0.00019073777366429567
0.02013254165649414,0.000572213320992887,0.14515145123004913,-0.07381551712751389,-0.00019073777366429567,-0.00019073777366429567,0.00019073777366429567
0.04020428657531738,-0.00019073777366429567,0.12302586436271667,-0.06427863240242004,-0.00019073777366429567,0.002861066721379757,0.00019073777366429567
0.060283660888671875,-0.00019073777366429567,0.10852979123592377,-0.057793546468019485,-0.00019073777366429567,0.0013351644156500697,0.00019073777366429567
0.08036446571350098,-0.00019073777366429567,0.09746700525283813,-0.05092698708176613,-0.00019073777366429567,0.00019073777366429567,0.00019073777366429567
0.10055661201477051,0.00019073777366429567,0.0879301130771637,-0.04558632895350456,-0.00019073777366429567,0.00019073777366429567,0.00019073777366429567
0.12067866325378418,0.0024795911740511656,0.08220797777175903,-0.04100862145423889,-0.000572213320992887,-0.00019073777366429567,0.00019073777366429567
0.1408686637878418,0.00476844422519207,0.08068207651376724,-0.040627144277095795,-0.000572213320992887,-0.000572213320992887,0.00019073777366429567
0.1609814167022705,0.0078202486038208,0.07839322835206985,-0.04100862145423889,-0.000572213320992887,-0.0009536888683214784,0.00019073777366429567
0.18102002143859863,0.009727626107633114,0.07495994865894318,-0.04100862145423889,-0.000572213320992887,0.00019073777366429567,-0.00019073777366429567
0.2011580467224121,0.01201647985726595,0.0722896158695221,-0.04100862145423889,-0.0009536888683214784,0.000572213320992887,-0.00019073777366429567
0.22125005722045898,0.014686808921396732,0.0711451917886734,-0.040627144277095795,-0.0009536888683214784,0.0009536888683214784,-0.000572213320992887
0.24135422706604004,0.015449759550392628,0.07038223743438721,-0.040245670825242996,-0.0013351644156500697,0.0013351644156500697,-0.0009536888683214784
0.26143813133239746,0.01735713705420494,0.06923781335353851,-0.0394827201962471,-0.001716639962978661,0.001716639962978661,-0.0013351644156500697
0.28153467178344727,0.01926451548933983,0.06771191209554672,-0.039101243019104004,-0.0020981156267225742,0.0009536888683214784,-0.0024795911740511656
0.30165886878967285,0.021171892061829567,0.06656748056411743,-0.039101243019104004,-0.002861066721379757,0.000572213320992887,-0.004005493130534887
0.3217031955718994,0.02384222112596035,0.06351567804813385,-0.039101243019104004,-0.0032425422687083483,0.000572213320992887,-0.004386968910694122
0.3417856693267822,0.025749599561095238,0.06198977679014206,-0.038719769567251205,-0.0036240178160369396,0.00019073777366429567,-0.00476844422519207
0.36195874214172363,0.02841992862522602,0.05970092490315437,-0.038719769567251205,-0.004005493130534887,-0.000572213320992887,-0.005531395319849253
0.3820784091949463,0.030708782374858856,0.05703059583902359,-0.03833829239010811,-0.00476844422519207,0.00019073777366429567,-0.00667582219466567
0.40214991569519043,0.03223468363285065,0.0555046908557415,-0.03795681521296501,-0.005912871100008488,0.00019073777366429567,-0.007438773289322853
0.4222226142883301,0.034142062067985535,0.053215838968753815,-0.03757534176111221,-0.007057297509163618,0.000572213320992887,-0.0078202486038208
0.44232845306396484,0.037193864583969116,0.05054550990462303,-0.03681239113211632,-0.007438773289322853,0.0009536888683214784,-0.008201723918318748
0.4624006748199463,0.038719769567251205,0.048256658017635345,-0.03681239113211632,-0.0078202486038208,0.0020981156267225742,-0.00858320016413927
0.48247551918029785,0.04100862145423889,0.04596780240535736,-0.03681239113211632,-0.0078202486038208,0.0020981156267225742,-0.008964675478637218
0.5025954246520996,0.04329747334122658,0.04406042397022247,-0.03643091395497322,-0.00858320016413927,0.0020981156267225742,-0.009346150793135166
0.5226137638092041,0.04482337832450867,0.04139009863138199,-0.03643091395497322,-0.009346150793135166,0.001716639962978661,-0.010490577667951584
0.5427403450012207,0.04634927958250046,0.039101243019104004,-0.035667963325977325,-0.010490577667951584,0.001716639962978661,-0.01125352829694748
0.5630879402160645,0.048256658017635345,0.037193864583969116,-0.03528648987412453,-0.010872052982449532,0.0020981156267225742,-0.01201647985726595
0.5832200050354004,0.05130846053361893,0.034142062067985535,-0.03452353551983833,-0.01125352829694748,0.0013351644156500697,-0.012779430486261845
0.6033685207366943,0.053215838968753815,0.03185320645570755,-0.034142062067985535,-0.011635004542768002,0.001716639962978661,-0.013923857361078262
0.623549222946167,0.0551232174038887,0.02880140393972397,-0.03376058489084244,-0.01201647985726595,0.0020981156267225742,-0.014686808921396732
0.6436059474945068,0.05703059583902359,0.02689402550458908,-0.03337911143898964,-0.013160906732082367,0.0020981156267225742,-0.01506828423589468
0.6646935939788818,0.05970092490315437,0.024605173617601395,-0.03299763426184654,-0.01430533267557621,0.0024795911740511656,-0.015449759550392628
0.6848907470703125,0.06160829961299896,0.02231631986796856,-0.032616160809993744,-0.015449759550392628,0.0020981156267225742,-0.016212711110711098
0.7049121856689453,0.06351567804813385,0.019645990803837776,-0.032616160809993744,-0.015449759550392628,0.0024795911740511656,-0.016594186425209045
0.7249953746795654,0.06580453366041183,0.016975661739706993,-0.03223468363285065,-0.01583123579621315,0.0024795911740511656,-0.01735713705420494
0.7450757026672363,0.06809338182210922,0.01506828423589468,-0.03147173300385475,-0.016594186425209045,0.0020981156267225742,-0.01888304017484188
0.7651302814483643,0.0715266615152359,0.012397955171763897,-0.031090257689356804,-0.018120087683200836,0.0024795911740511656,-0.019645990803837776
0.7852215766906738,0.07381551712751389,0.008964675478637218,-0.030708782374858856,-0.018501564860343933,0.0024795911740511656,-0.02079041674733162
0.8054008483886719,0.07534141838550568,0.00667582219466567,-0.03032730519771576,-0.01888304017484188,0.0032425422687083483,-0.02231631986796856
0.8253893852233887,0.07801175117492676,0.0032425422687083483,-0.029564354568719864,-0.01926451548933983,0.0032425422687083483,-0.023079270496964455
0.845484733581543,0.08068207651376724,-0.00019073777366429567,-0.02880140393972397,-0.020027466118335724,0.0032425422687083483,-0.023460745811462402
0.8656260967254639,0.08297093212604523,-0.0036240178160369396,-0.02841992862522602,-0.02040894143283367,0.002861066721379757,-0.02384222112596035
0.88568115234375,0.08602273464202881,-0.0078202486038208,-0.027656977996230125,-0.021553369238972664,0.0032425422687083483,-0.025749599561095238
0.9057748317718506,0.08869306743144989,-0.011635004542768002,-0.02689402550458908,-0.022697795182466507,0.002861066721379757,-0.026512550190091133
0.9258339405059814,0.09060044586658478,-0.014686808921396732,-0.026512550190091133,-0.023079270496964455,0.0032425422687083483,-0.02689402550458908
0.9459514617919922,0.09441519528627396,-0.01926451548933983,-0.026131074875593185,-0.02384222112596035,0.002861066721379757,-0.028038453310728073
0.966012716293335,0.09670405089855194,-0.023079270496964455,-0.025749599561095238,-0.024986648932099342,0.0032425422687083483,-0.02880140393972397
0.9863405227661133,0.10013733059167862,-0.02880140393972397,-0.024605173617601395,-0.026131074875593185,0.0032425422687083483,-0.030708782374858856
1.0064234733581543,0.1031891331076622,-0.03337911143898964,-0.02384222112596035,-0.026512550190091133,0.0036240178160369396,-0.031090257689356804
1.0264744758605957,0.10471503436565399,-0.03490501269698143,-0.023460745811462402,-0.02689402550458908,0.0036240178160369396,-0.03185320645570755
1.0465636253356934,0.10776684433221817,-0.039101243019104004,-0.023079270496964455,-0.027656977996230125,0.0036240178160369396,-0.03299763426184654
1.0666797161102295,0.11043716967105865,-0.04406042397022247,-0.02193484455347061,-0.02880140393972397,0.0036240178160369396,-0.03376058489084244
1.0867185592651367,0.11348897218704224,-0.04940108209848404,-0.021553369238972664,-0.029564354568719864,0.0036240178160369396,-0.034142062067985535
1.1068265438079834,0.11692225188016891,-0.053215838968753815,-0.02040894143283367,-0.03032730519771576,0.0036240178160369396,-0.03490501269698143
1.1268551349639893,0.1203555315732956,-0.0558861680328846,-0.020027466118335724,-0.031090257689356804,0.0036240178160369396,-0.03528648987412453
1.1469829082489014,0.12378881871700287,-0.06046387553215027,-0.01926451548933983,-0.03185320645570755,0.0036240178160369396,-0.03643091395497322
1.167036533355713,0.12531471252441406,-0.06542305648326874,-0.01888304017484188,-0.03337911143898964,0.004386968910694122,-0.03795681521296501
1.187143087387085,0.12836651504039764,-0.0715266615152359,-0.018120087683200836,-0.034142062067985535,0.00476844422519207,-0.038719769567251205
1.2072575092315674,0.13141833245754242,-0.07610437273979187,-0.016975661739706993,-0.03452353551983833,0.00476844422519207,-0.039101243019104004
1.2273201942443848,0.1340886503458023,-0.07915617525577545,-0.016212711110711098,-0.035667963325977325,0.00476844422519207,-0.040627144277095795
1.2474873065948486,0.1371404528617859,-0.08525978773832321,-0.01506828423589468,-0.037193864583969116,0.004386968910694122,-0.04139009863138199
1.267648696899414,0.14019227027893066,-0.09098191559314728,-0.013923857361078262,-0.03795681521296501,0.0036240178160369396,-0.042153049260377884
1.2876367568969727,0.14324407279491425,-0.09746700525283813,-0.013160906732082367,-0.03833829239010811,0.0032425422687083483,-0.04291599988937378
1.3077452182769775,0.14591439068317413,-0.1028076633810997,-0.011635004542768002,-0.0394827201962471,0.004005493130534887,-0.04406042397022247
1.3278818130493164,0.14820325374603271,-0.10585946589708328,-0.010490577667951584,-0.04177157208323479,0.00476844422519207,-0.04558632895350456
1.347919225692749,0.1516365259885788,-0.11081864684820175,-0.009727626107633114,-0.042153049260377884,0.005149920005351305,-0.046730753034353256
1.3680622577667236,0.15430685877799988,-0.1184481605887413,-0.008201723918318748,-0.04406042397022247,0.004386968910694122,-0.04940108209848404
1.3881464004516602,0.15697719156742096,-0.12569619715213776,-0.007438773289322853,-0.045204851776361465,0.0036240178160369396,-0.049782559275627136
1.4082543849945068,0.16041046380996704,-0.13141833245754242,-0.006294346414506435,-0.04558632895350456,0.0036240178160369396,-0.05054550990462303
1.4283814430236816,0.16308079659938812,-0.1359960287809372,-0.005531395319849253,-0.046730753034353256,0.004005493130534887,-0.05207141116261482
1.4485063552856445,0.1668955534696579,-0.14057374000549316,-0.004005493130534887,-0.04787518084049225,0.0036240178160369396,-0.05283436179161072
1.4686062335968018,0.16994735598564148,-0.14744029939174652,-0.0024795911740511656,-0.04901960864663124,0.004005493130534887,-0.05359731614589691
1.488745927810669,0.17223620414733887,-0.15545128285884857,-0.0013351644156500697,-0.049782559275627136,0.004005493130534887,-0.0551232174038887
1.5088179111480713,0.17490653693675995,-0.16422522068023682,0.00019073777366429567,-0.05092698708176613,0.004005493130534887,-0.05703059583902359
1.528890609741211,0.17719538509845734,-0.17032882571220398,0.0024795911740511656,-0.05245288833975792,0.004005493130534887,-0.057793546468019485
1.5490155220031738,0.1806286722421646,-0.17528800666332245,0.0036240178160369396,-0.053215838968753815,0.004005493130534887,-0.059319447726011276
1.56911301612854,0.1848248988389969,-0.1817730963230133,0.005912871100008488,-0.05397878959774971,0.002861066721379757,-0.06008239835500717
1.5891814231872559,0.18711376190185547,-0.19130998849868774,0.008201723918318748,-0.0555046908557415,0.0032425422687083483,-0.06084534898400307
1.609260082244873,0.18978407979011536,-0.20199130475521088,0.009727626107633114,-0.05664911866188049,0.0032425422687083483,-0.06160829961299896
1.6294200420379639,0.19169145822525024,-0.21038375794887543,0.011635004542768002,-0.057793546468019485,0.004005493130534887,-0.06275273114442825
1.649498701095581,0.19474326074123383,-0.2157244235277176,0.013542382046580315,-0.06008239835500717,0.004005493130534887,-0.06427863240242004
1.6697502136230469,0.1974135935306549,-0.22220951318740845,0.015449759550392628,-0.06046387553215027,0.002861066721379757,-0.06542305648326874
1.6898834705352783,0.200083926320076,-0.23365376889705658,0.01926451548933983,-0.06198977679014206,0.0024795911740511656,-0.06771191209554672
1.709914207458496,0.20351719856262207,-0.2462424635887146,0.02231631986796856,-0.06389715522527695,0.0024795911740511656,-0.06809338182210922
1.730008602142334,0.20618753135204315,-0.25577935576438904,0.025749599561095238,-0.06466010212898254,0.0020981156267225742,-0.06923781335353851
1.7500762939453125,0.20962081849575043,-0.2607385218143463,0.02727550081908703,-0.06656748056411743,0.0024795911740511656,-0.0715266615152359
1.7701702117919922,0.2134355753660202,-0.26913100481033325,0.02994582988321781,-0.06809338182210922,0.002861066721379757,-0.07305257022380829
1.7902896404266357,0.2161058932542801,-0.28248265385627747,0.03337911143898964,-0.07000076025724411,0.002861066721379757,-0.07572289556264877
1.8104102611541748,0.21877622604370117,-0.2946898639202118,0.03604944050312042,-0.0715266615152359,0.0024795911740511656,-0.07648584991693497
1.8304939270019531,0.22068360447883606,-0.30422675609588623,0.040245670825242996,-0.0722896158695221,0.0036240178160369396,-0.07801175117492676
1.8506104946136475,0.22259098291397095,-0.3099488914012909,0.04253452271223068,-0.07381551712751389,0.0032425422687083483,-0.07915617525577545
1.870689868927002,0.22411687672138214,-0.31681543588638306,0.04558632895350456,-0.07534141838550568,0.002861066721379757,-0.07991912961006165
1.8907923698425293,0.22564278542995453,-0.3278782367706299,0.049782559275627136,-0.07610437273979187,0.001716639962978661,-0.08106355369091034
1.9108693599700928,0.22678720951080322,-0.3381780683994293,0.05245288833975792,-0.07724879682064056,0.0013351644156500697,-0.08297093212604523
1.9314351081848145,0.2286945879459381,-0.34885939955711365,0.0558861680328846,-0.07915617525577545,0.0009536888683214784,-0.08411535620689392
1.9515297412872314,0.230601966381073,-0.3557259440422058,0.059319447726011276,-0.07953765243291855,0.000572213320992887,-0.08564125746488571
1.9715864658355713,0.23212787508964539,-0.3603036403656006,0.06198977679014206,-0.08182650804519653,0.0009536888683214784,-0.0864042118191719
1.9916787147521973,0.23403525352478027,-0.36602577567100525,0.06580453366041183,-0.08297093212604523,0.000572213320992887,-0.0871671661734581
2.011780261993408,0.23479819297790527,-0.3751811981201172,0.06885633617639542,-0.08411535620689392,0.0009536888683214784,-0.0883115902543068
2.0320427417755127,0.23594263195991516,-0.3843366205692291,0.071908138692379,-0.08525978773832321,0.0013351644156500697,-0.09021896868944168
2.0521717071533203,0.23785001039505005,-0.3892957866191864,0.07610437273979187,-0.086785688996315,0.00019073777366429567,-0.09136339277029037
2.072237491607666,0.23937590420246124,-0.3934920132160187,0.07839322835206985,-0.0883115902543068,0.000572213320992887,-0.09365224838256836
2.0923380851745605,0.24090181291103363,-0.4003585875034332,0.08258945494890213,-0.09021896868944168,0.00019073777366429567,-0.09403372555971146
2.1125006675720215,0.24166475236415863,-0.4076066315174103,0.08564125746488571,-0.09174486994743347,0.00019073777366429567,-0.09517814964056015
2.132720708847046,0.24280919134616852,-0.41409170627593994,0.08945601433515549,-0.09441519528627396,0.0013351644156500697,-0.09670405089855194
2.1528127193450928,0.2443350851535797,-0.4182879328727722,0.09365224838256836,-0.09555962681770325,0.000572213320992887,-0.09861142933368683
2.173008680343628,0.2458609938621521,-0.4217212200164795,0.09670405089855194,-0.09746700525283813,0.00019073777366429567,-0.10051880776882172
2.1930272579193115,0.2473868876695633,-0.42629891633987427,0.10051880776882172,-0.09861142933368683,-0.00019073777366429567,-0.10204470902681351
2.2131032943725586,0.2481498420238495,-0.43125811219215393,0.1039520874619484,-0.09937438368797302,0.00019073777366429567,-0.1028076633810997
2.2332448959350586,0.24929426610469818,-0.4362172782421112,0.10662241280078888,-0.10090028494596481,0.000572213320992887,-0.10471503436565399
2.2533276081085205,0.2500572204589844,-0.4404135048389435,0.11081864684820175,-0.1024261862039566,0.000572213320992887,-0.10585946589708328
2.2734596729278564,0.25120165944099426,-0.44308385252952576,0.11425192654132843,-0.1039520874619484,0.00019073777366429567,-0.10700388997793198
2.293475866317749,0.25196459889411926,-0.44537270069122314,0.11692225188016891,-0.10509651154279709,0.00019073777366429567,-0.10891126841306686
2.3135714530944824,0.25272753834724426,-0.4484245181083679,0.12149996310472488,-0.10624094307422638,0.00019073777366429567,-0.11005569249391556
2.3336691856384277,0.25425344705581665,-0.4503318965435028,0.12455176562070847,-0.10700388997793198,-0.00019073777366429567,-0.11234454810619354
2.353764295578003,0.25425344705581665,-0.4526207447052002,0.12836651504039764,-0.10929274559020996,0.00019073777366429567,-0.11310750246047974
2.3739407062530518,0.25463491678237915,-0.4545281231403351,0.1325627565383911,-0.11043716967105865,0.00019073777366429567,-0.11425192654132843
2.394012689590454,0.25539788603782654,-0.45681697130203247,0.1367589831352234,-0.11272602528333664,-0.00019073777366429567,-0.11615930497646332
2.4140610694885254,0.25654229521751404,-0.46063172817230225,0.14286258816719055,-0.11425192654132843,-0.0009536888683214784,-0.1180666834115982
2.4342119693756104,0.2573052644729614,-0.4648279547691345,0.14629587531089783,-0.11615930497646332,-0.000572213320992887,-0.1199740618467331
2.45424485206604,0.2580682039260864,-0.4686427116394043,0.1504921019077301,-0.11768520623445511,0.00019073777366429567,-0.12073700875043869
2.474329948425293,0.2584496736526489,-0.4716945290565491,0.15430685877799988,-0.1199740618467331,-0.000572213320992887,-0.12149996310472488
2.4943974018096924,0.2595941126346588,-0.47474631667137146,0.15774014592170715,-0.12149996310472488,-0.00019073777366429567,-0.12378881871700287
2.5144453048706055,0.2615014910697937,-0.4797055125236511,0.16346226632595062,-0.12417028844356537,-0.00019073777366429567,-0.12569619715213776
2.534623861312866,0.2626459002494812,-0.4839017391204834,0.1680399775505066,-0.12493324279785156,-0.000572213320992887,-0.12874799966812134
2.554924249649048,0.2637903392314911,-0.4877164959907532,0.17223620414733887,-0.12760357558727264,-0.000572213320992887,-0.12951095402240753
2.5750200748443604,0.2645532786846161,-0.49191272258758545,0.17795833945274353,-0.12951095402240753,-0.000572213320992887,-0.13218127191066742
2.595116376876831,0.266460657119751,-0.49420157074928284,0.182917520403862,-0.13141833245754242,-0.000572213320992887,-0.1340886503458023
2.6153807640075684,0.26836803555488586,-0.4968718886375427,0.18787670135498047,-0.1325627565383911,-0.00019073777366429567,-0.13790340721607208
2.6354689598083496,0.26913100481033325,-0.4999237060546875,0.19436179101467133,-0.134470134973526,-0.0013351644156500697,-0.13981078565120697
2.6555399894714355,0.26951247453689575,-0.5033569931983948,0.1981765478849411,-0.1359960287809372,-0.000572213320992887,-0.14057374000549316
2.675628662109375,0.27027541399002075,-0.506790280342102,0.20389868319034576,-0.1371404528617859,0.000572213320992887,-0.14286258816719055
2.695727825164795,0.27103838324546814,-0.5102235674858093,0.20809490978717804,-0.13942931592464447,-0.00019073777366429567,-0.14476996660232544
2.7158026695251465,0.27141985297203064,-0.5125123858451843,0.21076524257659912,-0.14057374000549316,0.00019073777366429567,-0.14667734503746033
2.7358996868133545,0.27218279242515564,-0.5148012638092041,0.2149614691734314,-0.14248111844062805,-0.0009536888683214784,-0.14744029939174652
2.7559549808502197,0.27218279242515564,-0.5163271427154541,0.21686884760856628,-0.14400701224803925,-0.000572213320992887,-0.1493476778268814
2.776120662689209,0.272945761680603,-0.5189974904060364,0.22106507420539856,-0.14744029939174652,-0.00019073777366429567,-0.1516365259885788
2.7962498664855957,0.2740901708602905,-0.5212863087654114,0.22526131570339203,-0.1508735716342926,-0.0009536888683214784,-0.15468832850456238
2.8163001537323,0.2756160795688629,-0.5243381261825562,0.2283131182193756,-0.1520180106163025,-0.00019073777366429567,-0.15774014592170715
2.836390733718872,0.2767605185508728,-0.5277714133262634,0.23403525352478027,-0.15468832850456238,-0.00019073777366429567,-0.15926603972911835
2.8564553260803223,0.2767605185508728,-0.5296788215637207,0.23670557141304016,-0.15697719156742096,-0.000572213320992887,-0.16346226632595062
2.8765370845794678,0.2771419882774353,-0.5323491096496582,0.24052032828330994,-0.15888457000255585,0.000572213320992887,-0.1661325991153717
2.896599292755127,0.2771419882774353,-0.5357823967933655,0.2458609938621521,-0.16002899408340454,0.00019073777366429567,-0.1672770231962204
2.9166488647460938,0.2779049277305603,-0.5373083353042603,0.248531311750412,-0.16193637251853943,0.00019073777366429567,-0.16918440163135529
2.9368104934692383,0.2790493667125702,-0.5399786233901978,0.25387197732925415,-0.16422522068023682,-0.000572213320992887,-0.17147326469421387
2.956930637359619,0.2790493667125702,-0.5430304408073425,0.2573052644729614,-0.1661325991153717,-0.0009536888683214784,-0.17338064312934875
2.9781370162963867,0.2801937758922577,-0.5468451976776123,0.2622644305229187,-0.16880293190479279,-0.000572213320992887,-0.17605096101760864
2.9982752799987793,0.2817196846008301,-0.5514228940010071,0.26798656582832336,-0.17147326469421387,-0.00019073777366429567,-0.17948424816131592
3.018308401107788,0.28324559330940247,-0.5540932416915894,0.27180132269859314,-0.17490653693675995,-0.00019073777366429567,-0.1836804747581482
3.038409471511841,0.28439003229141235,-0.5575265288352966,0.2767605185508728,-0.17757686972618103,0.000572213320992887,-0.18635080754756927
3.058511972427368,0.28515297174453735,-0.5609598159790039,0.28248265385627747,-0.17986571788787842,0.00019073777366429567,-0.19016556441783905
3.078571081161499,0.28553444147109985,-0.5643930435180664,0.28591591119766235,-0.1825360506772995,-0.00019073777366429567,-0.19245441257953644
3.0986578464508057,0.28629741072654724,-0.5682078003883362,0.290875107049942,-0.1848248988389969,-0.00019073777366429567,-0.19359883666038513
3.1187827587127686,0.28744181990623474,-0.572022557258606,0.2946898639202118,-0.18711376190185547,-0.0009536888683214784,-0.1962691694498062
3.13881516456604,0.28820478916168213,-0.5746929049491882,0.29888609051704407,-0.18825818598270416,-0.000572213320992887,-0.1989395022392273
3.1588945388793945,0.28896772861480713,-0.578507661819458,0.30308231711387634,-0.19169145822525024,0.00019073777366429567,-0.20084688067436218
3.1789653301239014,0.28973066806793213,-0.5815594792366028,0.308041512966156,-0.19436179101467133,-0.00019073777366429567,-0.20504310727119446
3.1990325450897217,0.2904936373233795,-0.5842298269271851,0.3114747703075409,-0.1977950781583786,-0.00019073777366429567,-0.20885786414146423
3.2191274166107178,0.290875107049942,-0.5872815847396851,0.31681543588638306,-0.20084688067436218,0.00019073777366429567,-0.21114671230316162
3.2391951084136963,0.2912565767765045,-0.5895704627037048,0.31986725330352783,-0.20389868319034576,-0.00019073777366429567,-0.2149614691734314
3.259464979171753,0.291638046503067,-0.5933852195739746,0.3248264193534851,-0.20771344006061554,-0.00019073777366429567,-0.21801327168941498
3.279498815536499,0.291638046503067,-0.5964370369911194,0.32940414547920227,-0.21076524257659912,-0.000572213320992887,-0.22030213475227356
3.29972767829895,0.2920195460319519,-0.5994887948036194,0.33245593309402466,-0.2149614691734314,-0.000572213320992887,-0.22335393726825714
3.3198461532592773,0.2931639552116394,-0.6036850810050964,0.3377965986728668,-0.21877622604370117,-0.001716639962978661,-0.22640573978424072
3.339942693710327,0.2939268946647644,-0.6074998378753662,0.3400854468345642,-0.22220951318740845,-0.0013351644156500697,-0.2298390120267868
3.3600268363952637,0.2946898639202118,-0.612077534198761,0.3435187339782715,-0.22678720951080322,-0.0013351644156500697,-0.23403525352478027
3.3801021575927734,0.2969787120819092,-0.6162737607955933,0.34695202112197876,-0.2309834510087967,-0.0013351644156500697,-0.23823148012161255
3.400193214416504,0.29812315106391907,-0.620851457118988,0.34962233901023865,-0.23441672325134277,-0.0009536888683214784,-0.24280919134616852
3.42026948928833,0.29926756024360657,-0.6261920928955078,0.3542000353336334,-0.23823148012161255,-0.0013351644156500697,-0.2462424635887146
3.4404544830322266,0.30079346895217896,-0.6296253800392151,0.3576333224773407,-0.24204623699188232,-0.0013351644156500697,-0.25158312916755676
3.4608850479125977,0.30193790793418884,-0.6338216066360474,0.361829549074173,-0.2458609938621521,-0.0013351644156500697,-0.25539788603782654
3.481170177459717,0.30308231711387634,-0.6387808322906494,0.36755168437957764,-0.24929426610469818,-0.0020981156267225742,-0.2603570520877838
3.5011043548583984,0.30346378684043884,-0.6418325901031494,0.3709849715232849,-0.25463491678237915,-0.0036240178160369396,-0.264934778213501
3.5212888717651367,0.30422675609588623,-0.6452658772468567,0.3759441375732422,-0.2576867341995239,-0.005149920005351305,-0.27103838324546814
3.5413191318511963,0.30537116527557373,-0.648699164390564,0.38014039397239685,-0.2611200213432312,-0.007057297509163618,-0.2752346098423004
3.561404228210449,0.3057526648044586,-0.6525139212608337,0.3843366205692291,-0.264934778213501,-0.0078202486038208,-0.2794308364391327
3.581491231918335,0.3061341345310211,-0.6570916175842285,0.3896772861480713,-0.26951247453689575,-0.008201723918318748,-0.28553444147109985
3.601609706878662,0.3061341345310211,-0.6597619652748108,0.3927290737628937,-0.2748531401157379,-0.00858320016413927,-0.2912565767765045
3.6217336654663086,0.3068970739841461,-0.6631952524185181,0.39616236090660095,-0.2794308364391327,-0.00858320016413927,-0.2977416515350342
3.641786813735962,0.3076600432395935,-0.6666285395622253,0.3995956480503082,-0.28324559330940247,-0.010109102353453636,-0.30308231711387634
3.661868095397949,0.3084229826927185,-0.6700618267059326,0.4026474356651306,-0.28706035017967224,-0.010872052982449532,-0.3065156042575836
3.6820876598358154,0.3099488914012909,-0.6738765835762024,0.4068436622619629,-0.290875107049942,-0.012397955171763897,-0.3118562698364258
3.7021663188934326,0.3107118308544159,-0.6757839322090149,0.40989547967910767,-0.2954528033733368,-0.012397955171763897,-0.31795987486839294
3.722193717956543,0.3122377395629883,-0.6773098111152649,0.41294726729393005,-0.30041199922561646,-0.014686808921396732,-0.32520791888237
3.742347002029419,0.3130006790161133,-0.6788357496261597,0.4175249934196472,-0.3057526648044586,-0.014686808921396732,-0.33131152391433716
3.7624399662017822,0.3133821487426758,-0.6799801588058472,0.4201953113079071,-0.3114747703075409,-0.01583123579621315,-0.3393225073814392
3.78256893157959,0.3133821487426758,-0.6818875670433044,0.42515450716018677,-0.31719690561294556,-0.016594186425209045,-0.34771496057510376
3.8026504516601562,0.3133821487426758,-0.6830319762229919,0.42706188559532166,-0.3236820101737976,-0.018501564860343933,-0.3542000353336334
3.823014497756958,0.3133821487426758,-0.6841763854026794,0.42896926403045654,-0.32940414547920227,-0.02040894143283367,-0.3614480793476105
3.843167543411255,0.3133821487426758,-0.6864652633666992,0.43125811219215393,-0.33665215969085693,-0.02193484455347061,-0.3706035017967224
3.863191604614258,0.31376364827156067,-0.6883726119995117,0.43240252137184143,-0.3427557647228241,-0.023079270496964455,-0.37975889444351196
3.8832826614379883,0.31490805745124817,-0.691042959690094,0.4346913993358612,-0.34847790002822876,-0.024223696440458298,-0.3889143168926239
3.9033961296081543,0.31643396615982056,-0.692568838596344,0.4369802474975586,-0.3553444743156433,-0.025749599561095238,-0.39883267879486084
3.923464298248291,0.31872281432151794,-0.6937133073806763,0.439269095659256,-0.3622110188007355,-0.025749599561095238,-0.40951400995254517
3.9436495304107666,0.32063019275665283,-0.6952391862869263,0.44270238280296326,-0.36907759308815,-0.02689402550458908,-0.4205767810344696
3.9637832641601562,0.3217746317386627,-0.6952391862869263,0.44499123096466064,-0.3763256371021271,-0.026512550190091133,-0.43240252137184143
3.983872175216675,0.3225375711917877,-0.6960021257400513,0.44728007912635803,-0.3847180902957916,-0.025749599561095238,-0.44346532225608826
4.003981351852417,0.3225375711917877,-0.6971465349197388,0.4495689272880554,-0.3927290737628937,-0.02689402550458908,-0.4556725323200226
4.0241172313690186,0.3225375711917877,-0.698291003704071,0.4510948359966278,-0.39921414852142334,-0.028038453310728073,-0.4674982726573944
4.044206857681274,0.3225375711917877,-0.6994354128837585,0.4522392749786377,-0.4060807228088379,-0.02994582988321781,-0.4800869822502136
4.064294099807739,0.3229190409183502,-0.7009612917900085,0.4537651538848877,-0.41332876682281494,-0.03032730519771576,-0.49153125286102295
4.084368944168091,0.3244449496269226,-0.7013428211212158,0.4545281231403351,-0.4190509021282196,-0.03147173300385475,-0.5033569931983948
4.104501485824585,0.32673379778862,-0.7017242908477783,0.4560540020465851,-0.42515450716018677,-0.032616160809993744,-0.5136567950248718
4.124504566192627,0.3271152675151825,-0.7024872303009033,0.45681697130203247,-0.43087664246559143,-0.03376058489084244,-0.5231937170028687
4.144613981246948,0.3274967670440674,-0.7024872303009033,0.45834288001060486,-0.4381246566772461,-0.03299763426184654,-0.5334935784339905
4.164678573608398,0.3282597064971924,-0.7028687000274658,0.45948728919029236,-0.44384679198265076,-0.03185320645570755,-0.5422675013542175
4.184842109680176,0.3282597064971924,-0.7036316394805908,0.45986875891685486,-0.4488059878349304,-0.03223468363285065,-0.5514228940010071
4.204922676086426,0.3282597064971924,-0.7040131092071533,0.46101319789886475,-0.4526207447052002,-0.03376058489084244,-0.5590524077415466
4.225031852722168,0.3290226459503174,-0.7047760486602783,0.46139466762542725,-0.45719844102859497,-0.035667963325977325,-0.5655375123023987
4.2451252937316895,0.32978561520576477,-0.7047760486602783,0.46215763688087463,-0.46139466762542725,-0.03643091395497322,-0.5708781480789185
4.265194416046143,0.33054855465888977,-0.7055390477180481,0.46330204606056213,-0.4659723937511444,-0.03681239113211632,-0.5773632526397705
4.285268306732178,0.33131152391433716,-0.7059205174446106,0.46368351578712463,-0.4705500900745392,-0.03604944050312042,-0.5834668278694153
4.305351495742798,0.33245593309402466,-0.7063019871711731,0.4640650153160095,-0.47436484694480896,-0.03452353551983833,-0.5895704627037048
4.325836896896362,0.33245593309402466,-0.7070649266242981,0.4648279547691345,-0.47856107354164124,-0.03299763426184654,-0.5941481590270996
4.345931053161621,0.33245593309402466,-0.7070649266242981,0.4655908942222595,-0.481612890958786,-0.03299763426184654,-0.6006332635879517
4.366055965423584,0.33207446336746216,-0.7074463963508606,0.4663538634777069,-0.4861905872821808,-0.034142062067985535,-0.6052109599113464
4.386214017868042,0.33207446336746216,-0.7074463963508606,0.4671168029308319,-0.48962387442588806,-0.03643091395497322,-0.6105515956878662
4.406334638595581,0.33207446336746216,-0.7078278660774231,0.4674982726573944,-0.49229419231414795,-0.03795681521296501,-0.614366352558136
4.426425218582153,0.33207446336746216,-0.7078278660774231,0.4674982726573944,-0.4953460097312927,-0.03795681521296501,-0.6177996397018433
4.446476221084595,0.33207446336746216,-0.7089722752571106,0.4674982726573944,-0.4987792670726776,-0.03681239113211632,-0.6204699873924255
4.466563940048218,0.33207446336746216,-0.7097352743148804,0.4678797721862793,-0.5022125840187073,-0.035667963325977325,-0.6258106231689453
4.4866766929626465,0.33207446336746216,-0.7101167440414429,0.4682612419128418,-0.506027340888977,-0.03376058489084244,-0.6303883194923401
4.506829500198364,0.33207446336746216,-0.7101167440414429,0.4686427116394043,-0.5086976289749146,-0.03337911143898964,-0.6353475451469421
4.526897192001343,0.33207446336746216,-0.7101167440414429,0.4701686203479767,-0.5109865069389343,-0.03376058489084244,-0.6372548937797546
4.546936511993408,0.33207446336746216,-0.7101167440414429,0.4705500900745392,-0.5136567950248718,-0.03528648987412453,-0.6376363635063171
4.56710147857666,0.33207446336746216,-0.7104982137680054,0.4705500900745392,-0.5151827335357666,-0.03604944050312042,-0.6399252414703369
4.587233781814575,0.33245593309402466,-0.7120240926742554,0.4705500900745392,-0.5174715518951416,-0.03604944050312042,-0.6429770588874817
4.6073081493377686,0.33321890234947205,-0.7143129706382751,0.4709315598011017,-0.5197604298591614,-0.035667963325977325,-0.6448844075202942
4.627423048019409,0.33436331152915955,-0.7154573798179626,0.4713130295276642,-0.5212863087654114,-0.03376058489084244,-0.647936224937439
4.647475242614746,0.33436331152915955,-0.7154573798179626,0.4724574685096741,-0.5243381261825562,-0.03185320645570755,-0.6528953909873962
4.667532205581665,0.33436331152915955,-0.7150759100914001,0.4736018776893616,-0.5254825949668884,-0.03147173300385475,-0.6555657386779785
4.687617778778076,0.33436331152915955,-0.7150759100914001,0.47474631667137146,-0.5277714133262634,-0.03337911143898964,-0.6570916175842285
4.707756519317627,0.33436331152915955,-0.7150759100914001,0.47550925612449646,-0.5289158225059509,-0.03490501269698143,-0.6589990258216858
4.7277913093566895,0.33436331152915955,-0.7154573798179626,0.47512778639793396,-0.5312047004699707,-0.03681239113211632,-0.6593804955482483
4.747866630554199,0.33398184180259705,-0.7162203192710876,0.47474631667137146,-0.5323491096496582,-0.03643091395497322,-0.6620507836341858
4.7679572105407715,0.33436331152915955,-0.7173647880554199,0.47436484694480896,-0.534637987613678,-0.03643091395497322,-0.6624323129653931
4.788062572479248,0.33436331152915955,-0.7173647880554199,0.47436484694480896,-0.5365453362464905,-0.03490501269698143,-0.6631952524185181
4.808117866516113,0.33436331152915955,-0.7173647880554199,0.47436484694480896,-0.5384527444839478,-0.03376058489084244,-0.6635767221450806
4.828304052352905,0.33436331152915955,-0.7177462577819824,0.47589075565338135,-0.5399786233901978,-0.032616160809993744,-0.6647211313247681
4.848418474197388,0.33436331152915955,-0.7181277275085449,0.47665369510650635,-0.54112309217453,-0.03223468363285065,-0.6666285395622253
4.868462324142456,0.33436331152915955,-0.7192721366882324,0.47741663455963135,-0.54264897108078,-0.032616160809993744,-0.6670100092887878
4.888620376586914,0.33436331152915955,-0.7196536064147949,0.47741663455963135,-0.5430304408073425,-0.03376058489084244,-0.6677729487419128
4.90865683555603,0.33398184180259705,-0.7204165458679199,0.47741663455963135,-0.543411910533905,-0.03376058489084244,-0.6692988276481628
4.928731679916382,0.33436331152915955,-0.7207980751991272,0.47741663455963135,-0.54417484998703,-0.03376058489084244,-0.6696802973747253
4.948797225952148,0.33436331152915955,-0.7215610146522522,0.47779813408851624,-0.5453193187713623,-0.03337911143898964,-0.6696802973747253
4.96889328956604,0.33436331152915955,-0.7223239541053772,0.47779813408851624,-0.5468451976776123,-0.032616160809993744,-0.6700618267059326
4.9889795780181885,0.33436331152915955,-0.7227054238319397,0.47817960381507874,-0.5487525463104248,-0.031090257689356804,-0.6700618267059326
5.00918173789978,0.33436331152915955,-0.7238498330116272,0.47856107354164124,-0.5506599545478821,-0.031090257689356804,-0.6704432964324951
5.029321193695068,0.33436331152915955,-0.7242313027381897,0.47856107354164124,-0.5518043637275696,-0.03147173300385475,-0.6708247661590576
5.0494043827056885,0.33436331152915955,-0.724612832069397,0.47932401299476624,-0.5537117719650269,-0.03185320645570755,-0.6712062358856201
5.06947922706604,0.33436331152915955,-0.724612832069397,0.4800869822502136,-0.5544747114181519,-0.03299763426184654,-0.6734950542449951
5.089567184448242,0.33436331152915955,-0.724612832069397,0.4808499217033386,-0.5560005903244019,-0.032616160809993744,-0.6754024624824524
5.109704256057739,0.33436331152915955,-0.724612832069397,0.4812313914299011,-0.5579079985618591,-0.032616160809993744,-0.6769283413887024
5.129802465438843,0.33436331152915955,-0.7249943017959595,0.4812313914299011,-0.5586709380149841,-0.03223468363285065,-0.6776912808418274
5.149942636489868,0.33436331152915955,-0.7257572412490845,0.4812313914299011,-0.5586709380149841,-0.03185320645570755,-0.6776912808418274
5.170109510421753,0.33436331152915955,-0.7265201807022095,0.4812313914299011,-0.5586709380149841,-0.03185320645570755,-0.6776912808418274
5.190195322036743,0.33436331152915955,-0.7265201807022095,0.4804684519767761,-0.5586709380149841,-0.03147173300385475,-0.6776912808418274
5.210235595703125,0.33474478125572205,-0.7265201807022095,0.4804684519767761,-0.5586709380149841,-0.030708782374858856,-0.6776912808418274
5.230461597442627,0.33474478125572205,-0.7265201807022095,0.4812313914299011,-0.5586709380149841,-0.03032730519771576,-0.6776912808418274
5.25044584274292,0.33474478125572205,-0.7265201807022095,0.4827573001384735,-0.5586709380149841,-0.029564354568719864,-0.6776912808418274
5.270590543746948,0.33474478125572205,-0.726901650428772,0.4835202693939209,-0.5586709380149841,-0.02994582988321781,-0.6776912808418274
5.290647506713867,0.33436331152915955,-0.727664589881897,0.4835202693939209,-0.5590524077415466,-0.03185320645570755,-0.6773098111152649
5.310714960098267,0.33436331152915955,-0.728427529335022,0.4835202693939209,-0.5598153471946716,-0.03147173300385475,-0.6773098111152649
5.330798625946045,0.33436331152915955,-0.7291905283927917,0.4827573001384735,-0.5605783462524414,-0.03032730519771576,-0.6773098111152649
5.35085654258728,0.33436331152915955,-0.7299534678459167,0.4827573001384735,-0.5613412857055664,-0.029564354568719864,-0.6776912808418274
5.371237754821777,0.33436331152915955,-0.7307164072990417,0.4835202693939209,-0.5617227554321289,-0.029182879254221916,-0.6776912808418274
5.3913257122039795,0.33436331152915955,-0.7310978770256042,0.4850461483001709,-0.5617227554321289,-0.029182879254221916,-0.6776912808418274
5.411489963531494,0.33436331152915955,-0.7310978770256042,0.4861905872821808,-0.5621042251586914,-0.029564354568719864,-0.6776912808418274
5.431520938873291,0.33436331152915955,-0.7310978770256042,0.4861905872821808,-0.5621042251586914,-0.031090257689356804,-0.6773098111152649
5.4515910148620605,0.33436331152915955,-0.7310978770256042,0.4854276478290558,-0.5624856948852539,-0.031090257689356804,-0.6773098111152649
5.471767902374268,0.33436331152915955,-0.732623815536499,0.4846646785736084,-0.5628671646118164,-0.030708782374858856,-0.6773098111152649
5.49187159538269,0.33436331152915955,-0.7330052852630615,0.4846646785736084,-0.5640115737915039,-0.03032730519771576,-0.6773098111152649
5.512075185775757,0.33436331152915955,-0.7330052852630615,0.4858091175556183,-0.5651560425758362,-0.02994582988321781,-0.6773098111152649
5.532261610031128,0.33436331152915955,-0.732623815536499,0.4869535267353058,-0.5651560425758362,-0.03032730519771576,-0.6776912808418274
5.552346229553223,0.33474478125572205,-0.732623815536499,0.4888609051704407,-0.5651560425758362,-0.030708782374858856,-0.6773098111152649
5.572479009628296,0.33474478125572205,-0.7318608164787292,0.4892423748970032,-0.5655375123023987,-0.03223468363285065,-0.6773098111152649
5.592672109603882,0.33436331152915955,-0.7318608164787292,0.4892423748970032,-0.5655375123023987,-0.032616160809993744,-0.6773098111152649
5.612869024276733,0.33436331152915955,-0.732623815536499,0.4880979657173157,-0.5655375123023987,-0.03376058489084244,-0.6773098111152649
5.633448362350464,0.33436331152915955,-0.7330052852630615,0.4877164959907532,-0.5659189820289612,-0.03299763426184654,-0.6773098111152649
5.653498411178589,0.33436331152915955,-0.7337682247161865,0.4873350262641907,-0.5659189820289612,-0.03147173300385475,-0.6773098111152649
5.673647880554199,0.33474478125572205,-0.7337682247161865,0.4869535267353058,-0.5663004517555237,-0.03147173300385475,-0.6773098111152649
5.693732738494873,0.33512628078460693,-0.7337682247161865,0.4869535267353058,-0.5663004517555237,-0.030708782374858856,-0.6773098111152649
5.713796615600586,0.33512628078460693,-0.7337682247161865,0.4869535267353058,-0.5666819214820862,-0.02994582988321781,-0.6773098111152649
5.734025478363037,0.33512628078460693,-0.7337682247161865,0.4869535267353058,-0.5666819214820862,-0.029564354568719864,-0.6773098111152649
5.754114151000977,0.33512628078460693,-0.7337682247161865,0.4877164959907532,-0.5670633912086487,-0.029564354568719864,-0.6773098111152649
5.774211168289185,0.33474478125572205,-0.7337682247161865,0.4880979657173157,-0.5674448609352112,-0.031090257689356804,-0.6773098111152649
5.794268846511841,0.33474478125572205,-0.7337682247161865,0.4884794354438782,-0.5674448609352112,-0.03223468363285065,-0.6773098111152649
5.81437873840332,0.33474478125572205,-0.7337682247161865,0.4884794354438782,-0.5674448609352112,-0.032616160809993744,-0.6769283413887024
5.834439754486084,0.33436331152915955,-0.7337682247161865,0.4884794354438782,-0.5678263306617737,-0.03185320645570755,-0.6769283413887024
5.85452675819397,0.33436331152915955,-0.734149694442749,0.4884794354438782,-0.5678263306617737,-0.02994582988321781,-0.6769283413887024
5.874683380126953,0.33436331152915955,-0.734149694442749,0.4884794354438782,-0.5682078003883362,-0.029564354568719864,-0.6769283413887024
5.89469313621521,0.33436331152915955,-0.734149694442749,0.4884794354438782,-0.5682078003883362,-0.02994582988321781,-0.6769283413887024
5.914806365966797,0.33436331152915955,-0.734149694442749,0.4888609051704407,-0.5682078003883362,-0.02994582988321781,-0.6769283413887024
5.934848070144653,0.33436331152915955,-0.734149694442749,0.4892423748970032,-0.5682078003883362,-0.03032730519771576,-0.6769283413887024
5.955196142196655,0.33436331152915955,-0.734149694442749,0.48962387442588806,-0.5682078003883362,-0.02994582988321781,-0.6769283413887024
5.975305795669556,0.33436331152915955,-0.734149694442749,0.49000534415245056,-0.5682078003883362,-0.03032730519771576,-0.6765468716621399
5.995382308959961,0.33436331152915955,-0.734149694442749,0.49000534415245056,-0.5682078003883362,-0.03032730519771576,-0.6765468716621399
6.0157835483551025,0.33436331152915955,-0.734149694442749,0.49000534415245056,-0.5682078003883362,-0.03032730519771576,-0.6761654019355774
6.0358967781066895,0.33436331152915955,-0.7345311641693115,0.49000534415245056,-0.5682078003883362,-0.03032730519771576,-0.6761654019355774
6.05609917640686,0.33436331152915955,-0.734912633895874,0.49000534415245056,-0.5682078003883362,-0.02994582988321781,-0.6761654019355774
6.076180696487427,0.33436331152915955,-0.7345311641693115,0.49000534415245056,-0.5682078003883362,-0.03032730519771576,-0.6761654019355774
6.096255779266357,0.33436331152915955,-0.7345311641693115,0.49076828360557556,-0.5682078003883362,-0.030708782374858856,-0.6757839322090149
6.116374254226685,0.33436331152915955,-0.734912633895874,0.49076828360557556,-0.5682078003883362,-0.031090257689356804,-0.6757839322090149
6.136531829833984,0.33436331152915955,-0.734912633895874,0.49076828360557556,-0.5682078003883362,-0.03147173300385475,-0.6754024624824524
6.156562566757202,0.33436331152915955,-0.734912633895874,0.49076828360557556,-0.5685893297195435,-0.031090257689356804,-0.6754024624824524
6.1766510009765625,0.33436331152915955,-0.734912633895874,0.49076828360557556,-0.5685893297195435,-0.030708782374858856,-0.6754024624824524
6.196730613708496,0.33436331152915955,-0.734912633895874,0.49076828360557556,-0.5685893297195435,-0.030708782374858856,-0.6754024624824524
6.216820478439331,0.33436331152915955,-0.734912633895874,0.49076828360557556,-0.5685893297195435,-0.031090257689356804,-0.6750209927558899
6.236912965774536,0.33436331152915955,-0.734912633895874,0.49114975333213806,-0.5685893297195435,-0.031090257689356804,-0.6750209927558899
6.256948471069336,0.33436331152915955,-0.734912633895874,0.49114975333213806,-0.5685893297195435,-0.031090257689356804,-0.6746395230293274
6.2770819664001465,0.33436331152915955,-0.734912633895874,0.49114975333213806,-0.5685893297195435,-0.031090257689356804,-0.6746395230293274
6.297198295593262,0.33436331152915955,-0.734912633895874,0.49114975333213806,-0.5685893297195435,-0.030708782374858856,-0.6746395230293274
6.317208528518677,0.33436331152915955,-0.734912633895874,0.49153125286102295,-0.5685893297195435,-0.030708782374858856,-0.6746395230293274
6.337317228317261,0.33436331152915955,-0.734912633895874,0.49191272258758545,-0.5685893297195435,-0.030708782374858856,-0.6742580533027649
6.357380151748657,0.33436331152915955,-0.734912633895874,0.49191272258758545,-0.5685893297195435,-0.03147173300385475,-0.6742580533027649
6.37746000289917,0.33436331152915955,-0.734912633895874,0.49191272258758545,-0.5685893297195435,-0.03147173300385475,-0.6738765835762024
6.397689342498779,0.33436331152915955,-0.7352941036224365,0.49153125286102295,-0.5685893297195435,-0.031090257689356804,-0.6738765835762024
6.417656183242798,0.33436331152915955,-0.7352941036224365,0.49153125286102295,-0.5685893297195435,-0.031090257689356804,-0.6738765835762024
6.437772750854492,0.33436331152915955,-0.7352941036224365,0.49153125286102295,-0.5685893297195435,-0.031090257689356804,-0.6738765835762024
6.457893371582031,0.33436331152915955,-0.7352941036224365,0.49153125286102295,-0.5685893297195435,-0.031090257689356804,-0.6738765835762024
6.478142261505127,0.33436331152915955,-0.734912633895874,0.49153125286102295,-0.5685893297195435,-0.031090257689356804,-0.6738765835762024
6.498261213302612,0.33436331152915955,-0.7352941036224365,0.49153125286102295,-0.5685893297195435,-0.031090257689356804,-0.6738765835762024
6.518306732177734,0.33436331152915955,-0.7352941036224365,0.49153125286102295,-0.5685893297195435,-0.031090257689356804,-0.6738765835762024
6.538408041000366,0.33436331152915955,-0.7352941036224365,0.49153125286102295,-0.5685893297195435,-0.031090257689356804,-0.6742580533027649
6.558568000793457,0.33436331152915955,-0.7352941036224365,0.49191272258758545,-0.5685893297195435,-0.03147173300385475,-0.6738765835762024
6.578580856323242,0.33436331152915955,-0.7352941036224365,0.49191272258758545,-0.5685893297195435,-0.03147173300385475,-0.6738765835762024
6.5987091064453125,0.33436331152915955,-0.7352941036224365,0.49191272258758545,-0.5685893297195435,-0.031090257689356804,-0.6738765835762024
6.618779182434082,0.33436331152915955,-0.7352941036224365,0.49191272258758545,-0.5685893297195435,-0.031090257689356804,-0.6738765835762024
6.638853549957275,0.33436331152915955,-0.7352941036224365,0.49191272258758545,-0.5685893297195435,-0.031090257689356804,-0.6738765835762024
6.658966064453125,0.33436331152915955,-0.7352941036224365,0.49191272258758545,-0.5685893297195435,-0.03147173300385475,-0.6738765835762024
6.679040431976318,0.33436331152915955,-0.7352941036224365,0.49191272258758545,-0.5685893297195435,-0.03147173300385475,-0.6738765835762024
6.699333667755127,0.33436331152915955,-0.7352941036224365,0.49191272258758545,-0.5685893297195435,-0.03147173300385475,-0.6738765835762024
6.719420433044434,0.33436331152915955,-0.7352941036224365,0.49191272258758545,-0.5685893297195435,-0.03147173300385475,-0.6738765835762024
6.739509344100952,0.33436331152915955,-0.7352941036224365,0.49191272258758545,-0.568970799446106,-0.031090257689356804,-0.6738765835762024
6.7598981857299805,0.33436331152915955,-0.7352941036224365,0.49191272258758545,-0.568970799446106,-0.031090257689356804,-0.6738765835762024
6.779993057250977,0.33436331152915955,-0.7352941036224365,0.49191272258758545,-0.568970799446106,-0.031090257689356804,-0.6738765835762024
6.800062417984009,0.33436331152915955,-0.7352941036224365,0.49229419231414795,-0.568970799446106,-0.03147173300385475,-0.6734950542449951
6.82023024559021,0.33436331152915955,-0.7352941036224365,0.49229419231414795,-0.568970799446106,-0.03147173300385475,-0.6738765835762024
6.840311288833618,0.33436331152915955,-0.7352941036224365,0.49229419231414795,-0.568970799446106,-0.03147173300385475,-0.6738765835762024
6.860368728637695,0.33436331152915955,-0.7352941036224365,0.49229419231414795,-0.568970799446106,-0.031090257689356804,-0.6734950542449951
6.880480527877808,0.33436331152915955,-0.7352941036224365,0.49229419231414795,-0.568970799446106,-0.03147173300385475,-0.6738765835762024
6.900523900985718,0.33436331152915955,-0.7352941036224365,0.49229419231414795,-0.568970799446106,-0.031090257689356804,-0.6734950542449951
6.920602321624756,0.33436331152915955,-0.7352941036224365,0.49229419231414795,-0.568970799446106,-0.03147173300385475,-0.6738765835762024
6.9406867027282715,0.33436331152915955,-0.7352941036224365,0.49229419231414795,-0.568970799446106,-0.03147173300385475,-0.6738765835762024
6.960767030715942,0.33436331152915955,-0.7352941036224365,0.49229419231414795,-0.568970799446106,-0.03147173300385475,-0.6738765835762024
6.980863571166992,0.33436331152915955,-0.734912633895874,0.49229419231414795,-0.568970799446106,-0.03147173300385475,-0.6738765835762024
7.001443386077881,0.33436331152915955,-0.7352941036224365,0.49229419231414795,-0.568970799446106,-0.03147173300385475,-0.6738765835762024
7.021535873413086,0.33436331152915955,-0.7352941036224365,0.49229419231414795,-0.568970799446106,-0.031090257689356804,-0.6734950542449951
7.041650772094727,0.33436331152915955,-0.7352941036224365,0.49229419231414795,-0.568970799446106,-0.031090257689356804,-0.6738765835762024
7.0617516040802,0.33436331152915955,-0.7352941036224365,0.49229419231414795,-0.568970799446106,-0.031090257689356804,-0.6738765835762024
7.0818397998809814,0.33436331152915955,-0.7352941036224365,0.49229419231414795,-0.568970799446106,-0.031090257689356804,-0.6738765835762024
7.102147817611694,0.33436331152915955,-0.734912633895874,0.49229419231414795,-0.568970799446106,-0.03147173300385475,-0.6738765835762024
7.122229337692261,0.33436331152915955,-0.7352941036224365,0.49229419231414795,-0.568970799446106,-0.03147173300385475,-0.6734950542449951
7.14231014251709,0.33436331152915955,-0.7352941036224365,0.49229419231414795,-0.568970799446106,-0.03147173300385475,-0.6734950542449951
7.162821531295776,0.33436331152915955,-0.7352941036224365,0.49229419231414795,-0.568970799446106,-0.031090257689356804,-0.6734950542449951
7.182931423187256,0.33436331152915955,-0.7352941036224365,0.49229419231414795,-0.568970799446106,-0.031090257689356804,-0.6734950542449951
7.20305061340332,0.33436331152915955,-0.7352941036224365,0.49229419231414795,-0.568970799446106,-0.03147173300385475,-0.6734950542449951
7.22309947013855,0.33436331152915955,-0.734912633895874,0.49229419231414795,-0.568970799446106,-0.03147173300385475,-0.6734950542449951
7.2594006061553955,0.33436331152915955,-0.734912633895874,0.49229419231414795,-0.568970799446106,-0.03147173300385475,-0.6734950542449951
7.279491186141968,0.33436331152915955,-0.7352941036224365,0.49229419231414795,-0.568970799446106,-0.03147173300385475,-0.6734950542449951
7.299628973007202,0.33436331152915955,-0.7352941036224365,0.49229419231414795,-0.568970799446106,-0.03147173300385475,-0.6734950542449951
7.319681406021118,0.33436331152915955,-0.7352941036224365,0.49229419231414795,-0.568970799446106,-0.03147173300385475,-0.6734950542449951
7.339864253997803,0.33436331152915955,-0.7352941036224365,0.49229419231414795,-0.568970799446106,-0.03147173300385475,-0.6734950542449951
7.359869718551636,0.33436331152915955,-0.7352941036224365,0.49229419231414795,-0.568970799446106,-0.03147173300385475,-0.6734950542449951
7.380000591278076,0.33436331152915955,-0.734912633895874,0.49229419231414795,-0.568970799446106,-0.03147173300385475,-0.6734950542449951
7.40006685256958,0.33436331152915955,-0.7352941036224365,0.49229419231414795,-0.568970799446106,-0.03147173300385475,-0.6731135845184326
7.420161008834839,0.33436331152915955,-0.734912633895874,0.49229419231414795,-0.568970799446106,-0.03147173300385475,-0.6731135845184326
7.440281391143799,0.33436331152915955,-0.7352941036224365,0.49229419231414795,-0.568970799446106,-0.03147173300385475,-0.6734950542449951
7.460403203964233,0.33436331152915955,-0.734912633895874,0.49229419231414795,-0.568970799446106,-0.03147173300385475,-0.6734950542449951
7.480906963348389,0.33436331152915955,-0.734912633895874,0.49229419231414795,-0.568970799446106,-0.03147173300385475,-0.6731135845184326
7.500988960266113,0.33436331152915955,-0.734912633895874,0.49229419231414795,-0.568970799446106,-0.03147173300385475,-0.6731135845184326
7.521068096160889,0.33436331152915955,-0.7352941036224365,0.49229419231414795,-0.568970799446106,-0.03147173300385475,-0.6731135845184326
7.541149854660034,0.33436331152915955,-0.7352941036224365,0.49229419231414795,-0.568970799446106,-0.03147173300385475,-0.6734950542449951
7.561220645904541,0.33436331152915955,-0.7352941036224365,0.49229419231414795,-0.568970799446106,-0.03147173300385475,-0.6734950542449951
7.581287622451782,0.33436331152915955,-0.7352941036224365,0.49229419231414795,-0.568970799446106,-0.03147173300385475,-0.6734950542449951
7.60137152671814,0.33436331152915955,-0.734912633895874,0.49229419231414795,-0.568970799446106,-0.03147173300385475,-0.6734950542449951
7.621449947357178,0.33436331152915955,-0.7352941036224365,0.49229419231414795,-0.568970799446106,-0.03147173300385475,-0.6734950542449951
7.641622066497803,0.33436331152915955,-0.7352941036224365,0.49229419231414795,-0.568970799446106,-0.03147173300385475,-0.6734950542449951
7.661665201187134,0.33436331152915955,-0.734912633895874,0.49229419231414795,-0.568970799446106,-0.03147173300385475,-0.6734950542449951
7.681745767593384,0.33436331152915955,-0.734912633895874,0.49229419231414795,-0.568970799446106,-0.03147173300385475,-0.6734950542449951
7.701905965805054,0.33436331152915955,-0.7352941036224365,0.49229419231414795,-0.568970799446106,-0.03147173300385475,-0.6734950542449951
7.721954345703125,0.33436331152915955,-0.7352941036224365,0.49229419231414795,-0.568970799446106,-0.03147173300385475,-0.6731135845184326
7.742021799087524,0.33436331152915955,-0.7352941036224365,0.49229419231414795,-0.568970799446106,-0.03147173300385475,-0.6731135845184326
7.762124538421631,0.33436331152915955,-0.734912633895874,0.49229419231414795,-0.568970799446106,-0.03147173300385475,-0.6734950542449951
7.782197713851929,0.33436331152915955,-0.734912633895874,0.49229419231414795,-0.568970799446106,-0.03147173300385475,-0.6731135845184326
7.802316188812256,0.33436331152915955,-0.734912633895874,0.49229419231414795,-0.568970799446106,-0.03147173300385475,-0.6734950542449951
7.8224287033081055,0.33436331152915955,-0.7352941036224365,0.49229419231414795,-0.568970799446106,-0.03147173300385475,-0.6734950542449951
7.842519998550415,0.33436331152915955,-0.7352941036224365,0.49229419231414795,-0.568970799446106,-0.03147173300385475,-0.6734950542449951
7.8626251220703125,0.33436331152915955,-0.7352941036224365,0.49229419231414795,-0.568970799446106,-0.03147173300385475,-0.6734950542449951
7.8835530281066895,0.33436331152915955,-0.7352941036224365,0.49229419231414795,-0.568970799446106,-0.03147173300385475,-0.6734950542449951
7.9036359786987305,0.33436331152915955,-0.7352941036224365,0.49229419231414795,-0.568970799446106,-0.03147173300385475,-0.6734950542449951
7.9237706661224365,0.33436331152915955,-0.7352941036224365,0.49229419231414795,-0.568970799446106,-0.03147173300385475,-0.6734950542449951
7.943805694580078,0.33436331152915955,-0.7352941036224365,0.49229419231414795,-0.568970799446106,-0.03147173300385475,-0.6734950542449951
7.96391224861145,0.33436331152915955,-0.7352941036224365,0.49229419231414795,-0.568970799446106,-0.03147173300385475,-0.6731135845184326
7.984089136123657,0.33436331152915955,-0.7352941036224365,0.49229419231414795,-0.568970799446106,-0.03147173300385475,-0.6734950542449951
8.004199504852295,0.33436331152915955,-0.7352941036224365,0.49229419231414795,-0.5693522691726685,-0.03147173300385475,-0.6734950542449951
8.02425503730774,0.33436331152915955,-0.7352941036224365,0.49229419231414795,-0.568970799446106,-0.03147173300385475,-0.6734950542449951
8.044363498687744,0.33436331152915955,-0.7352941036224365,0.49229419231414795,-0.568970799446106,-0.03147173300385475,-0.6734950542449951
8.064507722854614,0.33436331152915955,-0.735675573348999,0.49229419231414795,-0.5693522691726685,-0.03147173300385475,-0.6734950542449951
8.08462643623352,0.33436331152915955,-0.735675573348999,0.49229419231414795,-0.5693522691726685,-0.03147173300385475,-0.6734950542449951
8.104716062545776,0.33436331152915955,-0.735675573348999,0.49229419231414795,-0.5693522691726685,-0.031090257689356804,-0.6734950542449951
8.124802112579346,0.33436331152915955,-0.735675573348999,0.49267566204071045,-0.5693522691726685,-0.031090257689356804,-0.6734950542449951
8.144893407821655,0.33436331152915955,-0.735675573348999,0.49267566204071045,-0.5693522691726685,-0.03147173300385475,-0.6734950542449951
8.164965867996216,0.33436331152915955,-0.735675573348999,0.49267566204071045,-0.5693522691726685,-0.03147173300385475,-0.6734950542449951
8.185050010681152,0.33436331152915955,-0.735675573348999,0.49267566204071045,-0.5693522691726685,-0.03147173300385475,-0.6734950542449951
8.205143451690674,0.33436331152915955,-0.735675573348999,0.49267566204071045,-0.5693522691726685,-0.031090257689356804,-0.6734950542449951
8.225221157073975,0.33436331152915955,-0.735675573348999,0.49267566204071045,-0.5693522691726685,-0.031090257689356804,-0.6734950542449951
8.245275735855103,0.33436331152915955,-0.735675573348999,0.49267566204071045,-0.5693522691726685,-0.03147173300385475,-0.6734950542449951
8.265370607376099,0.33436331152915955,-0.735675573348999,0.49267566204071045,-0.5693522691726685,-0.03147173300385475,-0.6734950542449951
8.28544545173645,0.33436331152915955,-0.735675573348999,0.49267566204071045,-0.5693522691726685,-0.03147173300385475,-0.6734950542449951
8.306084156036377,0.33436331152915955,-0.735675573348999,0.49267566204071045,-0.5693522691726685,-0.03147173300385475,-0.6734950542449951
8.32617712020874,0.33436331152915955,-0.735675573348999,0.49267566204071045,-0.5693522691726685,-0.03147173300385475,-0.6734950542449951
8.346240997314453,0.33436331152915955,-0.735675573348999,0.49267566204071045,-0.5693522691726685,-0.03147173300385475,-0.6734950542449951
8.366448402404785,0.33436331152915955,-0.734912633895874,0.49267566204071045,-0.5693522691726685,-0.03147173300385475,-0.6734950542449951
8.386469602584839,0.33436331152915955,-0.734912633895874,0.49267566204071045,-0.5693522691726685,-0.03147173300385475,-0.6734950542449951
8.406517744064331,0.33436331152915955,-0.734912633895874,0.49267566204071045,-0.5693522691726685,-0.03147173300385475,-0.6734950542449951
8.426610946655273,0.33436331152915955,-0.734912633895874,0.49267566204071045,-0.5693522691726685,-0.03185320645570755,-0.6731135845184326
8.446676254272461,0.33436331152915955,-0.734912633895874,0.49229419231414795,-0.5693522691726685,-0.03147173300385475,-0.6734950542449951
8.46737551689148,0.33436331152915955,-0.734912633895874,0.49229419231414795,-0.5693522691726685,-0.03147173300385475,-0.6734950542449951
8.487546443939209,0.33436331152915955,-0.734912633895874,0.49229419231414795,-0.5693522691726685,-0.03147173300385475,-0.6734950542449951
8.507572174072266,0.33436331152915955,-0.734912633895874,0.49229419231414795,-0.5693522691726685,-0.03185320645570755,-0.6734950542449951
8.527639389038086,0.33436331152915955,-0.734912633895874,0.49229419231414795,-0.5693522691726685,-0.03185320645570755,-0.6731135845184326
8.547817945480347,0.33436331152915955,-0.734912633895874,0.49229419231414795,-0.5693522691726685,-0.03147173300385475,-0.6734950542449951
8.567833662033081,0.33436331152915955,-0.734912633895874,0.49229419231414795,-0.5693522691726685,-0.03147173300385475,-0.6734950542449951
8.587933540344238,0.33436331152915955,-0.734912633895874,0.49229419231414795,-0.5693522691726685,-0.03147173300385475,-0.6731135845184326
8.608098983764648,0.33436331152915955,-0.734912633895874,0.49229419231414795,-0.5693522691726685,-0.03185320645570755,-0.6734950542449951
8.628167629241943,0.33436331152915955,-0.734912633895874,0.49229419231414795,-0.5693522691726685,-0.03185320645570755,-0.6734950542449951
8.648243427276611,0.33436331152915955,-0.734912633895874,0.49229419231414795,-0.5693522691726685,-0.03147173300385475,-0.6731135845184326
8.668392658233643,0.33436331152915955,-0.734912633895874,0.49229419231414795,-0.5693522691726685,-0.03147173300385475,-0.6734950542449951
8.688807010650635,0.33436331152915955,-0.734912633895874,0.49229419231414795,-0.5693522691726685,-0.03147173300385475,-0.6734950542449951
8.708939552307129,0.33436331152915955,-0.734912633895874,0.49229419231414795,-0.5693522691726685,-0.03147173300385475,-0.6734950542449951
8.728989124298096,0.33436331152915955,-0.734912633895874,0.49229419231414795,-0.5693522691726685,-0.03185320645570755,-0.6734950542449951
8.749063491821289,0.33436331152915955,-0.734912633895874,0.49229419231414795,-0.5693522691726685,-0.03147173300385475,-0.6734950542449951
8.769147634506226,0.33436331152915955,-0.734912633895874,0.49229419231414795,-0.5693522691726685,-0.03147173300385475,-0.6734950542449951
8.789310693740845,0.33436331152915955,-0.734912633895874,0.49229419231414795,-0.5693522691726685,-0.03147173300385475,-0.6734950542449951
8.809348821640015,0.33436331152915955,-0.734912633895874,0.49229419231414795,-0.5693522691726685,-0.03147173300385475,-0.6734950542449951
8.82950210571289,0.33436331152915955,-0.734912633895874,0.49229419231414795,-0.5693522691726685,-0.03147173300385475,-0.6734950542449951
8.849600791931152,0.33436331152915955,-0.734912633895874,0.49229419231414795,-0.5693522691726685,-0.03147173300385475,-0.6734950542449951
8.869757890701294,0.33436331152915955,-0.734912633895874,0.49229419231414795,-0.5693522691726685,-0.03147173300385475,-0.6734950542449951
8.889809131622314,0.33436331152915955,-0.734912633895874,0.49229419231414795,-0.5693522691726685,-0.03147173300385475,-0.6734950542449951
8.91001296043396,0.33436331152915955,-0.734912633895874,0.49229419231414795,-0.5693522691726685,-0.03147173300385475,-0.6734950542449951
8.930100440979004,0.33436331152915955,-0.734912633895874,0.49229419231414795,-0.5693522691726685,-0.03147173300385475,-0.6734950542449951
8.950166940689087,0.33436331152915955,-0.734912633895874,0.49191272258758545,-0.5693522691726685,-0.03147173300385475,-0.6734950542449951
8.970391511917114,0.33436331152915955,-0.734912633895874,0.49191272258758545,-0.5693522691726685,-0.03147173300385475,-0.6734950542449951
8.99042534828186,0.33436331152915955,-0.734912633895874,0.49191272258758545,-0.5693522691726685,-0.03147173300385475,-0.6734950542449951
9.010418891906738,0.33436331152915955,-0.734912633895874,0.49191272258758545,-0.5693522691726685,-0.03147173300385475,-0.6734950542449951
9.030531167984009,0.33436331152915955,-0.734912633895874,0.49191272258758545,-0.5693522691726685,-0.03147173300385475,-0.6734950542449951
9.050622701644897,0.33436331152915955,-0.734912633895874,0.49191272258758545,-0.5693522691726685,-0.03147173300385475,-0.6734950542449951
9.070685863494873,0.33436331152915955,-0.734912633895874,0.49191272258758545,-0.5693522691726685,-0.03147173300385475,-0.6734950542449951
9.090781450271606,0.33436331152915955,-0.734912633895874,0.49191272258758545,-0.5693522691726685,-0.03147173300385475,-0.6734950542449951
9.111128091812134,0.33436331152915955,-0.734912633895874,0.49191272258758545,-0.5693522691726685,-0.03147173300385475,-0.6734950542449951
9.13123106956482,0.33436331152915955,-0.734912633895874,0.49191272258758545,-0.5693522691726685,-0.03147173300385475,-0.6734950542449951
9.151291847229004,0.33436331152915955,-0.734912633895874,0.49191272258758545,-0.5693522691726685,-0.03147173300385475,-0.6734950542449951
9.171463966369629,0.33436331152915955,-0.734912633895874,0.49191272258758545,-0.5693522691726685,-0.03147173300385475,-0.6734950542449951
9.191565036773682,0.33436331152915955,-0.734912633895874,0.49191272258758545,-0.5693522691726685,-0.03147173300385475,-0.6734950542449951
9.211624383926392,0.33436331152915955,-0.734912633895874,0.49191272258758545,-0.5693522691726685,-0.03147173300385475,-0.6734950542449951
9.231698036193848,0.33436331152915955,-0.7352941036224365,0.49191272258758545,-0.5693522691726685,-0.03147173300385475,-0.6734950542449951
9.251796245574951,0.33436331152915955,-0.734912633895874,0.49229419231414795,-0.5693522691726685,-0.03147173300385475,-0.6734950542449951
9.272128105163574,0.33436331152915955,-0.734912633895874,0.49191272258758545,-0.5693522691726685,-0.03147173300385475,-0.6734950542449951
9.292242527008057,0.33436331152915955,-0.734912633895874,0.49191272258758545,-0.5693522691726685,-0.03147173300385475,-0.6734950542449951
9.312309741973877,0.33436331152915955,-0.734912633895874,0.49191272258758545,-0.5693522691726685,-0.03147173300385475,-0.6734950542449951
9.332383155822754,0.33436331152915955,-0.7352941036224365,0.49229419231414795,-0.5693522691726685,-0.03147173300385475,-0.6731135845184326
9.3525390625,0.33436331152915955,-0.734912633895874,0.49229419231414795,-0.5693522691726685,-0.03147173300385475,-0.6734950542449951
9.372757196426392,0.33436331152915955,-0.734912633895874,0.49229419231414795,-0.5693522691726685,-0.03147173300385475,-0.6734950542449951
9.392822742462158,0.33436331152915955,-0.734912633895874,0.49229419231414795,-0.5693522691726685,-0.03147173300385475,-0.6734950542449951
9.412878274917603,0.33436331152915955,-0.734912633895874,0.49229419231414795,-0.5693522691726685,-0.03147173300385475,-0.6734950542449951
9.433021306991577,0.33436331152915955,-0.734912633895874,0.49229419231414795,-0.5693522691726685,-0.03147173300385475,-0.6734950542449951
9.453123569488525,0.33436331152915955,-0.734912633895874,0.49229419231414795,-0.5693522691726685,-0.03147173300385475,-0.6734950542449951
9.473224639892578,0.33436331152915955,-0.7352941036224365,0.49229419231414795,-0.5693522691726685,-0.03147173300385475,-0.6734950542449951
9.493313550949097,0.33436331152915955,-0.734912633895874,0.49229419231414795,-0.5693522691726685,-0.03147173300385475,-0.6734950542449951
9.513395071029663,0.33436331152915955,-0.7352941036224365,0.49229419231414795,-0.5693522691726685,-0.03147173300385475,-0.6734950542449951
9.533494234085083,0.33436331152915955,-0.734912633895874,0.49229419231414795,-0.5693522691726685,-0.03147173300385475,-0.6734950542449951
9.553579092025757,0.33436331152915955,-0.734912633895874,0.49229419231414795,-0.5693522691726685,-0.03147173300385475,-0.6734950542449951
9.573644638061523,0.33436331152915955,-0.734912633895874,0.49229419231414795,-0.5693522691726685,-0.03147173300385475,-0.6734950542449951
9.5937979221344,0.33436331152915955,-0.734912633895874,0.49229419231414795,-0.5693522691726685,-0.03147173300385475,-0.6734950542449951
9.613843441009521,0.33436331152915955,-0.734912633895874,0.49229419231414795,-0.5693522691726685,-0.03147173300385475,-0.6734950542449951
9.63397479057312,0.33436331152915955,-0.734912633895874,0.49229419231414795,-0.5693522691726685,-0.03147173300385475,-0.6734950542449951
9.654009819030762,0.33436331152915955,-0.734912633895874,0.49229419231414795,-0.5693522691726685,-0.03147173300385475,-0.6734950542449951
9.67410945892334,0.33436331152915955,-0.734912633895874,0.49229419231414795,-0.5693522691726685,-0.03147173300385475,-0.6734950542449951
9.694595336914062,0.33436331152915955,-0.734912633895874,0.49229419231414795,-0.5693522691726685,-0.03147173300385475,-0.6734950542449951
9.714791536331177,0.33436331152915955,-0.734912633895874,0.49229419231414795,-0.5693522691726685,-0.03147173300385475,-0.6734950542449951
9.734842777252197,0.33436331152915955,-0.734912633895874,0.49229419231414795,-0.5693522691726685,-0.03147173300385475,-0.6734950542449951
9.754926919937134,0.33436331152915955,-0.734912633895874,0.49191272258758545,-0.5693522691726685,-0.03147173300385475,-0.6734950542449951
9.775012254714966,0.33436331152915955,-0.734912633895874,0.49229419231414795,-0.5693522691726685,-0.03147173300385475,-0.6734950542449951
9.795068740844727,0.33436331152915955,-0.734912633895874,0.49229419231414795,-0.5693522691726685,-0.03147173300385475,-0.6734950542449951
9.815168857574463,0.33436331152915955,-0.734912633895874,0.49191272258758545,-0.5693522691726685,-0.03147173300385475,-0.6734950542449951
9.835245609283447,0.33436331152915955,-0.734912633895874,0.49229419231414795,-0.5693522691726685,-0.03147173300385475,-0.6734950542449951
9.855287551879883,0.33436331152915955,-0.734912633895874,0.49229419231414795,-0.5693522691726685,-0.03147173300385475,-0.6734950542449951
9.87542176246643,0.33436331152915955,-0.734912633895874,0.49229419231414795,-0.5693522691726685,-0.03147173300385475,-0.6734950542449951
9.895480155944824,0.33436331152915955,-0.7352941036224365,0.49191272258758545,-0.5693522691726685,-0.03147173300385475,-0.6734950542449951
9.915611743927002,0.33436331152915955,-0.7352941036224365,0.49229419231414795,-0.5693522691726685,-0.03147173300385475,-0.6734950542449951
9.935659646987915,0.33436331152915955,-0.7352941036224365,0.49229419231414795,-0.5693522691726685,-0.03147173300385475,-0.6734950542449951
9.95617413520813,0.33436331152915955,-0.7352941036224365,0.49229419231414795,-0.5693522691726685,-0.03147173300385475,-0.6731135845184326
9.976255655288696,0.33436331152915955,-0.7352941036224365,0.49229419231414795,-0.5693522691726685,-0.03147173300385475,-0.6734950542449951
9.996335983276367,0.33436331152915955,-0.7352941036224365,0.49229419231414795,-0.5693522691726685,-0.03147173300385475,-0.6734950542449951
10.016854286193848,0.33436331152915955,-0.7352941036224365,0.49229419231414795,-0.5693522691726685,-0.03147173300385475,-0.6731135845184326
10.036951780319214,0.33436331152915955,-0.7352941036224365,0.49229419231414795,-0.5693522691726685,-0.03147173300385475,-0.6731135845184326
10.057024955749512,0.33436331152915955,-0.7352941036224365,0.49229419231414795,-0.5693522691726685,-0.03147173300385475,-0.6731135845184326
10.077467441558838,0.33436331152915955,-0.735675573348999,0.49229419231414795,-0.5693522691726685,-0.03147173300385475,-0.6731135845184326
10.097560405731201,0.33436331152915955,-0.735675573348999,0.49229419231414795,-0.5693522691726685,-0.03147173300385475,-0.6731135845184326
10.117653369903564,0.33436331152915955,-0.735675573348999,0.49229419231414795,-0.5693522691726685,-0.03147173300385475,-0.6734950542449951
10.137800693511963,0.33436331152915955,-0.735675573348999,0.49229419231414795,-0.5693522691726685,-0.03147173300385475,-0.6731135845184326
10.157838582992554,0.33436331152915955,-0.735675573348999,0.49267566204071045,-0.5693522691726685,-0.03147173300385475,-0.6731135845184326
10.177916526794434,0.33436331152915955,-0.735675573348999,0.49267566204071045,-0.5693522691726685,-0.03185320645570755,-0.6731135845184326
10.198100566864014,0.33436331152915955,-0.735675573348999,0.49267566204071045,-0.5693522691726685,-0.03185320645570755,-0.6731135845184326
10.21819806098938,0.33436331152915955,-0.735675573348999,0.49267566204071045,-0.5693522691726685,-0.03147173300385475,-0.6731135845184326
10.238380193710327,0.33436331152915955,-0.735675573348999,0.49267566204071045,-0.5693522691726685,-0.03147173300385475,-0.6731135845184326
10.258493661880493,0.33436331152915955,-0.735675573348999,0.49267566204071045,-0.5693522691726685,-0.03147173300385475,-0.6731135845184326
10.278534650802612,0.33436331152915955,-0.7352941036224365,0.49267566204071045,-0.5693522691726685,-0.03147173300385475,-0.6731135845184326
10.298691272735596,0.33436331152915955,-0.734912633895874,0.49229419231414795,-0.5693522691726685,-0.03147173300385475,-0.6731135845184326
10.318822145462036,0.33436331152915955,-0.734912633895874,0.49229419231414795,-0.5693522691726685,-0.03147173300385475,-0.6731135845184326
10.338916063308716,0.33436331152915955,-0.734912633895874,0.49229419231414795,-0.5693522691726685,-0.03147173300385475,-0.6731135845184326
10.359036207199097,0.33436331152915955,-0.734912633895874,0.49229419231414795,-0.5693522691726685,-0.03147173300385475,-0.6731135845184326
10.379091501235962,0.33436331152915955,-0.734912633895874,0.49229419231414795,-0.5693522691726685,-0.03147173300385475,-0.6731135845184326
10.39918303489685,0.33436331152915955,-0.734912633895874,0.49229419231414795,-0.5693522691726685,-0.03147173300385475,-0.6731135845184326
10.419260740280151,0.33436331152915955,-0.734912633895874,0.49229419231414795,-0.5693522691726685,-0.03147173300385475,-0.6731135845184326
10.439382791519165,0.33436331152915955,-0.7352941036224365,0.49229419231414795,-0.5693522691726685,-0.03147173300385475,-0.6731135845184326
10.459611177444458,0.33436331152915955,-0.734912633895874,0.49229419231414795,-0.5693522691726685,-0.03147173300385475,-0.6731135845184326
10.479701042175293,0.33436331152915955,-0.734912633895874,0.49229419231414795,-0.5693522691726685,-0.031090257689356804,-0.6731135845184326
10.499788522720337,0.33436331152915955,-0.734912633895874,0.49229419231414795,-0.5693522691726685,-0.03147173300385475,-0.6731135845184326
10.52003002166748,0.33436331152915955,-0.7352941036224365,0.49229419231414795,-0.5693522691726685,-0.03147173300385475,-0.6731135845184326
10.540167331695557,0.33436331152915955,-0.7352941036224365,0.49229419231414795,-0.5693522691726685,-0.03147173300385475,-0.6731135845184326
10.560210704803467,0.33436331152915955,-0.7352941036224365,0.49229419231414795,-0.5693522691726685,-0.03147173300385475,-0.6731135845184326
10.580439805984497,0.33436331152915955,-0.7352941036224365,0.49229419231414795,-0.5693522691726685,-0.03147173300385475,-0.6731135845184326
10.600531578063965,0.33436331152915955,-0.7352941036224365,0.49229419231414795,-0.5693522691726685,-0.03147173300385475,-0.6731135845184326
10.620672702789307,0.33436331152915955,-0.7352941036224365,0.49229419231414795,-0.5693522691726685,-0.03147173300385475,-0.6731135845184326
10.640888452529907,0.33436331152915955,-0.7352941036224365,0.49229419231414795,-0.5693522691726685,-0.03147173300385475,-0.6731135845184326
10.66091275215149,0.33436331152915955,-0.7352941036224365,0.49229419231414795,-0.5693522691726685,-0.03147173300385475,-0.6731135845184326
10.68111538887024,0.33436331152915955,-0.7352941036224365,0.49229419231414795,-0.5693522691726685,-0.03147173300385475,-0.6731135845184326
10.701226234436035,0.33436331152915955,-0.735675573348999,0.49229419231414795,-0.5693522691726685,-0.03147173300385475,-0.6731135845184326
10.721322536468506,0.33436331152915955,-0.735675573348999,0.49229419231414795,-0.5693522691726685,-0.03147173300385475,-0.6731135845184326
10.741731882095337,0.33436331152915955,-0.735675573348999,0.49229419231414795,-0.5693522691726685,-0.031090257689356804,-0.6731135845184326
10.761825799942017,0.33436331152915955,-0.735675573348999,0.49229419231414795,-0.5693522691726685,-0.03147173300385475,-0.6731135845184326
10.781995296478271,0.33436331152915955,-0.735675573348999,0.49267566204071045,-0.5693522691726685,-0.03147173300385475,-0.6731135845184326
10.802114009857178,0.33436331152915955,-0.735675573348999,0.49267566204071045,-0.5693522691726685,-0.03185320645570755,-0.6731135845184326
10.822198390960693,0.33436331152915955,-0.735675573348999,0.49267566204071045,-0.5693522691726685,-0.03147173300385475,-0.6731135845184326
10.842255592346191,0.33436331152915955,-0.735675573348999,0.49267566204071045,-0.5693522691726685,-0.03147173300385475,-0.6731135845184326
10.862409830093384,0.33436331152915955,-0.735675573348999,0.49267566204071045,-0.5693522691726685,-0.03147173300385475,-0.6731135845184326
10.88244891166687,0.33436331152915955,-0.735675573348999,0.49267566204071045,-0.5693522691726685,-0.03185320645570755,-0.6731135845184326
10.90247654914856,0.33436331152915955,-0.7352941036224365,0.49267566204071045,-0.5693522691726685,-0.03185320645570755,-0.6731135845184326
10.922581195831299,0.33436331152915955,-0.734912633895874,0.49267566204071045,-0.5693522691726685,-0.03147173300385475,-0.6731135845184326
10.942660570144653,0.33436331152915955,-0.734912633895874,0.49267566204071045,-0.5693522691726685,-0.03185320645570755,-0.6731135845184326
10.9627206325531,0.33436331152915955,-0.734912633895874,0.49267566204071045,-0.5693522691726685,-0.03185320645570755,-0.6731135845184326
10.982812643051147,0.33436331152915955,-0.734912633895874,0.49267566204071045,-0.5693522691726685,-0.03147173300385475,-0.6731135845184326
11.00297999382019,0.33436331152915955,-0.734912633895874,0.49229419231414795,-0.5693522691726685,-0.03147173300385475,-0.6731135845184326
11.023147821426392,0.33436331152915955,-0.734912633895874,0.49229419231414795,-0.5693522691726685,-0.03147173300385475,-0.6731135845184326
11.04323434829712,0.33436331152915955,-0.734912633895874,0.49229419231414795,-0.5693522691726685,-0.03147173300385475,-0.6731135845184326
11.063286781311035,0.33436331152915955,-0.734912633895874,0.49229419231414795,-0.5693522691726685,-0.03147173300385475,-0.6731135845184326
11.083400249481201,0.33436331152915955,-0.734912633895874,0.49229419231414795,-0.5693522691726685,-0.03147173300385475,-0.6731135845184326
11.103495836257935,0.33436331152915955,-0.734912633895874,0.49229419231414795,-0.5693522691726685,-0.03147173300385475,-0.6731135845184326
11.123849391937256,0.33436331152915955,-0.734912633895874,0.49229419231414795,-0.5693522691726685,-0.03147173300385475,-0.6731135845184326
11.143985271453857,0.33436331152915955,-0.734912633895874,0.49229419231414795,-0.5693522691726685,-0.03147173300385475,-0.6731135845184326
11.164072036743164,0.33436331152915955,-0.734912633895874,0.49229419231414795,-0.5693522691726685,-0.03147173300385475,-0.6731135845184326
11.18413257598877,0.33436331152915955,-0.734912633895874,0.49229419231414795,-0.5693522691726685,-0.03147173300385475,-0.6731135845184326
11.204205989837646,0.33436331152915955,-0.734912633895874,0.49229419231414795,-0.5693522691726685,-0.03147173300385475,-0.6731135845184326
11.224321365356445,0.33436331152915955,-0.734912633895874,0.49229419231414795,-0.5693522691726685,-0.03147173300385475,-0.6731135845184326
11.244518995285034,0.33436331152915955,-0.734912633895874,0.49229419231414795,-0.5693522691726685,-0.03147173300385475,-0.6731135845184326
11.264511346817017,0.33436331152915955,-0.734912633895874,0.49229419231414795,-0.5693522691726685,-0.03185320645570755,-0.6731135845184326
11.284625768661499,0.33436331152915955,-0.734912633895874,0.49229419231414795,-0.5693522691726685,-0.03185320645570755,-0.6731135845184326
11.304747581481934,0.33436331152915955,-0.734912633895874,0.49229419231414795,-0.5693522691726685,-0.03147173300385475,-0.6731135845184326
11.324808835983276,0.33436331152915955,-0.734912633895874,0.49229419231414795,-0.5693522691726685,-0.03147173300385475,-0.6731135845184326
11.344930410385132,0.33436331152915955,-0.734912633895874,0.49229419231414795,-0.5693522691726685,-0.03147173300385475,-0.6731135845184326
11.364982604980469,0.33436331152915955,-0.734912633895874,0.49229419231414795,-0.5693522691726685,-0.03185320645570755,-0.6731135845184326
11.385145902633667,0.33436331152915955,-0.734912633895874,0.49229419231414795,-0.5693522691726685,-0.03185320645570755,-0.6731135845184326
11.405243635177612,0.33436331152915955,-0.734912633895874,0.49229419231414795,-0.5693522691726685,-0.03185320645570755,-0.6731135845184326
11.425348043441772,0.33436331152915955,-0.734912633895874,0.49229419231414795,-0.5693522691726685,-0.03147173300385475,-0.6731135845184326
11.445502996444702,0.33436331152915955,-0.734912633895874,0.49229419231414795,-0.5693522691726685,-0.03147173300385475,-0.6731135845184326
11.465605974197388,0.33436331152915955,-0.734912633895874,0.49229419231414795,-0.5693522691726685,-0.03185320645570755,-0.6731135845184326
11.48569107055664,0.33436331152915955,-0.734912633895874,0.49229419231414795,-0.5693522691726685,-0.03185320645570755,-0.6731135845184326
11.5057692527771,0.33436331152915955,-0.734912633895874,0.49229419231414795,-0.5693522691726685,-0.03185320645570755,-0.6731135845184326
11.525853157043457,0.33436331152915955,-0.734912633895874,0.49229419231414795,-0.5693522691726685,-0.03147173300385475,-0.6731135845184326
11.545877456665039,0.33436331152915955,-0.734912633895874,0.49229419231414795,-0.5693522691726685,-0.03147173300385475,-0.6731135845184326
11.565967321395874,0.33436331152915955,-0.7352941036224365,0.49229419231414795,-0.5693522691726685,-0.03185320645570755,-0.6731135845184326
11.586036920547485,0.33436331152915955,-0.734912633895874,0.49229419231414795,-0.5693522691726685,-0.03185320645570755,-0.6731135845184326
11.606432676315308,0.33436331152915955,-0.734912633895874,0.49229419231414795,-0.5693522691726685,-0.03185320645570755,-0.6731135845184326
11.626543521881104,0.33436331152915955,-0.734912633895874,0.49229419231414795,-0.5693522691726685,-0.03147173300385475,-0.6731135845184326
11.646576404571533,0.33436331152915955,-0.7352941036224365,0.49229419231414795,-0.5693522691726685,-0.03147173300385475,-0.6731135845184326
11.666662693023682,0.33436331152915955,-0.734912633895874,0.49229419231414795,-0.5693522691726685,-0.03185320645570755,-0.6731135845184326
11.686835289001465,0.33436331152915955,-0.734912633895874,0.49229419231414795,-0.5693522691726685,-0.03185320645570755,-0.6731135845184326
11.706932783126831,0.33436331152915955,-0.734912633895874,0.49229419231414795,-0.5693522691726685,-0.03185320645570755,-0.6731135845184326
11.72708773612976,0.33436331152915955,-0.7352941036224365,0.49229419231414795,-0.5693522691726685,-0.03147173300385475,-0.6731135845184326
11.747386932373047,0.33436331152915955,-0.734912633895874,0.49229419231414795,-0.5693522691726685,-0.03147173300385475,-0.6731135845184326
11.767522811889648,0.33436331152915955,-0.7352941036224365,0.49229419231414795,-0.5693522691726685,-0.03147173300385475,-0.6731135845184326
11.787599802017212,0.33436331152915955,-0.7352941036224365,0.49229419231414795,-0.5693522691726685,-0.03147173300385475,-0.6731135845184326
11.807658195495605,0.33436331152915955,-0.734912633895874,0.49229419231414795,-0.5693522691726685,-0.03147173300385475,-0.6731135845184326
11.827827453613281,0.33436331152915955,-0.734912633895874,0.49229419231414795,-0.5693522691726685,-0.03147173300385475,-0.6731135845184326
11.84784746170044,0.33436331152915955,-0.734912633895874,0.49229419231414795,-0.5693522691726685,-0.03147173300385475,-0.6731135845184326
11.867969036102295,0.33436331152915955,-0.7352941036224365,0.49229419231414795,-0.5693522691726685,-0.03147173300385475,-0.6731135845184326
11.888055801391602,0.33436331152915955,-0.7352941036224365,0.49229419231414795,-0.5693522691726685,-0.03147173300385475,-0.6731135845184326
11.90853238105774,0.33436331152915955,-0.7352941036224365,0.49229419231414795,-0.5693522691726685,-0.03147173300385475,-0.6731135845184326
11.928696393966675,0.33436331152915955,-0.7352941036224365,0.49229419231414795,-0.5693522691726685,-0.03147173300385475,-0.6731135845184326
11.948745250701904,0.33436331152915955,-0.7352941036224365,0.49229419231414795,-0.5693522691726685,-0.03147173300385475,-0.6731135845184326
11.968857765197754,0.33436331152915955,-0.7352941036224365,0.49229419231414795,-0.5693522691726685,-0.03147173300385475,-0.6731135845184326
11.988959550857544,0.33436331152915955,-0.7352941036224365,0.49229419231414795,-0.5693522691726685,-0.03147173300385475,-0.6731135845184326
12.009035348892212,0.33436331152915955,-0.735675573348999,0.49229419231414795,-0.5693522691726685,-0.03147173300385475,-0.6731135845184326
12.029168367385864,0.33436331152915955,-0.735675573348999,0.49229419231414795,-0.5693522691726685,-0.03147173300385475,-0.6731135845184326
12.049307346343994,0.33436331152915955,-0.735675573348999,0.49229419231414795,-0.5693522691726685,-0.03147173300385475,-0.6731135845184326
12.069425106048584,0.33436331152915955,-0.735675573348999,0.49229419231414795,-0.5693522691726685,-0.03147173300385475,-0.6731135845184326
12.089476823806763,0.33436331152915955,-0.735675573348999,0.49229419231414795,-0.5693522691726685,-0.03185320645570755,-0.6731135845184326
12.109557628631592,0.33436331152915955,-0.735675573348999,0.49229419231414795,-0.5693522691726685,-0.03185320645570755,-0.6731135845184326
12.129645824432373,0.33436331152915955,-0.7352941036224365,0.49229419231414795,-0.5693522691726685,-0.03147173300385475,-0.6731135845184326
12.149727582931519,0.33436331152915955,-0.734912633895874,0.49229419231414795,-0.5693522691726685,-0.03147173300385475,-0.6731135845184326
12.169890403747559,0.33436331152915955,-0.734912633895874,0.49229419231414795,-0.5693522691726685,-0.03147173300385475,-0.6731135845184326
12.189956426620483,0.33436331152915955,-0.734912633895874,0.49229419231414795,-0.5693522691726685,-0.03147173300385475,-0.6731135845184326
12.210005044937134,0.33436331152915955,-0.734912633895874,0.49229419231414795,-0.5693522691726685,-0.03147173300385475,-0.6731135845184326
12.23009991645813,0.33436331152915955,-0.7352941036224365,0.49229419231414795,-0.5693522691726685,-0.031090257689356804,-0.6731135845184326
12.269518852233887,0.33436331152915955,-0.734912633895874,0.49229419231414795,-0.5693522691726685,-0.03147173300385475,-0.6731135845184326
12.289653778076172,0.33436331152915955,-0.734912633895874,0.49229419231414795,-0.5693522691726685,-0.03147173300385475,-0.6731135845184326
12.309700965881348,0.33436331152915955,-0.734912633895874,0.49229419231414795,-0.5693522691726685,-0.03147173300385475,-0.6731135845184326
12.329809188842773,0.33436331152915955,-0.734912633895874,0.49229419231414795,-0.5693522691726685,-0.03147173300385475,-0.6731135845184326
12.349931955337524,0.33436331152915955,-0.734912633895874,0.49229419231414795,-0.5693522691726685,-0.03147173300385475,-0.6731135845184326
12.369969844818115,0.33436331152915955,-0.734912633895874,0.49229419231414795,-0.5693522691726685,-0.03147173300385475,-0.6731135845184326
12.39003586769104,0.33436331152915955,-0.734912633895874,0.49229419231414795,-0.5693522691726685,-0.03147173300385475,-0.6731135845184326
12.410244226455688,0.33436331152915955,-0.734912633895874,0.49229419231414795,-0.5693522691726685,-0.03147173300385475,-0.6731135845184326
12.430311918258667,0.33436331152915955,-0.7352941036224365,0.49229419231414795,-0.5693522691726685,-0.03147173300385475,-0.6731135845184326
12.450477123260498,0.33436331152915955,-0.7352941036224365,0.49229419231414795,-0.5693522691726685,-0.03147173300385475,-0.6731135845184326
12.47059679031372,0.33436331152915955,-0.7352941036224365,0.49229419231414795,-0.5693522691726685,-0.03147173300385475,-0.6731135845184326
12.490754842758179,0.33436331152915955,-0.7352941036224365,0.49229419231414795,-0.5693522691726685,-0.03147173300385475,-0.6731135845184326
12.511082410812378,0.33436331152915955,-0.7352941036224365,0.49229419231414795,-0.5693522691726685,-0.03147173300385475,-0.6731135845184326
12.531151533126831,0.33436331152915955,-0.7352941036224365,0.49229419231414795,-0.5693522691726685,-0.03147173300385475,-0.6731135845184326
12.55121922492981,0.33436331152915955,-0.7352941036224365,0.49229419231414795,-0.5693522691726685,-0.03147173300385475,-0.6731135845184326
12.571331024169922,0.33016708493232727,-0.734912633895874,0.49191272258758545,-0.5693522691726685,-0.031090257689356804,-0.6731135845184326
12.591537237167358,0.3213931620121002,-0.734912633895874,0.49153125286102295,-0.569733738899231,-0.02841992862522602,-0.6731135845184326
12.611647129058838,0.3072785437107086,-0.734912633895874,0.48962387442588806,-0.5708781480789185,-0.02727550081908703,-0.6731135845184326
12.631693840026855,0.2924010157585144,-0.734912633895874,0.4888609051704407,-0.5716410875320435,-0.02536812424659729,-0.6731135845184326
12.652070999145508,0.26913100481033325,-0.734912633895874,0.4869535267353058,-0.5735484957695007,-0.024986648932099342,-0.6738765835762024
12.67220950126648,0.2439536154270172,-0.734912633895874,0.4850461483001709,-0.5750743746757507,-0.02536812424659729,-0.6734950542449951
12.692255973815918,0.2138170450925827,-0.734912633895874,0.4835202693939209,-0.576981782913208,-0.027656977996230125,-0.6742580533027649
12.712347984313965,0.17872129380702972,-0.734912633895874,0.481612890958786,-0.579270601272583,-0.03299763426184654,-0.6734950542449951
12.732499837875366,0.13828489184379578,-0.734912633895874,0.4800869822502136,-0.5815594792366028,-0.03795681521296501,-0.6742580533027649
12.752758264541626,0.09822995215654373,-0.734912633895874,0.47932401299476624,-0.5846112966537476,-0.04482337832450867,-0.6742580533027649
12.772850751876831,0.0555046908557415,-0.734912633895874,0.47703516483306885,-0.5880445837974548,-0.04749370738863945,-0.6742580533027649
12.792926549911499,0.013923857361078262,-0.734912633895874,0.47474631667137146,-0.5918593406677246,-0.051689937710762024,-0.6738765835762024
12.813011169433594,-0.026512550190091133,-0.735675573348999,0.4716945290565491,-0.5971999764442444,-0.05359731614589691,-0.6742580533027649
12.833092212677002,-0.06733043491840363,-0.7368200421333313,0.4671168029308319,-0.6036850810050964,-0.053215838968753815,-0.6738765835762024
12.853198766708374,-0.10166323184967041,-0.7383459210395813,0.464446485042572,-0.6109330654144287,-0.054741740226745605,-0.6738765835762024
12.873317241668701,-0.1371404528617859,-0.7398717999458313,0.46139466762542725,-0.620851457118988,-0.04940108209848404,-0.6742580533027649
12.893447875976562,-0.1657511293888092,-0.7413977384567261,0.45872434973716736,-0.6288624405860901,-0.04558632895350456,-0.6738765835762024
12.913576126098633,-0.19245441257953644,-0.7421606779098511,0.45757991075515747,-0.6406881809234619,-0.03490501269698143,-0.6734950542449951
12.93366813659668,-0.2153429538011551,-0.7421606779098511,0.45719844102859497,-0.6506065726280212,-0.021171892061829567,-0.6727321147918701
12.953813314437866,-0.23823148012161255,-0.7410162687301636,0.45681697130203247,-0.6609063744544983,-0.004005493130534887,-0.6719691753387451
12.97385549545288,-0.2622644305229187,-0.7379644513130188,0.45681697130203247,-0.6712062358856201,0.018501564860343933,-0.6696802973747253
12.993940353393555,-0.28667888045310974,-0.7330052852630615,0.45681697130203247,-0.6803616285324097,0.04444190114736557,-0.6692988276481628
13.01411747932434,-0.3118562698364258,-0.7288090586662292,0.45681697130203247,-0.689517080783844,0.06198977679014206,-0.6689173579216003
13.034260272979736,-0.3416113555431366,-0.7227054238319397,0.45757991075515747,-0.6986724734306335,0.08297093212604523,-0.6673914790153503
13.054314613342285,-0.3686961233615875,-0.7166017889976501,0.45910581946372986,-0.7055390477180481,0.09746700525283813,-0.6666285395622253
13.074493408203125,-0.3896772861480713,-0.7150759100914001,0.46177613735198975,-0.7108796834945679,0.11043716967105865,-0.6658655405044556
13.094592809677124,-0.4064621925354004,-0.7124055624008179,0.4659723937511444,-0.7169833183288574,0.12264438718557358,-0.6647211313247681
13.114632606506348,-0.4186694025993347,-0.7104982137680054,0.4694056510925293,-0.7215610146522522,0.14171816408634186,-0.6639581918716431
13.134723901748657,-0.43202105164527893,-0.7032501697540283,0.4720759987831116,-0.726138710975647,0.15888457000255585,-0.6631952524185181
13.15481686592102,-0.4491874575614929,-0.6956206560134888,0.47512778639793396,-0.7272831201553345,0.1974135935306549,-0.6631952524185181
13.174882888793945,-0.46025025844573975,-0.689517080783844,0.47703516483306885,-0.726901650428772,0.22640573978424072,-0.6628137826919556
13.194982528686523,-0.47398337721824646,-0.6826505064964294,0.47856107354164124,-0.7265201807022095,0.25196459889411926,-0.6628137826919556
13.216539859771729,-0.4865720570087433,-0.6761654019355774,0.4800869822502136,-0.726138710975647,0.2744716703891754,-0.6631952524185181
13.236647129058838,-0.4964904189109802,-0.6708247661590576,0.4808499217033386,-0.726138710975647,0.290875107049942,-0.6647211313247681
13.256709337234497,-0.5064088106155396,-0.6654840707778931,0.4827573001384735,-0.725375771522522,0.3061341345310211,-0.6647211313247681
13.276878356933594,-0.5132753252983093,-0.6612878441810608,0.4846646785736084,-0.725375771522522,0.3133821487426758,-0.6662470698356628
13.296894311904907,-0.5189974904060364,-0.657473087310791,0.4869535267353058,-0.7227054238319397,0.31834134459495544,-0.6662470698356628
13.316996335983276,-0.5209048390388489,-0.6548027992248535,0.4880979657173157,-0.7219424843788147,0.3255893886089325,-0.6666285395622253
13.337154626846313,-0.5231937170028687,-0.6509880423545837,0.4884794354438782,-0.7207980751991272,0.33474478125572205,-0.6673914790153503
13.357159614562988,-0.5239566564559937,-0.6490806341171265,0.4888609051704407,-0.7196536064147949,0.34657052159309387,-0.6692988276481628
13.377249717712402,-0.5243381261825562,-0.6456473469734192,0.4892423748970032,-0.7185091972351074,0.36602577567100525,-0.6708247661590576
13.397403478622437,-0.5296788215637207,-0.6410696506500244,0.49000534415245056,-0.7173647880554199,0.3854810297489166,-0.6754024624824524
13.417712450027466,-0.5342565178871155,-0.6372548937797546,0.49076828360557556,-0.7146944403648376,0.39692530035972595,-0.6811245679855347
13.437802791595459,-0.5395971536636353,-0.6334401369094849,0.49229419231414795,-0.7127870321273804,0.4045548141002655,-0.6841763854026794
13.457905530929565,-0.54112309217453,-0.6319142580032349,0.49229419231414795,-0.7093538045883179,0.404936283826828,-0.6860837936401367
13.477959632873535,-0.54112309217453,-0.6311513185501099,0.49229419231414795,-0.7082093358039856,0.404936283826828,-0.6868467330932617
13.498070001602173,-0.5399786233901978,-0.6311513185501099,0.49191272258758545,-0.7082093358039856,0.4053177833557129,-0.6887540817260742
13.518115282058716,-0.5373083353042603,-0.6311513185501099,0.49191272258758545,-0.7097352743148804,0.4091325104236603,-0.690280020236969
13.538207292556763,-0.5357823967933655,-0.6307697892189026,0.49229419231414795,-0.7093538045883179,0.4179064631462097,-0.6929503083229065
13.558339357376099,-0.535400927066803,-0.6292439103126526,0.49343863129615784,-0.7082093358039856,0.4243915379047394,-0.6963835954666138
13.578423023223877,-0.535400927066803,-0.6277180314064026,0.49458304047584534,-0.7063019871711731,0.43125811219215393,-0.697528064250946
13.598637104034424,-0.536926805973053,-0.6269550919532776,0.49496451020240784,-0.7047760486602783,0.4335469603538513,-0.699053943157196
13.618631839752197,-0.5380712747573853,-0.6265735626220703,0.49496451020240784,-0.7032501697540283,0.4350728690624237,-0.7021057605743408
13.638816118240356,-0.5376898050308228,-0.6265735626220703,0.49458304047584534,-0.7036316394805908,0.4365987777709961,-0.7051575779914856
13.658942937850952,-0.5380712747573853,-0.6265735626220703,0.49458304047584534,-0.7051575779914856,0.4365987777709961,-0.7070649266242981
13.678990840911865,-0.5373083353042603,-0.6269550919532776,0.49496451020240784,-0.7059205174446106,0.4362172782421112,-0.7089722752571106
13.699101209640503,-0.533875048160553,-0.6269550919532776,0.4961089491844177,-0.7055390477180481,0.4365987777709961,-0.7116426229476929
13.719190835952759,-0.5315861701965332,-0.6265735626220703,0.4968718886375427,-0.7043945789337158,0.438506156206131,-0.7131685614585876
13.739901542663574,-0.5308232307434082,-0.6269550919532776,0.4972533881664276,-0.7032501697540283,0.439269095659256,-0.7146944403648376
13.76008915901184,-0.5289158225059509,-0.6269550919532776,0.4972533881664276,-0.7021057605743408,0.44460976123809814,-0.7150759100914001
13.780133962631226,-0.5300602912902832,-0.6269550919532776,0.4968718886375427,-0.7021057605743408,0.4488059878349304,-0.7166017889976501
13.800303220748901,-0.5304417610168457,-0.6269550919532776,0.4968718886375427,-0.7024872303009033,0.4495689272880554,-0.7196536064147949
13.82047724723816,-0.5315861701965332,-0.6269550919532776,0.4968718886375427,-0.7028687000274658,0.4495689272880554,-0.7223239541053772
13.840484857559204,-0.5319676399230957,-0.6269550919532776,0.4968718886375427,-0.7028687000274658,0.44651713967323303,-0.7227054238319397
13.860591888427734,-0.5323491096496582,-0.6269550919532776,0.4968718886375427,-0.7028687000274658,0.44460976123809814,-0.7227054238319397
13.880642890930176,-0.5308232307434082,-0.6269550919532776,0.4972533881664276,-0.7028687000274658,0.44460976123809814,-0.7234683632850647
13.900697946548462,-0.5285343527793884,-0.6277180314064026,0.4972533881664276,-0.7028687000274658,0.44575417041778564,-0.7249943017959595
13.920872449874878,-0.5266270041465759,-0.6288624405860901,0.4972533881664276,-0.7024872303009033,0.44804301857948303,-0.7280460596084595
13.94096302986145,-0.5247195959091187,-0.6288624405860901,0.4972533881664276,-0.7021057605743408,0.4499503970146179,-0.7303349375724792
13.961022138595581,-0.5231937170028687,-0.6288624405860901,0.4972533881664276,-0.7021057605743408,0.4537651538848877,-0.7310978770256042
13.981104850769043,-0.5266270041465759,-0.6284809708595276,0.4980163276195526,-0.7009612917900085,0.4560540020465851,-0.733386754989624
14.001208066940308,-0.5296788215637207,-0.6284809708595276,0.4987792670726776,-0.7009612917900085,0.4545281231403351,-0.7337682247161865
14.021294593811035,-0.5319676399230957,-0.6284809708595276,0.4991607666015625,-0.7009612917900085,0.4537651538848877,-0.7337682247161865
14.041366577148438,-0.5308232307434082,-0.6288624405860901,0.4991607666015625,-0.700579822063446,0.4488059878349304,-0.7337682247161865
14.061442136764526,-0.5277714133262634,-0.6292439103126526,0.4991607666015625,-0.7009612917900085,0.44613564014434814,-0.7345311641693115
14.081562757492065,-0.5254825949668884,-0.6300068497657776,0.4987792670726776,-0.700579822063446,0.44728007912635803,-0.7345311641693115
14.101654767990112,-0.5235751867294312,-0.6300068497657776,0.4983977973461151,-0.7001983523368835,0.4507133662700653,-0.735675573348999
14.121785640716553,-0.5220493078231812,-0.6300068497657776,0.4980163276195526,-0.699816882610321,0.4560540020465851,-0.7379644513130188
14.141970872879028,-0.5243381261825562,-0.6300068497657776,0.4980163276195526,-0.6994354128837585,0.46101319789886475,-0.7387273907661438
14.162024736404419,-0.5270084738731384,-0.6296253800392151,0.4980163276195526,-0.6994354128837585,0.46177613735198975,-0.7394903302192688
14.182108402252197,-0.5300602912902832,-0.6296253800392151,0.4980163276195526,-0.699053943157196,0.46101319789886475,-0.7410162687301636
14.202173948287964,-0.5315861701965332,-0.6296253800392151,0.4980163276195526,-0.6994354128837585,0.45681697130203247,-0.7410162687301636
14.222450494766235,-0.5312047004699707,-0.6300068497657776,0.4983977973461151,-0.699816882610321,0.4510948359966278,-0.7410162687301636
14.242567300796509,-0.5258640646934509,-0.6307697892189026,0.4983977973461151,-0.699816882610321,0.44689860939979553,-0.7410162687301636
14.262638568878174,-0.5235751867294312,-0.6311513185501099,0.4983977973461151,-0.6994354128837585,0.44728007912635803,-0.7410162687301636
14.282697677612305,-0.5220493078231812,-0.6311513185501099,0.4983977973461151,-0.699053943157196,0.4499503970146179,-0.7410162687301636
