liuyurong129/humanoid-gym/humanoid/data/actual_q_20250521-003100.csv
timestamp,joint_1,joint_2,joint_3,joint_4,joint_5,joint_6
3.218650817871094e-05,0.00019073777366429567,0.17376211285591125,-0.086785688996315,-0.00019073777366429567,0.00019073777366429567,0.00019073777366429567
0.020112276077270508,0.00019073777366429567,0.15316243469715118,-0.07953765243291855,-0.00019073777366429567,-0.001716639962978661,0.00019073777366429567
0.04019474983215332,0.00019073777366429567,0.12989242374897003,-0.06771191209554672,-0.00019073777366429567,0.000572213320992887,0.00019073777366429567
0.060243844985961914,-0.00019073777366429567,0.11196307092905045,-0.06046387553215027,-0.00019073777366429567,0.0013351644156500697,0.00019073777366429567
0.08033013343811035,0.000572213320992887,0.10814831405878067,-0.059319447726011276,-0.00019073777366429567,0.00019073777366429567,0.00019073777366429567
0.10039091110229492,0.000572213320992887,0.10891126841306686,-0.05893797054886818,-0.00019073777366429567,0.00019073777366429567,0.00019073777366429567
0.12050509452819824,0.000572213320992887,0.10967422276735306,-0.05741206929087639,0.00019073777366429567,0.00019073777366429567,0.00019073777366429567
0.14061188697814941,0.000572213320992887,0.10852979123592377,-0.056267641484737396,0.00019073777366429567,0.00019073777366429567,0.00019073777366429567
0.16070342063903809,0.000572213320992887,0.10738536715507507,-0.0555046908557415,0.00019073777366429567,0.00019073777366429567,0.00019073777366429567
0.18073821067810059,0.000572213320992887,0.10585946589708328,-0.054741740226745605,0.00019073777366429567,0.00019073777366429567,0.000572213320992887
0.20081210136413574,0.0009536888683214784,0.10433356463909149,-0.054741740226745605,0.00019073777366429567,0.00019073777366429567,0.000572213320992887
0.22088265419006348,0.0013351644156500697,0.1024261862039566,-0.05436026677489281,0.00019073777366429567,0.00019073777366429567,0.000572213320992887
0.24091792106628418,0.001716639962978661,0.1024261862039566,-0.053215838968753815,0.00019073777366429567,0.00019073777366429567,0.000572213320992887
0.26098084449768066,0.0020981156267225742,0.10128175467252731,-0.051689937710762024,0.00019073777366429567,0.00019073777366429567,0.000572213320992887
0.28105592727661133,0.0020981156267225742,0.10051880776882172,-0.05092698708176613,0.00019073777366429567,0.00019073777366429567,0.000572213320992887
0.30112242698669434,0.0024795911740511656,0.09975585341453552,-0.05054550990462303,0.00019073777366429567,0.000572213320992887,0.000572213320992887
0.32125115394592285,0.0024795911740511656,0.09822995215654373,-0.050164032727479935,0.000572213320992887,0.00019073777366429567,0.000572213320992887
0.3413124084472656,0.0024795911740511656,0.09708552807569504,-0.04940108209848404,0.000572213320992887,0.000572213320992887,0.0009536888683214784
0.36135053634643555,0.0024795911740511656,0.09708552807569504,-0.04901960864663124,0.0009536888683214784,0.00019073777366429567,0.0009536888683214784
0.38138914108276367,0.0024795911740511656,0.09517814964056015,-0.04787518084049225,0.0009536888683214784,0.00019073777366429567,0.0009536888683214784
0.40146613121032715,0.002861066721379757,0.09403372555971146,-0.04749370738863945,0.0013351644156500697,0.00019073777366429567,0.0013351644156500697
0.4215281009674072,0.002861066721379757,0.09288929402828217,-0.04596780240535736,0.001716639962978661,0.00019073777366429567,0.0020981156267225742
0.44161081314086914,0.002861066721379757,0.09212634712457657,-0.04558632895350456,0.0020981156267225742,0.000572213320992887,0.002861066721379757
0.4616985321044922,0.002861066721379757,0.09098191559314728,-0.045204851776361465,0.0024795911740511656,0.00019073777366429567,0.002861066721379757
0.48178982734680176,0.0036240178160369396,0.08945601433515549,-0.043678950518369675,0.002861066721379757,0.00019073777366429567,0.002861066721379757
0.5018465518951416,0.004005493130534887,0.0883115902543068,-0.04291599988937378,0.002861066721379757,0.000572213320992887,0.002861066721379757
0.5219161510467529,0.004386968910694122,0.0875486359000206,-0.04177157208323479,0.0032425422687083483,0.000572213320992887,0.0032425422687083483
0.5419764518737793,0.00476844422519207,0.086785688996315,-0.04100862145423889,0.0032425422687083483,0.000572213320992887,0.0032425422687083483
0.5620484352111816,0.00476844422519207,0.08525978773832321,-0.0398641936480999,0.0036240178160369396,0.000572213320992887,0.0032425422687083483
0.5821127891540527,0.00476844422519207,0.08411535620689392,-0.039101243019104004,0.0036240178160369396,0.00019073777366429567,0.0032425422687083483
0.6022067070007324,0.00476844422519207,0.08297093212604523,-0.038719769567251205,0.0036240178160369396,0.000572213320992887,0.0032425422687083483
0.6224884986877441,0.00476844422519207,0.08182650804519653,-0.03795681521296501,0.004005493130534887,0.000572213320992887,0.0032425422687083483
0.6425971984863281,0.00476844422519207,0.08030059933662415,-0.037193864583969116,0.004005493130534887,0.000572213320992887,0.0036240178160369396
0.6626675128936768,0.005149920005351305,0.07991912961006165,-0.03643091395497322,0.004005493130534887,0.000572213320992887,0.0036240178160369396
0.6828022003173828,0.005149920005351305,0.07877469807863235,-0.03604944050312042,0.004386968910694122,0.000572213320992887,0.0036240178160369396
0.7030124664306641,0.005149920005351305,0.07763027399778366,-0.03490501269698143,0.004386968910694122,0.000572213320992887,0.0036240178160369396
0.7231340408325195,0.006294346414506435,0.07610437273979187,-0.03376058489084244,0.00476844422519207,0.000572213320992887,0.0036240178160369396
0.7432243824005127,0.007057297509163618,0.07534141838550568,-0.03299763426184654,0.005149920005351305,0.00019073777366429567,0.004005493130534887
0.7632548809051514,0.00667582219466567,0.07381551712751389,-0.03223468363285065,0.005912871100008488,0.000572213320992887,0.004005493130534887
0.7835476398468018,0.007057297509163618,0.0722896158695221,-0.031090257689356804,0.00667582219466567,0.000572213320992887,0.004005493130534887
0.8036909103393555,0.007057297509163618,0.0711451917886734,-0.03032730519771576,0.00667582219466567,0.000572213320992887,0.004386968910694122
0.8237936496734619,0.007057297509163618,0.0707637146115303,-0.029182879254221916,0.007057297509163618,0.000572213320992887,0.004386968910694122
0.8438401222229004,0.007057297509163618,0.06923781335353851,-0.02841992862522602,0.007057297509163618,0.000572213320992887,0.00476844422519207
0.8639247417449951,0.007057297509163618,0.06771191209554672,-0.02689402550458908,0.007438773289322853,0.000572213320992887,0.00476844422519207
0.883997917175293,0.007057297509163618,0.06694895774126053,-0.026131074875593185,0.007438773289322853,0.000572213320992887,0.005149920005351305
0.904069185256958,0.007438773289322853,0.06580453366041183,-0.025749599561095238,0.007438773289322853,0.000572213320992887,0.005531395319849253
0.9241776466369629,0.0078202486038208,0.06466010212898254,-0.024986648932099342,0.007438773289322853,0.000572213320992887,0.006294346414506435
0.9442687034606934,0.008201723918318748,0.06351567804813385,-0.024223696440458298,0.0078202486038208,0.000572213320992887,0.007057297509163618
0.9643385410308838,0.008201723918318748,0.06275273114442825,-0.023460745811462402,0.0078202486038208,0.000572213320992887,0.007438773289322853
0.984400749206543,0.008201723918318748,0.06198977679014206,-0.022697795182466507,0.008201723918318748,0.000572213320992887,0.007438773289322853
1.004457712173462,0.008201723918318748,0.06084534898400307,-0.02193484455347061,0.008201723918318748,0.000572213320992887,0.007438773289322853
1.0245544910430908,0.008964675478637218,0.059319447726011276,-0.021171892061829567,0.00858320016413927,0.000572213320992887,0.007438773289322853
1.0446875095367432,0.008964675478637218,0.05855649709701538,-0.02040894143283367,0.008964675478637218,0.000572213320992887,0.0078202486038208
1.0647408962249756,0.008964675478637218,0.057793546468019485,-0.020027466118335724,0.009346150793135166,0.000572213320992887,0.0078202486038208
1.0848779678344727,0.008964675478637218,0.056267641484737396,-0.01926451548933983,0.009727626107633114,0.000572213320992887,0.0078202486038208
1.1049723625183105,0.009346150793135166,0.0551232174038887,-0.018120087683200836,0.010109102353453636,0.000572213320992887,0.008201723918318748
1.1252422332763672,0.009346150793135166,0.05397878959774971,-0.01735713705420494,0.010490577667951584,0.000572213320992887,0.008201723918318748
1.1453099250793457,0.010109102353453636,0.053215838968753815,-0.016594186425209045,0.010490577667951584,0.000572213320992887,0.008964675478637218
1.1654198169708252,0.010109102353453636,0.051689937710762024,-0.01583123579621315,0.010872052982449532,0.000572213320992887,0.009727626107633114
1.1854979991912842,0.010109102353453636,0.050164032727479935,-0.014686808921396732,0.010872052982449532,0.0009536888683214784,0.010490577667951584
1.2056081295013428,0.010109102353453636,0.049782559275627136,-0.01430533267557621,0.01125352829694748,0.0009536888683214784,0.010490577667951584
1.2256498336791992,0.010109102353453636,0.04901960864663124,-0.013542382046580315,0.01125352829694748,0.0009536888683214784,0.010490577667951584
1.2459449768066406,0.010490577667951584,0.04787518084049225,-0.01201647985726595,0.01125352829694748,0.000572213320992887,0.010872052982449532
1.266026496887207,0.010872052982449532,0.04634927958250046,-0.01125352829694748,0.011635004542768002,0.000572213320992887,0.010872052982449532
1.286109447479248,0.01125352829694748,0.04596780240535736,-0.010490577667951584,0.011635004542768002,0.000572213320992887,0.010872052982449532
1.3061604499816895,0.01125352829694748,0.04482337832450867,-0.010109102353453636,0.01201647985726595,0.000572213320992887,0.010872052982449532
1.3262453079223633,0.01125352829694748,0.04329747334122658,-0.008964675478637218,0.01201647985726595,0.0009536888683214784,0.010872052982449532
1.3463306427001953,0.01201647985726595,0.042153049260377884,-0.0078202486038208,0.012397955171763897,0.000572213320992887,0.010872052982449532
1.3664016723632812,0.012397955171763897,0.04139009863138199,-0.007057297509163618,0.012397955171763897,0.0009536888683214784,0.010872052982449532
1.3864893913269043,0.01201647985726595,0.040245670825242996,-0.006294346414506435,0.013542382046580315,0.0009536888683214784,0.010872052982449532
1.4065725803375244,0.012397955171763897,0.0394827201962471,-0.005912871100008488,0.01430533267557621,0.0009536888683214784,0.01125352829694748
1.4266183376312256,0.012397955171763897,0.038719769567251205,-0.005531395319849253,0.014686808921396732,0.0009536888683214784,0.01125352829694748
1.4467055797576904,0.012397955171763897,0.03795681521296501,-0.005149920005351305,0.014686808921396732,0.0009536888683214784,0.01125352829694748
1.466731071472168,0.012779430486261845,0.037193864583969116,-0.004386968910694122,0.014686808921396732,0.000572213320992887,0.01125352829694748
1.486868143081665,0.013160906732082367,0.035667963325977325,-0.0032425422687083483,0.014686808921396732,0.000572213320992887,0.011635004542768002
1.5069186687469482,0.013542382046580315,0.03490501269698143,-0.0020981156267225742,0.01506828423589468,0.0009536888683214784,0.011635004542768002
1.5269749164581299,0.013923857361078262,0.034142062067985535,-0.001716639962978661,0.01506828423589468,0.0009536888683214784,0.011635004542768002
1.5471365451812744,0.01430533267557621,0.032616160809993744,-0.0009536888683214784,0.01506828423589468,0.0009536888683214784,0.011635004542768002
1.5672175884246826,0.01430533267557621,0.031090257689356804,0.00019073777366429567,0.015449759550392628,0.0009536888683214784,0.01201647985726595
1.5872933864593506,0.01430533267557621,0.03032730519771576,0.0009536888683214784,0.015449759550392628,0.0009536888683214784,0.01201647985726595
1.607398271560669,0.01430533267557621,0.029564354568719864,0.0013351644156500697,0.01583123579621315,0.0009536888683214784,0.012397955171763897
1.6274759769439697,0.01430533267557621,0.028038453310728073,0.0024795911740511656,0.01583123579621315,0.0009536888683214784,0.012397955171763897
1.6475372314453125,0.01430533267557621,0.026512550190091133,0.0036240178160369396,0.016212711110711098,0.0013351644156500697,0.012397955171763897
1.667586326599121,0.014686808921396732,0.025749599561095238,0.004005493130534887,0.016975661739706993,0.0009536888683214784,0.012779430486261845
1.6876428127288818,0.014686808921396732,0.024986648932099342,0.00476844422519207,0.01773861236870289,0.0009536888683214784,0.013160906732082367
1.7077314853668213,0.01506828423589468,0.023460745811462402,0.005912871100008488,0.018120087683200836,0.0009536888683214784,0.013923857361078262
1.7277908325195312,0.01506828423589468,0.022697795182466507,0.007057297509163618,0.018120087683200836,0.0013351644156500697,0.01430533267557621
1.7480120658874512,0.01506828423589468,0.02193484455347061,0.0078202486038208,0.018501564860343933,0.0013351644156500697,0.01430533267557621
1.7681009769439697,0.01506828423589468,0.02040894143283367,0.00858320016413927,0.018501564860343933,0.0013351644156500697,0.014686808921396732
1.7882039546966553,0.015449759550392628,0.01926451548933983,0.009346150793135166,0.018501564860343933,0.0013351644156500697,0.014686808921396732
1.8082902431488037,0.015449759550392628,0.018120087683200836,0.010109102353453636,0.01888304017484188,0.0009536888683214784,0.014686808921396732
1.8284006118774414,0.016212711110711098,0.01773861236870289,0.010872052982449532,0.01888304017484188,0.0009536888683214784,0.014686808921396732
1.8486621379852295,0.016212711110711098,0.016594186425209045,0.011635004542768002,0.01888304017484188,0.0009536888683214784,0.01506828423589468
1.868755578994751,0.016594186425209045,0.015449759550392628,0.012779430486261845,0.01926451548933983,0.0013351644156500697,0.01506828423589468
1.8888163566589355,0.016975661739706993,0.01430533267557621,0.013160906732082367,0.01926451548933983,0.0013351644156500697,0.01506828423589468
1.9090542793273926,0.016975661739706993,0.013542382046580315,0.01430533267557621,0.019645990803837776,0.0013351644156500697,0.015449759550392628
1.9291419982910156,0.01735713705420494,0.01201647985726595,0.015449759550392628,0.019645990803837776,0.0013351644156500697,0.015449759550392628
1.949195384979248,0.01735713705420494,0.010872052982449532,0.016212711110711098,0.020027466118335724,0.0013351644156500697,0.015449759550392628
1.9693012237548828,0.01735713705420494,0.010109102353453636,0.01735713705420494,0.02079041674733162,0.0013351644156500697,0.01583123579621315
1.9894790649414062,0.01735713705420494,0.00858320016413927,0.018501564860343933,0.021553369238972664,0.0013351644156500697,0.016212711110711098
2.0096077919006348,0.01773861236870289,0.007057297509163618,0.019645990803837776,0.02193484455347061,0.0013351644156500697,0.016594186425209045
2.029693603515625,0.018501564860343933,0.005912871100008488,0.02079041674733162,0.02193484455347061,0.0013351644156500697,0.016975661739706993
2.049764633178711,0.01926451548933983,0.005149920005351305,0.021553369238972664,0.02231631986796856,0.0013351644156500697,0.01773861236870289
2.06984543800354,0.01926451548933983,0.0032425422687083483,0.02231631986796856,0.02231631986796856,0.001716639962978661,0.018120087683200836
2.089949607849121,0.01926451548933983,0.0020981156267225742,0.023460745811462402,0.022697795182466507,0.001716639962978661,0.018120087683200836
2.110051155090332,0.01926451548933983,0.0009536888683214784,0.02384222112596035,0.022697795182466507,0.001716639962978661,0.018120087683200836
2.1300737857818604,0.01926451548933983,0.00019073777366429567,0.024605173617601395,0.023079270496964455,0.001716639962978661,0.018120087683200836
2.1501922607421875,0.01926451548933983,-0.0013351644156500697,0.02536812424659729,0.023079270496964455,0.001716639962978661,0.018120087683200836
2.1702346801757812,0.019645990803837776,-0.0020981156267225742,0.026131074875593185,0.023460745811462402,0.001716639962978661,0.018120087683200836
2.1903200149536133,0.019645990803837776,-0.002861066721379757,0.02689402550458908,0.02384222112596035,0.0013351644156500697,0.018501564860343933
2.2103993892669678,0.019645990803837776,-0.004005493130534887,0.02727550081908703,0.024223696440458298,0.001716639962978661,0.018501564860343933
2.230459213256836,0.02040894143283367,-0.005149920005351305,0.02841992862522602,0.024605173617601395,0.001716639962978661,0.018501564860343933
2.2505486011505127,0.021171892061829567,-0.006294346414506435,0.029182879254221916,0.024986648932099342,0.001716639962978661,0.018501564860343933
2.2706289291381836,0.021171892061829567,-0.007057297509163618,0.02994582988321781,0.02536812424659729,0.0020981156267225742,0.018501564860343933
2.2906668186187744,0.021171892061829567,-0.0078202486038208,0.030708782374858856,0.02536812424659729,0.0024795911740511656,0.018501564860343933
2.3107662200927734,0.021553369238972664,-0.009346150793135166,0.03223468363285065,0.025749599561095238,0.0024795911740511656,0.01888304017484188
2.3308298587799072,0.021171892061829567,-0.01125352829694748,0.03299763426184654,0.026131074875593185,0.0024795911740511656,0.01888304017484188
2.3509089946746826,0.021553369238972664,-0.011635004542768002,0.03376058489084244,0.026131074875593185,0.0020981156267225742,0.01888304017484188
2.3709607124328613,0.021553369238972664,-0.013160906732082367,0.034142062067985535,0.026131074875593185,0.0020981156267225742,0.01926451548933983
2.391061782836914,0.021553369238972664,-0.014686808921396732,0.03604944050312042,0.026512550190091133,0.0020981156267225742,0.01926451548933983
2.411168098449707,0.021553369238972664,-0.015449759550392628,0.03681239113211632,0.026512550190091133,0.0020981156267225742,0.01926451548933983
2.4312236309051514,0.02193484455347061,-0.016212711110711098,0.03757534176111221,0.026512550190091133,0.0024795911740511656,0.019645990803837776
2.4513323307037354,0.02231631986796856,-0.01735713705420494,0.03795681521296501,0.026512550190091133,0.0024795911740511656,0.019645990803837776
2.4714207649230957,0.022697795182466507,-0.01926451548933983,0.039101243019104004,0.02689402550458908,0.0024795911740511656,0.019645990803837776
2.491485357284546,0.022697795182466507,-0.02040894143283367,0.0394827201962471,0.02689402550458908,0.002861066721379757,0.020027466118335724
2.5115602016448975,0.023079270496964455,-0.021171892061829567,0.0398641936480999,0.02689402550458908,0.0024795911740511656,0.020027466118335724
2.531615734100342,0.023460745811462402,-0.02231631986796856,0.040627144277095795,0.02727550081908703,0.0020981156267225742,0.02040894143283367
2.551725387573242,0.023460745811462402,-0.023460745811462402,0.04139009863138199,0.027656977996230125,0.0024795911740511656,0.02040894143283367
2.5717992782592773,0.023460745811462402,-0.024605173617601395,0.042153049260377884,0.028038453310728073,0.002861066721379757,0.02079041674733162
2.591871738433838,0.02384222112596035,-0.025749599561095238,0.04291599988937378,0.02880140393972397,0.002861066721379757,0.021553369238972664
2.6121065616607666,0.024223696440458298,-0.026512550190091133,0.04406042397022247,0.029182879254221916,0.002861066721379757,0.02193484455347061
2.6322171688079834,0.024605173617601395,-0.02841992862522602,0.04482337832450867,0.029564354568719864,0.0024795911740511656,0.02193484455347061
2.6522774696350098,0.024605173617601395,-0.029182879254221916,0.04558632895350456,0.029564354568719864,0.0024795911740511656,0.02231631986796856
2.6723616123199463,0.024605173617601395,-0.02994582988321781,0.04596780240535736,0.02994582988321781,0.002861066721379757,0.02231631986796856
2.6924562454223633,0.024605173617601395,-0.03147173300385475,0.046730753034353256,0.02994582988321781,0.002861066721379757,0.02231631986796856
2.712522029876709,0.024986648932099342,-0.03299763426184654,0.048256658017635345,0.03032730519771576,0.002861066721379757,0.02231631986796856
2.7325987815856934,0.02536812424659729,-0.03376058489084244,0.048638131469488144,0.03032730519771576,0.002861066721379757,0.022697795182466507
2.752652883529663,0.025749599561095238,-0.03452353551983833,0.04940108209848404,0.030708782374858856,0.002861066721379757,0.022697795182466507
2.7727279663085938,0.025749599561095238,-0.03604944050312042,0.050164032727479935,0.030708782374858856,0.002861066721379757,0.022697795182466507
2.792797088623047,0.025749599561095238,-0.037193864583969116,0.05130846053361893,0.031090257689356804,0.0032425422687083483,0.022697795182466507
2.812863826751709,0.026512550190091133,-0.03795681521296501,0.051689937710762024,0.03147173300385475,0.002861066721379757,0.023079270496964455
2.8329122066497803,0.026512550190091133,-0.038719769567251205,0.05245288833975792,0.03223468363285065,0.002861066721379757,0.023079270496964455
2.852999448776245,0.026512550190091133,-0.040245670825242996,0.05359731614589691,0.03299763426184654,0.002861066721379757,0.023460745811462402
2.8730685710906982,0.02689402550458908,-0.04177157208323479,0.054741740226745605,0.03337911143898964,0.0032425422687083483,0.02384222112596035
2.8931374549865723,0.02689402550458908,-0.04291599988937378,0.0558861680328846,0.03337911143898964,0.002861066721379757,0.024223696440458298
2.913195848464966,0.02689402550458908,-0.04406042397022247,0.056267641484737396,0.03337911143898964,0.0032425422687083483,0.024986648932099342
2.93332839012146,0.02727550081908703,-0.045204851776361465,0.05664911866188049,0.03376058489084244,0.002861066721379757,0.026131074875593185
2.953381299972534,0.027656977996230125,-0.04634927958250046,0.05703059583902359,0.03376058489084244,0.002861066721379757,0.026131074875593185
2.9734513759613037,0.028038453310728073,-0.04749370738863945,0.058175019919872284,0.03376058489084244,0.002861066721379757,0.026131074875593185
2.993497371673584,0.02880140393972397,-0.04901960864663124,0.05893797054886818,0.034142062067985535,0.0032425422687083483,0.026512550190091133
3.0135843753814697,0.02880140393972397,-0.050164032727479935,0.06008239835500717,0.034142062067985535,0.0032425422687083483,0.026512550190091133
3.033655881881714,0.02880140393972397,-0.05092698708176613,0.06084534898400307,0.034142062067985535,0.002861066721379757,0.02689402550458908
3.053718328475952,0.02880140393972397,-0.051689937710762024,0.06160829961299896,0.034142062067985535,0.0032425422687083483,0.02689402550458908
3.0738117694854736,0.02880140393972397,-0.05359731614589691,0.06275273114442825,0.03452353551983833,0.002861066721379757,0.02689402550458908
3.09390926361084,0.029182879254221916,-0.0551232174038887,0.06351567804813385,0.03490501269698143,0.0032425422687083483,0.02689402550458908
3.113987684249878,0.029182879254221916,-0.0555046908557415,0.06466010212898254,0.03490501269698143,0.002861066721379757,0.02727550081908703
3.1340277194976807,0.029564354568719864,-0.05703059583902359,0.06542305648326874,0.035667963325977325,0.002861066721379757,0.027656977996230125
3.1541264057159424,0.029564354568719864,-0.05855649709701538,0.06656748056411743,0.03643091395497322,0.002861066721379757,0.027656977996230125
3.174205780029297,0.029564354568719864,-0.05970092490315437,0.06694895774126053,0.03681239113211632,0.0032425422687083483,0.028038453310728073
3.194270372390747,0.02994582988321781,-0.06084534898400307,0.06809338182210922,0.03681239113211632,0.0032425422687083483,0.02880140393972397
3.2143287658691406,0.02994582988321781,-0.06275273114442825,0.06847485899925232,0.037193864583969116,0.0032425422687083483,0.029182879254221916
3.234426498413086,0.030708782374858856,-0.06351567804813385,0.06961929053068161,0.037193864583969116,0.0032425422687083483,0.029182879254221916
3.2544918060302734,0.031090257689356804,-0.06427863240242004,0.07038223743438721,0.037193864583969116,0.002861066721379757,0.029564354568719864
3.2746222019195557,0.031090257689356804,-0.06504157930612564,0.0707637146115303,0.03757534176111221,0.0032425422687083483,0.029564354568719864
3.2947018146514893,0.03147173300385475,-0.06580453366041183,0.0715266615152359,0.03757534176111221,0.0032425422687083483,0.029564354568719864
3.3147451877593994,0.03185320645570755,-0.06694895774126053,0.0722896158695221,0.03757534176111221,0.0032425422687083483,0.029564354568719864
3.3348240852355957,0.03185320645570755,-0.06809338182210922,0.07343403995037079,0.03795681521296501,0.0032425422687083483,0.029564354568719864
3.3549046516418457,0.03185320645570755,-0.06961929053068161,0.07381551712751389,0.03795681521296501,0.0032425422687083483,0.02994582988321781
3.3749654293060303,0.03185320645570755,-0.07000076025724411,0.07457847148180008,0.03833829239010811,0.002861066721379757,0.02994582988321781
3.395026445388794,0.03185320645570755,-0.0715266615152359,0.07534141838550568,0.038719769567251205,0.002861066721379757,0.02994582988321781
3.415153741836548,0.03223468363285065,-0.07267109304666519,0.07610437273979187,0.039101243019104004,0.0032425422687083483,0.02994582988321781
3.435248613357544,0.032616160809993744,-0.07381551712751389,0.07686731964349747,0.0398641936480999,0.0032425422687083483,0.02994582988321781
3.455280065536499,0.03337911143898964,-0.07534141838550568,0.07763027399778366,0.040245670825242996,0.0032425422687083483,0.03032730519771576
3.475369453430176,0.03376058489084244,-0.07648584991693497,0.07877469807863235,0.04100862145423889,0.0032425422687083483,0.03032730519771576
3.4954307079315186,0.03376058489084244,-0.07801175117492676,0.07991912961006165,0.04100862145423889,0.0036240178160369396,0.03032730519771576
3.5154876708984375,0.03376058489084244,-0.07915617525577545,0.08030059933662415,0.04100862145423889,0.0036240178160369396,0.03032730519771576
3.5356764793395996,0.03376058489084244,-0.08068207651376724,0.08144503086805344,0.04139009863138199,0.0036240178160369396,0.030708782374858856
3.555689811706543,0.034142062067985535,-0.08144503086805344,0.08220797777175903,0.04139009863138199,0.0032425422687083483,0.030708782374858856
3.5757524967193604,0.034142062067985535,-0.08258945494890213,0.08335240930318832,0.04139009863138199,0.0032425422687083483,0.031090257689356804
3.5958218574523926,0.034142062067985535,-0.08373387902975082,0.08373387902975082,0.04139009863138199,0.0032425422687083483,0.031090257689356804
3.615945339202881,0.03452353551983833,-0.08487831056118011,0.08449683338403702,0.04177157208323479,0.0032425422687083483,0.031090257689356804
3.636075019836426,0.035667963325977325,-0.08564125746488571,0.08525978773832321,0.04177157208323479,0.0032425422687083483,0.03147173300385475
3.656099557876587,0.03604944050312042,-0.0864042118191719,0.08564125746488571,0.042153049260377884,0.0036240178160369396,0.03185320645570755
3.676156520843506,0.03604944050312042,-0.0879301130771637,0.0871671661734581,0.04253452271223068,0.0036240178160369396,0.03185320645570755
3.6962337493896484,0.03604944050312042,-0.08907453715801239,0.0879301130771637,0.04291599988937378,0.004005493130534887,0.03223468363285065
3.7163100242614746,0.03604944050312042,-0.09021896868944168,0.0883115902543068,0.043678950518369675,0.0036240178160369396,0.03299763426184654
3.7363479137420654,0.03604944050312042,-0.09136339277029037,0.08907453715801239,0.04444190114736557,0.0036240178160369396,0.03376058489084244
3.756436586380005,0.03604944050312042,-0.09250781685113907,0.08983749151229858,0.04444190114736557,0.0032425422687083483,0.03376058489084244
3.7765328884124756,0.03643091395497322,-0.09403372555971146,0.09021896868944168,0.04482337832450867,0.0036240178160369396,0.03376058489084244
3.796678304672241,0.03643091395497322,-0.09441519528627396,0.09060044586658478,0.04482337832450867,0.0036240178160369396,0.034142062067985535
3.8167147636413574,0.03681239113211632,-0.09517814964056015,0.09136339277029037,0.04482337832450867,0.0036240178160369396,0.034142062067985535
3.8367717266082764,0.037193864583969116,-0.09670405089855194,0.09212634712457657,0.045204851776361465,0.004005493130534887,0.034142062067985535
3.8569793701171875,0.037193864583969116,-0.09822995215654373,0.09327077120542526,0.045204851776361465,0.004005493130534887,0.03452353551983833
3.8770439624786377,0.03757534176111221,-0.09861142933368683,0.09403372555971146,0.045204851776361465,0.0036240178160369396,0.03452353551983833
3.8970582485198975,0.03795681521296501,-0.09975585341453552,0.09441519528627396,0.04558632895350456,0.0032425422687083483,0.03452353551983833
3.9172558784484863,0.03795681521296501,-0.10090028494596481,0.09517814964056015,0.04558632895350456,0.0036240178160369396,0.03490501269698143
3.9373929500579834,0.03795681521296501,-0.1024261862039566,0.09632257372140884,0.04596780240535736,0.0036240178160369396,0.03490501269698143
3.9574713706970215,0.03833829239010811,-0.1035706102848053,0.09708552807569504,0.04596780240535736,0.004005493130534887,0.03528648987412453
3.977567672729492,0.03833829239010811,-0.10433356463909149,0.09784847497940063,0.04634927958250046,0.0036240178160369396,0.035667963325977325
3.9976375102996826,0.038719769567251205,-0.10509651154279709,0.09822995215654373,0.046730753034353256,0.0036240178160369396,0.03643091395497322
4.017660617828369,0.039101243019104004,-0.10624094307422638,0.09937438368797302,0.04749370738863945,0.0036240178160369396,0.037193864583969116
4.037738084793091,0.039101243019104004,-0.10700388997793198,0.10013733059167862,0.04787518084049225,0.0036240178160369396,0.037193864583969116
4.057863473892212,0.0394827201962471,-0.10852979123592377,0.10051880776882172,0.048256658017635345,0.0036240178160369396,0.037193864583969116
4.077897071838379,0.0394827201962471,-0.10929274559020996,0.10128175467252731,0.048256658017635345,0.0036240178160369396,0.037193864583969116
4.097991466522217,0.0398641936480999,-0.11081864684820175,0.10204470902681351,0.048256658017635345,0.0036240178160369396,0.037193864583969116
4.118090391159058,0.040245670825242996,-0.11196307092905045,0.1028076633810997,0.048638131469488144,0.0036240178160369396,0.037193864583969116
4.138121843338013,0.040245670825242996,-0.11310750246047974,0.1031891331076622,0.048638131469488144,0.0036240178160369396,0.03757534176111221
4.158167362213135,0.040245670825242996,-0.11348897218704224,0.1039520874619484,0.04901960864663124,0.0036240178160369396,0.03757534176111221
4.178260087966919,0.04100862145423889,-0.11539635062217712,0.10471503436565399,0.04901960864663124,0.0036240178160369396,0.03757534176111221
4.198331594467163,0.04139009863138199,-0.11615930497646332,0.10547798871994019,0.04901960864663124,0.004005493130534887,0.03757534176111221
4.218402862548828,0.04139009863138199,-0.11730372905731201,0.10624094307422638,0.04940108209848404,0.0036240178160369396,0.03757534176111221
4.238481283187866,0.04139009863138199,-0.1180666834115982,0.10662241280078888,0.04940108209848404,0.004005493130534887,0.03757534176111221
4.258557319641113,0.04177157208323479,-0.11959258466959,0.10738536715507507,0.050164032727479935,0.0036240178160369396,0.03757534176111221
4.278615236282349,0.042153049260377884,-0.12111848592758179,0.10852979123592377,0.05054550990462303,0.004005493130534887,0.03757534176111221
4.298685312271118,0.04253452271223068,-0.12111848592758179,0.10891126841306686,0.051689937710762024,0.0036240178160369396,0.03757534176111221
4.318729639053345,0.04253452271223068,-0.12226291000843048,0.11005569249391556,0.051689937710762024,0.0036240178160369396,0.03795681521296501
4.338824987411499,0.04329747334122658,-0.12378881871700287,0.11081864684820175,0.05207141116261482,0.004005493130534887,0.03795681521296501
4.358926773071289,0.04329747334122658,-0.12493324279785156,0.11234454810619354,0.05207141116261482,0.00476844422519207,0.03795681521296501
4.3789873123168945,0.04329747334122658,-0.12531471252441406,0.11234454810619354,0.05207141116261482,0.004005493130534887,0.03795681521296501
4.399116039276123,0.043678950518369675,-0.12722209095954895,0.11310750246047974,0.05245288833975792,0.004386968910694122,0.03833829239010811
4.419214725494385,0.043678950518369675,-0.12836651504039764,0.11425192654132843,0.05245288833975792,0.004386968910694122,0.03833829239010811
4.439314842224121,0.043678950518369675,-0.12989242374897003,0.11501488089561462,0.05283436179161072,0.004386968910694122,0.03833829239010811
4.459356307983398,0.043678950518369675,-0.13027389347553253,0.11577782779932022,0.05283436179161072,0.004005493130534887,0.038719769567251205
4.479427814483643,0.04406042397022247,-0.13218127191066742,0.11692225188016891,0.053215838968753815,0.004005493130534887,0.039101243019104004
4.499510288238525,0.04444190114736557,-0.1333257108926773,0.11730372905731201,0.053215838968753815,0.004386968910694122,0.039101243019104004
4.519584655761719,0.04444190114736557,-0.1340886503458023,0.1184481605887413,0.05359731614589691,0.004386968910694122,0.039101243019104004
4.539655685424805,0.04444190114736557,-0.135233074426651,0.1188296303153038,0.05397878959774971,0.004386968910694122,0.0394827201962471
4.559696435928345,0.04482337832450867,-0.1359960287809372,0.1192111074924469,0.05436026677489281,0.004386968910694122,0.0394827201962471
4.579782009124756,0.04558632895350456,-0.1371404528617859,0.1199740618467331,0.0551232174038887,0.004005493130534887,0.0398641936480999
4.599853754043579,0.04558632895350456,-0.13790340721607208,0.12073700875043869,0.0555046908557415,0.004005493130534887,0.040627144277095795
4.619953632354736,0.04558632895350456,-0.13866636157035828,0.12111848592758179,0.0558861680328846,0.004005493130534887,0.04100862145423889
4.640024423599243,0.04596780240535736,-0.14019227027893066,0.12188144028186798,0.0558861680328846,0.00476844422519207,0.04100862145423889
4.660110235214233,0.04634927958250046,-0.14133669435977936,0.12264438718557358,0.0558861680328846,0.004386968910694122,0.04100862145423889
4.68019437789917,0.04634927958250046,-0.14286258816719055,0.12378881871700287,0.056267641484737396,0.00476844422519207,0.04100862145423889
4.700250148773193,0.04634927958250046,-0.14400701224803925,0.12455176562070847,0.056267641484737396,0.00476844422519207,0.04139009863138199
4.720304727554321,0.046730753034353256,-0.14438849687576294,0.12493324279785156,0.05664911866188049,0.004386968910694122,0.04139009863138199
4.740407466888428,0.046730753034353256,-0.14591439068317413,0.12569619715213776,0.05664911866188049,0.004386968910694122,0.04139009863138199
4.760485410690308,0.046730753034353256,-0.14667734503746033,0.12645913660526276,0.05703059583902359,0.004386968910694122,0.04177157208323479
4.7806556224823,0.04749370738863945,-0.14820325374603271,0.12760357558727264,0.05703059583902359,0.004386968910694122,0.04177157208323479
4.800661325454712,0.048256658017635345,-0.14858472347259521,0.12836651504039764,0.05741206929087639,0.00476844422519207,0.04177157208323479
4.820746660232544,0.048638131469488144,-0.1497291475534439,0.12874799966812134,0.058175019919872284,0.004386968910694122,0.042153049260377884
4.840843915939331,0.048638131469488144,-0.1508735716342926,0.12989242374897003,0.05893797054886818,0.005149920005351305,0.042153049260377884
4.860881090164185,0.048638131469488144,-0.1527809500694275,0.13065537810325623,0.059319447726011276,0.005531395319849253,0.042153049260377884
4.880926847457886,0.048638131469488144,-0.15430685877799988,0.13141833245754242,0.059319447726011276,0.005531395319849253,0.042153049260377884
4.901009798049927,0.048638131469488144,-0.15545128285884857,0.1325627565383911,0.05970092490315437,0.005149920005351305,0.04253452271223068
4.921078205108643,0.04901960864663124,-0.15621423721313477,0.1333257108926773,0.05970092490315437,0.004386968910694122,0.04329747334122658
4.94111967086792,0.04901960864663124,-0.15697719156742096,0.1337071806192398,0.05970092490315437,0.004386968910694122,0.04406042397022247
4.961200952529907,0.050164032727479935,-0.15812161564826965,0.134470134973526,0.06008239835500717,0.004386968910694122,0.04444190114736557
4.981366395950317,0.05092698708176613,-0.15926603972911835,0.135233074426651,0.06008239835500717,0.004386968910694122,0.04482337832450867
5.00150465965271,0.05054550990462303,-0.16041046380996704,0.1359960287809372,0.06046387553215027,0.005149920005351305,0.04482337832450867
5.021520137786865,0.05054550990462303,-0.16231784224510193,0.1367589831352234,0.06046387553215027,0.006294346414506435,0.04482337832450867
5.041745185852051,0.05054550990462303,-0.16346226632595062,0.13752193748950958,0.06084534898400307,0.006294346414506435,0.04482337832450867
5.0618462562561035,0.05092698708176613,-0.1646067053079605,0.13828489184379578,0.061226826161146164,0.006294346414506435,0.04482337832450867
5.0819010734558105,0.05092698708176613,-0.1665140837430954,0.13904783129692078,0.06160829961299896,0.005531395319849253,0.04482337832450867
5.101959228515625,0.05092698708176613,-0.1668955534696579,0.13981078565120697,0.06237125024199486,0.005531395319849253,0.045204851776361465
5.1221067905426025,0.051689937710762024,-0.1680399775505066,0.14057374000549316,0.06313420087099075,0.005531395319849253,0.045204851776361465
5.142209053039551,0.05207141116261482,-0.16918440163135529,0.14171816408634186,0.06313420087099075,0.005531395319849253,0.045204851776361465
5.162294864654541,0.05207141116261482,-0.16994735598564148,0.14248111844062805,0.06351567804813385,0.005912871100008488,0.045204851776361465
5.1823670864105225,0.05245288833975792,-0.17147326469421387,0.14324407279491425,0.06351567804813385,0.005912871100008488,0.045204851776361465
5.202439785003662,0.05283436179161072,-0.17261768877506256,0.14400701224803925,0.06389715522527695,0.006294346414506435,0.04558632895350456
5.222513198852539,0.05283436179161072,-0.17376211285591125,0.14515145123004913,0.06389715522527695,0.006294346414506435,0.04558632895350456
5.242568016052246,0.05283436179161072,-0.17528800666332245,0.14553292095661163,0.06427863240242004,0.006294346414506435,0.04558632895350456
5.2626824378967285,0.053215838968753815,-0.17605096101760864,0.14591439068317413,0.06427863240242004,0.005912871100008488,0.04596780240535736
5.28277325630188,0.053215838968753815,-0.17719538509845734,0.14667734503746033,0.06466010212898254,0.005912871100008488,0.04596780240535736
5.302854299545288,0.05359731614589691,-0.17795833945274353,0.14782176911830902,0.06466010212898254,0.005531395319849253,0.04596780240535736
5.322912931442261,0.05397878959774971,-0.17910276353359222,0.14820325374603271,0.06542305648326874,0.005912871100008488,0.04634927958250046
5.343158006668091,0.05397878959774971,-0.1806286722421646,0.1489662081003189,0.06580453366041183,0.006294346414506435,0.04634927958250046
5.363117456436157,0.05436026677489281,-0.1817730963230133,0.1497291475534439,0.06656748056411743,0.006294346414506435,0.046730753034353256
5.38325047492981,0.054741740226745605,-0.182917520403862,0.1504921019077301,0.06694895774126053,0.006294346414506435,0.046730753034353256
5.403305768966675,0.0551232174038887,-0.1840619444847107,0.1504921019077301,0.06694895774126053,0.005912871100008488,0.04749370738863945
5.423346996307373,0.0551232174038887,-0.1848248988389969,0.1512550562620163,0.06733043491840363,0.005912871100008488,0.048256658017635345
5.44346809387207,0.0555046908557415,-0.18596932291984558,0.1520180106163025,0.06733043491840363,0.005912871100008488,0.048638131469488144
5.463545083999634,0.056267641484737396,-0.18673227727413177,0.15316243469715118,0.06771191209554672,0.005912871100008488,0.048638131469488144
5.4836037158966064,0.056267641484737396,-0.18825818598270416,0.15354390442371368,0.06771191209554672,0.005912871100008488,0.048638131469488144
5.503657341003418,0.056267641484737396,-0.18863965570926666,0.15430685877799988,0.06809338182210922,0.006294346414506435,0.048638131469488144
5.523750066757202,0.05664911866188049,-0.19054703414440155,0.15545128285884857,0.06809338182210922,0.006294346414506435,0.04901960864663124
5.543838262557983,0.05703059583902359,-0.19092851877212524,0.15659570693969727,0.06847485899925232,0.006294346414506435,0.04901960864663124
5.5639379024505615,0.057793546468019485,-0.19207294285297394,0.15659570693969727,0.06885633617639542,0.005912871100008488,0.04901960864663124
5.583990573883057,0.058175019919872284,-0.19283588230609894,0.15774014592170715,0.06961929053068161,0.005912871100008488,0.04940108209848404
5.604158401489258,0.058175019919872284,-0.19436179101467133,0.15850308537483215,0.07038223743438721,0.006294346414506435,0.04940108209848404
5.624203205108643,0.058175019919872284,-0.1966506391763687,0.16002899408340454,0.0707637146115303,0.007057297509163618,0.04940108209848404
5.644271612167358,0.058175019919872284,-0.1970321238040924,0.16079194843769073,0.0707637146115303,0.00667582219466567,0.04940108209848404
5.6643335819244385,0.058175019919872284,-0.1985580176115036,0.16117341816425323,0.0707637146115303,0.00667582219466567,0.049782559275627136
5.684479713439941,0.058175019919872284,-0.1993209719657898,0.16193637251853943,0.0711451917886734,0.005912871100008488,0.049782559275627136
5.704636573791504,0.05855649709701538,-0.2004653960466385,0.16269932687282562,0.0711451917886734,0.005912871100008488,0.050164032727479935
5.724620342254639,0.05893797054886818,-0.20122835040092468,0.16346226632595062,0.0715266615152359,0.005912871100008488,0.05054550990462303
5.744674444198608,0.05893797054886818,-0.20275425910949707,0.16422522068023682,0.0715266615152359,0.006294346414506435,0.051689937710762024
5.764761447906494,0.05893797054886818,-0.20313572883605957,0.1646067053079605,0.0715266615152359,0.006294346414506435,0.05245288833975792
5.784825086593628,0.059319447726011276,-0.20542457699775696,0.164988175034523,0.071908138692379,0.00667582219466567,0.05245288833975792
5.804890394210815,0.059319447726011276,-0.20542457699775696,0.1657511293888092,0.071908138692379,0.006294346414506435,0.05245288833975792
5.824946403503418,0.06008239835500717,-0.20733195543289185,0.1665140837430954,0.0722896158695221,0.005912871100008488,0.05245288833975792
5.84514307975769,0.06046387553215027,-0.20847637951374054,0.1676585078239441,0.07305257022380829,0.006294346414506435,0.05283436179161072
5.865232229232788,0.06084534898400307,-0.20885786414146423,0.1684214472770691,0.07381551712751389,0.006294346414506435,0.05283436179161072
5.885302543640137,0.061226826161146164,-0.21038375794887543,0.16880293190479279,0.07419699430465698,0.006294346414506435,0.05283436179161072
5.905346632003784,0.061226826161146164,-0.21076524257659912,0.16956588625907898,0.07419699430465698,0.00667582219466567,0.05283436179161072
5.925662040710449,0.061226826161146164,-0.21152819693088531,0.17032882571220398,0.07457847148180008,0.00667582219466567,0.05283436179161072
5.945768594741821,0.061226826161146164,-0.2130540907382965,0.17071031033992767,0.07457847148180008,0.006294346414506435,0.053215838968753815
5.965888023376465,0.06160829961299896,-0.2134355753660202,0.17147326469421387,0.07495994865894318,0.006294346414506435,0.053215838968753815
5.985912561416626,0.06198977679014206,-0.2153429538011551,0.17223620414733887,0.07534141838550568,0.006294346414506435,0.05359731614589691
6.0061047077178955,0.06313420087099075,-0.21648737788200378,0.17299915850162506,0.07534141838550568,0.006294346414506435,0.05359731614589691
6.026203870773315,0.06313420087099075,-0.21763180196285248,0.17376211285591125,0.07572289556264877,0.006294346414506435,0.05359731614589691
6.04626989364624,0.06313420087099075,-0.21801327168941498,0.17452506721019745,0.07572289556264877,0.00667582219466567,0.05359731614589691
6.066347360610962,0.06313420087099075,-0.21953918039798737,0.17528800666332245,0.07610437273979187,0.007057297509163618,0.05397878959774971
6.086533546447754,0.06313420087099075,-0.22106507420539856,0.17643244564533234,0.07648584991693497,0.007057297509163618,0.05397878959774971
6.106703996658325,0.06351567804813385,-0.22259098291397095,0.17719538509845734,0.07686731964349747,0.006294346414506435,0.05436026677489281
6.126734495162964,0.06351567804813385,-0.22297245264053345,0.17833982408046722,0.07763027399778366,0.005912871100008488,0.054741740226745605
6.146808385848999,0.06427863240242004,-0.22449836134910583,0.17910276353359222,0.07839322835206985,0.005912871100008488,0.0555046908557415
6.166884899139404,0.06542305648326874,-0.22487983107566833,0.17948424816131592,0.07839322835206985,0.005912871100008488,0.0558861680328846
6.18696928024292,0.06542305648326874,-0.22716869413852692,0.1806286722421646,0.07839322835206985,0.00667582219466567,0.0558861680328846
6.207050800323486,0.06542305648326874,-0.22716869413852692,0.1813916265964508,0.07839322835206985,0.007057297509163618,0.0558861680328846
6.2271575927734375,0.06542305648326874,-0.22793163359165192,0.1817730963230133,0.07877469807863235,0.007057297509163618,0.0558861680328846
6.247191905975342,0.06542305648326874,-0.2298390120267868,0.1825360506772995,0.07877469807863235,0.00667582219466567,0.0558861680328846
6.2672858238220215,0.06542305648326874,-0.2302204966545105,0.182917520403862,0.07877469807863235,0.006294346414506435,0.056267641484737396
6.2873616218566895,0.06580453366041183,-0.23212787508964539,0.1840619444847107,0.07915617525577545,0.005912871100008488,0.056267641484737396
6.307424068450928,0.06618601083755493,-0.23289081454277039,0.1848248988389969,0.07915617525577545,0.005912871100008488,0.056267641484737396
6.3274712562561035,0.06656748056411743,-0.23327229917049408,0.18558785319328308,0.07915617525577545,0.00667582219466567,0.056267641484737396
6.347555160522461,0.06694895774126053,-0.23441672325134277,0.18635080754756927,0.07953765243291855,0.007057297509163618,0.056267641484737396
6.367625951766968,0.06733043491840363,-0.23632410168647766,0.18711376190185547,0.07991912961006165,0.00667582219466567,0.05664911866188049
6.387807130813599,0.06733043491840363,-0.23670557141304016,0.18787670135498047,0.08030059933662415,0.00667582219466567,0.05664911866188049
6.4077653884887695,0.06733043491840363,-0.23746852576732635,0.18863965570926666,0.08068207651376724,0.00667582219466567,0.05664911866188049
6.427865743637085,0.06771191209554672,-0.24013885855674744,0.18940261006355286,0.08144503086805344,0.006294346414506435,0.05664911866188049
6.448001146316528,0.06847485899925232,-0.24052032828330994,0.19054703414440155,0.08220797777175903,0.005912871100008488,0.05703059583902359
6.46805739402771,0.06847485899925232,-0.24166475236415863,0.19130998849868774,0.08220797777175903,0.006294346414506435,0.05703059583902359
6.488125324249268,0.06847485899925232,-0.24242770671844482,0.19207294285297394,0.08220797777175903,0.006294346414506435,0.05703059583902359
6.508211374282837,0.06885633617639542,-0.2439536154270172,0.19283588230609894,0.08258945494890213,0.007057297509163618,0.05703059583902359
6.52831768989563,0.06885633617639542,-0.2443350851535797,0.19359883666038513,0.08258945494890213,0.007057297509163618,0.05741206929087639
6.5483667850494385,0.06923781335353851,-0.2450980395078659,0.19474326074123383,0.08297093212604523,0.00667582219466567,0.05741206929087639
6.568437099456787,0.06961929053068161,-0.2458609938621521,0.19512474536895752,0.08297093212604523,0.00667582219466567,0.05741206929087639
6.5884850025177,0.06961929053068161,-0.2466239482164383,0.1958876997232437,0.08335240930318832,0.006294346414506435,0.057793546468019485
6.608577013015747,0.07000076025724411,-0.24929426610469818,0.1966506391763687,0.08335240930318832,0.00667582219466567,0.058175019919872284
6.6286633014678955,0.0707637146115303,-0.2504386901855469,0.1974135935306549,0.08411535620689392,0.00667582219466567,0.058175019919872284
6.648719072341919,0.0707637146115303,-0.25120165944099426,0.1977950781583786,0.08487831056118011,0.00667582219466567,0.05893797054886818
6.66880202293396,0.0707637146115303,-0.25158312916755676,0.1981765478849411,0.08525978773832321,0.00667582219466567,0.059319447726011276
6.688891410827637,0.0711451917886734,-0.25425344705581665,0.1989395022392273,0.08564125746488571,0.006294346414506435,0.06008239835500717
6.7089550495147705,0.0715266615152359,-0.25501641631126404,0.1997024416923523,0.08564125746488571,0.00667582219466567,0.06008239835500717
6.729020833969116,0.07267109304666519,-0.25616082549095154,0.200083926320076,0.08602273464202881,0.006294346414506435,0.06008239835500717
6.749076843261719,0.07267109304666519,-0.2569237947463989,0.20084688067436218,0.08602273464202881,0.006294346414506435,0.06046387553215027
6.769171953201294,0.07267109304666519,-0.2573052644729614,0.20160982012748718,0.08602273464202881,0.00667582219466567,0.06046387553215027
6.78924298286438,0.07267109304666519,-0.2588311731815338,0.20199130475521088,0.08602273464202881,0.007057297509163618,0.06046387553215027
6.809290885925293,0.07267109304666519,-0.2588311731815338,0.20275425910949707,0.0864042118191719,0.007057297509163618,0.06046387553215027
6.829379081726074,0.07267109304666519,-0.2599755823612213,0.20351719856262207,0.0864042118191719,0.00667582219466567,0.06084534898400307
6.849443435668945,0.07305257022380829,-0.2607385218143463,0.20428015291690826,0.0864042118191719,0.006294346414506435,0.06084534898400307
6.869517803192139,0.07343403995037079,-0.2615014910697937,0.20466163754463196,0.086785688996315,0.006294346414506435,0.06084534898400307
6.889759302139282,0.07343403995037079,-0.2630273997783661,0.20542457699775696,0.0871671661734581,0.006294346414506435,0.061226826161146164
6.909841299057007,0.07381551712751389,-0.2653162479400635,0.20656901597976685,0.0875486359000206,0.00667582219466567,0.061226826161146164
6.930001974105835,0.07381551712751389,-0.265697717666626,0.20771344006061554,0.0879301130771637,0.007057297509163618,0.06160829961299896
6.9500274658203125,0.07457847148180008,-0.26722362637519836,0.20809490978717804,0.0883115902543068,0.006294346414506435,0.06160829961299896
6.970157623291016,0.07495994865894318,-0.26874953508377075,0.20847637951374054,0.08907453715801239,0.00667582219466567,0.06313420087099075
6.990349769592285,0.07534141838550568,-0.26951247453689575,0.20923933386802673,0.08945601433515549,0.00667582219466567,0.06351567804813385
7.010396718978882,0.07572289556264877,-0.27103838324546814,0.21076524257659912,0.08983749151229858,0.00667582219466567,0.06351567804813385
7.0304858684539795,0.07572289556264877,-0.27141985297203064,0.21076524257659912,0.08983749151229858,0.00667582219466567,0.06351567804813385
7.050573348999023,0.07572289556264877,-0.273708701133728,0.21190966665744781,0.08983749151229858,0.00667582219466567,0.06389715522527695
7.070701837539673,0.07572289556264877,-0.273708701133728,0.212672621011734,0.09021896868944168,0.00667582219466567,0.06389715522527695
7.090744972229004,0.07572289556264877,-0.273708701133728,0.2130540907382965,0.09060044586658478,0.00667582219466567,0.06389715522527695
7.111119747161865,0.07610437273979187,-0.2752346098423004,0.2134355753660202,0.09060044586658478,0.006294346414506435,0.06389715522527695
7.131213903427124,0.07686731964349747,-0.2763790488243103,0.2145799994468689,0.09098191559314728,0.006294346414506435,0.06389715522527695
7.151284456253052,0.07763027399778366,-0.2779049277305603,0.2153429538011551,0.09212634712457657,0.006294346414506435,0.06389715522527695
7.171355485916138,0.07763027399778366,-0.2798123061656952,0.2157244235277176,0.09250781685113907,0.00667582219466567,0.06389715522527695
7.191455841064453,0.07763027399778366,-0.2817196846008301,0.21648737788200378,0.09288929402828217,0.007057297509163618,0.06427863240242004
7.211534023284912,0.07801175117492676,-0.28248265385627747,0.21686884760856628,0.09327077120542526,0.007057297509163618,0.06427863240242004
7.231768369674683,0.07801175117492676,-0.28400853276252747,0.21801327168941498,0.09327077120542526,0.006294346414506435,0.06427863240242004
7.251741170883179,0.07839322835206985,-0.28515297174453735,0.21839475631713867,0.09365224838256836,0.006294346414506435,0.06427863240242004
7.271865606307983,0.07953765243291855,-0.28591591119766235,0.21915769577026367,0.09365224838256836,0.005531395319849253,0.06427863240242004
7.291968822479248,0.07991912961006165,-0.28629741072654724,0.22030213475227356,0.09365224838256836,0.006294346414506435,0.06427863240242004
7.312036991119385,0.07991912961006165,-0.28706035017967224,0.22068360447883606,0.09365224838256836,0.007057297509163618,0.06466010212898254
7.332091569900513,0.07991912961006165,-0.28782328963279724,0.22106507420539856,0.09403372555971146,0.007438773289322853,0.06466010212898254
7.352169990539551,0.07991912961006165,-0.290112167596817,0.22182802855968475,0.09403372555971146,0.007057297509163618,0.06466010212898254
7.3722875118255615,0.07991912961006165,-0.290875107049942,0.22297245264053345,0.09441519528627396,0.00667582219466567,0.06466010212898254
7.392374753952026,0.08030059933662415,-0.291638046503067,0.22335393726825714,0.09517814964056015,0.005912871100008488,0.06504157930612564
7.412428379058838,0.08068207651376724,-0.2924010157585144,0.22449836134910583,0.09555962681770325,0.005912871100008488,0.06504157930612564
7.432520389556885,0.08106355369091034,-0.2935454249382019,0.22526131570339203,0.09670405089855194,0.006294346414506435,0.06542305648326874
7.452600717544556,0.08144503086805344,-0.2950713336467743,0.22640573978424072,0.09708552807569504,0.007057297509163618,0.06542305648326874
7.472665786743164,0.08182650804519653,-0.2954528033733368,0.22678720951080322,0.09708552807569504,0.007057297509163618,0.06542305648326874
7.4927074909210205,0.08182650804519653,-0.2973601818084717,0.22793163359165192,0.09746700525283813,0.007057297509163618,0.06542305648326874
7.512829303741455,0.08220797777175903,-0.29888609051704407,0.2283131182193756,0.09746700525283813,0.007057297509163618,0.06580453366041183
7.532907962799072,0.08258945494890213,-0.30079346895217896,0.2294575423002243,0.09746700525283813,0.005912871100008488,0.06656748056411743
7.552964925765991,0.08297093212604523,-0.30231937766075134,0.2302204966545105,0.09784847497940063,0.006294346414506435,0.06733043491840363
7.573020935058594,0.08297093212604523,-0.30270084738731384,0.230601966381073,0.09822995215654373,0.006294346414506435,0.06771191209554672
7.593138694763184,0.08335240930318832,-0.30308231711387634,0.2317463904619217,0.09861142933368683,0.00667582219466567,0.06771191209554672
7.6132307052612305,0.08373387902975082,-0.30460822582244873,0.23212787508964539,0.09937438368797302,0.00667582219466567,0.06771191209554672
7.633277893066406,0.08411535620689392,-0.30498969554901123,0.23327229917049408,0.10013733059167862,0.007057297509163618,0.06771191209554672
7.653344392776489,0.08411535620689392,-0.3065156042575836,0.23403525352478027,0.10051880776882172,0.00667582219466567,0.06809338182210922
7.673414945602417,0.08487831056118011,-0.3072785437107086,0.23479819297790527,0.10090028494596481,0.007057297509163618,0.06809338182210922
7.693486928939819,0.08487831056118011,-0.308041512966156,0.23517967760562897,0.10090028494596481,0.005912871100008488,0.06847485899925232
7.71354079246521,0.08525978773832321,-0.3099488914012909,0.23556114733219147,0.10128175467252731,0.006294346414506435,0.06847485899925232
7.733659029006958,0.08525978773832321,-0.3107118308544159,0.23670557141304016,0.10128175467252731,0.007057297509163618,0.06847485899925232
7.75368595123291,0.08564125746488571,-0.3114747703075409,0.23746852576732635,0.10128175467252731,0.00667582219466567,0.06847485899925232
7.773759603500366,0.08602273464202881,-0.3122377395629883,0.23785001039505005,0.10128175467252731,0.00667582219466567,0.06885633617639542
7.793811559677124,0.0864042118191719,-0.31414511799812317,0.23861294984817505,0.10166323184967041,0.00667582219466567,0.06885633617639542
7.813907146453857,0.086785688996315,-0.31490805745124817,0.23937590420246124,0.10204470902681351,0.00667582219466567,0.06923781335353851
7.833974123001099,0.0871671661734581,-0.31643396615982056,0.23975738883018494,0.1024261862039566,0.00667582219466567,0.07038223743438721
7.854044675827026,0.0871671661734581,-0.31719690561294556,0.24013885855674744,0.1028076633810997,0.007057297509163618,0.0711451917886734
7.874085426330566,0.0871671661734581,-0.31834134459495544,0.24090181291103363,0.1035706102848053,0.007057297509163618,0.0711451917886734
7.894170522689819,0.0875486359000206,-0.31910428404808044,0.24166475236415863,0.10433356463909149,0.00667582219466567,0.0711451917886734
7.914239406585693,0.0879301130771637,-0.3213931620121002,0.24319066107273102,0.10433356463909149,0.006294346414506435,0.0711451917886734
7.934334754943848,0.0879301130771637,-0.3213931620121002,0.24319066107273102,0.10471503436565399,0.00667582219466567,0.0711451917886734
7.954379320144653,0.0879301130771637,-0.3225375711917877,0.2439536154270172,0.10471503436565399,0.006294346414506435,0.0711451917886734
7.974472761154175,0.0883115902543068,-0.3233005404472351,0.2447165697813034,0.10471503436565399,0.006294346414506435,0.0715266615152359
7.994535684585571,0.08869306743144989,-0.3244449496269226,0.2454795092344284,0.10509651154279709,0.007057297509163618,0.0715266615152359
8.014604806900024,0.08907453715801239,-0.3255893886089325,0.2458609938621521,0.10509651154279709,0.00667582219466567,0.0715266615152359
8.034719228744507,0.08945601433515549,-0.32673379778862,0.2470054179430008,0.10509651154279709,0.00667582219466567,0.0715266615152359
8.05482792854309,0.08983749151229858,-0.3286411762237549,0.247768372297287,0.10547798871994019,0.00667582219466567,0.0715266615152359
8.074916362762451,0.08983749151229858,-0.32978561520576477,0.248531311750412,0.10585946589708328,0.00667582219466567,0.0715266615152359
8.094941854476929,0.09021896868944168,-0.33169299364089966,0.24891279637813568,0.10624094307422638,0.00667582219466567,0.0715266615152359
8.115059852600098,0.09021896868944168,-0.33245593309402466,0.24967575073242188,0.10662241280078888,0.007057297509163618,0.0715266615152359
8.135137796401978,0.09021896868944168,-0.33398184180259705,0.2504386901855469,0.10738536715507507,0.00667582219466567,0.071908138692379
8.155220746994019,0.09060044586658478,-0.33360037207603455,0.2508201599121094,0.10776684433221817,0.00667582219466567,0.071908138692379
8.175276279449463,0.09136339277029037,-0.33474478125572205,0.25158312916755676,0.10814831405878067,0.006294346414506435,0.071908138692379
8.195369243621826,0.09212634712457657,-0.33627068996429443,0.25234606862068176,0.10814831405878067,0.006294346414506435,0.0722896158695221
8.215430736541748,0.09212634712457657,-0.3374151289463043,0.25349050760269165,0.10852979123592377,0.007057297509163618,0.0722896158695221
8.235515832901001,0.09212634712457657,-0.3389410376548767,0.25425344705581665,0.10852979123592377,0.007057297509163618,0.0722896158695221
8.2555513381958,0.09212634712457657,-0.3397039771080017,0.25425344705581665,0.10852979123592377,0.007438773289322853,0.0722896158695221
8.27563738822937,0.09250781685113907,-0.3400854468345642,0.25501641631126404,0.10852979123592377,0.007057297509163618,0.0722896158695221
8.29571008682251,0.09250781685113907,-0.3412298858165741,0.25616082549095154,0.10891126841306686,0.00667582219466567,0.07267109304666519
8.315855503082275,0.09403372555971146,-0.343137264251709,0.2569237947463989,0.10929274559020996,0.005912871100008488,0.07305257022380829
8.335865259170532,0.09403372555971146,-0.3442816734313965,0.2580682039260864,0.10929274559020996,0.006294346414506435,0.07305257022380829
8.355966806411743,0.09403372555971146,-0.34580758213996887,0.2584496736526489,0.11005569249391556,0.00667582219466567,0.07343403995037079
8.376024723052979,0.09441519528627396,-0.34657052159309387,0.2588311731815338,0.11005569249391556,0.0078202486038208,0.07343403995037079
8.396101713180542,0.09441519528627396,-0.34847790002822876,0.2595941126346588,0.11081864684820175,0.007438773289322853,0.07381551712751389
8.41614842414856,0.09441519528627396,-0.35000380873680115,0.2603570520877838,0.11158160120248795,0.007057297509163618,0.07419699430465698
8.436232328414917,0.09479667246341705,-0.35076677799224854,0.2615014910697937,0.11196307092905045,0.00667582219466567,0.07457847148180008
8.456323385238647,0.09517814964056015,-0.35152971744537354,0.2622644305229187,0.11234454810619354,0.005912871100008488,0.07495994865894318
8.476417064666748,0.09555962681770325,-0.35191118717193604,0.2630273997783661,0.11234454810619354,0.006294346414506435,0.07495994865894318
8.496512413024902,0.09594109654426575,-0.3526741564273834,0.2634088695049286,0.11234454810619354,0.007057297509163618,0.07495994865894318
8.516574382781982,0.09632257372140884,-0.3534370958805084,0.2641718089580536,0.11272602528333664,0.007057297509163618,0.07495994865894318
8.536770343780518,0.09632257372140884,-0.3549630045890808,0.264934778213501,0.11272602528333664,0.0078202486038208,0.07495994865894318
8.556769371032715,0.09670405089855194,-0.3557259440422058,0.264934778213501,0.11310750246047974,0.007438773289322853,0.07534141838550568
8.576815843582153,0.09708552807569504,-0.3568703830242157,0.265697717666626,0.11310750246047974,0.00667582219466567,0.07534141838550568
8.59695553779602,0.09708552807569504,-0.3580147922039032,0.266460657119751,0.11348897218704224,0.006294346414506435,0.07534141838550568
8.617027521133423,0.09746700525283813,-0.3591592311859131,0.26722362637519836,0.11425192654132843,0.006294346414506435,0.07572289556264877
8.63709545135498,0.09746700525283813,-0.3606851398944855,0.26798656582832336,0.11463340371847153,0.00667582219466567,0.07572289556264877
8.65718412399292,0.09822995215654373,-0.361829549074173,0.26874953508377075,0.11501488089561462,0.007438773289322853,0.07572289556264877
8.677314043045044,0.09861142933368683,-0.36297398805618286,0.26951247453689575,0.11539635062217712,0.007057297509163618,0.07572289556264877
8.697404861450195,0.09899290651082993,-0.36526283621788025,0.27065691351890564,0.11577782779932022,0.00667582219466567,0.07610437273979187
8.717496395111084,0.09975585341453552,-0.36640727519989014,0.27141985297203064,0.11577782779932022,0.00667582219466567,0.07610437273979187
8.737557649612427,0.09937438368797302,-0.36678874492645264,0.27180132269859314,0.11615930497646332,0.00667582219466567,0.07648584991693497
8.757612705230713,0.09975585341453552,-0.36755168437957764,0.27218279242515564,0.11615930497646332,0.007057297509163618,0.07686731964349747
8.777690649032593,0.10051880776882172,-0.368314653635025,0.2733272314071655,0.11654078215360641,0.00667582219466567,0.07801175117492676
8.797741889953613,0.10128175467252731,-0.3686961233615875,0.2740901708602905,0.11692225188016891,0.007057297509163618,0.07877469807863235
8.817819356918335,0.10128175467252731,-0.3706035017967224,0.2748531401157379,0.11692225188016891,0.007438773289322853,0.07877469807863235
8.838240146636963,0.10128175467252731,-0.3721294105052948,0.2756160795688629,0.11730372905731201,0.007057297509163618,0.07877469807863235
8.858350992202759,0.10128175467252731,-0.3728923499584198,0.2763790488243103,0.1184481605887413,0.007438773289322853,0.07877469807863235
8.878515005111694,0.10166323184967041,-0.3744182586669922,0.2771419882774353,0.1192111074924469,0.007057297509163618,0.07915617525577545
8.898661136627197,0.10166323184967041,-0.3755626678466797,0.2771419882774353,0.11959258466959,0.00667582219466567,0.07915617525577545
8.918860912322998,0.10166323184967041,-0.3774700462818146,0.2782863974571228,0.11959258466959,0.00667582219466567,0.07915617525577545
8.939023971557617,0.1024261862039566,-0.37823301553726196,0.2794308364391327,0.1199740618467331,0.00667582219466567,0.07915617525577545
8.959088802337646,0.1024261862039566,-0.37975889444351196,0.2801937758922577,0.1199740618467331,0.007057297509163618,0.07953765243291855
8.979122400283813,0.1024261862039566,-0.38014039397239685,0.2805752754211426,0.1203555315732956,0.007057297509163618,0.07953765243291855
8.99928092956543,0.1028076633810997,-0.38014039397239685,0.2809567451477051,0.1203555315732956,0.007438773289322853,0.07953765243291855
9.019371271133423,0.1031891331076622,-0.38128480315208435,0.2817196846008301,0.12073700875043869,0.007057297509163618,0.07953765243291855
9.039462566375732,0.1039520874619484,-0.38281071186065674,0.28286412358283997,0.12111848592758179,0.007057297509163618,0.07991912961006165
9.059536695480347,0.1039520874619484,-0.3839551508426666,0.28324559330940247,0.12188144028186798,0.00667582219466567,0.07991912961006165
9.080334663391113,0.10471503436565399,-0.3850995600223541,0.28400853276252747,0.12264438718557358,0.007057297509163618,0.08030059933662415
9.100461483001709,0.10471503436565399,-0.3866254687309265,0.28477150201797485,0.12302586436271667,0.007057297509163618,0.08030059933662415
9.120517253875732,0.10471503436565399,-0.3873884081840515,0.28515297174453735,0.12340734153985977,0.0078202486038208,0.08068207651376724
9.14058780670166,0.10471503436565399,-0.3881513774394989,0.28591591119766235,0.12340734153985977,0.007438773289322853,0.08068207651376724
9.161110639572144,0.10585946589708328,-0.3885328471660614,0.28667888045310974,0.12340734153985977,0.006294346414506435,0.08106355369091034
9.181198120117188,0.10662241280078888,-0.3900587558746338,0.28744181990623474,0.12378881871700287,0.006294346414506435,0.08220797777175903
9.201276302337646,0.10662241280078888,-0.3912031650543213,0.28858625888824463,0.12417028844356537,0.007438773289322853,0.08220797777175903
9.221321821212769,0.10662241280078888,-0.3923476040363312,0.28858625888824463,0.12417028844356537,0.007438773289322853,0.08220797777175903
9.241410732269287,0.10662241280078888,-0.39425498247146606,0.28934919834136963,0.12455176562070847,0.008201723918318748,0.08220797777175903
9.261499881744385,0.10700388997793198,-0.39501792192459106,0.290112167596817,0.12455176562070847,0.0078202486038208,0.08220797777175903
9.281607389450073,0.10776684433221817,-0.39692530035972595,0.290875107049942,0.12531471252441406,0.00667582219466567,0.08258945494890213
9.301700592041016,0.10852979123592377,-0.39768826961517334,0.291638046503067,0.12684062123298645,0.00667582219466567,0.08258945494890213
9.321862936019897,0.10852979123592377,-0.39845120906829834,0.2924010157585144,0.12722209095954895,0.007057297509163618,0.08297093212604523
9.341947555541992,0.10891126841306686,-0.39921414852142334,0.2931639552116394,0.12722209095954895,0.007438773289322853,0.08297093212604523
9.362053394317627,0.10891126841306686,-0.3995956480503082,0.2939268946647644,0.12722209095954895,0.0078202486038208,0.08297093212604523
9.382068157196045,0.10891126841306686,-0.4007400572299957,0.2939268946647644,0.12722209095954895,0.0078202486038208,0.08297093212604523
9.40211296081543,0.10891126841306686,-0.4018844962120056,0.2946898639202118,0.12760357558727264,0.007057297509163618,0.08297093212604523
9.422199726104736,0.10929274559020996,-0.4026474356651306,0.2954528033733368,0.12798504531383514,0.007057297509163618,0.08335240930318832
9.442264080047607,0.10967422276735306,-0.4045548141002655,0.2958342730998993,0.12798504531383514,0.00667582219466567,0.08335240930318832
9.462332487106323,0.10967422276735306,-0.404936283826828,0.2958342730998993,0.12874799966812134,0.007057297509163618,0.08335240930318832
9.482400178909302,0.11005569249391556,-0.4060807228088379,0.2969787120819092,0.12912946939468384,0.007057297509163618,0.08335240930318832
9.502487897872925,0.11081864684820175,-0.4087510406970978,0.29850462079048157,0.12951095402240753,0.007438773289322853,0.08335240930318832
9.522600889205933,0.11120012402534485,-0.40989547967910767,0.29964902997016907,0.13027389347553253,0.008201723918318748,0.08373387902975082
9.542664289474487,0.11120012402534485,-0.40989547967910767,0.30003052949905396,0.13027389347553253,0.007438773289322853,0.08373387902975082
9.562700510025024,0.11158160120248795,-0.41103988885879517,0.30003052949905396,0.13065537810325623,0.007057297509163618,0.08411535620689392
9.582947969436646,0.11196307092905045,-0.41218432784080505,0.30117493867874146,0.13103684782981873,0.007057297509163618,0.08487831056118011
9.603038311004639,0.11234454810619354,-0.41409170627593994,0.30193790793418884,0.13103684782981873,0.007057297509163618,0.08525978773832321
9.623125791549683,0.11272602528333664,-0.41599908471107483,0.30308231711387634,0.13103684782981873,0.007438773289322853,0.08564125746488571
9.643191814422607,0.11348897218704224,-0.4171435236930847,0.30346378684043884,0.13141833245754242,0.0078202486038208,0.0864042118191719
9.66329550743103,0.11387044936418533,-0.4186694025993347,0.30460822582244873,0.13141833245754242,0.007438773289322853,0.0864042118191719
9.683402299880981,0.11387044936418533,-0.4190509021282196,0.30537116527557373,0.13179980218410492,0.007438773289322853,0.086785688996315
9.70343565940857,0.11425192654132843,-0.4194323718547821,0.3061341345310211,0.13179980218410492,0.007438773289322853,0.086785688996315
9.723516464233398,0.11463340371847153,-0.4201953113079071,0.3068970739841461,0.13218127191066742,0.007057297509163618,0.0871671661734581
9.74358057975769,0.11501488089561462,-0.4209582805633545,0.308041512966156,0.1329442262649536,0.007438773289322853,0.0871671661734581
9.763636350631714,0.11615930497646332,-0.4224841594696045,0.3091859221458435,0.1337071806192398,0.007438773289322853,0.0871671661734581
9.783692359924316,0.11615930497646332,-0.4232471287250519,0.309567391872406,0.134470134973526,0.008201723918318748,0.0871671661734581
9.8037748336792,0.11615930497646332,-0.42591744661331177,0.3099488914012909,0.134470134973526,0.007438773289322853,0.0875486359000206
9.823875188827515,0.11615930497646332,-0.42782482504844666,0.3107118308544159,0.1348516047000885,0.008201723918318748,0.0875486359000206
9.843950748443604,0.11654078215360641,-0.42896926403045654,0.3114747703075409,0.135233074426651,0.007057297509163618,0.0879301130771637
9.86405348777771,0.11692225188016891,-0.42973220348358154,0.3118562698364258,0.135233074426651,0.007057297509163618,0.0879301130771637
9.884299516677856,0.11692225188016891,-0.43087664246559143,0.3130006790161133,0.1356145590543747,0.007057297509163618,0.08869306743144989
9.904412984848022,0.11730372905731201,-0.43163958191871643,0.31414511799812317,0.1359960287809372,0.007057297509163618,0.08945601433515549
9.924509048461914,0.11730372905731201,-0.43163958191871643,0.31452658772468567,0.1367589831352234,0.0078202486038208,0.09021896868944168
9.944554567337036,0.1184481605887413,-0.43163958191871643,0.31490805745124817,0.1371404528617859,0.007438773289322853,0.09021896868944168
9.964653730392456,0.1188296303153038,-0.4335469603538513,0.31567102670669556,0.13790340721607208,0.007057297509163618,0.09060044586658478
9.984751462936401,0.1188296303153038,-0.4358358085155487,0.31643396615982056,0.13790340721607208,0.0078202486038208,0.09060044586658478
10.004823684692383,0.1192111074924469,-0.4358358085155487,0.31719690561294556,0.13828489184379578,0.0078202486038208,0.09060044586658478
10.024881601333618,0.1192111074924469,-0.4358358085155487,0.31719690561294556,0.13828489184379578,0.007057297509163618,0.09060044586658478
10.044961929321289,0.1192111074924469,-0.4362172782421112,0.31757840514183044,0.13828489184379578,0.007438773289322853,0.09060044586658478
10.065139532089233,0.11959258466959,-0.4377431869506836,0.31872281432151794,0.13866636157035828,0.007438773289322853,0.09060044586658478
10.085179567337036,0.1203555315732956,-0.439269095659256,0.31986725330352783,0.13866636157035828,0.007438773289322853,0.09098191559314728
10.105227708816528,0.12111848592758179,-0.44117647409439087,0.32063019275665283,0.13904783129692078,0.007438773289322853,0.09098191559314728
10.12531065940857,0.12111848592758179,-0.44346532225608826,0.3213931620121002,0.13942931592464447,0.007438773289322853,0.09098191559314728
10.145385503768921,0.12149996310472488,-0.44575417041778564,0.3217746317386627,0.13942931592464447,0.0078202486038208,0.09098191559314728
10.165518045425415,0.12149996310472488,-0.44651713967323303,0.3225375711917877,0.13942931592464447,0.0078202486038208,0.09098191559314728
10.185566186904907,0.12149996310472488,-0.44728007912635803,0.3229190409183502,0.14019227027893066,0.007438773289322853,0.09098191559314728
10.205743789672852,0.12226291000843048,-0.44804301857948303,0.3240634799003601,0.14133669435977936,0.007057297509163618,0.09098191559314728
10.225852489471436,0.12302586436271667,-0.44804301857948303,0.3248264193534851,0.14171816408634186,0.007057297509163618,0.09136339277029037
10.245924234390259,0.12340734153985977,-0.44804301857948303,0.32520791888237,0.14209964871406555,0.007057297509163618,0.09136339277029037
10.266029596328735,0.12340734153985977,-0.4484245181083679,0.3255893886089325,0.14209964871406555,0.0078202486038208,0.09136339277029037
10.286380052566528,0.12340734153985977,-0.4503318965435028,0.3263523280620575,0.14248111844062805,0.008201723918318748,0.09136339277029037
10.306537389755249,0.12378881871700287,-0.4514763057231903,0.3274967670440674,0.14248111844062805,0.00858320016413927,0.09136339277029037
10.326586484909058,0.12378881871700287,-0.4526207447052002,0.3278782367706299,0.14286258816719055,0.007438773289322853,0.09136339277029037
10.346611976623535,0.12417028844356537,-0.4537651538848877,0.3286411762237549,0.14362554252147675,0.00667582219466567,0.09174486994743347
10.36683988571167,0.12417028844356537,-0.4549095928668976,0.3290226459503174,0.14438849687576294,0.00667582219466567,0.09174486994743347
10.386924743652344,0.12493324279785156,-0.45719844102859497,0.33054855465888977,0.14515145123004913,0.007438773289322853,0.09212634712457657
10.407111167907715,0.12531471252441406,-0.45872434973716736,0.33093002438545227,0.14553292095661163,0.0078202486038208,0.09212634712457657
10.427218675613403,0.12569619715213776,-0.45948728919029236,0.33169299364089966,0.14591439068317413,0.008201723918318748,0.09212634712457657
10.447226524353027,0.12607766687870026,-0.46025025844573975,0.33207446336746216,0.14591439068317413,0.008201723918318748,0.09250781685113907
10.467337369918823,0.12645913660526276,-0.46215763688087463,0.33321890234947205,0.14591439068317413,0.0078202486038208,0.09288929402828217
10.487401008605957,0.12645913660526276,-0.46292057633399963,0.33398184180259705,0.14629587531089783,0.007438773289322853,0.09403372555971146
10.507470846176147,0.12645913660526276,-0.4640650153160095,0.33474478125572205,0.14667734503746033,0.007438773289322853,0.09441519528627396
10.527534008026123,0.12722209095954895,-0.465209424495697,0.33550775051116943,0.14667734503746033,0.007057297509163618,0.09441519528627396
10.547603845596313,0.12760357558727264,-0.4663538634777069,0.33627068996429443,0.14705882966518402,0.007438773289322853,0.09441519528627396
10.567665815353394,0.12798504531383514,-0.4671168029308319,0.3370336592197418,0.14744029939174652,0.007438773289322853,0.09441519528627396
10.587739944458008,0.12836651504039764,-0.4674982726573944,0.3374151289463043,0.14858472347259521,0.007438773289322853,0.09479667246341705
10.607864141464233,0.12874799966812134,-0.4678797721862793,0.3385595381259918,0.1493476778268814,0.0078202486038208,0.09479667246341705
10.62800669670105,0.12874799966812134,-0.4694056510925293,0.3393225073814392,0.1493476778268814,0.0078202486038208,0.09517814964056015
10.6480073928833,0.12912946939468384,-0.4701686203479767,0.3393225073814392,0.1497291475534439,0.007438773289322853,0.09517814964056015
10.66824984550476,0.12951095402240753,-0.4724574685096741,0.3400854468345642,0.1497291475534439,0.007438773289322853,0.09517814964056015
10.688338279724121,0.13027389347553253,-0.47474631667137146,0.3412298858165741,0.1501106321811676,0.007438773289322853,0.09555962681770325
10.708400964736938,0.13065537810325623,-0.47627222537994385,0.3416113555431366,0.1501106321811676,0.0078202486038208,0.09555962681770325
10.728469371795654,0.13065537810325623,-0.47665369510650635,0.3416113555431366,0.1504921019077301,0.0078202486038208,0.09555962681770325
10.748518705368042,0.13065537810325623,-0.47703516483306885,0.3423742949962616,0.1504921019077301,0.008201723918318748,0.09594109654426575
10.768600940704346,0.13103684782981873,-0.47856107354164124,0.3435187339782715,0.1512550562620163,0.0078202486038208,0.09632257372140884
10.788671731948853,0.13141833245754242,-0.47932401299476624,0.3442816734313965,0.1516365259885788,0.0078202486038208,0.09708552807569504
10.808742046356201,0.13141833245754242,-0.4804684519767761,0.344663143157959,0.1527809500694275,0.007057297509163618,0.09784847497940063
10.828795194625854,0.13179980218410492,-0.4812313914299011,0.34542611241340637,0.15316243469715118,0.007438773289322853,0.09784847497940063
10.848881721496582,0.13179980218410492,-0.482375830411911,0.34618905186653137,0.15354390442371368,0.007438773289322853,0.09784847497940063
10.868958711624146,0.1325627565383911,-0.4835202693939209,0.34695202112197876,0.15354390442371368,0.0078202486038208,0.09822995215654373
10.889038324356079,0.1329442262649536,-0.4842832088470459,0.34771496057510376,0.15354390442371368,0.0078202486038208,0.09822995215654373
10.909087896347046,0.1333257108926773,-0.4842832088470459,0.34771496057510376,0.15392538905143738,0.0078202486038208,0.09822995215654373
10.929316282272339,0.1337071806192398,-0.4842832088470459,0.34885939955711365,0.15392538905143738,0.007438773289322853,0.09822995215654373
10.949416637420654,0.1337071806192398,-0.4854276478290558,0.34962233901023865,0.15430685877799988,0.0078202486038208,0.09822995215654373
10.969503402709961,0.1337071806192398,-0.4865720570087433,0.35076677799224854,0.15430685877799988,0.0078202486038208,0.09822995215654373
10.989568710327148,0.1337071806192398,-0.4892423748970032,0.35114824771881104,0.15468832850456238,0.007438773289322853,0.09822995215654373
11.009707927703857,0.134470134973526,-0.49076828360557556,0.35152971744537354,0.15583276748657227,0.0078202486038208,0.09822995215654373
11.029791116714478,0.135233074426651,-0.49229419231414795,0.35191118717193604,0.15659570693969727,0.007057297509163618,0.09822995215654373
11.049892902374268,0.1359960287809372,-0.49382010102272034,0.3526741564273834,0.15697719156742096,0.007057297509163618,0.09861142933368683
11.06993055343628,0.1359960287809372,-0.49458304047584534,0.3534370958805084,0.15697719156742096,0.0078202486038208,0.09861142933368683
11.089978456497192,0.1359960287809372,-0.4953460097312927,0.3538185656070709,0.15697719156742096,0.008201723918318748,0.09861142933368683
11.110055446624756,0.1371404528617859,-0.4961089491844177,0.3553444743156433,0.15697719156742096,0.007438773289322853,0.09861142933368683
11.130132913589478,0.13790340721607208,-0.4976348578929901,0.3564889132976532,0.15735866129398346,0.007438773289322853,0.09899290651082993
11.150213241577148,0.13790340721607208,-0.4987792670726776,0.3568703830242157,0.15774014592170715,0.007438773289322853,0.09899290651082993
11.170348882675171,0.13790340721607208,-0.499542236328125,0.3572518527507782,0.15774014592170715,0.008201723918318748,0.09899290651082993
11.190459251403809,0.13828489184379578,-0.5006866455078125,0.3576333224773407,0.15774014592170715,0.0078202486038208,0.09899290651082993
11.21052622795105,0.13828489184379578,-0.5025940537452698,0.3583962619304657,0.15812161564826965,0.0078202486038208,0.09899290651082993
11.230650424957275,0.13866636157035828,-0.5037384629249573,0.3591592311859131,0.15850308537483215,0.0078202486038208,0.09937438368797302
11.250802040100098,0.13904783129692078,-0.5048828721046448,0.3599221706390381,0.15888457000255585,0.0078202486038208,0.09937438368797302
11.270883083343506,0.13942931592464447,-0.506027340888977,0.3603036403656006,0.15964750945568085,0.007438773289322853,0.09975585341453552
11.290959596633911,0.13981078565120697,-0.5064088106155396,0.3614480793476105,0.16002899408340454,0.0078202486038208,0.09975585341453552
11.31101369857788,0.14019227027893066,-0.5079346895217896,0.361829549074173,0.16041046380996704,0.0078202486038208,0.10051880776882172
11.331155061721802,0.14019227027893066,-0.5094605684280396,0.36259251832962036,0.16079194843769073,0.008201723918318748,0.10051880776882172
11.351252317428589,0.14095520973205566,-0.5106050372123718,0.36373692750930786,0.16079194843769073,0.0078202486038208,0.10090028494596481
11.3713219165802,0.14095520973205566,-0.5113679766654968,0.36411839723587036,0.16117341816425323,0.008201723918318748,0.10090028494596481
11.391426801681519,0.14095520973205566,-0.5125123858451843,0.36449989676475525,0.16117341816425323,0.0078202486038208,0.10128175467252731
11.411744832992554,0.14171816408634186,-0.5132753252983093,0.36488136649131775,0.16155488789081573,0.0078202486038208,0.10166323184967041
11.431915283203125,0.14209964871406555,-0.5144197940826416,0.36526283621788025,0.16193637251853943,0.0078202486038208,0.10166323184967041
11.451972246170044,0.14248111844062805,-0.5159456729888916,0.36602577567100525,0.16231784224510193,0.0078202486038208,0.10166323184967041
11.472003936767578,0.14324407279491425,-0.5170900821685791,0.36678874492645264,0.16269932687282562,0.0078202486038208,0.10166323184967041
11.492090702056885,0.14324407279491425,-0.5186160206794739,0.36755168437957764,0.16346226632595062,0.0078202486038208,0.10166323184967041
11.512157917022705,0.14362554252147675,-0.5201418995857239,0.368314653635025,0.16422522068023682,0.008201723918318748,0.10204470902681351
11.532235145568848,0.14438849687576294,-0.5209048390388489,0.36907759308815,0.16422522068023682,0.0078202486038208,0.10204470902681351
11.552425622940063,0.14438849687576294,-0.5216678380966187,0.3694590628147125,0.1646067053079605,0.0078202486038208,0.1024261862039566
11.572530269622803,0.14515145123004913,-0.5231937170028687,0.3706035017967224,0.1646067053079605,0.0078202486038208,0.1024261862039566
11.59260082244873,0.14515145123004913,-0.5243381261825562,0.3717479109764099,0.1646067053079605,0.0078202486038208,0.1024261862039566
11.612699270248413,0.14553292095661163,-0.5247195959091187,0.3725108802318573,0.164988175034523,0.008201723918318748,0.1024261862039566
11.632771015167236,0.14705882966518402,-0.5228122472763062,0.3725108802318573,0.1661325991153717,0.008201723918318748,0.1024261862039566
11.652850866317749,0.1508735716342926,-0.5170900821685791,0.3702220320701599,0.16880293190479279,0.007057297509163618,0.1024261862039566
11.672906398773193,0.15545128285884857,-0.5086976289749146,0.36564430594444275,0.17376211285591125,0.00476844422519207,0.1024261862039566
11.692957162857056,0.15812161564826965,-0.49305713176727295,0.3568703830242157,0.1802472025156021,0.0036240178160369396,0.10204470902681351
11.713038444519043,0.16079194843769073,-0.47589075565338135,0.343900203704834,0.1844434291124344,0.00476844422519207,0.10204470902681351
11.733118057250977,0.16269932687282562,-0.45796138048171997,0.32940414547920227,0.18787670135498047,0.0078202486038208,0.10128175467252731
11.753284215927124,0.16422522068023682,-0.44422826170921326,0.31681543588638306,0.19092851877212524,0.0078202486038208,0.10128175467252731
11.773279666900635,0.1653696447610855,-0.42629891633987427,0.29850462079048157,0.19398032128810883,0.00667582219466567,0.10128175467252731
11.79338788986206,0.1661325991153717,-0.4072251319885254,0.2798123061656952,0.1977950781583786,0.006294346414506435,0.10090028494596481
11.813475847244263,0.1668955534696579,-0.3843366205692291,0.2595941126346588,0.20389868319034576,-0.0013351644156500697,0.10051880776882172
11.833524465560913,0.1665140837430954,-0.3553444743156433,0.23861294984817505,0.21229113638401031,-0.006294346414506435,0.09899290651082993
11.853674411773682,0.1668955534696579,-0.32520791888237,0.21725031733512878,0.22144655883312225,-0.010109102353453636,0.09861142933368683
11.87368369102478,0.1668955534696579,-0.2965972423553467,0.1958876997232437,0.22793163359165192,-0.014686808921396732,0.09784847497940063
11.893734455108643,0.1672770231962204,-0.26760509610176086,0.17071031033992767,0.23327229917049408,-0.01583123579621315,0.09670405089855194
11.913792133331299,0.1668955534696579,-0.2454795092344284,0.1493476778268814,0.24166475236415863,-0.018120087683200836,0.09441519528627396
11.933890342712402,0.17109178006649017,-0.2283131182193756,0.12989242374897003,0.2508201599121094,-0.018501564860343933,0.09288929402828217
11.954057216644287,0.17643244564533234,-0.21953918039798737,0.12302586436271667,0.2645532786846161,-0.029564354568719864,0.09060044586658478
11.974039793014526,0.17910276353359222,-0.2149614691734314,0.11959258466959,0.272945761680603,-0.02880140393972397,0.09021896868944168
11.994136095046997,0.1844434291124344,-0.20923933386802673,0.12226291000843048,0.2809567451477051,-0.02880140393972397,0.08602273464202881
12.014187097549438,0.18825818598270416,-0.20351719856262207,0.12340734153985977,0.28858625888824463,-0.02689402550458908,0.08525978773832321
12.03429651260376,0.18902114033699036,-0.1989395022392273,0.12493324279785156,0.2912565767765045,-0.024223696440458298,0.08220797777175903
12.054312944412231,0.19169145822525024,-0.1958876997232437,0.12340734153985977,0.2935454249382019,-0.023079270496964455,0.08030059933662415
12.074394702911377,0.19550621509552002,-0.1958876997232437,0.1192111074924469,0.2962157726287842,-0.02384222112596035,0.07839322835206985
12.094478607177734,0.200083926320076,-0.1958876997232437,0.11615930497646332,0.30422675609588623,-0.02994582988321781,0.07572289556264877
12.114567279815674,0.20389868319034576,-0.1981765478849411,0.11501488089561462,0.31490805745124817,-0.03643091395497322,0.07457847148180008
12.134656429290771,0.20580606162548065,-0.20122835040092468,0.1192111074924469,0.3236820101737976,-0.040627144277095795,0.07267109304666519
12.15471887588501,0.2130540907382965,-0.20313572883605957,0.12874799966812134,0.33245593309402466,-0.045204851776361465,0.06885633617639542
12.174790620803833,0.21953918039798737,-0.20389868319034576,0.135233074426651,0.3393225073814392,-0.04444190114736557,0.06466010212898254
12.194890022277832,0.21915769577026367,-0.20199130475521088,0.1363775134086609,0.3404669165611267,-0.04329747334122658,0.06237125024199486
12.214920997619629,0.21839475631713867,-0.1989395022392273,0.134470134973526,0.3408484160900116,-0.040627144277095795,0.059319447726011276
12.235005855560303,0.21953918039798737,-0.1977950781583786,0.12951095402240753,0.3427557647228241,-0.0394827201962471,0.05664911866188049
12.255129098892212,0.22220951318740845,-0.1977950781583786,0.12417028844356537,0.34885939955711365,-0.04177157208323479,0.05436026677489281
12.275204420089722,0.22449836134910583,-0.1989395022392273,0.12302586436271667,0.3614480793476105,-0.049782559275627136,0.050164032727479935
12.295248985290527,0.22564278542995453,-0.20199130475521088,0.12798504531383514,0.3755626678466797,-0.05664911866188049,0.04596780240535736
12.315297842025757,0.23403525352478027,-0.20275425910949707,0.13218127191066742,0.386243999004364,-0.06198977679014206,0.037193864583969116
12.335388422012329,0.23670557141304016,-0.20160982012748718,0.134470134973526,0.3896772861480713,-0.05893797054886818,0.03147173300385475
12.355463027954102,0.23517967760562897,-0.1981765478849411,0.1337071806192398,0.3908216953277588,-0.0558861680328846,0.028038453310728073
12.375514268875122,0.23479819297790527,-0.1958876997232437,0.13103684782981873,0.3927290737628937,-0.050164032727479935,0.02384222112596035
12.395565748214722,0.23594263195991516,-0.1958876997232437,0.12340734153985977,0.39463645219802856,-0.048256658017635345,0.02079041674733162
12.415650844573975,0.23556114733219147,-0.1958876997232437,0.12073700875043869,0.4064621925354004,-0.049782559275627136,0.013542382046580315
12.435719013214111,0.23441672325134277,-0.1989395022392273,0.12378881871700287,0.4190509021282196,-0.059319447726011276,0.010109102353453636
12.455796003341675,0.23479819297790527,-0.20122835040092468,0.12874799966812134,0.42858776450157166,-0.06809338182210922,0.0024795911740511656
12.475876808166504,0.23746852576732635,-0.20275425910949707,0.13179980218410492,0.43049514293670654,-0.06885633617639542,-0.004386968910694122
12.495946645736694,0.23975738883018494,-0.20084688067436218,0.13103684782981873,0.4327840209007263,-0.06733043491840363,-0.01201647985726595
12.516051769256592,0.23937590420246124,-0.1970321238040924,0.12607766687870026,0.4369802474975586,-0.06466010212898254,-0.016975661739706993
12.53614616394043,0.23975738883018494,-0.19512474536895752,0.1203555315732956,0.44193941354751587,-0.059319447726011276,-0.024605173617601395
12.556188344955444,0.23975738883018494,-0.19550621509552002,0.11577782779932022,0.45834288001060486,-0.06046387553215027,-0.038719769567251205
12.576440572738647,0.23975738883018494,-0.1993209719657898,0.11577782779932022,0.4705500900745392,-0.06542305648326874,-0.04329747334122658
12.596565008163452,0.23975738883018494,-0.20466163754463196,0.12073700875043869,0.47703516483306885,-0.06885633617639542,-0.048256658017635345
12.616620540618896,0.24013885855674744,-0.20885786414146423,0.12912946939468384,0.4827573001384735,-0.07381551712751389,-0.05397878959774971
12.636676549911499,0.24204623699188232,-0.21190966665744781,0.1333257108926773,0.49076828360557556,-0.07000076025724411,-0.06771191209554672
12.656747579574585,0.2454795092344284,-0.21229113638401031,0.1325627565383911,0.4957274794578552,-0.06771191209554672,-0.08068207651376724
12.676901817321777,0.2458609938621521,-0.21152819693088531,0.12912946939468384,0.4991607666015625,-0.06198977679014206,-0.08945601433515549
12.696968078613281,0.24013885855674744,-0.21152819693088531,0.12607766687870026,0.5071717500686646,-0.058175019919872284,-0.09822995215654373
12.717064380645752,0.23670557141304016,-0.2149614691734314,0.12531471252441406,0.5212863087654114,-0.06198977679014206,-0.10700388997793198
12.737262725830078,0.23823148012161255,-0.21877622604370117,0.12645913660526276,0.5266270041465759,-0.06160829961299896,-0.11196307092905045
12.757420778274536,0.23861294984817505,-0.22106507420539856,0.1333257108926773,0.5289158225059509,-0.06885633617639542,-0.11348897218704224
12.777527809143066,0.23670557141304016,-0.22297245264053345,0.14095520973205566,0.536163866519928,-0.07610437273979187,-0.1192111074924469
12.7975914478302,0.23594263195991516,-0.22449836134910583,0.14362554252147675,0.5380712747573853,-0.07000076025724411,-0.12149996310472488
12.817649126052856,0.23937590420246124,-0.22411687672138214,0.14286258816719055,0.5388342142105103,-0.06542305648326874,-0.12531471252441406
12.837739944458008,0.24013885855674744,-0.22335393726825714,0.13904783129692078,0.5399786233901978,-0.06008239835500717,-0.12874799966812134
12.85781741142273,0.23556114733219147,-0.22411687672138214,0.1367589831352234,0.5460822582244873,-0.056267641484737396,-0.1325627565383911
12.877893924713135,0.2313649207353592,-0.22678720951080322,0.1359960287809372,0.5571450591087341,-0.05970092490315437,-0.13866636157035828
12.89800214767456,0.23327229917049408,-0.2302204966545105,0.1371404528617859,0.5601968169212341,-0.06351567804813385,-0.13942931592464447
12.918066024780273,0.23289081454277039,-0.23212787508964539,0.14286258816719055,0.5624856948852539,-0.0707637146115303,-0.14019227027893066
12.938174962997437,0.23403525352478027,-0.23441672325134277,0.14820325374603271,0.5701152086257935,-0.07686731964349747,-0.14667734503746033
12.958301544189453,0.23632410168647766,-0.23632410168647766,0.1504921019077301,0.5716410875320435,-0.06809338182210922,-0.1497291475534439
12.978331804275513,0.23785001039505005,-0.23556114733219147,0.14782176911830902,0.5750743746757507,-0.06084534898400307,-0.15659570693969727
12.998486757278442,0.23250934481620789,-0.23517967760562897,0.14438849687576294,0.5807965397834778,-0.051689937710762024,-0.1653696447610855
13.018569469451904,0.23441672325134277,-0.23823148012161255,0.14744029939174652,0.5960555672645569,-0.06351567804813385,-0.17605096101760864
13.03862977027893,0.23975738883018494,-0.2454795092344284,0.1489662081003189,0.6067368388175964,-0.05893797054886818,-0.1810101419687271
13.05869460105896,0.23861294984817505,-0.24929426610469818,0.15468832850456238,0.6109330654144287,-0.06351567804813385,-0.18749523162841797
13.0787992477417,0.23937590420246124,-0.25196459889411926,0.16308079659938812,0.619325578212738,-0.06885633617639542,-0.1962691694498062
13.09889268875122,0.24052032828330994,-0.25387197732925415,0.1668955534696579,0.621614396572113,-0.06389715522527695,-0.20160982012748718
13.118994235992432,0.24052032828330994,-0.25349050760269165,0.1680399775505066,0.6235218048095703,-0.05855649709701538,-0.20733195543289185
13.13900876045227,0.24013885855674744,-0.25120165944099426,0.1653696447610855,0.6246662139892578,-0.054741740226745605,-0.21114671230316162
13.159122943878174,0.24013885855674744,-0.2504386901855469,0.15697719156742096,0.6261920928955078,-0.049782559275627136,-0.2149614691734314
13.179198741912842,0.23823148012161255,-0.24967575073242188,0.15621423721313477,0.6361104846000671,-0.053215838968753815,-0.22220951318740845
13.199254751205444,0.23746852576732635,-0.25310903787612915,0.15735866129398346,0.6433585286140442,-0.06084534898400307,-0.22564278542995453
13.219302892684937,0.23861294984817505,-0.25539788603782654,0.15964750945568085,0.6475547552108765,-0.06275273114442825,-0.2298390120267868
13.239389896392822,0.23708705604076385,-0.2573052644729614,0.1672770231962204,0.650225043296814,-0.06504157930612564,-0.23289081454277039
13.259472608566284,0.23517967760562897,-0.2588311731815338,0.16880293190479279,0.6528953909873962,-0.06046387553215027,-0.24013885855674744
13.279534339904785,0.23975738883018494,-0.2588311731815338,0.1653696447610855,0.6548027992248535,-0.05283436179161072,-0.2454795092344284
13.299625873565674,0.24319066107273102,-0.2576867341995239,0.16155488789081573,0.6563286781311035,-0.048638131469488144,-0.2500572204589844
13.319705724716187,0.24052032828330994,-0.2580682039260864,0.15926603972911835,0.6605249047279358,-0.04901960864663124,-0.25272753834724426
13.339770793914795,0.23937590420246124,-0.2622644305229187,0.15964750945568085,0.6654840707778931,-0.050164032727479935,-0.25577935576438904
13.35985803604126,0.23937590420246124,-0.265697717666626,0.16269932687282562,0.6685358881950378,-0.05397878959774971,-0.2592126429080963
13.379892826080322,0.23899443447589874,-0.26989394426345825,0.17185473442077637,0.6727321147918701,-0.061226826161146164,-0.2618829607963562
13.399980306625366,0.23785001039505005,-0.27180132269859314,0.17605096101760864,0.6788357496261597,-0.05245288833975792,-0.26989394426345825
13.420068502426147,0.23746852576732635,-0.27141985297203064,0.17719538509845734,0.6792172193527222,-0.04940108209848404,-0.2740901708602905
13.440149307250977,0.23746852576732635,-0.26913100481033325,0.17452506721019745,0.6803616285324097,-0.04596780240535736,-0.2763790488243103
13.46021842956543,0.23785001039505005,-0.26722362637519836,0.1676585078239441,0.6811245679855347,-0.043678950518369675,-0.2782863974571228
13.480473756790161,0.23785001039505005,-0.26722362637519836,0.15964750945568085,0.6853207945823669,-0.04329747334122658,-0.28439003229141235
13.500572204589844,0.23823148012161255,-0.26836803555488586,0.15812161564826965,0.6876096725463867,-0.05207141116261482,-0.28515297174453735
13.520631313323975,0.23785001039505005,-0.27141985297203064,0.15850308537483215,0.6898985505104065,-0.056267641484737396,-0.28477150201797485
13.540706157684326,0.23746852576732635,-0.27103838324546814,0.16117341816425323,0.6898985505104065,-0.056267641484737396,-0.28515297174453735
13.56080937385559,0.23441672325134277,-0.27065691351890564,0.17032882571220398,0.690280020236969,-0.057793546468019485,-0.28591591119766235
13.580902338027954,0.23289081454277039,-0.27065691351890564,0.17299915850162506,0.691805899143219,-0.05436026677489281,-0.28858625888824463
13.601008653640747,0.23327229917049408,-0.27027541399002075,0.17299915850162506,0.691805899143219,-0.04329747334122658,-0.2912565767765045
13.621052742004395,0.23441672325134277,-0.26913100481033325,0.16994735598564148,0.6921873688697815,-0.042153049260377884,-0.2927824854850769
13.641117572784424,0.23327229917049408,-0.26836803555488586,0.16155488789081573,0.6940947771072388,-0.042153049260377884,-0.2954528033733368
13.661211252212524,0.2302204966545105,-0.26836803555488586,0.16002899408340454,0.7013428211212158,-0.04634927958250046,-0.29888609051704407
13.68131947517395,0.2298390120267868,-0.27065691351890564,0.16041046380996704,0.7055390477180481,-0.0555046908557415,-0.29850462079048157
13.701375007629395,0.2290760725736618,-0.27141985297203064,0.16193637251853943,0.7074463963508606,-0.06008239835500717,-0.29888609051704407
13.721479654312134,0.22793163359165192,-0.27103838324546814,0.1653696447610855,0.7074463963508606,-0.06389715522527695,-0.29888609051704407
13.741559982299805,0.2309834510087967,-0.27065691351890564,0.16880293190479279,0.7082093358039856,-0.06198977679014206,-0.29926756024360657
13.761665344238281,0.23289081454277039,-0.27027541399002075,0.17032882571220398,0.7078278660774231,-0.05245288833975792,-0.30155640840530396
13.781668901443481,0.23289081454277039,-0.27027541399002075,0.16956588625907898,0.7078278660774231,-0.04558632895350456,-0.30308231711387634
13.801939964294434,0.23289081454277039,-0.27027541399002075,0.1668955534696579,0.7082093358039856,-0.042153049260377884,-0.30384528636932373
13.822104215621948,0.2298390120267868,-0.27103838324546814,0.1672770231962204,0.7146944403648376,-0.040627144277095795,-0.3084229826927185
13.842155933380127,0.22755016386508942,-0.2740901708602905,0.16880293190479279,0.7207980751991272,-0.05207141116261482,-0.3122377395629883
13.86222529411316,0.2283131182193756,-0.2767605185508728,0.17071031033992767,0.725375771522522,-0.05436026677489281,-0.31376364827156067
13.8825204372406,0.23327229917049408,-0.2775234580039978,0.17528800666332245,0.728427529335022,-0.06084534898400307,-0.31452658772468567
13.90260934829712,0.23785001039505005,-0.2779049277305603,0.17605096101760864,0.7295719981193542,-0.059319447726011276,-0.31948578357696533
13.922688484191895,0.23823148012161255,-0.2775234580039978,0.17566949129104614,0.7307164072990417,-0.05245288833975792,-0.3213931620121002
13.942734479904175,0.23708705604076385,-0.2779049277305603,0.17261768877506256,0.7310978770256042,-0.04558632895350456,-0.3240634799003601
13.963029623031616,0.24090181291103363,-0.2798123061656952,0.17223620414733887,0.7413977384567261,-0.04444190114736557,-0.33169299364089966
13.983133316040039,0.23670557141304016,-0.28286412358283997,0.17528800666332245,0.7486457824707031,-0.04596780240535736,-0.3374151289463043
14.003202199935913,0.23632410168647766,-0.28782328963279724,0.17986571788787842,0.7551308274269104,-0.05245288833975792,-0.3419928252696991
14.023274183273315,0.23937590420246124,-0.2904936373233795,0.1848248988389969,0.7593270540237427,-0.0558861680328846,-0.34657052159309387
14.043383836746216,0.23975738883018494,-0.2912565767765045,0.1832990050315857,0.7597085237503052,-0.0558861680328846,-0.3526741564273834
14.063525199890137,0.23517967760562897,-0.28896772861480713,0.182154580950737,0.7600900530815125,-0.045204851776361465,-0.3591592311859131
14.083570003509521,0.23479819297790527,-0.28629741072654724,0.17910276353359222,0.76276034116745,-0.04940108209848404,-0.36488136649131775
14.103622674942017,0.23861294984817505,-0.28591591119766235,0.17376211285591125,0.7642862796783447,-0.04100862145423889,-0.3686961233615875
14.123716115951538,0.23594263195991516,-0.28591591119766235,0.16994735598564148,0.7661936283111572,-0.039101243019104004,-0.3732738196849823
14.143776178359985,0.23441672325134277,-0.28744181990623474,0.16956588625907898,0.7669565677642822,-0.04406042397022247,-0.3744182586669922
14.163848161697388,0.23441672325134277,-0.28820478916168213,0.17032882571220398,0.7681010365486145,-0.04940108209848404,-0.3744182586669922
