liuyurong129/humanoid-gym/humanoid/data/actual_q_20250522-040402.csv
timestamp,joint_1,joint_2,joint_3,joint_4,joint_5,joint_6
5.412101745605469e-05,0.00019073777366429567,0.1646067053079605,-0.08220797777175903,-0.00019073777366429567,0.00019073777366429567,-0.000572213320992887
0.02013421058654785,0.000572213320992887,0.14286258816719055,-0.07343403995037079,-0.00019073777366429567,-0.000572213320992887,-0.000572213320992887
0.04021406173706055,-0.00019073777366429567,0.12111848592758179,-0.06389715522527695,-0.00019073777366429567,0.0013351644156500697,-0.000572213320992887
0.06030440330505371,-0.00019073777366429567,0.10738536715507507,-0.058175019919872284,0.00019073777366429567,0.0009536888683214784,-0.000572213320992887
0.08038187026977539,-0.00019073777366429567,0.09632257372140884,-0.05092698708176613,0.00019073777366429567,0.00019073777366429567,-0.000572213320992887
0.10060405731201172,-0.00019073777366429567,0.0875486359000206,-0.045204851776361465,0.00019073777366429567,0.00019073777366429567,-0.000572213320992887
0.12069487571716309,0.000572213320992887,0.07419699430465698,-0.032616160809993744,0.00019073777366429567,-0.000572213320992887,-0.000572213320992887
0.1407945156097412,0.0013351644156500697,0.059319447726011276,-0.02231631986796856,0.000572213320992887,0.00019073777366429567,-0.0009536888683214784
0.16089177131652832,0.0024795911740511656,0.040627144277095795,-0.008201723918318748,0.000572213320992887,-0.00019073777366429567,-0.0009536888683214784
0.18099117279052734,0.002861066721379757,0.023460745811462402,0.005912871100008488,0.001716639962978661,-0.00019073777366429567,-0.0013351644156500697
0.20107173919677734,0.002861066721379757,0.006294346414506435,0.01926451548933983,0.002861066721379757,-0.0009536888683214784,-0.001716639962978661
0.22122430801391602,0.0024795911740511656,-0.014686808921396732,0.03643091395497322,0.004005493130534887,-0.0013351644156500697,-0.0024795911740511656
0.24134063720703125,0.0024795911740511656,-0.03452353551983833,0.050164032727479935,0.00476844422519207,-0.00019073777366429567,-0.002861066721379757
0.2613649368286133,0.0024795911740511656,-0.05245288833975792,0.06427863240242004,0.00667582219466567,-0.0009536888683214784,-0.0032425422687083483
0.2815513610839844,0.0024795911740511656,-0.06961929053068161,0.07991912961006165,0.0078202486038208,-0.0013351644156500697,-0.0032425422687083483
0.30155277252197266,0.002861066721379757,-0.08449683338403702,0.09250781685113907,0.00858320016413927,-0.0020981156267225742,-0.0032425422687083483
0.3216235637664795,0.0024795911740511656,-0.1028076633810997,0.10738536715507507,0.010872052982449532,-0.0024795911740511656,-0.0036240178160369396
0.3417644500732422,0.0024795911740511656,-0.12378881871700287,0.1203555315732956,0.012397955171763897,-0.004005493130534887,-0.0036240178160369396
0.3617839813232422,0.0024795911740511656,-0.14171816408634186,0.13218127191066742,0.014686808921396732,-0.004386968910694122,-0.004005493130534887
0.38187336921691895,0.0024795911740511656,-0.15735866129398346,0.14553292095661163,0.016212711110711098,-0.005149920005351305,-0.004386968910694122
0.40199923515319824,0.002861066721379757,-0.16956588625907898,0.15506981313228607,0.018120087683200836,-0.007438773289322853,-0.004386968910694122
0.4231722354888916,0.0020981156267225742,-0.18711376190185547,0.1676585078239441,0.01926451548933983,-0.0078202486038208,-0.005912871100008488
0.4433889389038086,0.0020981156267225742,-0.20695048570632935,0.1813916265964508,0.021553369238972664,-0.008201723918318748,-0.006294346414506435
0.4641151428222656,0.0024795911740511656,-0.2290760725736618,0.19130998849868774,0.023079270496964455,-0.008964675478637218,-0.00667582219466567
0.4841957092285156,0.0024795911740511656,-0.2466239482164383,0.20504310727119446,0.024986648932099342,-0.009346150793135166,-0.007057297509163618
0.5042681694030762,0.0024795911740511656,-0.2611200213432312,0.2141985148191452,0.026512550190091133,-0.010872052982449532,-0.00667582219466567
0.5255334377288818,0.0024795911740511656,-0.2779049277305603,0.22564278542995453,0.02689402550458908,-0.012779430486261845,-0.007057297509163618
0.5456283092498779,0.001716639962978661,-0.2977416515350342,0.23785001039505005,0.02841992862522602,-0.01430533267557621,-0.007057297509163618
0.5657486915588379,0.0013351644156500697,-0.31834134459495544,0.24891279637813568,0.02994582988321781,-0.01506828423589468,-0.007438773289322853
0.5858039855957031,0.0009536888683214784,-0.3416113555431366,0.2618829607963562,0.03147173300385475,-0.015449759550392628,-0.0078202486038208
0.6058564186096191,0.000572213320992887,-0.3576333224773407,0.2759975492954254,0.034142062067985535,-0.016212711110711098,-0.008201723918318748
0.6259353160858154,-0.000572213320992887,-0.3725108802318573,0.28820478916168213,0.03490501269698143,-0.016594186425209045,-0.00858320016413927
0.6462466716766357,-0.00019073777366429567,-0.3873884081840515,0.30193790793418884,0.03681239113211632,-0.01926451548933983,-0.009727626107633114
0.6663415431976318,-0.000572213320992887,-0.4018844962120056,0.31567102670669556,0.03795681521296501,-0.020027466118335724,-0.010490577667951584
0.6863982677459717,-0.000572213320992887,-0.4209582805633545,0.3290226459503174,0.0398641936480999,-0.02040894143283367,-0.01125352829694748
0.7065129280090332,-0.000572213320992887,-0.4350728690624237,0.344663143157959,0.04177157208323479,-0.021171892061829567,-0.011635004542768002
0.7265987396240234,-0.000572213320992887,-0.4491874575614929,0.3603036403656006,0.04444190114736557,-0.021553369238972664,-0.01201647985726595
0.7466981410980225,-0.000572213320992887,-0.4701686203479767,0.38090333342552185,0.046730753034353256,-0.021171892061829567,-0.013542382046580315
0.766772985458374,-0.0009536888683214784,-0.49267566204071045,0.39845120906829834,0.04940108209848404,-0.021171892061829567,-0.01430533267557621
0.7868084907531738,-0.000572213320992887,-0.5140383243560791,0.41638055443763733,0.05207141116261482,-0.021553369238972664,-0.01430533267557621
0.8069131374359131,-0.0013351644156500697,-0.5323491096496582,0.4369802474975586,0.05397878959774971,-0.023079270496964455,-0.014686808921396732
0.8269870281219482,-0.001716639962978661,-0.5472266674041748,0.4549095928668976,0.0558861680328846,-0.024605173617601395,-0.014686808921396732
0.8470766544342041,-0.0024795911740511656,-0.5651560425758362,0.47894254326820374,0.057793546468019485,-0.025749599561095238,-0.01506828423589468
0.8671576976776123,-0.002861066721379757,-0.5842298269271851,0.4968718886375427,0.06008239835500717,-0.02689402550458908,-0.01583123579621315
0.8872191905975342,-0.002861066721379757,-0.6036850810050964,0.5170900821685791,0.06198977679014206,-0.027656977996230125,-0.01583123579621315
0.907311201095581,-0.0036240178160369396,-0.622377336025238,0.5399786233901978,0.06427863240242004,-0.029182879254221916,-0.01735713705420494
0.927398681640625,-0.004386968910694122,-0.6410696506500244,0.5605783462524414,0.06694895774126053,-0.029182879254221916,-0.018501564860343933
0.9474771022796631,-0.005531395319849253,-0.6616693139076233,0.5849927663803101,0.06961929053068161,-0.02880140393972397,-0.01926451548933983
0.9675683975219727,-0.006294346414506435,-0.6815060377120972,0.6105515956878662,0.07305257022380829,-0.029182879254221916,-0.021171892061829567
0.9876291751861572,-0.007057297509163618,-0.7032501697540283,0.6357290148735046,0.07610437273979187,-0.03032730519771576,-0.022697795182466507
1.0079975128173828,-0.0078202486038208,-0.7307164072990417,0.6673914790153503,0.08030059933662415,-0.034142062067985535,-0.022697795182466507
1.028141975402832,-0.0078202486038208,-0.7532234787940979,0.697528064250946,0.08449683338403702,-0.034142062067985535,-0.023460745811462402
1.048170566558838,-0.0078202486038208,-0.7722972631454468,0.7230868935585022,0.0875486359000206,-0.03681239113211632,-0.024223696440458298
1.0683391094207764,-0.0078202486038208,-0.7948042750358582,0.7475013136863708,0.09174486994743347,-0.040627144277095795,-0.02536812424659729
1.0883700847625732,-0.0078202486038208,-0.8180742859840393,0.7749675512313843,0.09517814964056015,-0.04139009863138199,-0.026131074875593185
1.1084434986114502,-0.0078202486038208,-0.8432517051696777,0.7990005612373352,0.10051880776882172,-0.04100862145423889,-0.02727550081908703
1.1286280155181885,-0.008201723918318748,-0.8684290647506714,0.8279926776885986,0.10585946589708328,-0.042153049260377884,-0.029182879254221916
1.1486477851867676,-0.008201723918318748,-0.8916990756988525,0.8535515666007996,0.11005569249391556,-0.043678950518369675,-0.03032730519771576
1.1686854362487793,-0.00858320016413927,-0.9157320261001587,0.8806362748146057,0.11425192654132843,-0.04482337832450867,-0.032616160809993744
1.1887760162353516,-0.008964675478637218,-0.9424353241920471,0.9107728600502014,0.1199740618467331,-0.04634927958250046,-0.03337911143898964
1.2089118957519531,-0.009727626107633114,-0.970283031463623,0.9428167939186096,0.12645913660526276,-0.04749370738863945,-0.03452353551983833
1.2292180061340332,-0.009727626107633114,-1.0011825561523438,0.9763866662979126,0.13218127191066742,-0.048256658017635345,-0.03643091395497322
1.2493619918823242,-0.009727626107633114,-1.031700611114502,1.0122454166412354,0.13866636157035828,-0.05130846053361893,-0.03833829239010811
1.2694098949432373,-0.009727626107633114,-1.0618371963500977,1.0458152294158936,0.14744029939174652,-0.0551232174038887,-0.04139009863138199
1.2895853519439697,-0.009727626107633114,-1.0950255393981934,1.0828183889389038,0.15735866129398346,-0.05664911866188049,-0.04406042397022247
1.309617280960083,-0.009727626107633114,-1.123636245727539,1.115625262260437,0.16918440163135529,-0.061226826161146164,-0.04940108209848404
1.3298077583312988,-0.009727626107633114,-1.1476691961288452,1.1457618474960327,0.1825360506772995,-0.06466010212898254,-0.05436026677489281
1.3498475551605225,-0.009346150793135166,-1.1682689189910889,1.1743724346160889,0.1985580176115036,-0.0711451917886734,-0.06046387553215027
1.3699367046356201,-0.007057297509163618,-1.180094599723816,1.19611656665802,0.2153429538011551,-0.07991912961006165,-0.06542305648326874
1.3905513286590576,-0.004005493130534887,-1.183146357536316,1.2113755941390991,0.23289081454277039,-0.08869306743144989,-0.0707637146115303
1.4106640815734863,0.000572213320992887,-1.1774243116378784,1.2186236381530762,0.2500572204589844,-0.09479667246341705,-0.07877469807863235
1.4307193756103516,0.004386968910694122,-1.1640726327896118,1.2159533500671387,0.26951247453689575,-0.11005569249391556,-0.0883115902543068
1.4508976936340332,0.010109102353453636,-1.1415655612945557,1.2052719593048096,0.28706035017967224,-0.12417028844356537,-0.09784847497940063
1.4709110260009766,0.01430533267557621,-1.1182955503463745,1.188868522644043,0.3057526648044586,-0.12989242374897003,-0.10814831405878067
1.4909992218017578,0.01735713705420494,-1.0927367210388184,1.1686503887176514,0.31795987486839294,-0.13828489184379578,-0.12073700875043869
1.5110666751861572,0.02040894143283367,-1.0629816055297852,1.1396582126617432,0.3278782367706299,-0.14019227027893066,-0.13065537810325623
1.531123161315918,0.021171892061829567,-1.0343708992004395,1.1087586879730225,0.33588922023773193,-0.14476996660232544,-0.14095520973205566
1.5512559413909912,0.021171892061829567,-1.0053788423538208,1.0732814073562622,0.3416113555431366,-0.14782176911830902,-0.14820325374603271
1.5713832378387451,0.021171892061829567,-0.9794384837150574,1.035896897315979,0.34580758213996887,-0.15316243469715118,-0.15468832850456238
1.5914628505706787,0.02079041674733162,-0.9561684727668762,0.9981307983398438,0.35000380873680115,-0.15964750945568085,-0.16041046380996704
1.6115353107452393,0.020027466118335724,-0.9336614012718201,0.9546425342559814,0.35152971744537354,-0.1646067053079605,-0.1661325991153717
1.6316680908203125,0.018120087683200836,-0.9149690866470337,0.9122987985610962,0.3534370958805084,-0.17071031033992767,-0.17261768877506256
1.6517822742462158,0.018120087683200836,-0.9046692848205566,0.8752956390380859,0.3576333224773407,-0.17833982408046722,-0.17986571788787842
1.6718900203704834,0.018501564860343933,-0.8970397710800171,0.840962827205658,0.36297398805618286,-0.1848248988389969,-0.18825818598270416
1.6920504570007324,0.01926451548933983,-0.8955138325691223,0.8161669373512268,0.36564430594444275,-0.1848248988389969,-0.19436179101467133
1.7125728130340576,0.021171892061829567,-0.8958953022956848,0.7963302135467529,0.369840532541275,-0.18520638346672058,-0.1997024416923523
1.7326369285583496,0.023079270496964455,-0.8962767720222473,0.7803082466125488,0.3706035017967224,-0.1848248988389969,-0.20237277448177338
1.7527287006378174,0.024605173617601395,-0.8958953022956848,0.7753490209579468,0.3721294105052948,-0.1836804747581482,-0.20656901597976685
1.7729263305664062,0.02689402550458908,-0.8958953022956848,0.7738231420516968,0.3728923499584198,-0.1825360506772995,-0.20771344006061554
1.793013572692871,0.02880140393972397,-0.8958953022956848,0.7768749594688416,0.3728923499584198,-0.17757686972618103,-0.20885786414146423
1.813105583190918,0.03032730519771576,-0.8947508931159973,0.7795453071594238,0.3725108802318573,-0.17414358258247375,-0.21000228822231293
1.8332791328430176,0.03185320645570755,-0.8943694233894348,0.7848859429359436,0.3725108802318573,-0.17299915850162506,-0.21076524257659912
1.8534090518951416,0.03299763426184654,-0.8943694233894348,0.7879377603530884,0.3728923499584198,-0.17261768877506256,-0.21152819693088531
1.8734986782073975,0.03528648987412453,-0.8951323628425598,0.7951858043670654,0.3740367889404297,-0.17299915850162506,-0.2141985148191452
1.893538236618042,0.03795681521296501,-0.8970397710800171,0.8039597272872925,0.3751811981201172,-0.17452506721019745,-0.2153429538011551
1.913604497909546,0.040627144277095795,-0.8985656499862671,0.813115119934082,0.3774700462818146,-0.17528800666332245,-0.21763180196285248
1.9337704181671143,0.04482337832450867,-0.9019989371299744,0.8295185565948486,0.38204777240753174,-0.17681391537189484,-0.21992065012454987
1.9538426399230957,0.05092698708176613,-0.9092469811439514,0.8527885675430298,0.3900587558746338,-0.17948424816131592,-0.22411687672138214
1.9740021228790283,0.05283436179161072,-0.918402373790741,0.8699550032615662,0.4018844962120056,-0.16994735598564148,-0.23441672325134277
1.9940998554229736,0.05092698708176613,-0.9252689480781555,0.8798733353614807,0.41218432784080505,-0.1504921019077301,-0.248531311750412
2.0142624378204346,0.048256658017635345,-0.9302281141281128,0.8878843188285828,0.43049514293670654,-0.1493476778268814,-0.26874953508377075
2.0343093872070312,0.045204851776361465,-0.9370946884155273,0.8909361362457275,0.4518577754497528,-0.15392538905143738,-0.2798123061656952
2.0545105934143066,0.04482337832450867,-0.9447242021560669,0.8989471197128296,0.47512778639793396,-0.164988175034523,-0.2927824854850769
2.074969530105591,0.04444190114736557,-0.9554055333137512,0.9050507545471191,0.49114975333213806,-0.17414358258247375,-0.30460822582244873
2.095057249069214,0.04406042397022247,-0.962272047996521,0.9134432077407837,0.5079346895217896,-0.1832990050315857,-0.31643396615982056
2.115107774734497,0.04406042397022247,-0.9637979865074158,0.9195467829704285,0.5228122472763062,-0.19283588230609894,-0.32673379778862
2.1351966857910156,0.04558632895350456,-0.9626535177230835,0.9283207654953003,0.5331120491027832,-0.19474326074123383,-0.33627068996429443
2.1552677154541016,0.048256658017635345,-0.9596017599105835,0.9374761581420898,0.5407415628433228,-0.19169145822525024,-0.34580758213996887
2.1753573417663574,0.04901960864663124,-0.955024003982544,0.9390020370483398,0.5457007884979248,-0.1817730963230133,-0.3557259440422058
2.1954543590545654,0.04940108209848404,-0.953498125076294,0.9336614012718201,0.5510414242744446,-0.1653696447610855,-0.36755168437957764
2.215681552886963,0.048638131469488144,-0.9500648379325867,0.926413357257843,0.5605783462524414,-0.1520180106163025,-0.37899595499038696
2.236062526702881,0.046730753034353256,-0.9496833682060242,0.9206912517547607,0.572022557258606,-0.14858472347259521,-0.3889143168926239
2.256145715713501,0.045204851776361465,-0.952735185623169,0.9153505563735962,0.5857557058334351,-0.14858472347259521,-0.39730677008628845
2.2762086391448975,0.045204851776361465,-0.9576943516731262,0.9096284508705139,0.5952925682067871,-0.1501106321811676,-0.4068436622619629
2.2965633869171143,0.04444190114736557,-0.959220290184021,0.9081025123596191,0.6067368388175964,-0.15545128285884857,-0.41561761498451233
2.3167564868927,0.04291599988937378,-0.9584572911262512,0.9077210426330566,0.614366352558136,-0.15506981313228607,-0.4217212200164795
2.3367807865142822,0.04291599988937378,-0.9554055333137512,0.9088655114173889,0.6197070479393005,-0.1501106321811676,-0.42820629477500916
2.356858491897583,0.04291599988937378,-0.951209306716919,0.9107728600502014,0.6235218048095703,-0.14095520973205566,-0.4350728690624237
2.376950979232788,0.04291599988937378,-0.9473945498466492,0.9111543297767639,0.6277180314064026,-0.12722209095954895,-0.44193941354751587
2.3972461223602295,0.040627144277095795,-0.9454871416091919,0.9058136940002441,0.6330586671829224,-0.10967422276735306,-0.4495689272880554
2.4173038005828857,0.03757534176111221,-0.9454871416091919,0.8993285894393921,0.6406881809234619,-0.09136339277029037,-0.45834288001060486
2.4374003410339355,0.03528648987412453,-0.9454871416091919,0.8936064839363098,0.6509880423545837,-0.08297093212604523,-0.4663538634777069
2.4575161933898926,0.03337911143898964,-0.9477760195732117,0.889028787612915,0.6605249047279358,-0.08373387902975082,-0.4724574685096741
2.477656364440918,0.03185320645570755,-0.9493018984794617,0.8863584399223328,0.6692988276481628,-0.08907453715801239,-0.4797055125236511
2.497684955596924,0.030708782374858856,-0.9515907764434814,0.884069561958313,0.6784542798995972,-0.0883115902543068,-0.4842832088470459
2.517758369445801,0.027656977996230125,-0.9515907764434814,0.8848325610160828,0.6853207945823669,-0.08297093212604523,-0.4880979657173157
2.5378258228302,0.026131074875593185,-0.9493018984794617,0.8852140307426453,0.6914244294166565,-0.07610437273979187,-0.49382010102272034
2.5583107471466064,0.024605173617601395,-0.9470130205154419,0.8855955004692078,0.698291003704071,-0.06542305648326874,-0.499542236328125
2.578420639038086,0.02384222112596035,-0.9462500810623169,0.884069561958313,0.7047760486602783,-0.050164032727479935,-0.5048828721046448
2.598522901535034,0.023460745811462402,-0.9462500810623169,0.8806362748146057,0.7127870321273804,-0.03757534176111221,-0.5102235674858093
2.6186392307281494,0.021553369238972664,-0.9470130205154419,0.8775845170021057,0.7204165458679199,-0.02689402550458908,-0.5151827335357666
2.6387224197387695,0.018501564860343933,-0.9489204287528992,0.8737697601318359,0.7291905283927917,-0.021553369238972664,-0.5228122472763062
2.658799409866333,0.01506828423589468,-0.9515907764434814,0.8707179427146912,0.7375829815864563,-0.01773861236870289,-0.5277714133262634
2.678891897201538,0.013542382046580315,-0.9538795948028564,0.8699550032615662,0.7444495558738708,-0.014686808921396732,-0.5319676399230957
2.6989829540252686,0.011635004542768002,-0.9561684727668762,0.8699550032615662,0.7520790696144104,-0.015449759550392628,-0.5342565178871155
2.719057083129883,0.008964675478637218,-0.9561684727668762,0.8707179427146912,0.7585641145706177,-0.013542382046580315,-0.536926805973053
2.7391796112060547,0.0078202486038208,-0.9557870030403137,0.8726252913475037,0.7658121585845947,-0.007057297509163618,-0.5395971536636353
2.7592580318450928,0.00667582219466567,-0.9557870030403137,0.8733882904052734,0.7719157934188843,0.001716639962978661,-0.543411910533905
2.7796151638031006,0.00667582219466567,-0.9557870030403137,0.8737697601318359,0.7784008383750916,0.01583123579621315,-0.5476081371307373
2.799762010574341,0.00667582219466567,-0.9569314122200012,0.8722438216209412,0.7848859429359436,0.02727550081908703,-0.5510414242744446
2.819821357727051,0.004386968910694122,-0.9584572911262512,0.8703364729881287,0.7902265787124634,0.03604944050312042,-0.5552376508712769
2.83992862701416,0.0013351644156500697,-0.9603646993637085,0.8688105344772339,0.7959487438201904,0.04253452271223068,-0.5586709380149841
2.85998797416687,-0.0013351644156500697,-0.9634165167808533,0.8676661252975464,0.8009079098701477,0.04558632895350456,-0.5613412857055664
2.8804333209991455,-0.004005493130534887,-0.9660868048667908,0.8669031858444214,0.8077744841575623,0.04596780240535736,-0.5636301040649414
2.9006080627441406,-0.007438773289322853,-0.967994213104248,0.8669031858444214,0.8150225281715393,0.04940108209848404,-0.5655375123023987
2.9206767082214355,-0.009346150793135166,-0.9710460305213928,0.8672846555709839,0.8211261034011841,0.05207141116261482,-0.5670633912086487
2.9407236576080322,-0.010109102353453636,-0.9714275002479553,0.8684290647506714,0.8276112079620361,0.056267641484737396,-0.568970799446106
2.9608616828918457,-0.009727626107633114,-0.9721904397010803,0.8691920638084412,0.8329518437385559,0.06160829961299896,-0.571259617805481
2.9808874130249023,-0.009727626107633114,-0.9729533791542053,0.8695735335350037,0.8375295400619507,0.06847485899925232,-0.5739299654960632
3.00095272064209,-0.009727626107633114,-0.9740977883338928,0.8703364729881287,0.8421072959899902,0.08144503086805344,-0.576218843460083
3.021066188812256,-0.009727626107633114,-0.9760051965713501,0.8703364729881287,0.846684992313385,0.09212634712457657,-0.578507661819458
3.0413835048675537,-0.01201647985726595,-0.9779125452041626,0.8707179427146912,0.8512626886367798,0.09937438368797302,-0.5815594792366028
3.061570405960083,-0.01506828423589468,-0.9809643626213074,0.8707179427146912,0.8573662638664246,0.10471503436565399,-0.5846112966537476
3.081590175628662,-0.01773861236870289,-0.9843976497650146,0.8707179427146912,0.8627069592475891,0.10891126841306686,-0.5853742361068726
3.1019062995910645,-0.02040894143283367,-0.9874494671821594,0.8714808821678162,0.8684290647506714,0.10776684433221817,-0.5853742361068726
3.1219847202301025,-0.023079270496964455,-0.9897382855415344,0.8730067610740662,0.8733882904052734,0.10776684433221817,-0.5869001150131226
3.1420624256134033,-0.024605173617601395,-0.9927901029586792,0.8745326995849609,0.8791103959083557,0.10967422276735306,-0.5880445837974548
3.1621344089508057,-0.02384222112596035,-0.9935530424118042,0.8764400482177734,0.884069561958313,0.11501488089561462,-0.5888075232505798
3.182218313217163,-0.024223696440458298,-0.994316041469574,0.8779659867286682,0.8882657885551453,0.12264438718557358,-0.5895704627037048
3.202324628829956,-0.024223696440458298,-0.995078980922699,0.8791103959083557,0.8916990756988525,0.13218127191066742,-0.5907148718833923
3.2224459648132324,-0.024223696440458298,-0.996604859828949,0.8794918656349182,0.8947508931159973,0.14209964871406555,-0.5918593406677246
3.2425379753112793,-0.024986648932099342,-0.9988937377929688,0.8794918656349182,0.8985656499862671,0.1497291475534439,-0.5926222801208496
3.262624979019165,-0.027656977996230125,-1.0008010864257812,0.8794918656349182,0.9016174674034119,0.1527809500694275,-0.5933852195739746
3.282687187194824,-0.029564354568719864,-1.0030899047851562,0.8791103959083557,0.9054322242736816,0.152399480342865,-0.5952925682067871
3.303006172180176,-0.03185320645570755,-1.0065232515335083,0.8791103959083557,0.9103913903236389,0.1516365259885788,-0.5952925682067871
3.3231115341186523,-0.03452353551983833,-1.0076676607131958,0.8798733353614807,0.9149690866470337,0.1504921019077301,-0.5956740379333496
3.343536138534546,-0.03604944050312042,-1.0091935396194458,0.8806362748146057,0.9180209040641785,0.1504921019077301,-0.5952925682067871
3.3636279106140137,-0.03528648987412453,-1.0095750093460083,0.8821622133255005,0.9218356609344482,0.15392538905143738,-0.5956740379333496
3.3837039470672607,-0.03452353551983833,-1.0103379487991333,0.8836880922317505,0.9252689480781555,0.16079194843769073,-0.5956740379333496
3.4037790298461914,-0.03452353551983833,-1.0107194185256958,0.8848325610160828,0.9279392957687378,0.16880293190479279,-0.5971999764442444
3.4239344596862793,-0.03452353551983833,-1.0118639469146729,0.8852140307426453,0.9298466444015503,0.17986571788787842,-0.5983443856239319
3.443985939025879,-0.03452353551983833,-1.0137712955474854,0.8852140307426453,0.9325169920921326,0.18711376190185547,-0.5987258553504944
3.4641594886779785,-0.03604944050312042,-1.0156786441802979,0.8855955004692078,0.9355688095092773,0.19054703414440155,-0.5991073250770569
3.484405279159546,-0.03795681521296501,-1.0183489322662354,0.8855955004692078,0.9382390975952148,0.19016556441783905,-0.5991073250770569
3.504375457763672,-0.040245670825242996,-1.0210193395614624,0.8859769701957703,0.9416723847389221,0.18940261006355286,-0.5991073250770569
3.524460792541504,-0.042153049260377884,-1.0225452184677124,0.8871213793754578,0.9454871416091919,0.18787670135498047,-0.5987258553504944
3.544551134109497,-0.043678950518369675,-1.0240710973739624,0.889028787612915,0.9489204287528992,0.18749523162841797,-0.5987258553504944
3.564972162246704,-0.043678950518369675,-1.0248340368270874,0.8901731967926025,0.952735185623169,0.18978407979011536,-0.5987258553504944
3.5850822925567627,-0.04291599988937378,-1.0248340368270874,0.8916990756988525,0.955024003982544,0.19512474536895752,-0.5987258553504944
3.605189561843872,-0.04291599988937378,-1.02521550655365,0.892080545425415,0.9573128819465637,0.20428015291690826,-0.5991073250770569
3.626093626022339,-0.04291599988937378,-1.025978446006775,0.8924620151519775,0.9584572911262512,0.2134355753660202,-0.5991073250770569
3.646190881729126,-0.04291599988937378,-1.0275044441223145,0.8924620151519775,0.9603646993637085,0.21725031733512878,-0.5991073250770569
3.6662728786468506,-0.04329747334122658,-1.029411792755127,0.8924620151519775,0.9618905782699585,0.21915769577026367,-0.5991073250770569
3.6863479614257812,-0.04444190114736557,-1.031700611114502,0.8924620151519775,0.9634165167808533,0.21915769577026367,-0.5991073250770569
3.706533908843994,-0.04634927958250046,-1.0336079597473145,0.8932250142097473,0.9668498039245605,0.21686884760856628,-0.5987258553504944
3.7265868186950684,-0.04787518084049225,-1.035896897315979,0.8947508931159973,0.968757152557373,0.2145799994468689,-0.5987258553504944
3.746687412261963,-0.04940108209848404,-1.0362783670425415,0.8958953022956848,0.9710460305213928,0.2145799994468689,-0.5987258553504944
3.766763925552368,-0.050164032727479935,-1.036659836769104,0.8970397710800171,0.9733348488807678,0.21801327168941498,-0.5983443856239319
3.786869764328003,-0.049782559275627136,-1.036659836769104,0.8978027105331421,0.9763866662979126,0.22259098291397095,-0.5983443856239319
3.806990623474121,-0.04940108209848404,-1.036659836769104,0.8981841802597046,0.9771496057510376,0.2309834510087967,-0.5987258553504944
3.8271384239196777,-0.04940108209848404,-1.0370413064956665,0.8981841802597046,0.9775310754776001,0.23746852576732635,-0.5987258553504944
3.8472788333892822,-0.04901960864663124,-1.0378042459487915,0.8981841802597046,0.9775310754776001,0.2439536154270172,-0.5987258553504944
3.867445468902588,-0.04940108209848404,-1.0393301248550415,0.8978027105331421,0.9786755442619324,0.2462424635887146,-0.5987258553504944
3.88753342628479,-0.05092698708176613,-1.040474534034729,0.8974212408065796,0.9802014231681824,0.2466239482164383,-0.5987258553504944
3.907602310180664,-0.051689937710762024,-1.0423818826675415,0.8970397710800171,0.9813458323478699,0.2443350851535797,-0.5987258553504944
3.9276881217956543,-0.05283436179161072,-1.0442893505096436,0.8970397710800171,0.9847791194915771,0.24166475236415863,-0.5979629158973694
3.9477598667144775,-0.0551232174038887,-1.0450522899627686,0.8974212408065796,0.9859235286712646,0.23975738883018494,-0.5975814461708069
3.968125820159912,-0.0558861680328846,-1.045433759689331,0.8978027105331421,0.9878309369087219,0.23899443447589874,-0.5975814461708069
3.988234281539917,-0.054741740226745605,-1.045433759689331,0.8989471197128296,0.9897382855415344,0.24204623699188232,-0.5971999764442444
4.008303642272949,-0.05359731614589691,-1.045433759689331,0.8997100591659546,0.9908827543258667,0.2462424635887146,-0.5964370369911194
4.028379440307617,-0.053215838968753815,-1.045433759689331,0.9004730582237244,0.9912642240524292,0.25234606862068176,-0.5960555672645569
4.0485639572143555,-0.05283436179161072,-1.045433759689331,0.9012359976768494,0.9912642240524292,0.2592126429080963,-0.5960555672645569
4.068580865859985,-0.051689937710762024,-1.0465781688690186,0.9012359976768494,0.9912642240524292,0.2615014910697937,-0.5960555672645569
4.088699817657471,-0.05245288833975792,-1.047722578048706,0.9012359976768494,0.9916456937789917,0.2630273997783661,-0.5956740379333496
4.108835697174072,-0.054741740226745605,-1.0488669872283936,0.9008545279502869,0.9920271635055542,0.2622644305229187,-0.5952925682067871
4.129018783569336,-0.05664911866188049,-1.050774335861206,0.9004730582237244,0.9931715726852417,0.2595941126346588,-0.5945296287536621
4.149168252944946,-0.05855649709701538,-1.051918864250183,0.9000915288925171,0.9954604506492615,0.2573052644729614,-0.5937666893005371
4.169199228286743,-0.05893797054886818,-1.052681803703308,0.9004730582237244,0.9969863295555115,0.25425344705581665,-0.5922408103942871
4.189567565917969,-0.05893797054886818,-1.0538262128829956,0.9008545279502869,0.9992752075195312,0.25272753834724426,-0.5903334021568298
4.209656476974487,-0.05741206929087639,-1.053444743156433,0.9027618765830994,0.9996566772460938,0.25463491678237915,-0.5907148718833923
4.229721784591675,-0.056267641484737396,-1.0538262128829956,0.9042877554893494,1.0004196166992188,0.2584496736526489,-0.5903334021568298
4.2498619556427,-0.0551232174038887,-1.0538262128829956,0.9058136940002441,1.0004196166992188,0.2637903392314911,-0.5907148718833923
4.26997709274292,-0.051689937710762024,-1.0538262128829956,0.9069581031799316,1.0008010864257812,0.26798656582832336,-0.5907148718833923
4.290101051330566,-0.051689937710762024,-1.0538262128829956,0.9081025123596191,1.0019454956054688,0.27103838324546814,-0.5907148718833923
4.310139179229736,-0.05359731614589691,-1.054207682609558,0.9084840416908264,1.0015640258789062,0.2740901708602905,-0.5910963416099548
4.330289840698242,-0.0558861680328846,-1.054970622062683,0.9077210426330566,1.0015640258789062,0.273708701133728,-0.5907148718833923
4.350434303283691,-0.05855649709701538,-1.055733561515808,0.9065766334533691,1.0019454956054688,0.27141985297203064,-0.5907148718833923
4.370595932006836,-0.061226826161146164,-1.0568779706954956,0.9054322242736816,1.0030899047851562,0.26836803555488586,-0.5903334021568298
4.3906168937683105,-0.06313420087099075,-1.0576409101486206,0.9054322242736816,1.0046159029006958,0.2641718089580536,-0.5895704627037048
4.410714149475098,-0.06351567804813385,-1.0584038496017456,0.9054322242736816,1.0061417818069458,0.2599755823612213,-0.5888075232505798
4.430871963500977,-0.06046387553215027,-1.058022379875183,0.9058136940002441,1.0065232515335083,0.2595941126346588,-0.5876630544662476
4.450892686843872,-0.058175019919872284,-1.0576409101486206,0.9069581031799316,1.0069047212600708,0.2626459002494812,-0.5865186452865601
4.470979928970337,-0.056267641484737396,-1.0576409101486206,0.9084840416908264,1.0069047212600708,0.26989394426345825,-0.5865186452865601
4.491125583648682,-0.05436026677489281,-1.0568779706954956,0.9092469811439514,1.0069047212600708,0.2767605185508728,-0.5872815847396851
4.511224746704102,-0.053215838968753815,-1.056496500968933,0.9096284508705139,1.0065232515335083,0.2809567451477051,-0.5876630544662476
4.531273603439331,-0.0555046908557415,-1.056496500968933,0.9096284508705139,1.0065232515335083,0.28439003229141235,-0.5876630544662476
4.551397085189819,-0.05741206929087639,-1.057259440422058,0.9092469811439514,1.0065232515335083,0.28362706303596497,-0.5872815847396851
4.571668863296509,-0.05893797054886818,-1.058022379875183,0.9077210426330566,1.0065232515335083,0.2809567451477051,-0.5872815847396851
4.591775417327881,-0.06160829961299896,-1.0587854385375977,0.9061951637268066,1.0072861909866333,0.2752346098423004,-0.5865186452865601
4.61188817024231,-0.06389715522527695,-1.0591669082641602,0.9054322242736816,1.0076676607131958,0.27103838324546814,-0.5865186452865601
4.631950855255127,-0.06313420087099075,-1.0591669082641602,0.9054322242736816,1.0080491304397583,0.2645532786846161,-0.5857557058334351
4.652129173278809,-0.06160829961299896,-1.0587854385375977,0.9058136940002441,1.0095750093460083,0.2660791873931885,-0.5838482975959778
4.6724584102630615,-0.06008239835500717,-1.0587854385375977,0.9065766334533691,1.0103379487991333,0.26989394426345825,-0.5834668278694153
4.692615270614624,-0.05893797054886818,-1.0584038496017456,0.9077210426330566,1.0103379487991333,0.2801937758922577,-0.5834668278694153
4.712714195251465,-0.057793546468019485,-1.0584038496017456,0.9084840416908264,1.0099564790725708,0.28667888045310974,-0.5838482975959778
4.733060598373413,-0.05703059583902359,-1.0587854385375977,0.9084840416908264,1.0095750093460083,0.28934919834136963,-0.5838482975959778
4.753129243850708,-0.057793546468019485,-1.0591669082641602,0.9084840416908264,1.0095750093460083,0.28782328963279724,-0.5834668278694153
4.77316427230835,-0.05893797054886818,-1.0606927871704102,0.9081025123596191,1.0095750093460083,0.28591591119766235,-0.5834668278694153
4.79325008392334,-0.06008239835500717,-1.0614557266235352,0.9077210426330566,1.0099564790725708,0.2809567451477051,-0.5834668278694153
4.813347101211548,-0.061226826161146164,-1.0622186660766602,0.9077210426330566,1.0099564790725708,0.2744716703891754,-0.5830853581428528
4.834354639053345,-0.06275273114442825,-1.0622186660766602,0.9077210426330566,1.0103379487991333,0.27180132269859314,-0.5827038884162903
4.854478359222412,-0.06198977679014206,-1.0618371963500977,0.9084840416908264,1.0107194185256958,0.27218279242515564,-0.5823224186897278
4.87455415725708,-0.06084534898400307,-1.0614557266235352,0.9092469811439514,1.0111008882522583,0.2748531401157379,-0.5819409489631653
4.894647121429443,-0.05970092490315437,-1.0606927871704102,0.9100099205970764,1.0111008882522583,0.2801937758922577,-0.5819409489631653
4.91473388671875,-0.05855649709701538,-1.0599298477172852,0.9103913903236389,1.0107194185256958,0.28591591119766235,-0.5823224186897278
4.934797763824463,-0.057793546468019485,-1.0603113174438477,0.9100099205970764,1.0107194185256958,0.28973066806793213,-0.5823224186897278
4.954897403717041,-0.05855649709701538,-1.0603113174438477,0.9096284508705139,1.0103379487991333,0.290875107049942,-0.5827038884162903
4.974970817565918,-0.06008239835500717,-1.0614557266235352,0.9092469811439514,1.0103379487991333,0.28820478916168213,-0.5823224186897278
4.995152950286865,-0.06237125024199486,-1.0626001358032227,0.9084840416908264,1.0103379487991333,0.28477150201797485,-0.5823224186897278
5.0153398513793945,-0.06504157930612564,-1.0637445449829102,0.9077210426330566,1.0107194185256958,0.2782863974571228,-0.5819409489631653
5.03538703918457,-0.06618601083755493,-1.0641260147094727,0.9073395729064941,1.0107194185256958,0.2725642919540405,-0.5815594792366028
5.055509328842163,-0.06580453366041183,-1.0641260147094727,0.9073395729064941,1.0118639469146729,0.26798656582832336,-0.5807965397834778
5.0755980014801025,-0.06275273114442825,-1.0637445449829102,0.9084840416908264,1.0130083560943604,0.26798656582832336,-0.5796520709991455
5.095653057098389,-0.06008239835500717,-1.0629816055297852,0.9092469811439514,1.0133898258209229,0.27027541399002075,-0.579270601272583
5.115740776062012,-0.05855649709701538,-1.0622186660766602,0.9107728600502014,1.0130083560943604,0.2767605185508728,-0.579270601272583
5.135817527770996,-0.05664911866188049,-1.0618371963500977,0.9115357995033264,1.0126268863677979,0.28515297174453735,-0.5796520709991455
5.155993938446045,-0.05359731614589691,-1.0618371963500977,0.9122987985610962,1.0126268863677979,0.2904936373233795,-0.5796520709991455
5.176095962524414,-0.056267641484737396,-1.0618371963500977,0.9126802682876587,1.0118639469146729,0.2935454249382019,-0.5796520709991455
5.196139812469482,-0.058175019919872284,-1.0622186660766602,0.9122987985610962,1.0114823579788208,0.291638046503067,-0.5796520709991455
5.216231822967529,-0.05970092490315437,-1.0629816055297852,0.9115357995033264,1.0114823579788208,0.28744181990623474,-0.5796520709991455
5.236308336257935,-0.061226826161146164,-1.0633630752563477,0.9111543297767639,1.0118639469146729,0.2809567451477051,-0.579270601272583
5.256516456604004,-0.06313420087099075,-1.0633630752563477,0.9103913903236389,1.0126268863677979,0.2771419882774353,-0.5788891315460205
5.276603937149048,-0.06351567804813385,-1.0633630752563477,0.9100099205970764,1.0126268863677979,0.2756160795688629,-0.577744722366333
5.296742677688599,-0.06198977679014206,-1.0629816055297852,0.9100099205970764,1.0126268863677979,0.2767605185508728,-0.5766003131866455
5.316840648651123,-0.06046387553215027,-1.0626001358032227,0.9103913903236389,1.0126268863677979,0.2817196846008301,-0.5758373141288757
5.336904048919678,-0.059319447726011276,-1.0622186660766602,0.9107728600502014,1.0122454166412354,0.28744181990623474,-0.576218843460083
5.357023477554321,-0.058175019919872284,-1.0622186660766602,0.9107728600502014,1.0118639469146729,0.290875107049942,-0.576218843460083
5.377073287963867,-0.05664911866188049,-1.0622186660766602,0.9107728600502014,1.0111008882522583,0.2924010157585144,-0.5766003131866455
5.397140264511108,-0.05703059583902359,-1.0629816055297852,0.9107728600502014,1.0107194185256958,0.291638046503067,-0.576218843460083
5.417232036590576,-0.05855649709701538,-1.0633630752563477,0.9107728600502014,1.0103379487991333,0.28934919834136963,-0.5766003131866455
5.437290668487549,-0.059319447726011276,-1.0637445449829102,0.9107728600502014,1.0107194185256958,0.28591591119766235,-0.576218843460083
5.457377195358276,-0.061226826161146164,-1.0641260147094727,0.9107728600502014,1.0107194185256958,0.28286412358283997,-0.576218843460083
5.477452278137207,-0.06313420087099075,-1.0641260147094727,0.9107728600502014,1.0111008882522583,0.2809567451477051,-0.576218843460083
5.497523069381714,-0.06275273114442825,-1.0641260147094727,0.9107728600502014,1.0111008882522583,0.2805752754211426,-0.576218843460083
5.517613887786865,-0.06198977679014206,-1.0641260147094727,0.9115357995033264,1.0114823579788208,0.2813382148742676,-0.5758373141288757
5.537670135498047,-0.061226826161146164,-1.0641260147094727,0.9115357995033264,1.0111008882522583,0.28248265385627747,-0.5758373141288757
5.557758092880249,-0.06046387553215027,-1.0641260147094727,0.9119172692298889,1.0111008882522583,0.28515297174453735,-0.576218843460083
5.577864646911621,-0.06008239835500717,-1.0641260147094727,0.9119172692298889,1.0107194185256958,0.28782328963279724,-0.576218843460083
5.5979108810424805,-0.05855649709701538,-1.0641260147094727,0.9119172692298889,1.0111008882522583,0.28706035017967224,-0.576218843460083
5.618039846420288,-0.05855649709701538,-1.0641260147094727,0.9119172692298889,1.0111008882522583,0.28629741072654724,-0.5758373141288757
5.638087272644043,-0.05855649709701538,-1.0641260147094727,0.9119172692298889,1.0111008882522583,0.28362706303596497,-0.5758373141288757
5.658330917358398,-0.05855649709701538,-1.0641260147094727,0.9119172692298889,1.0111008882522583,0.2801937758922577,-0.5758373141288757
5.67842435836792,-0.05893797054886818,-1.0641260147094727,0.9119172692298889,1.0114823579788208,0.2801937758922577,-0.5758373141288757
5.6985764503479,-0.05893797054886818,-1.0641260147094727,0.9119172692298889,1.0111008882522583,0.2805752754211426,-0.5758373141288757
5.718597888946533,-0.05893797054886818,-1.0641260147094727,0.9119172692298889,1.0111008882522583,0.2809567451477051,-0.5758373141288757
5.7386839389801025,-0.05893797054886818,-1.0641260147094727,0.9122987985610962,1.0111008882522583,0.28248265385627747,-0.5758373141288757
5.758859634399414,-0.05893797054886818,-1.0641260147094727,0.9122987985610962,1.0111008882522583,0.28248265385627747,-0.5758373141288757
5.778889417648315,-0.059319447726011276,-1.0641260147094727,0.9122987985610962,1.0111008882522583,0.2821011543273926,-0.5758373141288757
5.7989630699157715,-0.05970092490315437,-1.0641260147094727,0.9122987985610962,1.0111008882522583,0.2817196846008301,-0.5758373141288757
5.8190693855285645,-0.05970092490315437,-1.0641260147094727,0.9122987985610962,1.0111008882522583,0.2809567451477051,-0.5754558444023132
5.839110612869263,-0.05970092490315437,-1.0641260147094727,0.9122987985610962,1.0111008882522583,0.2813382148742676,-0.5754558444023132
5.85919713973999,-0.06008239835500717,-1.0641260147094727,0.9122987985610962,1.0111008882522583,0.2813382148742676,-0.5754558444023132
5.879472017288208,-0.05970092490315437,-1.0641260147094727,0.9122987985610962,1.0111008882522583,0.2821011543273926,-0.5754558444023132
5.8994433879852295,-0.05970092490315437,-1.0641260147094727,0.9122987985610962,1.0111008882522583,0.2821011543273926,-0.5754558444023132
5.919662952423096,-0.05970092490315437,-1.0641260147094727,0.9122987985610962,1.0111008882522583,0.28248265385627747,-0.5754558444023132
5.939709186553955,-0.05970092490315437,-1.0641260147094727,0.9122987985610962,1.0111008882522583,0.28248265385627747,-0.5754558444023132
5.95993447303772,-0.05970092490315437,-1.0641260147094727,0.9122987985610962,1.0111008882522583,0.28248265385627747,-0.5754558444023132
5.9800286293029785,-0.05970092490315437,-1.0641260147094727,0.9122987985610962,1.0111008882522583,0.2821011543273926,-0.5750743746757507
6.000131845474243,-0.05970092490315437,-1.0641260147094727,0.9122987985610962,1.0111008882522583,0.2821011543273926,-0.5750743746757507
6.020265340805054,-0.05970092490315437,-1.0641260147094727,0.9122987985610962,1.0111008882522583,0.2821011543273926,-0.5750743746757507
6.040371656417847,-0.05970092490315437,-1.0641260147094727,0.9119172692298889,1.0111008882522583,0.28248265385627747,-0.5750743746757507
6.060391426086426,-0.05970092490315437,-1.0641260147094727,0.9119172692298889,1.0111008882522583,0.28248265385627747,-0.5750743746757507
6.080541372299194,-0.05970092490315437,-1.0641260147094727,0.9119172692298889,1.0111008882522583,0.28286412358283997,-0.5750743746757507
6.100579261779785,-0.05970092490315437,-1.0641260147094727,0.9119172692298889,1.0111008882522583,0.28286412358283997,-0.5750743746757507
6.120685338973999,-0.05970092490315437,-1.0641260147094727,0.9119172692298889,1.0111008882522583,0.28248265385627747,-0.5750743746757507
6.140791177749634,-0.05970092490315437,-1.0641260147094727,0.9119172692298889,1.0111008882522583,0.2821011543273926,-0.5746929049491882
6.1608405113220215,-0.05970092490315437,-1.0641260147094727,0.9119172692298889,1.0111008882522583,0.2821011543273926,-0.5746929049491882
6.1809985637664795,-0.05970092490315437,-1.0641260147094727,0.9119172692298889,1.0111008882522583,0.28248265385627747,-0.5746929049491882
6.2011096477508545,-0.05970092490315437,-1.0641260147094727,0.9119172692298889,1.0111008882522583,0.28248265385627747,-0.5746929049491882
6.221432209014893,-0.05970092490315437,-1.0641260147094727,0.9122987985610962,1.0111008882522583,0.28286412358283997,-0.5746929049491882
6.241545915603638,-0.05970092490315437,-1.0641260147094727,0.9122987985610962,1.0111008882522583,0.28286412358283997,-0.5746929049491882
6.261671781539917,-0.05970092490315437,-1.0641260147094727,0.9122987985610962,1.0111008882522583,0.28286412358283997,-0.5746929049491882
6.281789064407349,-0.05970092490315437,-1.0641260147094727,0.9122987985610962,1.0114823579788208,0.28286412358283997,-0.5743114352226257
6.301969766616821,-0.05970092490315437,-1.0641260147094727,0.9122987985610962,1.0114823579788208,0.28248265385627747,-0.5739299654960632
6.3219382762908936,-0.05970092490315437,-1.0641260147094727,0.9122987985610962,1.0111008882522583,0.28248265385627747,-0.5739299654960632
6.3420729637146,-0.05970092490315437,-1.0641260147094727,0.9122987985610962,1.0111008882522583,0.28248265385627747,-0.5739299654960632
6.36215615272522,-0.05970092490315437,-1.0641260147094727,0.9122987985610962,1.0111008882522583,0.28286412358283997,-0.5735484957695007
6.3822009563446045,-0.05970092490315437,-1.0641260147094727,0.9122987985610962,1.0111008882522583,0.28286412358283997,-0.5739299654960632
6.402290344238281,-0.05970092490315437,-1.0641260147094727,0.9122987985610962,1.0111008882522583,0.28286412358283997,-0.5735484957695007
6.422496318817139,-0.05970092490315437,-1.0641260147094727,0.9122987985610962,1.0111008882522583,0.28248265385627747,-0.5735484957695007
6.442551612854004,-0.05970092490315437,-1.0641260147094727,0.9122987985610962,1.0111008882522583,0.28248265385627747,-0.5735484957695007
6.462630033493042,-0.05970092490315437,-1.0641260147094727,0.9122987985610962,1.0111008882522583,0.28248265385627747,-0.5735484957695007
6.4826812744140625,-0.05970092490315437,-1.0641260147094727,0.9122987985610962,1.0111008882522583,0.28248265385627747,-0.5735484957695007
6.50275993347168,-0.05970092490315437,-1.0641260147094727,0.9126802682876587,1.0111008882522583,0.28248265385627747,-0.5735484957695007
6.522844314575195,-0.05970092490315437,-1.0641260147094727,0.9126802682876587,1.0111008882522583,0.28248265385627747,-0.5735484957695007
6.543006658554077,-0.05970092490315437,-1.0641260147094727,0.9126802682876587,1.0111008882522583,0.28248265385627747,-0.5735484957695007
6.563152074813843,-0.05970092490315437,-1.0641260147094727,0.9126802682876587,1.0111008882522583,0.28248265385627747,-0.5735484957695007
6.583262920379639,-0.05970092490315437,-1.0641260147094727,0.9126802682876587,1.0111008882522583,0.2821011543273926,-0.5735484957695007
6.603335857391357,-0.05970092490315437,-1.0641260147094727,0.9126802682876587,1.0111008882522583,0.2821011543273926,-0.5735484957695007
6.623408555984497,-0.05970092490315437,-1.0641260147094727,0.9126802682876587,1.0111008882522583,0.2821011543273926,-0.5735484957695007
6.64349365234375,-0.05970092490315437,-1.0641260147094727,0.9126802682876587,1.0111008882522583,0.2821011543273926,-0.5735484957695007
6.663642883300781,-0.05970092490315437,-1.0641260147094727,0.9126802682876587,1.0111008882522583,0.2821011543273926,-0.5735484957695007
6.6837286949157715,-0.059319447726011276,-1.0641260147094727,0.9126802682876587,1.0111008882522583,0.2821011543273926,-0.5735484957695007
6.703754425048828,-0.059319447726011276,-1.0641260147094727,0.9126802682876587,1.0111008882522583,0.2821011543273926,-0.5735484957695007
6.723872423171997,-0.059319447726011276,-1.0645074844360352,0.9126802682876587,1.0111008882522583,0.2821011543273926,-0.5735484957695007
6.744070529937744,-0.059319447726011276,-1.0645074844360352,0.9126802682876587,1.0111008882522583,0.2821011543273926,-0.5735484957695007
6.764163255691528,-0.059319447726011276,-1.0645074844360352,0.9126802682876587,1.0111008882522583,0.2821011543273926,-0.5735484957695007
6.784279108047485,-0.059319447726011276,-1.0645074844360352,0.9126802682876587,1.0111008882522583,0.2817196846008301,-0.5731670260429382
6.804610967636108,-0.05893797054886818,-1.0645074844360352,0.9126802682876587,1.0111008882522583,0.2817196846008301,-0.5735484957695007
6.824743747711182,-0.05855649709701538,-1.0645074844360352,0.9126802682876587,1.0111008882522583,0.2817196846008301,-0.5735484957695007
6.84487771987915,-0.05855649709701538,-1.0645074844360352,0.9126802682876587,1.0107194185256958,0.2817196846008301,-0.5735484957695007
6.865052223205566,-0.05855649709701538,-1.0645074844360352,0.9126802682876587,1.0107194185256958,0.2817196846008301,-0.5735484957695007
6.885059356689453,-0.05855649709701538,-1.0645074844360352,0.9126802682876587,1.0107194185256958,0.2817196846008301,-0.5731670260429382
6.905197381973267,-0.05855649709701538,-1.0645074844360352,0.9126802682876587,1.0107194185256958,0.2817196846008301,-0.5735484957695007
6.925284147262573,-0.05855649709701538,-1.0645074844360352,0.9130617380142212,1.0107194185256958,0.2813382148742676,-0.5731670260429382
6.945347785949707,-0.05855649709701538,-1.0645074844360352,0.9130617380142212,1.0107194185256958,0.2813382148742676,-0.5731670260429382
6.965430974960327,-0.05855649709701538,-1.0645074844360352,0.9130617380142212,1.0107194185256958,0.2813382148742676,-0.5735484957695007
6.985560178756714,-0.05855649709701538,-1.0645074844360352,0.9130617380142212,1.0107194185256958,0.2813382148742676,-0.5735484957695007
7.0057053565979,-0.05855649709701538,-1.0645074844360352,0.9130617380142212,1.0107194185256958,0.2813382148742676,-0.5731670260429382
7.025764465332031,-0.05855649709701538,-1.0645074844360352,0.9130617380142212,1.0107194185256958,0.2813382148742676,-0.5731670260429382
7.045826435089111,-0.05855649709701538,-1.0645074844360352,0.9130617380142212,1.0107194185256958,0.2813382148742676,-0.5735484957695007
7.065978288650513,-0.05855649709701538,-1.0645074844360352,0.9134432077407837,1.0107194185256958,0.2813382148742676,-0.5731670260429382
7.086071729660034,-0.05893797054886818,-1.0645074844360352,0.9134432077407837,1.0103379487991333,0.2813382148742676,-0.5731670260429382
7.106128692626953,-0.05893797054886818,-1.0645074844360352,0.9134432077407837,1.0107194185256958,0.2813382148742676,-0.5731670260429382
7.126219987869263,-0.05893797054886818,-1.0645074844360352,0.9134432077407837,1.0103379487991333,0.2813382148742676,-0.5731670260429382
7.146317005157471,-0.05893797054886818,-1.0645074844360352,0.9134432077407837,1.0103379487991333,0.2813382148742676,-0.5731670260429382
7.166396856307983,-0.05893797054886818,-1.0645074844360352,0.9130617380142212,1.0103379487991333,0.2813382148742676,-0.5731670260429382
7.186594724655151,-0.059319447726011276,-1.0645074844360352,0.9126802682876587,1.0103379487991333,0.2813382148742676,-0.5731670260429382
7.206750392913818,-0.05970092490315437,-1.0645074844360352,0.9126802682876587,1.0103379487991333,0.2809567451477051,-0.5731670260429382
7.2267746925354,-0.05970092490315437,-1.0641260147094727,0.9126802682876587,1.0103379487991333,0.2809567451477051,-0.5731670260429382
7.246953725814819,-0.05970092490315437,-1.0641260147094727,0.9126802682876587,1.0103379487991333,0.2809567451477051,-0.5731670260429382
7.267021894454956,-0.05970092490315437,-1.0641260147094727,0.9126802682876587,1.0103379487991333,0.2809567451477051,-0.5731670260429382
7.287115573883057,-0.05970092490315437,-1.0641260147094727,0.9126802682876587,1.0103379487991333,0.2813382148742676,-0.5731670260429382
7.307176113128662,-0.05970092490315437,-1.0641260147094727,0.9126802682876587,1.0103379487991333,0.2809567451477051,-0.5731670260429382
7.327247381210327,-0.05970092490315437,-1.0641260147094727,0.9126802682876587,1.0103379487991333,0.2813382148742676,-0.5731670260429382
7.347307920455933,-0.05970092490315437,-1.0641260147094727,0.9126802682876587,1.0103379487991333,0.2809567451477051,-0.5731670260429382
7.36738657951355,-0.05970092490315437,-1.0641260147094727,0.9126802682876587,1.0103379487991333,0.2809567451477051,-0.5731670260429382
7.387466192245483,-0.05970092490315437,-1.0641260147094727,0.9126802682876587,1.0103379487991333,0.2809567451477051,-0.5731670260429382
7.407592535018921,-0.05970092490315437,-1.0641260147094727,0.9126802682876587,1.0103379487991333,0.2809567451477051,-0.5731670260429382
7.427692890167236,-0.05970092490315437,-1.0641260147094727,0.9126802682876587,1.0103379487991333,0.2809567451477051,-0.5731670260429382
7.447745323181152,-0.05970092490315437,-1.0641260147094727,0.9126802682876587,1.0103379487991333,0.2809567451477051,-0.5731670260429382
7.467832326889038,-0.05970092490315437,-1.0641260147094727,0.9126802682876587,1.0103379487991333,0.2813382148742676,-0.5731670260429382
7.487952470779419,-0.05970092490315437,-1.0641260147094727,0.9126802682876587,1.0103379487991333,0.2809567451477051,-0.5731670260429382
7.508119583129883,-0.05970092490315437,-1.0641260147094727,0.9126802682876587,1.0103379487991333,0.2813382148742676,-0.5731670260429382
7.528268575668335,-0.05970092490315437,-1.0641260147094727,0.9126802682876587,1.0103379487991333,0.2813382148742676,-0.5731670260429382
7.548326730728149,-0.05970092490315437,-1.0641260147094727,0.9126802682876587,1.0103379487991333,0.2813382148742676,-0.5731670260429382
7.568444013595581,-0.05970092490315437,-1.0641260147094727,0.9126802682876587,1.0103379487991333,0.2809567451477051,-0.5731670260429382
7.588475942611694,-0.059319447726011276,-1.0641260147094727,0.9126802682876587,1.0103379487991333,0.2813382148742676,-0.5731670260429382
7.608587265014648,-0.05893797054886818,-1.0641260147094727,0.9126802682876587,1.0103379487991333,0.2813382148742676,-0.5731670260429382
7.628693580627441,-0.05855649709701538,-1.0641260147094727,0.9126802682876587,1.0103379487991333,0.2813382148742676,-0.5731670260429382
7.648761034011841,-0.05855649709701538,-1.0641260147094727,0.9130617380142212,1.0103379487991333,0.2813382148742676,-0.5731670260429382
7.669385671615601,-0.05855649709701538,-1.0641260147094727,0.9130617380142212,1.0103379487991333,0.2809567451477051,-0.5731670260429382
7.68967604637146,-0.05855649709701538,-1.0641260147094727,0.9130617380142212,1.0103379487991333,0.2813382148742676,-0.5731670260429382
7.710014581680298,-0.05855649709701538,-1.0641260147094727,0.9130617380142212,1.0103379487991333,0.2809567451477051,-0.5731670260429382
7.730155944824219,-0.05855649709701538,-1.0641260147094727,0.9130617380142212,1.0103379487991333,0.2809567451477051,-0.5731670260429382
7.750181198120117,-0.05855649709701538,-1.0641260147094727,0.9134432077407837,1.0103379487991333,0.2809567451477051,-0.5731670260429382
7.770280838012695,-0.05855649709701538,-1.0641260147094727,0.9134432077407837,1.0103379487991333,0.2809567451477051,-0.5731670260429382
7.79034948348999,-0.05855649709701538,-1.0641260147094727,0.9130617380142212,1.0103379487991333,0.2809567451477051,-0.5731670260429382
7.8107593059539795,-0.05855649709701538,-1.0641260147094727,0.9130617380142212,1.0103379487991333,0.2809567451477051,-0.5731670260429382
7.830883264541626,-0.05855649709701538,-1.0641260147094727,0.9130617380142212,1.0103379487991333,0.2809567451477051,-0.5731670260429382
7.850936412811279,-0.05855649709701538,-1.0641260147094727,0.9130617380142212,1.0103379487991333,0.2809567451477051,-0.5731670260429382
7.871059894561768,-0.05855649709701538,-1.0641260147094727,0.9126802682876587,1.0103379487991333,0.2809567451477051,-0.5731670260429382
7.891173362731934,-0.05855649709701538,-1.0641260147094727,0.9126802682876587,1.0103379487991333,0.2805752754211426,-0.5731670260429382
7.911456108093262,-0.05855649709701538,-1.0641260147094727,0.9126802682876587,1.0099564790725708,0.2805752754211426,-0.5731670260429382
7.931564807891846,-0.05855649709701538,-1.0641260147094727,0.9126802682876587,1.0103379487991333,0.2805752754211426,-0.5731670260429382
7.951650619506836,-0.05855649709701538,-1.0641260147094727,0.9126802682876587,1.0103379487991333,0.2809567451477051,-0.5731670260429382
7.97180438041687,-0.05855649709701538,-1.0641260147094727,0.9126802682876587,1.0103379487991333,0.2809567451477051,-0.5731670260429382
7.9918904304504395,-0.05893797054886818,-1.0641260147094727,0.9126802682876587,1.0103379487991333,0.2805752754211426,-0.5731670260429382
8.012077569961548,-0.05893797054886818,-1.0641260147094727,0.9126802682876587,1.0103379487991333,0.2805752754211426,-0.5731670260429382
8.032190084457397,-0.05893797054886818,-1.0641260147094727,0.9126802682876587,1.0099564790725708,0.2805752754211426,-0.5731670260429382
8.052327871322632,-0.05893797054886818,-1.0641260147094727,0.9126802682876587,1.0099564790725708,0.2805752754211426,-0.5731670260429382
8.072455644607544,-0.05893797054886818,-1.0641260147094727,0.9126802682876587,1.0103379487991333,0.2805752754211426,-0.5731670260429382
8.092561960220337,-0.05893797054886818,-1.0641260147094727,0.9126802682876587,1.0099564790725708,0.2805752754211426,-0.5731670260429382
8.112663745880127,-0.05893797054886818,-1.0641260147094727,0.9126802682876587,1.0099564790725708,0.2805752754211426,-0.5731670260429382
8.13273286819458,-0.05893797054886818,-1.0641260147094727,0.9126802682876587,1.0099564790725708,0.2805752754211426,-0.5731670260429382
8.152825593948364,-0.05893797054886818,-1.0641260147094727,0.9126802682876587,1.0103379487991333,0.2805752754211426,-0.5731670260429382
8.172993659973145,-0.05893797054886818,-1.0641260147094727,0.9126802682876587,1.0099564790725708,0.2805752754211426,-0.5731670260429382
8.193113565444946,-0.059319447726011276,-1.0641260147094727,0.9126802682876587,1.0099564790725708,0.2805752754211426,-0.5731670260429382
8.2132248878479,-0.05970092490315437,-1.0641260147094727,0.9126802682876587,1.0103379487991333,0.2805752754211426,-0.5731670260429382
8.233291625976562,-0.05970092490315437,-1.0641260147094727,0.9126802682876587,1.0099564790725708,0.2805752754211426,-0.5731670260429382
8.253325462341309,-0.05970092490315437,-1.0641260147094727,0.9126802682876587,1.0099564790725708,0.2805752754211426,-0.5731670260429382
8.273402690887451,-0.05970092490315437,-1.0641260147094727,0.9126802682876587,1.0099564790725708,0.2805752754211426,-0.5731670260429382
8.29345178604126,-0.05970092490315437,-1.0641260147094727,0.9126802682876587,1.0099564790725708,0.2805752754211426,-0.5731670260429382
8.313663959503174,-0.05970092490315437,-1.0641260147094727,0.9126802682876587,1.0099564790725708,0.2805752754211426,-0.5731670260429382
8.333676815032959,-0.05970092490315437,-1.0641260147094727,0.9126802682876587,1.0099564790725708,0.2805752754211426,-0.5731670260429382
8.353991746902466,-0.05970092490315437,-1.0641260147094727,0.9126802682876587,1.0099564790725708,0.2805752754211426,-0.5731670260429382
8.374122381210327,-0.05970092490315437,-1.0641260147094727,0.9126802682876587,1.0099564790725708,0.2805752754211426,-0.5731670260429382
8.394199848175049,-0.05970092490315437,-1.0641260147094727,0.9126802682876587,1.0103379487991333,0.2805752754211426,-0.5731670260429382
8.414264440536499,-0.05970092490315437,-1.0641260147094727,0.9126802682876587,1.0099564790725708,0.2805752754211426,-0.5731670260429382
8.434469938278198,-0.05970092490315437,-1.0641260147094727,0.9126802682876587,1.0099564790725708,0.2809567451477051,-0.5731670260429382
8.45448923110962,-0.05970092490315437,-1.0641260147094727,0.9126802682876587,1.0099564790725708,0.2809567451477051,-0.5731670260429382
8.474555492401123,-0.05970092490315437,-1.0641260147094727,0.9126802682876587,1.0099564790725708,0.2809567451477051,-0.5731670260429382
8.494649171829224,-0.05970092490315437,-1.0641260147094727,0.9126802682876587,1.0099564790725708,0.2809567451477051,-0.5731670260429382
8.51539158821106,-0.059319447726011276,-1.0641260147094727,0.9126802682876587,1.0099564790725708,0.2809567451477051,-0.5731670260429382
8.535467624664307,-0.059319447726011276,-1.0641260147094727,0.9126802682876587,1.0099564790725708,0.2809567451477051,-0.5731670260429382
8.555578708648682,-0.059319447726011276,-1.0641260147094727,0.9126802682876587,1.0103379487991333,0.2809567451477051,-0.5731670260429382
8.575644731521606,-0.05893797054886818,-1.0641260147094727,0.9126802682876587,1.0099564790725708,0.2809567451477051,-0.5731670260429382
8.595751523971558,-0.05855649709701538,-1.0641260147094727,0.9126802682876587,1.0103379487991333,0.2809567451477051,-0.5731670260429382
8.615802764892578,-0.05855649709701538,-1.0641260147094727,0.9126802682876587,1.0099564790725708,0.2809567451477051,-0.5731670260429382
8.635918855667114,-0.05855649709701538,-1.0641260147094727,0.9130617380142212,1.0099564790725708,0.2809567451477051,-0.5731670260429382
8.656035661697388,-0.05855649709701538,-1.0641260147094727,0.9130617380142212,1.0099564790725708,0.2813382148742676,-0.5731670260429382
8.676063060760498,-0.05855649709701538,-1.0641260147094727,0.9126802682876587,1.0103379487991333,0.2809567451477051,-0.5731670260429382
8.696135520935059,-0.05855649709701538,-1.0641260147094727,0.9130617380142212,1.0099564790725708,0.2809567451477051,-0.5731670260429382
8.716204404830933,-0.05855649709701538,-1.0641260147094727,0.9130617380142212,1.0099564790725708,0.2809567451477051,-0.5731670260429382
8.73625922203064,-0.05855649709701538,-1.0641260147094727,0.9130617380142212,1.0099564790725708,0.2809567451477051,-0.5731670260429382
8.756350994110107,-0.05855649709701538,-1.0641260147094727,0.9130617380142212,1.0099564790725708,0.2809567451477051,-0.5731670260429382
8.776467323303223,-0.05855649709701538,-1.0641260147094727,0.9130617380142212,1.0099564790725708,0.2809567451477051,-0.5731670260429382
8.796547651290894,-0.05855649709701538,-1.0641260147094727,0.9130617380142212,1.0099564790725708,0.2809567451477051,-0.5731670260429382
8.816630125045776,-0.05855649709701538,-1.0641260147094727,0.9130617380142212,1.0099564790725708,0.2809567451477051,-0.5731670260429382
8.836702346801758,-0.05855649709701538,-1.0641260147094727,0.9130617380142212,1.0099564790725708,0.2809567451477051,-0.5731670260429382
8.856788635253906,-0.05855649709701538,-1.0641260147094727,0.9130617380142212,1.0099564790725708,0.2809567451477051,-0.5731670260429382
8.87685775756836,-0.05855649709701538,-1.0641260147094727,0.9130617380142212,1.0099564790725708,0.2809567451477051,-0.5731670260429382
8.896925687789917,-0.05855649709701538,-1.0641260147094727,0.9130617380142212,1.0099564790725708,0.2809567451477051,-0.5731670260429382
8.917026042938232,-0.05855649709701538,-1.0641260147094727,0.9130617380142212,1.0099564790725708,0.2809567451477051,-0.5731670260429382
8.937093257904053,-0.05855649709701538,-1.0641260147094727,0.9130617380142212,1.0099564790725708,0.2813382148742676,-0.5731670260429382
8.957175731658936,-0.05855649709701538,-1.0641260147094727,0.9130617380142212,1.0099564790725708,0.2809567451477051,-0.5731670260429382
8.977264881134033,-0.05855649709701538,-1.0641260147094727,0.9130617380142212,1.0099564790725708,0.2809567451477051,-0.5731670260429382
8.997323274612427,-0.05893797054886818,-1.0641260147094727,0.9130617380142212,1.0099564790725708,0.2809567451477051,-0.5731670260429382
9.017407178878784,-0.05893797054886818,-1.0641260147094727,0.9130617380142212,1.0099564790725708,0.2809567451477051,-0.5731670260429382
9.037477254867554,-0.05893797054886818,-1.0641260147094727,0.9130617380142212,1.0099564790725708,0.2809567451477051,-0.5731670260429382
9.057790756225586,-0.05893797054886818,-1.0641260147094727,0.9130617380142212,1.0099564790725708,0.2809567451477051,-0.5731670260429382
9.078039407730103,-0.05893797054886818,-1.0641260147094727,0.9126802682876587,1.0099564790725708,0.2809567451477051,-0.5731670260429382
9.098024606704712,-0.05893797054886818,-1.0641260147094727,0.9126802682876587,1.0099564790725708,0.2809567451477051,-0.5731670260429382
9.118132591247559,-0.05893797054886818,-1.0641260147094727,0.9126802682876587,1.0099564790725708,0.2809567451477051,-0.5731670260429382
9.138254880905151,-0.05893797054886818,-1.0641260147094727,0.9126802682876587,1.0099564790725708,0.2809567451477051,-0.5731670260429382
9.158416032791138,-0.059319447726011276,-1.0641260147094727,0.9126802682876587,1.0099564790725708,0.2809567451477051,-0.5731670260429382
9.178540468215942,-0.05970092490315437,-1.0641260147094727,0.9126802682876587,1.0099564790725708,0.2809567451477051,-0.5731670260429382
9.198991060256958,-0.05970092490315437,-1.0641260147094727,0.9126802682876587,1.0099564790725708,0.2809567451477051,-0.5731670260429382
9.219127893447876,-0.05970092490315437,-1.0641260147094727,0.9126802682876587,1.0099564790725708,0.2809567451477051,-0.5731670260429382
9.239652395248413,-0.05970092490315437,-1.0641260147094727,0.9126802682876587,1.0099564790725708,0.2809567451477051,-0.5731670260429382
9.259740114212036,-0.05970092490315437,-1.0641260147094727,0.9126802682876587,1.0099564790725708,0.2809567451477051,-0.5731670260429382
9.279850482940674,-0.05970092490315437,-1.0641260147094727,0.9126802682876587,1.0099564790725708,0.2809567451477051,-0.5731670260429382
9.299886703491211,-0.05970092490315437,-1.0641260147094727,0.9126802682876587,1.0099564790725708,0.2809567451477051,-0.5731670260429382
9.319948434829712,-0.05970092490315437,-1.0641260147094727,0.9126802682876587,1.0099564790725708,0.2809567451477051,-0.5731670260429382
9.340041399002075,-0.05970092490315437,-1.0641260147094727,0.9126802682876587,1.0099564790725708,0.2809567451477051,-0.5731670260429382
9.360169649124146,-0.05970092490315437,-1.0641260147094727,0.9126802682876587,1.0099564790725708,0.2809567451477051,-0.5731670260429382
9.380181074142456,-0.05970092490315437,-1.0641260147094727,0.9126802682876587,1.0099564790725708,0.2809567451477051,-0.5731670260429382
9.400414228439331,-0.05970092490315437,-1.0641260147094727,0.9126802682876587,1.0099564790725708,0.2809567451477051,-0.5731670260429382
9.420393943786621,-0.05970092490315437,-1.0641260147094727,0.9126802682876587,1.0099564790725708,0.2809567451477051,-0.5731670260429382
9.441519737243652,-0.05970092490315437,-1.0641260147094727,0.9126802682876587,1.0099564790725708,0.2809567451477051,-0.5731670260429382
9.461633443832397,-0.05970092490315437,-1.0641260147094727,0.9126802682876587,1.0099564790725708,0.2809567451477051,-0.5731670260429382
9.481765031814575,-0.059319447726011276,-1.0641260147094727,0.9126802682876587,1.0099564790725708,0.2809567451477051,-0.5731670260429382
9.501815795898438,-0.059319447726011276,-1.0641260147094727,0.9126802682876587,1.0099564790725708,0.2809567451477051,-0.5731670260429382
9.521886348724365,-0.059319447726011276,-1.0641260147094727,0.9126802682876587,1.0099564790725708,0.2809567451477051,-0.5731670260429382
9.541958808898926,-0.059319447726011276,-1.0641260147094727,0.9126802682876587,1.0099564790725708,0.2809567451477051,-0.5731670260429382
9.562089204788208,-0.05893797054886818,-1.0641260147094727,0.9126802682876587,1.0099564790725708,0.2809567451477051,-0.5731670260429382
9.58218502998352,-0.05855649709701538,-1.0641260147094727,0.9126802682876587,1.0099564790725708,0.2809567451477051,-0.5731670260429382
9.602261781692505,-0.05855649709701538,-1.0641260147094727,0.9126802682876587,1.0099564790725708,0.2813382148742676,-0.5731670260429382
9.62245225906372,-0.05855649709701538,-1.0641260147094727,0.9126802682876587,1.0099564790725708,0.2809567451477051,-0.5731670260429382
9.642891883850098,-0.05855649709701538,-1.0641260147094727,0.9126802682876587,1.0099564790725708,0.2809567451477051,-0.5731670260429382
9.66297173500061,-0.05855649709701538,-1.0641260147094727,0.9126802682876587,1.0099564790725708,0.2809567451477051,-0.5731670260429382
9.68318510055542,-0.05855649709701538,-1.0641260147094727,0.9126802682876587,1.0099564790725708,0.2809567451477051,-0.5731670260429382
9.703173160552979,-0.05855649709701538,-1.0641260147094727,0.9126802682876587,1.0099564790725708,0.2809567451477051,-0.5731670260429382
9.723387956619263,-0.05855649709701538,-1.0641260147094727,0.9130617380142212,1.0099564790725708,0.2809567451477051,-0.5731670260429382
9.743513107299805,-0.05855649709701538,-1.0641260147094727,0.9130617380142212,1.0099564790725708,0.2809567451477051,-0.5731670260429382
9.763658046722412,-0.05855649709701538,-1.0641260147094727,0.9130617380142212,1.0099564790725708,0.2809567451477051,-0.5731670260429382
9.783748149871826,-0.05855649709701538,-1.0641260147094727,0.9130617380142212,1.0099564790725708,0.2809567451477051,-0.5731670260429382
9.803858518600464,-0.05855649709701538,-1.0641260147094727,0.9130617380142212,1.0099564790725708,0.2809567451477051,-0.5731670260429382
9.823957681655884,-0.05855649709701538,-1.0641260147094727,0.9130617380142212,1.0099564790725708,0.2809567451477051,-0.5731670260429382
9.844024181365967,-0.05855649709701538,-1.0641260147094727,0.9130617380142212,1.0099564790725708,0.2809567451477051,-0.5731670260429382
9.864147186279297,-0.05855649709701538,-1.0641260147094727,0.9130617380142212,1.0099564790725708,0.2809567451477051,-0.5731670260429382
9.884254932403564,-0.05855649709701538,-1.0641260147094727,0.9130617380142212,1.0099564790725708,0.2809567451477051,-0.5731670260429382
9.904415607452393,-0.05855649709701538,-1.0641260147094727,0.9130617380142212,1.0099564790725708,0.2809567451477051,-0.5731670260429382
9.924577236175537,-0.05855649709701538,-1.0641260147094727,0.9130617380142212,1.0099564790725708,0.2809567451477051,-0.5731670260429382
9.944597244262695,-0.05855649709701538,-1.0641260147094727,0.9130617380142212,1.0099564790725708,0.2809567451477051,-0.5731670260429382
9.964760780334473,-0.05893797054886818,-1.0641260147094727,0.9130617380142212,1.0099564790725708,0.2809567451477051,-0.5731670260429382
9.984814405441284,-0.05893797054886818,-1.0641260147094727,0.9130617380142212,1.0099564790725708,0.2809567451477051,-0.5731670260429382
10.004950284957886,-0.05893797054886818,-1.0641260147094727,0.9126802682876587,1.0099564790725708,0.2805752754211426,-0.5731670260429382
10.025310277938843,-0.05893797054886818,-1.0641260147094727,0.9126802682876587,1.0099564790725708,0.2809567451477051,-0.5731670260429382
10.045409202575684,-0.05893797054886818,-1.0641260147094727,0.9126802682876587,1.0099564790725708,0.2809567451477051,-0.5731670260429382
10.065499067306519,-0.05893797054886818,-1.0641260147094727,0.9126802682876587,1.0099564790725708,0.2805752754211426,-0.5731670260429382
10.085570096969604,-0.059319447726011276,-1.0641260147094727,0.9126802682876587,1.0099564790725708,0.2805752754211426,-0.5731670260429382
10.105731010437012,-0.05970092490315437,-1.0641260147094727,0.9126802682876587,1.0099564790725708,0.2809567451477051,-0.5731670260429382
10.125760793685913,-0.05970092490315437,-1.0641260147094727,0.9126802682876587,1.0099564790725708,0.2805752754211426,-0.5731670260429382
10.145843505859375,-0.05970092490315437,-1.0641260147094727,0.9126802682876587,1.0099564790725708,0.2805752754211426,-0.5731670260429382
10.166383266448975,-0.05970092490315437,-1.0641260147094727,0.9126802682876587,1.0099564790725708,0.2805752754211426,-0.5731670260429382
10.186488151550293,-0.05970092490315437,-1.0641260147094727,0.9126802682876587,1.0099564790725708,0.2805752754211426,-0.5731670260429382
10.206690073013306,-0.05970092490315437,-1.0641260147094727,0.9126802682876587,1.0099564790725708,0.2805752754211426,-0.5731670260429382
10.226879835128784,-0.05970092490315437,-1.0641260147094727,0.9126802682876587,1.0099564790725708,0.2805752754211426,-0.5731670260429382
10.246963739395142,-0.05970092490315437,-1.0641260147094727,0.9126802682876587,1.0099564790725708,0.2805752754211426,-0.5731670260429382
10.267006397247314,-0.05970092490315437,-1.0641260147094727,0.9126802682876587,1.0099564790725708,0.2805752754211426,-0.5731670260429382
10.28724193572998,-0.05970092490315437,-1.0641260147094727,0.9126802682876587,1.0099564790725708,0.2805752754211426,-0.5731670260429382
10.30733585357666,-0.05970092490315437,-1.0641260147094727,0.9126802682876587,1.0099564790725708,0.2805752754211426,-0.5731670260429382
10.327385663986206,-0.05970092490315437,-1.0641260147094727,0.9126802682876587,1.0099564790725708,0.2805752754211426,-0.5731670260429382
10.347481489181519,-0.05970092490315437,-1.0641260147094727,0.9126802682876587,1.0099564790725708,0.2805752754211426,-0.5731670260429382
10.367580890655518,-0.05970092490315437,-1.0641260147094727,0.9126802682876587,1.0099564790725708,0.2805752754211426,-0.5731670260429382
10.387662172317505,-0.05970092490315437,-1.0641260147094727,0.9126802682876587,1.0099564790725708,0.2805752754211426,-0.5731670260429382
10.40774393081665,-0.05970092490315437,-1.0641260147094727,0.9126802682876587,1.0099564790725708,0.2805752754211426,-0.5731670260429382
10.427929878234863,-0.05970092490315437,-1.0641260147094727,0.9126802682876587,1.0099564790725708,0.2805752754211426,-0.5731670260429382
10.448004007339478,-0.05970092490315437,-1.0641260147094727,0.9126802682876587,1.0099564790725708,0.2805752754211426,-0.5731670260429382
10.468270540237427,-0.05970092490315437,-1.0641260147094727,0.9126802682876587,1.0099564790725708,0.2805752754211426,-0.5731670260429382
10.48828911781311,-0.05970092490315437,-1.0641260147094727,0.9126802682876587,1.0099564790725708,0.2805752754211426,-0.5731670260429382
10.508479595184326,-0.059319447726011276,-1.0641260147094727,0.9126802682876587,1.0099564790725708,0.2809567451477051,-0.5731670260429382
10.5284743309021,-0.059319447726011276,-1.0641260147094727,0.9126802682876587,1.0099564790725708,0.2809567451477051,-0.5731670260429382
10.548706293106079,-0.059319447726011276,-1.0641260147094727,0.9126802682876587,1.0099564790725708,0.2809567451477051,-0.5731670260429382
10.568880319595337,-0.05855649709701538,-1.0641260147094727,0.9126802682876587,1.0099564790725708,0.2809567451477051,-0.5731670260429382
10.589107990264893,-0.05855649709701538,-1.0641260147094727,0.9126802682876587,1.0103379487991333,0.2809567451477051,-0.5731670260429382
10.609222412109375,-0.05855649709701538,-1.0641260147094727,0.9126802682876587,1.0103379487991333,0.2809567451477051,-0.5731670260429382
10.629324674606323,-0.05855649709701538,-1.0641260147094727,0.9126802682876587,1.0099564790725708,0.2809567451477051,-0.5731670260429382
10.649487257003784,-0.05855649709701538,-1.0641260147094727,0.9126802682876587,1.0099564790725708,0.2809567451477051,-0.5731670260429382
10.66981315612793,-0.05855649709701538,-1.0641260147094727,0.9126802682876587,1.0099564790725708,0.2809567451477051,-0.5731670260429382
10.689949989318848,-0.05855649709701538,-1.0641260147094727,0.9126802682876587,1.0099564790725708,0.2809567451477051,-0.5735484957695007
10.710054397583008,-0.05855649709701538,-1.0641260147094727,0.9126802682876587,1.0099564790725708,0.2809567451477051,-0.5731670260429382
10.730124473571777,-0.05855649709701538,-1.0641260147094727,0.9126802682876587,1.0103379487991333,0.2809567451477051,-0.5731670260429382
10.750305414199829,-0.05855649709701538,-1.0641260147094727,0.9126802682876587,1.0099564790725708,0.2809567451477051,-0.5731670260429382
10.77035641670227,-0.05855649709701538,-1.0641260147094727,0.9126802682876587,1.0103379487991333,0.2809567451477051,-0.5731670260429382
10.79052209854126,-0.05855649709701538,-1.0641260147094727,0.9126802682876587,1.0099564790725708,0.2809567451477051,-0.5731670260429382
10.810570240020752,-0.05855649709701538,-1.0641260147094727,0.9126802682876587,1.0099564790725708,0.2809567451477051,-0.5735484957695007
10.831137418746948,-0.05855649709701538,-1.0641260147094727,0.9126802682876587,1.0099564790725708,0.2809567451477051,-0.5731670260429382
10.85132098197937,-0.05855649709701538,-1.0641260147094727,0.9126802682876587,1.0099564790725708,0.2809567451477051,-0.5731670260429382
10.871310234069824,-0.05855649709701538,-1.0641260147094727,0.9126802682876587,1.0099564790725708,0.2809567451477051,-0.5731670260429382
10.891402006149292,-0.05855649709701538,-1.0641260147094727,0.9126802682876587,1.0099564790725708,0.2809567451477051,-0.5735484957695007
10.911463975906372,-0.05855649709701538,-1.0641260147094727,0.9126802682876587,1.0099564790725708,0.2809567451477051,-0.5731670260429382
10.931546211242676,-0.05855649709701538,-1.0641260147094727,0.9126802682876587,1.0099564790725708,0.2809567451477051,-0.5735484957695007
10.951635599136353,-0.05855649709701538,-1.0641260147094727,0.9126802682876587,1.0099564790725708,0.2809567451477051,-0.5735484957695007
10.971723556518555,-0.05855649709701538,-1.0641260147094727,0.9126802682876587,1.0099564790725708,0.2809567451477051,-0.5731670260429382
10.991917848587036,-0.05855649709701538,-1.0641260147094727,0.9130617380142212,1.0099564790725708,0.2809567451477051,-0.5731670260429382
11.01197075843811,-0.05893797054886818,-1.0641260147094727,0.9130617380142212,1.0099564790725708,0.2809567451477051,-0.5731670260429382
11.03206181526184,-0.05893797054886818,-1.0641260147094727,0.9130617380142212,1.0099564790725708,0.2809567451477051,-0.5731670260429382
11.052158832550049,-0.05893797054886818,-1.0641260147094727,0.9130617380142212,1.0099564790725708,0.2809567451477051,-0.5731670260429382
11.072288274765015,-0.05893797054886818,-1.0641260147094727,0.9130617380142212,1.0099564790725708,0.2809567451477051,-0.5731670260429382
11.092334032058716,-0.05893797054886818,-1.0641260147094727,0.9130617380142212,1.0099564790725708,0.2809567451477051,-0.5735484957695007
11.112454652786255,-0.05893797054886818,-1.0641260147094727,0.9130617380142212,1.0099564790725708,0.2809567451477051,-0.5735484957695007
11.13252568244934,-0.05893797054886818,-1.0641260147094727,0.9130617380142212,1.0099564790725708,0.2809567451477051,-0.5735484957695007
11.152651309967041,-0.05893797054886818,-1.0641260147094727,0.9130617380142212,1.0099564790725708,0.2809567451477051,-0.5731670260429382
11.17274785041809,-0.05893797054886818,-1.0641260147094727,0.9130617380142212,1.0099564790725708,0.2809567451477051,-0.5731670260429382
11.193182468414307,-0.059319447726011276,-1.0641260147094727,0.9130617380142212,1.0099564790725708,0.2809567451477051,-0.5731670260429382
11.213290691375732,-0.059319447726011276,-1.0641260147094727,0.9130617380142212,1.0099564790725708,0.2809567451477051,-0.5731670260429382
11.233362674713135,-0.05970092490315437,-1.0641260147094727,0.9126802682876587,1.0099564790725708,0.2809567451477051,-0.5731670260429382
11.25377607345581,-0.05970092490315437,-1.0641260147094727,0.9126802682876587,1.0099564790725708,0.2809567451477051,-0.5735484957695007
11.273866891860962,-0.05970092490315437,-1.0641260147094727,0.9126802682876587,1.0099564790725708,0.2809567451477051,-0.5731670260429382
11.293945074081421,-0.05970092490315437,-1.0641260147094727,0.9126802682876587,1.0099564790725708,0.2809567451477051,-0.5731670260429382
11.314249038696289,-0.05970092490315437,-1.0641260147094727,0.9126802682876587,1.0099564790725708,0.2809567451477051,-0.5731670260429382
11.33433485031128,-0.05970092490315437,-1.0641260147094727,0.9126802682876587,1.0099564790725708,0.2809567451477051,-0.5735484957695007
11.35444688796997,-0.05970092490315437,-1.0641260147094727,0.9126802682876587,1.0099564790725708,0.2809567451477051,-0.5731670260429382
11.374684810638428,-0.05970092490315437,-1.0641260147094727,0.9126802682876587,1.0099564790725708,0.2809567451477051,-0.5735484957695007
11.394859075546265,-0.059319447726011276,-1.0641260147094727,0.9126802682876587,1.0099564790725708,0.2813382148742676,-0.5731670260429382
11.414917469024658,-0.05970092490315437,-1.0641260147094727,0.9126802682876587,1.0099564790725708,0.2809567451477051,-0.5731670260429382
11.43498945236206,-0.05970092490315437,-1.0641260147094727,0.9126802682876587,1.0099564790725708,0.2809567451477051,-0.5731670260429382
11.455062866210938,-0.05970092490315437,-1.0641260147094727,0.9126802682876587,1.0099564790725708,0.2809567451477051,-0.5731670260429382
11.475178956985474,-0.05970092490315437,-1.0641260147094727,0.9126802682876587,1.0099564790725708,0.2809567451477051,-0.5731670260429382
11.495315074920654,-0.05970092490315437,-1.0641260147094727,0.9126802682876587,1.0099564790725708,0.2813382148742676,-0.5735484957695007
11.515408992767334,-0.05970092490315437,-1.0641260147094727,0.9126802682876587,1.0099564790725708,0.2813382148742676,-0.5731670260429382
11.535531520843506,-0.05970092490315437,-1.0641260147094727,0.9126802682876587,1.0099564790725708,0.2813382148742676,-0.5731670260429382
11.555561065673828,-0.05970092490315437,-1.0641260147094727,0.9126802682876587,1.0099564790725708,0.2813382148742676,-0.5731670260429382
11.575623512268066,-0.05970092490315437,-1.0641260147094727,0.9126802682876587,1.0099564790725708,0.2813382148742676,-0.5731670260429382
11.595703125,-0.05970092490315437,-1.0641260147094727,0.9126802682876587,1.0099564790725708,0.2813382148742676,-0.5731670260429382
11.615994691848755,-0.05970092490315437,-1.0641260147094727,0.9126802682876587,1.0103379487991333,0.2813382148742676,-0.5731670260429382
11.636088371276855,-0.059319447726011276,-1.0641260147094727,0.9126802682876587,1.0099564790725708,0.2813382148742676,-0.5731670260429382
11.65632677078247,-0.059319447726011276,-1.0641260147094727,0.9126802682876587,1.0099564790725708,0.2813382148742676,-0.5731670260429382
11.676421403884888,-0.059319447726011276,-1.0641260147094727,0.9126802682876587,1.0099564790725708,0.2813382148742676,-0.5731670260429382
11.69655442237854,-0.059319447726011276,-1.0641260147094727,0.9126802682876587,1.0099564790725708,0.2813382148742676,-0.5731670260429382
11.716590881347656,-0.05893797054886818,-1.0641260147094727,0.9126802682876587,1.0099564790725708,0.2813382148742676,-0.5731670260429382
11.736803770065308,-0.05855649709701538,-1.0641260147094727,0.9126802682876587,1.0103379487991333,0.2813382148742676,-0.5731670260429382
11.756932973861694,-0.05855649709701538,-1.0641260147094727,0.9126802682876587,1.0103379487991333,0.2813382148742676,-0.5735484957695007
11.777082204818726,-0.05855649709701538,-1.0641260147094727,0.9126802682876587,1.0103379487991333,0.2813382148742676,-0.5731670260429382
11.79708480834961,-0.05855649709701538,-1.0641260147094727,0.9126802682876587,1.0103379487991333,0.2813382148742676,-0.5735484957695007
11.817197322845459,-0.05855649709701538,-1.0641260147094727,0.9126802682876587,1.0103379487991333,0.2809567451477051,-0.5731670260429382
11.83729076385498,-0.05855649709701538,-1.0641260147094727,0.9126802682876587,1.0099564790725708,0.2809567451477051,-0.5735484957695007
11.857362270355225,-0.05855649709701538,-1.0641260147094727,0.9126802682876587,1.0103379487991333,0.2809567451477051,-0.5731670260429382
11.877449989318848,-0.05855649709701538,-1.0641260147094727,0.9126802682876587,1.0103379487991333,0.2809567451477051,-0.5731670260429382
11.897525310516357,-0.05855649709701538,-1.0641260147094727,0.9126802682876587,1.0103379487991333,0.2809567451477051,-0.5731670260429382
11.917603731155396,-0.05855649709701538,-1.0641260147094727,0.9126802682876587,1.0103379487991333,0.2809567451477051,-0.5731670260429382
11.937682628631592,-0.05855649709701538,-1.0641260147094727,0.9126802682876587,1.0099564790725708,0.2809567451477051,-0.5735484957695007
11.957749605178833,-0.05855649709701538,-1.0641260147094727,0.9126802682876587,1.0099564790725708,0.2809567451477051,-0.5731670260429382
11.977840662002563,-0.05855649709701538,-1.0641260147094727,0.9126802682876587,1.0099564790725708,0.2809567451477051,-0.5731670260429382
11.997934103012085,-0.05855649709701538,-1.0641260147094727,0.9126802682876587,1.0103379487991333,0.2809567451477051,-0.5731670260429382
12.017987728118896,-0.05855649709701538,-1.0641260147094727,0.9126802682876587,1.0099564790725708,0.2809567451477051,-0.5731670260429382
12.038094997406006,-0.05855649709701538,-1.0641260147094727,0.9126802682876587,1.0099564790725708,0.2809567451477051,-0.5731670260429382
12.058172225952148,-0.05855649709701538,-1.0641260147094727,0.9126802682876587,1.0103379487991333,0.2809567451477051,-0.5731670260429382
12.078298807144165,-0.05855649709701538,-1.0641260147094727,0.9126802682876587,1.0099564790725708,0.2809567451477051,-0.5731670260429382
12.098456144332886,-0.05855649709701538,-1.0641260147094727,0.9126802682876587,1.0099564790725708,0.2809567451477051,-0.5735484957695007
12.11849069595337,-0.05893797054886818,-1.0641260147094727,0.9126802682876587,1.0099564790725708,0.2809567451477051,-0.5731670260429382
12.138545036315918,-0.05893797054886818,-1.0641260147094727,0.9126802682876587,1.0099564790725708,0.2809567451477051,-0.5731670260429382
12.158674955368042,-0.05893797054886818,-1.0641260147094727,0.9126802682876587,1.0099564790725708,0.2805752754211426,-0.5731670260429382
12.17870306968689,-0.05893797054886818,-1.0641260147094727,0.9126802682876587,1.0099564790725708,0.2809567451477051,-0.5731670260429382
12.198832988739014,-0.05893797054886818,-1.0641260147094727,0.9126802682876587,1.0099564790725708,0.2805752754211426,-0.5735484957695007
12.218996286392212,-0.05893797054886818,-1.0641260147094727,0.9126802682876587,1.0099564790725708,0.2809567451477051,-0.5731670260429382
12.239046335220337,-0.05893797054886818,-1.0641260147094727,0.9126802682876587,1.0099564790725708,0.2809567451477051,-0.5731670260429382
12.25916576385498,-0.059319447726011276,-1.0641260147094727,0.9126802682876587,1.0099564790725708,0.2805752754211426,-0.5731670260429382
12.279383420944214,-0.059319447726011276,-1.0641260147094727,0.9126802682876587,1.0099564790725708,0.2809567451477051,-0.5731670260429382
12.299363374710083,-0.05970092490315437,-1.0641260147094727,0.9126802682876587,1.0099564790725708,0.2805752754211426,-0.5731670260429382
12.319408178329468,-0.05970092490315437,-1.0641260147094727,0.9126802682876587,1.0103379487991333,0.2805752754211426,-0.5731670260429382
12.339575052261353,-0.05970092490315437,-1.0641260147094727,0.9126802682876587,1.0099564790725708,0.2805752754211426,-0.5731670260429382
12.35957956314087,-0.05970092490315437,-1.0641260147094727,0.9126802682876587,1.0099564790725708,0.2805752754211426,-0.5731670260429382
12.37979245185852,-0.05970092490315437,-1.0641260147094727,0.9126802682876587,1.0099564790725708,0.2809567451477051,-0.5731670260429382
12.399873495101929,-0.05970092490315437,-1.0641260147094727,0.9126802682876587,1.0099564790725708,0.2809567451477051,-0.5731670260429382
12.419899463653564,-0.05970092490315437,-1.0641260147094727,0.9126802682876587,1.0099564790725708,0.2809567451477051,-0.5731670260429382
12.44000768661499,-0.05970092490315437,-1.0641260147094727,0.9126802682876587,1.0099564790725708,0.2809567451477051,-0.5731670260429382
12.460056781768799,-0.05970092490315437,-1.0641260147094727,0.9126802682876587,1.0099564790725708,0.2809567451477051,-0.5731670260429382
12.48013710975647,-0.05970092490315437,-1.0641260147094727,0.9126802682876587,1.0099564790725708,0.2805752754211426,-0.5731670260429382
12.500224590301514,-0.05970092490315437,-1.0641260147094727,0.9126802682876587,1.0099564790725708,0.2805752754211426,-0.5731670260429382
12.520331859588623,-0.05970092490315437,-1.0641260147094727,0.9126802682876587,1.0099564790725708,0.2809567451477051,-0.5731670260429382
12.540438413619995,-0.05970092490315437,-1.0641260147094727,0.9126802682876587,1.0103379487991333,0.2809567451477051,-0.5731670260429382
12.560516119003296,-0.05970092490315437,-1.0641260147094727,0.9126802682876587,1.0099564790725708,0.2809567451477051,-0.5731670260429382
12.580652236938477,-0.05970092490315437,-1.0641260147094727,0.9126802682876587,1.0099564790725708,0.2809567451477051,-0.5731670260429382
12.600692749023438,-0.05970092490315437,-1.0641260147094727,0.9126802682876587,1.0103379487991333,0.2809567451477051,-0.5731670260429382
12.620774030685425,-0.059319447726011276,-1.0641260147094727,0.9126802682876587,1.0103379487991333,0.2809567451477051,-0.5731670260429382
12.640884160995483,-0.05970092490315437,-1.0641260147094727,0.9126802682876587,1.0099564790725708,0.2809567451477051,-0.5731670260429382
12.660978555679321,-0.059319447726011276,-1.0641260147094727,0.9126802682876587,1.0099564790725708,0.2809567451477051,-0.5731670260429382
12.681000232696533,-0.059319447726011276,-1.0641260147094727,0.9126802682876587,1.0103379487991333,0.2809567451477051,-0.5735484957695007
12.701087951660156,-0.05855649709701538,-1.0641260147094727,0.9126802682876587,1.0103379487991333,0.2809567451477051,-0.5735484957695007
12.721245050430298,-0.05855649709701538,-1.0641260147094727,0.9126802682876587,1.0099564790725708,0.2809567451477051,-0.5731670260429382
12.741525888442993,-0.05855649709701538,-1.0641260147094727,0.9126802682876587,1.0099564790725708,0.2809567451477051,-0.5731670260429382
12.761654138565063,-0.05855649709701538,-1.0641260147094727,0.9126802682876587,1.0099564790725708,0.2809567451477051,-0.5731670260429382
12.781769037246704,-0.05855649709701538,-1.0641260147094727,0.9126802682876587,1.0103379487991333,0.2809567451477051,-0.5731670260429382
12.801777839660645,-0.05855649709701538,-1.0641260147094727,0.9126802682876587,1.0099564790725708,0.2809567451477051,-0.5731670260429382
12.821939468383789,-0.05855649709701538,-1.0641260147094727,0.9126802682876587,1.0103379487991333,0.2809567451477051,-0.5731670260429382
12.842185974121094,-0.05855649709701538,-1.0641260147094727,0.9126802682876587,1.0099564790725708,0.2809567451477051,-0.5731670260429382
12.862281322479248,-0.05855649709701538,-1.0641260147094727,0.9126802682876587,1.0099564790725708,0.2809567451477051,-0.5731670260429382
12.882704019546509,-0.05855649709701538,-1.0641260147094727,0.9130617380142212,1.0099564790725708,0.2809567451477051,-0.5731670260429382
12.902772188186646,-0.05855649709701538,-1.0641260147094727,0.9126802682876587,1.0099564790725708,0.2809567451477051,-0.5731670260429382
12.922977447509766,-0.05855649709701538,-1.0641260147094727,0.9130617380142212,1.0099564790725708,0.2809567451477051,-0.5731670260429382
12.943044900894165,-0.05855649709701538,-1.0641260147094727,0.9130617380142212,1.0099564790725708,0.2809567451477051,-0.5731670260429382
12.963080644607544,-0.05855649709701538,-1.0641260147094727,0.9130617380142212,1.0099564790725708,0.2805752754211426,-0.5731670260429382
12.983291864395142,-0.05855649709701538,-1.0641260147094727,0.9126802682876587,1.0099564790725708,0.2805752754211426,-0.5731670260429382
13.00331449508667,-0.05855649709701538,-1.0641260147094727,0.9130617380142212,1.0099564790725708,0.2809567451477051,-0.5731670260429382
13.023357391357422,-0.05855649709701538,-1.0641260147094727,0.9130617380142212,1.0099564790725708,0.2809567451477051,-0.5731670260429382
13.043446779251099,-0.05855649709701538,-1.0641260147094727,0.9130617380142212,1.0099564790725708,0.2809567451477051,-0.5731670260429382
13.063548803329468,-0.05893797054886818,-1.0641260147094727,0.9126802682876587,1.0099564790725708,0.2809567451477051,-0.5731670260429382
13.08361005783081,-0.05893797054886818,-1.0641260147094727,0.9130617380142212,1.0099564790725708,0.2809567451477051,-0.5731670260429382
13.103716135025024,-0.05893797054886818,-1.0641260147094727,0.9130617380142212,1.0099564790725708,0.2805752754211426,-0.5731670260429382
13.12386965751648,-0.05893797054886818,-1.0641260147094727,0.9130617380142212,1.0099564790725708,0.2805752754211426,-0.5731670260429382
13.143938064575195,-0.05893797054886818,-1.0641260147094727,0.9126802682876587,1.0099564790725708,0.2809567451477051,-0.5731670260429382
13.164016723632812,-0.05893797054886818,-1.0641260147094727,0.9126802682876587,1.0099564790725708,0.2805752754211426,-0.5731670260429382
13.18419861793518,-0.05893797054886818,-1.0641260147094727,0.9126802682876587,1.0099564790725708,0.2805752754211426,-0.5731670260429382
13.204237461090088,-0.05893797054886818,-1.0641260147094727,0.9126802682876587,1.0099564790725708,0.2805752754211426,-0.5731670260429382
13.22437071800232,-0.05893797054886818,-1.0641260147094727,0.9126802682876587,1.0099564790725708,0.2805752754211426,-0.5731670260429382
13.244498491287231,-0.05893797054886818,-1.0641260147094727,0.9126802682876587,1.0099564790725708,0.2805752754211426,-0.5731670260429382
13.26467251777649,-0.059319447726011276,-1.0641260147094727,0.9126802682876587,1.0099564790725708,0.2805752754211426,-0.5731670260429382
13.284847974777222,-0.05970092490315437,-1.0641260147094727,0.9126802682876587,1.0099564790725708,0.2809567451477051,-0.5731670260429382
13.305118083953857,-0.05970092490315437,-1.0641260147094727,0.9126802682876587,1.0103379487991333,0.2809567451477051,-0.5731670260429382
13.325200080871582,-0.05970092490315437,-1.0641260147094727,0.9126802682876587,1.0099564790725708,0.2805752754211426,-0.5731670260429382
13.345287322998047,-0.05970092490315437,-1.0641260147094727,0.9126802682876587,1.0099564790725708,0.2809567451477051,-0.5731670260429382
13.36536169052124,-0.05970092490315437,-1.0641260147094727,0.9126802682876587,1.0099564790725708,0.2809567451477051,-0.5731670260429382
13.385455131530762,-0.05970092490315437,-1.0641260147094727,0.9126802682876587,1.0099564790725708,0.2809567451477051,-0.5731670260429382
13.405503988265991,-0.05970092490315437,-1.0641260147094727,0.9126802682876587,1.0099564790725708,0.2809567451477051,-0.5731670260429382
13.425591230392456,-0.05970092490315437,-1.0641260147094727,0.9126802682876587,1.0099564790725708,0.2809567451477051,-0.5731670260429382
13.445665836334229,-0.05970092490315437,-1.0641260147094727,0.9126802682876587,1.0099564790725708,0.2809567451477051,-0.5731670260429382
13.46583604812622,-0.05970092490315437,-1.0641260147094727,0.9126802682876587,1.0099564790725708,0.2809567451477051,-0.5731670260429382
13.48592734336853,-0.059319447726011276,-1.0641260147094727,0.9126802682876587,1.0099564790725708,0.2809567451477051,-0.5731670260429382
13.505983114242554,-0.05970092490315437,-1.0641260147094727,0.9126802682876587,1.0099564790725708,0.2809567451477051,-0.5731670260429382
13.526075839996338,-0.05970092490315437,-1.0641260147094727,0.9126802682876587,1.0099564790725708,0.2809567451477051,-0.5731670260429382
13.546156883239746,-0.05970092490315437,-1.0641260147094727,0.9126802682876587,1.0103379487991333,0.2809567451477051,-0.5731670260429382
13.5663161277771,-0.059319447726011276,-1.0641260147094727,0.9126802682876587,1.0099564790725708,0.2813382148742676,-0.5731670260429382
13.586406469345093,-0.059319447726011276,-1.0641260147094727,0.9126802682876587,1.0099564790725708,0.2813382148742676,-0.5731670260429382
13.60647964477539,-0.059319447726011276,-1.0641260147094727,0.9126802682876587,1.0099564790725708,0.2813382148742676,-0.5731670260429382
13.626542329788208,-0.059319447726011276,-1.0641260147094727,0.9126802682876587,1.0099564790725708,0.2813382148742676,-0.5731670260429382
13.646641492843628,-0.059319447726011276,-1.0641260147094727,0.9126802682876587,1.0099564790725708,0.2813382148742676,-0.5731670260429382
13.666697978973389,-0.05893797054886818,-1.0641260147094727,0.9126802682876587,1.0099564790725708,0.2813382148742676,-0.5731670260429382
13.686801433563232,-0.05855649709701538,-1.0641260147094727,0.9126802682876587,1.0103379487991333,0.2813382148742676,-0.5731670260429382
13.706872701644897,-0.05855649709701538,-1.0641260147094727,0.9126802682876587,1.0099564790725708,0.2813382148742676,-0.5731670260429382
13.727656364440918,-0.05855649709701538,-1.0641260147094727,0.9126802682876587,1.0099564790725708,0.2813382148742676,-0.5731670260429382
13.747782230377197,-0.05855649709701538,-1.0641260147094727,0.9126802682876587,1.0099564790725708,0.2813382148742676,-0.5731670260429382
13.76785159111023,-0.05855649709701538,-1.0641260147094727,0.9126802682876587,1.0099564790725708,0.2813382148742676,-0.5731670260429382
13.787964582443237,-0.05855649709701538,-1.0641260147094727,0.9126802682876587,1.0103379487991333,0.2813382148742676,-0.5731670260429382
13.80803918838501,-0.05855649709701538,-1.0641260147094727,0.9130617380142212,1.0103379487991333,0.2809567451477051,-0.5731670260429382
13.828088998794556,-0.05855649709701538,-1.0641260147094727,0.9126802682876587,1.0099564790725708,0.2809567451477051,-0.5731670260429382
13.848206043243408,-0.05855649709701538,-1.0641260147094727,0.9126802682876587,1.0103379487991333,0.2809567451477051,-0.5731670260429382
13.868289470672607,-0.05855649709701538,-1.0641260147094727,0.9126802682876587,1.0103379487991333,0.2809567451477051,-0.5731670260429382
13.888349056243896,-0.05855649709701538,-1.0641260147094727,0.9130617380142212,1.0099564790725708,0.2809567451477051,-0.5731670260429382
13.908442258834839,-0.05855649709701538,-1.0641260147094727,0.9130617380142212,1.0099564790725708,0.2809567451477051,-0.5731670260429382
13.928595542907715,-0.05855649709701538,-1.0641260147094727,0.9126802682876587,1.0099564790725708,0.2809567451477051,-0.5731670260429382
13.948789119720459,-0.05855649709701538,-1.0641260147094727,0.9126802682876587,1.0099564790725708,0.2809567451477051,-0.5731670260429382
13.968883275985718,-0.05855649709701538,-1.0641260147094727,0.9130617380142212,1.0103379487991333,0.2809567451477051,-0.5731670260429382
13.98900032043457,-0.05855649709701538,-1.0641260147094727,0.9126802682876587,1.0099564790725708,0.2809567451477051,-0.5731670260429382
14.009066104888916,-0.05893797054886818,-1.0641260147094727,0.9130617380142212,1.0099564790725708,0.2809567451477051,-0.5731670260429382
14.029134035110474,-0.05893797054886818,-1.0641260147094727,0.9126802682876587,1.0099564790725708,0.2809567451477051,-0.5731670260429382
14.049274206161499,-0.05893797054886818,-1.0641260147094727,0.9126802682876587,1.0103379487991333,0.2809567451477051,-0.5731670260429382
14.069358348846436,-0.05893797054886818,-1.0641260147094727,0.9130617380142212,1.0099564790725708,0.2809567451477051,-0.5731670260429382
14.089400053024292,-0.05893797054886818,-1.0641260147094727,0.9126802682876587,1.0099564790725708,0.2805752754211426,-0.5731670260429382
14.110081195831299,-0.05893797054886818,-1.0641260147094727,0.9126802682876587,1.0103379487991333,0.2805752754211426,-0.5731670260429382
14.130274772644043,-0.059319447726011276,-1.0641260147094727,0.9126802682876587,1.0099564790725708,0.2809567451477051,-0.5731670260429382
14.150559902191162,-0.059319447726011276,-1.0641260147094727,0.9126802682876587,1.0099564790725708,0.2809567451477051,-0.5731670260429382
14.170685529708862,-0.059319447726011276,-1.0641260147094727,0.9126802682876587,1.0099564790725708,0.2809567451477051,-0.5731670260429382
14.190815448760986,-0.059319447726011276,-1.0641260147094727,0.9126802682876587,1.0099564790725708,0.2805752754211426,-0.5731670260429382
14.210920095443726,-0.059319447726011276,-1.0641260147094727,0.9126802682876587,1.0099564790725708,0.2809567451477051,-0.5731670260429382
14.231093883514404,-0.059319447726011276,-1.0641260147094727,0.9126802682876587,1.0099564790725708,0.2809567451477051,-0.5731670260429382
14.251135110855103,-0.059319447726011276,-1.0641260147094727,0.9126802682876587,1.0099564790725708,0.2809567451477051,-0.5731670260429382
14.271316766738892,-0.059319447726011276,-1.0641260147094727,0.9126802682876587,1.0099564790725708,0.2809567451477051,-0.5731670260429382
14.29136347770691,-0.059319447726011276,-1.0641260147094727,0.9126802682876587,1.0099564790725708,0.2809567451477051,-0.5731670260429382
14.311564445495605,-0.059319447726011276,-1.0641260147094727,0.9126802682876587,1.0099564790725708,0.2809567451477051,-0.5731670260429382
14.33230185508728,-0.059319447726011276,-1.0641260147094727,0.9126802682876587,1.0099564790725708,0.2809567451477051,-0.5731670260429382
14.352359294891357,-0.059319447726011276,-1.0641260147094727,0.9126802682876587,1.0099564790725708,0.2809567451477051,-0.5731670260429382
14.372534275054932,-0.059319447726011276,-1.0641260147094727,0.9126802682876587,1.0099564790725708,0.2809567451477051,-0.5731670260429382
14.392870903015137,-0.059319447726011276,-1.0641260147094727,0.9126802682876587,1.0099564790725708,0.2809567451477051,-0.5731670260429382
14.41302752494812,-0.05893797054886818,-1.0641260147094727,0.9126802682876587,1.0099564790725708,0.2809567451477051,-0.5731670260429382
14.433110475540161,-0.05893797054886818,-1.0641260147094727,0.9126802682876587,1.0103379487991333,0.2809567451477051,-0.5731670260429382
14.453675985336304,-0.05893797054886818,-1.0641260147094727,0.9126802682876587,1.0099564790725708,0.2809567451477051,-0.5731670260429382
14.47378134727478,-0.05893797054886818,-1.0641260147094727,0.9126802682876587,1.0103379487991333,0.2809567451477051,-0.5731670260429382
14.493913412094116,-0.05893797054886818,-1.0641260147094727,0.9126802682876587,1.0099564790725708,0.2809567451477051,-0.5731670260429382
