liuyurong129/humanoid-gym/humanoid/data/actual_q_20250523-025738.csv
timestamp,joint_1,joint_2,joint_3,joint_4,joint_5,joint_6
7.271766662597656e-05,-0.0009536888683214784,0.16117341816425323,-0.08258945494890213,-0.00019073777366429567,0.000572213320992887,0.00019073777366429567
0.02014303207397461,-0.0013351644156500697,0.13866636157035828,-0.07267109304666519,-0.00019073777366429567,-0.000572213320992887,0.00019073777366429567
0.04021453857421875,-0.0009536888683214784,0.1180666834115982,-0.06313420087099075,-0.000572213320992887,0.0009536888683214784,-0.00019073777366429567
0.06029224395751953,-0.0009536888683214784,0.10585946589708328,-0.057793546468019485,-0.00019073777366429567,0.00019073777366429567,0.00019073777366429567
0.08036065101623535,-0.0013351644156500697,0.09403372555971146,-0.05130846053361893,-0.00019073777366429567,-0.000572213320992887,0.00019073777366429567
0.10065031051635742,-0.0013351644156500697,0.08411535620689392,-0.045204851776361465,-0.000572213320992887,-0.00019073777366429567,-0.00019073777366429567
0.12073969841003418,-0.0013351644156500697,0.07839322835206985,-0.03757534176111221,-0.00019073777366429567,-0.00019073777366429567,0.00019073777366429567
0.1408548355102539,-0.0013351644156500697,0.07648584991693497,-0.03452353551983833,-0.00019073777366429567,-0.00019073777366429567,0.00019073777366429567
0.1609513759613037,-0.0013351644156500697,0.07381551712751389,-0.030708782374858856,-0.00019073777366429567,0.00019073777366429567,0.000572213320992887
0.18100523948669434,-0.0024795911740511656,0.0711451917886734,-0.025749599561095238,0.00019073777366429567,0.0009536888683214784,0.0009536888683214784
0.2010514736175537,-0.0032425422687083483,0.06847485899925232,-0.023460745811462402,0.00019073777366429567,0.0020981156267225742,0.0020981156267225742
0.2212371826171875,-0.0036240178160369396,0.06466010212898254,-0.019645990803837776,0.000572213320992887,0.0020981156267225742,0.002861066721379757
0.24136018753051758,-0.0036240178160369396,0.06275273114442825,-0.016975661739706993,0.000572213320992887,0.0020981156267225742,0.0032425422687083483
0.2614283561706543,-0.0032425422687083483,0.06084534898400307,-0.01506828423589468,0.0009536888683214784,0.0024795911740511656,0.004005493130534887
0.2816016674041748,-0.0036240178160369396,0.057793546468019485,-0.011635004542768002,0.0013351644156500697,0.0020981156267225742,0.005531395319849253
0.3017151355743408,-0.004386968910694122,0.0551232174038887,-0.009727626107633114,0.001716639962978661,0.0024795911740511656,0.007057297509163618
0.3217296600341797,-0.00476844422519207,0.051689937710762024,-0.007438773289322853,0.0020981156267225742,0.0036240178160369396,0.0078202486038208
0.34180641174316406,-0.005149920005351305,0.049782559275627136,-0.0036240178160369396,0.0024795911740511656,0.00476844422519207,0.00858320016413927
0.36185717582702637,-0.005531395319849253,0.048256658017635345,-0.0013351644156500697,0.004005493130534887,0.005149920005351305,0.010490577667951584
0.38194966316223145,-0.005531395319849253,0.04596780240535736,0.000572213320992887,0.00476844422519207,0.005531395319849253,0.01125352829694748
0.4020388126373291,-0.005531395319849253,0.04329747334122658,0.004005493130534887,0.005531395319849253,0.006294346414506435,0.012779430486261845
0.42235469818115234,-0.005912871100008488,0.040627144277095795,0.005912871100008488,0.006294346414506435,0.007438773289322853,0.014686808921396732
0.442446231842041,-0.00667582219466567,0.037193864583969116,0.009346150793135166,0.007057297509163618,0.009346150793135166,0.01583123579621315
0.46253085136413574,-0.007438773289322853,0.035667963325977325,0.01201647985726595,0.007438773289322853,0.010490577667951584,0.01773861236870289
0.48282527923583984,-0.007438773289322853,0.03376058489084244,0.01430533267557621,0.008201723918318748,0.010872052982449532,0.01888304017484188
0.5029206275939941,-0.0078202486038208,0.03032730519771576,0.01735713705420494,0.00858320016413927,0.012397955171763897,0.02040894143283367
0.5229918956756592,-0.00858320016413927,0.026131074875593185,0.01926451548933983,0.008964675478637218,0.012779430486261845,0.021553369238972664
0.5431313514709473,-0.009727626107633114,0.021553369238972664,0.023460745811462402,0.009346150793135166,0.013923857361078262,0.022697795182466507
0.5631918907165527,-0.010109102353453636,0.018501564860343933,0.02689402550458908,0.009727626107633114,0.014686808921396732,0.024223696440458298
0.5832474231719971,-0.010490577667951584,0.016212711110711098,0.02994582988321781,0.010872052982449532,0.016212711110711098,0.025749599561095238
0.6034018993377686,-0.010872052982449532,0.01201647985726595,0.03376058489084244,0.01201647985726595,0.016594186425209045,0.026512550190091133
0.6234378814697266,-0.010872052982449532,0.0078202486038208,0.03757534176111221,0.012779430486261845,0.016975661739706993,0.028038453310728073
0.6434834003448486,-0.011635004542768002,0.004005493130534887,0.040627144277095795,0.013923857361078262,0.016975661739706993,0.029182879254221916
0.6636862754821777,-0.012397955171763897,0.00019073777366429567,0.04444190114736557,0.015449759550392628,0.01735713705420494,0.02994582988321781
0.6836798191070557,-0.012779430486261845,-0.002861066721379757,0.048638131469488144,0.01583123579621315,0.018120087683200836,0.03147173300385475
0.7049953937530518,-0.013160906732082367,-0.005912871100008488,0.05130846053361893,0.016212711110711098,0.01888304017484188,0.03299763426184654
0.7250754833221436,-0.013923857361078262,-0.010490577667951584,0.057793546468019485,0.016975661739706993,0.019645990803837776,0.034142062067985535
0.7451348304748535,-0.01506828423589468,-0.015449759550392628,0.06046387553215027,0.01773861236870289,0.020027466118335724,0.03604944050312042
0.7652590274810791,-0.015449759550392628,-0.020027466118335724,0.06580453366041183,0.01926451548933983,0.02040894143283367,0.03757534176111221
0.7853937149047852,-0.01583123579621315,-0.02193484455347061,0.06847485899925232,0.019645990803837776,0.02040894143283367,0.039101243019104004
0.8057022094726562,-0.01583123579621315,-0.024605173617601395,0.071908138692379,0.02079041674733162,0.021171892061829567,0.04100862145423889
0.8258509635925293,-0.016212711110711098,-0.027656977996230125,0.07648584991693497,0.021553369238972664,0.021171892061829567,0.042153049260377884
0.8458993434906006,-0.016975661739706993,-0.03223468363285065,0.07953765243291855,0.023079270496964455,0.021553369238972664,0.043678950518369675
0.8662614822387695,-0.018120087683200836,-0.03681239113211632,0.08220797777175903,0.02384222112596035,0.022697795182466507,0.045204851776361465
0.8863527774810791,-0.018501564860343933,-0.040627144277095795,0.0864042118191719,0.024605173617601395,0.023460745811462402,0.04634927958250046
0.9064188003540039,-0.01926451548933983,-0.04329747334122658,0.08945601433515549,0.02536812424659729,0.024605173617601395,0.048256658017635345
0.9265999794006348,-0.019645990803837776,-0.04596780240535736,0.09327077120542526,0.026512550190091133,0.02536812424659729,0.04940108209848404
0.9466941356658936,-0.020027466118335724,-0.05207141116261482,0.09822995215654373,0.02689402550458908,0.026512550190091133,0.05130846053361893
0.9671981334686279,-0.020027466118335724,-0.057793546468019485,0.10013733059167862,0.027656977996230125,0.02689402550458908,0.05283436179161072
0.9873816967010498,-0.020027466118335724,-0.06275273114442825,0.10433356463909149,0.02841992862522602,0.027656977996230125,0.05359731614589691
1.007420539855957,-0.02040894143283367,-0.06504157930612564,0.10738536715507507,0.02880140393972397,0.02841992862522602,0.0551232174038887
1.0277924537658691,-0.02040894143283367,-0.06885633617639542,0.11043716967105865,0.03032730519771576,0.029564354568719864,0.056267641484737396
1.0479152202606201,-0.021553369238972664,-0.07534141838550568,0.11615930497646332,0.031090257689356804,0.03185320645570755,0.05855649709701538
1.068026065826416,-0.02231631986796856,-0.08220797777175903,0.11959258466959,0.03147173300385475,0.032616160809993744,0.06046387553215027
1.088383436203003,-0.023079270496964455,-0.0883115902543068,0.12378881871700287,0.03185320645570755,0.034142062067985535,0.06237125024199486
1.1085121631622314,-0.02384222112596035,-0.09327077120542526,0.12951095402240753,0.03337911143898964,0.03528648987412453,0.06389715522527695
1.1285581588745117,-0.024605173617601395,-0.09594109654426575,0.13218127191066742,0.034142062067985535,0.03604944050312042,0.06618601083755493
1.1486406326293945,-0.02536812424659729,-0.10051880776882172,0.1367589831352234,0.03490501269698143,0.03757534176111221,0.06771191209554672
1.1687171459197998,-0.025749599561095238,-0.10662241280078888,0.14248111844062805,0.03528648987412453,0.03795681521296501,0.07000076025724411
1.1888225078582764,-0.026131074875593185,-0.11425192654132843,0.14629587531089783,0.03643091395497322,0.038719769567251205,0.0711451917886734
1.2089171409606934,-0.026512550190091133,-0.12188144028186798,0.1512550562620163,0.03757534176111221,0.0394827201962471,0.07267109304666519
1.229013204574585,-0.02689402550458908,-0.12569619715213776,0.15545128285884857,0.03833829239010811,0.040245670825242996,0.07495994865894318
1.2490379810333252,-0.02727550081908703,-0.12912946939468384,0.15888457000255585,0.039101243019104004,0.04100862145423889,0.07610437273979187
1.2691280841827393,-0.027656977996230125,-0.134470134973526,0.16346226632595062,0.0394827201962471,0.04253452271223068,0.07839322835206985
1.2893211841583252,-0.02841992862522602,-0.14171816408634186,0.16880293190479279,0.04177157208323479,0.04329747334122658,0.07915617525577545
1.309363842010498,-0.029564354568719864,-0.14782176911830902,0.17223620414733887,0.04253452271223068,0.04482337832450867,0.08106355369091034
1.3294999599456787,-0.030708782374858856,-0.15430685877799988,0.17757686972618103,0.04291599988937378,0.04596780240535736,0.08258945494890213
1.3495380878448486,-0.030708782374858856,-0.15812161564826965,0.1813916265964508,0.04406042397022247,0.04634927958250046,0.08373387902975082
1.3696441650390625,-0.03147173300385475,-0.16155488789081573,0.1848248988389969,0.045204851776361465,0.04634927958250046,0.08602273464202881
1.389723777770996,-0.032616160809993744,-0.1657511293888092,0.18940261006355286,0.04596780240535736,0.046730753034353256,0.0875486359000206
1.4098970890045166,-0.032616160809993744,-0.17071031033992767,0.19321736693382263,0.04634927958250046,0.046730753034353256,0.08983749151229858
1.4303219318389893,-0.032616160809993744,-0.17566949129104614,0.1962691694498062,0.04749370738863945,0.046730753034353256,0.09060044586658478
1.4504826068878174,-0.03299763426184654,-0.1802472025156021,0.20275425910949707,0.04940108209848404,0.04711223021149635,0.09250781685113907
1.4705557823181152,-0.034142062067985535,-0.1836804747581482,0.20656901597976685,0.05130846053361893,0.048256658017635345,0.09479667246341705
1.4906251430511475,-0.03452353551983833,-0.18787670135498047,0.21229113638401031,0.05245288833975792,0.049782559275627136,0.09746700525283813
1.5107297897338867,-0.03490501269698143,-0.19359883666038513,0.21725031733512878,0.05359731614589691,0.05054550990462303,0.09861142933368683
1.5308377742767334,-0.03490501269698143,-0.200083926320076,0.22144655883312225,0.05397878959774971,0.05130846053361893,0.10128175467252731
1.55096435546875,-0.035667963325977325,-0.20695048570632935,0.22678720951080322,0.0555046908557415,0.05245288833975792,0.1028076633810997
1.5709874629974365,-0.03681239113211632,-0.21152819693088531,0.23250934481620789,0.05664911866188049,0.05436026677489281,0.10509651154279709
1.5910487174987793,-0.03757534176111221,-0.2157244235277176,0.23632410168647766,0.058175019919872284,0.054741740226745605,0.10700388997793198
1.6111385822296143,-0.038719769567251205,-0.22144655883312225,0.24166475236415863,0.06008239835500717,0.0551232174038887,0.10852979123592377
1.6312894821166992,-0.0394827201962471,-0.2286945879459381,0.2462424635887146,0.06084534898400307,0.056267641484737396,0.11043716967105865
1.6514744758605957,-0.0398641936480999,-0.23594263195991516,0.2504386901855469,0.06160829961299896,0.05741206929087639,0.11272602528333664
1.6716265678405762,-0.040627144277095795,-0.24204623699188232,0.25539788603782654,0.06275273114442825,0.057793546468019485,0.11348897218704224
1.6917479038238525,-0.04139009863138199,-0.2447165697813034,0.2592126429080963,0.06427863240242004,0.057793546468019485,0.11539635062217712
1.7118744850158691,-0.04177157208323479,-0.2473868876695633,0.2626459002494812,0.06542305648326874,0.05855649709701538,0.11692225188016891
1.7319650650024414,-0.04177157208323479,-0.2508201599121094,0.26798656582832336,0.06656748056411743,0.05893797054886818,0.11959258466959
1.752025842666626,-0.042153049260377884,-0.25501641631126404,0.27141985297203064,0.06847485899925232,0.06046387553215027,0.12073700875043869
1.7721166610717773,-0.04291599988937378,-0.2592126429080963,0.2756160795688629,0.06961929053068161,0.06237125024199486,0.12378881871700287
1.7921974658966064,-0.04406042397022247,-0.2630273997783661,0.2817196846008301,0.0715266615152359,0.06427863240242004,0.12531471252441406
1.8122751712799072,-0.04482337832450867,-0.2645532786846161,0.28439003229141235,0.0722896158695221,0.06618601083755493,0.12760357558727264
1.8323760032653809,-0.045204851776361465,-0.26836803555488586,0.28858625888824463,0.07419699430465698,0.06733043491840363,0.13027389347553253
1.8524351119995117,-0.04558632895350456,-0.2725642919540405,0.2920195460319519,0.07610437273979187,0.06809338182210922,0.13179980218410492
1.8725063800811768,-0.04634927958250046,-0.2771419882774353,0.2946898639202118,0.07648584991693497,0.06961929053068161,0.134470134973526
1.8926050662994385,-0.046730753034353256,-0.2821011543273926,0.29850462079048157,0.07763027399778366,0.07000076025724411,0.135233074426651
1.912665605545044,-0.04711223021149635,-0.28591591119766235,0.30308231711387634,0.07877469807863235,0.07038223743438721,0.1363775134086609
1.932856798171997,-0.04711223021149635,-0.28934919834136963,0.3065156042575836,0.07953765243291855,0.07038223743438721,0.13866636157035828
1.9528663158416748,-0.04787518084049225,-0.2935454249382019,0.3107118308544159,0.08106355369091034,0.0715266615152359,0.14019227027893066
1.9729349613189697,-0.04901960864663124,-0.29926756024360657,0.31605249643325806,0.08258945494890213,0.07267109304666519,0.14209964871406555
1.9929893016815186,-0.050164032727479935,-0.30537116527557373,0.31948578357696533,0.08373387902975082,0.07305257022380829,0.14438849687576294
2.0130791664123535,-0.05130846053361893,-0.3103303611278534,0.3240634799003601,0.08487831056118011,0.07457847148180008,0.14705882966518402
2.033341407775879,-0.05207141116261482,-0.31452658772468567,0.3290226459503174,0.0864042118191719,0.07572289556264877,0.1497291475534439
2.0532894134521484,-0.05207141116261482,-0.31872281432151794,0.33283740282058716,0.0879301130771637,0.07648584991693497,0.1520180106163025
2.073399066925049,-0.053215838968753815,-0.3229190409183502,0.3377965986728668,0.08945601433515549,0.07763027399778366,0.15506981313228607
2.0934550762176514,-0.054741740226745605,-0.3274967670440674,0.3427557647228241,0.09098191559314728,0.07991912961006165,0.15812161564826965
2.1135730743408203,-0.056267641484737396,-0.33169299364089966,0.34733349084854126,0.09250781685113907,0.08068207651376724,0.15888457000255585
2.133669376373291,-0.05703059583902359,-0.33627068996429443,0.3538185656070709,0.09441519528627396,0.08144503086805344,0.16117341816425323
2.1537299156188965,-0.05741206929087639,-0.3404669165611267,0.3572518527507782,0.09632257372140884,0.08335240930318832,0.16308079659938812
2.173872947692871,-0.057793546468019485,-0.344663143157959,0.361829549074173,0.09784847497940063,0.08373387902975082,0.1657511293888092
2.193993091583252,-0.05855649709701538,-0.34885939955711365,0.368314653635025,0.09899290651082993,0.08487831056118011,0.1680399775505066
2.2140491008758545,-0.05893797054886818,-0.3530556261539459,0.3713664412498474,0.10013733059167862,0.08602273464202881,0.17032882571220398
2.2341299057006836,-0.05970092490315437,-0.3572518527507782,0.3751811981201172,0.10204470902681351,0.0879301130771637,0.17338064312934875
2.254199743270874,-0.06046387553215027,-0.3622110188007355,0.38090333342552185,0.1039520874619484,0.08907453715801239,0.17681391537189484
2.2742574214935303,-0.06160829961299896,-0.36755168437957764,0.3839551508426666,0.10547798871994019,0.09174486994743347,0.17948424816131592
2.2943592071533203,-0.06275273114442825,-0.3725108802318573,0.3877699077129364,0.10624094307422638,0.09288929402828217,0.1825360506772995
2.3144381046295166,-0.06313420087099075,-0.3763256371021271,0.3931105434894562,0.10738536715507507,0.09403372555971146,0.1844434291124344
2.3345260620117188,-0.06351567804813385,-0.37975889444351196,0.39578089118003845,0.10891126841306686,0.09517814964056015,0.18673227727413177
2.354924201965332,-0.06466010212898254,-0.3839551508426666,0.3999771177768707,0.11081864684820175,0.09594109654426575,0.18863965570926666
2.3750152587890625,-0.06618601083755493,-0.3896772861480713,0.404173344373703,0.11310750246047974,0.09670405089855194,0.19092851877212524
2.395068407058716,-0.06733043491840363,-0.39501792192459106,0.4076066315174103,0.11425192654132843,0.09822995215654373,0.19321736693382263
2.4152491092681885,-0.06847485899925232,-0.4007400572299957,0.41218432784080505,0.11577782779932022,0.09899290651082993,0.1958876997232437
2.4352991580963135,-0.06923781335353851,-0.404936283826828,0.41638055443763733,0.11654078215360641,0.09899290651082993,0.1997024416923523
2.4552624225616455,-0.06961929053068161,-0.4079881012439728,0.4198138415813446,0.1192111074924469,0.10013733059167862,0.20275425910949707
2.47536039352417,-0.0707637146115303,-0.41065841913223267,0.4243915379047394,0.12111848592758179,0.10128175467252731,0.20504310727119446
2.495452642440796,-0.071908138692379,-0.41294726729393005,0.42896926403045654,0.12264438718557358,0.1024261862039566,0.20847637951374054
2.5155763626098633,-0.07343403995037079,-0.41676202416419983,0.43202105164527893,0.12417028844356537,0.1031891331076622,0.21076524257659912
2.535604953765869,-0.07457847148180008,-0.4205767810344696,0.4365987777709961,0.12607766687870026,0.10585946589708328,0.2138170450925827
2.5557336807250977,-0.07572289556264877,-0.4236285984516144,0.44117647409439087,0.12874799966812134,0.10776684433221817,0.21686884760856628
2.5758187770843506,-0.07610437273979187,-0.42591744661331177,0.44460976123809814,0.13103684782981873,0.10929274559020996,0.21953918039798737
2.5959813594818115,-0.07686731964349747,-0.43011367321014404,0.4488059878349304,0.13218127191066742,0.11005569249391556,0.22297245264053345
2.616058349609375,-0.07801175117492676,-0.4350728690624237,0.4514763057231903,0.1340886503458023,0.11081864684820175,0.22640573978424072
2.6360971927642822,-0.07915617525577545,-0.440032035112381,0.4545281231403351,0.1356145590543747,0.11234454810619354,0.2298390120267868
2.6561694145202637,-0.08030059933662415,-0.44422826170921326,0.45948728919029236,0.13790340721607208,0.11425192654132843,0.23365376889705658
2.6762242317199707,-0.08144503086805344,-0.4484245181083679,0.46292057633399963,0.13942931592464447,0.11577782779932022,0.23708705604076385
2.6963629722595215,-0.08220797777175903,-0.4518577754497528,0.4659723937511444,0.14133669435977936,0.1180666834115982,0.23975738883018494
2.716416835784912,-0.08335240930318832,-0.4552910625934601,0.4705500900745392,0.14324407279491425,0.1188296303153038,0.24204623699188232
2.7364704608917236,-0.08411535620689392,-0.45872434973716736,0.4736018776893616,0.14553292095661163,0.12111848592758179,0.2450980395078659
2.7565853595733643,-0.08487831056118011,-0.46253910660743713,0.47817960381507874,0.14782176911830902,0.12264438718557358,0.24929426610469818
2.776655673980713,-0.08525978773832321,-0.465209424495697,0.4808499217033386,0.1504921019077301,0.12417028844356537,0.25272753834724426
2.7976865768432617,-0.08564125746488571,-0.4690241813659668,0.4842832088470459,0.15316243469715118,0.12607766687870026,0.2569237947463989
2.8177809715270996,-0.086785688996315,-0.4732204079627991,0.4892423748970032,0.15545128285884857,0.12760357558727264,0.2603570520877838
2.8378875255584717,-0.0875486359000206,-0.47665369510650635,0.49305713176727295,0.15812161564826965,0.13103684782981873,0.2645532786846161
2.8579442501068115,-0.08945601433515549,-0.4804684519767761,0.4968718886375427,0.15888457000255585,0.1333257108926773,0.26836803555488586
2.8780407905578613,-0.09098191559314728,-0.4839017391204834,0.501068115234375,0.16155488789081573,0.1359960287809372,0.27103838324546814
2.8981518745422363,-0.09174486994743347,-0.4861905872821808,0.5052643418312073,0.16422522068023682,0.13790340721607208,0.2744716703891754
2.918280839920044,-0.09212634712457657,-0.4884794354438782,0.508316159248352,0.1665140837430954,0.13904783129692078,0.2790493667125702
2.9383513927459717,-0.09288929402828217,-0.49114975333213806,0.5121309161186218,0.16956588625907898,0.14019227027893066,0.28286412358283997
2.958444356918335,-0.09365224838256836,-0.49343863129615784,0.5151827335357666,0.17261768877506256,0.14057374000549316,0.28629741072654724
2.9785566329956055,-0.09555962681770325,-0.4953460097312927,0.5174715518951416,0.17566949129104614,0.14438849687576294,0.2912565767765045
2.9986844062805176,-0.09708552807569504,-0.4980163276195526,0.5201418995857239,0.17872129380702972,0.14705882966518402,0.2939268946647644
3.0187251567840576,-0.09822995215654373,-0.5006866455078125,0.5224307775497437,0.1817730963230133,0.1489662081003189,0.2973601818084717
3.038834810256958,-0.09899290651082993,-0.5029755234718323,0.5254825949668884,0.1848248988389969,0.1520180106163025,0.30079346895217896
3.0590298175811768,-0.09975585341453552,-0.506027340888977,0.5289158225059509,0.18902114033699036,0.15354390442371368,0.30498969554901123
3.07938289642334,-0.10090028494596481,-0.5079346895217896,0.5312047004699707,0.19245441257953644,0.15506981313228607,0.309567391872406
3.099557876586914,-0.1024261862039566,-0.5106050372123718,0.5342565178871155,0.1958876997232437,0.15583276748657227,0.31452658772468567
3.119635581970215,-0.1028076633810997,-0.5117494463920593,0.536926805973053,0.200083926320076,0.15735866129398346,0.31834134459495544
3.1396725177764893,-0.1031891331076622,-0.5128938555717468,0.5384527444839478,0.20351719856262207,0.15850308537483215,0.3221561014652252
3.1597740650177,-0.10509651154279709,-0.5140383243560791,0.5407415628433228,0.20771344006061554,0.16002899408340454,0.325970858335495
3.1798489093780518,-0.10624094307422638,-0.5148012638092041,0.541886031627655,0.21152819693088531,0.16308079659938812,0.32978561520576477
3.1999335289001465,-0.10738536715507507,-0.5167086124420166,0.54417484998703,0.2161058932542801,0.1653696447610855,0.33436331152915955
3.220046281814575,-0.10814831405878067,-0.5189974904060364,0.5472266674041748,0.21992065012454987,0.1680399775505066,0.3389410376548767
3.2401087284088135,-0.10891126841306686,-0.5205233693122864,0.5495155453681946,0.22487983107566833,0.17071031033992767,0.343137264251709
3.2601921558380127,-0.11043716967105865,-0.5235751867294312,0.5529488325119019,0.2298390120267868,0.17452506721019745,0.34695202112197876
3.2802772521972656,-0.11196307092905045,-0.5262455344200134,0.5567635893821716,0.23517967760562897,0.17757686972618103,0.35191118717193604
3.300325870513916,-0.11348897218704224,-0.5292973518371582,0.5594338774681091,0.23975738883018494,0.1802472025156021,0.3580147922039032
3.3204410076141357,-0.11463340371847153,-0.5334935784339905,0.5628671646118164,0.2462424635887146,0.1825360506772995,0.36373692750930786
3.3405213356018066,-0.11577782779932022,-0.5380712747573853,0.5674448609352112,0.25158312916755676,0.18520638346672058,0.36907759308815
3.360585927963257,-0.11615930497646332,-0.5415045619010925,0.5701152086257935,0.25654229521751404,0.18711376190185547,0.3751811981201172
3.3807225227355957,-0.11768520623445511,-0.5453193187713623,0.5735484957695007,0.2630273997783661,0.19130998849868774,0.38128480315208435
3.4008257389068604,-0.1188296303153038,-0.5483710765838623,0.576981782913208,0.26760509610176086,0.19321736693382263,0.3877699077129364
3.421342372894287,-0.1203555315732956,-0.5510414242744446,0.5804150700569153,0.2733272314071655,0.1981765478849411,0.39463645219802856
3.4413576126098633,-0.12149996310472488,-0.5540932416915894,0.5838482975959778,0.2798123061656952,0.20237277448177338,0.39921414852142334
3.4614064693450928,-0.12188144028186798,-0.5560005903244019,0.5869001150131226,0.28591591119766235,0.20504310727119446,0.404936283826828
3.4814672470092773,-0.12302586436271667,-0.5582894682884216,0.5891889929771423,0.2935454249382019,0.20885786414146423,0.41142138838768005
3.501579999923706,-0.12378881871700287,-0.5609598159790039,0.5926222801208496,0.30003052949905396,0.2130540907382965,0.4175249934196472
3.521637201309204,-0.12493324279785156,-0.5636301040649414,0.5952925682067871,0.30537116527557373,0.21648737788200378,0.4236285984516144
3.541762351989746,-0.12607766687870026,-0.5663004517555237,0.5979629158973694,0.3110933005809784,0.22068360447883606,0.42896926403045654
3.561828851699829,-0.12760357558727264,-0.5693522691726685,0.6006332635879517,0.31719690561294556,0.22487983107566833,0.4339284300804138
3.5821948051452637,-0.12798504531383514,-0.572022557258606,0.6036850810050964,0.3236820101737976,0.22640573978424072,0.439269095659256
3.602337598800659,-0.12874799966812134,-0.5731670260429382,0.6055924296379089,0.32978561520576477,0.2290760725736618,0.44537270069122314
3.6223981380462646,-0.12951095402240753,-0.5754558444023132,0.6082627773284912,0.33627068996429443,0.2317463904619217,0.4484245181083679
3.642591714859009,-0.13027389347553253,-0.5773632526397705,0.6105515956878662,0.3408484160900116,0.23441672325134277,0.4518577754497528
3.662698745727539,-0.13141833245754242,-0.5804150700569153,0.612077534198761,0.34657052159309387,0.23823148012161255,0.4552910625934601
3.6827497482299805,-0.13218127191066742,-0.5830853581428528,0.6147478222846985,0.35076677799224854,0.24128328263759613,0.45834288001060486
3.70286226272583,-0.1329442262649536,-0.5849927663803101,0.6162737607955933,0.3534370958805084,0.24319066107273102,0.46253910660743713
3.7229506969451904,-0.1337071806192398,-0.5876630544662476,0.6177996397018433,0.3572518527507782,0.2462424635887146,0.465209424495697
3.7430169582366943,-0.1340886503458023,-0.5907148718833923,0.6204699873924255,0.3599221706390381,0.2481498420238495,0.4694056510925293
3.7631165981292725,-0.1340886503458023,-0.5922408103942871,0.6231403350830078,0.3622110188007355,0.25120165944099426,0.4724574685096741
3.7831878662109375,-0.135233074426651,-0.5937666893005371,0.6250476837158203,0.36793315410614014,0.25425344705581665,0.47436484694480896
3.8032703399658203,-0.1359960287809372,-0.5956740379333496,0.6269550919532776,0.3725108802318573,0.2576867341995239,0.47589075565338135
3.8233470916748047,-0.1363775134086609,-0.5971999764442444,0.6277180314064026,0.3755626678466797,0.2603570520877838,0.47894254326820374
3.843426465988159,-0.1371404528617859,-0.5979629158973694,0.6300068497657776,0.37861448526382446,0.2622644305229187,0.4804684519767761
3.863475799560547,-0.13790340721607208,-0.6006332635879517,0.6307697892189026,0.37937742471694946,0.2630273997783661,0.483138769865036
3.883577823638916,-0.13790340721607208,-0.6025406122207642,0.6334401369094849,0.38166627287864685,0.2645532786846161,0.4842832088470459
3.903658151626587,-0.13790340721607208,-0.6040665507316589,0.6349660754203796,0.38281071186065674,0.2637903392314911,0.4873350262641907
3.9237301349639893,-0.13790340721607208,-0.6044480204582214,0.6372548937797546,0.3866254687309265,0.26684215664863586,0.4877164959907532
3.943833589553833,-0.13828489184379578,-0.6052109599113464,0.6380178332328796,0.3896772861480713,0.26874953508377075,0.49076828360557556
3.9639132022857666,-0.13904783129692078,-0.6052109599113464,0.6391623020172119,0.39387351274490356,0.2733272314071655,0.49153125286102295
3.9839930534362793,-0.13981078565120697,-0.6086442470550537,0.6399252414703369,0.39692530035972595,0.2756160795688629,0.49420157074928284
4.004215717315674,-0.14019227027893066,-0.6097886562347412,0.6422140598297119,0.39806973934173584,0.2771419882774353,0.49458304047584534
4.0241827964782715,-0.14019227027893066,-0.612840473651886,0.6441214680671692,0.39768826961517334,0.2767605185508728,0.4961089491844177
4.044420003890991,-0.14019227027893066,-0.6132219433784485,0.6464102864265442,0.39806973934173584,0.2771419882774353,0.4968718886375427
4.064532518386841,-0.14019227027893066,-0.6139848828315735,0.6475547552108765,0.39921414852142334,0.2771419882774353,0.4976348578929901
4.084580898284912,-0.14057374000549316,-0.614366352558136,0.6490806341171265,0.403410404920578,0.2786678969860077,0.4983977973461151
4.104684829711914,-0.14133669435977936,-0.615129292011261,0.6490806341171265,0.4068436622619629,0.2813382148742676,0.4987792670726776
4.124772071838379,-0.14171816408634186,-0.6155108213424683,0.6513695120811462,0.4083695709705353,0.2809567451477051,0.499542236328125
4.14501690864563,-0.14209964871406555,-0.6174181699752808,0.650225043296814,0.40989547967910767,0.28248265385627747,0.4999237060546875
4.165108919143677,-0.14209964871406555,-0.6185625791549683,0.6521324515342712,0.41027694940567017,0.2817196846008301,0.501068115234375
4.185182094573975,-0.14171816408634186,-0.619325578212738,0.6525139212608337,0.40989547967910767,0.2817196846008301,0.5014495849609375
4.205301523208618,-0.14209964871406555,-0.6212329268455505,0.6555657386779785,0.4091325104236603,0.2813382148742676,0.5022125840187073
4.225409746170044,-0.14171816408634186,-0.6212329268455505,0.6555657386779785,0.41142138838768005,0.28439003229141235,0.5014495849609375
4.24548864364624,-0.14209964871406555,-0.6212329268455505,0.656710147857666,0.41447317600250244,0.28782328963279724,0.5025940537452698
4.2658679485321045,-0.14209964871406555,-0.621614396572113,0.6555657386779785,0.4186694025993347,0.28820478916168213,0.5029755234718323
4.286001920700073,-0.14209964871406555,-0.622377336025238,0.656710147857666,0.4190509021282196,0.28667888045310974,0.5033569931983948
4.306040525436401,-0.14209964871406555,-0.6242847442626953,0.6563286781311035,0.4190509021282196,0.28667888045310974,0.5037384629249573
4.3261308670043945,-0.14209964871406555,-0.6254291534423828,0.6586175560951233,0.4175249934196472,0.28400853276252747,0.5041199326515198
4.346227645874023,-0.14209964871406555,-0.6261920928955078,0.6589990258216858,0.41676202416419983,0.2821011543273926,0.5045014023780823
4.3662779331207275,-0.14209964871406555,-0.6261920928955078,0.6609063744544983,0.41676202416419983,0.28362706303596497,0.5045014023780823
4.386375665664673,-0.14209964871406555,-0.6265735626220703,0.6612878441810608,0.4194323718547821,0.28515297174453735,0.5045014023780823
4.406493663787842,-0.14209964871406555,-0.6265735626220703,0.6616693139076233,0.4205767810344696,0.28744181990623474,0.5048828721046448
4.426534175872803,-0.14209964871406555,-0.6265735626220703,0.6616693139076233,0.4217212200164795,0.28820478916168213,0.5052643418312073
4.446661949157715,-0.14209964871406555,-0.6269550919532776,0.6616693139076233,0.4217212200164795,0.28820478916168213,0.5048828721046448
4.466849088668823,-0.14209964871406555,-0.6280995011329651,0.6612878441810608,0.4205767810344696,0.28782328963279724,0.5052643418312073
4.486804485321045,-0.14209964871406555,-0.6292439103126526,0.6620507836341858,0.4198138415813446,0.28820478916168213,0.5052643418312073
4.506909370422363,-0.14209964871406555,-0.6300068497657776,0.6624323129653931,0.4198138415813446,0.28820478916168213,0.5048828721046448
4.527018308639526,-0.14209964871406555,-0.6300068497657776,0.6631952524185181,0.4205767810344696,0.28934919834136963,0.5052643418312073
4.547199010848999,-0.14209964871406555,-0.6300068497657776,0.6635767221450806,0.4228656589984894,0.28973066806793213,0.5048828721046448
4.56738543510437,-0.14209964871406555,-0.6300068497657776,0.6635767221450806,0.4247730076313019,0.28934919834136963,0.5052643418312073
4.587409973144531,-0.14209964871406555,-0.6300068497657776,0.6635767221450806,0.42515450716018677,0.28896772861480713,0.5052643418312073
4.607924938201904,-0.14209964871406555,-0.6307697892189026,0.6635767221450806,0.4247730076313019,0.28820478916168213,0.5052643418312073
4.62801194190979,-0.14209964871406555,-0.6311513185501099,0.6635767221450806,0.4243915379047394,0.28820478916168213,0.5052643418312073
4.648090362548828,-0.14209964871406555,-0.6311513185501099,0.6635767221450806,0.4240100681781769,0.28858625888824463,0.5052643418312073
4.668378829956055,-0.14209964871406555,-0.6311513185501099,0.6639581918716431,0.4240100681781769,0.28896772861480713,0.5052643418312073
4.688478708267212,-0.14209964871406555,-0.6311513185501099,0.6639581918716431,0.4247730076313019,0.2904936373233795,0.5052643418312073
4.708563327789307,-0.14209964871406555,-0.6311513185501099,0.6647211313247681,0.42553597688674927,0.290875107049942,0.5052643418312073
4.7295074462890625,-0.14209964871406555,-0.6311513185501099,0.6647211313247681,0.42668038606643677,0.290875107049942,0.5048828721046448
4.7496466636657715,-0.14209964871406555,-0.6311513185501099,0.6647211313247681,0.42668038606643677,0.290112167596817,0.5052643418312073
4.7697412967681885,-0.14209964871406555,-0.6311513185501099,0.6647211313247681,0.42668038606643677,0.28896772861480713,0.5052643418312073
4.78977632522583,-0.14209964871406555,-0.6319142580032349,0.6647211313247681,0.42668038606643677,0.28896772861480713,0.5052643418312073
4.809910297393799,-0.14209964871406555,-0.6322957277297974,0.6654840707778931,0.42668038606643677,0.28896772861480713,0.5052643418312073
4.830044269561768,-0.14209964871406555,-0.6322957277297974,0.6658655405044556,0.42668038606643677,0.28896772861480713,0.5052643418312073
4.850199222564697,-0.14209964871406555,-0.6322957277297974,0.6658655405044556,0.42706188559532166,0.28973066806793213,0.5048828721046448
4.87022590637207,-0.14209964871406555,-0.6322957277297974,0.6662470698356628,0.42744335532188416,0.290112167596817,0.5048828721046448
4.890477657318115,-0.14209964871406555,-0.6322957277297974,0.6662470698356628,0.42744335532188416,0.28973066806793213,0.5052643418312073
4.910567283630371,-0.14209964871406555,-0.6322957277297974,0.6662470698356628,0.42744335532188416,0.28934919834136963,0.5052643418312073
4.930660247802734,-0.14209964871406555,-0.6330586671829224,0.6662470698356628,0.42744335532188416,0.28934919834136963,0.5052643418312073
4.950721979141235,-0.14209964871406555,-0.6334401369094849,0.6666285395622253,0.42744335532188416,0.28896772861480713,0.5052643418312073
4.9709131717681885,-0.14209964871406555,-0.6330586671829224,0.6666285395622253,0.42744335532188416,0.28896772861480713,0.5052643418312073
4.990981578826904,-0.14209964871406555,-0.6330586671829224,0.6666285395622253,0.42782482504844666,0.28934919834136963,0.5048828721046448
5.011397361755371,-0.14209964871406555,-0.6330586671829224,0.6666285395622253,0.42820629477500916,0.28973066806793213,0.5048828721046448
5.0315022468566895,-0.14209964871406555,-0.6330586671829224,0.6666285395622253,0.42858776450157166,0.290112167596817,0.5052643418312073
5.051574230194092,-0.14209964871406555,-0.6330586671829224,0.6666285395622253,0.42858776450157166,0.290112167596817,0.5052643418312073
5.071640253067017,-0.14209964871406555,-0.6330586671829224,0.6666285395622253,0.42858776450157166,0.28973066806793213,0.5052643418312073
5.091716766357422,-0.14209964871406555,-0.6330586671829224,0.6666285395622253,0.42858776450157166,0.28973066806793213,0.5048828721046448
5.111766815185547,-0.14209964871406555,-0.6334401369094849,0.6666285395622253,0.42896926403045654,0.290112167596817,0.5052643418312073
5.131860017776489,-0.14209964871406555,-0.6330586671829224,0.6666285395622253,0.42973220348358154,0.290112167596817,0.5052643418312073
5.151939868927002,-0.14209964871406555,-0.6330586671829224,0.6666285395622253,0.43049514293670654,0.290112167596817,0.5052643418312073
5.17201828956604,-0.14209964871406555,-0.6330586671829224,0.6666285395622253,0.43049514293670654,0.290112167596817,0.5052643418312073
5.192092418670654,-0.14209964871406555,-0.6330586671829224,0.6670100092887878,0.43049514293670654,0.2904936373233795,0.5052643418312073
5.212172508239746,-0.14209964871406555,-0.6334401369094849,0.6670100092887878,0.43049514293670654,0.2904936373233795,0.5048828721046448
5.232246398925781,-0.14209964871406555,-0.6330586671829224,0.6670100092887878,0.43049514293670654,0.2904936373233795,0.5048828721046448
5.252333641052246,-0.14209964871406555,-0.6330586671829224,0.6670100092887878,0.43049514293670654,0.290875107049942,0.5048828721046448
5.2724292278289795,-0.14209964871406555,-0.6330586671829224,0.6670100092887878,0.43087664246559143,0.2912565767765045,0.5048828721046448
5.29246973991394,-0.14209964871406555,-0.6330586671829224,0.6670100092887878,0.43087664246559143,0.291638046503067,0.5048828721046448
5.312563896179199,-0.14209964871406555,-0.6334401369094849,0.6670100092887878,0.43087664246559143,0.2920195460319519,0.5048828721046448
5.3326575756073,-0.14209964871406555,-0.6334401369094849,0.6670100092887878,0.43125811219215393,0.2920195460319519,0.5048828721046448
5.35285758972168,-0.14209964871406555,-0.6334401369094849,0.6670100092887878,0.43125811219215393,0.2920195460319519,0.5048828721046448
5.372951507568359,-0.14209964871406555,-0.6342030763626099,0.6673914790153503,0.43125811219215393,0.2920195460319519,0.5048828721046448
5.393031120300293,-0.14209964871406555,-0.6342030763626099,0.6681544184684753,0.43087664246559143,0.291638046503067,0.5048828721046448
5.413134813308716,-0.14209964871406555,-0.6342030763626099,0.6677729487419128,0.43125811219215393,0.291638046503067,0.5048828721046448
5.433206081390381,-0.14209964871406555,-0.6342030763626099,0.6677729487419128,0.43125811219215393,0.2920195460319519,0.5048828721046448
5.453252792358398,-0.14209964871406555,-0.6342030763626099,0.6677729487419128,0.43163958191871643,0.2920195460319519,0.5048828721046448
5.473554849624634,-0.14209964871406555,-0.6342030763626099,0.6677729487419128,0.43202105164527893,0.2920195460319519,0.5048828721046448
5.49364447593689,-0.14209964871406555,-0.6342030763626099,0.6677729487419128,0.43202105164527893,0.2920195460319519,0.5048828721046448
5.513710260391235,-0.14209964871406555,-0.6338216066360474,0.6677729487419128,0.43163958191871643,0.2920195460319519,0.5048828721046448
5.53411602973938,-0.14209964871406555,-0.6342030763626099,0.6681544184684753,0.43202105164527893,0.2920195460319519,0.5048828721046448
5.554209232330322,-0.14209964871406555,-0.6342030763626099,0.6681544184684753,0.43202105164527893,0.2924010157585144,0.5048828721046448
5.574344873428345,-0.14209964871406555,-0.6342030763626099,0.6681544184684753,0.43202105164527893,0.2924010157585144,0.5048828721046448
5.5944623947143555,-0.14209964871406555,-0.6342030763626099,0.6681544184684753,0.43240252137184143,0.2924010157585144,0.5048828721046448
5.614476680755615,-0.14209964871406555,-0.6342030763626099,0.6681544184684753,0.43240252137184143,0.2920195460319519,0.5048828721046448
5.63453221321106,-0.14209964871406555,-0.6342030763626099,0.6685358881950378,0.43240252137184143,0.2920195460319519,0.5048828721046448
5.654634952545166,-0.14209964871406555,-0.6342030763626099,0.6685358881950378,0.43240252137184143,0.2920195460319519,0.5048828721046448
5.674724817276001,-0.14209964871406555,-0.6342030763626099,0.6685358881950378,0.43240252137184143,0.2920195460319519,0.5048828721046448
5.694995880126953,-0.14209964871406555,-0.6342030763626099,0.6685358881950378,0.43240252137184143,0.2920195460319519,0.5048828721046448
5.715095281600952,-0.14209964871406555,-0.6342030763626099,0.6685358881950378,0.43240252137184143,0.2920195460319519,0.5048828721046448
5.735238313674927,-0.14209964871406555,-0.6342030763626099,0.6685358881950378,0.43240252137184143,0.2920195460319519,0.5048828721046448
5.755520820617676,-0.14209964871406555,-0.6342030763626099,0.6685358881950378,0.43240252137184143,0.2920195460319519,0.5048828721046448
5.775604486465454,-0.14209964871406555,-0.6342030763626099,0.6685358881950378,0.43240252137184143,0.2920195460319519,0.5045014023780823
5.795680522918701,-0.14209964871406555,-0.6342030763626099,0.6685358881950378,0.43240252137184143,0.2920195460319519,0.5048828721046448
5.815800189971924,-0.14209964871406555,-0.6342030763626099,0.6685358881950378,0.43240252137184143,0.2920195460319519,0.5048828721046448
5.835891008377075,-0.14209964871406555,-0.6342030763626099,0.6685358881950378,0.43240252137184143,0.2920195460319519,0.5045014023780823
5.856003046035767,-0.14209964871406555,-0.6342030763626099,0.6685358881950378,0.43240252137184143,0.2920195460319519,0.5045014023780823
5.876141548156738,-0.14209964871406555,-0.6342030763626099,0.6685358881950378,0.43240252137184143,0.2920195460319519,0.5048828721046448
5.896120309829712,-0.14209964871406555,-0.6342030763626099,0.6685358881950378,0.43240252137184143,0.2920195460319519,0.5045014023780823
5.91623592376709,-0.14209964871406555,-0.6342030763626099,0.6685358881950378,0.43240252137184143,0.2920195460319519,0.5045014023780823
5.936286926269531,-0.14209964871406555,-0.6342030763626099,0.6685358881950378,0.43240252137184143,0.2920195460319519,0.5048828721046448
5.956920146942139,-0.14209964871406555,-0.6342030763626099,0.6685358881950378,0.43240252137184143,0.2920195460319519,0.5045014023780823
5.977108955383301,-0.14209964871406555,-0.6342030763626099,0.6689173579216003,0.43240252137184143,0.2920195460319519,0.5045014023780823
5.997167587280273,-0.14209964871406555,-0.6342030763626099,0.6685358881950378,0.43240252137184143,0.2920195460319519,0.5045014023780823
6.01728892326355,-0.14209964871406555,-0.6342030763626099,0.6689173579216003,0.43240252137184143,0.2920195460319519,0.5045014023780823
6.03740119934082,-0.14209964871406555,-0.6342030763626099,0.6689173579216003,0.43240252137184143,0.2920195460319519,0.5045014023780823
6.057829141616821,-0.14209964871406555,-0.6342030763626099,0.6685358881950378,0.43240252137184143,0.2920195460319519,0.5045014023780823
6.077905178070068,-0.14209964871406555,-0.6342030763626099,0.6685358881950378,0.43240252137184143,0.2920195460319519,0.5045014023780823
6.097957134246826,-0.14209964871406555,-0.6342030763626099,0.6689173579216003,0.43240252137184143,0.2924010157585144,0.5045014023780823
6.118037462234497,-0.14209964871406555,-0.6342030763626099,0.6689173579216003,0.43240252137184143,0.2920195460319519,0.5045014023780823
6.138196229934692,-0.14209964871406555,-0.6342030763626099,0.6689173579216003,0.43240252137184143,0.2920195460319519,0.5045014023780823
6.1582441329956055,-0.14209964871406555,-0.6342030763626099,0.6689173579216003,0.43240252137184143,0.2924010157585144,0.5045014023780823
6.178318977355957,-0.14209964871406555,-0.6342030763626099,0.6689173579216003,0.43240252137184143,0.2924010157585144,0.5045014023780823
6.198382139205933,-0.14209964871406555,-0.6342030763626099,0.6689173579216003,0.43240252137184143,0.2924010157585144,0.5045014023780823
6.218514919281006,-0.14209964871406555,-0.6342030763626099,0.6689173579216003,0.43240252137184143,0.2924010157585144,0.5045014023780823
6.238628149032593,-0.14209964871406555,-0.6342030763626099,0.6689173579216003,0.43240252137184143,0.2924010157585144,0.5045014023780823
6.2586846351623535,-0.14171816408634186,-0.6342030763626099,0.6689173579216003,0.43240252137184143,0.2920195460319519,0.5045014023780823
6.278919219970703,-0.14171816408634186,-0.6342030763626099,0.6689173579216003,0.43240252137184143,0.2920195460319519,0.5041199326515198
6.298906087875366,-0.14171816408634186,-0.6342030763626099,0.6689173579216003,0.43240252137184143,0.2920195460319519,0.5045014023780823
6.3190929889678955,-0.14171816408634186,-0.6342030763626099,0.6689173579216003,0.43240252137184143,0.2920195460319519,0.5041199326515198
6.339200735092163,-0.14171816408634186,-0.6342030763626099,0.6689173579216003,0.43240252137184143,0.2924010157585144,0.5041199326515198
6.359327793121338,-0.14171816408634186,-0.6342030763626099,0.6689173579216003,0.43240252137184143,0.2924010157585144,0.5041199326515198
6.379399299621582,-0.14171816408634186,-0.6342030763626099,0.6689173579216003,0.43240252137184143,0.2920195460319519,0.5041199326515198
6.399491548538208,-0.14171816408634186,-0.6342030763626099,0.6689173579216003,0.4327840209007263,0.2920195460319519,0.5041199326515198
6.419638156890869,-0.14171816408634186,-0.6342030763626099,0.6689173579216003,0.4327840209007263,0.2920195460319519,0.5041199326515198
6.439733505249023,-0.14133669435977936,-0.6342030763626099,0.6689173579216003,0.4327840209007263,0.2920195460319519,0.5037384629249573
6.459774494171143,-0.14095520973205566,-0.6342030763626099,0.6689173579216003,0.4327840209007263,0.2920195460319519,0.5037384629249573
6.47985577583313,-0.14095520973205566,-0.6342030763626099,0.6689173579216003,0.4327840209007263,0.2920195460319519,0.5037384629249573
6.499941825866699,-0.14095520973205566,-0.6342030763626099,0.6689173579216003,0.4327840209007263,0.2920195460319519,0.5037384629249573
6.5201170444488525,-0.14095520973205566,-0.6342030763626099,0.6689173579216003,0.4327840209007263,0.2920195460319519,0.5037384629249573
6.540175437927246,-0.14095520973205566,-0.6342030763626099,0.6689173579216003,0.4327840209007263,0.2920195460319519,0.5037384629249573
6.560361862182617,-0.14095520973205566,-0.6342030763626099,0.6689173579216003,0.4327840209007263,0.2920195460319519,0.5037384629249573
6.5804150104522705,-0.14095520973205566,-0.6342030763626099,0.6689173579216003,0.4327840209007263,0.2920195460319519,0.5037384629249573
6.600485324859619,-0.14095520973205566,-0.6342030763626099,0.6689173579216003,0.4327840209007263,0.291638046503067,0.5037384629249573
6.62066388130188,-0.14095520973205566,-0.6342030763626099,0.6689173579216003,0.4327840209007263,0.291638046503067,0.5037384629249573
6.641143083572388,-0.14095520973205566,-0.6342030763626099,0.6689173579216003,0.4327840209007263,0.291638046503067,0.5037384629249573
6.661317825317383,-0.14095520973205566,-0.6342030763626099,0.6689173579216003,0.4327840209007263,0.291638046503067,0.5037384629249573
6.681315183639526,-0.14095520973205566,-0.6342030763626099,0.6689173579216003,0.4327840209007263,0.2920195460319519,0.5033569931983948
6.701415061950684,-0.14095520973205566,-0.6342030763626099,0.6689173579216003,0.4327840209007263,0.2920195460319519,0.5033569931983948
6.721548795700073,-0.14095520973205566,-0.6342030763626099,0.6689173579216003,0.4327840209007263,0.291638046503067,0.5033569931983948
6.74172306060791,-0.14095520973205566,-0.6342030763626099,0.6689173579216003,0.4327840209007263,0.291638046503067,0.5033569931983948
6.7617316246032715,-0.14095520973205566,-0.6342030763626099,0.6689173579216003,0.4327840209007263,0.291638046503067,0.5033569931983948
6.781805753707886,-0.14095520973205566,-0.6342030763626099,0.6689173579216003,0.4327840209007263,0.291638046503067,0.5029755234718323
6.801931858062744,-0.14095520973205566,-0.6342030763626099,0.6689173579216003,0.4327840209007263,0.291638046503067,0.5029755234718323
6.8219640254974365,-0.14095520973205566,-0.6342030763626099,0.6689173579216003,0.4327840209007263,0.291638046503067,0.5025940537452698
6.842057466506958,-0.14095520973205566,-0.6342030763626099,0.6689173579216003,0.4327840209007263,0.291638046503067,0.5025940537452698
6.862127304077148,-0.14095520973205566,-0.6342030763626099,0.6689173579216003,0.4327840209007263,0.291638046503067,0.5025940537452698
6.882200241088867,-0.14095520973205566,-0.6342030763626099,0.6689173579216003,0.4327840209007263,0.291638046503067,0.5025940537452698
6.902338266372681,-0.14095520973205566,-0.6342030763626099,0.6689173579216003,0.4327840209007263,0.2912565767765045,0.5025940537452698
6.922361373901367,-0.14095520973205566,-0.6342030763626099,0.6689173579216003,0.4327840209007263,0.2912565767765045,0.5025940537452698
6.942448854446411,-0.14095520973205566,-0.6342030763626099,0.6689173579216003,0.4327840209007263,0.2912565767765045,0.5025940537452698
6.962622404098511,-0.14133669435977936,-0.6342030763626099,0.6689173579216003,0.4327840209007263,0.2912565767765045,0.5025940537452698
6.982856512069702,-0.14095520973205566,-0.6342030763626099,0.6689173579216003,0.4327840209007263,0.2912565767765045,0.5025940537452698
7.00295352935791,-0.14095520973205566,-0.6342030763626099,0.6689173579216003,0.4327840209007263,0.2912565767765045,0.5025940537452698
7.023122549057007,-0.14095520973205566,-0.6342030763626099,0.6689173579216003,0.4327840209007263,0.2912565767765045,0.5025940537452698
7.0431835651397705,-0.14095520973205566,-0.6342030763626099,0.6689173579216003,0.4327840209007263,0.2912565767765045,0.5025940537452698
7.06329870223999,-0.14095520973205566,-0.6342030763626099,0.6689173579216003,0.4327840209007263,0.290875107049942,0.5025940537452698
7.083380699157715,-0.14095520973205566,-0.6342030763626099,0.6689173579216003,0.4327840209007263,0.290875107049942,0.5025940537452698
7.103450536727905,-0.14095520973205566,-0.6342030763626099,0.6689173579216003,0.4327840209007263,0.290875107049942,0.5025940537452698
7.123505592346191,-0.14095520973205566,-0.6342030763626099,0.6689173579216003,0.4327840209007263,0.290875107049942,0.5025940537452698
7.143597841262817,-0.14095520973205566,-0.6342030763626099,0.6689173579216003,0.4327840209007263,0.290875107049942,0.5025940537452698
7.163651466369629,-0.14095520973205566,-0.6342030763626099,0.6689173579216003,0.4327840209007263,0.290875107049942,0.5025940537452698
7.1839704513549805,-0.14095520973205566,-0.6342030763626099,0.6689173579216003,0.4327840209007263,0.290875107049942,0.5025940537452698
7.204065561294556,-0.14095520973205566,-0.6342030763626099,0.6689173579216003,0.4327840209007263,0.290875107049942,0.5025940537452698
7.22414231300354,-0.14095520973205566,-0.6342030763626099,0.6689173579216003,0.4327840209007263,0.290875107049942,0.5025940537452698
7.244307518005371,-0.14095520973205566,-0.6342030763626099,0.6689173579216003,0.4327840209007263,0.290875107049942,0.5025940537452698
7.264399766921997,-0.14095520973205566,-0.6342030763626099,0.6689173579216003,0.4327840209007263,0.290875107049942,0.5025940537452698
7.284459352493286,-0.14095520973205566,-0.6342030763626099,0.6689173579216003,0.4327840209007263,0.290875107049942,0.5025940537452698
7.304555177688599,-0.14095520973205566,-0.6342030763626099,0.6689173579216003,0.4327840209007263,0.290875107049942,0.5025940537452698
7.324654817581177,-0.14095520973205566,-0.6342030763626099,0.6689173579216003,0.4327840209007263,0.290875107049942,0.5025940537452698
7.345515727996826,-0.14095520973205566,-0.6342030763626099,0.6689173579216003,0.4327840209007263,0.290875107049942,0.5025940537452698
7.365677356719971,-0.14095520973205566,-0.6342030763626099,0.6689173579216003,0.4327840209007263,0.290875107049942,0.5025940537452698
7.385692119598389,-0.14095520973205566,-0.6342030763626099,0.6689173579216003,0.4327840209007263,0.290875107049942,0.5025940537452698
7.405773878097534,-0.14095520973205566,-0.6342030763626099,0.6689173579216003,0.4327840209007263,0.290875107049942,0.5025940537452698
7.425908803939819,-0.14095520973205566,-0.6342030763626099,0.6689173579216003,0.4327840209007263,0.290875107049942,0.5025940537452698
7.44598913192749,-0.14095520973205566,-0.6342030763626099,0.6689173579216003,0.4327840209007263,0.2912565767765045,0.5025940537452698
7.466063499450684,-0.14095520973205566,-0.6342030763626099,0.6689173579216003,0.4327840209007263,0.2912565767765045,0.5025940537452698
7.4861438274383545,-0.14095520973205566,-0.6342030763626099,0.6689173579216003,0.4327840209007263,0.2912565767765045,0.5025940537452698
7.506201505661011,-0.14095520973205566,-0.6342030763626099,0.6689173579216003,0.4327840209007263,0.2912565767765045,0.5025940537452698
7.526337146759033,-0.14095520973205566,-0.6342030763626099,0.6689173579216003,0.4327840209007263,0.2912565767765045,0.5025940537452698
7.5464253425598145,-0.14095520973205566,-0.6338216066360474,0.6689173579216003,0.4327840209007263,0.2912565767765045,0.5025940537452698
7.56646203994751,-0.14095520973205566,-0.6342030763626099,0.6689173579216003,0.4327840209007263,0.2912565767765045,0.5025940537452698
7.586672067642212,-0.14095520973205566,-0.6342030763626099,0.6689173579216003,0.4327840209007263,0.2912565767765045,0.5025940537452698
7.606710910797119,-0.14095520973205566,-0.6342030763626099,0.6689173579216003,0.4327840209007263,0.2912565767765045,0.5025940537452698
7.627135753631592,-0.14095520973205566,-0.6338216066360474,0.6689173579216003,0.4327840209007263,0.2912565767765045,0.5025940537452698
7.647249698638916,-0.14095520973205566,-0.6342030763626099,0.6689173579216003,0.4327840209007263,0.2912565767765045,0.5025940537452698
7.66730523109436,-0.14095520973205566,-0.6338216066360474,0.6689173579216003,0.4327840209007263,0.2912565767765045,0.5025940537452698
7.6876280307769775,-0.14095520973205566,-0.6342030763626099,0.6689173579216003,0.4327840209007263,0.2912565767765045,0.5025940537452698
7.7076802253723145,-0.14095520973205566,-0.6342030763626099,0.6689173579216003,0.4327840209007263,0.2912565767765045,0.5025940537452698
7.727774143218994,-0.14095520973205566,-0.6338216066360474,0.6689173579216003,0.4327840209007263,0.2912565767765045,0.5025940537452698
7.747877597808838,-0.14095520973205566,-0.6338216066360474,0.6689173579216003,0.4327840209007263,0.2912565767765045,0.5025940537452698
7.767990589141846,-0.14095520973205566,-0.6338216066360474,0.6689173579216003,0.4327840209007263,0.2912565767765045,0.5025940537452698
7.7881247997283936,-0.14095520973205566,-0.6338216066360474,0.6689173579216003,0.4327840209007263,0.2912565767765045,0.5025940537452698
7.808266878128052,-0.14095520973205566,-0.6342030763626099,0.6689173579216003,0.4327840209007263,0.2912565767765045,0.5025940537452698
7.828308820724487,-0.14095520973205566,-0.6338216066360474,0.6689173579216003,0.4327840209007263,0.2912565767765045,0.5025940537452698
7.848646879196167,-0.14095520973205566,-0.6342030763626099,0.6689173579216003,0.4327840209007263,0.2912565767765045,0.5025940537452698
7.868734836578369,-0.14095520973205566,-0.6342030763626099,0.6689173579216003,0.4327840209007263,0.2912565767765045,0.5025940537452698
7.888807058334351,-0.14095520973205566,-0.6338216066360474,0.6689173579216003,0.4327840209007263,0.2912565767765045,0.5025940537452698
7.908912420272827,-0.14095520973205566,-0.6342030763626099,0.6689173579216003,0.4327840209007263,0.2912565767765045,0.5025940537452698
7.929076910018921,-0.14095520973205566,-0.6338216066360474,0.6689173579216003,0.4327840209007263,0.2912565767765045,0.5025940537452698
7.949280023574829,-0.14095520973205566,-0.6342030763626099,0.6689173579216003,0.4327840209007263,0.2912565767765045,0.5025940537452698
7.969370603561401,-0.14095520973205566,-0.6342030763626099,0.6689173579216003,0.4327840209007263,0.2912565767765045,0.5025940537452698
7.989437580108643,-0.14095520973205566,-0.6342030763626099,0.6689173579216003,0.4327840209007263,0.2912565767765045,0.5025940537452698
8.009589433670044,-0.14095520973205566,-0.6338216066360474,0.6689173579216003,0.4327840209007263,0.2912565767765045,0.5025940537452698
8.029637098312378,-0.14095520973205566,-0.6342030763626099,0.6689173579216003,0.4327840209007263,0.2912565767765045,0.5025940537452698
8.049768209457397,-0.14095520973205566,-0.6342030763626099,0.6689173579216003,0.4327840209007263,0.2912565767765045,0.5025940537452698
8.069831848144531,-0.14095520973205566,-0.6338216066360474,0.6689173579216003,0.4327840209007263,0.2912565767765045,0.5025940537452698
8.090143918991089,-0.14095520973205566,-0.6342030763626099,0.6689173579216003,0.4327840209007263,0.2912565767765045,0.5025940537452698
8.110233306884766,-0.14095520973205566,-0.6338216066360474,0.6689173579216003,0.4327840209007263,0.2912565767765045,0.5025940537452698
8.130329370498657,-0.14095520973205566,-0.6342030763626099,0.6689173579216003,0.4327840209007263,0.2912565767765045,0.5025940537452698
8.150375843048096,-0.14095520973205566,-0.6342030763626099,0.6689173579216003,0.4327840209007263,0.2912565767765045,0.5025940537452698
8.170528888702393,-0.14095520973205566,-0.6342030763626099,0.6689173579216003,0.4327840209007263,0.2912565767765045,0.5025940537452698
8.190667390823364,-0.14095520973205566,-0.6338216066360474,0.6689173579216003,0.4327840209007263,0.2912565767765045,0.5025940537452698
8.210980415344238,-0.14095520973205566,-0.6338216066360474,0.6689173579216003,0.4327840209007263,0.2912565767765045,0.5025940537452698
8.231071949005127,-0.14095520973205566,-0.6342030763626099,0.6689173579216003,0.4327840209007263,0.2912565767765045,0.5025940537452698
8.251145601272583,-0.14095520973205566,-0.6342030763626099,0.6689173579216003,0.4327840209007263,0.2912565767765045,0.5025940537452698
8.27128791809082,-0.14095520973205566,-0.6338216066360474,0.6689173579216003,0.4327840209007263,0.2912565767765045,0.5025940537452698
8.29135775566101,-0.14095520973205566,-0.6338216066360474,0.6689173579216003,0.4327840209007263,0.2912565767765045,0.5025940537452698
8.311413764953613,-0.14095520973205566,-0.6338216066360474,0.6689173579216003,0.4327840209007263,0.2912565767765045,0.5025940537452698
8.331530570983887,-0.14095520973205566,-0.6342030763626099,0.6689173579216003,0.4327840209007263,0.2912565767765045,0.5025940537452698
8.351618766784668,-0.14095520973205566,-0.6338216066360474,0.6689173579216003,0.4327840209007263,0.2912565767765045,0.5025940537452698
8.371719598770142,-0.14095520973205566,-0.6342030763626099,0.6689173579216003,0.4327840209007263,0.2912565767765045,0.5025940537452698
8.391793966293335,-0.14095520973205566,-0.6338216066360474,0.6689173579216003,0.4327840209007263,0.2912565767765045,0.5025940537452698
8.411861419677734,-0.14095520973205566,-0.6342030763626099,0.6689173579216003,0.4327840209007263,0.2912565767765045,0.5025940537452698
8.43192744255066,-0.14095520973205566,-0.6338216066360474,0.6689173579216003,0.4327840209007263,0.2912565767765045,0.5025940537452698
8.452019453048706,-0.14095520973205566,-0.6338216066360474,0.6689173579216003,0.4327840209007263,0.2912565767765045,0.5025940537452698
8.472098588943481,-0.14095520973205566,-0.6342030763626099,0.6689173579216003,0.4327840209007263,0.2912565767765045,0.5025940537452698
8.492151737213135,-0.14095520973205566,-0.6342030763626099,0.6689173579216003,0.4327840209007263,0.2912565767765045,0.5025940537452698
8.51224422454834,-0.14095520973205566,-0.6342030763626099,0.6689173579216003,0.4327840209007263,0.2912565767765045,0.5025940537452698
8.532318830490112,-0.14095520973205566,-0.6342030763626099,0.6689173579216003,0.4327840209007263,0.2912565767765045,0.5025940537452698
8.552441596984863,-0.14095520973205566,-0.6342030763626099,0.6689173579216003,0.4327840209007263,0.2912565767765045,0.5025940537452698
8.572506189346313,-0.14095520973205566,-0.6338216066360474,0.6689173579216003,0.4327840209007263,0.2912565767765045,0.5025940537452698
8.592556476593018,-0.14095520973205566,-0.6342030763626099,0.6689173579216003,0.4327840209007263,0.2912565767765045,0.5025940537452698
8.612665176391602,-0.14095520973205566,-0.6342030763626099,0.6689173579216003,0.4327840209007263,0.2912565767765045,0.5025940537452698
8.63280439376831,-0.14095520973205566,-0.6338216066360474,0.6689173579216003,0.4327840209007263,0.2912565767765045,0.5025940537452698
8.652823209762573,-0.14095520973205566,-0.6342030763626099,0.6689173579216003,0.4327840209007263,0.2912565767765045,0.5025940537452698
8.672926187515259,-0.14095520973205566,-0.6342030763626099,0.6689173579216003,0.4327840209007263,0.2912565767765045,0.5025940537452698
8.693090200424194,-0.14095520973205566,-0.6342030763626099,0.6689173579216003,0.4327840209007263,0.2912565767765045,0.5025940537452698
8.713099002838135,-0.14095520973205566,-0.6342030763626099,0.6689173579216003,0.4327840209007263,0.2912565767765045,0.5025940537452698
8.733190059661865,-0.14095520973205566,-0.6342030763626099,0.6689173579216003,0.4327840209007263,0.2912565767765045,0.5025940537452698
8.753257751464844,-0.14095520973205566,-0.6342030763626099,0.6689173579216003,0.4327840209007263,0.2912565767765045,0.5025940537452698
8.774118185043335,-0.14095520973205566,-0.6338216066360474,0.6689173579216003,0.4327840209007263,0.2912565767765045,0.5025940537452698
8.794230699539185,-0.14095520973205566,-0.6342030763626099,0.6689173579216003,0.4327840209007263,0.2912565767765045,0.5025940537452698
8.814298629760742,-0.14095520973205566,-0.6338216066360474,0.6689173579216003,0.4327840209007263,0.2912565767765045,0.5025940537452698
8.834378719329834,-0.14095520973205566,-0.6342030763626099,0.6689173579216003,0.4327840209007263,0.2912565767765045,0.5029755234718323
8.854503393173218,-0.14095520973205566,-0.6342030763626099,0.6689173579216003,0.4327840209007263,0.2912565767765045,0.5025940537452698
8.874568939208984,-0.14095520973205566,-0.6342030763626099,0.6689173579216003,0.4327840209007263,0.2912565767765045,0.5029755234718323
8.894813299179077,-0.14095520973205566,-0.6342030763626099,0.6689173579216003,0.4327840209007263,0.2912565767765045,0.5029755234718323
8.914814233779907,-0.14095520973205566,-0.6342030763626099,0.6689173579216003,0.4327840209007263,0.2912565767765045,0.5025940537452698
8.934876680374146,-0.14095520973205566,-0.6342030763626099,0.6689173579216003,0.4327840209007263,0.2912565767765045,0.5025940537452698
8.954956531524658,-0.14095520973205566,-0.6338216066360474,0.6689173579216003,0.4327840209007263,0.2912565767765045,0.5025940537452698
8.975025177001953,-0.14095520973205566,-0.6338216066360474,0.6689173579216003,0.4327840209007263,0.2912565767765045,0.5029755234718323
8.995097637176514,-0.14095520973205566,-0.6342030763626099,0.6689173579216003,0.4327840209007263,0.2912565767765045,0.5029755234718323
9.01520323753357,-0.14095520973205566,-0.6342030763626099,0.6689173579216003,0.4327840209007263,0.2912565767765045,0.5029755234718323
9.035285472869873,-0.14095520973205566,-0.6338216066360474,0.6689173579216003,0.4327840209007263,0.2912565767765045,0.5029755234718323
9.055341243743896,-0.14095520973205566,-0.6342030763626099,0.6689173579216003,0.4327840209007263,0.2912565767765045,0.5029755234718323
9.075495958328247,-0.14095520973205566,-0.6342030763626099,0.6689173579216003,0.4327840209007263,0.2912565767765045,0.5029755234718323
9.09553599357605,-0.14095520973205566,-0.6342030763626099,0.6689173579216003,0.4327840209007263,0.2912565767765045,0.5029755234718323
9.115697145462036,-0.14095520973205566,-0.6342030763626099,0.6689173579216003,0.4327840209007263,0.2912565767765045,0.5029755234718323
9.135790348052979,-0.14095520973205566,-0.6342030763626099,0.6689173579216003,0.4327840209007263,0.2912565767765045,0.5029755234718323
9.155925989151001,-0.14095520973205566,-0.6338216066360474,0.6689173579216003,0.4327840209007263,0.2912565767765045,0.5029755234718323
9.176157236099243,-0.14095520973205566,-0.6342030763626099,0.6689173579216003,0.4327840209007263,0.290875107049942,0.5029755234718323
9.196311712265015,-0.14095520973205566,-0.6342030763626099,0.6689173579216003,0.4327840209007263,0.2912565767765045,0.5029755234718323
9.216415166854858,-0.14095520973205566,-0.6338216066360474,0.6689173579216003,0.4327840209007263,0.2912565767765045,0.5029755234718323
9.236588716506958,-0.14095520973205566,-0.6338216066360474,0.6689173579216003,0.4327840209007263,0.2912565767765045,0.5029755234718323
9.256677627563477,-0.14095520973205566,-0.6342030763626099,0.6689173579216003,0.4327840209007263,0.2912565767765045,0.5029755234718323
9.276735305786133,-0.14095520973205566,-0.6338216066360474,0.6689173579216003,0.4327840209007263,0.2912565767765045,0.5029755234718323
9.296833038330078,-0.14095520973205566,-0.6342030763626099,0.6689173579216003,0.4327840209007263,0.2912565767765045,0.5029755234718323
9.316913604736328,-0.14095520973205566,-0.6342030763626099,0.6689173579216003,0.4327840209007263,0.2912565767765045,0.5029755234718323
9.336971998214722,-0.14095520973205566,-0.6342030763626099,0.6689173579216003,0.4327840209007263,0.2912565767765045,0.5029755234718323
9.357176065444946,-0.14095520973205566,-0.6342030763626099,0.6689173579216003,0.4327840209007263,0.2912565767765045,0.5029755234718323
9.37726879119873,-0.14095520973205566,-0.6338216066360474,0.6689173579216003,0.4327840209007263,0.2912565767765045,0.5029755234718323
9.397427797317505,-0.14095520973205566,-0.6342030763626099,0.6689173579216003,0.4327840209007263,0.2912565767765045,0.5029755234718323
9.417555332183838,-0.14095520973205566,-0.6342030763626099,0.6689173579216003,0.4327840209007263,0.2912565767765045,0.5029755234718323
9.437610387802124,-0.14095520973205566,-0.6342030763626099,0.6689173579216003,0.4327840209007263,0.2912565767765045,0.5029755234718323
9.4578697681427,-0.14095520973205566,-0.6342030763626099,0.6689173579216003,0.4327840209007263,0.2912565767765045,0.5029755234718323
9.477975130081177,-0.14095520973205566,-0.6342030763626099,0.6689173579216003,0.4327840209007263,0.2912565767765045,0.5029755234718323
9.498033046722412,-0.14095520973205566,-0.6338216066360474,0.6689173579216003,0.4327840209007263,0.2912565767765045,0.5029755234718323
9.51823091506958,-0.14095520973205566,-0.6342030763626099,0.6689173579216003,0.4327840209007263,0.290875107049942,0.5029755234718323
9.538325309753418,-0.14095520973205566,-0.6342030763626099,0.6689173579216003,0.4327840209007263,0.2912565767765045,0.5029755234718323
9.55841875076294,-0.14095520973205566,-0.6342030763626099,0.6689173579216003,0.4327840209007263,0.2912565767765045,0.5029755234718323
9.57869553565979,-0.14095520973205566,-0.6338216066360474,0.6689173579216003,0.4327840209007263,0.2912565767765045,0.5029755234718323
9.598873138427734,-0.14095520973205566,-0.6342030763626099,0.6689173579216003,0.4327840209007263,0.2912565767765045,0.5029755234718323
9.618896961212158,-0.14095520973205566,-0.6342030763626099,0.6689173579216003,0.4327840209007263,0.2912565767765045,0.5029755234718323
9.63908338546753,-0.14095520973205566,-0.6342030763626099,0.6689173579216003,0.4327840209007263,0.2912565767765045,0.5029755234718323
9.65916633605957,-0.14095520973205566,-0.6342030763626099,0.6689173579216003,0.4327840209007263,0.2912565767765045,0.5029755234718323
9.679280281066895,-0.14095520973205566,-0.6342030763626099,0.6689173579216003,0.4327840209007263,0.2912565767765045,0.5029755234718323
9.699295997619629,-0.14095520973205566,-0.6342030763626099,0.6689173579216003,0.4327840209007263,0.290875107049942,0.5029755234718323
9.71946930885315,-0.14095520973205566,-0.6342030763626099,0.6689173579216003,0.4327840209007263,0.290875107049942,0.5029755234718323
9.739467859268188,-0.14095520973205566,-0.6342030763626099,0.6689173579216003,0.4327840209007263,0.2912565767765045,0.5029755234718323
9.759627342224121,-0.14095520973205566,-0.6342030763626099,0.6689173579216003,0.4327840209007263,0.290875107049942,0.5029755234718323
9.779678106307983,-0.14095520973205566,-0.6342030763626099,0.6689173579216003,0.4327840209007263,0.290875107049942,0.5029755234718323
9.800084352493286,-0.14095520973205566,-0.6342030763626099,0.6689173579216003,0.4327840209007263,0.290875107049942,0.5029755234718323
9.820262908935547,-0.14095520973205566,-0.6342030763626099,0.6689173579216003,0.4327840209007263,0.290875107049942,0.5029755234718323
9.84029769897461,-0.14095520973205566,-0.6342030763626099,0.6689173579216003,0.4327840209007263,0.2912565767765045,0.5029755234718323
9.860368728637695,-0.14095520973205566,-0.6342030763626099,0.6689173579216003,0.4327840209007263,0.2912565767765045,0.5029755234718323
9.880509376525879,-0.14095520973205566,-0.6342030763626099,0.6689173579216003,0.4327840209007263,0.290875107049942,0.5029755234718323
9.900655508041382,-0.14095520973205566,-0.6342030763626099,0.6689173579216003,0.4327840209007263,0.2912565767765045,0.5029755234718323
9.920760869979858,-0.14095520973205566,-0.6342030763626099,0.6689173579216003,0.4327840209007263,0.290875107049942,0.5029755234718323
9.940845012664795,-0.14095520973205566,-0.6342030763626099,0.6689173579216003,0.4327840209007263,0.290875107049942,0.5029755234718323
9.961018562316895,-0.14095520973205566,-0.6342030763626099,0.6689173579216003,0.4327840209007263,0.290875107049942,0.5029755234718323
9.981062412261963,-0.14095520973205566,-0.6342030763626099,0.6689173579216003,0.4327840209007263,0.290875107049942,0.5029755234718323
10.001100540161133,-0.14095520973205566,-0.6342030763626099,0.6689173579216003,0.4327840209007263,0.290875107049942,0.5029755234718323
10.021442174911499,-0.14095520973205566,-0.6342030763626099,0.6689173579216003,0.4327840209007263,0.290875107049942,0.5029755234718323
10.041432857513428,-0.14095520973205566,-0.6342030763626099,0.6689173579216003,0.4327840209007263,0.290875107049942,0.5029755234718323
10.061527967453003,-0.14095520973205566,-0.6342030763626099,0.6689173579216003,0.4327840209007263,0.290875107049942,0.5029755234718323
10.081621170043945,-0.14095520973205566,-0.6342030763626099,0.6689173579216003,0.4327840209007263,0.290875107049942,0.5029755234718323
10.10181188583374,-0.14095520973205566,-0.6342030763626099,0.6689173579216003,0.4327840209007263,0.2912565767765045,0.5029755234718323
10.122321844100952,-0.14095520973205566,-0.6342030763626099,0.6689173579216003,0.4327840209007263,0.2912565767765045,0.5029755234718323
10.14240312576294,-0.14095520973205566,-0.6342030763626099,0.6689173579216003,0.4327840209007263,0.2912565767765045,0.5029755234718323
10.162468433380127,-0.14095520973205566,-0.6342030763626099,0.6689173579216003,0.4327840209007263,0.290875107049942,0.5029755234718323
10.18256139755249,-0.14095520973205566,-0.6338216066360474,0.6689173579216003,0.4327840209007263,0.2912565767765045,0.5029755234718323
10.202653408050537,-0.14095520973205566,-0.6342030763626099,0.6689173579216003,0.4327840209007263,0.2912565767765045,0.5029755234718323
10.22274136543274,-0.14095520973205566,-0.6342030763626099,0.6689173579216003,0.4327840209007263,0.290875107049942,0.5029755234718323
10.242820978164673,-0.14095520973205566,-0.6342030763626099,0.6689173579216003,0.4327840209007263,0.290875107049942,0.5029755234718323
10.262898683547974,-0.14095520973205566,-0.6342030763626099,0.6689173579216003,0.4327840209007263,0.2912565767765045,0.5029755234718323
10.28297472000122,-0.14095520973205566,-0.6342030763626099,0.6689173579216003,0.4327840209007263,0.2912565767765045,0.5029755234718323
10.303057432174683,-0.14095520973205566,-0.6342030763626099,0.6689173579216003,0.4327840209007263,0.2912565767765045,0.5029755234718323
10.323129177093506,-0.14095520973205566,-0.6342030763626099,0.6689173579216003,0.4327840209007263,0.2912565767765045,0.5029755234718323
10.34318494796753,-0.14095520973205566,-0.6342030763626099,0.6689173579216003,0.4327840209007263,0.290875107049942,0.5029755234718323
10.363296508789062,-0.14095520973205566,-0.6342030763626099,0.6689173579216003,0.4327840209007263,0.2912565767765045,0.5029755234718323
10.383387088775635,-0.14095520973205566,-0.6342030763626099,0.6689173579216003,0.4327840209007263,0.2912565767765045,0.5029755234718323
10.403425931930542,-0.14095520973205566,-0.6342030763626099,0.6689173579216003,0.4327840209007263,0.290875107049942,0.5029755234718323
10.423516750335693,-0.14095520973205566,-0.6342030763626099,0.6689173579216003,0.4327840209007263,0.2912565767765045,0.5029755234718323
10.443621158599854,-0.14095520973205566,-0.6342030763626099,0.6689173579216003,0.4327840209007263,0.2912565767765045,0.5029755234718323
10.463661193847656,-0.14095520973205566,-0.6342030763626099,0.6689173579216003,0.4327840209007263,0.2912565767765045,0.5029755234718323
10.483750820159912,-0.14095520973205566,-0.6342030763626099,0.6689173579216003,0.4327840209007263,0.2912565767765045,0.5029755234718323
10.503822803497314,-0.14095520973205566,-0.6342030763626099,0.6689173579216003,0.4327840209007263,0.2912565767765045,0.5029755234718323
10.523904800415039,-0.14095520973205566,-0.6342030763626099,0.6689173579216003,0.4327840209007263,0.290875107049942,0.5029755234718323
10.543985605239868,-0.14095520973205566,-0.6342030763626099,0.6689173579216003,0.4327840209007263,0.2912565767765045,0.5029755234718323
10.56412386894226,-0.14095520973205566,-0.6342030763626099,0.6689173579216003,0.4327840209007263,0.290875107049942,0.5029755234718323
10.584165096282959,-0.14095520973205566,-0.6342030763626099,0.6689173579216003,0.4327840209007263,0.2912565767765045,0.5029755234718323
10.604238510131836,-0.14095520973205566,-0.6342030763626099,0.6689173579216003,0.4327840209007263,0.290875107049942,0.5029755234718323
10.62429928779602,-0.14095520973205566,-0.6342030763626099,0.6689173579216003,0.4327840209007263,0.290875107049942,0.5029755234718323
10.644495248794556,-0.14095520973205566,-0.6342030763626099,0.6689173579216003,0.4327840209007263,0.2912565767765045,0.5029755234718323
10.664551258087158,-0.14095520973205566,-0.6342030763626099,0.6689173579216003,0.4327840209007263,0.290875107049942,0.5029755234718323
10.684876441955566,-0.14095520973205566,-0.6342030763626099,0.6689173579216003,0.4327840209007263,0.2912565767765045,0.5029755234718323
10.704971075057983,-0.14095520973205566,-0.6342030763626099,0.6689173579216003,0.4327840209007263,0.2912565767765045,0.5029755234718323
10.725055932998657,-0.14095520973205566,-0.6338216066360474,0.6689173579216003,0.4327840209007263,0.2912565767765045,0.5029755234718323
10.745115518569946,-0.14095520973205566,-0.6342030763626099,0.6689173579216003,0.4327840209007263,0.2912565767765045,0.5029755234718323
10.765369653701782,-0.14095520973205566,-0.6342030763626099,0.6689173579216003,0.4327840209007263,0.2912565767765045,0.5029755234718323
10.785370349884033,-0.14095520973205566,-0.6342030763626099,0.6689173579216003,0.4327840209007263,0.2912565767765045,0.5029755234718323
10.805588245391846,-0.14095520973205566,-0.6342030763626099,0.6689173579216003,0.4327840209007263,0.2912565767765045,0.5029755234718323
10.825696229934692,-0.14095520973205566,-0.6342030763626099,0.6689173579216003,0.4327840209007263,0.2912565767765045,0.5029755234718323
10.845755338668823,-0.14095520973205566,-0.6342030763626099,0.6689173579216003,0.4327840209007263,0.2912565767765045,0.5029755234718323
10.865867376327515,-0.14095520973205566,-0.6342030763626099,0.6689173579216003,0.43240252137184143,0.2912565767765045,0.5029755234718323
10.88597297668457,-0.14095520973205566,-0.6342030763626099,0.6689173579216003,0.4327840209007263,0.2912565767765045,0.5029755234718323
10.906009912490845,-0.14095520973205566,-0.6342030763626099,0.6689173579216003,0.4327840209007263,0.2912565767765045,0.5029755234718323
10.926107406616211,-0.14095520973205566,-0.6342030763626099,0.6689173579216003,0.4327840209007263,0.2912565767765045,0.5029755234718323
10.946209907531738,-0.14095520973205566,-0.6342030763626099,0.6689173579216003,0.4327840209007263,0.2912565767765045,0.5029755234718323
10.966276168823242,-0.14095520973205566,-0.6342030763626099,0.6689173579216003,0.4327840209007263,0.2912565767765045,0.5029755234718323
10.986453294754028,-0.14095520973205566,-0.6342030763626099,0.6689173579216003,0.4327840209007263,0.2912565767765045,0.5029755234718323
11.00652265548706,-0.14095520973205566,-0.6342030763626099,0.6689173579216003,0.4327840209007263,0.2912565767765045,0.5029755234718323
11.026661396026611,-0.14095520973205566,-0.6342030763626099,0.6689173579216003,0.4327840209007263,0.2912565767765045,0.5029755234718323
11.046799182891846,-0.14095520973205566,-0.6342030763626099,0.6689173579216003,0.4327840209007263,0.2912565767765045,0.5029755234718323
11.066835641860962,-0.14095520973205566,-0.6342030763626099,0.6689173579216003,0.4327840209007263,0.2912565767765045,0.5029755234718323
11.086930513381958,-0.14095520973205566,-0.6342030763626099,0.6689173579216003,0.4327840209007263,0.2912565767765045,0.5029755234718323
11.107073783874512,-0.14095520973205566,-0.6342030763626099,0.6689173579216003,0.4327840209007263,0.2912565767765045,0.5029755234718323
11.127649545669556,-0.14095520973205566,-0.6342030763626099,0.6689173579216003,0.4327840209007263,0.2912565767765045,0.5029755234718323
11.147780895233154,-0.14095520973205566,-0.6342030763626099,0.6689173579216003,0.4327840209007263,0.2912565767765045,0.5029755234718323
11.167889833450317,-0.14095520973205566,-0.6342030763626099,0.6689173579216003,0.4327840209007263,0.2912565767765045,0.5029755234718323
11.188119888305664,-0.14095520973205566,-0.6342030763626099,0.6689173579216003,0.4327840209007263,0.2912565767765045,0.5029755234718323
11.208232641220093,-0.14095520973205566,-0.6342030763626099,0.6689173579216003,0.4327840209007263,0.2912565767765045,0.5029755234718323
11.228387594223022,-0.14095520973205566,-0.6342030763626099,0.6689173579216003,0.4327840209007263,0.2912565767765045,0.5029755234718323
11.24844741821289,-0.14095520973205566,-0.6342030763626099,0.6689173579216003,0.43240252137184143,0.2912565767765045,0.5029755234718323
11.268553972244263,-0.14095520973205566,-0.6342030763626099,0.6689173579216003,0.4327840209007263,0.2912565767765045,0.5029755234718323
11.288614273071289,-0.14095520973205566,-0.6342030763626099,0.6689173579216003,0.4327840209007263,0.2912565767765045,0.5029755234718323
11.30875277519226,-0.14095520973205566,-0.6342030763626099,0.6689173579216003,0.4327840209007263,0.2912565767765045,0.5029755234718323
11.328782558441162,-0.14095520973205566,-0.6342030763626099,0.6689173579216003,0.4327840209007263,0.2912565767765045,0.5029755234718323
11.348869323730469,-0.14095520973205566,-0.6342030763626099,0.6689173579216003,0.4327840209007263,0.2912565767765045,0.5029755234718323
11.368941307067871,-0.14095520973205566,-0.6342030763626099,0.6689173579216003,0.4327840209007263,0.2912565767765045,0.5029755234718323
11.389184713363647,-0.14095520973205566,-0.6342030763626099,0.6689173579216003,0.4327840209007263,0.2912565767765045,0.5029755234718323
11.40915584564209,-0.14095520973205566,-0.6338216066360474,0.6689173579216003,0.4327840209007263,0.2912565767765045,0.5029755234718323
11.429245710372925,-0.14095520973205566,-0.6342030763626099,0.6689173579216003,0.4327840209007263,0.2912565767765045,0.5029755234718323
11.449312686920166,-0.14095520973205566,-0.6338216066360474,0.6689173579216003,0.4327840209007263,0.2912565767765045,0.5029755234718323
11.46973466873169,-0.14095520973205566,-0.6342030763626099,0.6689173579216003,0.4327840209007263,0.2912565767765045,0.5029755234718323
11.489893198013306,-0.14095520973205566,-0.6338216066360474,0.6689173579216003,0.4327840209007263,0.2912565767765045,0.5029755234718323
11.509969472885132,-0.14095520973205566,-0.6338216066360474,0.6689173579216003,0.4327840209007263,0.2912565767765045,0.5029755234718323
11.53070878982544,-0.14095520973205566,-0.6342030763626099,0.6689173579216003,0.4327840209007263,0.2912565767765045,0.5029755234718323
11.550867319107056,-0.14095520973205566,-0.6338216066360474,0.6689173579216003,0.4327840209007263,0.2912565767765045,0.5029755234718323
11.571019887924194,-0.14095520973205566,-0.6342030763626099,0.6689173579216003,0.4327840209007263,0.2912565767765045,0.5029755234718323
11.591097593307495,-0.14095520973205566,-0.6342030763626099,0.6689173579216003,0.4327840209007263,0.2912565767765045,0.5029755234718323
11.61128306388855,-0.14095520973205566,-0.6342030763626099,0.6689173579216003,0.4327840209007263,0.2912565767765045,0.5029755234718323
11.631346225738525,-0.14095520973205566,-0.6342030763626099,0.6689173579216003,0.4327840209007263,0.2912565767765045,0.5029755234718323
11.651559829711914,-0.14095520973205566,-0.6342030763626099,0.6689173579216003,0.4327840209007263,0.2912565767765045,0.5029755234718323
11.671568155288696,-0.14095520973205566,-0.6342030763626099,0.6689173579216003,0.4327840209007263,0.2912565767765045,0.5029755234718323
11.691742897033691,-0.14095520973205566,-0.6338216066360474,0.6689173579216003,0.43240252137184143,0.2912565767765045,0.5029755234718323
11.711752891540527,-0.14095520973205566,-0.6342030763626099,0.6689173579216003,0.4327840209007263,0.2912565767765045,0.5029755234718323
11.731826066970825,-0.14095520973205566,-0.6342030763626099,0.6689173579216003,0.4327840209007263,0.2912565767765045,0.5029755234718323
11.751912117004395,-0.14095520973205566,-0.6342030763626099,0.6689173579216003,0.4327840209007263,0.2912565767765045,0.5029755234718323
11.772000789642334,-0.14095520973205566,-0.6342030763626099,0.6689173579216003,0.4327840209007263,0.2912565767765045,0.5029755234718323
11.792234659194946,-0.14095520973205566,-0.6338216066360474,0.6689173579216003,0.4327840209007263,0.2912565767765045,0.5029755234718323
11.812352657318115,-0.14095520973205566,-0.6342030763626099,0.6689173579216003,0.4327840209007263,0.2912565767765045,0.5029755234718323
11.832462310791016,-0.14095520973205566,-0.6338216066360474,0.6689173579216003,0.4327840209007263,0.2912565767765045,0.5029755234718323
11.852526664733887,-0.14095520973205566,-0.6338216066360474,0.6689173579216003,0.4327840209007263,0.2912565767765045,0.5029755234718323
11.872685194015503,-0.14095520973205566,-0.6342030763626099,0.6689173579216003,0.4327840209007263,0.2912565767765045,0.5029755234718323
11.892689228057861,-0.14095520973205566,-0.6342030763626099,0.6689173579216003,0.43240252137184143,0.2912565767765045,0.5029755234718323
11.912784576416016,-0.14095520973205566,-0.6338216066360474,0.6689173579216003,0.43240252137184143,0.2912565767765045,0.5029755234718323
11.932867765426636,-0.14095520973205566,-0.6342030763626099,0.6689173579216003,0.4327840209007263,0.2912565767765045,0.5029755234718323
11.952977418899536,-0.14095520973205566,-0.6342030763626099,0.6689173579216003,0.4327840209007263,0.2912565767765045,0.5029755234718323
11.973012924194336,-0.14095520973205566,-0.6342030763626099,0.6689173579216003,0.4327840209007263,0.2912565767765045,0.5029755234718323
11.993139028549194,-0.14095520973205566,-0.6338216066360474,0.6689173579216003,0.4327840209007263,0.2912565767765045,0.5029755234718323
12.013201236724854,-0.14095520973205566,-0.6342030763626099,0.6689173579216003,0.4327840209007263,0.2912565767765045,0.5029755234718323
12.0332932472229,-0.14095520973205566,-0.6342030763626099,0.6689173579216003,0.4327840209007263,0.2912565767765045,0.5029755234718323
12.053365707397461,-0.14095520973205566,-0.6342030763626099,0.6689173579216003,0.4327840209007263,0.2912565767765045,0.5029755234718323
12.073694705963135,-0.14095520973205566,-0.6342030763626099,0.6689173579216003,0.4327840209007263,0.2912565767765045,0.5029755234718323
12.09388279914856,-0.14095520973205566,-0.6342030763626099,0.6689173579216003,0.4327840209007263,0.2912565767765045,0.5029755234718323
12.113903284072876,-0.14095520973205566,-0.6342030763626099,0.6689173579216003,0.43240252137184143,0.2912565767765045,0.5029755234718323
12.134665489196777,-0.14095520973205566,-0.6342030763626099,0.6689173579216003,0.43240252137184143,0.2912565767765045,0.5029755234718323
12.154775381088257,-0.14095520973205566,-0.6338216066360474,0.6689173579216003,0.4327840209007263,0.2912565767765045,0.5029755234718323
12.174932956695557,-0.14095520973205566,-0.6342030763626099,0.6689173579216003,0.4327840209007263,0.2912565767765045,0.5029755234718323
12.195017099380493,-0.14095520973205566,-0.6342030763626099,0.6689173579216003,0.4327840209007263,0.2912565767765045,0.5029755234718323
12.215112924575806,-0.14095520973205566,-0.6338216066360474,0.6689173579216003,0.4327840209007263,0.2912565767765045,0.5029755234718323
12.235197305679321,-0.14095520973205566,-0.6342030763626099,0.6689173579216003,0.4327840209007263,0.2912565767765045,0.5029755234718323
12.255335330963135,-0.14095520973205566,-0.6342030763626099,0.6689173579216003,0.4327840209007263,0.2912565767765045,0.5029755234718323
12.275490522384644,-0.14095520973205566,-0.6338216066360474,0.6689173579216003,0.4327840209007263,0.2912565767765045,0.5029755234718323
12.295578002929688,-0.14095520973205566,-0.6338216066360474,0.6689173579216003,0.4327840209007263,0.2912565767765045,0.5029755234718323
12.315786838531494,-0.14095520973205566,-0.6338216066360474,0.6689173579216003,0.4327840209007263,0.2912565767765045,0.5029755234718323
12.33595609664917,-0.14095520973205566,-0.6342030763626099,0.6689173579216003,0.4327840209007263,0.2912565767765045,0.5029755234718323
12.355985879898071,-0.14095520973205566,-0.6342030763626099,0.6689173579216003,0.4327840209007263,0.2912565767765045,0.5029755234718323
12.376810789108276,-0.14095520973205566,-0.6342030763626099,0.6689173579216003,0.4327840209007263,0.2912565767765045,0.5029755234718323
12.396936893463135,-0.14095520973205566,-0.6342030763626099,0.6689173579216003,0.4327840209007263,0.2912565767765045,0.5029755234718323
12.416995763778687,-0.14095520973205566,-0.6342030763626099,0.6692988276481628,0.43202105164527893,0.290875107049942,0.5029755234718323
12.437053203582764,-0.14095520973205566,-0.6342030763626099,0.6696802973747253,0.43163958191871643,0.290875107049942,0.5025940537452698
12.457143306732178,-0.14095520973205566,-0.6342030763626099,0.6700618267059326,0.43125811219215393,0.290875107049942,0.5022125840187073
12.477228164672852,-0.14095520973205566,-0.6338216066360474,0.6704432964324951,0.43087664246559143,0.2912565767765045,0.5014495849609375
12.497365236282349,-0.14095520973205566,-0.6338216066360474,0.6712062358856201,0.43011367321014404,0.290875107049942,0.501068115234375
12.517527341842651,-0.14057374000549316,-0.6342030763626099,0.6719691753387451,0.42935073375701904,0.290875107049942,0.5006866455078125
12.537586450576782,-0.14019227027893066,-0.6338216066360474,0.6723506450653076,0.42858776450157166,0.290875107049942,0.4999237060546875
12.557855367660522,-0.13981078565120697,-0.6338216066360474,0.6731135845184326,0.42782482504844666,0.290875107049942,0.4980163276195526
12.578001976013184,-0.13981078565120697,-0.6338216066360474,0.6738765835762024,0.42706188559532166,0.290875107049942,0.4972533881664276
12.598159313201904,-0.13981078565120697,-0.6338216066360474,0.6742580533027649,0.42668038606643677,0.2912565767765045,0.4964904189109802
12.618170261383057,-0.13904783129692078,-0.6338216066360474,0.6746395230293274,0.42629891633987427,0.2912565767765045,0.4953460097312927
12.638235807418823,-0.13866636157035828,-0.6334401369094849,0.6754024624824524,0.42553597688674927,0.290875107049942,0.49382010102272034
12.658387899398804,-0.13866636157035828,-0.6330586671829224,0.6761654019355774,0.4247730076313019,0.2904936373233795,0.49229419231414795
12.678476095199585,-0.13866636157035828,-0.6330586671829224,0.6765468716621399,0.4243915379047394,0.2912565767765045,0.49038681387901306
12.698590993881226,-0.13866636157035828,-0.6330586671829224,0.6776912808418274,0.4232471287250519,0.290875107049942,0.48962387442588806
12.718719482421875,-0.13828489184379578,-0.6330586671829224,0.6780728101730347,0.4228656589984894,0.290875107049942,0.4880979657173157
12.738810062408447,-0.13790340721607208,-0.6330586671829224,0.6788357496261597,0.422102689743042,0.290875107049942,0.4858091175556183
12.758853673934937,-0.13790340721607208,-0.6330586671829224,0.6792172193527222,0.4205767810344696,0.2904936373233795,0.4850461483001709
12.779022455215454,-0.13790340721607208,-0.6330586671829224,0.6799801588058472,0.4194323718547821,0.2904936373233795,0.4827573001384735
12.79912781715393,-0.13752193748950958,-0.6330586671829224,0.6803616285324097,0.4186694025993347,0.2904936373233795,0.4812313914299011
12.819222211837769,-0.13752193748950958,-0.6330586671829224,0.6807430982589722,0.4186694025993347,0.290875107049942,0.47856107354164124
12.839326620101929,-0.1371404528617859,-0.6330586671829224,0.6815060377120972,0.4182879328727722,0.290875107049942,0.47817960381507874
12.859458446502686,-0.1367589831352234,-0.6330586671829224,0.6818875670433044,0.4182879328727722,0.2904936373233795,0.47703516483306885
12.879788398742676,-0.1371404528617859,-0.6330586671829224,0.6822690367698669,0.4179064631462097,0.2904936373233795,0.47512778639793396
12.899895668029785,-0.1367589831352234,-0.6326771974563599,0.6830319762229919,0.41676202416419983,0.2904936373233795,0.47436484694480896
12.919986248016357,-0.1367589831352234,-0.6326771974563599,0.6837949156761169,0.41523614525794983,0.290112167596817,0.4732204079627991
12.940077543258667,-0.1367589831352234,-0.6326771974563599,0.6841763854026794,0.41485464572906494,0.2904936373233795,0.4713130295276642
12.960153341293335,-0.1363775134086609,-0.6326771974563599,0.6849393248558044,0.41294726729393005,0.2904936373233795,0.4705500900745392
12.98020076751709,-0.1356145590543747,-0.6326771974563599,0.6857023239135742,0.41256579756736755,0.2904936373233795,0.4694056510925293
13.00028657913208,-0.1356145590543747,-0.6322957277297974,0.6857023239135742,0.41180285811424255,0.290112167596817,0.4674982726573944
13.020519733428955,-0.1356145590543747,-0.6322957277297974,0.6868467330932617,0.41142138838768005,0.290112167596817,0.4667353332042694
13.04050874710083,-0.135233074426651,-0.6322957277297974,0.6868467330932617,0.41103988885879517,0.2904936373233795,0.465209424495697
13.060682773590088,-0.1348516047000885,-0.6322957277297974,0.6879911422729492,0.41027694940567017,0.290112167596817,0.46330204606056213
13.0807523727417,-0.1348516047000885,-0.6322957277297974,0.6887540817260742,0.40951400995254517,0.290875107049942,0.46215763688087463
13.100829839706421,-0.1348516047000885,-0.6319142580032349,0.6887540817260742,0.4087510406970978,0.290875107049942,0.45948728919029236
13.120914936065674,-0.1348516047000885,-0.6319142580032349,0.689517080783844,0.4079881012439728,0.290875107049942,0.45834288001060486
13.140993595123291,-0.1348516047000885,-0.6319142580032349,0.6906614899635315,0.4076066315174103,0.290875107049942,0.4556725323200226
13.16111946105957,-0.134470134973526,-0.6319142580032349,0.6914244294166565,0.4060807228088379,0.2904936373233795,0.4549095928668976
13.18117904663086,-0.1337071806192398,-0.6319142580032349,0.692568838596344,0.404936283826828,0.28973066806793213,0.4522392749786377
13.201236724853516,-0.1337071806192398,-0.6319142580032349,0.6929503083229065,0.404173344373703,0.290112167596817,0.4507133662700653
13.22132396697998,-0.1333257108926773,-0.6319142580032349,0.693331778049469,0.4037918746471405,0.2904936373233795,0.44804301857948303
13.24144697189331,-0.1329442262649536,-0.6319142580032349,0.6944762468338013,0.4026474356651306,0.290875107049942,0.44766154885292053
13.261792659759521,-0.1325627565383911,-0.6319142580032349,0.6948577165603638,0.4011215269565582,0.2904936373233795,0.44575417041778564
13.281912326812744,-0.13179980218410492,-0.6319142580032349,0.6952391862869263,0.3999771177768707,0.2904936373233795,0.44422826170921326
13.301958799362183,-0.13141833245754242,-0.6319142580032349,0.6960021257400513,0.39883267879486084,0.290112167596817,0.44308385252952576
13.322067022323608,-0.13065537810325623,-0.6319142580032349,0.6963835954666138,0.39768826961517334,0.290112167596817,0.44117647409439087
13.342155456542969,-0.13065537810325623,-0.6319142580032349,0.6971465349197388,0.39692530035972595,0.290112167596817,0.4396505653858185
13.362219333648682,-0.13065537810325623,-0.6319142580032349,0.6979095339775085,0.39616236090660095,0.290112167596817,0.4373617172241211
13.382435083389282,-0.13065537810325623,-0.6319142580032349,0.698291003704071,0.39501792192459106,0.290112167596817,0.4362172782421112
13.402465105056763,-0.13027389347553253,-0.6319142580032349,0.6994354128837585,0.39463645219802856,0.2904936373233795,0.4331654906272888
13.422650337219238,-0.12951095402240753,-0.6315327882766724,0.6994354128837585,0.39387351274490356,0.290112167596817,0.43202105164527893
13.44273829460144,-0.12912946939468384,-0.6315327882766724,0.7001983523368835,0.3931105434894562,0.28973066806793213,0.42973220348358154
13.462811708450317,-0.12912946939468384,-0.6311513185501099,0.700579822063446,0.3919661343097687,0.28896772861480713,0.42820629477500916
13.482916116714478,-0.12874799966812134,-0.6311513185501099,0.7009612917900085,0.3908216953277588,0.28896772861480713,0.42553597688674927
13.503013372421265,-0.12836651504039764,-0.6311513185501099,0.7013428211212158,0.3900587558746338,0.28896772861480713,0.4240100681781769
13.523114681243896,-0.12722209095954895,-0.6311513185501099,0.7024872303009033,0.3896772861480713,0.28896772861480713,0.4217212200164795
13.543182849884033,-0.12645913660526276,-0.6311513185501099,0.7032501697540283,0.3885328471660614,0.28934919834136963,0.4201953113079071
13.563297271728516,-0.12607766687870026,-0.6311513185501099,0.7047760486602783,0.3885328471660614,0.28934919834136963,0.4182879328727722
13.583338975906372,-0.12645913660526276,-0.6311513185501099,0.7051575779914856,0.3858625292778015,0.28934919834136963,0.4175249934196472
13.603432416915894,-0.12645913660526276,-0.6311513185501099,0.7055390477180481,0.3847180902957916,0.28934919834136963,0.41447317600250244
13.623534917831421,-0.12607766687870026,-0.6307697892189026,0.7066834568977356,0.38281071186065674,0.28896772861480713,0.41371023654937744
13.643576860427856,-0.12569619715213776,-0.6311513185501099,0.7066834568977356,0.38204777240753174,0.28858625888824463,0.41065841913223267
13.66373610496521,-0.12569619715213776,-0.6311513185501099,0.7070649266242981,0.38128480315208435,0.28858625888824463,0.40951400995254517
13.683773040771484,-0.12531471252441406,-0.6307697892189026,0.7074463963508606,0.38052186369895935,0.28858625888824463,0.4072251319885254
13.704096794128418,-0.12531471252441406,-0.6311513185501099,0.7078278660774231,0.37899595499038696,0.28858625888824463,0.4060807228088379
13.724261045455933,-0.12493324279785156,-0.6307697892189026,0.7089722752571106,0.3778515160083771,0.28820478916168213,0.4037918746471405
13.7442946434021,-0.12455176562070847,-0.6307697892189026,0.7097352743148804,0.3767071068286896,0.28858625888824463,0.4022659659385681
13.764380693435669,-0.12455176562070847,-0.6311513185501099,0.7101167440414429,0.3755626678466797,0.28858625888824463,0.3995956480503082
13.784606695175171,-0.12417028844356537,-0.6307697892189026,0.7108796834945679,0.3747997283935547,0.28858625888824463,0.39883267879486084
13.804577350616455,-0.12378881871700287,-0.6307697892189026,0.7112611532211304,0.3740367889404297,0.28858625888824463,0.39578089118003845
13.824761629104614,-0.12340734153985977,-0.6307697892189026,0.7124055624008179,0.3728923499584198,0.28782328963279724,0.39425498247146606
13.844830513000488,-0.12264438718557358,-0.6307697892189026,0.7131685614585876,0.3713664412498474,0.28744181990623474,0.3919661343097687
13.864928960800171,-0.12264438718557358,-0.6307697892189026,0.7135500311851501,0.3702220320701599,0.28706035017967224,0.3900587558746338
13.88510513305664,-0.12226291000843048,-0.6307697892189026,0.7143129706382751,0.36907759308815,0.28782328963279724,0.3877699077129364
13.905208587646484,-0.12111848592758179,-0.6307697892189026,0.7150759100914001,0.36755168437957764,0.28667888045310974,0.386243999004364
13.925295352935791,-0.1203555315732956,-0.6307697892189026,0.7158388495445251,0.36678874492645264,0.28667888045310974,0.38357365131378174
13.945389032363892,-0.1203555315732956,-0.6307697892189026,0.7166017889976501,0.36640727519989014,0.28706035017967224,0.38128480315208435
13.96579647064209,-0.1203555315732956,-0.6307697892189026,0.7169833183288574,0.36488136649131775,0.28706035017967224,0.38014039397239685
13.985882759094238,-0.1203555315732956,-0.6307697892189026,0.7177462577819824,0.36411839723587036,0.28667888045310974,0.3778515160083771
14.00602388381958,-0.11959258466959,-0.6307697892189026,0.7181277275085449,0.36335545778274536,0.28667888045310974,0.3755626678466797
14.02608346939087,-0.11959258466959,-0.6307697892189026,0.7188906669616699,0.36259251832962036,0.28515297174453735,0.3725108802318573
14.046258687973022,-0.1192111074924469,-0.6307697892189026,0.7204165458679199,0.361066609621048,0.28439003229141235,0.3717479109764099
14.066262006759644,-0.1192111074924469,-0.6307697892189026,0.7207980751991272,0.3595407009124756,0.28400853276252747,0.3686961233615875
14.086330652236938,-0.1188296303153038,-0.6307697892189026,0.7215610146522522,0.3587777614593506,0.28400853276252747,0.36678874492645264
14.106411933898926,-0.1184481605887413,-0.6307697892189026,0.7230868935585022,0.3580147922039032,0.28400853276252747,0.36526283621788025
14.126451015472412,-0.1184481605887413,-0.6307697892189026,0.7238498330116272,0.3568703830242157,0.28400853276252747,0.36297398805618286
14.146557569503784,-0.11768520623445511,-0.6307697892189026,0.7242313027381897,0.3557259440422058,0.28400853276252747,0.3606851398944855
14.166650772094727,-0.11654078215360641,-0.6307697892189026,0.7249943017959595,0.3549630045890808,0.28362706303596497,0.3576333224773407
14.186689853668213,-0.11615930497646332,-0.6307697892189026,0.725375771522522,0.3538185656070709,0.28324559330940247,0.3557259440422058
14.206795692443848,-0.11501488089561462,-0.6307697892189026,0.7257572412490845,0.35229265689849854,0.28248265385627747,0.3538185656070709
14.226902723312378,-0.11310750246047974,-0.6307697892189026,0.7265201807022095,0.35152971744537354,0.2817196846008301,0.35114824771881104
14.246975421905518,-0.11234454810619354,-0.6307697892189026,0.7272831201553345,0.35038527846336365,0.2813382148742676,0.34885939955711365
14.26704740524292,-0.11196307092905045,-0.6307697892189026,0.7280460596084595,0.34962233901023865,0.2817196846008301,0.34580758213996887
14.287183284759521,-0.11196307092905045,-0.6307697892189026,0.7291905283927917,0.34885939955711365,0.2821011543273926,0.3427557647228241
14.307778596878052,-0.11196307092905045,-0.6303883194923401,0.7299534678459167,0.34771496057510376,0.2821011543273926,0.3397039771080017
14.327879428863525,-0.11120012402534485,-0.6307697892189026,0.7307164072990417,0.34695202112197876,0.2817196846008301,0.3385595381259918
14.347968339920044,-0.11081864684820175,-0.6307697892189026,0.7318608164787292,0.34542611241340637,0.2805752754211426,0.33550775051116943
14.368019342422485,-0.11005569249391556,-0.6307697892189026,0.7318608164787292,0.344663143157959,0.2794308364391327,0.33360037207603455
14.388100147247314,-0.10929274559020996,-0.6307697892189026,0.7322422862052917,0.343900203704834,0.2790493667125702,0.33131152391433716
14.408201932907104,-0.10852979123592377,-0.6307697892189026,0.7330052852630615,0.343137264251709,0.2790493667125702,0.3278782367706299
14.428241491317749,-0.10814831405878067,-0.6307697892189026,0.734149694442749,0.3408484160900116,0.2790493667125702,0.325970858335495
14.44837999343872,-0.10700388997793198,-0.6307697892189026,0.735675573348999,0.3397039771080017,0.2794308364391327,0.3225375711917877
14.46849513053894,-0.10585946589708328,-0.6307697892189026,0.7368200421333313,0.3377965986728668,0.2794308364391327,0.31910428404808044
14.48851203918457,-0.10547798871994019,-0.6307697892189026,0.7375829815864563,0.3377965986728668,0.2794308364391327,0.31605249643325806
14.508677244186401,-0.10471503436565399,-0.6307697892189026,0.7391088604927063,0.3370336592197418,0.2790493667125702,0.3133821487426758
14.528769969940186,-0.10471503436565399,-0.6307697892189026,0.7398717999458313,0.33665215969085693,0.2786678969860077,0.3118562698364258
14.548807621002197,-0.10433356463909149,-0.6307697892189026,0.7402533292770386,0.33550775051116943,0.2779049277305603,0.3084229826927185
