liuyurong129/humanoid-gym/humanoid/data/actual_q_20250522-034841.csv
timestamp,joint_1,joint_2,joint_3,joint_4,joint_5,joint_6
5.2928924560546875e-05,0.00019073777366429567,0.16422522068023682,-0.08258945494890213,-0.00019073777366429567,0.00019073777366429567,-0.00019073777366429567
0.020136356353759766,0.000572213320992887,0.14248111844062805,-0.07343403995037079,-0.00019073777366429567,0.00019073777366429567,-0.00019073777366429567
0.04021930694580078,-0.00019073777366429567,0.12073700875043869,-0.06389715522527695,-0.00019073777366429567,0.002861066721379757,-0.00019073777366429567
0.06027841567993164,0.00019073777366429567,0.10700388997793198,-0.057793546468019485,-0.00019073777366429567,0.0009536888683214784,-0.00019073777366429567
0.08034539222717285,0.00019073777366429567,0.09708552807569504,-0.05130846053361893,-0.00019073777366429567,0.00019073777366429567,-0.00019073777366429567
0.10054516792297363,-0.00019073777366429567,0.0879301130771637,-0.045204851776361465,-0.00019073777366429567,0.000572213320992887,-0.00019073777366429567
0.12067103385925293,-0.000572213320992887,0.08297093212604523,-0.04139009863138199,-0.00019073777366429567,0.000572213320992887,-0.00019073777366429567
0.14072060585021973,-0.00019073777366429567,0.08335240930318832,-0.0398641936480999,-0.00019073777366429567,0.000572213320992887,-0.00019073777366429567
0.1608433723449707,-0.0009536888683214784,0.08220797777175903,-0.039101243019104004,-0.00019073777366429567,0.00019073777366429567,-0.00019073777366429567
0.18089032173156738,-0.0024795911740511656,0.08030059933662415,-0.039101243019104004,-0.00019073777366429567,0.000572213320992887,-0.00019073777366429567
0.20097661018371582,-0.0036240178160369396,0.07953765243291855,-0.038719769567251205,-0.000572213320992887,0.0009536888683214784,-0.00019073777366429567
0.22115182876586914,-0.00476844422519207,0.07877469807863235,-0.037193864583969116,-0.000572213320992887,0.0009536888683214784,-0.00019073777366429567
0.24135828018188477,-0.00667582219466567,0.07839322835206985,-0.03643091395497322,-0.000572213320992887,0.0009536888683214784,-0.00019073777366429567
0.26144933700561523,-0.0078202486038208,0.07763027399778366,-0.03528648987412453,-0.000572213320992887,0.0009536888683214784,-0.00019073777366429567
0.28151535987854004,-0.0078202486038208,0.07763027399778366,-0.03490501269698143,-0.000572213320992887,0.000572213320992887,-0.00019073777366429567
0.30159425735473633,-0.008964675478637218,0.07648584991693497,-0.03490501269698143,-0.000572213320992887,-0.00019073777366429567,-0.00019073777366429567
0.32180213928222656,-0.010109102353453636,0.07610437273979187,-0.03452353551983833,-0.0009536888683214784,0.000572213320992887,0.00019073777366429567
0.3417961597442627,-0.010872052982449532,0.07572289556264877,-0.03452353551983833,-0.0009536888683214784,0.00019073777366429567,-0.00019073777366429567
0.36190032958984375,-0.01201647985726595,0.07534141838550568,-0.03337911143898964,-0.0009536888683214784,0.000572213320992887,0.00019073777366429567
0.38198399543762207,-0.012779430486261845,0.07534141838550568,-0.032616160809993744,-0.0013351644156500697,0.00019073777366429567,-0.00019073777366429567
0.40204834938049316,-0.013542382046580315,0.07534141838550568,-0.032616160809993744,-0.001716639962978661,0.00019073777366429567,0.00019073777366429567
0.4221315383911133,-0.014686808921396732,0.07457847148180008,-0.03223468363285065,-0.001716639962978661,0.00019073777366429567,0.00019073777366429567
0.44221997261047363,-0.01506828423589468,0.07381551712751389,-0.03223468363285065,-0.0020981156267225742,0.00019073777366429567,-0.00019073777366429567
0.46233081817626953,-0.01506828423589468,0.07343403995037079,-0.03185320645570755,-0.0024795911740511656,0.00019073777366429567,-0.00019073777366429567
0.48248839378356934,-0.016594186425209045,0.07305257022380829,-0.03147173300385475,-0.002861066721379757,0.00019073777366429567,0.00019073777366429567
0.5025300979614258,-0.01773861236870289,0.07305257022380829,-0.030708782374858856,-0.0032425422687083483,0.000572213320992887,0.00019073777366429567
0.5226230621337891,-0.01926451548933983,0.0722896158695221,-0.03032730519771576,-0.0036240178160369396,0.000572213320992887,0.00019073777366429567
0.5427193641662598,-0.020027466118335724,0.0715266615152359,-0.029564354568719864,-0.0036240178160369396,0.00019073777366429567,0.00019073777366429567
0.56284499168396,-0.02079041674733162,0.0715266615152359,-0.029564354568719864,-0.0036240178160369396,0.00019073777366429567,0.00019073777366429567
0.5829057693481445,-0.021553369238972664,0.0711451917886734,-0.02880140393972397,-0.004005493130534887,0.00019073777366429567,0.00019073777366429567
0.6030130386352539,-0.02231631986796856,0.0711451917886734,-0.02880140393972397,-0.004005493130534887,0.00019073777366429567,0.00019073777366429567
0.6230912208557129,-0.023079270496964455,0.07038223743438721,-0.028038453310728073,-0.004386968910694122,0.00019073777366429567,0.00019073777366429567
0.6431901454925537,-0.02384222112596035,0.07000076025724411,-0.027656977996230125,-0.004386968910694122,0.00019073777366429567,0.00019073777366429567
0.6637301445007324,-0.024605173617601395,0.06961929053068161,-0.027656977996230125,-0.00476844422519207,0.000572213320992887,0.00019073777366429567
0.6838200092315674,-0.02536812424659729,0.06885633617639542,-0.02689402550458908,-0.005149920005351305,0.000572213320992887,0.00019073777366429567
0.7039375305175781,-0.026512550190091133,0.06885633617639542,-0.026512550190091133,-0.005531395319849253,0.000572213320992887,0.00019073777366429567
0.7241201400756836,-0.02727550081908703,0.06847485899925232,-0.026512550190091133,-0.006294346414506435,0.000572213320992887,0.00019073777366429567
0.7441227436065674,-0.02841992862522602,0.06809338182210922,-0.026131074875593185,-0.00667582219466567,0.00019073777366429567,0.00019073777366429567
0.7641947269439697,-0.029564354568719864,0.06809338182210922,-0.02536812424659729,-0.00667582219466567,0.00019073777366429567,0.00019073777366429567
0.7843689918518066,-0.029564354568719864,0.06733043491840363,-0.024986648932099342,-0.007057297509163618,0.00019073777366429567,0.00019073777366429567
0.8044276237487793,-0.02994582988321781,0.06694895774126053,-0.024605173617601395,-0.007057297509163618,0.00019073777366429567,0.00019073777366429567
0.8245358467102051,-0.031090257689356804,0.06618601083755493,-0.024223696440458298,-0.007438773289322853,0.00019073777366429567,0.00019073777366429567
0.8447079658508301,-0.03223468363285065,0.06580453366041183,-0.02384222112596035,-0.007438773289322853,0.000572213320992887,0.00019073777366429567
0.8647472858428955,-0.03376058489084244,0.06542305648326874,-0.023460745811462402,-0.007438773289322853,0.000572213320992887,0.00019073777366429567
0.8848564624786377,-0.03490501269698143,0.06504157930612564,-0.022697795182466507,-0.0078202486038208,0.000572213320992887,0.00019073777366429567
0.9049389362335205,-0.035667963325977325,0.06466010212898254,-0.02231631986796856,-0.0078202486038208,0.00019073777366429567,0.00019073777366429567
0.9250309467315674,-0.03681239113211632,0.06427863240242004,-0.02231631986796856,-0.0078202486038208,0.00019073777366429567,0.00019073777366429567
0.9451887607574463,-0.037193864583969116,0.06389715522527695,-0.021553369238972664,-0.008201723918318748,-0.00019073777366429567,0.00019073777366429567
0.9652237892150879,-0.03757534176111221,0.06351567804813385,-0.021171892061829567,-0.008201723918318748,0.00019073777366429567,0.00019073777366429567
0.9855360984802246,-0.039101243019104004,0.06313420087099075,-0.02079041674733162,-0.00858320016413927,0.00019073777366429567,0.00019073777366429567
1.0056581497192383,-0.040245670825242996,0.06275273114442825,-0.020027466118335724,-0.008964675478637218,0.000572213320992887,0.000572213320992887
1.0257112979888916,-0.04100862145423889,0.06198977679014206,-0.020027466118335724,-0.009346150793135166,0.00019073777366429567,0.000572213320992887
1.045799970626831,-0.042153049260377884,0.061226826161146164,-0.01926451548933983,-0.010109102353453636,0.00019073777366429567,0.000572213320992887
1.0659070014953613,-0.04253452271223068,0.06084534898400307,-0.01888304017484188,-0.010490577667951584,0.00019073777366429567,0.000572213320992887
1.0859551429748535,-0.04406042397022247,0.06084534898400307,-0.018501564860343933,-0.010872052982449532,-0.00019073777366429567,0.000572213320992887
1.1061182022094727,-0.04482337832450867,0.06046387553215027,-0.018120087683200836,-0.01125352829694748,-0.00019073777366429567,0.000572213320992887
1.1262233257293701,-0.045204851776361465,0.05970092490315437,-0.01773861236870289,-0.01125352829694748,-0.00019073777366429567,0.000572213320992887
1.146261215209961,-0.04634927958250046,0.05893797054886818,-0.016975661739706993,-0.01125352829694748,0.00019073777366429567,0.000572213320992887
1.1666069030761719,-0.04749370738863945,0.05855649709701538,-0.016594186425209045,-0.011635004542768002,0.00019073777366429567,0.000572213320992887
1.1869618892669678,-0.049782559275627136,0.057793546468019485,-0.016212711110711098,-0.011635004542768002,0.00019073777366429567,0.000572213320992887
1.2071053981781006,-0.05130846053361893,0.05703059583902359,-0.014686808921396732,-0.01201647985726595,0.00019073777366429567,0.0009536888683214784
1.2271177768707275,-0.051689937710762024,0.05664911866188049,-0.013923857361078262,-0.012397955171763897,-0.00019073777366429567,0.0009536888683214784
1.2472217082977295,-0.053215838968753815,0.0558861680328846,-0.013160906732082367,-0.013160906732082367,-0.00019073777366429567,0.0009536888683214784
1.2673077583312988,-0.054741740226745605,0.0555046908557415,-0.012397955171763897,-0.01430533267557621,-0.00019073777366429567,0.0009536888683214784
1.2877342700958252,-0.0558861680328846,0.0555046908557415,-0.01201647985726595,-0.014686808921396732,-0.00019073777366429567,0.0009536888683214784
1.3078460693359375,-0.05664911866188049,0.054741740226745605,-0.011635004542768002,-0.014686808921396732,-0.00019073777366429567,0.0009536888683214784
1.3279218673706055,-0.057793546468019485,0.05397878959774971,-0.01125352829694748,-0.01506828423589468,-0.00019073777366429567,0.0009536888683214784
1.347984790802002,-0.05893797054886818,0.05359731614589691,-0.010490577667951584,-0.01506828423589468,-0.00019073777366429567,0.0009536888683214784
1.3680775165557861,-0.059319447726011276,0.053215838968753815,-0.010109102353453636,-0.015449759550392628,0.00019073777366429567,0.0009536888683214784
1.3881251811981201,-0.06008239835500717,0.053215838968753815,-0.009727626107633114,-0.015449759550392628,-0.00019073777366429567,0.0009536888683214784
1.4082574844360352,-0.061226826161146164,0.05245288833975792,-0.009346150793135166,-0.015449759550392628,-0.00019073777366429567,0.0009536888683214784
1.4284107685089111,-0.06198977679014206,0.051689937710762024,-0.00858320016413927,-0.01583123579621315,-0.00019073777366429567,0.0009536888683214784
1.4485292434692383,-0.06313420087099075,0.05130846053361893,-0.008201723918318748,-0.016212711110711098,-0.000572213320992887,0.0009536888683214784
1.468630075454712,-0.06389715522527695,0.05092698708176613,-0.008201723918318748,-0.016594186425209045,-0.00019073777366429567,0.0009536888683214784
1.4887852668762207,-0.06504157930612564,0.05054550990462303,-0.0078202486038208,-0.016975661739706993,-0.00019073777366429567,0.0013351644156500697
1.5088398456573486,-0.06618601083755493,0.050164032727479935,-0.007057297509163618,-0.01773861236870289,0.00019073777366429567,0.0013351644156500697
1.5289323329925537,-0.06618601083755493,0.04940108209848404,-0.006294346414506435,-0.018120087683200836,-0.000572213320992887,0.0013351644156500697
1.5490334033966064,-0.06771191209554672,0.048638131469488144,-0.005531395319849253,-0.018120087683200836,-0.000572213320992887,0.0013351644156500697
1.569126844406128,-0.06885633617639542,0.048256658017635345,-0.005149920005351305,-0.018501564860343933,-0.00019073777366429567,0.0013351644156500697
1.5896587371826172,-0.07038223743438721,0.04749370738863945,-0.004386968910694122,-0.01888304017484188,-0.00019073777366429567,0.0013351644156500697
1.6096961498260498,-0.071908138692379,0.046730753034353256,-0.004005493130534887,-0.01888304017484188,-0.00019073777366429567,0.001716639962978661
1.6298627853393555,-0.07305257022380829,0.04634927958250046,-0.0032425422687083483,-0.01888304017484188,-0.00019073777366429567,0.001716639962978661
1.6502885818481445,-0.07305257022380829,0.04634927958250046,-0.002861066721379757,-0.01926451548933983,-0.000572213320992887,0.001716639962978661
1.6703910827636719,-0.07419699430465698,0.045204851776361465,-0.0020981156267225742,-0.01926451548933983,-0.0009536888683214784,0.001716639962978661
1.690514326095581,-0.07534141838550568,0.04444190114736557,-0.0013351644156500697,-0.019645990803837776,-0.000572213320992887,0.001716639962978661
1.7105903625488281,-0.07686731964349747,0.043678950518369675,-0.000572213320992887,-0.02040894143283367,-0.000572213320992887,0.0020981156267225742
1.7306606769561768,-0.07801175117492676,0.04329747334122658,0.00019073777366429567,-0.02079041674733162,-0.00019073777366429567,0.0020981156267225742
1.7507171630859375,-0.07877469807863235,0.04253452271223068,0.000572213320992887,-0.021553369238972664,0.00019073777366429567,0.0020981156267225742
1.7708020210266113,-0.07991912961006165,0.042153049260377884,0.0013351644156500697,-0.02193484455347061,-0.00019073777366429567,0.0024795911740511656
1.791062355041504,-0.08068207651376724,0.04139009863138199,0.0020981156267225742,-0.02231631986796856,-0.000572213320992887,0.0024795911740511656
1.811255931854248,-0.08144503086805344,0.040627144277095795,0.002861066721379757,-0.02231631986796856,-0.000572213320992887,0.0024795911740511656
1.8313534259796143,-0.08258945494890213,0.040245670825242996,0.0036240178160369396,-0.022697795182466507,-0.000572213320992887,0.002861066721379757
1.851435661315918,-0.08411535620689392,0.0398641936480999,0.004005493130534887,-0.022697795182466507,-0.000572213320992887,0.002861066721379757
1.8716206550598145,-0.08602273464202881,0.0394827201962471,0.00476844422519207,-0.023079270496964455,-0.00019073777366429567,0.002861066721379757
1.891709327697754,-0.0871671661734581,0.038719769567251205,0.005531395319849253,-0.023079270496964455,-0.00019073777366429567,0.0032425422687083483
1.9118013381958008,-0.0875486359000206,0.03833829239010811,0.005912871100008488,-0.023460745811462402,-0.000572213320992887,0.0036240178160369396
1.9318726062774658,-0.08869306743144989,0.037193864583969116,0.00667582219466567,-0.02384222112596035,-0.0009536888683214784,0.004005493130534887
1.951970100402832,-0.08983749151229858,0.03681239113211632,0.007438773289322853,-0.02384222112596035,-0.000572213320992887,0.004005493130534887
1.97202730178833,-0.09250781685113907,0.03604944050312042,0.008201723918318748,-0.024986648932099342,-0.000572213320992887,0.004005493130534887
1.9921112060546875,-0.09403372555971146,0.03490501269698143,0.008964675478637218,-0.025749599561095238,-0.000572213320992887,0.004005493130534887
2.01218318939209,-0.09479667246341705,0.034142062067985535,0.010109102353453636,-0.026131074875593185,-0.000572213320992887,0.004005493130534887
2.032258987426758,-0.09555962681770325,0.03337911143898964,0.010490577667951584,-0.026131074875593185,-0.0009536888683214784,0.004386968910694122
2.0523343086242676,-0.09670405089855194,0.032616160809993744,0.011635004542768002,-0.026512550190091133,-0.000572213320992887,0.004386968910694122
2.072392702102661,-0.09899290651082993,0.03223468363285065,0.012397955171763897,-0.026512550190091133,-0.000572213320992887,0.004386968910694122
2.092482089996338,-0.10013733059167862,0.031090257689356804,0.013160906732082367,-0.02689402550458908,-0.000572213320992887,0.004386968910694122
2.112558364868164,-0.10128175467252731,0.03032730519771576,0.01430533267557621,-0.02689402550458908,-0.000572213320992887,0.004386968910694122
2.132824182510376,-0.10204470902681351,0.029182879254221916,0.01506828423589468,-0.02727550081908703,-0.0009536888683214784,0.004386968910694122
2.1529176235198975,-0.1031891331076622,0.028038453310728073,0.01583123579621315,-0.027656977996230125,-0.0009536888683214784,0.00476844422519207
2.1729869842529297,-0.10433356463909149,0.027656977996230125,0.016594186425209045,-0.02841992862522602,-0.000572213320992887,0.00476844422519207
2.1930770874023438,-0.10585946589708328,0.02689402550458908,0.01773861236870289,-0.029182879254221916,-0.000572213320992887,0.00476844422519207
2.2131471633911133,-0.10738536715507507,0.025749599561095238,0.01888304017484188,-0.029564354568719864,-0.00019073777366429567,0.00476844422519207
2.233198404312134,-0.10929274559020996,0.024986648932099342,0.019645990803837776,-0.02994582988321781,-0.00019073777366429567,0.00476844422519207
2.253295421600342,-0.11005569249391556,0.02384222112596035,0.021171892061829567,-0.02994582988321781,-0.0009536888683214784,0.00476844422519207
2.27337384223938,-0.11081864684820175,0.023079270496964455,0.02193484455347061,-0.02994582988321781,-0.0009536888683214784,0.005149920005351305
2.2934744358062744,-0.11234454810619354,0.022697795182466507,0.022697795182466507,-0.03032730519771576,-0.0009536888683214784,0.005149920005351305
2.313610553741455,-0.11463340371847153,0.021553369238972664,0.02384222112596035,-0.030708782374858856,-0.00019073777366429567,0.005149920005351305
2.3336896896362305,-0.11654078215360641,0.020027466118335724,0.024986648932099342,-0.031090257689356804,-0.000572213320992887,0.005149920005351305
2.354339361190796,-0.11768520623445511,0.018501564860343933,0.02536812424659729,-0.03185320645570755,-0.00019073777366429567,0.005149920005351305
2.374539613723755,-0.1192111074924469,0.01735713705420494,0.02689402550458908,-0.03223468363285065,-0.000572213320992887,0.005531395319849253
2.394559383392334,-0.12073700875043869,0.016975661739706993,0.02727550081908703,-0.03337911143898964,-0.000572213320992887,0.005531395319849253
2.414654016494751,-0.12302586436271667,0.015449759550392628,0.02880140393972397,-0.03376058489084244,-0.000572213320992887,0.005531395319849253
2.434824228286743,-0.12417028844356537,0.01430533267557621,0.02994582988321781,-0.034142062067985535,-0.000572213320992887,0.005531395319849253
2.454911708831787,-0.12607766687870026,0.012779430486261845,0.03147173300385475,-0.03452353551983833,-0.000572213320992887,0.005912871100008488
2.4749927520751953,-0.12798504531383514,0.010872052982449532,0.032616160809993744,-0.03528648987412453,-0.000572213320992887,0.006294346414506435
2.4950578212738037,-0.12951095402240753,0.010109102353453636,0.03376058489084244,-0.03604944050312042,-0.00019073777366429567,0.006294346414506435
2.515141725540161,-0.13141833245754242,0.008201723918318748,0.03528648987412453,-0.03681239113211632,-0.00019073777366429567,0.00667582219466567
2.535288095474243,-0.1329442262649536,0.006294346414506435,0.03757534176111221,-0.037193864583969116,-0.000572213320992887,0.007057297509163618
2.555401563644409,-0.135233074426651,0.005531395319849253,0.03833829239010811,-0.03757534176111221,-0.000572213320992887,0.0078202486038208
2.575526475906372,-0.13752193748950958,0.004005493130534887,0.040245670825242996,-0.03795681521296501,-0.000572213320992887,0.008201723918318748
2.595553398132324,-0.13866636157035828,0.0020981156267225742,0.04177157208323479,-0.03833829239010811,-0.000572213320992887,0.008201723918318748
2.6159231662750244,-0.14057374000549316,0.0009536888683214784,0.04253452271223068,-0.03833829239010811,-0.00019073777366429567,0.00858320016413927
2.6360130310058594,-0.14324407279491425,-0.0013351644156500697,0.04482337832450867,-0.0394827201962471,0.00019073777366429567,0.00858320016413927
2.6563220024108887,-0.14591439068317413,-0.004386968910694122,0.046730753034353256,-0.04139009863138199,0.00019073777366429567,0.00858320016413927
2.676442861557007,-0.14820325374603271,-0.007057297509163618,0.04940108209848404,-0.04177157208323479,-0.00019073777366429567,0.00858320016413927
2.6965606212615967,-0.1501106321811676,-0.008201723918318748,0.05092698708176613,-0.042153049260377884,-0.00019073777366429567,0.008964675478637218
2.7165791988372803,-0.152399480342865,-0.010109102353453636,0.05245288833975792,-0.04253452271223068,-0.00019073777366429567,0.009346150793135166
2.73677396774292,-0.15430685877799988,-0.013160906732082367,0.0555046908557415,-0.04329747334122658,-0.00019073777366429567,0.009346150793135166
2.7567644119262695,-0.15659570693969727,-0.016975661739706993,0.057793546468019485,-0.04444190114736557,0.00019073777366429567,0.009727626107633114
2.7768428325653076,-0.15964750945568085,-0.02079041674733162,0.061226826161146164,-0.04482337832450867,0.000572213320992887,0.010109102353453636
2.7969396114349365,-0.16117341816425323,-0.023079270496964455,0.06351567804813385,-0.045204851776361465,0.00019073777366429567,0.010490577667951584
2.817082166671753,-0.16308079659938812,-0.025749599561095238,0.06618601083755493,-0.04558632895350456,0.00019073777366429567,0.01125352829694748
2.837197780609131,-0.1661325991153717,-0.029564354568719864,0.06961929053068161,-0.04558632895350456,0.00019073777366429567,0.01201647985726595
2.8572781085968018,-0.1684214472770691,-0.03337911143898964,0.071908138692379,-0.04596780240535736,0.00019073777366429567,0.01201647985726595
2.8773841857910156,-0.17071031033992767,-0.037193864583969116,0.07495994865894318,-0.04634927958250046,0.00019073777366429567,0.01201647985726595
2.8974711894989014,-0.17299915850162506,-0.040627144277095795,0.07877469807863235,-0.04711223021149635,0.000572213320992887,0.01201647985726595
2.9175684452056885,-0.17490653693675995,-0.04329747334122658,0.08106355369091034,-0.048638131469488144,0.00019073777366429567,0.012397955171763897
2.937631845474243,-0.17872129380702972,-0.048638131469488144,0.0864042118191719,-0.04940108209848404,0.0009536888683214784,0.012397955171763897
2.957749128341675,-0.1825360506772995,-0.05436026677489281,0.09060044586658478,-0.050164032727479935,0.0009536888683214784,0.012397955171763897
2.9778647422790527,-0.18749523162841797,-0.06160829961299896,0.09670405089855194,-0.051689937710762024,0.0009536888683214784,0.012779430486261845
2.997981309890747,-0.19054703414440155,-0.06733043491840363,0.10166323184967041,-0.05245288833975792,0.0013351644156500697,0.012779430486261845
3.0182647705078125,-0.1958876997232437,-0.07419699430465698,0.10852979123592377,-0.05283436179161072,0.000572213320992887,0.013160906732082367
3.0383756160736084,-0.200083926320076,-0.08220797777175903,0.11654078215360641,-0.053215838968753815,0.000572213320992887,0.013542382046580315
3.058499574661255,-0.20428015291690826,-0.09288929402828217,0.12417028844356537,-0.05359731614589691,0.0009536888683214784,0.01430533267557621
3.078653573989868,-0.20847637951374054,-0.10433356463909149,0.135233074426651,-0.05436026677489281,0.0009536888683214784,0.01506828423589468
3.0986788272857666,-0.21190966665744781,-0.11196307092905045,0.14400701224803925,-0.0555046908557415,0.0020981156267225742,0.015449759550392628
3.118811845779419,-0.21686884760856628,-0.12340734153985977,0.15621423721313477,-0.05664911866188049,0.002861066721379757,0.01583123579621315
3.13887095451355,-0.22220951318740845,-0.13942931592464447,0.17109178006649017,-0.057793546468019485,0.0032425422687083483,0.016212711110711098
3.158986806869507,-0.2290760725736618,-0.16155488789081573,0.18787670135498047,-0.06008239835500717,0.005149920005351305,0.016975661739706993
3.179046630859375,-0.23708705604076385,-0.182154580950737,0.21190966665744781,-0.06198977679014206,0.005531395319849253,0.018120087683200836
3.1991384029388428,-0.2439536154270172,-0.1997024416923523,0.2317463904619217,-0.06389715522527695,0.007438773289322853,0.019645990803837776
3.219186305999756,-0.25234606862068176,-0.22297245264053345,0.2592126429080963,-0.06504157930612564,0.008201723918318748,0.02040894143283367
3.239320755004883,-0.2626459002494812,-0.25501641631126404,0.2912565767765045,-0.06771191209554672,0.009727626107633114,0.02079041674733162
3.2593820095062256,-0.2744716703891754,-0.28858625888824463,0.3240634799003601,-0.07000076025724411,0.010490577667951584,0.02231631986796856
3.279698133468628,-0.28706035017967224,-0.31795987486839294,0.3595407009124756,-0.0722896158695221,0.010109102353453636,0.023079270496964455
3.2997887134552,-0.2977416515350342,-0.34504464268684387,0.3923476040363312,-0.07343403995037079,0.010490577667951584,0.02536812424659729
3.3198628425598145,-0.30498969554901123,-0.3755626678466797,0.42820629477500916,-0.07572289556264877,0.009727626107633114,0.02841992862522602
3.339946746826172,-0.3107118308544159,-0.4072251319885254,0.464446485042572,-0.07686731964349747,0.008964675478637218,0.02994582988321781
3.3600683212280273,-0.31528952717781067,-0.4358358085155487,0.49496451020240784,-0.07877469807863235,0.0078202486038208,0.031090257689356804
3.380129098892212,-0.31834134459495544,-0.45834288001060486,0.5201418995857239,-0.07915617525577545,0.0078202486038208,0.03185320645570755
3.4002480506896973,-0.32024872303009033,-0.47550925612449646,0.5430304408073425,-0.07953765243291855,0.007438773289322853,0.03299763426184654
3.4203906059265137,-0.32024872303009033,-0.49267566204071045,0.5624856948852539,-0.08030059933662415,0.01125352829694748,0.03490501269698143
3.440443515777588,-0.31986725330352783,-0.5132753252983093,0.5842298269271851,-0.08182650804519653,0.012779430486261845,0.03528648987412453
3.460574150085449,-0.31910428404808044,-0.534637987613678,0.6048294901847839,-0.08258945494890213,0.019645990803837776,0.03643091395497322
3.480604887008667,-0.31910428404808044,-0.5590524077415466,0.6239032745361328,-0.08335240930318832,0.024986648932099342,0.03757534176111221
3.50068998336792,-0.31757840514183044,-0.5781261920928955,0.6433585286140442,-0.08449683338403702,0.028038453310728073,0.03833829239010811
3.5208044052124023,-0.31681543588638306,-0.5964370369911194,0.6597619652748108,-0.0864042118191719,0.03032730519771576,0.038719769567251205
3.5409653186798096,-0.31567102670669556,-0.619325578212738,0.6792172193527222,-0.0879301130771637,0.031090257689356804,0.039101243019104004
3.5610530376434326,-0.31490805745124817,-0.6410696506500244,0.7001983523368835,-0.08945601433515549,0.03147173300385475,0.0394827201962471
3.581141948699951,-0.31414511799812317,-0.6647211313247681,0.7215610146522522,-0.09098191559314728,0.032616160809993744,0.040627144277095795
3.601212739944458,-0.3122377395629883,-0.6872282028198242,0.7444495558738708,-0.09136339277029037,0.03376058489084244,0.04177157208323479
3.6212871074676514,-0.3110933005809784,-0.7051575779914856,0.7646677494049072,-0.09174486994743347,0.034142062067985535,0.04291599988937378
3.641449451446533,-0.3099488914012909,-0.7280460596084595,0.7906080484390259,-0.09212634712457657,0.03643091395497322,0.04444190114736557
3.6615426540374756,-0.3091859221458435,-0.7482643127441406,0.8077744841575623,-0.09403372555971146,0.03833829239010811,0.04558632895350456
3.6815969944000244,-0.308804452419281,-0.7722972631454468,0.8249408602714539,-0.09517814964056015,0.04177157208323479,0.04634927958250046
3.701739549636841,-0.3076600432395935,-0.7978560924530029,0.846684992313385,-0.09784847497940063,0.04596780240535736,0.046730753034353256
3.721813917160034,-0.3057526648044586,-0.8176928162574768,0.8642328381538391,-0.09822995215654373,0.04901960864663124,0.04749370738863945
3.741880416870117,-0.30422675609588623,-0.8348592519760132,0.8783474564552307,-0.09899290651082993,0.05207141116261482,0.04901960864663124
3.761967897415161,-0.30308231711387634,-0.8539330363273621,0.8958953022956848,-0.09975585341453552,0.0551232174038887,0.049782559275627136
3.782062530517578,-0.30231937766075134,-0.8752956390380859,0.9119172692298889,-0.10204470902681351,0.05741206929087639,0.05054550990462303
3.8031251430511475,-0.30117493867874146,-0.8993285894393921,0.9294651746749878,-0.1035706102848053,0.06084534898400307,0.051689937710762024
3.8232312202453613,-0.29850462079048157,-0.9210727214813232,0.9489204287528992,-0.10509651154279709,0.06313420087099075,0.05397878959774971
3.8433475494384766,-0.2973601818084717,-0.9378576278686523,0.9637979865074158,-0.10585946589708328,0.06542305648326874,0.054741740226745605
3.863398790359497,-0.2958342730998993,-0.9561684727668762,0.9802014231681824,-0.10662241280078888,0.06885633617639542,0.056267641484737396
3.883492946624756,-0.2946898639202118,-0.9748607873916626,0.997367799282074,-0.10891126841306686,0.07343403995037079,0.05741206929087639
3.903548240661621,-0.2946898639202118,-0.9908827543258667,1.0103379487991333,-0.10967422276735306,0.07763027399778366,0.057793546468019485
3.9236361980438232,-0.2927824854850769,-1.0072861909866333,1.028648853302002,-0.11158160120248795,0.08220797777175903,0.05893797054886818
3.943718910217285,-0.2927824854850769,-1.0183489322662354,1.0423818826675415,-0.11387044936418533,0.086785688996315,0.06084534898400307
3.9638476371765137,-0.290875107049942,-1.033226490020752,1.0591669082641602,-0.11463340371847153,0.09021896868944168,0.06198977679014206
3.983992576599121,-0.290875107049942,-1.0416189432144165,1.0721369981765747,-0.11692225188016891,0.09517814964056015,0.06504157930612564
4.004268646240234,-0.290875107049942,-1.051155924797058,1.0866330862045288,-0.1192111074924469,0.1028076633810997,0.06618601083755493
4.024417400360107,-0.290875107049942,-1.0587854385375977,1.098840355873108,-0.12264438718557358,0.10929274559020996,0.06847485899925232
4.044510841369629,-0.290875107049942,-1.0652704238891602,1.1125733852386475,-0.12531471252441406,0.11654078215360641,0.0715266615152359
4.064549684524536,-0.2931639552116394,-1.0728999376296997,1.124399185180664,-0.12760357558727264,0.12417028844356537,0.07305257022380829
4.0846617221832275,-0.2977416515350342,-1.0790035724639893,1.1343175172805786,-0.12874799966812134,0.1359960287809372,0.07648584991693497
4.104700565338135,-0.30270084738731384,-1.0831998586654663,1.1392767429351807,-0.12989242374897003,0.152399480342865,0.07991912961006165
4.12479043006897,-0.3099488914012909,-1.0900664329528809,1.1453803777694702,-0.13179980218410492,0.1668955534696579,0.08335240930318832
4.144912004470825,-0.31567102670669556,-1.0961699485778809,1.1499580144882202,-0.1348516047000885,0.17986571788787842,0.086785688996315
4.164970397949219,-0.32063019275665283,-1.102655053138733,1.1545357704162598,-0.1367589831352234,0.19283588230609894,0.09021896868944168
4.185046911239624,-0.3248264193534851,-1.110666036605835,1.1614023447036743,-0.13904783129692078,0.200083926320076,0.09327077120542526
4.205207347869873,-0.3263523280620575,-1.116388201713562,1.1675058603286743,-0.14095520973205566,0.20618753135204315,0.09632257372140884
4.2252891063690186,-0.3274967670440674,-1.1224918365478516,1.1758984327316284,-0.14095520973205566,0.21229113638401031,0.09861142933368683
4.245518445968628,-0.3271152675151825,-1.1278324127197266,1.185816764831543,-0.14171816408634186,0.21725031733512878,0.10013733059167862
4.265486478805542,-0.3271152675151825,-1.1308842897415161,1.193827748298645,-0.14171816408634186,0.22220951318740845,0.10013733059167862
4.285634279251099,-0.3263523280620575,-1.1354619264602661,1.2029831409454346,-0.14095520973205566,0.2302204966545105,0.10128175467252731
4.30570387840271,-0.325970858335495,-1.1404211521148682,1.2106126546859741,-0.14019227027893066,0.23975738883018494,0.1024261862039566
4.325958967208862,-0.3255893886089325,-1.1465247869491577,1.2151904106140137,-0.13904783129692078,0.25120165944099426,0.1031891331076622
4.346039772033691,-0.325970858335495,-1.1541543006896973,1.2201495170593262,-0.13828489184379578,0.264934778213501,0.10585946589708328
4.366218090057373,-0.3271152675151825,-1.1617838144302368,1.2266346216201782,-0.13866636157035828,0.2775234580039978,0.10852979123592377
4.386324167251587,-0.3286411762237549,-1.1675058603286743,1.2319753170013428,-0.13904783129692078,0.28973066806793213,0.11081864684820175
4.40639853477478,-0.33093002438545227,-1.1739909648895264,1.2384604215621948,-0.13828489184379578,0.29812315106391907,0.11387044936418533
4.426583290100098,-0.33283740282058716,-1.1774243116378784,1.2453268766403198,-0.1371404528617859,0.30231937766075134,0.1184481605887413
4.446732521057129,-0.33512628078460693,-1.1827648878097534,1.2521934509277344,-0.13027389347553253,0.30422675609588623,0.1203555315732956
4.466808557510376,-0.33588922023773193,-1.1861982345581055,1.257534146308899,-0.12455176562070847,0.3084229826927185,0.12417028844356537
4.4868690967559814,-0.3374151289463043,-1.190394401550293,1.259060025215149,-0.12073700875043869,0.3099488914012909,0.12569619715213776
4.506977558135986,-0.33665215969085693,-1.196879506111145,1.2636377811431885,-0.11959258466959,0.31376364827156067,0.12836651504039764
4.527039051055908,-0.33588922023773193,-1.2045090198516846,1.2674524784088135,-0.1199740618467331,0.31795987486839294,0.12912946939468384
4.547118425369263,-0.33436331152915955,-1.2098497152328491,1.272793173789978,-0.12073700875043869,0.3217746317386627,0.13179980218410492
4.56722617149353,-0.33398184180259705,-1.2151904106140137,1.278515338897705,-0.12226291000843048,0.3271152675151825,0.1333257108926773
4.587384462356567,-0.33398184180259705,-1.2190051078796387,1.2850003242492676,-0.12111848592758179,0.3397039771080017,0.1337071806192398
4.607508182525635,-0.33398184180259705,-1.2205309867858887,1.2903410196304321,-0.11463340371847153,0.34504464268684387,0.1340886503458023
4.627622365951538,-0.33588922023773193,-1.2228199243545532,1.2937743663787842,-0.10700388997793198,0.34580758213996887,0.1359960287809372
4.6477015018463135,-0.3381780683994293,-1.2243458032608032,1.2953002452850342,-0.1024261862039566,0.34847790002822876,0.1367589831352234
4.667800426483154,-0.3393225073814392,-1.2285419702529907,1.2960631847381592,-0.1024261862039566,0.35000380873680115,0.13866636157035828
4.687838315963745,-0.3393225073814392,-1.2346456050872803,1.2983520030975342,-0.1035706102848053,0.35076677799224854,0.13942931592464447
4.707917928695679,-0.3389410376548767,-1.2418936491012573,1.3021668195724487,-0.1031891331076622,0.34885939955711365,0.14057374000549316
4.7279887199401855,-0.33588922023773193,-1.2472343444824219,1.3059815168380737,-0.10624094307422638,0.34580758213996887,0.14286258816719055
4.7482709884643555,-0.33474478125572205,-1.2487602233886719,1.3094148635864258,-0.10891126841306686,0.3435187339782715,0.14362554252147675
4.7683632373809814,-0.33512628078460693,-1.2491416931152344,1.3151369094848633,-0.10509651154279709,0.34542611241340637,0.14362554252147675
4.788481950759888,-0.33512628078460693,-1.2491416931152344,1.3189517259597778,-0.09784847497940063,0.34885939955711365,0.14362554252147675
4.8088459968566895,-0.33588922023773193,-1.2472343444824219,1.3216220140457153,-0.09060044586658478,0.3538185656070709,0.14400701224803925
4.828973293304443,-0.3397039771080017,-1.2483787536621094,1.3193331956863403,-0.0871671661734581,0.3622110188007355,0.14362554252147675
4.849036931991577,-0.3404669165611267,-1.2499046325683594,1.3185702562332153,-0.0871671661734581,0.36793315410614014,0.14362554252147675
4.869507312774658,-0.3416113555431366,-1.2563897371292114,1.3189517259597778,-0.09136339277029037,0.36907759308815,0.14286258816719055
4.88958740234375,-0.3408484160900116,-1.2628748416900635,1.3227664232254028,-0.09098191559314728,0.36755168437957764,0.14362554252147675
4.909667015075684,-0.3408484160900116,-1.269359827041626,1.3269627094268799,-0.09365224838256836,0.36449989676475525,0.14400701224803925
4.929746150970459,-0.3393225073814392,-1.269741415977478,1.3303959369659424,-0.09594109654426575,0.36259251832962036,0.14362554252147675
4.949848651885986,-0.3381780683994293,-1.2689783573150635,1.335736632347107,-0.09441519528627396,0.3572518527507782,0.14362554252147675
4.969963550567627,-0.3381780683994293,-1.266308069229126,1.339551329612732,-0.08487831056118011,0.3553444743156433,0.14362554252147675
4.990055799484253,-0.3381780683994293,-1.2644007205963135,1.3391698598861694,-0.07686731964349747,0.3583962619304657,0.14362554252147675
5.010222434997559,-0.3400854468345642,-1.261348843574524,1.3368810415267944,-0.07343403995037079,0.3606851398944855,0.14362554252147675
5.030306339263916,-0.3423742949962616,-1.261348843574524,1.333447813987732,-0.0722896158695221,0.3702220320701599,0.14324407279491425
5.050428152084351,-0.343900203704834,-1.2621119022369385,1.3319218158721924,-0.07724879682064056,0.3763256371021271,0.14286258816719055
5.070519924163818,-0.3442816734313965,-1.269359827041626,1.3345922231674194,-0.07839322835206985,0.3770885765552521,0.14095520973205566
5.090588808059692,-0.343900203704834,-1.2754634618759155,1.335736632347107,-0.07953765243291855,0.3740367889404297,0.14095520973205566
5.1106836795806885,-0.343137264251709,-1.280041217803955,1.3403143882751465,-0.08373387902975082,0.3736552894115448,0.14133669435977936
5.1307759284973145,-0.3419928252696991,-1.2796597480773926,1.342984676361084,-0.08373387902975082,0.3686961233615875,0.13981078565120697
5.150814771652222,-0.3412298858165741,-1.2762264013290405,1.3464179039001465,-0.07839322835206985,0.36297398805618286,0.13981078565120697
5.170903205871582,-0.3416113555431366,-1.273556113243103,1.346799373626709,-0.07000076025724411,0.36488136649131775,0.13904783129692078
5.191023588180542,-0.3423742949962616,-1.2682154178619385,1.346799373626709,-0.06389715522527695,0.3686961233615875,0.13866636157035828
5.211122751235962,-0.344663143157959,-1.267833948135376,1.3426032066345215,-0.06313420087099075,0.3713664412498474,0.13790340721607208
5.231196403503418,-0.34771496057510376,-1.267833948135376,1.338025450706482,-0.06389715522527695,0.38052186369895935,0.1348516047000885
5.251614809036255,-0.34809643030166626,-1.270504355430603,1.338788390159607,-0.06733043491840363,0.3858625292778015,0.1329442262649536
5.271704196929932,-0.34733349084854126,-1.2762264013290405,1.339932918548584,-0.06923781335353851,0.38319218158721924,0.13141833245754242
5.291764974594116,-0.34618905186653137,-1.2834744453430176,1.3418402671813965,-0.0715266615152359,0.3767071068286896,0.13179980218410492
5.311846971511841,-0.3442816734313965,-1.28385591506958,1.344510555267334,-0.07305257022380829,0.3736552894115448,0.13141833245754242
5.331918716430664,-0.3419928252696991,-1.2827115058898926,1.349469780921936,-0.07267109304666519,0.3702220320701599,0.13141833245754242
5.351979494094849,-0.3423742949962616,-1.27927827835083,1.354047417640686,-0.06771191209554672,0.36602577567100525,0.13103684782981873
5.372067928314209,-0.3423742949962616,-1.2762264013290405,1.354047417640686,-0.06198977679014206,0.36678874492645264,0.13027389347553253
5.392229080200195,-0.343900203704834,-1.271267294883728,1.3513771295547485,-0.0555046908557415,0.368314653635025,0.12836651504039764
5.41245174407959,-0.34733349084854126,-1.269741415977478,1.3456549644470215,-0.051689937710762024,0.3755626678466797,0.12722209095954895
5.432534694671631,-0.34771496057510376,-1.2701228857040405,1.3441290855407715,-0.054741740226745605,0.38014039397239685,0.12684062123298645
5.452600955963135,-0.34885939955711365,-1.272793173789978,1.341458797454834,-0.05970092490315437,0.38166627287864685,0.12417028844356537
5.472697019577026,-0.34924086928367615,-1.278515338897705,1.3410773277282715,-0.06351567804813385,0.38166627287864685,0.12378881871700287
5.492786645889282,-0.34847790002822876,-1.2834744453430176,1.3433661460876465,-0.07038223743438721,0.37861448526382446,0.12455176562070847
5.512824296951294,-0.34695202112197876,-1.284618854522705,1.3464179039001465,-0.07457847148180008,0.3763256371021271,0.12340734153985977
5.532913684844971,-0.34504464268684387,-1.2827115058898926,1.350995659828186,-0.071908138692379,0.369840532541275,0.12302586436271667
5.553065299987793,-0.3442816734313965,-1.27927827835083,1.3551918268203735,-0.06275273114442825,0.368314653635025,0.12264438718557358
5.573325157165527,-0.3442816734313965,-1.273556113243103,1.355954885482788,-0.05245288833975792,0.3709849715232849,0.12226291000843048
5.5934131145477295,-0.34657052159309387,-1.2708858251571655,1.351758599281311,-0.04711223021149635,0.3744182586669922,0.12111848592758179
5.613508939743042,-0.34962233901023865,-1.269741415977478,1.3464179039001465,-0.04444190114736557,0.38242924213409424,0.1199740618467331
5.633780479431152,-0.34962233901023865,-1.270504355430603,1.3448920249938965,-0.04787518084049225,0.3873884081840515,0.1192111074924469
5.653874158859253,-0.35000380873680115,-1.2754634618759155,1.3441290855407715,-0.05359731614589691,0.3854810297489166,0.11577782779932022
5.674013137817383,-0.34924086928367615,-1.28385591506958,1.3456549644470215,-0.0555046908557415,0.38319218158721924,0.11577782779932022
5.694061279296875,-0.34885939955711365,-1.2865263223648071,1.347562313079834,-0.061226826161146164,0.37861448526382446,0.11615930497646332
5.714155912399292,-0.34657052159309387,-1.2884336709976196,1.3506141901016235,-0.06694895774126053,0.3759441375732422,0.11501488089561462
5.734227180480957,-0.3442816734313965,-1.2865263223648071,1.3544288873672485,-0.06542305648326874,0.36717021465301514,0.11387044936418533
5.754342317581177,-0.3442816734313965,-1.281567096710205,1.3570992946624756,-0.057793546468019485,0.36678874492645264,0.11348897218704224
5.774491786956787,-0.344663143157959,-1.276607871055603,1.355954885482788,-0.04901960864663124,0.3709849715232849,0.11272602528333664
5.794470310211182,-0.34695202112197876,-1.272793173789978,1.353284478187561,-0.04482337832450867,0.3751811981201172,0.11234454810619354
5.8145482540130615,-0.34885939955711365,-1.2716487646102905,1.3490883111953735,-0.043678950518369675,0.38357365131378174,0.11158160120248795
5.834702968597412,-0.34962233901023865,-1.272030234336853,1.347562313079834,-0.049782559275627136,0.3885328471660614,0.11005569249391556
5.854787111282349,-0.34962233901023865,-1.2773709297180176,1.3471808433532715,-0.05245288833975792,0.3885328471660614,0.10509651154279709
5.874865293502808,-0.34962233901023865,-1.283092975616455,1.347943902015686,-0.053215838968753815,0.3854810297489166,0.10547798871994019
5.894954204559326,-0.34885939955711365,-1.2903410196304321,1.350232720375061,-0.057793546468019485,0.38204777240753174,0.10624094307422638
5.9156553745269775,-0.34771496057510376,-1.2907224893569946,1.3529030084609985,-0.06084534898400307,0.3767071068286896,0.10585946589708328
5.935815334320068,-0.3442816734313965,-1.2872892618179321,1.356717824935913,-0.06046387553215027,0.36755168437957764,0.10585946589708328
5.955841064453125,-0.343137264251709,-1.2827115058898926,1.359006643295288,-0.053215838968753815,0.36640727519989014,0.10547798871994019
5.975923776626587,-0.3435187339782715,-1.2788968086242676,1.3586251735687256,-0.04558632895350456,0.3709849715232849,0.10585946589708328
5.9959986209869385,-0.34580758213996887,-1.2731746435165405,1.3570992946624756,-0.043678950518369675,0.3751811981201172,0.10585946589708328
6.016054153442383,-0.34962233901023865,-1.2724117040634155,1.3506141901016235,-0.04253452271223068,0.38357365131378174,0.10471503436565399
6.0361950397491455,-0.35114824771881104,-1.272030234336853,1.346799373626709,-0.045204851776361465,0.3915846347808838,0.1039520874619484
6.056304216384888,-0.35191118717193604,-1.2762264013290405,1.346799373626709,-0.050164032727479935,0.3908216953277588,0.10166323184967041
6.07703971862793,-0.35114824771881104,-1.2842373847961426,1.347562313079834,-0.049782559275627136,0.3877699077129364,0.10013733059167862
6.09728479385376,-0.35038527846336365,-1.2869077920913696,1.350995659828186,-0.05397878959774971,0.38052186369895935,0.10090028494596481
6.1172544956207275,-0.34847790002822876,-1.2891966104507446,1.353284478187561,-0.05664911866188049,0.3744182586669922,0.09975585341453552
6.137347221374512,-0.34504464268684387,-1.2872892618179321,1.357480764389038,-0.0558861680328846,0.36526283621788025,0.09975585341453552
6.1574225425720215,-0.3442816734313965,-1.2827115058898926,1.3586251735687256,-0.050164032727479935,0.36526283621788025,0.09937438368797302
6.177534818649292,-0.34542611241340637,-1.2769893407821655,1.358243703842163,-0.043678950518369675,0.369840532541275,0.09899290651082993
6.197762727737427,-0.34733349084854126,-1.274319052696228,1.354047417640686,-0.040627144277095795,0.3755626678466797,0.09822995215654373
6.217957496643066,-0.34924086928367615,-1.2739375829696655,1.350995659828186,-0.04139009863138199,0.38357365131378174,0.09822995215654373
6.237974166870117,-0.35076677799224854,-1.2739375829696655,1.347943902015686,-0.043678950518369675,0.3904402256011963,0.09784847497940063
6.2582244873046875,-0.35152971744537354,-1.278515338897705,1.3490883111953735,-0.046730753034353256,0.3923476040363312,0.09708552807569504
6.278178930282593,-0.35114824771881104,-1.2853819131851196,1.3498512506484985,-0.04901960864663124,0.3885328471660614,0.09670405089855194
6.2983009815216064,-0.35000380873680115,-1.2880522012710571,1.3529030084609985,-0.05283436179161072,0.3843366205692291,0.09670405089855194
6.319040060043335,-0.34847790002822876,-1.2888151407241821,1.355954885482788,-0.05397878959774971,0.3770885765552521,0.09670405089855194
6.33912467956543,-0.34542611241340637,-1.2861448526382446,1.359769582748413,-0.05245288833975792,0.36793315410614014,0.09670405089855194
6.359193325042725,-0.343900203704834,-1.2819485664367676,1.3616769313812256,-0.04634927958250046,0.368314653635025,0.09632257372140884
6.379611968994141,-0.34504464268684387,-1.2762264013290405,1.3624398708343506,-0.0398641936480999,0.3717479109764099,0.09594109654426575
6.399708271026611,-0.34695202112197876,-1.2731746435165405,1.357480764389038,-0.03757534176111221,0.3759441375732422,0.09403372555971146
6.4198079109191895,-0.34924086928367615,-1.272793173789978,1.352521538734436,-0.037193864583969116,0.3858625292778015,0.09327077120542526
6.439950466156006,-0.35038527846336365,-1.2731746435165405,1.350995659828186,-0.04177157208323479,0.39425498247146606,0.09327077120542526
6.459994792938232,-0.35152971744537354,-1.2788968086242676,1.3513771295547485,-0.04406042397022247,0.3923476040363312,0.08983749151229858
6.480092525482178,-0.35114824771881104,-1.2869077920913696,1.3521400690078735,-0.04596780240535736,0.3885328471660614,0.09021896868944168
6.500194787979126,-0.35000380873680115,-1.2880522012710571,1.355954885482788,-0.04940108209848404,0.3843366205692291,0.09021896868944168
6.520296096801758,-0.34847790002822876,-1.2876707315444946,1.357480764389038,-0.049782559275627136,0.3755626678466797,0.09021896868944168
6.540334224700928,-0.34733349084854126,-1.283092975616455,1.3586251735687256,-0.04787518084049225,0.3694590628147125,0.09060044586658478
6.560494899749756,-0.34657052159309387,-1.27927827835083,1.359769582748413,-0.042153049260377884,0.3706035017967224,0.09021896868944168
6.580578804016113,-0.34733349084854126,-1.2754634618759155,1.359006643295288,-0.035667963325977325,0.3744182586669922,0.09021896868944168
6.600648641586304,-0.34885939955711365,-1.273556113243103,1.3551918268203735,-0.03185320645570755,0.3778515160083771,0.08983749151229858
6.620805740356445,-0.34962233901023865,-1.2739375829696655,1.351758599281311,-0.03337911143898964,0.3847180902957916,0.08983749151229858
6.640902996063232,-0.35191118717193604,-1.275081992149353,1.3498512506484985,-0.03757534176111221,0.3908216953277588,0.08945601433515549
6.660955190658569,-0.35229265689849854,-1.2804226875305176,1.3506141901016235,-0.043678950518369675,0.3923476040363312,0.0875486359000206
6.681054353713989,-0.35191118717193604,-1.2853819131851196,1.350995659828186,-0.04787518084049225,0.3889143168926239,0.086785688996315
6.701145887374878,-0.35076677799224854,-1.2865263223648071,1.3555734157562256,-0.050164032727479935,0.3843366205692291,0.086785688996315
6.721229791641235,-0.34924086928367615,-1.2850003242492676,1.358243703842163,-0.04901960864663124,0.3770885765552521,0.0864042118191719
6.741295337677002,-0.34847790002822876,-1.2811856269836426,1.359769582748413,-0.04329747334122658,0.369840532541275,0.0864042118191719
6.761376619338989,-0.34847790002822876,-1.2762264013290405,1.3593881130218506,-0.03643091395497322,0.3713664412498474,0.0864042118191719
6.781477451324463,-0.34885939955711365,-1.272030234336853,1.3563363552093506,-0.030708782374858856,0.3747997283935547,0.0864042118191719
6.801572561264038,-0.34924086928367615,-1.2716487646102905,1.3513771295547485,-0.02994582988321781,0.37823301553726196,0.08564125746488571
6.821660757064819,-0.34924086928367615,-1.272030234336853,1.3490883111953735,-0.03376058489084244,0.3873884081840515,0.08525978773832321
6.8417487144470215,-0.35038527846336365,-1.2762264013290405,1.3490883111953735,-0.03681239113211632,0.3919661343097687,0.08220797777175903
6.861994981765747,-0.35114824771881104,-1.2811856269836426,1.3513771295547485,-0.042153049260377884,0.3923476040363312,0.08182650804519653
6.881967067718506,-0.35038527846336365,-1.2861448526382446,1.3529030084609985,-0.04711223021149635,0.3915846347808838,0.08182650804519653
6.902062892913818,-0.34962233901023865,-1.2869077920913696,1.356717824935913,-0.048638131469488144,0.3850995600223541,0.08144503086805344
6.922152519226074,-0.34924086928367615,-1.28385591506958,1.358243703842163,-0.046730753034353256,0.3778515160083771,0.08182650804519653
6.9421961307525635,-0.34962233901023865,-1.27927827835083,1.3593881130218506,-0.0398641936480999,0.3747997283935547,0.08144503086805344
6.962289810180664,-0.34962233901023865,-1.2762264013290405,1.3578622341156006,-0.03032730519771576,0.3759441375732422,0.08182650804519653
6.9824512004852295,-0.34962233901023865,-1.2724117040634155,1.3555734157562256,-0.02689402550458908,0.3770885765552521,0.08182650804519653
7.002739667892456,-0.34962233901023865,-1.272793173789978,1.350232720375061,-0.02727550081908703,0.37975889444351196,0.08144503086805344
7.022874355316162,-0.34962233901023865,-1.273556113243103,1.3498512506484985,-0.03299763426184654,0.3858625292778015,0.08144503086805344
7.042884349822998,-0.34962233901023865,-1.27927827835083,1.348706841468811,-0.038719769567251205,0.3927290737628937,0.07953765243291855
7.062972784042358,-0.34924086928367615,-1.2834744453430176,1.3506141901016235,-0.045204851776361465,0.39425498247146606,0.07877469807863235
7.08305811882019,-0.34924086928367615,-1.2861448526382446,1.3536659479141235,-0.05054550990462303,0.39425498247146606,0.07839322835206985
7.103131294250488,-0.34924086928367615,-1.2861448526382446,1.3563363552093506,-0.04940108209848404,0.3923476040363312,0.07801175117492676
7.123220205307007,-0.34924086928367615,-1.2819485664367676,1.359006643295288,-0.043678950518369675,0.3881513774394989,0.07763027399778366
7.143369197845459,-0.34962233901023865,-1.278515338897705,1.3601510524749756,-0.035667963325977325,0.3843366205692291,0.07763027399778366
7.163776159286499,-0.35038527846336365,-1.2747005224227905,1.3601510524749756,-0.02994582988321781,0.38052186369895935,0.07801175117492676
7.1838884353637695,-0.35152971744537354,-1.272793173789978,1.3551918268203735,-0.027656977996230125,0.37861448526382446,0.07801175117492676
7.203928709030151,-0.35152971744537354,-1.272793173789978,1.3506141901016235,-0.028038453310728073,0.37899595499038696,0.07801175117492676
7.224326848983765,-0.35076677799224854,-1.275844931602478,1.349469780921936,-0.03604944050312042,0.38166627287864685,0.07724879682064056
7.244470596313477,-0.34847790002822876,-1.2804226875305176,1.3506141901016235,-0.0398641936480999,0.38204777240753174,0.07648584991693497
7.264556407928467,-0.34580758213996887,-1.2869077920913696,1.3529030084609985,-0.04482337832450867,0.38128480315208435,0.07724879682064056
7.284664630889893,-0.343900203704834,-1.2869077920913696,1.3570992946624756,-0.048638131469488144,0.38242924213409424,0.07610437273979187
7.304726839065552,-0.3442816734313965,-1.28385591506958,1.359006643295288,-0.04749370738863945,0.38319218158721924,0.07495994865894318
7.324775457382202,-0.34618905186653137,-1.278515338897705,1.3616769313812256,-0.040245670825242996,0.3900587558746338,0.07419699430465698
7.34489893913269,-0.35076677799224854,-1.275081992149353,1.359006643295288,-0.030708782374858856,0.39387351274490356,0.07419699430465698
7.3649725914001465,-0.3526741564273834,-1.2724117040634155,1.3551918268203735,-0.026512550190091133,0.3927290737628937,0.07457847148180008
7.3850297927856445,-0.3526741564273834,-1.2716487646102905,1.352521538734436,-0.02689402550458908,0.3919661343097687,0.07495994865894318
7.405239105224609,-0.3545815348625183,-1.272030234336853,1.3498512506484985,-0.031090257689356804,0.3877699077129364,0.07457847148180008
7.425252437591553,-0.35191118717193604,-1.276607871055603,1.3506141901016235,-0.034142062067985535,0.3854810297489166,0.07457847148180008
7.445313930511475,-0.34847790002822876,-1.283092975616455,1.350232720375061,-0.0398641936480999,0.37823301553726196,0.07495994865894318
7.465422868728638,-0.3442816734313965,-1.2861448526382446,1.3536659479141235,-0.045204851776361465,0.3744182586669922,0.07495994865894318
7.485523223876953,-0.3419928252696991,-1.2853819131851196,1.355954885482788,-0.04749370738863945,0.3732738196849823,0.07495994865894318
7.5055530071258545,-0.3419928252696991,-1.2811856269836426,1.358243703842163,-0.04558632895350456,0.3751811981201172,0.07457847148180008
7.525672435760498,-0.34504464268684387,-1.2769893407821655,1.3586251735687256,-0.0394827201962471,0.38090333342552185,0.07419699430465698
7.545739412307739,-0.34962233901023865,-1.271267294883728,1.358243703842163,-0.03147173300385475,0.3881513774394989,0.07419699430465698
7.565856695175171,-0.35152971744537354,-1.2701228857040405,1.354047417640686,-0.028038453310728073,0.39387351274490356,0.07381551712751389
7.585883855819702,-0.3526741564273834,-1.269741415977478,1.351758599281311,-0.028038453310728073,0.3927290737628937,0.07343403995037079
7.605989933013916,-0.3538185656070709,-1.270504355430603,1.3498512506484985,-0.02994582988321781,0.3900587558746338,0.0722896158695221
7.6260645389556885,-0.3534370958805084,-1.2762264013290405,1.349469780921936,-0.03223468363285065,0.386243999004364,0.0722896158695221
7.646158933639526,-0.35114824771881104,-1.28385591506958,1.3506141901016235,-0.038719769567251205,0.38052186369895935,0.07305257022380829
7.666262865066528,-0.34733349084854126,-1.2850003242492676,1.3521400690078735,-0.04482337832450867,0.3706035017967224,0.0722896158695221
7.686376333236694,-0.3435187339782715,-1.284618854522705,1.3555734157562256,-0.04711223021149635,0.36678874492645264,0.07267109304666519
7.706421852111816,-0.3423742949962616,-1.281567096710205,1.3586251735687256,-0.04482337832450867,0.36602577567100525,0.0722896158695221
7.726472616195679,-0.3419928252696991,-1.276607871055603,1.3609139919281006,-0.038719769567251205,0.369840532541275,0.0722896158695221
7.746567487716675,-0.3442816734313965,-1.271267294883728,1.3586251735687256,-0.03223468363285065,0.3763256371021271,0.071908138692379
7.76666259765625,-0.35000380873680115,-1.2689783573150635,1.353284478187561,-0.029564354568719864,0.3877699077129364,0.071908138692379
7.786757230758667,-0.35152971744537354,-1.268596887588501,1.349469780921936,-0.03032730519771576,0.39654383063316345,0.0715266615152359
7.806812524795532,-0.3526741564273834,-1.269741415977478,1.3483253717422485,-0.035667963325977325,0.39654383063316345,0.0711451917886734
7.82693886756897,-0.3530556261539459,-1.2762264013290405,1.348706841468811,-0.03643091395497322,0.3934920132160187,0.0711451917886734
7.846980571746826,-0.3530556261539459,-1.28080415725708,1.3498512506484985,-0.03833829239010811,0.3850995600223541,0.0715266615152359
7.86704158782959,-0.35038527846336365,-1.2869077920913696,1.3521400690078735,-0.04406042397022247,0.37937742471694946,0.0711451917886734
7.887118577957153,-0.34618905186653137,-1.2865263223648071,1.3555734157562256,-0.04444190114736557,0.36717021465301514,0.0711451917886734
7.907234191894531,-0.343137264251709,-1.2834744453430176,1.359006643295288,-0.04253452271223068,0.361829549074173,0.071908138692379
7.927490949630737,-0.3423742949962616,-1.27927827835083,1.360532522201538,-0.038719769567251205,0.36449989676475525,0.0715266615152359
7.947634220123291,-0.3423742949962616,-1.2762264013290405,1.359769582748413,-0.03376058489084244,0.3702220320701599,0.0715266615152359
7.967822790145874,-0.344663143157959,-1.2716487646102905,1.357480764389038,-0.03223468363285065,0.3774700462818146,0.0715266615152359
7.988103151321411,-0.34847790002822876,-1.272030234336853,1.352521538734436,-0.03223468363285065,0.3889143168926239,0.0711451917886734
8.008135318756104,-0.35076677799224854,-1.2731746435165405,1.3506141901016235,-0.035667963325977325,0.39578089118003845,0.0711451917886734
8.028190612792969,-0.35114824771881104,-1.278515338897705,1.3498512506484985,-0.03795681521296501,0.39463645219802856,0.0711451917886734
8.048260927200317,-0.34885939955711365,-1.2819485664367676,1.352521538734436,-0.04329747334122658,0.3908216953277588,0.0711451917886734
8.068321704864502,-0.34885939955711365,-1.2857633829116821,1.3551918268203735,-0.04596780240535736,0.3839551508426666,0.0711451917886734
8.088402271270752,-0.34618905186653137,-1.2834744453430176,1.3578622341156006,-0.04558632895350456,0.3751811981201172,0.0711451917886734
8.108484983444214,-0.34504464268684387,-1.280041217803955,1.359769582748413,-0.04177157208323479,0.3706035017967224,0.0715266615152359
8.128612041473389,-0.34580758213996887,-1.2754634618759155,1.360532522201538,-0.03452353551983833,0.3728923499584198,0.0711451917886734
8.148714780807495,-0.34695202112197876,-1.272793173789978,1.3570992946624756,-0.029182879254221916,0.3747997283935547,0.0715266615152359
8.168809413909912,-0.34733349084854126,-1.2716487646102905,1.354047417640686,-0.029564354568719864,0.37937742471694946,0.0711451917886734
8.188884258270264,-0.34771496057510376,-1.272030234336853,1.3521400690078735,-0.03185320645570755,0.386243999004364,0.0711451917886734
8.208970069885254,-0.34962233901023865,-1.275081992149353,1.350995659828186,-0.03528648987412453,0.3923476040363312,0.0711451917886734
8.229084730148315,-0.34924086928367615,-1.28080415725708,1.3513771295547485,-0.040627144277095795,0.3923476040363312,0.0711451917886734
8.24915623664856,-0.34885939955711365,-1.283092975616455,1.354810357093811,-0.045204851776361465,0.3908216953277588,0.0707637146115303
8.26923131942749,-0.34847790002822876,-1.2853819131851196,1.3578622341156006,-0.04634927958250046,0.3873884081840515,0.0711451917886734
8.289418458938599,-0.34847790002822876,-1.2819485664367676,1.359769582748413,-0.04444190114736557,0.38052186369895935,0.0715266615152359
8.309519052505493,-0.34885939955711365,-1.2781338691711426,1.360532522201538,-0.039101243019104004,0.3763256371021271,0.0715266615152359
8.329626083374023,-0.34962233901023865,-1.2724117040634155,1.3586251735687256,-0.031090257689356804,0.3755626678466797,0.0711451917886734
8.349695444107056,-0.34962233901023865,-1.2701228857040405,1.3529030084609985,-0.028038453310728073,0.3759441375732422,0.0715266615152359
8.369846105575562,-0.34962233901023865,-1.270504355430603,1.350232720375061,-0.029564354568719864,0.3778515160083771,0.0715266615152359
8.389869213104248,-0.34962233901023865,-1.2724117040634155,1.3490883111953735,-0.034142062067985535,0.38014039397239685,0.0711451917886734
8.409963846206665,-0.34924086928367615,-1.2773709297180176,1.3490883111953735,-0.03757534176111221,0.3866254687309265,0.0711451917886734
8.4300537109375,-0.34847790002822876,-1.2827115058898926,1.3513771295547485,-0.04291599988937378,0.3900587558746338,0.0715266615152359
8.45032262802124,-0.34695202112197876,-1.2861448526382446,1.354810357093811,-0.04901960864663124,0.3912031650543213,0.0711451917886734
8.470389127731323,-0.34618905186653137,-1.2842373847961426,1.359006643295288,-0.048256658017635345,0.3889143168926239,0.0711451917886734
8.490483045578003,-0.34657052159309387,-1.281567096710205,1.3616769313812256,-0.04329747334122658,0.387006938457489,0.0711451917886734
8.510688543319702,-0.34885939955711365,-1.276607871055603,1.3639658689498901,-0.034142062067985535,0.3866254687309265,0.0711451917886734
8.530776500701904,-0.35114824771881104,-1.2739375829696655,1.3593881130218506,-0.027656977996230125,0.3850995600223541,0.0707637146115303
8.550857782363892,-0.35191118717193604,-1.273556113243103,1.3544288873672485,-0.024605173617601395,0.3850995600223541,0.0711451917886734
8.57090973854065,-0.35191118717193604,-1.2739375829696655,1.3521400690078735,-0.029564354568719864,0.3843366205692291,0.0715266615152359
8.591036319732666,-0.35076677799224854,-1.276607871055603,1.3506141901016235,-0.034142062067985535,0.38281071186065674,0.0707637146115303
8.611146450042725,-0.34847790002822876,-1.28080415725708,1.350995659828186,-0.03833829239010811,0.3751811981201172,0.0711451917886734
8.631234645843506,-0.34504464268684387,-1.284618854522705,1.351758599281311,-0.04444190114736557,0.3732738196849823,0.0707637146115303
8.651333808898926,-0.3427557647228241,-1.284618854522705,1.354810357093811,-0.04787518084049225,0.3740367889404297,0.0707637146115303
8.671420097351074,-0.3419928252696991,-1.2819485664367676,1.357480764389038,-0.046730753034353256,0.3747997283935547,0.0711451917886734
8.691601276397705,-0.3427557647228241,-1.2773709297180176,1.3593881130218506,-0.040627144277095795,0.3850995600223541,0.0707637146115303
8.711689710617065,-0.34771496057510376,-1.272793173789978,1.3578622341156006,-0.03147173300385475,0.3927290737628937,0.0707637146115303
8.731752634048462,-0.3526741564273834,-1.269741415977478,1.354810357093811,-0.02841992862522602,0.39539939165115356,0.0711451917886734
8.751936435699463,-0.3534370958805084,-1.269741415977478,1.3513771295547485,-0.02841992862522602,0.39578089118003845,0.0707637146115303
8.771974802017212,-0.3538185656070709,-1.269741415977478,1.3498512506484985,-0.031090257689356804,0.3908216953277588,0.0707637146115303
8.7921724319458,-0.3534370958805084,-1.275844931602478,1.3490883111953735,-0.03223468363285065,0.3847180902957916,0.0711451917886734
8.812268018722534,-0.34962233901023865,-1.2796597480773926,1.350232720375061,-0.03681239113211632,0.37823301553726196,0.0711451917886734
8.832414388656616,-0.34504464268684387,-1.283092975616455,1.3513771295547485,-0.045204851776361465,0.369840532541275,0.0707637146115303
8.852574825286865,-0.343900203704834,-1.283092975616455,1.3536659479141235,-0.04749370738863945,0.36640727519989014,0.0711451917886734
8.872672080993652,-0.3427557647228241,-1.2796597480773926,1.3563363552093506,-0.04634927958250046,0.36907759308815,0.0711451917886734
8.892756700515747,-0.3427557647228241,-1.2754634618759155,1.3578622341156006,-0.039101243019104004,0.3751811981201172,0.0711451917886734
8.912875175476074,-0.34657052159309387,-1.271267294883728,1.355954885482788,-0.03147173300385475,0.38014039397239685,0.0711451917886734
8.932951211929321,-0.35076677799224854,-1.269741415977478,1.354047417640686,-0.029564354568719864,0.3900587558746338,0.0711451917886734
8.953011512756348,-0.35114824771881104,-1.268596887588501,1.349469780921936,-0.02994582988321781,0.39463645219802856,0.07038223743438721
8.97308087348938,-0.35152971744537354,-1.2689783573150635,1.3471808433532715,-0.032616160809993744,0.39425498247146606,0.07038223743438721
8.993160724639893,-0.35152971744537354,-1.2747005224227905,1.347943902015686,-0.03490501269698143,0.3919661343097687,0.07038223743438721
9.013261795043945,-0.35152971744537354,-1.2811856269836426,1.349469780921936,-0.040245670825242996,0.3850995600223541,0.0707637146115303
9.033348083496094,-0.34885939955711365,-1.2842373847961426,1.353284478187561,-0.045204851776361465,0.3774700462818146,0.0711451917886734
9.053484439849854,-0.34618905186653137,-1.283092975616455,1.355954885482788,-0.04596780240535736,0.369840532541275,0.0711451917886734
9.073527336120605,-0.344663143157959,-1.2788968086242676,1.3578622341156006,-0.04329747334122658,0.3702220320701599,0.0711451917886734
9.093672752380371,-0.34542611241340637,-1.275081992149353,1.358243703842163,-0.03604944050312042,0.3732738196849823,0.0711451917886734
9.113681316375732,-0.34580758213996887,-1.2689783573150635,1.358243703842163,-0.02994582988321781,0.37861448526382446,0.0711451917886734
9.133768081665039,-0.34962233901023865,-1.267833948135376,1.353284478187561,-0.027656977996230125,0.3858625292778015,0.0707637146115303
9.153868198394775,-0.35076677799224854,-1.267833948135376,1.350232720375061,-0.028038453310728073,0.39463645219802856,0.0707637146115303
9.17395544052124,-0.35191118717193604,-1.269741415977478,1.348706841468811,-0.03337911143898964,0.39539939165115356,0.07000076025724411
9.194040298461914,-0.35152971744537354,-1.2754634618759155,1.3506141901016235,-0.03490501269698143,0.3919661343097687,0.06923781335353851
9.21412181854248,-0.35000380873680115,-1.28233003616333,1.353284478187561,-0.039101243019104004,0.3847180902957916,0.07000076025724411
9.234253883361816,-0.34924086928367615,-1.2834744453430176,1.354810357093811,-0.04291599988937378,0.38090333342552185,0.07000076025724411
9.254369497299194,-0.34580758213996887,-1.281567096710205,1.3586251735687256,-0.043678950518369675,0.3709849715232849,0.0707637146115303
9.27442717552185,-0.3442816734313965,-1.278515338897705,1.3609139919281006,-0.039101243019104004,0.36907759308815,0.07038223743438721
9.294653177261353,-0.34504464268684387,-1.2739375829696655,1.362058401107788,-0.03223468363285065,0.3717479109764099,0.0707637146115303
9.314752340316772,-0.34657052159309387,-1.269741415977478,1.3586251735687256,-0.02841992862522602,0.3774700462818146,0.07038223743438721
9.33481764793396,-0.34962233901023865,-1.269359827041626,1.353284478187561,-0.02689402550458908,0.3847180902957916,0.07038223743438721
9.354898452758789,-0.35076677799224854,-1.269741415977478,1.3513771295547485,-0.02994582988321781,0.3912031650543213,0.07038223743438721
9.37506651878357,-0.35191118717193604,-1.2731746435165405,1.3506141901016235,-0.035667963325977325,0.3927290737628937,0.06885633617639542
9.395299911499023,-0.35076677799224854,-1.2788968086242676,1.350995659828186,-0.037193864583969116,0.3889143168926239,0.06885633617639542
9.4154212474823,-0.34924086928367615,-1.281567096710205,1.354047417640686,-0.04329747334122658,0.3847180902957916,0.06961929053068161
9.435523986816406,-0.34885939955711365,-1.2842373847961426,1.356717824935913,-0.04444190114736557,0.38014039397239685,0.06923781335353851
9.455611944198608,-0.34657052159309387,-1.2811856269836426,1.3586251735687256,-0.042153049260377884,0.3706035017967224,0.06923781335353851
9.475671768188477,-0.34618905186653137,-1.2762264013290405,1.3593881130218506,-0.03757534176111221,0.3706035017967224,0.07038223743438721
9.495766878128052,-0.34657052159309387,-1.272793173789978,1.359006643295288,-0.03147173300385475,0.3744182586669922,0.07038223743438721
9.515993118286133,-0.34733349084854126,-1.2689783573150635,1.3555734157562256,-0.027656977996230125,0.3778515160083771,0.07038223743438721
9.536181211471558,-0.34885939955711365,-1.269741415977478,1.3521400690078735,-0.02841992862522602,0.38319218158721924,0.07038223743438721
9.556247472763062,-0.34962233901023865,-1.270504355430603,1.350232720375061,-0.03337911143898964,0.3919661343097687,0.07000076025724411
9.57641053199768,-0.35038527846336365,-1.276607871055603,1.350995659828186,-0.03757534176111221,0.39425498247146606,0.06961929053068161
9.596663475036621,-0.35038527846336365,-1.28233003616333,1.352521538734436,-0.04177157208323479,0.3908216953277588,0.06961929053068161
9.616765260696411,-0.34924086928367615,-1.2850003242492676,1.3563363552093506,-0.04482337832450867,0.3873884081840515,0.06961929053068161
9.63683295249939,-0.34847790002822876,-1.2853819131851196,1.3593881130218506,-0.04482337832450867,0.38166627287864685,0.06961929053068161
9.656942367553711,-0.34618905186653137,-1.281567096710205,1.362821340560913,-0.04253452271223068,0.3706035017967224,0.07038223743438721
9.677019119262695,-0.34657052159309387,-1.27775239944458,1.362058401107788,-0.035667963325977325,0.3709849715232849,0.07000076025724411
9.697154998779297,-0.34695202112197876,-1.272793173789978,1.3609139919281006,-0.029564354568719864,0.3770885765552521,0.0711451917886734
9.717293500900269,-0.34733349084854126,-1.2716487646102905,1.3551918268203735,-0.02841992862522602,0.37899595499038696,0.0707637146115303
9.737343549728394,-0.34885939955711365,-1.2708858251571655,1.3513771295547485,-0.02994582988321781,0.387006938457489,0.0707637146115303
9.757438659667969,-0.34962233901023865,-1.2739375829696655,1.3506141901016235,-0.03490501269698143,0.39425498247146606,0.07038223743438721
9.77751088142395,-0.34962233901023865,-1.27927827835083,1.351758599281311,-0.03757534176111221,0.3927290737628937,0.06885633617639542
9.797616004943848,-0.34885939955711365,-1.2869077920913696,1.3536659479141235,-0.04291599988937378,0.3912031650543213,0.06885633617639542
9.818309783935547,-0.34885939955711365,-1.2876707315444946,1.357480764389038,-0.04596780240535736,0.3877699077129364,0.06885633617639542
9.838398456573486,-0.34809643030166626,-1.2850003242492676,1.3601510524749756,-0.04558632895350456,0.38090333342552185,0.06885633617639542
9.858485460281372,-0.34733349084854126,-1.28080415725708,1.3616769313812256,-0.0394827201962471,0.3736552894115448,0.06885633617639542
9.87890625,-0.34771496057510376,-1.2739375829696655,1.362058401107788,-0.03147173300385475,0.3732738196849823,0.06923781335353851
9.899001836776733,-0.34809643030166626,-1.270504355430603,1.3570992946624756,-0.02536812424659729,0.3740367889404297,0.07038223743438721
9.919099569320679,-0.34924086928367615,-1.2689783573150635,1.3506141901016235,-0.024223696440458298,0.37823301553726196,0.07000076025724411
9.93949818611145,-0.34962233901023865,-1.269741415977478,1.348706841468811,-0.027656977996230125,0.387006938457489,0.07000076025724411
9.959673643112183,-0.34962233901023865,-1.273556113243103,1.347943902015686,-0.030708782374858856,0.3904402256011963,0.06885633617639542
9.979679107666016,-0.34924086928367615,-1.28080415725708,1.3498512506484985,-0.03643091395497322,0.3904402256011963,0.06847485899925232
9.9997718334198,-0.34847790002822876,-1.28385591506958,1.3521400690078735,-0.04291599988937378,0.3900587558746338,0.06847485899925232
10.019881963729858,-0.34809643030166626,-1.2850003242492676,1.3563363552093506,-0.04634927958250046,0.3881513774394989,0.06847485899925232
10.040123701095581,-0.34847790002822876,-1.283092975616455,1.3593881130218506,-0.045204851776361465,0.38357365131378174,0.06809338182210922
10.06032943725586,-0.34809643030166626,-1.2788968086242676,1.3624398708343506,-0.03757534176111221,0.37861448526382446,0.06847485899925232
10.08033013343811,-0.34885939955711365,-1.2716487646102905,1.3639658689498901,-0.027656977996230125,0.3763256371021271,0.06847485899925232
10.101254940032959,-0.34924086928367615,-1.2689783573150635,1.359006643295288,-0.024605173617601395,0.3751811981201172,0.06847485899925232
10.121352910995483,-0.34962233901023865,-1.2682154178619385,1.353284478187561,-0.023079270496964455,0.3770885765552521,0.06809338182210922
10.141422033309937,-0.34962233901023865,-1.268596887588501,1.3513771295547485,-0.02841992862522602,0.37937742471694946,0.06885633617639542
10.16151213645935,-0.34924086928367615,-1.2739375829696655,1.350995659828186,-0.03185320645570755,0.3850995600223541,0.06694895774126053
10.181586980819702,-0.34847790002822876,-1.27927827835083,1.3529030084609985,-0.03528648987412453,0.387006938457489,0.06733043491840363
10.201683044433594,-0.34580758213996887,-1.2853819131851196,1.3544288873672485,-0.04329747334122658,0.3866254687309265,0.06733043491840363
10.221748113632202,-0.34580758213996887,-1.2850003242492676,1.358243703842163,-0.045204851776361465,0.3854810297489166,0.06694895774126053
10.241835594177246,-0.34618905186653137,-1.281567096710205,1.3609139919281006,-0.04291599988937378,0.3850995600223541,0.06733043491840363
10.26210880279541,-0.34695202112197876,-1.275844931602478,1.3632028102874756,-0.03452353551983833,0.3847180902957916,0.06694895774126053
10.282198429107666,-0.35000380873680115,-1.272030234336853,1.3601510524749756,-0.02384222112596035,0.3847180902957916,0.06694895774126053
10.302305698394775,-0.35152971744537354,-1.269359827041626,1.3555734157562256,-0.020027466118335724,0.3858625292778015,0.06733043491840363
10.32295823097229,-0.3530556261539459,-1.268596887588501,1.3513771295547485,-0.01926451548933983,0.3850995600223541,0.06733043491840363
10.34303879737854,-0.3530556261539459,-1.269359827041626,1.3498512506484985,-0.026131074875593185,0.3843366205692291,0.06733043491840363
10.363107204437256,-0.35114824771881104,-1.2762264013290405,1.3490883111953735,-0.031090257689356804,0.38319218158721924,0.06694895774126053
10.383228778839111,-0.34771496057510376,-1.28080415725708,1.350232720375061,-0.03604944050312042,0.3751811981201172,0.06771191209554672
10.4032883644104,-0.343900203704834,-1.2865263223648071,1.351758599281311,-0.04482337832450867,0.3721294105052948,0.06694895774126053
10.423401117324829,-0.3416113555431366,-1.2861448526382446,1.3555734157562256,-0.04711223021149635,0.3717479109764099,0.06733043491840363
10.443447351455688,-0.3408484160900116,-1.2811856269836426,1.357480764389038,-0.04558632895350456,0.3740367889404297,0.06771191209554672
10.463631868362427,-0.343137264251709,-1.2747005224227905,1.359769582748413,-0.0394827201962471,0.38204777240753174,0.06694895774126053
10.48377513885498,-0.35000380873680115,-1.269741415977478,1.3578622341156006,-0.031090257689356804,0.3896772861480713,0.06618601083755493
10.503806352615356,-0.3538185656070709,-1.2674524784088135,1.3544288873672485,-0.026131074875593185,0.39387351274490356,0.06618601083755493
10.523965835571289,-0.3545815348625183,-1.266308069229126,1.349469780921936,-0.025749599561095238,0.3931105434894562,0.06656748056411743
10.54402494430542,-0.3553444743156433,-1.2666895389556885,1.3456549644470215,-0.02727550081908703,0.3889143168926239,0.06656748056411743
10.564253330230713,-0.3561074137687683,-1.272030234336853,1.3441290855407715,-0.032616160809993744,0.3847180902957916,0.06694895774126053
10.584343433380127,-0.35229265689849854,-1.27775239944458,1.346036434173584,-0.03833829239010811,0.38090333342552185,0.06694895774126053
10.604449987411499,-0.34733349084854126,-1.28385591506958,1.347562313079834,-0.04444190114736557,0.3702220320701599,0.06733043491840363
10.624545335769653,-0.3435187339782715,-1.284618854522705,1.3513771295547485,-0.04749370738863945,0.36488136649131775,0.06694895774126053
10.644625186920166,-0.3419928252696991,-1.2819485664367676,1.3551918268203735,-0.04749370738863945,0.36488136649131775,0.06733043491840363
10.665297031402588,-0.3423742949962616,-1.2754634618759155,1.3578622341156006,-0.04177157208323479,0.3709849715232849,0.06656748056411743
10.685393333435059,-0.34618905186653137,-1.270504355430603,1.3555734157562256,-0.035667963325977325,0.37823301553726196,0.06694895774126053
10.705530643463135,-0.35076677799224854,-1.2674524784088135,1.3521400690078735,-0.03147173300385475,0.3896772861480713,0.06694895774126053
10.725565671920776,-0.35229265689849854,-1.2666895389556885,1.349469780921936,-0.03032730519771576,0.39463645219802856,0.06656748056411743
10.745765924453735,-0.3530556261539459,-1.2674524784088135,1.347562313079834,-0.032616160809993744,0.3931105434894562,0.06618601083755493
10.766111850738525,-0.3530556261539459,-1.272793173789978,1.347562313079834,-0.03452353551983833,0.3885328471660614,0.06656748056411743
10.78623652458191,-0.35114824771881104,-1.2773709297180176,1.3483253717422485,-0.03757534176111221,0.38204777240753174,0.06694895774126053
10.806349277496338,-0.34771496057510376,-1.28233003616333,1.348706841468811,-0.045204851776361465,0.3725108802318573,0.06733043491840363
10.826602697372437,-0.34504464268684387,-1.2827115058898926,1.3506141901016235,-0.04901960864663124,0.36297398805618286,0.06771191209554672
10.8466956615448,-0.3419928252696991,-1.27927827835083,1.3544288873672485,-0.04787518084049225,0.3606851398944855,0.06771191209554672
10.866758584976196,-0.3423742949962616,-1.2747005224227905,1.355954885482788,-0.042153049260377884,0.36259251832962036,0.06733043491840363
10.88707947731018,-0.3423742949962616,-1.2689783573150635,1.355954885482788,-0.03528648987412453,0.3702220320701599,0.06771191209554672
10.90718412399292,-0.34771496057510376,-1.2666895389556885,1.3529030084609985,-0.03223468363285065,0.3755626678466797,0.06771191209554672
10.927263021469116,-0.35114824771881104,-1.2651636600494385,1.3464179039001465,-0.029564354568719864,0.3900587558746338,0.06694895774126053
10.947365760803223,-0.35152971744537354,-1.2659265995025635,1.3448920249938965,-0.032616160809993744,0.39539939165115356,0.06771191209554672
10.967446088790894,-0.3526741564273834,-1.2708858251571655,1.346036434173584,-0.038719769567251205,0.3934920132160187,0.06618601083755493
10.987518787384033,-0.35229265689849854,-1.2788968086242676,1.347562313079834,-0.040627144277095795,0.3889143168926239,0.06733043491840363
11.007658004760742,-0.35114824771881104,-1.281567096710205,1.3498512506484985,-0.04482337832450867,0.38014039397239685,0.06847485899925232
11.027704238891602,-0.34847790002822876,-1.28233003616333,1.353284478187561,-0.046730753034353256,0.3706035017967224,0.06809338182210922
11.047753095626831,-0.34504464268684387,-1.280041217803955,1.355954885482788,-0.04444190114736557,0.36373692750930786,0.06847485899925232
11.06783938407898,-0.3442816734313965,-1.2762264013290405,1.357480764389038,-0.039101243019104004,0.36449989676475525,0.06885633617639542
11.087942600250244,-0.344663143157959,-1.2701228857040405,1.355954885482788,-0.032616160809993744,0.36907759308815,0.06885633617639542
11.108038187026978,-0.34657052159309387,-1.268596887588501,1.353284478187561,-0.030708782374858856,0.3759441375732422,0.06961929053068161
11.12809443473816,-0.34924086928367615,-1.267833948135376,1.3483253717422485,-0.031090257689356804,0.38319218158721924,0.06961929053068161
11.148193359375,-0.35000380873680115,-1.267833948135376,1.345273494720459,-0.03452353551983833,0.3934920132160187,0.06923781335353851
11.168346643447876,-0.35191118717193604,-1.273556113243103,1.346036434173584,-0.0398641936480999,0.39387351274490356,0.06847485899925232
11.18836760520935,-0.35114824771881104,-1.281567096710205,1.347943902015686,-0.04291599988937378,0.3908216953277588,0.06885633617639542
11.208483219146729,-0.34962233901023865,-1.2834744453430176,1.3506141901016235,-0.045204851776361465,0.3843366205692291,0.06885633617639542
11.228552341461182,-0.34885939955711365,-1.28385591506958,1.3551918268203735,-0.04634927958250046,0.3778515160083771,0.06885633617639542
11.248903036117554,-0.34657052159309387,-1.2804226875305176,1.359006643295288,-0.042153049260377884,0.3694590628147125,0.06885633617639542
11.269001722335815,-0.34657052159309387,-1.2769893407821655,1.359769582748413,-0.03452353551983833,0.369840532541275,0.07000076025724411
11.289071321487427,-0.34771496057510376,-1.270504355430603,1.3593881130218506,-0.029182879254221916,0.3725108802318573,0.0711451917886734
11.309241533279419,-0.34771496057510376,-1.270504355430603,1.353284478187561,-0.027656977996230125,0.3759441375732422,0.0707637146115303
11.329333066940308,-0.34962233901023865,-1.269741415977478,1.3513771295547485,-0.02994582988321781,0.37937742471694946,0.0715266615152359
11.349427700042725,-0.34962233901023865,-1.272030234336853,1.3506141901016235,-0.03681239113211632,0.3908216953277588,0.07000076025724411
11.369494676589966,-0.35038527846336365,-1.2804226875305176,1.350995659828186,-0.038719769567251205,0.3927290737628937,0.06923781335353851
11.389577388763428,-0.34962233901023865,-1.2842373847961426,1.3529030084609985,-0.04329747334122658,0.3915846347808838,0.06961929053068161
11.409801721572876,-0.34924086928367615,-1.2869077920913696,1.3563363552093506,-0.04787518084049225,0.3877699077129364,0.06961929053068161
11.429787874221802,-0.34924086928367615,-1.2857633829116821,1.359006643295288,-0.04787518084049225,0.38166627287864685,0.06961929053068161
11.449896812438965,-0.34885939955711365,-1.28080415725708,1.3609139919281006,-0.04177157208323479,0.3759441375732422,0.06961929053068161
11.469957113265991,-0.34924086928367615,-1.276607871055603,1.3601510524749756,-0.03223468363285065,0.3736552894115448,0.07000076025724411
11.490250587463379,-0.34962233901023865,-1.272030234336853,1.357480764389038,-0.02536812424659729,0.3744182586669922,0.0711451917886734
11.510398864746094,-0.34962233901023865,-1.270504355430603,1.352521538734436,-0.024605173617601395,0.3747997283935547,0.0711451917886734
11.53046441078186,-0.34962233901023865,-1.269741415977478,1.3498512506484985,-0.029564354568719864,0.37899595499038696,0.0711451917886734
11.550546169281006,-0.34962233901023865,-1.2731746435165405,1.3464179039001465,-0.035667963325977325,0.386243999004364,0.07038223743438721
11.570626258850098,-0.34924086928367615,-1.2781338691711426,1.347562313079834,-0.04139009863138199,0.3919661343097687,0.07038223743438721
11.590739488601685,-0.34847790002822876,-1.2850003242492676,1.349469780921936,-0.05054550990462303,0.3934920132160187,0.07038223743438721
11.610825538635254,-0.34809643030166626,-1.2861448526382446,1.354810357093811,-0.05397878959774971,0.3927290737628937,0.06961929053068161
11.630901336669922,-0.34847790002822876,-1.28385591506958,1.357480764389038,-0.05092698708176613,0.3892957866191864,0.06961929053068161
11.65099287033081,-0.34924086928367615,-1.2788968086242676,1.360532522201538,-0.04291599988937378,0.3854810297489166,0.06961929053068161
11.671180963516235,-0.35076677799224854,-1.275081992149353,1.358243703842163,-0.03223468363285065,0.38281071186065674,0.06923781335353851
11.691189050674438,-0.35229265689849854,-1.2724117040634155,1.3544288873672485,-0.023079270496964455,0.38128480315208435,0.07000076025724411
11.711289644241333,-0.3534370958805084,-1.270504355430603,1.3498512506484985,-0.022697795182466507,0.38166627287864685,0.0707637146115303
11.731357336044312,-0.35114824771881104,-1.271267294883728,1.347562313079834,-0.029182879254221916,0.38166627287864685,0.0707637146115303
11.75143027305603,-0.35000380873680115,-1.2762264013290405,1.346799373626709,-0.03604944050312042,0.38128480315208435,0.07000076025724411
11.771522045135498,-0.34733349084854126,-1.283092975616455,1.347562313079834,-0.040245670825242996,0.37823301553726196,0.07000076025724411
11.791771411895752,-0.344663143157959,-1.2865263223648071,1.3498512506484985,-0.048256658017635345,0.37937742471694946,0.07038223743438721
11.81186318397522,-0.3419928252696991,-1.2869077920913696,1.354810357093811,-0.05283436179161072,0.37975889444351196,0.07000076025724411
11.831923246383667,-0.3423742949962616,-1.284618854522705,1.359006643295288,-0.05130846053361893,0.38014039397239685,0.07000076025724411
11.852013111114502,-0.34618905186653137,-1.280041217803955,1.360532522201538,-0.043678950518369675,0.3881513774394989,0.07000076025724411
11.87209439277649,-0.35076677799224854,-1.2724117040634155,1.3624398708343506,-0.034142062067985535,0.3912031650543213,0.06961929053068161
11.892284631729126,-0.3545815348625183,-1.2701228857040405,1.3570992946624756,-0.02841992862522602,0.3927290737628937,0.06961929053068161
11.91240406036377,-0.3557259440422058,-1.2682154178619385,1.351758599281311,-0.02536812424659729,0.3923476040363312,0.06885633617639542
11.932388544082642,-0.3564889132976532,-1.2689783573150635,1.348706841468811,-0.028038453310728073,0.3896772861480713,0.06923781335353851
11.952481269836426,-0.3538185656070709,-1.273556113243103,1.3483253717422485,-0.03223468363285065,0.387006938457489,0.06923781335353851
11.972572088241577,-0.34962233901023865,-1.2811856269836426,1.349469780921936,-0.037193864583969116,0.38014039397239685,0.06961929053068161
11.992629051208496,-0.34695202112197876,-1.2850003242492676,1.350232720375061,-0.04444190114736557,0.3732738196849823,0.07000076025724411
12.012720584869385,-0.343137264251709,-1.2865263223648071,1.3536659479141235,-0.049782559275627136,0.3736552894115448,0.07000076025724411
12.03279423713684,-0.3419928252696991,-1.2842373847961426,1.358243703842163,-0.04940108209848404,0.3744182586669922,0.07000076025724411
12.052868604660034,-0.3419928252696991,-1.2788968086242676,1.3616769313812256,-0.04291599988937378,0.37861448526382446,0.06961929053068161
12.072953701019287,-0.34580758213996887,-1.2716487646102905,1.3624398708343506,-0.034142062067985535,0.387006938457489,0.06923781335353851
12.093191623687744,-0.35152971744537354,-1.267833948135376,1.359006643295288,-0.027656977996230125,0.39463645219802856,0.06847485899925232
12.113285541534424,-0.3545815348625183,-1.2659265995025635,1.3521400690078735,-0.02536812424659729,0.39692530035972595,0.06771191209554672
12.133352279663086,-0.3545815348625183,-1.2666895389556885,1.348706841468811,-0.02689402550458908,0.39616236090660095,0.06771191209554672
12.153629779815674,-0.3545815348625183,-1.2701228857040405,1.3471808433532715,-0.030708782374858856,0.3912031650543213,0.06771191209554672
12.173723459243774,-0.3530556261539459,-1.276607871055603,1.3483253717422485,-0.03376058489084244,0.3843366205692291,0.06771191209554672
12.19379472732544,-0.34962233901023865,-1.2853819131851196,1.347943902015686,-0.042153049260377884,0.3751811981201172,0.06885633617639542
12.21387529373169,-0.344663143157959,-1.2872892618179321,1.3490883111953735,-0.04749370738863945,0.36793315410614014,0.06771191209554672
12.233947277069092,-0.3404669165611267,-1.2872892618179321,1.353284478187561,-0.04901960864663124,0.36373692750930786,0.06923781335353851
12.254037380218506,-0.3400854468345642,-1.2827115058898926,1.358243703842163,-0.048256658017635345,0.36488136649131775,0.06847485899925232
12.274197578430176,-0.3404669165611267,-1.2781338691711426,1.3601510524749756,-0.04100862145423889,0.3706035017967224,0.06847485899925232
12.294395208358765,-0.3427557647228241,-1.272793173789978,1.3616769313812256,-0.03604944050312042,0.37937742471694946,0.06847485899925232
12.314522504806519,-0.34847790002822876,-1.270504355430603,1.3570992946624756,-0.029182879254221916,0.3889143168926239,0.06733043491840363
