liuyurong129/humanoid-gym/humanoid/data/actual_q_20250522-033921.csv
timestamp,joint_1,joint_2,joint_3,joint_4,joint_5,joint_6
5.364418029785156e-05,0.00019073777366429567,0.1646067053079605,-0.08258945494890213,-0.00019073777366429567,0.00019073777366429567,0.00019073777366429567
0.020131349563598633,0.000572213320992887,0.14248111844062805,-0.07343403995037079,-0.00019073777366429567,-0.00019073777366429567,0.00019073777366429567
0.04021310806274414,-0.00019073777366429567,0.12111848592758179,-0.06389715522527695,-0.00019073777366429567,0.0020981156267225742,0.00019073777366429567
0.06029200553894043,-0.00019073777366429567,0.10776684433221817,-0.057793546468019485,-0.00019073777366429567,0.000572213320992887,0.00019073777366429567
0.08037662506103516,-0.00019073777366429567,0.09632257372140884,-0.05054550990462303,-0.00019073777366429567,0.000572213320992887,0.00019073777366429567
0.10044026374816895,-0.00019073777366429567,0.08602273464202881,-0.04482337832450867,-0.00019073777366429567,0.000572213320992887,0.00019073777366429567
0.12053179740905762,0.000572213320992887,0.08182650804519653,-0.040627144277095795,-0.00019073777366429567,0.000572213320992887,0.00019073777366429567
0.14167284965515137,0.0013351644156500697,0.08220797777175903,-0.0394827201962471,-0.00019073777366429567,0.00019073777366429567,0.00019073777366429567
0.16181182861328125,0.0024795911740511656,0.08030059933662415,-0.038719769567251205,-0.00019073777366429567,-0.000572213320992887,0.00019073777366429567
0.1819140911102295,0.002861066721379757,0.07915617525577545,-0.038719769567251205,-0.00019073777366429567,0.00019073777366429567,0.00019073777366429567
0.20197033882141113,0.002861066721379757,0.07648584991693497,-0.037193864583969116,-0.000572213320992887,0.000572213320992887,0.00019073777366429567
0.2221229076385498,0.0036240178160369396,0.07572289556264877,-0.03528648987412453,-0.000572213320992887,0.000572213320992887,-0.00019073777366429567
0.24226927757263184,0.004386968910694122,0.07572289556264877,-0.03376058489084244,-0.000572213320992887,0.0009536888683214784,-0.00019073777366429567
0.2623867988586426,0.005149920005351305,0.07381551712751389,-0.031090257689356804,-0.00019073777366429567,0.000572213320992887,-0.00019073777366429567
0.2824885845184326,0.005149920005351305,0.0722896158695221,-0.03032730519771576,-0.000572213320992887,0.000572213320992887,-0.00019073777366429567
0.30257749557495117,0.006294346414506435,0.06961929053068161,-0.02880140393972397,-0.000572213320992887,0.00019073777366429567,-0.00019073777366429567
0.32270145416259766,0.007057297509163618,0.06771191209554672,-0.027656977996230125,-0.000572213320992887,0.00019073777366429567,-0.00019073777366429567
0.34275293350219727,0.0078202486038208,0.06466010212898254,-0.025749599561095238,-0.000572213320992887,0.000572213320992887,-0.00019073777366429567
0.36286425590515137,0.008201723918318748,0.06237125024199486,-0.02384222112596035,-0.0009536888683214784,0.000572213320992887,-0.000572213320992887
0.38294506072998047,0.008201723918318748,0.06160829961299896,-0.02231631986796856,-0.0009536888683214784,0.000572213320992887,-0.000572213320992887
0.4030933380126953,0.008964675478637218,0.05893797054886818,-0.02079041674733162,-0.0013351644156500697,0.000572213320992887,-0.0009536888683214784
0.42316246032714844,0.009727626107633114,0.056267641484737396,-0.01888304017484188,-0.0013351644156500697,0.00019073777366429567,-0.0009536888683214784
0.4432337284088135,0.010109102353453636,0.05359731614589691,-0.01773861236870289,-0.0020981156267225742,0.000572213320992887,-0.0013351644156500697
0.46337080001831055,0.010872052982449532,0.05092698708176613,-0.015449759550392628,-0.0024795911740511656,0.000572213320992887,-0.0013351644156500697
0.48348307609558105,0.01125352829694748,0.04940108209848404,-0.013923857361078262,-0.002861066721379757,0.000572213320992887,-0.001716639962978661
0.5036923885345459,0.012397955171763897,0.04634927958250046,-0.011635004542768002,-0.0032425422687083483,0.000572213320992887,-0.002861066721379757
0.5237255096435547,0.013542382046580315,0.043678950518369675,-0.009346150793135166,-0.0036240178160369396,0.000572213320992887,-0.004386968910694122
0.5437667369842529,0.01430533267557621,0.040627144277095795,-0.0078202486038208,-0.004005493130534887,0.000572213320992887,-0.004386968910694122
0.563948392868042,0.014686808921396732,0.03833829239010811,-0.005912871100008488,-0.004005493130534887,0.000572213320992887,-0.004386968910694122
0.5853419303894043,0.01506828423589468,0.03490501269698143,-0.004005493130534887,-0.004386968910694122,0.000572213320992887,-0.004386968910694122
0.6054365634918213,0.016212711110711098,0.03147173300385475,-0.0009536888683214784,-0.00476844422519207,0.000572213320992887,-0.00476844422519207
0.6255359649658203,0.016975661739706993,0.028038453310728073,0.000572213320992887,-0.005149920005351305,0.000572213320992887,-0.00476844422519207
0.6456425189971924,0.01735713705420494,0.024986648932099342,0.0032425422687083483,-0.005912871100008488,0.000572213320992887,-0.005149920005351305
0.6657078266143799,0.01735713705420494,0.023460745811462402,0.004386968910694122,-0.00667582219466567,0.000572213320992887,-0.005531395319849253
0.6859831809997559,0.01888304017484188,0.020027466118335724,0.007438773289322853,-0.007057297509163618,0.000572213320992887,-0.005912871100008488
0.7060902118682861,0.019645990803837776,0.01735713705420494,0.009727626107633114,-0.007057297509163618,0.000572213320992887,-0.00667582219466567
0.726132869720459,0.020027466118335724,0.01430533267557621,0.01125352829694748,-0.007438773289322853,0.000572213320992887,-0.007057297509163618
0.7462596893310547,0.021171892061829567,0.01201647985726595,0.013160906732082367,-0.007438773289322853,0.000572213320992887,-0.007057297509163618
0.7664356231689453,0.021553369238972664,0.010872052982449532,0.014686808921396732,-0.007438773289322853,0.000572213320992887,-0.007438773289322853
0.786444902420044,0.021553369238972664,0.0078202486038208,0.016594186425209045,-0.0078202486038208,0.000572213320992887,-0.007438773289322853
0.8065366744995117,0.02193484455347061,0.005149920005351305,0.01926451548933983,-0.008201723918318748,0.000572213320992887,-0.0078202486038208
0.8267719745635986,0.02231631986796856,0.0024795911740511656,0.02040894143283367,-0.00858320016413927,0.000572213320992887,-0.0078202486038208
0.846865177154541,0.023460745811462402,-0.000572213320992887,0.023460745811462402,-0.008964675478637218,0.000572213320992887,-0.0078202486038208
0.866950511932373,0.024605173617601395,-0.0032425422687083483,0.024986648932099342,-0.009346150793135166,0.000572213320992887,-0.008201723918318748
0.8870351314544678,0.02536812424659729,-0.00667582219466567,0.02689402550458908,-0.010109102353453636,0.000572213320992887,-0.008201723918318748
0.907111406326294,0.025749599561095238,-0.008964675478637218,0.02880140393972397,-0.010872052982449532,0.000572213320992887,-0.008201723918318748
0.9271664619445801,0.026512550190091133,-0.012397955171763897,0.030708782374858856,-0.01125352829694748,0.000572213320992887,-0.00858320016413927
0.9472665786743164,0.02727550081908703,-0.01583123579621315,0.034142062067985535,-0.01125352829694748,0.000572213320992887,-0.00858320016413927
0.9673247337341309,0.027656977996230125,-0.01926451548933983,0.035667963325977325,-0.011635004542768002,0.000572213320992887,-0.008964675478637218
0.9874112606048584,0.02880140393972397,-0.02231631986796856,0.03757534176111221,-0.011635004542768002,0.000572213320992887,-0.008964675478637218
1.0075078010559082,0.02880140393972397,-0.02384222112596035,0.0398641936480999,-0.01201647985726595,0.0009536888683214784,-0.009346150793135166
1.0275614261627197,0.02880140393972397,-0.025749599561095238,0.04100862145423889,-0.012779430486261845,0.000572213320992887,-0.010109102353453636
1.0476598739624023,0.029564354568719864,-0.029182879254221916,0.04329747334122658,-0.013923857361078262,0.000572213320992887,-0.010872052982449532
1.0677123069763184,0.02994582988321781,-0.032616160809993744,0.04482337832450867,-0.014686808921396732,0.000572213320992887,-0.01125352829694748
1.0878465175628662,0.031090257689356804,-0.03604944050312042,0.048256658017635345,-0.01506828423589468,0.000572213320992887,-0.011635004542768002
1.107872486114502,0.03185320645570755,-0.03795681521296501,0.050164032727479935,-0.01506828423589468,0.000572213320992887,-0.011635004542768002
1.1283562183380127,0.03185320645570755,-0.0398641936480999,0.051689937710762024,-0.015449759550392628,0.000572213320992887,-0.01201647985726595
1.1485283374786377,0.03223468363285065,-0.04329747334122658,0.05436026677489281,-0.01583123579621315,0.000572213320992887,-0.012397955171763897
1.1685364246368408,0.03299763426184654,-0.04711223021149635,0.0558861680328846,-0.016212711110711098,0.000572213320992887,-0.012397955171763897
1.1886212825775146,0.03376058489084244,-0.050164032727479935,0.057793546468019485,-0.016212711110711098,0.0009536888683214784,-0.012779430486261845
1.2087209224700928,0.034142062067985535,-0.051689937710762024,0.059319447726011276,-0.016975661739706993,0.0009536888683214784,-0.013160906732082367
1.2287523746490479,0.03490501269698143,-0.05436026677489281,0.06084534898400307,-0.01773861236870289,0.000572213320992887,-0.013542382046580315
1.248915672302246,0.03604944050312042,-0.057793546468019485,0.06389715522527695,-0.018120087683200836,0.000572213320992887,-0.013923857361078262
1.2689831256866455,0.03604944050312042,-0.06046387553215027,0.06580453366041183,-0.018501564860343933,0.000572213320992887,-0.01430533267557621
1.289031982421875,0.03643091395497322,-0.06389715522527695,0.06847485899925232,-0.01888304017484188,0.0009536888683214784,-0.01506828423589468
1.3091344833374023,0.037193864583969116,-0.06656748056411743,0.0711451917886734,-0.01888304017484188,0.0009536888683214784,-0.01506828423589468
1.329169511795044,0.03833829239010811,-0.06809338182210922,0.07267109304666519,-0.01888304017484188,0.000572213320992887,-0.01506828423589468
1.3492944240570068,0.039101243019104004,-0.0722896158695221,0.07572289556264877,-0.01926451548933983,0.000572213320992887,-0.015449759550392628
1.3694250583648682,0.0394827201962471,-0.07610437273979187,0.07724879682064056,-0.019645990803837776,0.000572213320992887,-0.01583123579621315
1.3897151947021484,0.040245670825242996,-0.07915617525577545,0.07953765243291855,-0.020027466118335724,0.0009536888683214784,-0.01583123579621315
1.4098551273345947,0.04139009863138199,-0.08068207651376724,0.08220797777175903,-0.02079041674733162,0.0009536888683214784,-0.01583123579621315
1.4300837516784668,0.04139009863138199,-0.08258945494890213,0.08373387902975082,-0.021553369238972664,0.0009536888683214784,-0.01583123579621315
1.4502358436584473,0.04177157208323479,-0.08564125746488571,0.086785688996315,-0.02193484455347061,0.0009536888683214784,-0.016212711110711098
1.4702682495117188,0.04253452271223068,-0.0883115902543068,0.0879301130771637,-0.02231631986796856,0.0009536888683214784,-0.016594186425209045
1.4904189109802246,0.04329747334122658,-0.09098191559314728,0.08983749151229858,-0.02231631986796856,0.000572213320992887,-0.016975661739706993
1.5104789733886719,0.04406042397022247,-0.09250781685113907,0.09174486994743347,-0.022697795182466507,0.000572213320992887,-0.01773861236870289
1.5305099487304688,0.04444190114736557,-0.09403372555971146,0.09327077120542526,-0.022697795182466507,0.000572213320992887,-0.018501564860343933
1.5507543087005615,0.04482337832450867,-0.09822995215654373,0.09632257372140884,-0.023079270496964455,0.0009536888683214784,-0.01888304017484188
1.5708165168762207,0.04558632895350456,-0.10128175467252731,0.09784847497940063,-0.023460745811462402,0.000572213320992887,-0.01926451548933983
1.5912556648254395,0.04634927958250046,-0.10433356463909149,0.10051880776882172,-0.02384222112596035,0.000572213320992887,-0.01926451548933983
1.6113710403442383,0.046730753034353256,-0.10585946589708328,0.1028076633810997,-0.024223696440458298,0.000572213320992887,-0.019645990803837776
1.631406307220459,0.04749370738863945,-0.10852979123592377,0.10471503436565399,-0.024986648932099342,0.000572213320992887,-0.020027466118335724
1.6515326499938965,0.04901960864663124,-0.11196307092905045,0.10738536715507507,-0.025749599561095238,0.0009536888683214784,-0.02079041674733162
1.6715750694274902,0.04901960864663124,-0.11425192654132843,0.10891126841306686,-0.026131074875593185,0.000572213320992887,-0.021553369238972664
1.6921064853668213,0.05054550990462303,-0.11768520623445511,0.11120012402534485,-0.026131074875593185,0.000572213320992887,-0.023079270496964455
1.7122581005096436,0.05092698708176613,-0.1203555315732956,0.11425192654132843,-0.026512550190091133,0.0009536888683214784,-0.022697795182466507
1.7324421405792236,0.05092698708176613,-0.12226291000843048,0.11615930497646332,-0.026512550190091133,0.0009536888683214784,-0.023079270496964455
1.7524995803833008,0.051689937710762024,-0.12569619715213776,0.1192111074924469,-0.02689402550458908,0.0009536888683214784,-0.023460745811462402
1.7726094722747803,0.05207141116261482,-0.12836651504039764,0.1203555315732956,-0.02689402550458908,0.000572213320992887,-0.023460745811462402
1.7927188873291016,0.05283436179161072,-0.13179980218410492,0.12226291000843048,-0.02727550081908703,0.000572213320992887,-0.023460745811462402
1.8128106594085693,0.05359731614589691,-0.134470134973526,0.12493324279785156,-0.027656977996230125,0.000572213320992887,-0.02384222112596035
1.8328688144683838,0.05397878959774971,-0.1371404528617859,0.12684062123298645,-0.028038453310728073,0.000572213320992887,-0.02384222112596035
1.852954387664795,0.05436026677489281,-0.14019227027893066,0.12951095402240753,-0.02880140393972397,0.0009536888683214784,-0.024605173617601395
1.8730497360229492,0.0551232174038887,-0.14248111844062805,0.13179980218410492,-0.029564354568719864,0.000572213320992887,-0.02536812424659729
1.893502950668335,0.0558861680328846,-0.14476996660232544,0.1333257108926773,-0.02994582988321781,0.0009536888683214784,-0.026131074875593185
1.9135899543762207,0.05703059583902359,-0.14820325374603271,0.1367589831352234,-0.02994582988321781,0.0009536888683214784,-0.026131074875593185
1.9337091445922852,0.058175019919872284,-0.1501106321811676,0.13828489184379578,-0.02994582988321781,0.000572213320992887,-0.026131074875593185
1.9538085460662842,0.058175019919872284,-0.15316243469715118,0.14057374000549316,-0.03032730519771576,0.0009536888683214784,-0.026512550190091133
1.9739398956298828,0.058175019919872284,-0.15697719156742096,0.14286258816719055,-0.03032730519771576,0.000572213320992887,-0.02689402550458908
1.993950366973877,0.05855649709701538,-0.16041046380996704,0.14515145123004913,-0.030708782374858856,0.0009536888683214784,-0.02689402550458908
2.0140814781188965,0.05893797054886818,-0.16231784224510193,0.14744029939174652,-0.031090257689356804,0.000572213320992887,-0.02727550081908703
2.0341460704803467,0.06008239835500717,-0.1653696447610855,0.1497291475534439,-0.03147173300385475,0.000572213320992887,-0.027656977996230125
2.05424165725708,0.06084534898400307,-0.16956588625907898,0.15316243469715118,-0.03185320645570755,0.00019073777366429567,-0.028038453310728073
2.074366569519043,0.061226826161146164,-0.17261768877506256,0.15430685877799988,-0.032616160809993744,0.000572213320992887,-0.02880140393972397
2.0944173336029053,0.061226826161146164,-0.17566949129104614,0.15621423721313477,-0.03337911143898964,0.000572213320992887,-0.02994582988321781
2.114523410797119,0.06237125024199486,-0.17719538509845734,0.15812161564826965,-0.03376058489084244,0.0009536888683214784,-0.03032730519771576
2.1346147060394287,0.06351567804813385,-0.17986571788787842,0.16041046380996704,-0.034142062067985535,0.000572213320992887,-0.030708782374858856
2.154698610305786,0.06389715522527695,-0.1840619444847107,0.16422522068023682,-0.034142062067985535,0.000572213320992887,-0.030708782374858856
2.1749136447906494,0.06466010212898254,-0.18940261006355286,0.1661325991153717,-0.03452353551983833,0.00019073777366429567,-0.030708782374858856
2.195014238357544,0.06542305648326874,-0.19321736693382263,0.16956588625907898,-0.03490501269698143,0.000572213320992887,-0.031090257689356804
2.2151198387145996,0.06542305648326874,-0.19512474536895752,0.17147326469421387,-0.03528648987412453,0.000572213320992887,-0.031090257689356804
2.235183000564575,0.06618601083755493,-0.1989395022392273,0.17414358258247375,-0.03604944050312042,0.000572213320992887,-0.03147173300385475
2.255289077758789,0.06694895774126053,-0.20428015291690826,0.17757686972618103,-0.037193864583969116,0.000572213320992887,-0.03223468363285065
2.275362968444824,0.06733043491840363,-0.20847637951374054,0.17948424816131592,-0.037193864583969116,0.00019073777366429567,-0.03299763426184654
2.2954580783843994,0.06771191209554672,-0.21038375794887543,0.1825360506772995,-0.037193864583969116,0.000572213320992887,-0.03337911143898964
2.315617799758911,0.06809338182210922,-0.21190966665744781,0.1840619444847107,-0.03757534176111221,0.000572213320992887,-0.03337911143898964
2.335710048675537,0.06847485899925232,-0.2149614691734314,0.18596932291984558,-0.03757534176111221,0.000572213320992887,-0.03376058489084244
2.355794906616211,0.06923781335353851,-0.21763180196285248,0.18863965570926666,-0.03795681521296501,0.000572213320992887,-0.03376058489084244
2.3758797645568848,0.06961929053068161,-0.22106507420539856,0.19130998849868774,-0.03795681521296501,0.000572213320992887,-0.03376058489084244
2.396324396133423,0.07038223743438721,-0.22373540699481964,0.19436179101467133,-0.03833829239010811,0.000572213320992887,-0.03376058489084244
2.416476011276245,0.0711451917886734,-0.22640573978424072,0.1977950781583786,-0.038719769567251205,0.000572213320992887,-0.034142062067985535
2.436525583267212,0.0715266615152359,-0.22755016386508942,0.1997024416923523,-0.0394827201962471,0.00019073777366429567,-0.034142062067985535
2.456690788269043,0.07267109304666519,-0.2309834510087967,0.20199130475521088,-0.040627144277095795,0.00019073777366429567,-0.03452353551983833
2.476783275604248,0.07305257022380829,-0.23403525352478027,0.20504310727119446,-0.04100862145423889,0.000572213320992887,-0.03490501269698143
2.4968903064727783,0.07305257022380829,-0.23746852576732635,0.20656901597976685,-0.04139009863138199,0.000572213320992887,-0.03490501269698143
2.5169496536254883,0.07381551712751389,-0.24090181291103363,0.21000228822231293,-0.04177157208323479,0.000572213320992887,-0.03528648987412453
2.5370378494262695,0.07381551712751389,-0.24319066107273102,0.21229113638401031,-0.042153049260377884,0.00019073777366429567,-0.035667963325977325
2.557202100753784,0.07495994865894318,-0.2466239482164383,0.2145799994468689,-0.042153049260377884,-0.00019073777366429567,-0.03604944050312042
2.5773041248321533,0.07572289556264877,-0.2508201599121094,0.21839475631713867,-0.04291599988937378,-0.00019073777366429567,-0.03643091395497322
2.59737491607666,0.07572289556264877,-0.25425344705581665,0.21992065012454987,-0.04329747334122658,0.00019073777366429567,-0.037193864583969116
2.6174609661102295,0.07648584991693497,-0.2573052644729614,0.22297245264053345,-0.04406042397022247,0.00019073777366429567,-0.03795681521296501
2.6375722885131836,0.07763027399778366,-0.2595941126346588,0.22602425515651703,-0.04444190114736557,0.00019073777366429567,-0.03795681521296501
2.657682418823242,0.07801175117492676,-0.2626459002494812,0.2283131182193756,-0.04482337832450867,0.00019073777366429567,-0.03833829239010811
2.6777334213256836,0.07915617525577545,-0.265697717666626,0.2313649207353592,-0.04482337832450867,0.00019073777366429567,-0.038719769567251205
2.6978049278259277,0.07991912961006165,-0.26760509610176086,0.23441672325134277,-0.045204851776361465,-0.00019073777366429567,-0.038719769567251205
2.717862367630005,0.07991912961006165,-0.26913100481033325,0.23670557141304016,-0.045204851776361465,-0.00019073777366429567,-0.039101243019104004
2.737950086593628,0.08030059933662415,-0.272945761680603,0.24052032828330994,-0.04558632895350456,0.00019073777366429567,-0.0398641936480999
2.7580020427703857,0.08106355369091034,-0.2767605185508728,0.24280919134616852,-0.04558632895350456,0.00019073777366429567,-0.040627144277095795
2.778078317642212,0.08182650804519653,-0.2801937758922577,0.2458609938621521,-0.04596780240535736,0.000572213320992887,-0.04100862145423889
2.7981529235839844,0.08220797777175903,-0.2821011543273926,0.248531311750412,-0.04596780240535736,0.00019073777366429567,-0.04100862145423889
2.818211555480957,0.08297093212604523,-0.28400853276252747,0.2500572204589844,-0.04634927958250046,-0.00019073777366429567,-0.04139009863138199
2.8382973670959473,0.08335240930318832,-0.28820478916168213,0.25272753834724426,-0.046730753034353256,0.00019073777366429567,-0.04139009863138199
2.858365297317505,0.08411535620689392,-0.290875107049942,0.25577935576438904,-0.04749370738863945,0.00019073777366429567,-0.04177157208323479
2.878472328186035,0.08525978773832321,-0.2943083941936493,0.2588311731815338,-0.048256658017635345,0.00019073777366429567,-0.04177157208323479
2.8985650539398193,0.08564125746488571,-0.2965972423553467,0.2622644305229187,-0.04901960864663124,0.00019073777366429567,-0.042153049260377884
2.9188005924224854,0.086785688996315,-0.30003052949905396,0.264934778213501,-0.04901960864663124,-0.000572213320992887,-0.04253452271223068
2.9389424324035645,0.0875486359000206,-0.30460822582244873,0.26874953508377075,-0.04940108209848404,-0.00019073777366429567,-0.04291599988937378
2.958997964859009,0.0879301130771637,-0.308804452419281,0.27065691351890564,-0.049782559275627136,-0.00019073777366429567,-0.04329747334122658
2.979182720184326,0.0883115902543068,-0.3122377395629883,0.2740901708602905,-0.050164032727479935,0.000572213320992887,-0.043678950518369675
2.9993112087249756,0.08945601433515549,-0.31528952717781067,0.2775234580039978,-0.05092698708176613,-0.00019073777366429567,-0.04482337832450867
3.019590377807617,0.09021896868944168,-0.31757840514183044,0.2809567451477051,-0.05207141116261482,0.000572213320992887,-0.045204851776361465
3.0397489070892334,0.09021896868944168,-0.32024872303009033,0.28553444147109985,-0.05207141116261482,-0.00019073777366429567,-0.04558632895350456
3.0598304271698,0.09098191559314728,-0.3233005404472351,0.28744181990623474,-0.05245288833975792,0.00019073777366429567,-0.04596780240535736
3.0798957347869873,0.09212634712457657,-0.325970858335495,0.2912565767765045,-0.05245288833975792,-0.00019073777366429567,-0.04596780240535736
3.09997820854187,0.09250781685113907,-0.3286411762237549,0.2950713336467743,-0.05283436179161072,0.00019073777366429567,-0.046730753034353256
3.120023727416992,0.09403372555971146,-0.33093002438545227,0.2973601818084717,-0.05283436179161072,-0.00019073777366429567,-0.048256658017635345
3.140193223953247,0.09441519528627396,-0.33512628078460693,0.30079346895217896,-0.053215838968753815,0.00019073777366429567,-0.04901960864663124
3.160247802734375,0.09441519528627396,-0.3389410376548767,0.30346378684043884,-0.053215838968753815,0.00019073777366429567,-0.04901960864663124
3.1806294918060303,0.09441519528627396,-0.3423742949962616,0.3057526648044586,-0.05359731614589691,0.000572213320992887,-0.04901960864663124
3.200800657272339,0.09517814964056015,-0.34504464268684387,0.3091859221458435,-0.05359731614589691,-0.000572213320992887,-0.04940108209848404
3.2209060192108154,0.09594109654426575,-0.34657052159309387,0.3110933005809784,-0.05397878959774971,-0.00019073777366429567,-0.04940108209848404
3.241008758544922,0.09670405089855194,-0.34924086928367615,0.31414511799812317,-0.05436026677489281,-0.000572213320992887,-0.04940108209848404
3.2610461711883545,0.09670405089855194,-0.3526741564273834,0.31605249643325806,-0.0551232174038887,-0.00019073777366429567,-0.049782559275627136
3.2811787128448486,0.09746700525283813,-0.3568703830242157,0.31910428404808044,-0.0558861680328846,0.00019073777366429567,-0.050164032727479935
3.301377058029175,0.09861142933368683,-0.3595407009124756,0.3225375711917877,-0.056267641484737396,0.00019073777366429567,-0.05054550990462303
3.321607828140259,0.10013733059167862,-0.36297398805618286,0.3255893886089325,-0.05664911866188049,0.00019073777366429567,-0.05130846053361893
3.341752767562866,0.10090028494596481,-0.368314653635025,0.33016708493232727,-0.05703059583902359,-0.000572213320992887,-0.05245288833975792
3.3618297576904297,0.10128175467252731,-0.3736552894115448,0.33283740282058716,-0.05703059583902359,-0.000572213320992887,-0.05245288833975792
3.3819262981414795,0.10166323184967041,-0.37823301553726196,0.33665215969085693,-0.057793546468019485,0.000572213320992887,-0.05283436179161072
3.4020943641662598,0.10204470902681351,-0.38090333342552185,0.3397039771080017,-0.05855649709701538,0.00019073777366429567,-0.053215838968753815
3.422179698944092,0.1024261862039566,-0.3843366205692291,0.3423742949962616,-0.05970092490315437,-0.00019073777366429567,-0.053215838968753815
3.4423112869262695,0.1028076633810997,-0.3892957866191864,0.34695202112197876,-0.05970092490315437,-0.000572213320992887,-0.05359731614589691
3.46242094039917,0.1035706102848053,-0.39425498247146606,0.34962233901023865,-0.06008239835500717,-0.000572213320992887,-0.05359731614589691
3.4829893112182617,0.10433356463909149,-0.39921414852142334,0.3534370958805084,-0.06046387553215027,-0.000572213320992887,-0.05397878959774971
3.503079891204834,0.10585946589708328,-0.4030289053916931,0.3580147922039032,-0.06046387553215027,-0.00019073777366429567,-0.0555046908557415
3.523226737976074,0.10662241280078888,-0.404936283826828,0.3614480793476105,-0.06084534898400307,-0.00019073777366429567,-0.05664911866188049
3.5432615280151367,0.10738536715507507,-0.4091325104236603,0.36564430594444275,-0.06160829961299896,0.000572213320992887,-0.05703059583902359
3.563336133956909,0.10852979123592377,-0.41371023654937744,0.3694590628147125,-0.06275273114442825,0.00019073777366429567,-0.05741206929087639
3.5836331844329834,0.10852979123592377,-0.4182879328727722,0.3732738196849823,-0.06351567804813385,0.000572213320992887,-0.05741206929087639
3.6037180423736572,0.10891126841306686,-0.4217212200164795,0.3770885765552521,-0.06389715522527695,0.00019073777366429567,-0.057793546468019485
3.6238198280334473,0.10891126841306686,-0.4243915379047394,0.37937742471694946,-0.06389715522527695,0.00019073777366429567,-0.05855649709701538
3.6438989639282227,0.10967422276735306,-0.42782482504844666,0.38319218158721924,-0.06427863240242004,-0.00019073777366429567,-0.05893797054886818
3.663970947265625,0.11043716967105865,-0.43125811219215393,0.387006938457489,-0.06427863240242004,-0.00019073777366429567,-0.05970092490315437
3.684030771255493,0.11081864684820175,-0.4343098998069763,0.3889143168926239,-0.06466010212898254,-0.00019073777366429567,-0.05970092490315437
3.7041430473327637,0.11196307092905045,-0.4365987777709961,0.3927290737628937,-0.06504157930612564,-0.00019073777366429567,-0.06008239835500717
3.7242801189422607,0.11272602528333664,-0.4388876259326935,0.39654383063316345,-0.06580453366041183,0.00019073777366429567,-0.06008239835500717
3.7444021701812744,0.11425192654132843,-0.44308385252952576,0.3999771177768707,-0.06656748056411743,0.0009536888683214784,-0.06046387553215027
3.764580249786377,0.11539635062217712,-0.44804301857948303,0.4060807228088379,-0.06733043491840363,0.0009536888683214784,-0.06046387553215027
3.7845778465270996,0.11615930497646332,-0.4514763057231903,0.40951400995254517,-0.06771191209554672,0.00019073777366429567,-0.06084534898400307
3.8046584129333496,0.11692225188016891,-0.4549095928668976,0.41409170627593994,-0.06771191209554672,0.000572213320992887,-0.06084534898400307
3.8247995376586914,0.11692225188016891,-0.45834288001060486,0.4179064631462097,-0.06809338182210922,0.000572213320992887,-0.061226826161146164
3.845151662826538,0.11730372905731201,-0.46139466762542725,0.421339750289917,-0.06847485899925232,0.000572213320992887,-0.06160829961299896
3.8653671741485596,0.1180666834115982,-0.465209424495697,0.42553597688674927,-0.06847485899925232,0.000572213320992887,-0.06198977679014206
3.8856258392333984,0.1188296303153038,-0.4678797721862793,0.42820629477500916,-0.06961929053068161,0.00019073777366429567,-0.06313420087099075
3.9057652950286865,0.1192111074924469,-0.4709315598011017,0.43202105164527893,-0.07038223743438721,0.00019073777366429567,-0.06351567804813385
3.925821542739868,0.1192111074924469,-0.4732204079627991,0.4346913993358612,-0.0711451917886734,0.000572213320992887,-0.06427863240242004
3.9459068775177,0.12073700875043869,-0.47741663455963135,0.439269095659256,-0.0711451917886734,0.00019073777366429567,-0.06504157930612564
3.9659719467163086,0.12111848592758179,-0.481612890958786,0.44346532225608826,-0.0715266615152359,0.00019073777366429567,-0.06542305648326874
3.986046552658081,0.12149996310472488,-0.4846646785736084,0.44689860939979553,-0.071908138692379,0.000572213320992887,-0.06618601083755493
4.006160736083984,0.12302586436271667,-0.4884794354438782,0.4510948359966278,-0.0722896158695221,0.00019073777366429567,-0.06771191209554672
4.0263450145721436,0.12340734153985977,-0.49191272258758545,0.4545281231403351,-0.0722896158695221,0.000572213320992887,-0.06771191209554672
4.04648232460022,0.12455176562070847,-0.4968718886375427,0.46025025844573975,-0.07267109304666519,-0.00019073777366429567,-0.06809338182210922
4.066586256027222,0.12569619715213776,-0.501068115234375,0.4640650153160095,-0.07381551712751389,0.0009536888683214784,-0.06809338182210922
4.086659669876099,0.12645913660526276,-0.5052643418312073,0.4701686203479767,-0.07457847148180008,0.000572213320992887,-0.06847485899925232
4.106716871261597,0.12645913660526276,-0.5086976289749146,0.4732204079627991,-0.07495994865894318,0.000572213320992887,-0.06885633617639542
4.126831531524658,0.12760357558727264,-0.5121309161186218,0.47817960381507874,-0.07534141838550568,0.00019073777366429567,-0.06923781335353851
4.146871328353882,0.12836651504039764,-0.5159456729888916,0.4819943606853485,-0.07572289556264877,0.00019073777366429567,-0.07038223743438721
4.1670002937316895,0.12951095402240753,-0.5209048390388489,0.4865720570087433,-0.07572289556264877,0.000572213320992887,-0.0711451917886734
4.187126398086548,0.12989242374897003,-0.5247195959091187,0.49000534415245056,-0.07648584991693497,0.000572213320992887,-0.071908138692379
4.207172393798828,0.13141833245754242,-0.5289158225059509,0.49496451020240784,-0.07686731964349747,-0.000572213320992887,-0.07267109304666519
4.227238655090332,0.13179980218410492,-0.533875048160553,0.499542236328125,-0.07724879682064056,0.0009536888683214784,-0.07305257022380829
4.247469663619995,0.13179980218410492,-0.5365453362464905,0.5029755234718323,-0.07839322835206985,0.000572213320992887,-0.07534141838550568
4.267562627792358,0.13218127191066742,-0.5407415628433228,0.507553219795227,-0.07877469807863235,0.000572213320992887,-0.07572289556264877
4.287630081176758,0.1329442262649536,-0.5430304408073425,0.5113679766654968,-0.07877469807863235,-0.000572213320992887,-0.07572289556264877
4.307716608047485,0.1337071806192398,-0.5476081371307373,0.5167086124420166,-0.07915617525577545,-0.000572213320992887,-0.07572289556264877
4.327791929244995,0.1340886503458023,-0.5518043637275696,0.5216678380966187,-0.07953765243291855,-0.000572213320992887,-0.07610437273979187
4.348041296005249,0.135233074426651,-0.5563820600509644,0.5266270041465759,-0.07991912961006165,-0.00019073777366429567,-0.07648584991693497
4.368134260177612,0.1367589831352234,-0.5613412857055664,0.5331120491027832,-0.08030059933662415,-0.00019073777366429567,-0.07686731964349747
4.388183355331421,0.13790340721607208,-0.5663004517555237,0.5380712747573853,-0.08182650804519653,-0.00019073777366429567,-0.07801175117492676
4.408278942108154,0.13942931592464447,-0.5724040865898132,0.5457007884979248,-0.08258945494890213,-0.0009536888683214784,-0.07877469807863235
4.428451061248779,0.14057374000549316,-0.5773632526397705,0.5518043637275696,-0.08297093212604523,0.00019073777366429567,-0.07953765243291855
4.44884991645813,0.14095520973205566,-0.5819409489631653,0.5575265288352966,-0.08297093212604523,0.000572213320992887,-0.07991912961006165
4.468931198120117,0.14171816408634186,-0.5876630544662476,0.5651560425758362,-0.08335240930318832,-0.00019073777366429567,-0.08030059933662415
4.489058017730713,0.14248111844062805,-0.5914778113365173,0.569733738899231,-0.08373387902975082,-0.00019073777366429567,-0.08220797777175903
4.509294271469116,0.14362554252147675,-0.5975814461708069,0.576981782913208,-0.08449683338403702,-0.0013351644156500697,-0.08297093212604523
4.52940034866333,0.14515145123004913,-0.6036850810050964,0.5838482975959778,-0.08564125746488571,-0.001716639962978661,-0.08335240930318832
4.549466133117676,0.14591439068317413,-0.6086442470550537,0.5888075232505798,-0.0864042118191719,-0.0013351644156500697,-0.08373387902975082
4.569567441940308,0.14629587531089783,-0.6147478222846985,0.5960555672645569,-0.086785688996315,-0.000572213320992887,-0.08487831056118011
4.589660167694092,0.14629587531089783,-0.620088517665863,0.6021591424942017,-0.0871671661734581,-0.00019073777366429567,-0.08602273464202881
4.6099255084991455,0.14782176911830902,-0.6273365616798401,0.6090257167816162,-0.0883115902543068,-0.0013351644156500697,-0.0864042118191719
4.630026578903198,0.1493476778268814,-0.6334401369094849,0.6162737607955933,-0.08907453715801239,-0.0009536888683214784,-0.0864042118191719
4.650068998336792,0.1504921019077301,-0.6406881809234619,0.6239032745361328,-0.08983749151229858,-0.0020981156267225742,-0.086785688996315
4.67016077041626,0.1520180106163025,-0.648699164390564,0.6338216066360474,-0.09021896868944168,-0.0024795911740511656,-0.086785688996315
4.690229177474976,0.1527809500694275,-0.655184268951416,0.6418325901031494,-0.09060044586658478,-0.0024795911740511656,-0.0875486359000206
4.710346937179565,0.15316243469715118,-0.6605249047279358,0.648699164390564,-0.09136339277029037,-0.0013351644156500697,-0.0879301130771637
4.73054313659668,0.15392538905143738,-0.6673914790153503,0.6586175560951233,-0.09212634712457657,-0.0013351644156500697,-0.08945601433515549
4.750553846359253,0.15468832850456238,-0.6742580533027649,0.6647211313247681,-0.09403372555971146,-0.0013351644156500697,-0.09021896868944168
4.770650863647461,0.15659570693969727,-0.6818875670433044,0.6734950542449951,-0.09441519528627396,-0.002861066721379757,-0.09098191559314728
4.7907562255859375,0.15774014592170715,-0.6872282028198242,0.6799801588058472,-0.09441519528627396,-0.002861066721379757,-0.09136339277029037
4.810828447341919,0.15926603972911835,-0.6952391862869263,0.689517080783844,-0.09479667246341705,-0.0036240178160369396,-0.09288929402828217
4.830910921096802,0.16002899408340454,-0.7021057605743408,0.6960021257400513,-0.09670405089855194,-0.0036240178160369396,-0.09403372555971146
4.85110068321228,0.16117341816425323,-0.7108796834945679,0.7055390477180481,-0.09746700525283813,-0.0024795911740511656,-0.09403372555971146
4.871253967285156,0.16269932687282562,-0.7185091972351074,0.7150759100914001,-0.09784847497940063,-0.002861066721379757,-0.09479667246341705
4.891275405883789,0.16384375095367432,-0.7272831201553345,0.7234683632850647,-0.09822995215654373,-0.0020981156267225742,-0.09517814964056015
4.911380767822266,0.1653696447610855,-0.7383459210395813,0.735675573348999,-0.09861142933368683,-0.0024795911740511656,-0.09632257372140884
4.931515693664551,0.1668955534696579,-0.7475013136863708,0.7455939650535583,-0.09899290651082993,-0.0032425422687083483,-0.09784847497940063
4.951575756072998,0.1672770231962204,-0.7555122971534729,0.7547493577003479,-0.10013733059167862,-0.002861066721379757,-0.09861142933368683
4.971646547317505,0.16880293190479279,-0.7669565677642822,0.7673380374908447,-0.10128175467252731,-0.0032425422687083483,-0.09975585341453552
4.991750001907349,0.16994735598564148,-0.776493489742279,0.7776378989219666,-0.10204470902681351,-0.0036240178160369396,-0.10204470902681351
5.011940956115723,0.17109178006649017,-0.7879377603530884,0.7890821695327759,-0.1031891331076622,-0.0032425422687083483,-0.10204470902681351
5.032011032104492,0.17261768877506256,-0.7982375621795654,0.8012893795967102,-0.10433356463909149,-0.004005493130534887,-0.1024261862039566
5.052296876907349,0.17452506721019745,-0.8073930144309998,0.810826301574707,-0.10509651154279709,-0.004005493130534887,-0.1035706102848053
5.072462797164917,0.17605096101760864,-0.8192187547683716,0.8237964510917664,-0.10547798871994019,-0.0036240178160369396,-0.10509651154279709
5.092574596405029,0.17681391537189484,-0.8306630253791809,0.8352407217025757,-0.10585946589708328,-0.005149920005351305,-0.10585946589708328
5.112640380859375,0.17719538509845734,-0.8436331748962402,0.84897381067276,-0.10662241280078888,-0.005531395319849253,-0.10700388997793198
5.132695198059082,0.17910276353359222,-0.8550774455070496,0.8623254895210266,-0.10700388997793198,-0.006294346414506435,-0.10967422276735306
5.152772665023804,0.1810101419687271,-0.8657587766647339,0.8737697601318359,-0.10852979123592377,-0.006294346414506435,-0.11005569249391556
5.172851800918579,0.182917520403862,-0.8802548050880432,0.8901731967926025,-0.10891126841306686,-0.007057297509163618,-0.11234454810619354
5.19296669960022,0.1844434291124344,-0.8939879536628723,0.9039062857627869,-0.10967422276735306,-0.008201723918318748,-0.11272602528333664
5.2132484912872314,0.18635080754756927,-0.9096284508705139,0.9206912517547607,-0.11081864684820175,-0.00858320016413927,-0.11348897218704224
5.233360528945923,0.18863965570926666,-0.9260318875312805,0.9390020370483398,-0.11196307092905045,-0.00858320016413927,-0.11463340371847153
5.253492116928101,0.19092851877212524,-0.9412909150123596,0.9538795948028564,-0.11272602528333664,-0.0078202486038208,-0.11692225188016891
5.273585081100464,0.19398032128810883,-0.9584572911262512,0.9699015617370605,-0.11425192654132843,-0.0078202486038208,-0.1184481605887413
5.293739318847656,0.19550621509552002,-0.9775310754776001,0.9863049983978271,-0.11501488089561462,-0.009727626107633114,-0.1203555315732956
5.313983201980591,0.1977950781583786,-1.0000381469726562,1.0053788423538208,-0.11654078215360641,-0.013542382046580315,-0.12149996310472488
5.334049940109253,0.20122835040092468,-1.021400809288025,1.0263599157333374,-0.11730372905731201,-0.016212711110711098,-0.12302586436271667
5.354142189025879,0.20389868319034576,-1.042000412940979,1.0458152294158936,-0.1180666834115982,-0.016975661739706993,-0.12531471252441406
5.374315023422241,0.20733195543289185,-1.0652704238891602,1.0694667100906372,-0.11959258466959,-0.014686808921396732,-0.12836651504039764
5.394416332244873,0.20885786414146423,-1.0862516164779663,1.0900664329528809,-0.12073700875043869,-0.018501564860343933,-0.12951095402240753
5.414995193481445,0.21076524257659912,-1.11142897605896,1.1167696714401245,-0.12188144028186798,-0.01735713705420494,-0.13179980218410492
5.435082912445068,0.2145799994468689,-1.1388952732086182,1.1472877264022827,-0.12378881871700287,-0.01773861236870289,-0.1337071806192398
5.455135345458984,0.21801327168941498,-1.1606394052505493,1.1732280254364014,-0.12455176562070847,-0.018501564860343933,-0.1367589831352234
5.475259780883789,0.22144655883312225,-1.1869611740112305,1.204890489578247,-0.12569619715213776,-0.014686808921396732,-0.14019227027893066
5.495309352874756,0.22449836134910583,-1.2136644124984741,1.2354085445404053,-0.12798504531383514,-0.01735713705420494,-0.14248111844062805
5.515406847000122,0.22755016386508942,-1.2453268766403198,1.2674524784088135,-0.12912946939468384,-0.02079041674733162,-0.14591439068317413
5.5354695320129395,0.2313649207353592,-1.2708858251571655,1.2964446544647217,-0.13179980218410492,-0.02384222112596035,-0.14820325374603271
5.555622816085815,0.23670557141304016,-1.3006408214569092,1.3300144672393799,-0.1325627565383911,-0.02536812424659729,-0.1520180106163025
5.575679540634155,0.23975738883018494,-1.3323034048080444,1.3639658689498901,-0.1348516047000885,-0.02727550081908703,-0.15621423721313477
5.595803737640381,0.24280919134616852,-1.3670176267623901,1.3986800909042358,-0.1363775134086609,-0.030708782374858856,-0.16193637251853943
5.6159117221832275,0.2473868876695633,-1.3948653936386108,1.4280537366867065,-0.13904783129692078,-0.03299763426184654,-0.1668955534696579
5.635988473892212,0.25272753834724426,-1.425764799118042,1.4589532613754272,-0.14171816408634186,-0.032616160809993744,-0.17261768877506256
5.656066417694092,0.25539788603782654,-1.4536125659942627,1.4852750301361084,-0.14324407279491425,-0.03490501269698143,-0.17757686972618103
5.676224946975708,0.2576867341995239,-1.4822232723236084,1.5115967988967896,-0.14591439068317413,-0.0394827201962471,-0.1840619444847107
5.696271896362305,0.2622644305229187,-1.5070191621780396,1.5341038703918457,-0.14858472347259521,-0.04329747334122658,-0.19092851877212524
5.716408014297485,0.266460657119751,-1.5291447639465332,1.5527962446212769,-0.1512550562620163,-0.04444190114736557,-0.19512474536895752
5.736637353897095,0.26874953508377075,-1.5482184886932373,1.568818211555481,-0.1527809500694275,-0.04406042397022247,-0.2004653960466385
5.7575438022613525,0.26989394426345825,-1.562333106994629,1.579880952835083,-0.15430685877799988,-0.045204851776361465,-0.20504310727119446
5.777656078338623,0.27141985297203064,-1.573395848274231,1.589417815208435,-0.15659570693969727,-0.04711223021149635,-0.20923933386802673
5.797746181488037,0.27180132269859314,-1.5772106647491455,1.592851161956787,-0.15774014592170715,-0.048638131469488144,-0.212672621011734
5.817881107330322,0.27180132269859314,-1.578355073928833,1.5947585105895996,-0.15812161564826965,-0.048638131469488144,-0.2149614691734314
5.837977647781372,0.27180132269859314,-1.576829195022583,1.595902919769287,-0.15812161564826965,-0.050164032727479935,-0.2161058932542801
5.858038902282715,0.27141985297203064,-1.5749218463897705,1.5962843894958496,-0.15812161564826965,-0.05283436179161072,-0.21648737788200378
5.878118991851807,0.27065691351890564,-1.572632908821106,1.597428798675537,-0.15812161564826965,-0.0558861680328846,-0.21686884760856628
5.898197650909424,0.27027541399002075,-1.5714884996414185,1.597428798675537,-0.15850308537483215,-0.05741206929087639,-0.21725031733512878
5.918382883071899,0.26951247453689575,-1.5707255601882935,1.597428798675537,-0.15850308537483215,-0.057793546468019485,-0.21763180196285248
5.938476324081421,0.26951247453689575,-1.570344090461731,1.597428798675537,-0.15850308537483215,-0.05855649709701538,-0.21763180196285248
5.958544015884399,0.26951247453689575,-1.5707255601882935,1.597428798675537,-0.15850308537483215,-0.05893797054886818,-0.21801327168941498
5.978622674942017,0.26951247453689575,-1.5707255601882935,1.597428798675537,-0.15850308537483215,-0.05855649709701538,-0.21839475631713867
5.9988274574279785,0.26951247453689575,-1.570344090461731,1.597428798675537,-0.15850308537483215,-0.05855649709701538,-0.21915769577026367
6.019054174423218,0.26951247453689575,-1.569581151008606,1.597428798675537,-0.15888457000255585,-0.058175019919872284,-0.22106507420539856
6.039217948913574,0.26913100481033325,-1.5684367418289185,1.5978103876113892,-0.15926603972911835,-0.058175019919872284,-0.22182802855968475
6.059223651885986,0.26874953508377075,-1.5676738023757935,1.5981918573379517,-0.15926603972911835,-0.058175019919872284,-0.22220951318740845
6.0794689655303955,0.26836803555488586,-1.5669108629226685,1.5985733270645142,-0.15964750945568085,-0.05893797054886818,-0.22259098291397095
6.099555492401123,0.26836803555488586,-1.566147804260254,1.5985733270645142,-0.15964750945568085,-0.06008239835500717,-0.22373540699481964
6.119625568389893,0.26798656582832336,-1.566147804260254,1.5993362665176392,-0.16002899408340454,-0.06008239835500717,-0.22487983107566833
6.1399147510528564,0.26760509610176086,-1.5657663345336914,1.5989547967910767,-0.16041046380996704,-0.06008239835500717,-0.22487983107566833
6.159998416900635,0.26722362637519836,-1.565384864807129,1.5993362665176392,-0.16041046380996704,-0.06008239835500717,-0.22526131570339203
6.1801018714904785,0.26722362637519836,-1.5650033950805664,1.5993362665176392,-0.16079194843769073,-0.06008239835500717,-0.22526131570339203
6.200193643569946,0.266460657119751,-1.563858985900879,1.5997177362442017,-0.16079194843769073,-0.05970092490315437,-0.22602425515651703
6.220298767089844,0.266460657119751,-1.563096046447754,1.5997177362442017,-0.16117341816425323,-0.06008239835500717,-0.22716869413852692
6.240399122238159,0.266460657119751,-1.5627145767211914,1.5997177362442017,-0.16117341816425323,-0.06046387553215027,-0.2286945879459381
6.260502815246582,0.265697717666626,-1.5619516372680664,1.6004806756973267,-0.16117341816425323,-0.061226826161146164,-0.2294575423002243
6.280568838119507,0.2653162479400635,-1.5611886978149414,1.6004806756973267,-0.16155488789081573,-0.06160829961299896,-0.2298390120267868
6.300724267959595,0.264934778213501,-1.560807228088379,1.6004806756973267,-0.16155488789081573,-0.06198977679014206,-0.2317463904619217
6.320758819580078,0.2641718089580536,-1.5604257583618164,1.6004806756973267,-0.16193637251853943,-0.06198977679014206,-0.23327229917049408
6.340846538543701,0.2641718089580536,-1.560044288635254,1.6004806756973267,-0.16193637251853943,-0.06275273114442825,-0.23327229917049408
6.360929489135742,0.2637903392314911,-1.559281349182129,1.6008621454238892,-0.16193637251853943,-0.06389715522527695,-0.23403525352478027
6.380985260009766,0.2634088695049286,-1.5588998794555664,1.6012436151504517,-0.16193637251853943,-0.06466010212898254,-0.23517967760562897
6.401127815246582,0.2634088695049286,-1.5581368207931519,1.6020065546035767,-0.16231784224510193,-0.06504157930612564,-0.23632410168647766
6.421148300170898,0.2630273997783661,-1.5573738813400269,1.6023880243301392,-0.16269932687282562,-0.06542305648326874,-0.23632410168647766
6.441254377365112,0.2626459002494812,-1.5566109418869019,1.6027694940567017,-0.16269932687282562,-0.06618601083755493,-0.23746852576732635
6.461402416229248,0.2622644305229187,-1.5562294721603394,1.6031509637832642,-0.16269932687282562,-0.06618601083755493,-0.23899443447589874
6.481426954269409,0.2622644305229187,-1.5554665327072144,1.6035324335098267,-0.16346226632595062,-0.06694895774126053,-0.24090181291103363
6.501523733139038,0.2618829607963562,-1.5547035932540894,1.6039139032363892,-0.16346226632595062,-0.06733043491840363,-0.24090181291103363
6.521588325500488,0.2615014910697937,-1.5543221235275269,1.6039139032363892,-0.16384375095367432,-0.06771191209554672,-0.24166475236415863
6.541690349578857,0.2615014910697937,-1.5531777143478394,1.6042953729629517,-0.16384375095367432,-0.06771191209554672,-0.24319066107273102
6.5617570877075195,0.2611200213432312,-1.5527962446212769,1.6042953729629517,-0.1646067053079605,-0.06809338182210922,-0.24357213079929352
6.581963539123535,0.2611200213432312,-1.5520333051681519,1.6042953729629517,-0.1646067053079605,-0.06809338182210922,-0.2439536154270172
6.60205602645874,0.2611200213432312,-1.5505073070526123,1.6046768426895142,-0.1646067053079605,-0.06809338182210922,-0.2443350851535797
6.622275352478027,0.2607385218143463,-1.5501258373260498,1.6046768426895142,-0.164988175034523,-0.06809338182210922,-0.2454795092344284
6.642331123352051,0.2603570520877838,-1.5493628978729248,1.6046768426895142,-0.164988175034523,-0.06809338182210922,-0.247768372297287
6.662564992904663,0.2599755823612213,-1.5482184886932373,1.6050583124160767,-0.1653696447610855,-0.06771191209554672,-0.248531311750412
6.682668447494507,0.2592126429080963,-1.5478370189666748,1.6046768426895142,-0.1653696447610855,-0.06809338182210922,-0.2504386901855469
6.702791213989258,0.2588311731815338,-1.5470740795135498,1.6050583124160767,-0.1653696447610855,-0.06923781335353851,-0.25120165944099426
6.722835302352905,0.2584496736526489,-1.5463111400604248,1.6058213710784912,-0.1653696447610855,-0.07038223743438721,-0.25120165944099426
6.742962121963501,0.2573052644729614,-1.5455482006072998,1.6062028408050537,-0.1653696447610855,-0.0707637146115303,-0.25196459889411926
6.763067960739136,0.2569237947463989,-1.5444037914276123,1.6065843105316162,-0.1657511293888092,-0.0707637146115303,-0.25272753834724426
6.7831079959869385,0.2569237947463989,-1.5436408519744873,1.6065843105316162,-0.1657511293888092,-0.0715266615152359,-0.25501641631126404
6.8032379150390625,0.25654229521751404,-1.5424963235855103,1.6065843105316162,-0.1657511293888092,-0.0722896158695221,-0.25577935576438904
6.823312759399414,0.25616082549095154,-1.5417333841323853,1.6069657802581787,-0.1661325991153717,-0.071908138692379,-0.2573052644729614
6.843414068222046,0.25616082549095154,-1.5405889749526978,1.6069657802581787,-0.1665140837430954,-0.071908138692379,-0.2595941126346588
6.863508939743042,0.25577935576438904,-1.5402075052261353,1.6069657802581787,-0.1665140837430954,-0.0722896158695221,-0.2599755823612213
6.883717775344849,0.25539788603782654,-1.5398260354995728,1.6073472499847412,-0.1665140837430954,-0.0722896158695221,-0.2618829607963562
6.903844833374023,0.25501641631126404,-1.5390630960464478,1.6077287197113037,-0.1672770231962204,-0.0722896158695221,-0.2630273997783661
6.923934459686279,0.25501641631126404,-1.5379186868667603,1.6077287197113037,-0.1676585078239441,-0.07305257022380829,-0.2634088695049286
6.944128751754761,0.25463491678237915,-1.5367742776870728,1.6081101894378662,-0.1680399775505066,-0.07419699430465698,-0.264934778213501
6.9642016887664795,0.25425344705581665,-1.5352483987808228,1.6081101894378662,-0.1684214472770691,-0.07457847148180008,-0.26722362637519836
6.984261751174927,0.25425344705581665,-1.5344853401184082,1.6084916591644287,-0.16880293190479279,-0.07495994865894318,-0.26913100481033325
7.004367828369141,0.25425344705581665,-1.5329594612121582,1.6084916591644287,-0.16880293190479279,-0.07572289556264877,-0.26989394426345825
7.024415731430054,0.25387197732925415,-1.5318150520324707,1.6088731288909912,-0.16880293190479279,-0.07572289556264877,-0.27027541399002075
7.044882535934448,0.25387197732925415,-1.5302891731262207,1.6088731288909912,-0.16880293190479279,-0.07610437273979187,-0.27103838324546814
7.064997434616089,0.25387197732925415,-1.5287632942199707,1.6088731288909912,-0.16880293190479279,-0.07610437273979187,-0.27218279242515564
7.08515191078186,0.25349050760269165,-1.5276188850402832,1.6096360683441162,-0.16918440163135529,-0.07572289556264877,-0.2748531401157379
7.105183362960815,0.25310903787612915,-1.5264743566513062,1.6096360683441162,-0.16956588625907898,-0.07572289556264877,-0.2771419882774353
7.125286817550659,0.25272753834724426,-1.5241855382919312,1.6100175380706787,-0.16994735598564148,-0.07572289556264877,-0.2779049277305603
7.145345449447632,0.25196459889411926,-1.5230411291122437,1.6100175380706787,-0.17032882571220398,-0.07610437273979187,-0.2782863974571228
7.165424585342407,0.25158312916755676,-1.5215152502059937,1.6100175380706787,-0.17109178006649017,-0.07686731964349747,-0.2794308364391327
7.185558319091797,0.25158312916755676,-1.5203708410263062,1.6103990077972412,-0.17185473442077637,-0.07839322835206985,-0.2817196846008301
7.2055933475494385,0.25120165944099426,-1.5196079015731812,1.6103990077972412,-0.17223620414733887,-0.07877469807863235,-0.28286412358283997
7.225654363632202,0.2500572204589844,-1.5180819034576416,1.6107804775238037,-0.17223620414733887,-0.07877469807863235,-0.28553444147109985
7.245710372924805,0.2500572204589844,-1.516937494277954,1.6107804775238037,-0.17261768877506256,-0.07839322835206985,-0.28706035017967224
7.26579737663269,0.2500572204589844,-1.5150301456451416,1.6107804775238037,-0.17261768877506256,-0.07877469807863235,-0.28896772861480713
7.28587794303894,0.2500572204589844,-1.513122797012329,1.6107804775238037,-0.17261768877506256,-0.07915617525577545,-0.28973066806793213
7.305947542190552,0.2500572204589844,-1.511215329170227,1.6111619472503662,-0.17299915850162506,-0.07915617525577545,-0.2927824854850769
7.326038360595703,0.24967575073242188,-1.5077821016311646,1.6115434169769287,-0.17299915850162506,-0.07953765243291855,-0.2962157726287842
7.346129417419434,0.24967575073242188,-1.505874752998352,1.6119248867034912,-0.17338064312934875,-0.07953765243291855,-0.2965972423553467
7.366333961486816,0.2500572204589844,-1.50244140625,1.6119248867034912,-0.17338064312934875,-0.07991912961006165,-0.29850462079048157
7.386456251144409,0.24967575073242188,-1.498626708984375,1.6119248867034912,-0.17376211285591125,-0.07991912961006165,-0.30117493867874146
7.406495094299316,0.24967575073242188,-1.496337890625,1.6119248867034912,-0.17376211285591125,-0.07991912961006165,-0.30384528636932373
7.42657732963562,0.24929426610469818,-1.492141604423523,1.6119248867034912,-0.17414358258247375,-0.07991912961006165,-0.30537116527557373
7.446652412414551,0.24891279637813568,-1.4887083768844604,1.6123063564300537,-0.17490653693675995,-0.08068207651376724,-0.3084229826927185
7.467069625854492,0.248531311750412,-1.484130620956421,1.6123063564300537,-0.17490653693675995,-0.08144503086805344,-0.3130006790161133
7.487158298492432,0.247768372297287,-1.4787899255752563,1.6123063564300537,-0.17566949129104614,-0.08220797777175903,-0.31719690561294556
7.507683038711548,0.247768372297287,-1.4749752283096313,1.6123063564300537,-0.17605096101760864,-0.08220797777175903,-0.3225375711917877
7.527721643447876,0.2473868876695633,-1.4673457145690918,1.6126878261566162,-0.17605096101760864,-0.08297093212604523,-0.325970858335495
7.547781467437744,0.2470054179430008,-1.4627679586410522,1.6126878261566162,-0.17643244564533234,-0.08258945494890213,-0.33131152391433716
7.567861080169678,0.2470054179430008,-1.4547569751739502,1.6126878261566162,-0.17643244564533234,-0.08297093212604523,-0.3377965986728668
7.587955951690674,0.2470054179430008,-1.4490348100662231,1.6126878261566162,-0.17681391537189484,-0.08258945494890213,-0.34657052159309387
7.6080334186553955,0.2466239482164383,-1.441023826599121,1.6123063564300537,-0.17681391537189484,-0.08258945494890213,-0.3545815348625183
7.628069639205933,0.2466239482164383,-1.433012843132019,1.6111619472503662,-0.17719538509845734,-0.08220797777175903,-0.36449989676475525
7.648493528366089,0.2462424635887146,-1.425001859664917,1.6096360683441162,-0.17757686972618103,-0.08144503086805344,-0.3770885765552521
7.668590784072876,0.2454795092344284,-1.4158464670181274,1.6073472499847412,-0.17757686972618103,-0.08068207651376724,-0.3892957866191864
7.688665866851807,0.2447165697813034,-1.408979892730713,1.6046768426895142,-0.17795833945274353,-0.07991912961006165,-0.403410404920578
7.7087242603302,0.2443350851535797,-1.403639316558838,1.6027694940567017,-0.17795833945274353,-0.07953765243291855,-0.4175249934196472
7.728819131851196,0.2439536154270172,-1.3975356817245483,1.5981918573379517,-0.17833982408046722,-0.07991912961006165,-0.43163958191871643
7.7488648891448975,0.2439536154270172,-1.3944838047027588,1.594377040863037,-0.17872129380702972,-0.07991912961006165,-0.44651713967323303
7.768934488296509,0.2439536154270172,-1.3902876377105713,1.58865487575531,-0.17872129380702972,-0.07915617525577545,-0.46139466762542725
7.789005994796753,0.2439536154270172,-1.3872358798980713,1.583314299583435,-0.17872129380702972,-0.07801175117492676,-0.47703516483306885
7.809456825256348,0.2454795092344284,-1.3838025331497192,1.5794994831085205,-0.17872129380702972,-0.07648584991693497,-0.49191272258758545
7.829554319381714,0.2481498420238495,-1.3780803680419922,1.575303316116333,-0.17872129380702972,-0.07534141838550568,-0.5052643418312073
7.849633455276489,0.25158312916755676,-1.3719768524169922,1.573395848274231,-0.17872129380702972,-0.07534141838550568,-0.5174715518951416
7.8697309494018555,0.25501641631126404,-1.3643473386764526,1.5730143785476685,-0.17910276353359222,-0.07419699430465698,-0.5285343527793884
7.889825820922852,0.25616082549095154,-1.356717824935913,1.5722514390945435,-0.17948424816131592,-0.0707637146115303,-0.5376898050308228
7.9098732471466064,0.2576867341995239,-1.3506141901016235,1.5714884996414185,-0.17948424816131592,-0.06656748056411743,-0.5479896068572998
7.929995059967041,0.2569237947463989,-1.347562313079834,1.568818211555481,-0.1802472025156021,-0.06504157930612564,-0.5579079985618591
7.950092792510986,0.25501641631126404,-1.346036434173584,1.5650033950805664,-0.1802472025156021,-0.06313420087099075,-0.5666819214820862
7.970152378082275,0.25310903787612915,-1.3448920249938965,1.560044288635254,-0.1802472025156021,-0.06237125024199486,-0.576218843460083
7.990249872207642,0.25196459889411926,-1.344510555267334,1.5547035932540894,-0.1802472025156021,-0.06542305648326874,-0.5846112966537476
8.010352611541748,0.24891279637813568,-1.345273494720459,1.5493628978729248,-0.1802472025156021,-0.06847485899925232,-0.5937666893005371
8.030477285385132,0.2508201599121094,-1.342221736907959,1.5466926097869873,-0.1802472025156021,-0.071908138692379,-0.6029220819473267
8.050528526306152,0.25425344705581665,-1.338788390159607,1.5428777933120728,-0.1806286722421646,-0.07572289556264877,-0.6105515956878662
8.070611000061035,0.2580682039260864,-1.3307774066925049,1.5417333841323853,-0.1806286722421646,-0.08030059933662415,-0.6158922910690308
8.090760231018066,0.2641718089580536,-1.3212405443191528,1.5417333841323853,-0.1817730963230133,-0.07991912961006165,-0.620851457118988
8.110783338546753,0.26798656582832336,-1.3143739700317383,1.5417333841323853,-0.1844434291124344,-0.07724879682064056,-0.6254291534423828
8.130859613418579,0.26874953508377075,-1.3113222122192383,1.5390630960464478,-0.18673227727413177,-0.06733043491840363,-0.6315327882766724
8.150948762893677,0.26722362637519836,-1.3101778030395508,1.5367742776870728,-0.18787670135498047,-0.0555046908557415,-0.6380178332328796
8.171277284622192,0.2626459002494812,-1.3101778030395508,1.5321965217590332,-0.18902114033699036,-0.049782559275627136,-0.6441214680671692
8.19140887260437,0.25654229521751404,-1.3117036819458008,1.5272372961044312,-0.18902114033699036,-0.04482337832450867,-0.6490806341171265
8.211452722549438,0.25272753834724426,-1.3181887865066528,1.5238040685653687,-0.18902114033699036,-0.045204851776361465,-0.6570916175842285
8.231543064117432,0.2504386901855469,-1.3200961351394653,1.5218967199325562,-0.18863965570926666,-0.0551232174038887,-0.6639581918716431
8.25162124633789,0.24891279637813568,-1.3212405443191528,1.517700433731079,-0.18863965570926666,-0.06389715522527695,-0.6692988276481628
8.271909713745117,0.25196459889411926,-1.3162813186645508,1.5157930850982666,-0.18863965570926666,-0.0722896158695221,-0.6719691753387451
8.292046546936035,0.2592126429080963,-1.3071259260177612,1.5165560245513916,-0.18863965570926666,-0.0871671661734581,-0.6738765835762024
8.312093734741211,0.2660791873931885,-1.2968261241912842,1.519226312637329,-0.18902114033699036,-0.09594109654426575,-0.6757839322090149
8.332222700119019,0.2725642919540405,-1.2907224893569946,1.5211337804794312,-0.19054703414440155,-0.09632257372140884,-0.6773098111152649
8.352272987365723,0.2782863974571228,-1.2865263223648071,1.5226596593856812,-0.19321736693382263,-0.09174486994743347,-0.6788357496261597
8.372411251068115,0.28248265385627747,-1.284618854522705,1.5199893712997437,-0.1962691694498062,-0.07991912961006165,-0.6818875670433044
8.392504692077637,0.28286412358283997,-1.2850003242492676,1.5142672061920166,-0.1993209719657898,-0.06160829961299896,-0.6845578551292419
8.412805080413818,0.2798123061656952,-1.2876707315444946,1.5093079805374146,-0.20084688067436218,-0.051689937710762024,-0.6876096725463867
8.43290114402771,0.27218279242515564,-1.2922483682632446,1.50091552734375,-0.20313572883605957,-0.04139009863138199,-0.6914244294166565
8.453239440917969,0.2637903392314911,-1.3021668195724487,1.496337890625,-0.20313572883605957,-0.032616160809993744,-0.6960021257400513
8.473315715789795,0.25196459889411926,-1.3117036819458008,1.4940489530563354,-0.20428015291690826,-0.032616160809993744,-0.7013428211212158
8.49341607093811,0.2439536154270172,-1.3155183792114258,1.491378664970398,-0.20504310727119446,-0.03833829239010811,-0.7051575779914856
8.513485670089722,0.23746852576732635,-1.3155183792114258,1.491378664970398,-0.20466163754463196,-0.04901960864663124,-0.7070649266242981
8.533579111099243,0.23479819297790527,-1.3113222122192383,1.493667483329773,-0.20466163754463196,-0.06504157930612564,-0.7078278660774231
8.553641557693481,0.23785001039505005,-1.3025482892990112,1.496337890625,-0.20351719856262207,-0.08564125746488571,-0.7070649266242981
8.573736429214478,0.24242770671844482,-1.2926298379898071,1.4993896484375,-0.20389868319034576,-0.10090028494596481,-0.7074463963508606
8.593794584274292,0.2500572204589844,-1.284618854522705,1.5005340576171875,-0.20389868319034576,-0.10929274559020996,-0.7070649266242981
8.613945007324219,0.2607385218143463,-1.2773709297180176,1.5005340576171875,-0.20428015291690826,-0.10814831405878067,-0.7066834568977356
8.634056329727173,0.27141985297203064,-1.2739375829696655,1.4997711181640625,-0.20504310727119446,-0.1028076633810997,-0.7070649266242981
8.654146432876587,0.28400853276252747,-1.2724117040634155,1.496337890625,-0.20618753135204315,-0.09327077120542526,-0.7070649266242981
8.674201488494873,0.2931639552116394,-1.2739375829696655,1.492141604423523,-0.20695048570632935,-0.07495994865894318,-0.7074463963508606
8.694432497024536,0.2954528033733368,-1.27927827835083,1.4868009090423584,-0.20809490978717804,-0.05970092490315437,-0.7097352743148804
8.714539527893066,0.2920195460319519,-1.2880522012710571,1.4822232723236084,-0.21076524257659912,-0.04253452271223068,-0.7135500311851501
8.734625577926636,0.28477150201797485,-1.2945373058319092,1.4803158044815063,-0.21190966665744781,-0.02727550081908703,-0.7166017889976501
8.754751682281494,0.27180132269859314,-1.3036926984786987,1.4795528650283813,-0.2138170450925827,-0.018501564860343933,-0.7200350761413574
8.77479076385498,0.2607385218143463,-1.3082703351974487,1.4795528650283813,-0.2157244235277176,-0.019645990803837776,-0.7219424843788147
8.794896841049194,0.247768372297287,-1.3101778030395508,1.4803158044815063,-0.21725031733512878,-0.02727550081908703,-0.7230868935585022
8.814985275268555,0.2309834510087967,-1.3097963333129883,1.4837491512298584,-0.21725031733512878,-0.035667963325977325,-0.7223239541053772
8.83514666557312,0.21992065012454987,-1.3075073957443237,1.488326907157898,-0.21763180196285248,-0.05703059583902359,-0.7219424843788147
8.8551664352417,0.21725031733512878,-1.3040741682052612,1.4917601346969604,-0.21763180196285248,-0.08106355369091034,-0.7223239541053772
8.875244855880737,0.22220951318740845,-1.2991149425506592,1.494430422782898,-0.21648737788200378,-0.10013733059167862,-0.7207980751991272
8.895481586456299,0.2290760725736618,-1.2956817150115967,1.4948118925094604,-0.21648737788200378,-0.11463340371847153,-0.7192721366882324
8.91559624671936,0.23746852576732635,-1.2926298379898071,1.4948118925094604,-0.21648737788200378,-0.12340734153985977,-0.7185091972351074
8.935688734054565,0.2473868876695633,-1.2922483682632446,1.494430422782898,-0.21686884760856628,-0.12111848592758179,-0.7185091972351074
8.955812454223633,0.2607385218143463,-1.2930114269256592,1.492904543876648,-0.21686884760856628,-0.10967422276735306,-0.7185091972351074
8.975878715515137,0.2767605185508728,-1.2949187755584717,1.4894713163375854,-0.21763180196285248,-0.09708552807569504,-0.7200350761413574
8.995972871780396,0.28858625888824463,-1.2964446544647217,1.485656499862671,-0.21801327168941498,-0.07763027399778366,-0.7215610146522522
9.016054391860962,0.28591591119766235,-1.2979705333709717,1.484130620956421,-0.21877622604370117,-0.05436026677489281,-0.7227054238319397
9.036206007003784,0.2813382148742676,-1.3002593517303467,1.483367681503296,-0.22106507420539856,-0.0394827201962471,-0.724612832069397
9.056213140487671,0.273708701133728,-1.3006408214569092,1.484130620956421,-0.22449836134910583,-0.02689402550458908,-0.7272831201553345
9.076314449310303,0.2653162479400635,-1.2998778820037842,1.485656499862671,-0.22640573978424072,-0.019645990803837776,-0.728427529335022
9.096414566040039,0.25234606862068176,-1.2987334728240967,1.487945318222046,-0.22640573978424072,-0.02880140393972397,-0.728427529335022
9.116611242294312,0.24052032828330994,-1.2987334728240967,1.4925230741500854,-0.22640573978424072,-0.04253452271223068,-0.7291905283927917
9.137161016464233,0.23785001039505005,-1.2983520030975342,1.495193362236023,-0.22602425515651703,-0.06084534898400307,-0.7288090586662292
9.157317638397217,0.24128328263759613,-1.2983520030975342,1.4955748319625854,-0.22526131570339203,-0.08449683338403702,-0.728427529335022
9.177327871322632,0.24357213079929352,-1.2972075939178467,1.4955748319625854,-0.22411687672138214,-0.10128175467252731,-0.728427529335022
9.19741702079773,0.25158312916755676,-1.2968261241912842,1.4940489530563354,-0.22144655883312225,-0.11158160120248795,-0.7288090586662292
9.217501163482666,0.2603570520877838,-1.2964446544647217,1.492141604423523,-0.22030213475227356,-0.11768520623445511,-0.727664589881897
9.237582445144653,0.27141985297203064,-1.2956817150115967,1.4902342557907104,-0.21992065012454987,-0.11387044936418533,-0.7280460596084595
9.25780200958252,0.28362706303596497,-1.2953002452850342,1.487945318222046,-0.22030213475227356,-0.1039520874619484,-0.7291905283927917
9.27798581123352,0.290875107049942,-1.2953002452850342,1.484893560409546,-0.22068360447883606,-0.08449683338403702,-0.7299534678459167
9.298191547393799,0.28706035017967224,-1.2953002452850342,1.484130620956421,-0.22144655883312225,-0.05207141116261482,-0.7314793467521667
9.318190336227417,0.28362706303596497,-1.2956817150115967,1.4837491512298584,-0.22335393726825714,-0.03604944050312042,-0.7337682247161865
9.338267087936401,0.273708701133728,-1.2953002452850342,1.484130620956421,-0.22793163359165192,-0.02040894143283367,-0.7360570430755615
9.358319520950317,0.265697717666626,-1.2945373058319092,1.485656499862671,-0.2294575423002243,-0.013542382046580315,-0.7375829815864563
9.378403186798096,0.25272753834724426,-1.2937743663787842,1.487945318222046,-0.2294575423002243,-0.02193484455347061,-0.7375829815864563
9.398526906967163,0.23861294984817505,-1.2933928966522217,1.4917601346969604,-0.2290760725736618,-0.03604944050312042,-0.7372015118598938
9.418580770492554,0.23632410168647766,-1.2933928966522217,1.492904543876648,-0.2286945879459381,-0.058175019919872284,-0.7372015118598938
9.438664197921753,0.24052032828330994,-1.2937743663787842,1.492904543876648,-0.22793163359165192,-0.08182650804519653,-0.7368200421333313
9.458727598190308,0.2454795092344284,-1.2937743663787842,1.492141604423523,-0.22526131570339203,-0.1028076633810997,-0.7364385724067688
9.478809356689453,0.25310903787612915,-1.2937743663787842,1.491378664970398,-0.22259098291397095,-0.11615930497646332,-0.7352941036224365
9.49888563156128,0.2634088695049286,-1.2937743663787842,1.4894713163375854,-0.22030213475227356,-0.12493324279785156,-0.733386754989624
9.518940448760986,0.2748531401157379,-1.2937743663787842,1.4875638484954834,-0.21992065012454987,-0.1188296303153038,-0.733386754989624
9.539022445678711,0.28934919834136963,-1.2933928966522217,1.483367681503296,-0.22030213475227356,-0.10204470902681351,-0.7337682247161865
9.559104204177856,0.2962157726287842,-1.2930114269256592,1.4806973934173584,-0.22144655883312225,-0.08602273464202881,-0.734149694442749
9.5791654586792,0.2958342730998993,-1.2933928966522217,1.4791713953018188,-0.22411687672138214,-0.05436026677489281,-0.7368200421333313
9.599305868148804,0.290112167596817,-1.2937743663787842,1.4787899255752563,-0.2283131182193756,-0.032616160809993744,-0.7391088604927063
9.619343996047974,0.2821011543273926,-1.2937743663787842,1.4787899255752563,-0.23289081454277039,-0.013160906732082367,-0.7413977384567261
9.6394362449646,0.27218279242515564,-1.2933928966522217,1.4803158044815063,-0.23441672325134277,-0.004386968910694122,-0.7425421476364136
9.659578800201416,0.2588311731815338,-1.2926298379898071,1.4822232723236084,-0.23556114733219147,-0.010109102353453636,-0.7421606779098511
9.679681301116943,0.2447165697813034,-1.2922483682632446,1.484893560409546,-0.23556114733219147,-0.021553369238972664,-0.7413977384567261
9.699761867523193,0.23556114733219147,-1.2926298379898071,1.488326907157898,-0.23517967760562897,-0.04329747334122658,-0.7410162687301636
9.719833850860596,0.23785001039505005,-1.2930114269256592,1.4887083768844604,-0.23403525352478027,-0.071908138692379,-0.7406347990036011
9.739924907684326,0.2443350851535797,-1.2933928966522217,1.488326907157898,-0.2309834510087967,-0.09632257372140884,-0.7402533292770386
9.760003328323364,0.25120165944099426,-1.2933928966522217,1.487945318222046,-0.22678720951080322,-0.11005569249391556,-0.7387273907661438
9.780121326446533,0.2599755823612213,-1.2933928966522217,1.486419439315796,-0.22411687672138214,-0.12378881871700287,-0.7368200421333313
9.800217866897583,0.272945761680603,-1.2933928966522217,1.484130620956421,-0.22411687672138214,-0.12378881871700287,-0.7368200421333313
9.820329904556274,0.28744181990623474,-1.2930114269256592,1.4822232723236084,-0.22449836134910583,-0.11005569249391556,-0.7372015118598938
9.84055495262146,0.30003052949905396,-1.2926298379898071,1.4787899255752563,-0.22487983107566833,-0.09250781685113907,-0.7379644513130188
9.86064863204956,0.29812315106391907,-1.2926298379898071,1.4768825769424438,-0.22564278542995453,-0.06198977679014206,-0.7383459210395813
9.880759239196777,0.2939268946647644,-1.2926298379898071,1.4757381677627563,-0.2294575423002243,-0.03681239113211632,-0.7406347990036011
9.900805711746216,0.28667888045310974,-1.2926298379898071,1.4757381677627563,-0.23479819297790527,-0.02040894143283367,-0.7425421476364136
9.92088794708252,0.2798123061656952,-1.2922483682632446,1.4765011072158813,-0.23708705604076385,-0.0036240178160369396,-0.7436865568161011
9.94116735458374,0.26836803555488586,-1.2911039590835571,1.4780269861221313,-0.23708705604076385,-0.005912871100008488,-0.7436865568161011
9.961321592330933,0.25310903787612915,-1.2903410196304321,1.481078863143921,-0.23708705604076385,-0.021553369238972664,-0.7436865568161011
9.98136830329895,0.24013885855674744,-1.2903410196304321,1.4845120906829834,-0.23708705604076385,-0.04253452271223068,-0.7436865568161011
10.002065896987915,0.23632410168647766,-1.2911039590835571,1.486419439315796,-0.23632410168647766,-0.06466010212898254,-0.7429236173629761
10.022292375564575,0.23899443447589874,-1.2914854288101196,1.4860379695892334,-0.23441672325134277,-0.09517814964056015,-0.7410162687301636
10.042351961135864,0.2443350851535797,-1.2914854288101196,1.485656499862671,-0.2302204966545105,-0.11425192654132843,-0.7402533292770386
10.06244444847107,0.25158312916755676,-1.2914854288101196,1.4852750301361084,-0.22755016386508942,-0.12607766687870026,-0.7383459210395813
10.082519292831421,0.2595941126346588,-1.2914854288101196,1.484130620956421,-0.22716869413852692,-0.13141833245754242,-0.7375829815864563
10.102980613708496,0.27027541399002075,-1.2914854288101196,1.4829862117767334,-0.22678720951080322,-0.12149996310472488,-0.7379644513130188
10.12312364578247,0.28439003229141235,-1.2914854288101196,1.4806973934173584,-0.22755016386508942,-0.10547798871994019,-0.7387273907661438
10.143172979354858,0.2946898639202118,-1.2911039590835571,1.4784084558486938,-0.22793163359165192,-0.0883115902543068,-0.7394903302192688
10.163346529006958,0.2939268946647644,-1.2911039590835571,1.4768825769424438,-0.2294575423002243,-0.05741206929087639,-0.7406347990036011
10.18344259262085,0.290875107049942,-1.2911039590835571,1.4757381677627563,-0.2317463904619217,-0.03795681521296501,-0.7417792081832886
10.203472375869751,0.28324559330940247,-1.2911039590835571,1.4761196374893188,-0.23479819297790527,-0.02079041674733162,-0.7421606779098511
10.223578453063965,0.2752346098423004,-1.2903410196304321,1.4765011072158813,-0.23708705604076385,-0.011635004542768002,-0.7429236173629761
10.243644714355469,0.2630273997783661,-1.2903410196304321,1.4780269861221313,-0.23670557141304016,-0.01735713705420494,-0.7421606779098511
10.263761520385742,0.2466239482164383,-1.2899595499038696,1.481841802597046,-0.23632410168647766,-0.03223468363285065,-0.7417792081832886
10.28400707244873,0.24013885855674744,-1.2903410196304321,1.484893560409546,-0.23670557141304016,-0.05130846053361893,-0.7417792081832886
10.304220199584961,0.23861294984817505,-1.2911039590835571,1.4860379695892334,-0.23556114733219147,-0.07572289556264877,-0.7410162687301636
10.324309349060059,0.24242770671844482,-1.2914854288101196,1.486419439315796,-0.23365376889705658,-0.1028076633810997,-0.7402533292770386
10.344423294067383,0.2504386901855469,-1.2911039590835571,1.485656499862671,-0.230601966381073,-0.1199740618467331,-0.7398717999458313
10.364493370056152,0.2603570520877838,-1.2911039590835571,1.4845120906829834,-0.22793163359165192,-0.12951095402240753,-0.7375829815864563
10.384551048278809,0.26951247453689575,-1.2911039590835571,1.483367681503296,-0.22602425515651703,-0.13103684782981873,-0.7368200421333313
10.404603481292725,0.2817196846008301,-1.2911039590835571,1.481841802597046,-0.22602425515651703,-0.1203555315732956,-0.7375829815864563
10.424696207046509,0.2962157726287842,-1.2907224893569946,1.4784084558486938,-0.22716869413852692,-0.10471503436565399,-0.7383459210395813
10.444934844970703,0.30231937766075134,-1.2903410196304321,1.4749752283096313,-0.2283131182193756,-0.07877469807863235,-0.7379644513130188
10.465007305145264,0.2977416515350342,-1.2907224893569946,1.4730678796768188,-0.2298390120267868,-0.05359731614589691,-0.7402533292770386
10.485117435455322,0.2904936373233795,-1.2907224893569946,1.4726864099502563,-0.23479819297790527,-0.03147173300385475,-0.7417792081832886
10.505248785018921,0.28400853276252747,-1.2907224893569946,1.4726864099502563,-0.23746852576732635,-0.010109102353453636,-0.7425421476364136
10.525352716445923,0.2725642919540405,-1.2903410196304321,1.4742122888565063,-0.23823148012161255,-0.005149920005351305,-0.7425421476364136
10.54548168182373,0.2576867341995239,-1.2891966104507446,1.4768825769424438,-0.23861294984817505,-0.013160906732082367,-0.7417792081832886
10.565551280975342,0.24052032828330994,-1.2891966104507446,1.4799343347549438,-0.23899443447589874,-0.02994582988321781,-0.7406347990036011
10.585663795471191,0.23746852576732635,-1.2895780801773071,1.483367681503296,-0.23899443447589874,-0.05245288833975792,-0.7413977384567261
10.605792760848999,0.23823148012161255,-1.2907224893569946,1.484893560409546,-0.23708705604076385,-0.08182650804519653,-0.7406347990036011
10.626041889190674,0.2447165697813034,-1.2907224893569946,1.484893560409546,-0.23517967760562897,-0.10433356463909149,-0.7398717999458313
10.646143913269043,0.25310903787612915,-1.2907224893569946,1.484130620956421,-0.2317463904619217,-0.1180666834115982,-0.7391088604927063
10.666267395019531,0.2615014910697937,-1.2903410196304321,1.483367681503296,-0.2302204966545105,-0.12951095402240753,-0.7368200421333313
10.686429023742676,0.2748531401157379,-1.2903410196304321,1.481841802597046,-0.2298390120267868,-0.12149996310472488,-0.7372015118598938
10.706488370895386,0.28973066806793213,-1.2903410196304321,1.4787899255752563,-0.2298390120267868,-0.1039520874619484,-0.7375829815864563
10.726597309112549,0.2977416515350342,-1.2903410196304321,1.4765011072158813,-0.2302204966545105,-0.0875486359000206,-0.7379644513130188
10.746683359146118,0.2973601818084717,-1.2903410196304321,1.4745937585830688,-0.23212787508964539,-0.05855649709701538,-0.7391088604927063
10.766751289367676,0.2946898639202118,-1.2907224893569946,1.4730678796768188,-0.23594263195991516,-0.03185320645570755,-0.7413977384567261
10.786859035491943,0.28515297174453735,-1.2911039590835571,1.4726864099502563,-0.23899443447589874,-0.013160906732082367,-0.7429236173629761
10.806942224502563,0.2794308364391327,-1.2907224893569946,1.4734493494033813,-0.24090181291103363,0.000572213320992887,-0.7436865568161011
10.827027797698975,0.26836803555488586,-1.2903410196304321,1.4753566980361938,-0.24052032828330994,-0.005531395319849253,-0.7433050870895386
10.847102880477905,0.25654229521751404,-1.2895780801773071,1.4772640466690063,-0.24052032828330994,-0.018501564860343933,-0.7425421476364136
10.867216110229492,0.24319066107273102,-1.2895780801773071,1.4795528650283813,-0.24013885855674744,-0.038719769567251205,-0.7417792081832886
10.887320756912231,0.23975738883018494,-1.2907224893569946,1.4829862117767334,-0.23975738883018494,-0.057793546468019485,-0.7417792081832886
10.907380819320679,0.24052032828330994,-1.2918668985366821,1.484130620956421,-0.23823148012161255,-0.08564125746488571,-0.7410162687301636
10.927470684051514,0.2462424635887146,-1.2922483682632446,1.484130620956421,-0.23479819297790527,-0.10547798871994019,-0.7402533292770386
10.947525978088379,0.25425344705581665,-1.2918668985366821,1.484130620956421,-0.2313649207353592,-0.11654078215360641,-0.7391088604927063
10.967628717422485,0.26684215664863586,-1.2914854288101196,1.483367681503296,-0.230601966381073,-0.1203555315732956,-0.7375829815864563
10.987723112106323,0.2790493667125702,-1.2914854288101196,1.4822232723236084,-0.2294575423002243,-0.11272602528333664,-0.7375829815864563
11.007799863815308,0.290875107049942,-1.2914854288101196,1.4795528650283813,-0.2298390120267868,-0.09746700525283813,-0.7387273907661438
11.02787446975708,0.2973601818084717,-1.2911039590835571,1.4765011072158813,-0.2313649207353592,-0.0715266615152359,-0.7387273907661438
11.048140287399292,0.2977416515350342,-1.2911039590835571,1.4734493494033813,-0.23327229917049408,-0.04558632895350456,-0.7402533292770386
11.068227052688599,0.2931639552116394,-1.2914854288101196,1.4726864099502563,-0.23708705604076385,-0.024986648932099342,-0.7413977384567261
11.088307857513428,0.28515297174453735,-1.2914854288101196,1.4715418815612793,-0.24013885855674744,-0.00476844422519207,-0.7425421476364136
11.108394861221313,0.2740901708602905,-1.2914854288101196,1.4723048210144043,-0.24166475236415863,0.007438773289322853,-0.7436865568161011
11.1285080909729,0.264934778213501,-1.2911039590835571,1.4742122888565063,-0.24204623699188232,0.0009536888683214784,-0.7433050870895386
11.148577690124512,0.25158312916755676,-1.2911039590835571,1.4765011072158813,-0.24204623699188232,-0.01735713705420494,-0.7425421476364136
11.168656587600708,0.23670557141304016,-1.2914854288101196,1.4803158044815063,-0.24128328263759613,-0.035667963325977325,-0.7413977384567261
11.188709735870361,0.23785001039505005,-1.2922483682632446,1.482604742050171,-0.24052032828330994,-0.05741206929087639,-0.7413977384567261
11.2088303565979,0.24166475236415863,-1.2930114269256592,1.484130620956421,-0.23861294984817505,-0.08564125746488571,-0.7406347990036011
11.228926658630371,0.2473868876695633,-1.2930114269256592,1.4845120906829834,-0.23517967760562897,-0.10433356463909149,-0.7398717999458313
11.24901008605957,0.2573052644729614,-1.2922483682632446,1.4837491512298584,-0.23212787508964539,-0.11425192654132843,-0.7375829815864563
11.269148588180542,0.26836803555488586,-1.2914854288101196,1.4829862117767334,-0.2309834510087967,-0.1203555315732956,-0.7368200421333313
11.289999008178711,0.28362706303596497,-1.2914854288101196,1.481841802597046,-0.2309834510087967,-0.10814831405878067,-0.7372015118598938
11.310126304626465,0.2965972423553467,-1.2914854288101196,1.4780269861221313,-0.2317463904619217,-0.08945601433515549,-0.7383459210395813
11.330159187316895,0.2962157726287842,-1.2914854288101196,1.4757381677627563,-0.23250934481620789,-0.06427863240242004,-0.7379644513130188
11.35031008720398,0.290875107049942,-1.2914854288101196,1.4738308191299438,-0.23479819297790527,-0.03643091395497322,-0.7406347990036011
11.370384931564331,0.28629741072654724,-1.2926298379898071,1.4719233512878418,-0.23823148012161255,-0.015449759550392628,-0.7425421476364136
11.390711307525635,0.2779049277305603,-1.2926298379898071,1.4719233512878418,-0.24052032828330994,0.000572213320992887,-0.7425421476364136
11.410813331604004,0.26760509610176086,-1.2926298379898071,1.4730678796768188,-0.24090181291103363,0.00667582219466567,-0.7429236173629761
11.430956840515137,0.25387197732925415,-1.2926298379898071,1.4749752283096313,-0.24090181291103363,-0.008201723918318748,-0.7421606779098511
11.451028823852539,0.23937590420246124,-1.2926298379898071,1.4791713953018188,-0.24052032828330994,-0.029182879254221916,-0.7421606779098511
11.471312999725342,0.23594263195991516,-1.2933928966522217,1.4829862117767334,-0.24013885855674744,-0.04940108209848404,-0.7421606779098511
11.491419553756714,0.24090181291103363,-1.2937743663787842,1.4852750301361084,-0.23937590420246124,-0.07839322835206985,-0.7410162687301636
11.511550664901733,0.2458609938621521,-1.2941558361053467,1.4875638484954834,-0.23556114733219147,-0.1024261862039566,-0.7402533292770386
11.531602621078491,0.25539788603782654,-1.2933928966522217,1.4875638484954834,-0.23250934481620789,-0.11577782779932022,-0.7383459210395813
11.55166220664978,0.2653162479400635,-1.2922483682632446,1.487182378768921,-0.2317463904619217,-0.12607766687870026,-0.7375829815864563
11.57181978225708,0.2786678969860077,-1.2922483682632446,1.486419439315796,-0.2317463904619217,-0.1188296303153038,-0.7379644513130188
11.59201455116272,0.2927824854850769,-1.2922483682632446,1.483367681503296,-0.23212787508964539,-0.1028076633810997,-0.7379644513130188
11.612024784088135,0.29812315106391907,-1.2926298379898071,1.4791713953018188,-0.23250934481620789,-0.08525978773832321,-0.7398717999458313
11.632150888442993,0.2943083941936493,-1.2926298379898071,1.4765011072158813,-0.23403525352478027,-0.051689937710762024,-0.7413977384567261
11.6522855758667,0.291638046503067,-1.2937743663787842,1.4738308191299438,-0.23746852576732635,-0.02994582988321781,-0.7425421476364136
11.672395706176758,0.28324559330940247,-1.2945373058319092,1.4738308191299438,-0.24166475236415863,-0.010872052982449532,-0.7440680265426636
11.692439079284668,0.2767605185508728,-1.2945373058319092,1.4742122888565063,-0.24319066107273102,-0.0024795911740511656,-0.7444495558738708
11.71254563331604,0.264934778213501,-1.2945373058319092,1.4757381677627563,-0.24357213079929352,-0.008964675478637218,-0.7440680265426636
11.732692241668701,0.2504386901855469,-1.2937743663787842,1.4784084558486938,-0.24319066107273102,-0.02231631986796856,-0.7421606779098511
11.753086805343628,0.23632410168647766,-1.2937743663787842,1.4814603328704834,-0.24319066107273102,-0.04406042397022247,-0.7417792081832886
11.773294687271118,0.23937590420246124,-1.2937743663787842,1.4845120906829834,-0.24280919134616852,-0.06847485899925232,-0.7421606779098511
11.793390035629272,0.24204623699188232,-1.2937743663787842,1.4860379695892334,-0.23899443447589874,-0.09555962681770325,-0.7406347990036011
11.813446044921875,0.24891279637813568,-1.2930114269256592,1.4860379695892334,-0.23479819297790527,-0.11577782779932022,-0.7402533292770386
11.833488941192627,0.25616082549095154,-1.2922483682632446,1.4860379695892334,-0.23212787508964539,-0.13027389347553253,-0.7383459210395813
11.853591680526733,0.26798656582832336,-1.2911039590835571,1.484893560409546,-0.2317463904619217,-0.13141833245754242,-0.7372015118598938
11.873709440231323,0.2790493667125702,-1.2907224893569946,1.4837491512298584,-0.2317463904619217,-0.12073700875043869,-0.7372015118598938
11.894187927246094,0.2950713336467743,-1.2907224893569946,1.481078863143921,-0.23250934481620789,-0.10509651154279709,-0.7387273907661438
11.914303064346313,0.29812315106391907,-1.2907224893569946,1.4765011072158813,-0.23250934481620789,-0.07839322835206985,-0.7379644513130188
11.934370040893555,0.2962157726287842,-1.2907224893569946,1.4734493494033813,-0.23517967760562897,-0.050164032727479935,-0.7406347990036011
11.954512119293213,0.290875107049942,-1.2911039590835571,1.4719233512878418,-0.23861294984817505,-0.03032730519771576,-0.7421606779098511
11.974616050720215,0.2817196846008301,-1.2911039590835571,1.4715418815612793,-0.24128328263759613,-0.00858320016413927,-0.7425421476364136
11.994699478149414,0.26951247453689575,-1.2911039590835571,1.4723048210144043,-0.24319066107273102,-0.0020981156267225742,-0.7421606779098511
12.014823198318481,0.25501641631126404,-1.2911039590835571,1.4749752283096313,-0.2443350851535797,-0.010490577667951584,-0.7421606779098511
12.034881114959717,0.24013885855674744,-1.2907224893569946,1.4780269861221313,-0.2443350851535797,-0.029182879254221916,-0.7417792081832886
12.054994583129883,0.23441672325134277,-1.2907224893569946,1.4822232723236084,-0.2439536154270172,-0.048256658017635345,-0.7410162687301636
12.075070142745972,0.23861294984817505,-1.2914854288101196,1.4845120906829834,-0.24280919134616852,-0.07648584991693497,-0.7402533292770386
12.095165967941284,0.24280919134616852,-1.2914854288101196,1.4860379695892334,-0.23899443447589874,-0.10624094307422638,-0.7398717999458313
12.115315675735474,0.2508201599121094,-1.2911039590835571,1.485656499862671,-0.23479819297790527,-0.12302586436271667,-0.7364385724067688
12.13541293144226,0.2588311731815338,-1.2903410196304321,1.4845120906829834,-0.23250934481620789,-0.13790340721607208,-0.7360570430755615
12.155450820922852,0.27180132269859314,-1.2903410196304321,1.4829862117767334,-0.23250934481620789,-0.1356145590543747,-0.7364385724067688
12.175625324249268,0.28706035017967224,-1.2903410196304321,1.4806973934173584,-0.23250934481620789,-0.12073700875043869,-0.7368200421333313
12.195635080337524,0.29964902997016907,-1.2907224893569946,1.4761196374893188,-0.23289081454277039,-0.1039520874619484,-0.7379644513130188
12.215754270553589,0.30346378684043884,-1.2907224893569946,1.4730678796768188,-0.23517967760562897,-0.07953765243291855,-0.7391088604927063
12.235862731933594,0.30231937766075134,-1.2907224893569946,1.4696345329284668,-0.23785001039505005,-0.048256658017635345,-0.7402533292770386
12.256143569946289,0.2954528033733368,-1.2911039590835571,1.4681086540222168,-0.24319066107273102,-0.02536812424659729,-0.7413977384567261
12.276237964630127,0.28553444147109985,-1.2911039590835571,1.4684901237487793,-0.2470054179430008,-0.005149920005351305,-0.7425421476364136
12.296322107315063,0.2740901708602905,-1.2907224893569946,1.4700160026550293,-0.2481498420238495,-0.0024795911740511656,-0.7421606779098511
12.316407680511475,0.25577935576438904,-1.2903410196304321,1.4719233512878418,-0.247768372297287,-0.018120087683200836,-0.7410162687301636
12.33651328086853,0.23861294984817505,-1.2903410196304321,1.4757381677627563,-0.24891279637813568,-0.037193864583969116,-0.7413977384567261
12.356543779373169,0.23327229917049408,-1.2907224893569946,1.4787899255752563,-0.247768372297287,-0.06008239835500717,-0.7402533292770386
12.376648902893066,0.23632410168647766,-1.2914854288101196,1.4803158044815063,-0.2462424635887146,-0.0879301130771637,-0.7394903302192688
12.396803855895996,0.23975738883018494,-1.2914854288101196,1.4814603328704834,-0.24319066107273102,-0.11272602528333664,-0.7387273907661438
12.416897773742676,0.2470054179430008,-1.2911039590835571,1.481078863143921,-0.23746852576732635,-0.1329442262649536,-0.735675573348999
12.436992168426514,0.25463491678237915,-1.2903410196304321,1.481078863143921,-0.23556114733219147,-0.14286258816719055,-0.7330052852630615
12.457077980041504,0.2653162479400635,-1.2903410196304321,1.4803158044815063,-0.23556114733219147,-0.13904783129692078,-0.7330052852630615
12.477199077606201,0.2794308364391327,-1.2903410196304321,1.4784084558486938,-0.23632410168647766,-0.12569619715213776,-0.733386754989624
12.497336149215698,0.2962157726287842,-1.2903410196304321,1.4753566980361938,-0.23594263195991516,-0.1039520874619484,-0.733386754989624
12.517428398132324,0.29964902997016907,-1.2903410196304321,1.4723048210144043,-0.23708705604076385,-0.07648584991693497,-0.7345311641693115
12.537482738494873,0.29964902997016907,-1.2907224893569946,1.4703974723815918,-0.23937590420246124,-0.04940108209848404,-0.7364385724067688
12.557585000991821,0.2950713336467743,-1.2907224893569946,1.4696345329284668,-0.24242770671844482,-0.029182879254221916,-0.7383459210395813
12.577768802642822,0.28400853276252747,-1.2907224893569946,1.4700160026550293,-0.2458609938621521,-0.010490577667951584,-0.7402533292770386
12.59777045249939,0.2725642919540405,-1.2899595499038696,1.4715418815612793,-0.247768372297287,-0.005912871100008488,-0.7402533292770386
12.617871522903442,0.25654229521751404,-1.2891966104507446,1.4749752283096313,-0.2473868876695633,-0.01888304017484188,-0.7398717999458313
12.637964248657227,0.24204623699188232,-1.2888151407241821,1.4776455163955688,-0.2481498420238495,-0.03757534176111221,-0.7402533292770386
12.658083438873291,0.23594263195991516,-1.2895780801773071,1.4814603328704834,-0.2473868876695633,-0.0558861680328846,-0.7391088604927063
12.678183794021606,0.23823148012161255,-1.2907224893569946,1.4829862117767334,-0.2454795092344284,-0.08182650804519653,-0.7383459210395813
12.698230028152466,0.24357213079929352,-1.2911039590835571,1.483367681503296,-0.24090181291103363,-0.10471503436565399,-0.7368200421333313
12.718315601348877,0.2504386901855469,-1.2911039590835571,1.4829862117767334,-0.23556114733219147,-0.1180666834115982,-0.734912633895874
12.73857831954956,0.2588311731815338,-1.2907224893569946,1.481841802597046,-0.23403525352478027,-0.12912946939468384,-0.7322422862052917
12.758684158325195,0.2725642919540405,-1.2899595499038696,1.4799343347549438,-0.23289081454277039,-0.1199740618467331,-0.732623815536499
12.778764009475708,0.28706035017967224,-1.2888151407241821,1.4772640466690063,-0.23250934481620789,-0.10509651154279709,-0.7330052852630615
12.798893928527832,0.3099488914012909,-1.2861448526382446,1.4719233512878418,-0.23250934481620789,-0.08945601433515549,-0.7330052852630615
12.818953514099121,0.32940414547920227,-1.281567096710205,1.4639123678207397,-0.23250934481620789,-0.06580453366041183,-0.7330052852630615
12.839025497436523,0.34771496057510376,-1.2739375829696655,1.4547569751739502,-0.23250934481620789,-0.050164032727479935,-0.7330052852630615
12.85910701751709,0.36907759308815,-1.2628748416900635,1.4417868852615356,-0.23250934481620789,-0.037193864583969116,-0.7322422862052917
12.879189729690552,0.3892957866191864,-1.2464714050292969,1.4253833293914795,-0.230601966381073,-0.02079041674733162,-0.7299534678459167
12.899285078048706,0.4060807228088379,-1.2247272729873657,1.407454013824463,-0.2286945879459381,-0.01201647985726595,-0.728427529335022
12.919401168823242,0.41523614525794983,-1.2052719593048096,1.3937208652496338,-0.22716869413852692,-0.012397955171763897,-0.7272831201553345
12.93967580795288,0.4194323718547821,-1.183146357536316,1.3826581239700317,-0.22640573978424072,-0.01430533267557621,-0.726138710975647
12.95975923538208,0.4205767810344696,-1.1633096933364868,1.3735027313232422,-0.22564278542995453,-0.016594186425209045,-0.7257572412490845
12.979818344116211,0.4198138415813446,-1.1495765447616577,1.3696879148483276,-0.22487983107566833,-0.019645990803837776,-0.7238498330116272
12.999948501586914,0.41638055443763733,-1.1350804567337036,1.3673990964889526,-0.22373540699481964,-0.026512550190091133,-0.7215610146522522
13.019994735717773,0.41332876682281494,-1.1263065338134766,1.3670176267623901,-0.22335393726825714,-0.03223468363285065,-0.7215610146522522
13.040076971054077,0.4087510406970978,-1.118677020072937,1.3670176267623901,-0.22144655883312225,-0.035667963325977325,-0.7200350761413574
13.060147047042847,0.4056992530822754,-1.1125733852386475,1.3658732175827026,-0.22068360447883606,-0.04177157208323479,-0.7188906669616699
13.080253839492798,0.4015030264854431,-1.1110475063323975,1.3639658689498901,-0.22030213475227356,-0.045204851776361465,-0.7173647880554199
13.10040545463562,0.39883267879486084,-1.109140157699585,1.3616769313812256,-0.21953918039798737,-0.046730753034353256,-0.7166017889976501
13.120501041412354,0.39806973934173584,-1.1079957485198975,1.357480764389038,-0.21801327168941498,-0.04634927958250046,-0.7139315009117126
13.140544414520264,0.39616236090660095,-1.1079957485198975,1.3544288873672485,-0.21686884760856628,-0.046730753034353256,-0.7124055624008179
13.160658836364746,0.39539939165115356,-1.10685133934021,1.3483253717422485,-0.21648737788200378,-0.04329747334122658,-0.7116426229476929
13.180720567703247,0.39539939165115356,-1.1053253412246704,1.342221736907959,-0.2153429538011551,-0.04139009863138199,-0.7093538045883179
13.20079517364502,0.39539939165115356,-1.102655053138733,1.3353551626205444,-0.2141985148191452,-0.040627144277095795,-0.7070649266242981
13.22090220451355,0.39578089118003845,-1.0992218255996704,1.3281071186065674,-0.212672621011734,-0.040627144277095795,-0.7043945789337158
13.241076707839966,0.39578089118003845,-1.0957884788513184,1.3223849534988403,-0.21229113638401031,-0.04177157208323479,-0.7028687000274658
13.261198282241821,0.39730677008628845,-1.0893033742904663,1.3128480911254883,-0.21114671230316162,-0.04329747334122658,-0.7013428211212158
13.281244277954102,0.39845120906829834,-1.0851072072982788,1.3071259260177612,-0.21038375794887543,-0.045204851776361465,-0.6986724734306335
13.301360130310059,0.3999771177768707,-1.0774776935577393,1.2987334728240967,-0.20962081849575043,-0.04787518084049225,-0.6963835954666138
13.321464538574219,0.4026474356651306,-1.0721369981765747,1.2922483682632446,-0.20923933386802673,-0.049782559275627136,-0.6940947771072388
13.341569423675537,0.4056992530822754,-1.0645074844360352,1.2853819131851196,-0.20847637951374054,-0.048256658017635345,-0.6914244294166565
13.361737489700317,0.4079881012439728,-1.055733561515808,1.2773709297180176,-0.20809490978717804,-0.04940108209848404,-0.689517080783844
13.381855010986328,0.41065841913223267,-1.0481040477752686,1.2701228857040405,-0.20771344006061554,-0.04940108209848404,-0.6876096725463867
13.401931762695312,0.41294726729393005,-1.0370413064956665,1.261730432510376,-0.20695048570632935,-0.04787518084049225,-0.6864652633666992
13.422086954116821,0.41485464572906494,-1.0297932624816895,1.256008267402649,-0.20580606162548065,-0.048638131469488144,-0.6837949156761169
13.44214677810669,0.41599908471107483,-1.0194933414459229,1.2495231628417969,-0.20542457699775696,-0.046730753034353256,-0.6822690367698669
13.462245225906372,0.41638055443763733,-1.0091935396194458,1.2422751188278198,-0.20542457699775696,-0.048256658017635345,-0.6795986890792847
13.482327938079834,0.41638055443763733,-1.0011825561523438,1.2376973628997803,-0.20504310727119446,-0.049782559275627136,-0.6765468716621399
13.502437353134155,0.41638055443763733,-0.9901197552680969,1.2308309078216553,-0.20466163754463196,-0.05092698708176613,-0.6746395230293274
13.522501468658447,0.41638055443763733,-0.9802014231681824,1.2243458032608032,-0.20351719856262207,-0.05359731614589691,-0.6719691753387451
13.54256534576416,0.41638055443763733,-0.9721904397010803,1.2190051078796387,-0.20275425910949707,-0.05397878959774971,-0.6685358881950378
13.56271243095398,0.41638055443763733,-0.9618905782699585,1.2106126546859741,-0.20237277448177338,-0.054741740226745605,-0.6654840707778931
13.582740783691406,0.41638055443763733,-0.955024003982544,1.2045090198516846,-0.20199130475521088,-0.0555046908557415,-0.6624323129653931
13.603152751922607,0.41676202416419983,-0.9466315507888794,1.196879506111145,-0.20122835040092468,-0.05359731614589691,-0.6601434350013733
13.623278856277466,0.4175249934196472,-0.9393835067749023,1.188868522644043,-0.20122835040092468,-0.05245288833975792,-0.657473087310791
13.643327236175537,0.4175249934196472,-0.9340428709983826,1.182383418083191,-0.20084688067436218,-0.05359731614589691,-0.6548027992248535
13.663431644439697,0.4186694025993347,-0.9283207654953003,1.1743724346160889,-0.1997024416923523,-0.054741740226745605,-0.6513695120811462
13.683505535125732,0.4198138415813446,-0.9237430095672607,1.1671243906021118,-0.1989395022392273,-0.0558861680328846,-0.6483176946640015
13.703731060028076,0.4217212200164795,-0.919165313243866,1.1598763465881348,-0.1985580176115036,-0.05741206929087639,-0.6448844075202942
13.72386884689331,0.4228656589984894,-0.9138246774673462,1.1495765447616577,-0.1981765478849411,-0.059319447726011276,-0.6418325901031494
13.743987083435059,0.4232471287250519,-0.9103913903236389,1.1430914402008057,-0.1981765478849411,-0.06084534898400307,-0.6391623020172119
13.764395952224731,0.42515450716018677,-0.9058136940002441,1.1343175172805786,-0.1977950781583786,-0.06160829961299896,-0.6361104846000671
13.78447151184082,0.42782482504844666,-0.9000915288925171,1.125162124633789,-0.1970321238040924,-0.06389715522527695,-0.6326771974563599
13.804558277130127,0.43011367321014404,-0.8955138325691223,1.118677020072937,-0.19550621509552002,-0.06389715522527695,-0.6296253800392151
13.824631214141846,0.4331654906272888,-0.8882657885551453,1.1095216274261475,-0.19474326074123383,-0.06427863240242004,-0.6261920928955078
13.84474229812622,0.4350728690624237,-0.8829251527786255,1.1037994623184204,-0.19436179101467133,-0.06580453366041183,-0.6231403350830078
13.864891052246094,0.4381246566772461,-0.8760585784912109,1.0973143577575684,-0.19359883666038513,-0.06771191209554672,-0.6181811094284058
13.884922981262207,0.44079500436782837,-0.8688105344772339,1.0908293724060059,-0.19283588230609894,-0.06923781335353851,-0.614366352558136
13.905308723449707,0.44384679198265076,-0.8619440197944641,1.0858701467514038,-0.19207294285297394,-0.06733043491840363,-0.6097886562347412
13.925394535064697,0.44499123096466064,-0.8535515666007996,1.0790035724639893,-0.19092851877212524,-0.06809338182210922,-0.6055924296379089
13.945461988449097,0.44537270069122314,-0.8447775840759277,1.0728999376296997,-0.19054703414440155,-0.06961929053068161,-0.6025406122207642
13.966059446334839,0.44537270069122314,-0.8371480703353882,1.0687037706375122,-0.19054703414440155,-0.06923781335353851,-0.5991073250770569
13.98618745803833,0.44537270069122314,-0.8287556171417236,1.0629816055297852,-0.19054703414440155,-0.07000076025724411,-0.5941481590270996
14.0062415599823,0.44537270069122314,-0.8215075731277466,1.057259440422058,-0.19016556441783905,-0.0722896158695221,-0.5891889929771423
14.026324272155762,0.44537270069122314,-0.8119707107543945,1.050011396408081,-0.19016556441783905,-0.07572289556264877,-0.5849927663803101
14.046428918838501,0.44499123096466064,-0.8062485456466675,1.0458152294158936,-0.18978407979011536,-0.07877469807863235,-0.580033540725708
14.066570520401001,0.44499123096466064,-0.7990005612373352,1.0393301248550415,-0.18863965570926666,-0.08030059933662415,-0.5754558444023132
14.086656093597412,0.44499123096466064,-0.7932783961296082,1.0328450202941895,-0.18749523162841797,-0.08297093212604523,-0.570496678352356
14.106712818145752,0.44499123096466064,-0.7887006998062134,1.0263599157333374,-0.18673227727413177,-0.08411535620689392,-0.5655375123023987
14.126804113388062,0.44537270069122314,-0.7818341255187988,1.0160601139068604,-0.18673227727413177,-0.08449683338403702,-0.5601968169212341
14.146896123886108,0.44537270069122314,-0.777256429195404,1.0084306001663208,-0.18635080754756927,-0.086785688996315,-0.5548561811447144
14.166944026947021,0.44651713967323303,-0.7722972631454468,0.9977492690086365,-0.18673227727413177,-0.0883115902543068,-0.5495155453681946
14.187041282653809,0.44728007912635803,-0.7669565677642822,0.9874494671821594,-0.18558785319328308,-0.09021896868944168,-0.5430304408073425
