liuyurong129/humanoid-gym/humanoid/data/actual_q_20250522-034732.csv
timestamp,joint_1,joint_2,joint_3,joint_4,joint_5,joint_6
5.459785461425781e-05,-0.00019073777366429567,0.0024795911740511656,-0.001716639962978661,-0.00019073777366429567,0.00019073777366429567,-0.00019073777366429567
0.02013397216796875,-0.00019073777366429567,0.001716639962978661,-0.001716639962978661,-0.00019073777366429567,0.00019073777366429567,-0.00019073777366429567
0.04020571708679199,-0.00019073777366429567,0.001716639962978661,-0.0013351644156500697,-0.00019073777366429567,-0.00019073777366429567,-0.00019073777366429567
0.060280799865722656,-0.00019073777366429567,0.001716639962978661,-0.0013351644156500697,-0.00019073777366429567,-0.00019073777366429567,-0.00019073777366429567
0.08035564422607422,-0.00019073777366429567,0.0013351644156500697,-0.0009536888683214784,-0.00019073777366429567,-0.00019073777366429567,-0.00019073777366429567
0.1004490852355957,-0.00019073777366429567,0.0009536888683214784,-0.000572213320992887,-0.00019073777366429567,-0.00019073777366429567,-0.00019073777366429567
0.12074661254882812,0.0024795911740511656,-0.005531395319849253,0.0032425422687083483,-0.00019073777366429567,-0.00019073777366429567,-0.00019073777366429567
0.14086484909057617,0.006294346414506435,-0.01583123579621315,0.010109102353453636,-0.00019073777366429567,-0.000572213320992887,-0.00019073777366429567
0.16100358963012695,0.009727626107633114,-0.024223696440458298,0.01430533267557621,-0.00019073777366429567,-0.0013351644156500697,0.00019073777366429567
0.18181276321411133,0.013160906732082367,-0.03604944050312042,0.020027466118335724,-0.00019073777366429567,-0.001716639962978661,0.00019073777366429567
0.20193696022033691,0.016975661739706993,-0.05207141116261482,0.02841992862522602,-0.00019073777366429567,-0.0013351644156500697,0.00019073777366429567
0.2220170497894287,0.02079041674733162,-0.0711451917886734,0.035667963325977325,-0.00019073777366429567,0.0009536888683214784,0.00019073777366429567
0.2420804500579834,0.02536812424659729,-0.0875486359000206,0.04482337832450867,-0.00019073777366429567,0.000572213320992887,0.000572213320992887
0.2621433734893799,0.029182879254221916,-0.10166323184967041,0.05207141116261482,-0.00019073777366429567,0.0009536888683214784,0.000572213320992887
0.28221702575683594,0.03376058489084244,-0.12264438718557358,0.06389715522527695,-0.00019073777366429567,0.000572213320992887,0.0009536888683214784
0.3023693561553955,0.037193864583969116,-0.14667734503746033,0.07495994865894318,-0.00019073777366429567,0.0020981156267225742,0.001716639962978661
0.3226959705352783,0.0398641936480999,-0.1676585078239441,0.08564125746488571,-0.00019073777366429567,0.001716639962978661,0.0032425422687083483
0.34281039237976074,0.043678950518369675,-0.1840619444847107,0.09784847497940063,-0.00019073777366429567,0.0009536888683214784,0.0036240178160369396
0.3629472255706787,0.04596780240535736,-0.19474326074123383,0.10509651154279709,-0.000572213320992887,0.0009536888683214784,0.0036240178160369396
0.38298463821411133,0.049782559275627136,-0.21953918039798737,0.12111848592758179,-0.000572213320992887,0.0009536888683214784,0.0036240178160369396
0.4032447338104248,0.05283436179161072,-0.2443350851535797,0.1325627565383911,-0.000572213320992887,0.0009536888683214784,0.004386968910694122
0.42337656021118164,0.057793546468019485,-0.2634088695049286,0.14858472347259521,-0.000572213320992887,-0.000572213320992887,0.005149920005351305
0.44345664978027344,0.06313420087099075,-0.28515297174453735,0.16346226632595062,-0.0009536888683214784,0.0009536888683214784,0.007438773289322853
0.46355485916137695,0.06771191209554672,-0.3076600432395935,0.17795833945274353,-0.0009536888683214784,0.00019073777366429567,0.00858320016413927
0.48360347747802734,0.071908138692379,-0.32978561520576477,0.19130998849868774,-0.0013351644156500697,0.0024795911740511656,0.010490577667951584
0.5036954879760742,0.07648584991693497,-0.34847790002822876,0.20771344006061554,-0.001716639962978661,0.0032425422687083483,0.010872052982449532
0.5239255428314209,0.08068207651376724,-0.36411839723587036,0.22182802855968475,-0.0020981156267225742,0.004005493130534887,0.011635004542768002
0.5439419746398926,0.08487831056118011,-0.3843366205692291,0.24166475236415863,-0.002861066721379757,0.004005493130534887,0.011635004542768002
0.5640072822570801,0.0883115902543068,-0.404173344373703,0.2603570520877838,-0.004005493130534887,0.005912871100008488,0.01201647985726595
0.5844705104827881,0.09327077120542526,-0.42706188559532166,0.28439003229141235,-0.004005493130534887,0.00667582219466567,0.012779430486261845
0.6045637130737305,0.09822995215654373,-0.4507133662700653,0.3091859221458435,-0.004386968910694122,0.007057297509163618,0.014686808921396732
0.6246201992034912,0.1024261862039566,-0.4709315598011017,0.33169299364089966,-0.00476844422519207,0.00667582219466567,0.01583123579621315
0.6447134017944336,0.10738536715507507,-0.49458304047584534,0.3599221706390381,-0.00476844422519207,0.00667582219466567,0.016594186425209045
0.6647794246673584,0.11234454810619354,-0.5212863087654114,0.3866254687309265,-0.005149920005351305,0.007057297509163618,0.018501564860343933
0.6848671436309814,0.11730372905731201,-0.5483710765838623,0.4190509021282196,-0.005531395319849253,0.007438773289322853,0.019645990803837776
0.7049288749694824,0.12226291000843048,-0.5731670260429382,0.44766154885292053,-0.006294346414506435,0.008964675478637218,0.02040894143283367
0.7250399589538574,0.12798504531383514,-0.5998703241348267,0.481612890958786,-0.00667582219466567,0.009346150793135166,0.02193484455347061
0.745084285736084,0.1325627565383911,-0.6254291534423828,0.5094605684280396,-0.007438773289322853,0.010490577667951584,0.023079270496964455
0.7651634216308594,0.13866636157035828,-0.654421329498291,0.5437933802604675,-0.0078202486038208,0.01125352829694748,0.024986648932099342
0.7852458953857422,0.14400701224803925,-0.6830319762229919,0.5724040865898132,-0.0078202486038208,0.01125352829694748,0.02727550081908703
0.8055765628814697,0.1501106321811676,-0.7139315009117126,0.6055924296379089,-0.0078202486038208,0.01201647985726595,0.029182879254221916
0.8256626129150391,0.15621423721313477,-0.7433050870895386,0.6376363635063171,-0.0078202486038208,0.01201647985726595,0.03032730519771576
0.8457479476928711,0.16155488789081573,-0.7722972631454468,0.6704432964324951,-0.008201723918318748,0.012779430486261845,0.03147173300385475
0.8658096790313721,0.1676585078239441,-0.8020523190498352,0.7047760486602783,-0.00858320016413927,0.013542382046580315,0.03376058489084244
0.8858697414398193,0.17299915850162506,-0.8295185565948486,0.735675573348999,-0.008964675478637218,0.01506828423589468,0.03528648987412453
0.9059953689575195,0.17872129380702972,-0.8600366115570068,0.7715343236923218,-0.008964675478637218,0.016212711110711098,0.03833829239010811
0.9261102676391602,0.1836804747581482,-0.88979172706604,0.8020523190498352,-0.009346150793135166,0.018501564860343933,0.0398641936480999
0.9464502334594727,0.18940261006355286,-0.9203097820281982,0.8348592519760132,-0.009727626107633114,0.020027466118335724,0.042153049260377884
0.9665746688842773,0.19359883666038513,-0.9500648379325867,0.8642328381538391,-0.010109102353453636,0.02040894143283367,0.04406042397022247
0.9867610931396484,0.1985580176115036,-0.9855420589447021,0.8951323628425598,-0.010872052982449532,0.02193484455347061,0.04596780240535736
1.0068697929382324,0.20351719856262207,-1.0206378698349,0.9245060086250305,-0.01125352829694748,0.024605173617601395,0.04787518084049225
1.0269200801849365,0.20771344006061554,-1.0599298477172852,0.9561684727668762,-0.01125352829694748,0.025749599561095238,0.049782559275627136
1.0471231937408447,0.21190966665744781,-1.0961699485778809,0.9843976497650146,-0.01125352829694748,0.025749599561095238,0.053215838968753815
1.06724214553833,0.21648737788200378,-1.1343175172805786,1.0149157047271729,-0.011635004542768002,0.02536812424659729,0.0558861680328846
1.0873513221740723,0.22144655883312225,-1.1743724346160889,1.0435264110565186,-0.01125352829694748,0.026131074875593185,0.058175019919872284
1.107424259185791,0.22487983107566833,-1.2174792289733887,1.0725184679031372,-0.011635004542768002,0.02536812424659729,0.06237125024199486
1.1275274753570557,0.230601966381073,-1.2651636600494385,1.1053253412246704,-0.011635004542768002,0.022697795182466507,0.06694895774126053
1.147603988647461,0.23823148012161255,-1.3155183792114258,1.1388952732086182,-0.011635004542768002,0.01888304017484188,0.07457847148180008
1.1677887439727783,0.248531311750412,-1.3689249753952026,1.1717021465301514,-0.01125352829694748,0.014686808921396732,0.08449683338403702
1.187804937362671,0.2580682039260864,-1.421187162399292,1.19916832447052,-0.01125352829694748,0.005912871100008488,0.09555962681770325
1.2080130577087402,0.26798656582832336,-1.4665827751159668,1.2224383354187012,-0.01125352829694748,0.00019073777366429567,0.11043716967105865
1.2280235290527344,0.2775234580039978,-1.5012969970703125,1.2376973628997803,-0.01125352829694748,-0.004005493130534887,0.12684062123298645
1.2480971813201904,0.28553444147109985,-1.5283818244934082,1.2476158142089844,-0.01125352829694748,-0.007057297509163618,0.14248111844062805
1.2682383060455322,0.2943083941936493,-1.5505073070526123,1.2621119022369385,-0.01125352829694748,-0.010490577667951584,0.15506981313228607
1.2885518074035645,0.30270084738731384,-1.563096046447754,1.27775239944458,-0.01125352829694748,-0.013160906732082367,0.1676585078239441
1.30867600440979,0.3076600432395935,-1.569581151008606,1.2945373058319092,-0.011635004542768002,-0.013923857361078262,0.17528800666332245
1.3288476467132568,0.3099488914012909,-1.5691996812820435,1.3059815168380737,-0.01125352829694748,-0.013923857361078262,0.1806286722421646
1.3488926887512207,0.3103303611278534,-1.566529393196106,1.3200961351394653,-0.011635004542768002,-0.01506828423589468,0.1848248988389969
1.3689630031585693,0.3099488914012909,-1.5642404556274414,1.3296329975128174,-0.011635004542768002,-0.016212711110711098,0.18711376190185547
1.3890740871429443,0.308041512966156,-1.561570167541504,1.339932918548584,-0.011635004542768002,-0.01888304017484188,0.18825818598270416
1.4091472625732422,0.30498969554901123,-1.5596628189086914,1.3464179039001465,-0.011635004542768002,-0.021553369238972664,0.18978407979011536
1.4301295280456543,0.29964902997016907,-1.559281349182129,1.350232720375061,-0.011635004542768002,-0.02689402550458908,0.19207294285297394
1.450221300125122,0.2935454249382019,-1.5596628189086914,1.3529030084609985,-0.011635004542768002,-0.029182879254221916,0.19321736693382263
1.4703121185302734,0.290112167596817,-1.5604257583618164,1.352521538734436,-0.01125352829694748,-0.03032730519771576,0.19512474536895752
1.4904043674468994,0.28439003229141235,-1.560807228088379,1.351758599281311,-0.01125352829694748,-0.032616160809993744,0.1958876997232437
1.5104689598083496,0.2775234580039978,-1.561570167541504,1.3513771295547485,-0.01125352829694748,-0.03376058489084244,0.1962691694498062
1.5306353569030762,0.27065691351890564,-1.5611886978149414,1.350995659828186,-0.01125352829694748,-0.03757534176111221,0.1966506391763687
1.5507137775421143,0.2634088695049286,-1.5604257583618164,1.350995659828186,-0.01125352829694748,-0.04100862145423889,0.1970321238040924
1.5708117485046387,0.2584496736526489,-1.559281349182129,1.3513771295547485,-0.01125352829694748,-0.04291599988937378,0.1974135935306549
1.590954303741455,0.25120165944099426,-1.5577553510665894,1.3521400690078735,-0.01125352829694748,-0.04406042397022247,0.1985580176115036
1.6109931468963623,0.24242770671844482,-1.5566109418869019,1.3529030084609985,-0.01125352829694748,-0.04406042397022247,0.1997024416923523
1.6311299800872803,0.2317463904619217,-1.5558480024337769,1.3529030084609985,-0.01125352829694748,-0.04596780240535736,0.2004653960466385
1.6512093544006348,0.22144655883312225,-1.5535591840744019,1.3536659479141235,-0.010872052982449532,-0.048638131469488144,0.20199130475521088
1.6712687015533447,0.2138170450925827,-1.5516518354415894,1.3536659479141235,-0.010872052982449532,-0.050164032727479935,0.20351719856262207
1.6914787292480469,0.20428015291690826,-1.5463111400604248,1.354810357093811,-0.010109102353453636,-0.0555046908557415,0.20656901597976685
1.7114901542663574,0.1958876997232437,-1.5409704446792603,1.355954885482788,-0.007438773289322853,-0.061226826161146164,0.20923933386802673
1.7316021919250488,0.18863965570926666,-1.5348668098449707,1.3570992946624756,-0.005149920005351305,-0.07343403995037079,0.2141985148191452
1.7518815994262695,0.1848248988389969,-1.5249484777450562,1.3586251735687256,-0.001716639962978661,-0.08335240930318832,0.21763180196285248
1.771946668624878,0.18749523162841797,-1.5173189640045166,1.3601510524749756,0.001716639962978661,-0.09288929402828217,0.22297245264053345
1.7920567989349365,0.19398032128810883,-1.505874752998352,1.3624398708343506,0.005531395319849253,-0.10471503436565399,0.2298390120267868
1.8121123313903809,0.20275425910949707,-1.497100830078125,1.3643473386764526,0.009346150793135166,-0.11081864684820175,0.23441672325134277
1.8323814868927002,0.2134355753660202,-1.489852786064148,1.3647288084030151,0.01201647985726595,-0.11425192654132843,0.24013885855674744
1.852475881576538,0.22564278542995453,-1.4837491512298584,1.3651102781295776,0.01430533267557621,-0.11463340371847153,0.2443350851535797
1.872549295425415,0.2294575423002243,-1.4814603328704834,1.3651102781295776,0.01583123579621315,-0.10433356463909149,0.2481498420238495
1.8926687240600586,0.23212787508964539,-1.4814603328704834,1.3639658689498901,0.02040894143283367,-0.08564125746488571,0.25196459889411926
1.912778377532959,0.2317463904619217,-1.481841802597046,1.362058401107788,0.026512550190091133,-0.07381551712751389,0.25501641631126404
1.932943344116211,0.22526131570339203,-1.4837491512298584,1.3601510524749756,0.032616160809993744,-0.06084534898400307,0.2576867341995239
1.953019618988037,0.21648737788200378,-1.486419439315796,1.358243703842163,0.03795681521296501,-0.05130846053361893,0.2599755823612213
1.9730873107910156,0.20656901597976685,-1.4875638484954834,1.357480764389038,0.042153049260377884,-0.04749370738863945,0.2630273997783661
1.993173599243164,0.19207294285297394,-1.4875638484954834,1.358243703842163,0.04711223021149635,-0.0551232174038887,0.265697717666626
2.0132436752319336,0.1813916265964508,-1.4868009090423584,1.359769582748413,0.053215838968753815,-0.0715266615152359,0.26836803555488586
2.0333189964294434,0.17643244564533234,-1.484893560409546,1.362821340560913,0.05893797054886818,-0.08983749151229858,0.2740901708602905
2.053393840789795,0.17643244564533234,-1.4814603328704834,1.3654917478561401,0.06618601083755493,-0.11158160120248795,0.2805752754211426
2.073892831802368,0.17986571788787842,-1.4772640466690063,1.3670176267623901,0.0707637146115303,-0.1340886503458023,0.28515297174453735
2.093996286392212,0.18711376190185547,-1.4730678796768188,1.3673990964889526,0.07419699430465698,-0.14515145123004913,0.28820478916168213
2.114109754562378,0.19550621509552002,-1.4707789421081543,1.3685435056686401,0.07534141838550568,-0.1527809500694275,0.290875107049942
2.1341938972473145,0.20923933386802673,-1.4684901237487793,1.3677805662155151,0.07572289556264877,-0.14858472347259521,0.2920195460319519
2.154261827468872,0.22297245264053345,-1.4677271842956543,1.3666361570358276,0.07534141838550568,-0.1363775134086609,0.2920195460319519
2.1743431091308594,0.23746852576732635,-1.4681086540222168,1.3639658689498901,0.07534141838550568,-0.11730372905731201,0.2920195460319519
2.194432497024536,0.23975738883018494,-1.4677271842956543,1.360532522201538,0.07534141838550568,-0.09861142933368683,0.2920195460319519
2.2145771980285645,0.23975738883018494,-1.4677271842956543,1.3586251735687256,0.07610437273979187,-0.06771191209554672,0.291638046503067
2.2346582412719727,0.23479819297790527,-1.4673457145690918,1.3578622341156006,0.07572289556264877,-0.05245288833975792,0.28973066806793213
2.2547292709350586,0.2283131182193756,-1.4665827751159668,1.3570992946624756,0.07534141838550568,-0.03490501269698143,0.28858625888824463
2.274862766265869,0.2145799994468689,-1.4646753072738647,1.358243703842163,0.07534141838550568,-0.02880140393972397,0.28820478916168213
2.294938802719116,0.1981765478849411,-1.4631494283676147,1.360532522201538,0.07534141838550568,-0.03643091395497322,0.28858625888824463
2.315185546875,0.17605096101760864,-1.4623864889144897,1.3624398708343506,0.07610437273979187,-0.05359731614589691,0.28896772861480713
2.3353848457336426,0.15506981313228607,-1.4620050191879272,1.3643473386764526,0.07801175117492676,-0.06961929053068161,0.28973066806793213
2.3556578159332275,0.14476996660232544,-1.4620050191879272,1.3654917478561401,0.08335240930318832,-0.09098191559314728,0.291638046503067
2.3757638931274414,0.14515145123004913,-1.4608606100082397,1.3651102781295776,0.09212634712457657,-0.12302586436271667,0.2973601818084717
2.396017551422119,0.1493476778268814,-1.4600976705551147,1.3639658689498901,0.09937438368797302,-0.14591439068317413,0.30155640840530396
2.4161152839660645,0.15659570693969727,-1.4585717916488647,1.362058401107788,0.10509651154279709,-0.164988175034523,0.30537116527557373
2.436170816421509,0.1676585078239441,-1.4574273824691772,1.361295461654663,0.10700388997793198,-0.17757686972618103,0.3072785437107086
2.4563357830047607,0.18520638346672058,-1.4566643238067627,1.3601510524749756,0.10891126841306686,-0.16880293190479279,0.3076600432395935
2.4763669967651367,0.20466163754463196,-1.4566643238067627,1.359006643295288,0.10852979123592377,-0.1527809500694275,0.3068970739841461
2.496561050415039,0.230601966381073,-1.4566643238067627,1.3570992946624756,0.10891126841306686,-0.1325627565383911,0.3068970739841461
2.5167205333709717,0.25425344705581665,-1.4562828540802002,1.354047417640686,0.10852979123592377,-0.10852979123592377,0.30498969554901123
2.537315845489502,0.2580682039260864,-1.4555199146270752,1.3521400690078735,0.10814831405878067,-0.07457847148180008,0.30346378684043884
2.557408571243286,0.25425344705581665,-1.4539940357208252,1.350995659828186,0.10738536715507507,-0.03681239113211632,0.29888609051704407
2.5776140689849854,0.2470054179430008,-1.4532310962677002,1.3506141901016235,0.1031891331076622,-0.0032425422687083483,0.2939268946647644
2.5976884365081787,0.23861294984817505,-1.4505608081817627,1.3521400690078735,0.10013733059167862,0.009346150793135166,0.2912565767765045
2.617772102355957,0.22335393726825714,-1.4486533403396606,1.3536659479141235,0.10013733059167862,0.005912871100008488,0.290875107049942
2.6378872394561768,0.20580606162548065,-1.4475089311599731,1.3544288873672485,0.10051880776882172,-0.008964675478637218,0.2920195460319519
2.657982349395752,0.182154580950737,-1.4482718706130981,1.354810357093811,0.10090028494596481,-0.03337911143898964,0.2920195460319519
2.678466320037842,0.15621423721313477,-1.4497978687286377,1.354810357093811,0.10166323184967041,-0.05855649709701538,0.2927824854850769
2.6986029148101807,0.13141833245754242,-1.4509422779083252,1.3536659479141235,0.10547798871994019,-0.07915617525577545,0.2962157726287842
2.7186646461486816,0.11730372905731201,-1.4509422779083252,1.351758599281311,0.11043716967105865,-0.09975585341453552,0.29888609051704407
2.738769769668579,0.1192111074924469,-1.4486533403396606,1.3498512506484985,0.1184481605887413,-0.12264438718557358,0.30193790793418884
2.7588603496551514,0.12417028844356537,-1.4459830522537231,1.346036434173584,0.12226291000843048,-0.14095520973205566,0.30422675609588623
2.7789247035980225,0.135233074426651,-1.4425498247146606,1.343747615814209,0.12493324279785156,-0.15506981313228607,0.30537116527557373
2.79911208152771,0.14858472347259521,-1.4398794174194336,1.342221736907959,0.12645913660526276,-0.15583276748657227,0.3065156042575836
2.819171190261841,0.1657511293888092,-1.438735008239746,1.341458797454834,0.12684062123298645,-0.14019227027893066,0.3057526648044586
2.8393032550811768,0.18825818598270416,-1.4383535385131836,1.3403143882751465,0.12684062123298645,-0.12073700875043869,0.30422675609588623
2.8593525886535645,0.2153429538011551,-1.438735008239746,1.339551329612732,0.12684062123298645,-0.10204470902681351,0.30384528636932373
2.879502534866333,0.24090181291103363,-1.4391164779663086,1.3376439809799194,0.12684062123298645,-0.086785688996315,0.30231937766075134
2.8995985984802246,0.2470054179430008,-1.4383535385131836,1.3376439809799194,0.12645913660526276,-0.05703059583902359,0.29926756024360657
2.919996500015259,0.2443350851535797,-1.4383535385131836,1.3376439809799194,0.12607766687870026,-0.03376058489084244,0.2950713336467743
2.940084218978882,0.23937590420246124,-1.4375905990600586,1.338025450706482,0.12417028844356537,-0.0078202486038208,0.28973066806793213
2.9601595401763916,0.2309834510087967,-1.4360647201538086,1.338788390159607,0.12149996310472488,0.0013351644156500697,0.28744181990623474
2.980320930480957,0.21877622604370117,-1.434920310974121,1.339932918548584,0.12149996310472488,-0.005149920005351305,0.28706035017967224
3.000347375869751,0.20313572883605957,-1.434920310974121,1.340695858001709,0.12226291000843048,-0.02536812424659729,0.28820478916168213
3.0204246044158936,0.1832990050315857,-1.435683250427246,1.340695858001709,0.12302586436271667,-0.048638131469488144,0.28858625888824463
3.0405020713806152,0.16193637251853943,-1.4368276596069336,1.340695858001709,0.12455176562070847,-0.06885633617639542,0.28934919834136963
3.0608272552490234,0.13828489184379578,-1.4383535385131836,1.3403143882751465,0.12874799966812134,-0.08983749151229858,0.2920195460319519
3.0809378623962402,0.12645913660526276,-1.4383535385131836,1.341458797454834,0.1337071806192398,-0.10738536715507507,0.2931639552116394
3.1010375022888184,0.12607766687870026,-1.4375905990600586,1.3403143882751465,0.1371404528617859,-0.12607766687870026,0.2954528033733368
3.1211049556732178,0.1337071806192398,-1.4353017807006836,1.339551329612732,0.13981078565120697,-0.14057374000549316,0.29850462079048157
3.141240358352661,0.14553292095661163,-1.432249903678894,1.3384069204330444,0.14057374000549316,-0.15506981313228607,0.29964902997016907
3.161330461502075,0.16346226632595062,-1.4303425550460815,1.338025450706482,0.14095520973205566,-0.1527809500694275,0.29964902997016907
3.1814887523651123,0.1810101419687271,-1.4295796155929565,1.337262511253357,0.14095520973205566,-0.14019227027893066,0.29964902997016907
3.2017359733581543,0.20504310727119446,-1.429961085319519,1.3368810415267944,0.14133669435977936,-0.12188144028186798,0.29926756024360657
3.2218315601348877,0.23212787508964539,-1.429961085319519,1.3345922231674194,0.14057374000549316,-0.10128175467252731,0.29812315106391907
3.241891622543335,0.2439536154270172,-1.429961085319519,1.333447813987732,0.14057374000549316,-0.07991912961006165,0.2973601818084717
3.261976957321167,0.24166475236415863,-1.429961085319519,1.333447813987732,0.13981078565120697,-0.04596780240535736,0.2943083941936493
3.2821271419525146,0.23823148012161255,-1.429961085319519,1.333447813987732,0.13828489184379578,-0.01583123579621315,0.28744181990623474
3.302178144454956,0.2309834510087967,-1.4295796155929565,1.3345922231674194,0.1333257108926773,0.009727626107633114,0.2821011543273926
3.3222997188568115,0.21915769577026367,-1.4280537366867065,1.335736632347107,0.13103684782981873,0.016212711110711098,0.2801937758922577
3.34233021736145,0.20504310727119446,-1.426909327507019,1.3368810415267944,0.13141833245754242,0.0020981156267225742,0.2801937758922577
3.3625874519348145,0.18673227727413177,-1.426909327507019,1.338025450706482,0.13179980218410492,-0.01773861236870289,0.2813382148742676
3.382647752761841,0.16079194843769073,-1.4280537366867065,1.338025450706482,0.13179980218410492,-0.040627144277095795,0.2813382148742676
3.402757167816162,0.134470134973526,-1.4303425550460815,1.3384069204330444,0.1359960287809372,-0.06504157930612564,0.28248265385627747
3.4232282638549805,0.11425192654132843,-1.432249903678894,1.3384069204330444,0.14019227027893066,-0.09060044586658478,0.28400853276252747
3.443420648574829,0.11387044936418533,-1.4326313734054565,1.3384069204330444,0.14744029939174652,-0.10929274559020996,0.28591591119766235
3.4634315967559814,0.1203555315732956,-1.432249903678894,1.3376439809799194,0.152399480342865,-0.12912946939468384,0.28934919834136963
3.4835076332092285,0.12760357558727264,-1.430724024772644,1.3361181020736694,0.15506981313228607,-0.14553292095661163,0.290112167596817
3.5035860538482666,0.14133669435977936,-1.429198145866394,1.335736632347107,0.15659570693969727,-0.15468832850456238,0.2920195460319519
3.523660182952881,0.15964750945568085,-1.427672266960144,1.3345922231674194,0.15659570693969727,-0.14858472347259521,0.291638046503067
3.5437443256378174,0.18749523162841797,-1.427672266960144,1.3338292837142944,0.15659570693969727,-0.12912946939468384,0.290875107049942
3.5638227462768555,0.21229113638401031,-1.4280537366867065,1.332684874534607,0.15659570693969727,-0.10776684433221817,0.290112167596817
3.583904504776001,0.24204623699188232,-1.4288166761398315,1.3311588764190674,0.15659570693969727,-0.09060044586658478,0.28820478916168213
3.603989601135254,0.2573052644729614,-1.4288166761398315,1.3300144672393799,0.15545128285884857,-0.06809338182210922,0.28744181990623474
3.624082088470459,0.264934778213501,-1.428435206413269,1.3300144672393799,0.15468832850456238,-0.03757534176111221,0.28286412358283997
3.644153118133545,0.2660791873931885,-1.428435206413269,1.3303959369659424,0.1512550562620163,-0.010490577667951584,0.2782863974571228
3.664433002471924,0.2645532786846161,-1.4272907972335815,1.3307774066925049,0.14782176911830902,0.01125352829694748,0.2752346098423004
3.6845245361328125,0.2592126429080963,-1.425764799118042,1.3315403461456299,0.14629587531089783,0.009346150793135166,0.2740901708602905
3.704589366912842,0.25310903787612915,-1.4246203899383545,1.3323034048080444,0.14629587531089783,-0.00476844422519207,0.2740901708602905
3.72467303276062,0.24357213079929352,-1.425001859664917,1.332684874534607,0.14667734503746033,-0.022697795182466507,0.2752346098423004
3.7448103427886963,0.23327229917049408,-1.426146388053894,1.3323034048080444,0.14744029939174652,-0.04177157208323479,0.2759975492954254
3.7650961875915527,0.22144655883312225,-1.4280537366867065,1.3319218158721924,0.1501106321811676,-0.06389715522527695,0.2790493667125702
3.7851459980010986,0.20656901597976685,-1.429198145866394,1.3315403461456299,0.1516365259885788,-0.07381551712751389,0.2805752754211426
3.805204153060913,0.19359883666038513,-1.429961085319519,1.3315403461456299,0.15354390442371368,-0.08144503086805344,0.2809567451477051
3.8252923488616943,0.17566949129104614,-1.4295796155929565,1.3319218158721924,0.15392538905143738,-0.08335240930318832,0.2805752754211426
3.845367670059204,0.15850308537483215,-1.4288166761398315,1.3330663442611694,0.15468832850456238,-0.08030059933662415,0.2809567451477051
3.8656504154205322,0.15850308537483215,-1.4272907972335815,1.3330663442611694,0.15506981313228607,-0.08449683338403702,0.2813382148742676
3.885741949081421,0.16384375095367432,-1.4253833293914795,1.3315403461456299,0.15506981313228607,-0.09555962681770325,0.2813382148742676
3.9057977199554443,0.17071031033992767,-1.4230945110321045,1.3296329975128174,0.15545128285884857,-0.10204470902681351,0.28248265385627747
3.925886392593384,0.1832990050315857,-1.4223315715789795,1.3273441791534424,0.15545128285884857,-0.1024261862039566,0.28286412358283997
3.94596004486084,0.1989395022392273,-1.4223315715789795,1.3254368305206299,0.15545128285884857,-0.1035706102848053,0.28324559330940247
3.96602725982666,0.212672621011734,-1.422713041305542,1.3239108324050903,0.15545128285884857,-0.09822995215654373,0.28362706303596497
3.98612904548645,0.22259098291397095,-1.4238574504852295,1.3239108324050903,0.15506981313228607,-0.09021896868944168,0.28286412358283997
4.006176948547363,0.2283131182193756,-1.425001859664917,1.3242924213409424,0.15506981313228607,-0.07457847148180008,0.28286412358283997
4.026309967041016,0.22755016386508942,-1.426909327507019,1.3265812397003174,0.15468832850456238,-0.056267641484737396,0.2813382148742676
4.046362400054932,0.22411687672138214,-1.429198145866394,1.3307774066925049,0.15392538905143738,-0.042153049260377884,0.2801937758922577
4.066528558731079,0.2138170450925827,-1.429961085319519,1.334210753440857,0.15354390442371368,-0.02994582988321781,0.2801937758922577
4.086628675460815,0.200083926320076,-1.4303425550460815,1.338788390159607,0.15316243469715118,-0.024605173617601395,0.2779049277305603
4.106744050979614,0.1836804747581482,-1.4303425550460815,1.3410773277282715,0.15316243469715118,-0.03185320645570755,0.2775234580039978
4.126833438873291,0.16308079659938812,-1.4303425550460815,1.3448920249938965,0.15354390442371368,-0.04329747334122658,0.2779049277305603
4.146874189376831,0.1504921019077301,-1.431486964225769,1.347562313079834,0.15392538905143738,-0.06198977679014206,0.2782863974571228
4.16698694229126,0.14705882966518402,-1.4333943128585815,1.3490883111953735,0.15621423721313477,-0.0864042118191719,0.2801937758922577
4.187130928039551,0.1497291475534439,-1.4353017807006836,1.348706841468811,0.15850308537483215,-0.11654078215360641,0.2821011543273926
4.207191705703735,0.15468832850456238,-1.437209129333496,1.347562313079834,0.16231784224510193,-0.1359960287809372,0.28248265385627747
4.227315425872803,0.16384375095367432,-1.439497947692871,1.345273494720459,0.1661325991153717,-0.1493476778268814,0.28553444147109985
4.24746036529541,0.17757686972618103,-1.440260887145996,1.3426032066345215,0.1668955534696579,-0.16002899408340454,0.28515297174453735
4.267529487609863,0.1970321238040924,-1.440260887145996,1.3403143882751465,0.1684214472770691,-0.15316243469715118,0.28477150201797485
4.287625074386597,0.21877622604370117,-1.440260887145996,1.3391698598861694,0.1684214472770691,-0.135233074426651,0.28400853276252747
4.307710409164429,0.2454795092344284,-1.440260887145996,1.3376439809799194,0.1684214472770691,-0.11005569249391556,0.28362706303596497
4.327845096588135,0.25577935576438904,-1.440260887145996,1.338025450706482,0.1672770231962204,-0.08983749151229858,0.2809567451477051
4.347890377044678,0.25310903787612915,-1.440260887145996,1.339551329612732,0.1657511293888092,-0.054741740226745605,0.2798123061656952
4.367962121963501,0.2481498420238495,-1.440260887145996,1.341458797454834,0.16346226632595062,-0.02231631986796856,0.2740901708602905
4.388014316558838,0.2458609938621521,-1.4398794174194336,1.342221736907959,0.15774014592170715,0.010490577667951584,0.27103838324546814
4.408169746398926,0.23327229917049408,-1.438735008239746,1.343747615814209,0.15583276748657227,0.013542382046580315,0.26874953508377075
4.42824387550354,0.21953918039798737,-1.4368276596069336,1.3456549644470215,0.15659570693969727,0.004386968910694122,0.26951247453689575
4.448307991027832,0.20389868319034576,-1.4368276596069336,1.346036434173584,0.15659570693969727,-0.018120087683200836,0.27027541399002075
4.468481063842773,0.18596932291984558,-1.437209129333496,1.3464179039001465,0.15697719156742096,-0.03795681521296501,0.27103838324546814
4.488576173782349,0.16308079659938812,-1.4383535385131836,1.346036434173584,0.15850308537483215,-0.06275273114442825,0.2744716703891754
4.508668422698975,0.13790340721607208,-1.440260887145996,1.3456549644470215,0.16269932687282562,-0.08411535620689392,0.2763790488243103
4.528925180435181,0.12302586436271667,-1.440260887145996,1.3456549644470215,0.1661325991153717,-0.10128175467252731,0.2779049277305603
4.549049139022827,0.12569619715213776,-1.4383535385131836,1.3441290855407715,0.16956588625907898,-0.11654078215360641,0.2798123061656952
4.569131135940552,0.13103684782981873,-1.4360647201538086,1.341458797454834,0.17147326469421387,-0.12722209095954895,0.2805752754211426
4.589191436767578,0.14400701224803925,-1.433012843132019,1.339932918548584,0.17185473442077637,-0.1348516047000885,0.2809567451477051
4.60929012298584,0.15812161564826965,-1.4303425550460815,1.338788390159607,0.17185473442077637,-0.13141833245754242,0.2809567451477051
4.6296491622924805,0.17910276353359222,-1.429961085319519,1.3384069204330444,0.17185473442077637,-0.11959258466959,0.2805752754211426
4.6497557163238525,0.20466163754463196,-1.429961085319519,1.3368810415267944,0.17147326469421387,-0.10433356463909149,0.2798123061656952
4.669883966445923,0.23327229917049408,-1.429961085319519,1.3353551626205444,0.17147326469421387,-0.08564125746488571,0.2790493667125702
4.689992189407349,0.2454795092344284,-1.429961085319519,1.3338292837142944,0.17032882571220398,-0.06733043491840363,0.2767605185508728
4.710063934326172,0.2500572204589844,-1.429961085319519,1.333447813987732,0.16918440163135529,-0.040245670825242996,0.2744716703891754
4.730245113372803,0.2462424635887146,-1.429961085319519,1.3338292837142944,0.1665140837430954,-0.011635004542768002,0.26989394426345825
4.750370025634766,0.24166475236415863,-1.4295796155929565,1.334210753440857,0.16002899408340454,0.01506828423589468,0.2634088695049286
4.770596981048584,0.2317463904619217,-1.4280537366867065,1.3353551626205444,0.15964750945568085,0.022697795182466507,0.2615014910697937
4.790687084197998,0.21915769577026367,-1.4265278577804565,1.3368810415267944,0.15964750945568085,0.008964675478637218,0.2618829607963562
4.8107640743255615,0.20733195543289185,-1.4265278577804565,1.3376439809799194,0.16002899408340454,-0.008964675478637218,0.2626459002494812
4.831047058105469,0.19054703414440155,-1.4272907972335815,1.3376439809799194,0.16041046380996704,-0.03147173300385475,0.2626459002494812
4.851169586181641,0.1672770231962204,-1.429198145866394,1.3376439809799194,0.16269932687282562,-0.05436026677489281,0.264934778213501
4.871609210968018,0.13942931592464447,-1.430724024772644,1.337262511253357,0.1661325991153717,-0.07457847148180008,0.26684215664863586
4.891732454299927,0.12111848592758179,-1.431486964225769,1.338025450706482,0.16956588625907898,-0.0879301130771637,0.26684215664863586
4.911834955215454,0.1180666834115982,-1.430724024772644,1.3376439809799194,0.17376211285591125,-0.10509651154279709,0.27027541399002075
4.931880474090576,0.12417028844356537,-1.4295796155929565,1.336499571800232,0.17566949129104614,-0.11539635062217712,0.272945761680603
4.952021360397339,0.1348516047000885,-1.427672266960144,1.334973692893982,0.17643244564533234,-0.12340734153985977,0.2744716703891754
4.97244930267334,0.1493476778268814,-1.426909327507019,1.3338292837142944,0.17605096101760864,-0.12722209095954895,0.2744716703891754
4.992558002471924,0.16880293190479279,-1.4265278577804565,1.3323034048080444,0.17643244564533234,-0.12188144028186798,0.2744716703891754
5.012622117996216,0.19283588230609894,-1.4272907972335815,1.3311588764190674,0.17605096101760864,-0.10814831405878067,0.273708701133728
5.03273868560791,0.22373540699481964,-1.4280537366867065,1.3288700580596924,0.17605096101760864,-0.09365224838256836,0.273708701133728
5.052834987640381,0.2443350851535797,-1.429198145866394,1.3284885883331299,0.17528800666332245,-0.07572289556264877,0.272945761680603
5.072962284088135,0.2439536154270172,-1.429961085319519,1.3296329975128174,0.17452506721019745,-0.05436026677489281,0.27065691351890564
5.093184232711792,0.24013885855674744,-1.429961085319519,1.3315403461456299,0.17261768877506256,-0.023079270496964455,0.266460657119751
5.113307952880859,0.23441672325134277,-1.429961085319519,1.3338292837142944,0.1676585078239441,0.012779430486261845,0.2584496736526489
5.133349657058716,0.22259098291397095,-1.4288166761398315,1.335736632347107,0.16384375095367432,0.030708782374858856,0.25539788603782654
5.153451442718506,0.20580606162548065,-1.4272907972335815,1.3376439809799194,0.16384375095367432,0.02689402550458908,0.25539788603782654
5.173633337020874,0.1817730963230133,-1.426909327507019,1.3391698598861694,0.16422522068023682,0.00667582219466567,0.25616082549095154
5.193731307983398,0.16079194843769073,-1.4280537366867065,1.3403143882751465,0.1646067053079605,-0.018501564860343933,0.2569237947463989
5.213801383972168,0.14095520973205566,-1.4295796155929565,1.3403143882751465,0.164988175034523,-0.03528648987412453,0.2573052644729614
5.233869314193726,0.11425192654132843,-1.4318684339523315,1.3403143882751465,0.16918440163135529,-0.06389715522527695,0.2607385218143463
5.25395131111145,0.1035706102848053,-1.433012843132019,1.340695858001709,0.17566949129104614,-0.09060044586658478,0.2637903392314911
5.2740538120269775,0.10547798871994019,-1.4337759017944336,1.3403143882751465,0.17986571788787842,-0.11081864684820175,0.265697717666626
5.294124126434326,0.11158160120248795,-1.433012843132019,1.339551329612732,0.1813916265964508,-0.12951095402240753,0.266460657119751
5.314915418624878,0.12493324279785156,-1.4311054944992065,1.339932918548584,0.1825360506772995,-0.14095520973205566,0.26684215664863586
5.33500862121582,0.14286258816719055,-1.429961085319519,1.339551329612732,0.1825360506772995,-0.1333257108926773,0.266460657119751
5.355067014694214,0.16002899408340454,-1.429961085319519,1.339551329612732,0.1825360506772995,-0.11539635062217712,0.265697717666626
5.375344514846802,0.1848248988389969,-1.429961085319519,1.338788390159607,0.1825360506772995,-0.09212634712457657,0.2645532786846161
5.395451307296753,0.2161058932542801,-1.4303425550460815,1.3368810415267944,0.1825360506772995,-0.0707637146115303,0.2634088695049286
5.4155988693237305,0.23899443447589874,-1.430724024772644,1.3353551626205444,0.1813916265964508,-0.05245288833975792,0.2618829607963562
5.435684442520142,0.24204623699188232,-1.430724024772644,1.3353551626205444,0.17986571788787842,-0.02384222112596035,0.2584496736526489
5.455740690231323,0.23899443447589874,-1.4311054944992065,1.335736632347107,0.17719538509845734,0.0009536888683214784,0.25272753834724426
5.475854158401489,0.23479819297790527,-1.4303425550460815,1.336499571800232,0.17185473442077637,0.02536812424659729,0.247768372297287
5.4959094524383545,0.22564278542995453,-1.429198145866394,1.3376439809799194,0.17032882571220398,0.03299763426184654,0.2458609938621521
5.515996932983398,0.2134355753660202,-1.428435206413269,1.338788390159607,0.17071031033992767,0.01888304017484188,0.2466239482164383
5.5360846519470215,0.1997024416923523,-1.428435206413269,1.339932918548584,0.17185473442077637,0.0013351644156500697,0.247768372297287
5.556145429611206,0.1806286722421646,-1.429198145866394,1.339932918548584,0.17185473442077637,-0.02193484455347061,0.2481498420238495
5.576238632202148,0.16117341816425323,-1.4311054944992065,1.339932918548584,0.17376211285591125,-0.04558632895350456,0.2508201599121094
5.596291780471802,0.13904783129692078,-1.4326313734054565,1.3391698598861694,0.17719538509845734,-0.06542305648326874,0.25234606862068176
5.616412401199341,0.1188296303153038,-1.4337759017944336,1.339932918548584,0.1810101419687271,-0.07877469807863235,0.25463491678237915
5.636454343795776,0.11234454810619354,-1.4333943128585815,1.3403143882751465,0.1848248988389969,-0.10013733059167862,0.25577935576438904
5.656599521636963,0.11577782779932022,-1.4318684339523315,1.339932918548584,0.18596932291984558,-0.11501488089561462,0.25616082549095154
5.676669597625732,0.12531471252441406,-1.4295796155929565,1.338788390159607,0.18711376190185547,-0.12264438718557358,0.2569237947463989
5.696751594543457,0.14057374000549316,-1.4280537366867065,1.338025450706482,0.18673227727413177,-0.12378881871700287,0.25654229521751404
5.716909408569336,0.15850308537483215,-1.427672266960144,1.337262511253357,0.18711376190185547,-0.11387044936418533,0.25654229521751404
5.736950159072876,0.17795833945274353,-1.4280537366867065,1.336499571800232,0.18711376190185547,-0.1031891331076622,0.25616082549095154
5.7570390701293945,0.20466163754463196,-1.428435206413269,1.3353551626205444,0.18673227727413177,-0.09174486994743347,0.25463491678237915
5.777165651321411,0.23289081454277039,-1.4288166761398315,1.333447813987732,0.18635080754756927,-0.07724879682064056,0.25463491678237915
5.797757387161255,0.24013885855674744,-1.4295796155929565,1.3338292837142944,0.18558785319328308,-0.06389715522527695,0.25310903787612915
5.8179357051849365,0.23975738883018494,-1.429961085319519,1.334973692893982,0.18520638346672058,-0.03643091395497322,0.24967575073242188
5.837914228439331,0.23289081454277039,-1.429961085319519,1.335736632347107,0.182917520403862,-0.013160906732082367,0.2447165697813034
5.858027696609497,0.22602425515651703,-1.4295796155929565,1.3368810415267944,0.17795833945274353,0.009727626107633114,0.23937590420246124
5.8780927658081055,0.2149614691734314,-1.4288166761398315,1.338025450706482,0.17719538509845734,0.008201723918318748,0.23861294984817505
5.898204326629639,0.2004653960466385,-1.4280537366867065,1.3391698598861694,0.17757686972618103,-0.00476844422519207,0.23899443447589874
5.9183104038238525,0.182154580950737,-1.428435206413269,1.339932918548584,0.17833982408046722,-0.026512550190091133,0.23975738883018494
5.938357591629028,0.15659570693969727,-1.429961085319519,1.3403143882751465,0.17948424816131592,-0.05054550990462303,0.24013885855674744
5.958446979522705,0.1340886503458023,-1.4318684339523315,1.340695858001709,0.182154580950737,-0.07610437273979187,0.24242770671844482
5.978521823883057,0.1199740618467331,-1.433012843132019,1.341458797454834,0.18558785319328308,-0.09594109654426575,0.2447165697813034
5.998602390289307,0.12188144028186798,-1.4333943128585815,1.3418402671813965,0.18902114033699036,-0.11959258466959,0.2481498420238495
6.018709421157837,0.12531471252441406,-1.4333943128585815,1.341458797454834,0.19054703414440155,-0.13752193748950958,0.24891279637813568
6.038747549057007,0.1367589831352234,-1.431486964225769,1.3410773277282715,0.19092851877212524,-0.1504921019077301,0.2504386901855469
6.05890417098999,0.152399480342865,-1.429198145866394,1.339932918548584,0.19092851877212524,-0.15468832850456238,0.2504386901855469
6.078947305679321,0.1665140837430954,-1.4288166761398315,1.339551329612732,0.19130998849868774,-0.14438849687576294,0.2504386901855469
6.099015712738037,0.18787670135498047,-1.4288166761398315,1.338788390159607,0.19054703414440155,-0.12874799966812134,0.248531311750412
6.119171857833862,0.21953918039798737,-1.4288166761398315,1.3376439809799194,0.19054703414440155,-0.11081864684820175,0.2481498420238495
6.1393115520477295,0.2454795092344284,-1.429198145866394,1.335736632347107,0.19016556441783905,-0.08907453715801239,0.2470054179430008
6.15941047668457,0.24090181291103363,-1.429198145866394,1.335736632347107,0.18863965570926666,-0.06046387553215027,0.2447165697813034
6.17983865737915,0.23250934481620789,-1.429961085319519,1.336499571800232,0.18635080754756927,-0.020027466118335724,0.23708705604076385
6.19987678527832,0.2290760725736618,-1.429961085319519,1.3376439809799194,0.1810101419687271,0.002861066721379757,0.23289081454277039
6.220123291015625,0.21763180196285248,-1.4288166761398315,1.339551329612732,0.17795833945274353,0.009346150793135166,0.2286945879459381
6.240291118621826,0.20122835040092468,-1.4272907972335815,1.3418402671813965,0.17795833945274353,0.0024795911740511656,0.2283131182193756
6.26054048538208,0.1836804747581482,-1.426909327507019,1.342221736907959,0.17872129380702972,-0.01201647985726595,0.2286945879459381
6.280679941177368,0.15697719156742096,-1.427672266960144,1.3426032066345215,0.17910276353359222,-0.03376058489084244,0.2290760725736618
6.300755500793457,0.12455176562070847,-1.429198145866394,1.3426032066345215,0.17948424816131592,-0.05970092490315437,0.2294575423002243
6.320916414260864,0.10090028494596481,-1.4311054944992065,1.342984676361084,0.1840619444847107,-0.07648584991693497,0.23212787508964539
6.341017007827759,0.09784847497940063,-1.432249903678894,1.342984676361084,0.18940261006355286,-0.1039520874619484,0.23441672325134277
6.361055374145508,0.10433356463909149,-1.432249903678894,1.3426032066345215,0.19245441257953644,-0.12684062123298645,0.23746852576732635
6.3811328411102295,0.10738536715507507,-1.4311054944992065,1.3418402671813965,0.19398032128810883,-0.14476996660232544,0.23937590420246124
6.401193857192993,0.1184481605887413,-1.4295796155929565,1.3418402671813965,0.19436179101467133,-0.15583276748657227,0.23937590420246124
6.421276330947876,0.1356145590543747,-1.4280537366867065,1.341458797454834,0.19436179101467133,-0.1493476778268814,0.23937590420246124
6.441341876983643,0.15354390442371368,-1.4280537366867065,1.341458797454834,0.19321736693382263,-0.12684062123298645,0.23785001039505005
6.461452007293701,0.17757686972618103,-1.428435206413269,1.340695858001709,0.19398032128810883,-0.1035706102848053,0.23746852576732635
6.481610059738159,0.20237277448177338,-1.429198145866394,1.338788390159607,0.19359883666038513,-0.0883115902543068,0.23556114733219147
6.501690864562988,0.22411687672138214,-1.429198145866394,1.3376439809799194,0.19321736693382263,-0.06351567804813385,0.23479819297790527
6.521729946136475,0.2286945879459381,-1.429198145866394,1.3376439809799194,0.19207294285297394,-0.0398641936480999,0.2317463904619217
6.541800260543823,0.22793163359165192,-1.4288166761398315,1.3384069204330444,0.19016556441783905,-0.01888304017484188,0.22678720951080322
6.561890125274658,0.22220951318740845,-1.428435206413269,1.339932918548584,0.18635080754756927,0.0036240178160369396,0.22144655883312225
6.5819480419158936,0.21229113638401031,-1.4272907972335815,1.3410773277282715,0.1836804747581482,0.013160906732082367,0.21915769577026367
6.60205340385437,0.1958876997232437,-1.425764799118042,1.342984676361084,0.1832990050315857,0.004386968910694122,0.21953918039798737
6.622253656387329,0.17681391537189484,-1.425764799118042,1.3433661460876465,0.1840619444847107,-0.014686808921396732,0.22030213475227356
6.642263174057007,0.1516365259885788,-1.426909327507019,1.3441290855407715,0.1844434291124344,-0.03528648987412453,0.22068360447883606
6.662396430969238,0.12912946939468384,-1.4288166761398315,1.344510555267334,0.18635080754756927,-0.05855649709701538,0.22068360447883606
6.683169841766357,0.10967422276735306,-1.4311054944992065,1.345273494720459,0.19245441257953644,-0.08487831056118011,0.22259098291397095
6.703262567520142,0.11196307092905045,-1.432249903678894,1.3456549644470215,0.1970321238040924,-0.10624094307422638,0.22602425515651703
6.723319053649902,0.11196307092905045,-1.4326313734054565,1.3456549644470215,0.1997024416923523,-0.12645913660526276,0.2286945879459381
6.743404388427734,0.1199740618467331,-1.4318684339523315,1.3456549644470215,0.20199130475521088,-0.14095520973205566,0.2294575423002243
6.763474702835083,0.13103684782981873,-1.4295796155929565,1.345273494720459,0.20199130475521088,-0.1489662081003189,0.2294575423002243
6.783563852310181,0.1493476778268814,-1.428435206413269,1.344510555267334,0.20199130475521088,-0.14057374000549316,0.2290760725736618
6.8036487102508545,0.1684214472770691,-1.428435206413269,1.343747615814209,0.20160982012748718,-0.12226291000843048,0.22793163359165192
6.8238420486450195,0.19169145822525024,-1.4288166761398315,1.3426032066345215,0.20160982012748718,-0.10051880776882172,0.22793163359165192
6.84393048286438,0.22144655883312225,-1.429198145866394,1.340695858001709,0.20160982012748718,-0.08297093212604523,0.22678720951080322
6.864057779312134,0.23785001039505005,-1.4295796155929565,1.339551329612732,0.2004653960466385,-0.06275273114442825,0.22487983107566833
6.884103775024414,0.2466239482164383,-1.429961085319519,1.339932918548584,0.1993209719657898,-0.032616160809993744,0.22220951318740845
6.90427565574646,0.24967575073242188,-1.4303425550460815,1.340695858001709,0.1970321238040924,-0.01125352829694748,0.21763180196285248
6.9244420528411865,0.2481498420238495,-1.4295796155929565,1.3410773277282715,0.19169145822525024,0.009346150793135166,0.21229113638401031
6.94443154335022,0.2439536154270172,-1.4288166761398315,1.3426032066345215,0.19016556441783905,0.013923857361078262,0.21076524257659912
6.964632511138916,0.23670557141304016,-1.4280537366867065,1.3433661460876465,0.19016556441783905,0.0036240178160369396,0.21076524257659912
6.984738349914551,0.2283131182193756,-1.4280537366867065,1.343747615814209,0.19054703414440155,-0.010490577667951584,0.21152819693088531
7.005026578903198,0.2161058932542801,-1.429198145866394,1.343747615814209,0.19092851877212524,-0.02727550081908703,0.21190966665744781
7.025115728378296,0.20351719856262207,-1.4303425550460815,1.343747615814209,0.19207294285297394,-0.04634927958250046,0.2141985148191452
7.045171022415161,0.19207294285297394,-1.431486964225769,1.342984676361084,0.19398032128810883,-0.06046387553215027,0.2141985148191452
7.065259695053101,0.17376211285591125,-1.432249903678894,1.342984676361084,0.19512474536895752,-0.06771191209554672,0.2145799994468689
7.08533501625061,0.15545128285884857,-1.432249903678894,1.3433661460876465,0.19512474536895752,-0.071908138692379,0.2141985148191452
7.105404853820801,0.14248111844062805,-1.4318684339523315,1.3448920249938965,0.1958876997232437,-0.0715266615152359,0.2145799994468689
7.1255247592926025,0.14095520973205566,-1.4303425550460815,1.345273494720459,0.1970321238040924,-0.07953765243291855,0.2149614691734314
7.1457250118255615,0.14248111844062805,-1.427672266960144,1.344510555267334,0.1974135935306549,-0.0883115902543068,0.21725031733512878
7.165887832641602,0.15430685877799988,-1.425764799118042,1.3426032066345215,0.1985580176115036,-0.09594109654426575,0.22068360447883606
7.185940980911255,0.1672770231962204,-1.4246203899383545,1.341458797454834,0.1985580176115036,-0.10051880776882172,0.22144655883312225
7.206026792526245,0.18635080754756927,-1.4246203899383545,1.339932918548584,0.1985580176115036,-0.09784847497940063,0.22220951318740845
7.226125717163086,0.20695048570632935,-1.4246203899383545,1.338025450706482,0.1981765478849411,-0.09403372555971146,0.22182802855968475
7.246200084686279,0.22335393726825714,-1.426146388053894,1.3376439809799194,0.1981765478849411,-0.08411535620689392,0.22144655883312225
7.266268253326416,0.23289081454277039,-1.4280537366867065,1.3376439809799194,0.1977950781583786,-0.06961929053068161,0.22106507420539856
7.286397457122803,0.23517967760562897,-1.429961085319519,1.3391698598861694,0.1977950781583786,-0.05054550990462303,0.22030213475227356
7.306820631027222,0.2290760725736618,-1.4311054944992065,1.3410773277282715,0.1966506391763687,-0.02880140393972397,0.21877622604370117
7.326915264129639,0.22220951318740845,-1.431486964225769,1.342984676361084,0.19436179101467133,-0.010109102353453636,0.2145799994468689
7.3469672203063965,0.2141985148191452,-1.4311054944992065,1.344510555267334,0.19130998849868774,-0.00019073777366429567,0.21229113638401031
7.3670737743377686,0.1993209719657898,-1.4303425550460815,1.3464179039001465,0.19092851877212524,-0.005149920005351305,0.21190966665744781
7.387178659439087,0.1825360506772995,-1.4303425550460815,1.3483253717422485,0.19130998849868774,-0.019645990803837776,0.212672621011734
7.407276391983032,0.15850308537483215,-1.430724024772644,1.349469780921936,0.19130998849868774,-0.038719769567251205,0.2130540907382965
7.4274070262908936,0.1371404528617859,-1.4326313734054565,1.350995659828186,0.19207294285297394,-0.0551232174038887,0.2130540907382965
7.447637319564819,0.13103684782981873,-1.434157371520996,1.3529030084609985,0.1977950781583786,-0.08182650804519653,0.2149614691734314
7.467700004577637,0.1356145590543747,-1.4353017807006836,1.3529030084609985,0.200083926320076,-0.10891126841306686,0.21953918039798737
7.487787246704102,0.14019227027893066,-1.4360647201538086,1.351758599281311,0.20313572883605957,-0.13179980218410492,0.22220951318740845
7.50795578956604,0.1512550562620163,-1.4360647201538086,1.350232720375061,0.20428015291690826,-0.14438849687576294,0.22487983107566833
7.5279541015625,0.16422522068023682,-1.4360647201538086,1.348706841468811,0.20466163754463196,-0.15430685877799988,0.22564278542995453
7.548048973083496,0.1810101419687271,-1.4360647201538086,1.347943902015686,0.20504310727119446,-0.14553292095661163,0.22564278542995453
7.568109035491943,0.20160982012748718,-1.4360647201538086,1.3456549644470215,0.20504310727119446,-0.13027389347553253,0.22487983107566833
7.588218927383423,0.2302204966545105,-1.436446189880371,1.3441290855407715,0.20504310727119446,-0.11005569249391556,0.22449836134910583
7.60836124420166,0.24929426610469818,-1.4360647201538086,1.3418402671813965,0.20389868319034576,-0.08945601433515549,0.22335393726825714
7.62861442565918,0.2504386901855469,-1.436446189880371,1.342221736907959,0.20122835040092468,-0.06694895774126053,0.22030213475227356
7.648733854293823,0.248531311750412,-1.4360647201538086,1.3433661460876465,0.1970321238040924,-0.026131074875593185,0.2153429538011551
7.668912172317505,0.2447165697813034,-1.435683250427246,1.3441290855407715,0.19130998849868774,-0.0013351644156500697,0.21038375794887543
7.689070463180542,0.23289081454277039,-1.4345388412475586,1.3456549644470215,0.18825818598270416,0.009727626107633114,0.20695048570632935
7.70909309387207,0.22182802855968475,-1.4326313734054565,1.346799373626709,0.18787670135498047,0.004005493130534887,0.20656901597976685
7.729180574417114,0.20504310727119446,-1.432249903678894,1.3471808433532715,0.18787670135498047,-0.01506828423589468,0.20733195543289185
7.749265909194946,0.18673227727413177,-1.433012843132019,1.347943902015686,0.18825818598270416,-0.03681239113211632,0.20847637951374054
7.769601583480835,0.16155488789081573,-1.4345388412475586,1.347943902015686,0.18978407979011536,-0.05893797054886818,0.21038375794887543
7.789729356765747,0.1356145590543747,-1.4368276596069336,1.347943902015686,0.19321736693382263,-0.07763027399778366,0.2138170450925827
7.809762477874756,0.11463340371847153,-1.437972068786621,1.3483253717422485,0.1958876997232437,-0.09250781685113907,0.2145799994468689
7.8298914432525635,0.11196307092905045,-1.437209129333496,1.347943902015686,0.1997024416923523,-0.10891126841306686,0.21648737788200378
7.849937200546265,0.11654078215360641,-1.435683250427246,1.347562313079834,0.20199130475521088,-0.12378881871700287,0.21992065012454987
7.8701136112213135,0.13103684782981873,-1.433012843132019,1.346799373626709,0.20199130475521088,-0.1325627565383911,0.22182802855968475
7.890223741531372,0.14362554252147675,-1.4303425550460815,1.346036434173584,0.20199130475521088,-0.1363775134086609,0.22297245264053345
7.910318851470947,0.16002899408340454,-1.4295796155929565,1.346036434173584,0.20199130475521088,-0.12912946939468384,0.22449836134910583
7.9303977489471436,0.18520638346672058,-1.4295796155929565,1.3448920249938965,0.20160982012748718,-0.1188296303153038,0.22297245264053345
7.950477123260498,0.21915769577026367,-1.429961085319519,1.342984676361084,0.20160982012748718,-0.09899290651082993,0.22259098291397095
7.9705469608306885,0.24280919134616852,-1.4303425550460815,1.3403143882751465,0.20122835040092468,-0.07686731964349747,0.22182802855968475
7.990663290023804,0.2443350851535797,-1.430724024772644,1.3403143882751465,0.200083926320076,-0.05855649709701538,0.21992065012454987
8.010780334472656,0.23823148012161255,-1.4318684339523315,1.339932918548584,0.1977950781583786,-0.025749599561095238,0.2161058932542801
8.030837059020996,0.23670557141304016,-1.4318684339523315,1.3403143882751465,0.19245441257953644,0.007057297509163618,0.21038375794887543
8.051086902618408,0.2298390120267868,-1.4303425550460815,1.3410773277282715,0.18940261006355286,0.023079270496964455,0.20771344006061554
8.071205854415894,0.21686884760856628,-1.428435206413269,1.3426032066345215,0.18978407979011536,0.016594186425209045,0.20809490978717804
8.091318607330322,0.20237277448177338,-1.4288166761398315,1.3433661460876465,0.19016556441783905,-0.005912871100008488,0.20962081849575043
8.111352682113647,0.1840619444847107,-1.429198145866394,1.3441290855407715,0.19016556441783905,-0.02689402550458908,0.21000228822231293
8.131426572799683,0.1680399775505066,-1.4303425550460815,1.343747615814209,0.19092851877212524,-0.05054550990462303,0.21076524257659912
8.151474475860596,0.14744029939174652,-1.432249903678894,1.342984676361084,0.19436179101467133,-0.0711451917886734,0.2138170450925827
8.171570301055908,0.12378881871700287,-1.4337759017944336,1.342984676361084,0.1958876997232437,-0.08335240930318832,0.2145799994468689
8.191641092300415,0.12302586436271667,-1.4333943128585815,1.3441290855407715,0.2004653960466385,-0.10547798871994019,0.2161058932542801
8.211743831634521,0.12989242374897003,-1.432249903678894,1.343747615814209,0.20237277448177338,-0.11959258466959,0.22030213475227356
8.231810092926025,0.14095520973205566,-1.429198145866394,1.342984676361084,0.20275425910949707,-0.12684062123298645,0.22182802855968475
8.252548217773438,0.15392538905143738,-1.427672266960144,1.342984676361084,0.20237277448177338,-0.12722209095954895,0.22144655883312225
8.272701740264893,0.17528800666332245,-1.425764799118042,1.342221736907959,0.20237277448177338,-0.11577782779932022,0.22144655883312225
8.292752742767334,0.19474326074123383,-1.425764799118042,1.341458797454834,0.20199130475521088,-0.09861142933368683,0.22068360447883606
8.312989234924316,0.22144655883312225,-1.426146388053894,1.339932918548584,0.20199130475521088,-0.08068207651376724,0.22030213475227356
8.333233118057251,0.23861294984817505,-1.426909327507019,1.3384069204330444,0.2004653960466385,-0.06389715522527695,0.21877622604370117
8.353543519973755,0.2447165697813034,-1.4288166761398315,1.3384069204330444,0.1989395022392273,-0.034142062067985535,0.21725031733512878
8.373704195022583,0.24242770671844482,-1.4295796155929565,1.3384069204330444,0.1970321238040924,-0.010109102353453636,0.21152819693088531
8.393747568130493,0.23708705604076385,-1.4295796155929565,1.338788390159607,0.18978407979011536,0.016594186425209045,0.20771344006061554
8.413828611373901,0.22755016386508942,-1.428435206413269,1.339932918548584,0.18978407979011536,0.018501564860343933,0.20618753135204315
8.433879852294922,0.21877622604370117,-1.4265278577804565,1.3410773277282715,0.18978407979011536,0.005531395319849253,0.20580606162548065
8.453959465026855,0.20504310727119446,-1.426909327507019,1.3418402671813965,0.19054703414440155,-0.01430533267557621,0.20656901597976685
8.47409462928772,0.19169145822525024,-1.4272907972335815,1.342221736907959,0.19054703414440155,-0.032616160809993744,0.20695048570632935
8.494135856628418,0.17376211285591125,-1.428435206413269,1.3418402671813965,0.19207294285297394,-0.05703059583902359,0.21000228822231293
8.514257192611694,0.1504921019077301,-1.4303425550460815,1.3418402671813965,0.19550621509552002,-0.07763027399778366,0.21190966665744781
8.534475088119507,0.12874799966812134,-1.431486964225769,1.342221736907959,0.1993209719657898,-0.09174486994743347,0.2138170450925827
8.55456829071045,0.12912946939468384,-1.4311054944992065,1.342984676361084,0.20275425910949707,-0.10814831405878067,0.21725031733512878
8.574631214141846,0.13218127191066742,-1.429961085319519,1.3426032066345215,0.20275425910949707,-0.12111848592758179,0.21915769577026367
8.594704866409302,0.14209964871406555,-1.4280537366867065,1.3426032066345215,0.20275425910949707,-0.12569619715213776,0.22106507420539856
8.614802122116089,0.15545128285884857,-1.426146388053894,1.342221736907959,0.20275425910949707,-0.12912946939468384,0.22144655883312225
8.634851932525635,0.17452506721019745,-1.425764799118042,1.3418402671813965,0.20237277448177338,-0.1203555315732956,0.22068360447883606
8.655033111572266,0.1989395022392273,-1.425764799118042,1.3403143882751465,0.20199130475521088,-0.10547798871994019,0.22106507420539856
8.675030946731567,0.22144655883312225,-1.426146388053894,1.339551329612732,0.20160982012748718,-0.09517814964056015,0.22030213475227356
8.695125818252563,0.23708705604076385,-1.426909327507019,1.3384069204330444,0.200083926320076,-0.07915617525577545,0.21953918039798737
8.715253353118896,0.23365376889705658,-1.4280537366867065,1.338788390159607,0.1981765478849411,-0.05283436179161072,0.21763180196285248
8.735250234603882,0.2294575423002243,-1.4288166761398315,1.3391698598861694,0.1962691694498062,-0.018501564860343933,0.212672621011734
8.75533390045166,0.22220951318740845,-1.4288166761398315,1.340695858001709,0.18978407979011536,0.006294346414506435,0.20809490978717804
8.77539324760437,0.21114671230316162,-1.427672266960144,1.3418402671813965,0.18787670135498047,0.02040894143283367,0.20466163754463196
8.795470237731934,0.19359883666038513,-1.426909327507019,1.342984676361084,0.18711376190185547,0.00858320016413927,0.20466163754463196
8.815606594085693,0.17566949129104614,-1.4265278577804565,1.3441290855407715,0.18749523162841797,-0.0078202486038208,0.20542457699775696
8.83568549156189,0.1489662081003189,-1.4272907972335815,1.344510555267334,0.18749523162841797,-0.03147173300385475,0.20580606162548065
8.85581088066101,0.12073700875043869,-1.4295796155929565,1.345273494720459,0.18902114033699036,-0.05855649709701538,0.20618753135204315
8.87596082687378,0.10471503436565399,-1.4318684339523315,1.3471808433532715,0.19512474536895752,-0.08602273464202881,0.21038375794887543
8.896040439605713,0.1024261862039566,-1.4326313734054565,1.3471808433532715,0.20084688067436218,-0.10776684433221817,0.2141985148191452
8.91628384590149,0.10738536715507507,-1.4337759017944336,1.3471808433532715,0.20351719856262207,-0.13065537810325623,0.2161058932542801
8.936379671096802,0.11501488089561462,-1.433012843132019,1.346799373626709,0.20580606162548065,-0.1508735716342926,0.21839475631713867
8.956428527832031,0.12798504531383514,-1.431486964225769,1.3464179039001465,0.20580606162548065,-0.15926603972911835,0.21953918039798737
8.97667908668518,0.14705882966518402,-1.4303425550460815,1.346036434173584,0.20618753135204315,-0.1497291475534439,0.21953918039798737
8.996701002120972,0.1665140837430954,-1.4303425550460815,1.3456549644470215,0.20542457699775696,-0.12989242374897003,0.21839475631713867
9.016868829727173,0.19245441257953644,-1.430724024772644,1.345273494720459,0.20580606162548065,-0.10776684433221817,0.21763180196285248
9.036948680877686,0.22220951318740845,-1.430724024772644,1.3433661460876465,0.20542457699775696,-0.08907453715801239,0.21648737788200378
9.056973218917847,0.23937590420246124,-1.430724024772644,1.342221736907959,0.20428015291690826,-0.06427863240242004,0.2153429538011551
9.07706356048584,0.24128328263759613,-1.430724024772644,1.3418402671813965,0.20237277448177338,-0.037193864583969116,0.21152819693088531
9.097135543823242,0.23899443447589874,-1.430724024772644,1.3418402671813965,0.1997024416923523,-0.008964675478637218,0.20504310727119446
9.117364406585693,0.23441672325134277,-1.429961085319519,1.3426032066345215,0.19321736693382263,0.013923857361078262,0.2004653960466385
9.137389898300171,0.22297245264053345,-1.4288166761398315,1.3433661460876465,0.19054703414440155,0.015449759550392628,0.1985580176115036
9.157877445220947,0.20809490978717804,-1.4280537366867065,1.344510555267334,0.19092851877212524,-0.0036240178160369396,0.1993209719657898
9.177978038787842,0.19359883666038513,-1.4280537366867065,1.345273494720459,0.19130998849868774,-0.02384222112596035,0.200083926320076
9.198040008544922,0.17185473442077637,-1.429198145866394,1.345273494720459,0.19130998849868774,-0.04711223021149635,0.20160982012748718
9.218178272247314,0.14782176911830902,-1.430724024772644,1.3448920249938965,0.19474326074123383,-0.0707637146115303,0.20351719856262207
9.238256216049194,0.12378881871700287,-1.432249903678894,1.3448920249938965,0.1970321238040924,-0.08487831056118011,0.20504310727119446
9.258378028869629,0.11272602528333664,-1.433012843132019,1.3456549644470215,0.20122835040092468,-0.1024261862039566,0.20695048570632935
9.278467178344727,0.11120012402534485,-1.431486964225769,1.3456549644470215,0.20313572883605957,-0.12149996310472488,0.21000228822231293
9.2987060546875,0.11768520623445511,-1.429961085319519,1.3456549644470215,0.20466163754463196,-0.13141833245754242,0.21114671230316162
9.318817615509033,0.12874799966812134,-1.4280537366867065,1.3448920249938965,0.20504310727119446,-0.1371404528617859,0.21229113638401031
9.339004278182983,0.14209964871406555,-1.4272907972335815,1.344510555267334,0.20504310727119446,-0.1348516047000885,0.21229113638401031
9.359034299850464,0.16308079659938812,-1.426909327507019,1.343747615814209,0.20504310727119446,-0.12149996310472488,0.21152819693088531
9.379249811172485,0.182917520403862,-1.4272907972335815,1.3418402671813965,0.20504310727119446,-0.10776684433221817,0.21190966665744781
9.399255752563477,0.20962081849575043,-1.4280537366867065,1.339932918548584,0.20466163754463196,-0.09174486994743347,0.21038375794887543
9.419346332550049,0.2313649207353592,-1.428435206413269,1.3384069204330444,0.20428015291690826,-0.07457847148180008,0.20962081849575043
9.439422130584717,0.23594263195991516,-1.4288166761398315,1.338788390159607,0.20275425910949707,-0.05436026677489281,0.20847637951374054
9.459505319595337,0.23250934481620789,-1.429198145866394,1.3403143882751465,0.20160982012748718,-0.02994582988321781,0.20466163754463196
9.479626655578613,0.2286945879459381,-1.4288166761398315,1.3410773277282715,0.1962691694498062,-0.002861066721379757,0.1993209719657898
9.499848365783691,0.21686884760856628,-1.4280537366867065,1.342984676361084,0.19283588230609894,0.013160906732082367,0.1958876997232437
9.51992416381836,0.20275425910949707,-1.4265278577804565,1.344510555267334,0.19092851877212524,0.009346150793135166,0.19512474536895752
9.540276050567627,0.17833982408046722,-1.4265278577804565,1.346036434173584,0.19130998849868774,-0.009727626107633114,0.19550621509552002
9.560397624969482,0.16193637251853943,-1.4272907972335815,1.3471808433532715,0.19130998849868774,-0.026512550190091133,0.1962691694498062
9.580468893051147,0.14209964871406555,-1.4288166761398315,1.3464179039001465,0.19207294285297394,-0.04711223021149635,0.1970321238040924
9.60057806968689,0.11692225188016891,-1.430724024772644,1.3471808433532715,0.19550621509552002,-0.07343403995037079,0.1993209719657898
9.620698928833008,0.10814831405878067,-1.432249903678894,1.347943902015686,0.20199130475521088,-0.10013733059167862,0.20351719856262207
9.640775203704834,0.10547798871994019,-1.433012843132019,1.347943902015686,0.20542457699775696,-0.12264438718557358,0.20656901597976685
9.660913705825806,0.10852979123592377,-1.433012843132019,1.347943902015686,0.20885786414146423,-0.13866636157035828,0.20809490978717804
9.680999517440796,0.11654078215360641,-1.4318684339523315,1.347562313079834,0.20962081849575043,-0.1493476778268814,0.21038375794887543
9.701151609420776,0.12874799966812134,-1.4303425550460815,1.3464179039001465,0.20962081849575043,-0.14667734503746033,0.21038375794887543
9.721192121505737,0.14057374000549316,-1.429961085319519,1.346036434173584,0.20962081849575043,-0.13141833245754242,0.21038375794887543
9.741262197494507,0.15850308537483215,-1.429961085319519,1.3456549644470215,0.20923933386802673,-0.11577782779932022,0.20923933386802673
9.761335134506226,0.1817730963230133,-1.429961085319519,1.344510555267334,0.20923933386802673,-0.09746700525283813,0.20885786414146423
9.781445264816284,0.21152819693088531,-1.429961085319519,1.342221736907959,0.20885786414146423,-0.08297093212604523,0.20847637951374054
9.801629066467285,0.2298390120267868,-1.429961085319519,1.341458797454834,0.20847637951374054,-0.06237125024199486,0.20695048570632935
9.821694135665894,0.23517967760562897,-1.429961085319519,1.3418402671813965,0.20580606162548065,-0.04291599988937378,0.20275425910949707
9.841822862625122,0.23327229917049408,-1.429961085319519,1.3426032066345215,0.20428015291690826,-0.02193484455347061,0.1977950781583786
9.861926794052124,0.22411687672138214,-1.429961085319519,1.342984676361084,0.200083926320076,-0.002861066721379757,0.19398032128810883
9.881961584091187,0.21076524257659912,-1.4295796155929565,1.3448920249938965,0.1977950781583786,0.0020981156267225742,0.19321736693382263
9.902043104171753,0.1993209719657898,-1.4288166761398315,1.346036434173584,0.1977950781583786,-0.005149920005351305,0.19321736693382263
9.92211389541626,0.182154580950737,-1.4288166761398315,1.3464179039001465,0.1981765478849411,-0.019645990803837776,0.19436179101467133
9.94218635559082,0.16155488789081573,-1.4295796155929565,1.346799373626709,0.1981765478849411,-0.03528648987412453,0.19474326074123383
9.962262153625488,0.1337071806192398,-1.430724024772644,1.347562313079834,0.1993209719657898,-0.0551232174038887,0.19512474536895752
9.982367038726807,0.10852979123592377,-1.432249903678894,1.3498512506484985,0.20237277448177338,-0.07381551712751389,0.19550621509552002
10.002429246902466,0.10090028494596481,-1.433012843132019,1.3506141901016235,0.20618753135204315,-0.08907453715801239,0.1977950781583786
10.022674560546875,0.10509651154279709,-1.433012843132019,1.350995659828186,0.20962081849575043,-0.10929274559020996,0.20084688067436218
10.042736053466797,0.11310750246047974,-1.4318684339523315,1.3506141901016235,0.21076524257659912,-0.12722209095954895,0.20351719856262207
10.06294059753418,0.12455176562070847,-1.430724024772644,1.3506141901016235,0.21190966665744781,-0.14286258816719055,0.20504310727119446
10.083063840866089,0.14095520973205566,-1.429961085319519,1.3498512506484985,0.21229113638401031,-0.14744029939174652,0.20542457699775696
10.103105068206787,0.15926603972911835,-1.429961085319519,1.3498512506484985,0.21229113638401031,-0.1356145590543747,0.20504310727119446
10.123197317123413,0.1844434291124344,-1.4303425550460815,1.3483253717422485,0.21229113638401031,-0.11539635062217712,0.20428015291690826
10.143286943435669,0.21114671230316162,-1.430724024772644,1.346799373626709,0.21229113638401031,-0.09670405089855194,0.20351719856262207
10.163435935974121,0.23746852576732635,-1.4311054944992065,1.3448920249938965,0.21152819693088531,-0.07457847148180008,0.20199130475521088
10.183473348617554,0.24242770671844482,-1.4311054944992065,1.344510555267334,0.20962081849575043,-0.04787518084049225,0.2004653960466385
10.203577995300293,0.24166475236415863,-1.4311054944992065,1.343747615814209,0.20847637951374054,-0.023079270496964455,0.19512474536895752
10.223686933517456,0.23861294984817505,-1.4311054944992065,1.343747615814209,0.20313572883605957,0.00667582219466567,0.19092851877212524
10.243744373321533,0.23327229917049408,-1.4303425550460815,1.344510555267334,0.2004653960466385,0.01926451548933983,0.18787670135498047
10.263845920562744,0.22411687672138214,-1.4295796155929565,1.345273494720459,0.2004653960466385,0.010872052982449532,0.18787670135498047
10.283915281295776,0.2134355753660202,-1.429198145866394,1.3464179039001465,0.20160982012748718,-0.009727626107633114,0.18902114033699036
10.304059982299805,0.1981765478849411,-1.429961085319519,1.346036434173584,0.20160982012748718,-0.029182879254221916,0.19054703414440155
10.324164628982544,0.1813916265964508,-1.4311054944992065,1.346036434173584,0.20275425910949707,-0.05283436179161072,0.19245441257953644
10.344215393066406,0.16193637251853943,-1.4326313734054565,1.3456549644470215,0.20618753135204315,-0.07381551712751389,0.19512474536895752
10.364304065704346,0.1359960287809372,-1.4337759017944336,1.346036434173584,0.20771344006061554,-0.08373387902975082,0.19550621509552002
10.384365797042847,0.12455176562070847,-1.4333943128585815,1.347943902015686,0.21038375794887543,-0.09594109654426575,0.1966506391763687
10.404451370239258,0.12531471252441406,-1.4318684339523315,1.3483253717422485,0.21152819693088531,-0.11005569249391556,0.1993209719657898
10.424528360366821,0.12912946939468384,-1.429198145866394,1.347943902015686,0.21152819693088531,-0.1180666834115982,0.1997024416923523
10.444602489471436,0.14324407279491425,-1.4265278577804565,1.3471808433532715,0.21152819693088531,-0.12111848592758179,0.20160982012748718
10.464715957641602,0.15659570693969727,-1.425001859664917,1.346036434173584,0.21076524257659912,-0.11959258466959,0.20199130475521088
10.48484182357788,0.17566949129104614,-1.4246203899383545,1.345273494720459,0.21076524257659912,-0.11043716967105865,0.20237277448177338
10.50495433807373,0.20199130475521088,-1.425001859664917,1.342984676361084,0.20962081849575043,-0.09899290651082993,0.20160982012748718
10.52505874633789,0.22793163359165192,-1.425764799118042,1.3403143882751465,0.20923933386802673,-0.086785688996315,0.20122835040092468
10.545132875442505,0.23556114733219147,-1.4272907972335815,1.3403143882751465,0.20923933386802673,-0.0707637146115303,0.200083926320076
10.565219640731812,0.23441672325134277,-1.4288166761398315,1.340695858001709,0.20847637951374054,-0.04558632895350456,0.1977950781583786
10.585274457931519,0.22755016386508942,-1.429961085319519,1.3418402671813965,0.20695048570632935,-0.011635004542768002,0.19321736693382263
10.605362176895142,0.2161058932542801,-1.429961085319519,1.342984676361084,0.1997024416923523,0.016975661739706993,0.18825818598270416
10.625437259674072,0.20160982012748718,-1.429198145866394,1.344510555267334,0.1974135935306549,0.023460745811462402,0.18635080754756927
10.64553189277649,0.17986571788787842,-1.428435206413269,1.346036434173584,0.1974135935306549,0.01125352829694748,0.18635080754756927
10.665631294250488,0.15774014592170715,-1.428435206413269,1.347943902015686,0.1977950781583786,-0.005912871100008488,0.18711376190185547
10.686269521713257,0.1359960287809372,-1.429198145866394,1.347943902015686,0.1981765478849411,-0.02727550081908703,0.18749523162841797
10.706373691558838,0.10891126841306686,-1.4311054944992065,1.349469780921936,0.2004653960466385,-0.051689937710762024,0.18863965570926666
10.726408243179321,0.10471503436565399,-1.4326313734054565,1.350995659828186,0.20695048570632935,-0.08297093212604523,0.19359883666038513
10.746567964553833,0.10738536715507507,-1.4337759017944336,1.350995659828186,0.21152819693088531,-0.11005569249391556,0.1981765478849411
10.766590595245361,0.11387044936418533,-1.4337759017944336,1.350995659828186,0.2157244235277176,-0.135233074426651,0.20122835040092468
10.786682605743408,0.12607766687870026,-1.4326313734054565,1.350232720375061,0.21686884760856628,-0.15659570693969727,0.20313572883605957
10.806758642196655,0.14324407279491425,-1.4318684339523315,1.349469780921936,0.21686884760856628,-0.15735866129398346,0.20275425910949707
10.826955556869507,0.164988175034523,-1.4318684339523315,1.348706841468811,0.21648737788200378,-0.1359960287809372,0.20199130475521088
10.846946954727173,0.19321736693382263,-1.4318684339523315,1.347943902015686,0.21648737788200378,-0.11272602528333664,0.20160982012748718
10.867020606994629,0.22564278542995453,-1.432249903678894,1.3456549644470215,0.21648737788200378,-0.09365224838256836,0.20084688067436218
10.887093305587769,0.25234606862068176,-1.432249903678894,1.3433661460876465,0.2157244235277176,-0.07381551712751389,0.1993209719657898
10.907325267791748,0.2576867341995239,-1.432249903678894,1.3418402671813965,0.21229113638401031,-0.04253452271223068,0.1966506391763687
10.927441835403442,0.2618829607963562,-1.4318684339523315,1.3410773277282715,0.20809490978717804,-0.009727626107633114,0.19092851877212524
10.947508811950684,0.2615014910697937,-1.431486964225769,1.340695858001709,0.20160982012748718,0.016975661739706993,0.18596932291984558
10.96758246421814,0.2569237947463989,-1.429961085319519,1.3418402671813965,0.1981765478849411,0.023460745811462402,0.1840619444847107
10.987659931182861,0.24929426610469818,-1.428435206413269,1.342984676361084,0.1985580176115036,0.009727626107633114,0.1848248988389969
11.007735013961792,0.23975738883018494,-1.4288166761398315,1.342984676361084,0.1989395022392273,-0.011635004542768002,0.18596932291984558
11.027930974960327,0.2286945879459381,-1.429198145866394,1.342984676361084,0.1993209719657898,-0.032616160809993744,0.18673227727413177
11.047950506210327,0.21763180196285248,-1.430724024772644,1.3426032066345215,0.20275425910949707,-0.054741740226745605,0.18863965570926666
11.068136215209961,0.20275425910949707,-1.432249903678894,1.3418402671813965,0.20504310727119446,-0.06961929053068161,0.19092851877212524
11.088158369064331,0.18825818598270416,-1.433012843132019,1.3418402671813965,0.20618753135204315,-0.07877469807863235,0.19207294285297394
11.108270406723022,0.1684214472770691,-1.4326313734054565,1.342221736907959,0.20695048570632935,-0.08220797777175903,0.19207294285297394
11.128398418426514,0.1508735716342926,-1.431486964225769,1.3433661460876465,0.20733195543289185,-0.07839322835206985,0.19245441257953644
11.148544788360596,0.14744029939174652,-1.429198145866394,1.343747615814209,0.20733195543289185,-0.07877469807863235,0.19321736693382263
11.16865587234497,0.1516365259885788,-1.4265278577804565,1.3426032066345215,0.20695048570632935,-0.08220797777175903,0.19512474536895752
11.18872618675232,0.15697719156742096,-1.4230945110321045,1.341458797454834,0.20618753135204315,-0.08945601433515549,0.1977950781583786
11.208889484405518,0.17147326469421387,-1.4215686321258545,1.339932918548584,0.20542457699775696,-0.09670405089855194,0.200083926320076
11.22901201248169,0.18520638346672058,-1.420424222946167,1.338025450706482,0.20428015291690826,-0.09899290651082993,0.20199130475521088
11.249015092849731,0.20160982012748718,-1.420424222946167,1.3368810415267944,0.20275425910949707,-0.09441519528627396,0.20237277448177338
11.269141435623169,0.2157244235277176,-1.421187162399292,1.3353551626205444,0.20122835040092468,-0.0871671661734581,0.20199130475521088
11.289190530776978,0.21877622604370117,-1.4230945110321045,1.3353551626205444,0.2004653960466385,-0.07305257022380829,0.20199130475521088
11.309283971786499,0.21953918039798737,-1.4253833293914795,1.3361181020736694,0.1993209719657898,-0.0551232174038887,0.20160982012748718
11.329385757446289,0.2161058932542801,-1.429198145866394,1.3391698598861694,0.1977950781583786,-0.0394827201962471,0.2004653960466385
11.349606275558472,0.20733195543289185,-1.429961085319519,1.3426032066345215,0.1970321238040924,-0.025749599561095238,0.1977950781583786
11.369747877120972,0.1962691694498062,-1.4311054944992065,1.346799373626709,0.19512474536895752,-0.016975661739706993,0.19550621509552002
11.389800310134888,0.1813916265964508,-1.4311054944992065,1.349469780921936,0.19398032128810883,-0.023079270496964455,0.19512474536895752
11.409895658493042,0.16079194843769073,-1.4318684339523315,1.3536659479141235,0.19436179101467133,-0.03452353551983833,0.19550621509552002
11.43003511428833,0.14591439068317413,-1.4333943128585815,1.358243703842163,0.19512474536895752,-0.054741740226745605,0.1958876997232437
11.45012617111206,0.14286258816719055,-1.4353017807006836,1.359769582748413,0.1977950781583786,-0.07877469807863235,0.1981765478849411
11.470244884490967,0.14667734503746033,-1.437209129333496,1.359006643295288,0.20084688067436218,-0.10852979123592377,0.20275425910949707
11.490349054336548,0.1520180106163025,-1.4398794174194336,1.357480764389038,0.20695048570632935,-0.12798504531383514,0.20466163754463196
11.510536432266235,0.16079194843769073,-1.4425498247146606,1.3544288873672485,0.21076524257659912,-0.14286258816719055,0.20771344006061554
11.531221389770508,0.17261768877506256,-1.4436942338943481,1.3521400690078735,0.21229113638401031,-0.15468832850456238,0.20923933386802673
11.5513916015625,0.19169145822525024,-1.4440757036209106,1.349469780921936,0.2145799994468689,-0.1497291475534439,0.20962081849575043
11.571407794952393,0.21114671230316162,-1.4444571733474731,1.347562313079834,0.2141985148191452,-0.1348516047000885,0.20923933386802673
11.59154748916626,0.23441672325134277,-1.4440757036209106,1.3464179039001465,0.2141985148191452,-0.11310750246047974,0.20923933386802673
11.61158561706543,0.2481498420238495,-1.4436942338943481,1.3464179039001465,0.21229113638401031,-0.09136339277029037,0.20733195543289185
11.63169527053833,0.247768372297287,-1.4433127641677856,1.3471808433532715,0.20923933386802673,-0.06427863240242004,0.20504310727119446
11.65178632736206,0.24357213079929352,-1.4429312944412231,1.348706841468811,0.20695048570632935,-0.03185320645570755,0.1985580176115036
11.671935319900513,0.23746852576732635,-1.4429312944412231,1.349469780921936,0.20084688067436218,-0.002861066721379757,0.19512474536895752
11.692030191421509,0.22487983107566833,-1.4417868852615356,1.3513771295547485,0.1970321238040924,0.005912871100008488,0.19321736693382263
11.712117910385132,0.20885786414146423,-1.440260887145996,1.3529030084609985,0.1974135935306549,-0.002861066721379757,0.19398032128810883
11.732202768325806,0.18711376190185547,-1.440260887145996,1.354047417640686,0.1977950781583786,-0.022697795182466507,0.19474326074123383
11.75230598449707,0.16155488789081573,-1.441023826599121,1.354810357093811,0.1981765478849411,-0.046730753034353256,0.19512474536895752
11.772444009780884,0.13141833245754242,-1.4421683549880981,1.354810357093811,0.1997024416923523,-0.07343403995037079,0.1966506391763687
11.792523384094238,0.11005569249391556,-1.4429312944412231,1.3555734157562256,0.20351719856262207,-0.09555962681770325,0.1997024416923523
11.812640190124512,0.10624094307422638,-1.4433127641677856,1.354810357093811,0.20733195543289185,-0.12073700875043869,0.20313572883605957
11.832823991775513,0.10738536715507507,-1.4417868852615356,1.354047417640686,0.20923933386802673,-0.14133669435977936,0.20466163754463196
11.852819442749023,0.11081864684820175,-1.4398794174194336,1.3536659479141235,0.20962081849575043,-0.15926603972911835,0.20695048570632935
11.872900485992432,0.1199740618467331,-1.4375905990600586,1.353284478187561,0.20962081849575043,-0.16422522068023682,0.20733195543289185
11.892997741699219,0.13179980218410492,-1.4360647201538086,1.3529030084609985,0.20962081849575043,-0.15354390442371368,0.20695048570632935
11.913141012191772,0.1489662081003189,-1.4360647201538086,1.352521538734436,0.20923933386802673,-0.1363775134086609,0.20580606162548065
11.933233976364136,0.1676585078239441,-1.436446189880371,1.351758599281311,0.20923933386802673,-0.11272602528333664,0.20542457699775696
11.953309535980225,0.19092851877212524,-1.4368276596069336,1.3498512506484985,0.20923933386802673,-0.09479667246341705,0.20504310727119446
11.973390102386475,0.21725031733512878,-1.437209129333496,1.3483253717422485,0.20847637951374054,-0.07610437273979187,0.20313572883605957
11.993509769439697,0.2294575423002243,-1.4360647201538086,1.347943902015686,0.20733195543289185,-0.056267641484737396,0.20160982012748718
12.013904094696045,0.22793163359165192,-1.4353017807006836,1.347943902015686,0.20504310727119446,-0.03833829239010811,0.1981765478849411
12.033994436264038,0.21992065012454987,-1.4337759017944336,1.3490883111953735,0.20351719856262207,-0.015449759550392628,0.19398032128810883
12.05407190322876,0.21038375794887543,-1.4326313734054565,1.350232720375061,0.1989395022392273,0.000572213320992887,0.18978407979011536
12.074190616607666,0.18902114033699036,-1.4318684339523315,1.353284478187561,0.1970321238040924,0.0032425422687083483,0.18787670135498047
12.094375848770142,0.1653696447610855,-1.430724024772644,1.3563363552093506,0.1974135935306549,-0.0020981156267225742,0.18749523162841797
12.114382266998291,0.1337071806192398,-1.431486964225769,1.3570992946624756,0.1970321238040924,-0.023079270496964455,0.18749523162841797
12.134457111358643,0.10128175467252731,-1.432249903678894,1.358243703842163,0.1977950781583786,-0.04253452271223068,0.18787670135498047
12.154580354690552,0.08525978773832321,-1.4337759017944336,1.3586251735687256,0.20122835040092468,-0.06389715522527695,0.19016556441783905
12.1746244430542,0.08487831056118011,-1.434920310974121,1.3578622341156006,0.20580606162548065,-0.09784847497940063,0.19398032128810883
12.1947021484375,0.0875486359000206,-1.4353017807006836,1.355954885482788,0.20962081849575043,-0.12722209095954895,0.1962691694498062
12.214820146560669,0.09060044586658478,-1.434920310974121,1.3551918268203735,0.21190966665744781,-0.15583276748657227,0.1993209719657898
12.234926700592041,0.10128175467252731,-1.434157371520996,1.3544288873672485,0.212672621011734,-0.16956588625907898,0.200083926320076
12.254998683929443,0.11615930497646332,-1.4337759017944336,1.354047417640686,0.2134355753660202,-0.16041046380996704,0.200083926320076
12.275115489959717,0.13218127191066742,-1.434157371520996,1.3536659479141235,0.2130540907382965,-0.1371404528617859,0.1981765478849411
12.295183420181274,0.14820325374603271,-1.434157371520996,1.3529030084609985,0.2130540907382965,-0.11692225188016891,0.1977950781583786
12.31528615951538,0.17223620414733887,-1.434157371520996,1.351758599281311,0.2130540907382965,-0.09708552807569504,0.1958876997232437
12.335360288619995,0.20084688067436218,-1.434157371520996,1.3498512506484985,0.21229113638401031,-0.07648584991693497,0.19474326074123383
12.355419158935547,0.22755016386508942,-1.4337759017944336,1.347943902015686,0.21038375794887543,-0.05703059583902359,0.19359883666038513
12.375509262084961,0.22487983107566833,-1.432249903678894,1.347943902015686,0.20885786414146423,-0.03795681521296501,0.18978407979011536
12.395764827728271,0.2149614691734314,-1.431486964225769,1.347943902015686,0.20733195543289185,-0.008201723918318748,0.182917520403862
12.41584587097168,0.20122835040092468,-1.430724024772644,1.349469780921936,0.20504310727119446,-0.0009536888683214784,0.17872129380702972
12.43590521812439,0.1844434291124344,-1.4295796155929565,1.3506141901016235,0.20313572883605957,-0.000572213320992887,0.17643244564533234
12.455997228622437,0.16079194843769073,-1.429198145866394,1.3521400690078735,0.20389868319034576,-0.018120087683200836,0.17643244564533234
12.47606897354126,0.1325627565383911,-1.429961085319519,1.3536659479141235,0.20466163754463196,-0.035667963325977325,0.17719538509845734
12.496195316314697,0.10013733059167862,-1.4311054944992065,1.354810357093811,0.20618753135204315,-0.05855649709701538,0.17719538509845734
12.516346216201782,0.09250781685113907,-1.4326313734054565,1.356717824935913,0.21038375794887543,-0.08869306743144989,0.17986571788787842
12.536383152008057,0.09212634712457657,-1.4345388412475586,1.356717824935913,0.2161058932542801,-0.1180666834115982,0.1848248988389969
12.556440830230713,0.09937438368797302,-1.434157371520996,1.355954885482788,0.21915769577026367,-0.14400701224803925,0.18787670135498047
12.576629638671875,0.10128175467252731,-1.4337759017944336,1.3555734157562256,0.22144655883312225,-0.1680399775505066,0.18978407979011536
12.596749305725098,0.11234454810619354,-1.4326313734054565,1.3551918268203735,0.22144655883312225,-0.17338064312934875,0.18978407979011536
12.61696457862854,0.12684062123298645,-1.4318684339523315,1.354810357093811,0.22220951318740845,-0.15774014592170715,0.18940261006355286
12.636972427368164,0.14476996660232544,-1.432249903678894,1.3544288873672485,0.22144655883312225,-0.13027389347553253,0.18787670135498047
12.657145977020264,0.1653696447610855,-1.432249903678894,1.3536659479141235,0.22144655883312225,-0.10738536715507507,0.18711376190185547
12.677190065383911,0.1832990050315857,-1.432249903678894,1.351758599281311,0.22144655883312225,-0.0864042118191719,0.18673227727413177
12.69736361503601,0.20885786414146423,-1.432249903678894,1.3506141901016235,0.22068360447883606,-0.06466010212898254,0.18558785319328308
12.71747875213623,0.22144655883312225,-1.4318684339523315,1.349469780921936,0.21801327168941498,-0.050164032727479935,0.182154580950737
12.737695455551147,0.22373540699481964,-1.430724024772644,1.348706841468811,0.21648737788200378,-0.027656977996230125,0.17605096101760864
12.75778079032898,0.2161058932542801,-1.429961085319519,1.348706841468811,0.2134355753660202,-0.009346150793135166,0.17299915850162506
12.777865409851074,0.20466163754463196,-1.4295796155929565,1.3490883111953735,0.21152819693088531,-0.005531395319849253,0.16994735598564148
12.797940731048584,0.1848248988389969,-1.429198145866394,1.350232720375061,0.21152819693088531,-0.016212711110711098,0.16956588625907898
12.81803035736084,0.1665140837430954,-1.429198145866394,1.351758599281311,0.21152819693088531,-0.035667963325977325,0.16994735598564148
12.838202714920044,0.14095520973205566,-1.429961085319519,1.352521538734436,0.21229113638401031,-0.054741740226745605,0.17032882571220398
12.858232498168945,0.11158160120248795,-1.432249903678894,1.3544288873672485,0.2145799994468689,-0.07457847148180008,0.17185473442077637
12.878413200378418,0.1024261862039566,-1.433012843132019,1.3570992946624756,0.21915769577026367,-0.09555962681770325,0.17452506721019745
12.898492813110352,0.09784847497940063,-1.433012843132019,1.3570992946624756,0.22220951318740845,-0.12226291000843048,0.17681391537189484
12.91866397857666,0.1028076633810997,-1.432249903678894,1.3570992946624756,0.22487983107566833,-0.13866636157035828,0.17833982408046722
12.938676118850708,0.11348897218704224,-1.4303425550460815,1.3563363552093506,0.22487983107566833,-0.15583276748657227,0.1802472025156021
12.958775520324707,0.13027389347553253,-1.427672266960144,1.353284478187561,0.22449836134910583,-0.16041046380996704,0.17986571788787842
12.978892803192139,0.14324407279491425,-1.426146388053894,1.350232720375061,0.22487983107566833,-0.1493476778268814,0.17986571788787842
12.998967409133911,0.16384375095367432,-1.425001859664917,1.3448920249938965,0.22411687672138214,-0.1325627565383911,0.17605096101760864
13.019051790237427,0.18863965570926666,-1.423475980758667,1.3368810415267944,0.22373540699481964,-0.10738536715507507,0.17528800666332245
13.039184331893921,0.2149614691734314,-1.4223315715789795,1.3258183002471924,0.22335393726825714,-0.0875486359000206,0.17299915850162506
13.059287309646606,0.23594263195991516,-1.4185168743133545,1.3082703351974487,0.22182802855968475,-0.06466010212898254,0.16994735598564148
13.079367876052856,0.25387197732925415,-1.4143205881118774,1.2903410196304321,0.21839475631713867,-0.04711223021149635,0.1653696447610855
13.09944224357605,0.27218279242515564,-1.405165195465088,1.261348843574524,0.2157244235277176,-0.04139009863138199,0.15926603972911835
13.119543313980103,0.291638046503067,-1.3948653936386108,1.2319753170013428,0.21229113638401031,-0.03490501269698143,0.15316243469715118
13.139817953109741,0.3076600432395935,-1.3830395936965942,1.19916832447052,0.21114671230316162,-0.034142062067985535,0.1493476778268814
13.159942150115967,0.3126192092895508,-1.3738842010498047,1.1724650859832764,0.20962081849575043,-0.03643091395497322,0.14858472347259521
13.180152654647827,0.3107118308544159,-1.3693064451217651,1.1514838933944702,0.20962081849575043,-0.04634927958250046,0.14820325374603271
13.200207948684692,0.3076600432395935,-1.3639658689498901,1.1350804567337036,0.20962081849575043,-0.058175019919872284,0.14744029939174652
13.22030258178711,0.30498969554901123,-1.362058401107788,1.125162124633789,0.20962081849575043,-0.06771191209554672,0.14744029939174652
13.240353107452393,0.30041199922561646,-1.359769582748413,1.117914080619812,0.20962081849575043,-0.07572289556264877,0.14553292095661163
13.260480165481567,0.2954528033733368,-1.357480764389038,1.1144808530807495,0.20923933386802673,-0.07763027399778366,0.14476996660232544
13.280542850494385,0.290875107049942,-1.3563363552093506,1.114099383354187,0.20923933386802673,-0.07839322835206985,0.14400701224803925
13.300606966018677,0.28667888045310974,-1.3536659479141235,1.1137179136276245,0.20885786414146423,-0.07877469807863235,0.14209964871406555
13.32068681716919,0.28286412358283997,-1.350995659828186,1.113336443901062,0.20809490978717804,-0.07839322835206985,0.14171816408634186
13.340837955474854,0.2798123061656952,-1.347562313079834,1.11295485496521,0.20771344006061554,-0.07801175117492676,0.13981078565120697
13.360876083374023,0.2794308364391327,-1.343747615814209,1.110666036605835,0.20466163754463196,-0.07610437273979187,0.1363775134086609
13.38117241859436,0.2786678969860077,-1.338788390159607,1.107614278793335,0.20237277448177338,-0.07343403995037079,0.1329442262649536
13.401330709457397,0.2771419882774353,-1.3315403461456299,1.1022735834121704,0.20084688067436218,-0.0715266615152359,0.12836651504039764
13.421355247497559,0.2759975492954254,-1.3254368305206299,1.0976959466934204,0.1977950781583786,-0.07000076025724411,0.12417028844356537
13.44143295288086,0.2748531401157379,-1.3151369094848633,1.0896848440170288,0.19474326074123383,-0.07000076025724411,0.1199740618467331
13.461523532867432,0.2744716703891754,-1.3063629865646362,1.0820554494857788,0.19245441257953644,-0.06923781335353851,0.11501488089561462
13.481796503067017,0.273708701133728,-1.2941558361053467,1.0721369981765747,0.18978407979011536,-0.0707637146115303,0.11081864684820175
13.501948595046997,0.27065691351890564,-1.2834744453430176,1.0614557266235352,0.18596932291984558,-0.0707637146115303,0.10624094307422638
13.521993160247803,0.26874953508377075,-1.2724117040634155,1.050774335861206,0.1840619444847107,-0.0707637146115303,0.10128175467252731
13.542089223861694,0.26722362637519836,-1.259060025215149,1.035896897315979,0.1810101419687271,-0.07343403995037079,0.09632257372140884
13.56225872039795,0.2660791873931885,-1.2479972839355469,1.022926688194275,0.17872129380702972,-0.07419699430465698,0.09288929402828217
13.582334280014038,0.2653162479400635,-1.2373158931732178,1.0088120698928833,0.17719538509845734,-0.07381551712751389,0.0883115902543068
13.602429866790771,0.2637903392314911,-1.2266346216201782,0.9924086332321167,0.17490653693675995,-0.07343403995037079,0.08373387902975082
13.622558116912842,0.2634088695049286,-1.2174792289733887,0.9763866662979126,0.17261768877506256,-0.07305257022380829,0.07877469807863235
13.642579555511475,0.2622644305229187,-1.2067978382110596,0.9584572911262512,0.17032882571220398,-0.07381551712751389,0.07305257022380829
13.662649393081665,0.2615014910697937,-1.1999313831329346,0.9439612627029419,0.1672770231962204,-0.0715266615152359,0.06847485899925232
13.682794094085693,0.2615014910697937,-1.1926833391189575,0.9275577664375305,0.16422522068023682,-0.071908138692379,0.06237125024199486
13.702892303466797,0.2615014910697937,-1.185816764831543,0.9119172692298889,0.16155488789081573,-0.071908138692379,0.056267641484737396
13.72297978401184,0.2615014910697937,-1.1820019483566284,0.9016174674034119,0.15888457000255585,-0.0711451917886734,0.050164032727479935
13.74307131767273,0.2611200213432312,-1.177805781364441,0.8901731967926025,0.15621423721313477,-0.0715266615152359,0.04406042397022247
13.763148784637451,0.2611200213432312,-1.1755168437957764,0.8821622133255005,0.15354390442371368,-0.0707637146115303,0.03795681521296501
13.783230066299438,0.2611200213432312,-1.1743724346160889,0.8779659867286682,0.1516365259885788,-0.07038223743438721,0.03299763426184654
13.803332805633545,0.2611200213432312,-1.1724650859832764,0.8749141693115234,0.1489662081003189,-0.0707637146115303,0.028038453310728073
13.823376893997192,0.2611200213432312,-1.1717021465301514,0.8749141693115234,0.14744029939174652,-0.07038223743438721,0.023079270496964455
13.843446731567383,0.2611200213432312,-1.1697947978973389,0.8749141693115234,0.14438849687576294,-0.0711451917886734,0.01773861236870289
13.863579034805298,0.2611200213432312,-1.1675058603286743,0.8752956390380859,0.14095520973205566,-0.0707637146115303,0.013160906732082367
13.883922338485718,0.2611200213432312,-1.1648355722427368,0.8749141693115234,0.13752193748950958,-0.07038223743438721,0.008201723918318748
13.904015302658081,0.2615014910697937,-1.1614023447036743,0.8741512298583984,0.1333257108926773,-0.07038223743438721,0.001716639962978661
13.924072742462158,0.2615014910697937,-1.1594948768615723,0.8730067610740662,0.12989242374897003,-0.07000076025724411,-0.004005493130534887
13.944171905517578,0.2615014910697937,-1.1572060585021973,0.8718623518943787,0.12607766687870026,-0.07000076025724411,-0.009346150793135166
13.964251279830933,0.2615014910697937,-1.1549172401428223,0.8691920638084412,0.12340734153985977,-0.06961929053068161,-0.013923857361078262
13.984303712844849,0.2615014910697937,-1.1526284217834473,0.8665217161178589,0.1192111074924469,-0.06885633617639542,-0.018501564860343933
14.004397869110107,0.2615014910697937,-1.1495765447616577,0.8619440197944641,0.11501488089561462,-0.06847485899925232,-0.024986648932099342
14.024475812911987,0.2615014910697937,-1.1469062566757202,0.8569847941398621,0.11158160120248795,-0.06847485899925232,-0.03147173300385475
14.044549465179443,0.2618829607963562,-1.1442358493804932,0.8508812189102173,0.10852979123592377,-0.06885633617639542,-0.03681239113211632
14.064639568328857,0.2626459002494812,-1.1415655612945557,0.8440146446228027,0.10585946589708328,-0.06885633617639542,-0.042153049260377884
14.08469271659851,0.2634088695049286,-1.1408026218414307,0.8390554785728455,0.1035706102848053,-0.06885633617639542,-0.04787518084049225
14.104799509048462,0.2653162479400635,-1.1381323337554932,0.8321889042854309,0.10013733059167862,-0.06923781335353851,-0.053215838968753815
14.124857664108276,0.26874953508377075,-1.1369879245758057,0.8268482685089111,0.09670405089855194,-0.06923781335353851,-0.05970092490315437
14.144882440567017,0.2725642919540405,-1.1346989870071411,0.8218890428543091,0.09250781685113907,-0.06961929053068161,-0.06580453366041183
14.164974689483643,0.2767605185508728,-1.1320286989212036,0.8165484070777893,0.08869306743144989,-0.06809338182210922,-0.0722896158695221
14.185033559799194,0.2790493667125702,-1.1301213502883911,0.813878059387207,0.08487831056118011,-0.06809338182210922,-0.07915617525577545
14.205196857452393,0.28324559330940247,-1.1270694732666016,0.8112077713012695,0.08106355369091034,-0.07038223743438721,-0.08564125746488571
14.22523021697998,0.28820478916168213,-1.124399185180664,0.8093003630638123,0.07686731964349747,-0.06771191209554672,-0.09174486994743347
14.245307683944702,0.2927824854850769,-1.120965838432312,0.8081559538841248,0.07305257022380829,-0.06656748056411743,-0.09899290651082993
14.265401601791382,0.2950713336467743,-1.117151141166687,0.80663001537323,0.06847485899925232,-0.06694895774126053,-0.10662241280078888
14.285841941833496,0.2962157726287842,-1.114099383354187,0.8047226667404175,0.06313420087099075,-0.06618601083755493,-0.11463340371847153
14.305935144424438,0.2977416515350342,-1.109140157699585,0.8016708493232727,0.058175019919872284,-0.06351567804813385,-0.12264438718557358
14.326006889343262,0.2977416515350342,-1.1053253412246704,0.7990005612373352,0.04940108209848404,-0.06275273114442825,-0.13179980218410492
14.346080541610718,0.2973601818084717,-1.099603295326233,0.7944228053092957,0.04177157208323479,-0.06237125024199486,-0.14248111844062805
14.366203784942627,0.2965972423553467,-1.0934996604919434,0.7887006998062134,0.03299763426184654,-0.06237125024199486,-0.15392538905143738
14.386445999145508,0.2935454249382019,-1.0881589651107788,0.7845044732093811,0.02727550081908703,-0.06389715522527695,-0.16346226632595062
14.40654468536377,0.28896772861480713,-1.0816738605499268,0.7776378989219666,0.020027466118335724,-0.06580453366041183,-0.17376211285591125
14.426605463027954,0.28477150201797485,-1.0778591632843018,0.7730602025985718,0.012397955171763897,-0.06733043491840363,-0.1836804747581482
14.446964502334595,0.2813382148742676,-1.0740443468093872,0.7665750980377197,0.00476844422519207,-0.06885633617639542,-0.19436179101467133
14.467050790786743,0.2775234580039978,-1.0698481798171997,0.7593270540237427,-0.001716639962978661,-0.0711451917886734,-0.20389868319034576
14.487110376358032,0.2752346098423004,-1.0679408311843872,0.7543678879737854,-0.00858320016413927,-0.07877469807863235,-0.2138170450925827
14.507242918014526,0.2752346098423004,-1.0660333633422852,0.7494087219238281,-0.014686808921396732,-0.0871671661734581,-0.22373540699481964
