liuyurong129/humanoid-gym/humanoid/data/actual_q_20250522-041809.csv
timestamp,joint_1,joint_2,joint_3,joint_4,joint_5,joint_6
0.00016307830810546875,0.00019073777366429567,0.1646067053079605,-0.08258945494890213,0.00019073777366429567,-0.00019073777366429567,-0.000572213320992887
0.020298242568969727,0.000572213320992887,0.14248111844062805,-0.07381551712751389,0.00019073777366429567,0.00019073777366429567,-0.000572213320992887
0.04035139083862305,-0.00019073777366429567,0.1192111074924469,-0.06351567804813385,0.00019073777366429567,0.0013351644156500697,-0.000572213320992887
0.0604250431060791,0.00019073777366429567,0.10585946589708328,-0.057793546468019485,0.00019073777366429567,0.0009536888683214784,-0.000572213320992887
0.08051395416259766,-0.00019073777366429567,0.09594109654426575,-0.05092698708176613,0.00019073777366429567,0.00019073777366429567,-0.000572213320992887
0.10056829452514648,0.00019073777366429567,0.086785688996315,-0.045204851776361465,0.00019073777366429567,0.00019073777366429567,-0.000572213320992887
0.12069272994995117,0.0009536888683214784,0.07572289556264877,-0.03490501269698143,0.00019073777366429567,-0.00019073777366429567,-0.000572213320992887
0.14078569412231445,0.0024795911740511656,0.06275273114442825,-0.025749599561095238,-0.00019073777366429567,0.00019073777366429567,-0.00019073777366429567
0.1608593463897705,0.004005493130534887,0.05245288833975792,-0.016975661739706993,-0.00019073777366429567,-0.00019073777366429567,0.00019073777366429567
0.18099331855773926,0.005149920005351305,0.04558632895350456,-0.012397955171763897,-0.00019073777366429567,-0.00019073777366429567,0.00019073777366429567
0.20115280151367188,0.005531395319849253,0.03490501269698143,-0.004005493130534887,-0.00019073777366429567,-0.00019073777366429567,0.00019073777366429567
0.22115850448608398,0.006294346414506435,0.023460745811462402,0.0020981156267225742,-0.00019073777366429567,0.00019073777366429567,0.00019073777366429567
0.24130678176879883,0.007057297509163618,0.01125352829694748,0.009727626107633114,-0.00019073777366429567,0.00019073777366429567,0.000572213320992887
0.2613980770111084,0.008201723918318748,0.0013351644156500697,0.016594186425209045,-0.000572213320992887,0.00019073777366429567,0.0009536888683214784
0.28146839141845703,0.009346150793135166,-0.0078202486038208,0.023079270496964455,-0.0009536888683214784,-0.00019073777366429567,0.0013351644156500697
0.3015472888946533,0.010109102353453636,-0.019645990803837776,0.030708782374858856,-0.0009536888683214784,-0.000572213320992887,0.0013351644156500697
0.3216423988342285,0.010872052982449532,-0.03337911143898964,0.03681239113211632,-0.0009536888683214784,0.000572213320992887,0.001716639962978661
0.3417239189147949,0.01201647985726595,-0.04787518084049225,0.04291599988937378,-0.0013351644156500697,-0.00019073777366429567,0.0020981156267225742
0.36186790466308594,0.01430533267557621,-0.05893797054886818,0.05054550990462303,-0.001716639962978661,-0.00019073777366429567,0.002861066721379757
0.3819594383239746,0.015449759550392628,-0.06809338182210922,0.058175019919872284,-0.0024795911740511656,-0.00019073777366429567,0.0036240178160369396
0.4020390510559082,0.015449759550392628,-0.08144503086805344,0.06847485899925232,-0.002861066721379757,-0.00019073777366429567,0.004386968910694122
0.422161340713501,0.015449759550392628,-0.09899290651082993,0.07610437273979187,-0.004005493130534887,0.00019073777366429567,0.004386968910694122
0.442767858505249,0.01735713705420494,-0.11692225188016891,0.0864042118191719,-0.004386968910694122,0.00019073777366429567,0.00476844422519207
0.46286797523498535,0.019645990803837776,-0.13103684782981873,0.09822995215654373,-0.005149920005351305,0.00019073777366429567,0.005149920005351305
0.4829576015472412,0.02193484455347061,-0.14057374000549316,0.10662241280078888,-0.005531395319849253,-0.00019073777366429567,0.005912871100008488
0.5030131340026855,0.021553369238972664,-0.1512550562620163,0.11730372905731201,-0.00667582219466567,-0.00019073777366429567,0.006294346414506435
0.5231025218963623,0.021553369238972664,-0.1646067053079605,0.12645913660526276,-0.007438773289322853,0.00019073777366429567,0.007057297509163618
0.5431642532348633,0.02193484455347061,-0.1810101419687271,0.1340886503458023,-0.0078202486038208,0.00019073777366429567,0.008201723918318748
0.5632443428039551,0.023079270496964455,-0.19474326074123383,0.14515145123004913,-0.008201723918318748,0.000572213320992887,0.00858320016413927
0.5834007263183594,0.024986648932099342,-0.20389868319034576,0.15316243469715118,-0.00858320016413927,0.00019073777366429567,0.009346150793135166
0.6034798622131348,0.026512550190091133,-0.22335393726825714,0.16384375095367432,-0.008964675478637218,-0.00019073777366429567,0.010109102353453636
0.6236271858215332,0.02880140393972397,-0.24013885855674744,0.17338064312934875,-0.010490577667951584,-0.000572213320992887,0.01201647985726595
0.6436996459960938,0.03032730519771576,-0.25387197732925415,0.1840619444847107,-0.01125352829694748,-0.00019073777366429567,0.012397955171763897
0.6637816429138184,0.03223468363285065,-0.2653162479400635,0.19054703414440155,-0.01201647985726595,0.00019073777366429567,0.012397955171763897
0.6838393211364746,0.03223468363285065,-0.28591591119766235,0.20428015291690826,-0.012779430486261845,0.000572213320992887,0.012779430486261845
0.7039201259613037,0.03299763426184654,-0.3057526648044586,0.2145799994468689,-0.013542382046580315,0.0032425422687083483,0.012779430486261845
0.724003791809082,0.03528648987412453,-0.325970858335495,0.22640573978424072,-0.015449759550392628,0.002861066721379757,0.013160906732082367
0.7440848350524902,0.037193864583969116,-0.3381780683994293,0.23708705604076385,-0.01583123579621315,0.0013351644156500697,0.013542382046580315
0.7642030715942383,0.03795681521296501,-0.35114824771881104,0.2473868876695633,-0.016212711110711098,0.0013351644156500697,0.01430533267557621
0.7842698097229004,0.038719769567251205,-0.3702220320701599,0.2611200213432312,-0.016594186425209045,0.0020981156267225742,0.01506828423589468
0.8043694496154785,0.039101243019104004,-0.3923476040363312,0.27141985297203064,-0.01773861236870289,0.001716639962978661,0.01583123579621315
0.8244452476501465,0.04139009863138199,-0.41409170627593994,0.28706035017967224,-0.01888304017484188,0.0013351644156500697,0.016594186425209045
0.8445494174957275,0.04406042397022247,-0.42896926403045654,0.30117493867874146,-0.019645990803837776,0.0013351644156500697,0.01735713705420494
0.8651692867279053,0.04634927958250046,-0.44346532225608826,0.31528952717781067,-0.02040894143283367,0.001716639962978661,0.018120087683200836
0.8852546215057373,0.04787518084049225,-0.4655908942222595,0.33169299364089966,-0.02079041674733162,0.0013351644156500697,0.019645990803837776
0.9053270816802979,0.04901960864663124,-0.4892423748970032,0.3442816734313965,-0.022697795182466507,0.0020981156267225742,0.020027466118335724
0.925403356552124,0.05092698708176613,-0.5098420977592468,0.3614480793476105,-0.023460745811462402,0.0024795911740511656,0.02040894143283367
0.9455280303955078,0.05359731614589691,-0.5247195959091187,0.3763256371021271,-0.024223696440458298,0.0024795911740511656,0.02079041674733162
0.9658524990081787,0.05664911866188049,-0.5422675013542175,0.3934920132160187,-0.02536812424659729,0.002861066721379757,0.02193484455347061
0.9859895706176758,0.05893797054886818,-0.5655375123023987,0.41103988885879517,-0.026131074875593185,0.0024795911740511656,0.023079270496964455
1.0060358047485352,0.05970092490315437,-0.5834668278694153,0.42591744661331177,-0.02689402550458908,0.0032425422687083483,0.02384222112596035
1.026111125946045,0.06198977679014206,-0.6006332635879517,0.44384679198265076,-0.02689402550458908,0.002861066721379757,0.024605173617601395
1.04618501663208,0.06542305648326874,-0.6109330654144287,0.45948728919029236,-0.027656977996230125,0.002861066721379757,0.026131074875593185
1.0662720203399658,0.06847485899925232,-0.6250476837158203,0.47932401299476624,-0.02880140393972397,0.0032425422687083483,0.027656977996230125
1.0864033699035645,0.0707637146115303,-0.6418325901031494,0.4968718886375427,-0.02994582988321781,0.002861066721379757,0.02880140393972397
1.106477975845337,0.07343403995037079,-0.6620507836341858,0.5182345509529114,-0.030708782374858856,0.002861066721379757,0.030708782374858856
1.1265645027160645,0.07763027399778366,-0.6784542798995972,0.54112309217453,-0.031090257689356804,0.002861066721379757,0.031090257689356804
1.1468403339385986,0.08182650804519653,-0.6948577165603638,0.5632486343383789,-0.03223468363285065,0.0032425422687083483,0.032616160809993744
1.1669275760650635,0.08602273464202881,-0.7181277275085449,0.5888075232505798,-0.034142062067985535,0.0032425422687083483,0.03452353551983833
1.1869893074035645,0.08983749151229858,-0.7398717999458313,0.6132219433784485,-0.03490501269698143,0.0032425422687083483,0.035667963325977325
1.20711088180542,0.09441519528627396,-0.7608529925346375,0.6418325901031494,-0.03681239113211632,0.0032425422687083483,0.03833829239010811
1.2271687984466553,0.09975585341453552,-0.778782308101654,0.6689173579216003,-0.03833829239010811,0.0036240178160369396,0.039101243019104004
1.24753999710083,0.10776684433221817,-0.8009079098701477,0.7055390477180481,-0.0394827201962471,0.00476844422519207,0.040627144277095795
1.267761468887329,0.11463340371847153,-0.8283741474151611,0.7410162687301636,-0.042153049260377884,0.006294346414506435,0.04329747334122658
1.2881274223327637,0.12302586436271667,-0.8596551418304443,0.7852674126625061,-0.04558632895350456,0.0032425422687083483,0.04711223021149635
1.3082849979400635,0.135233074426651,-0.8951323628425598,0.8337147831916809,-0.048256658017635345,0.006294346414506435,0.05054550990462303
1.3289093971252441,0.14667734503746033,-0.9317540526390076,0.8829251527786255,-0.05283436179161072,0.008964675478637218,0.05664911866188049
1.349055290222168,0.16002899408340454,-0.9699015617370605,0.9290837049484253,-0.05703059583902359,0.010872052982449532,0.06275273114442825
1.3691761493682861,0.17109178006649017,-1.0019454956054688,0.967994213104248,-0.06389715522527695,0.01773861236870289,0.07305257022380829
1.3892669677734375,0.1806286722421646,-1.028648853302002,0.9969863295555115,-0.071908138692379,0.023460745811462402,0.08411535620689392
1.4093241691589355,0.18558785319328308,-1.043907880783081,1.0130083560943604,-0.08068207651376724,0.03833829239010811,0.09670405089855194
1.4294724464416504,0.18749523162841797,-1.052681803703308,1.0183489322662354,-0.08945601433515549,0.049782559275627136,0.11120012402534485
1.4494898319244385,0.18787670135498047,-1.0545891523361206,1.0183489322662354,-0.09899290651082993,0.0551232174038887,0.12531471252441406
1.4697134494781494,0.18673227727413177,-1.0568779706954956,1.0175859928131104,-0.10852979123592377,0.06008239835500717,0.13866636157035828
1.4897403717041016,0.1844434291124344,-1.0614557266235352,1.0183489322662354,-0.11425192654132843,0.06008239835500717,0.1512550562620163
1.5101470947265625,0.1817730963230133,-1.0656518936157227,1.019874930381775,-0.11730372905731201,0.059319447726011276,0.16384375095367432
1.5303611755371094,0.17795833945274353,-1.0706111192703247,1.0206378698349,-0.12188144028186798,0.0555046908557415,0.17566949129104614
1.5504212379455566,0.17338064312934875,-1.0759518146514893,1.0210193395614624,-0.12569619715213776,0.05359731614589691,0.1848248988389969
1.5705041885375977,0.17185473442077637,-1.0797665119171143,1.02216374874115,-0.12874799966812134,0.05130846053361893,0.19321736693382263
1.5906047821044922,0.1676585078239441,-1.0839627981185913,1.0236896276474,-0.13218127191066742,0.05092698708176613,0.20122835040092468
1.6109731197357178,0.1657511293888092,-1.0866330862045288,1.0255969762802124,-0.1340886503458023,0.051689937710762024,0.20733195543289185
1.6310951709747314,0.16384375095367432,-1.0904479026794434,1.0290303230285645,-0.1359960287809372,0.051689937710762024,0.2141985148191452
1.6511428356170654,0.16117341816425323,-1.0927367210388184,1.032463550567627,-0.13752193748950958,0.05245288833975792,0.21992065012454987
1.6712393760681152,0.15850308537483215,-1.0965514183044434,1.035896897315979,-0.14019227027893066,0.05397878959774971,0.22487983107566833
1.6913230419158936,0.15506981313228607,-1.101129174232483,1.037422776222229,-0.14248111844062805,0.053215838968753815,0.2302204966545105
1.7114052772521973,0.1516365259885788,-1.1053253412246704,1.039711594581604,-0.14362554252147675,0.05245288833975792,0.23403525352478027
1.7315473556518555,0.1489662081003189,-1.1087586879730225,1.0408560037612915,-0.14515145123004913,0.05054550990462303,0.23861294984817505
1.7515807151794434,0.14476996660232544,-1.11295485496521,1.0435264110565186,-0.14667734503746033,0.04749370738863945,0.24204623699188232
1.7717411518096924,0.14095520973205566,-1.1152437925338745,1.046196699142456,-0.14705882966518402,0.045204851776361465,0.2466239482164383
1.7918477058410645,0.13752193748950958,-1.117914080619812,1.050011396408081,-0.14705882966518402,0.04406042397022247,0.2504386901855469
1.8118979930877686,0.1359960287809372,-1.120965838432312,1.053444743156433,-0.14705882966518402,0.040245670825242996,0.25387197732925415
1.8319859504699707,0.1333257108926773,-1.1232547760009766,1.0561150312423706,-0.14705882966518402,0.03643091395497322,0.25654229521751404
1.8520872592926025,0.13103684782981873,-1.1270694732666016,1.0584038496017456,-0.14744029939174652,0.03681239113211632,0.2588311731815338
1.872157335281372,0.12989242374897003,-1.1301213502883911,1.0606927871704102,-0.14744029939174652,0.03643091395497322,0.2607385218143463
1.8922369480133057,0.12760357558727264,-1.1335545778274536,1.0626001358032227,-0.14744029939174652,0.03643091395497322,0.2637903392314911
1.91233229637146,0.12455176562070847,-1.1373693943023682,1.0652704238891602,-0.14782176911830902,0.03643091395497322,0.266460657119751
1.9325108528137207,0.12302586436271667,-1.1396582126617432,1.0690852403640747,-0.14820325374603271,0.035667963325977325,0.26798656582832336
1.952603816986084,0.1203555315732956,-1.1423285007476807,1.0721369981765747,-0.14820325374603271,0.03299763426184654,0.27141985297203064
1.9726996421813965,0.1184481605887413,-1.1446174383163452,1.0759518146514893,-0.14820325374603271,0.030708782374858856,0.2748531401157379
1.992809772491455,0.11654078215360641,-1.1461433172225952,1.0782406330108643,-0.14820325374603271,0.028038453310728073,0.2763790488243103
2.012913465499878,0.11577782779932022,-1.1491950750350952,1.0809109210968018,-0.14820325374603271,0.025749599561095238,0.2786678969860077
2.032928466796875,0.11348897218704224,-1.1530098915100098,1.0835813283920288,-0.14820325374603271,0.02536812424659729,0.2813382148742676
2.0530807971954346,0.11158160120248795,-1.1564431190490723,1.0854886770248413,-0.14782176911830902,0.02536812424659729,0.2821011543273926
2.073124647140503,0.11043716967105865,-1.1594948768615723,1.0881589651107788,-0.14820325374603271,0.02536812424659729,0.28286412358283997
2.093268632888794,0.10929274559020996,-1.1621652841567993,1.0908293724060059,-0.14782176911830902,0.02536812424659729,0.28477150201797485
2.1133666038513184,0.10852979123592377,-1.1640726327896118,1.0931181907653809,-0.14782176911830902,0.024605173617601395,0.28629741072654724
2.133430242538452,0.10738536715507507,-1.1652170419692993,1.0957884788513184,-0.14744029939174652,0.022697795182466507,0.28858625888824463
2.1535301208496094,0.10585946589708328,-1.1675058603286743,1.0999847650527954,-0.14705882966518402,0.021171892061829567,0.290112167596817
2.1736509799957275,0.10509651154279709,-1.1697947978973389,1.1030365228652954,-0.14667734503746033,0.02040894143283367,0.2924010157585144
2.193702220916748,0.1031891331076622,-1.1724650859832764,1.1057069301605225,-0.14667734503746033,0.01888304017484188,0.2939268946647644
2.2138071060180664,0.10166323184967041,-1.1755168437957764,1.10837721824646,-0.14629587531089783,0.018120087683200836,0.2965972423553467
2.2338829040527344,0.10090028494596481,-1.1789501905441284,1.110666036605835,-0.14591439068317413,0.01583123579621315,0.29850462079048157
2.254060745239258,0.10013733059167862,-1.1812390089035034,1.112191915512085,-0.14553292095661163,0.01430533267557621,0.30041199922561646
2.2740895748138428,0.09975585341453552,-1.1827648878097534,1.1144808530807495,-0.14476996660232544,0.013160906732082367,0.30117493867874146
2.294171094894409,0.09937438368797302,-1.1846723556518555,1.117914080619812,-0.14286258816719055,0.012779430486261845,0.30231937766075134
2.314277410507202,0.09899290651082993,-1.1861982345581055,1.1205843687057495,-0.14209964871406555,0.013160906732082367,0.30384528636932373
2.334357976913452,0.09861142933368683,-1.1877241134643555,1.1232547760009766,-0.14171816408634186,0.012779430486261845,0.30460822582244873
2.354557752609253,0.09822995215654373,-1.188868522644043,1.1247806549072266,-0.14171816408634186,0.013923857361078262,0.3057526648044586
2.374656915664673,0.09708552807569504,-1.190394401550293,1.126688003540039,-0.14095520973205566,0.01430533267557621,0.3068970739841461
2.3947417736053467,0.09594109654426575,-1.19306480884552,1.1285953521728516,-0.13981078565120697,0.013923857361078262,0.3076600432395935
2.414907217025757,0.09479667246341705,-1.195353627204895,1.1308842897415161,-0.13904783129692078,0.013160906732082367,0.3084229826927185
2.434937000274658,0.09403372555971146,-1.196879506111145,1.1331731081008911,-0.13866636157035828,0.010872052982449532,0.309567391872406
2.455077648162842,0.09403372555971146,-1.1980239152908325,1.1343175172805786,-0.13828489184379578,0.008964675478637218,0.3114747703075409
2.475140333175659,0.09403372555971146,-1.1987868547439575,1.1366063356399536,-0.13752193748950958,0.007057297509163618,0.3122377395629883
2.4954192638397217,0.09327077120542526,-1.1999313831329346,1.1392767429351807,-0.1371404528617859,0.0078202486038208,0.3133821487426758
2.515512466430664,0.09288929402828217,-1.201075792312622,1.1423285007476807,-0.1367589831352234,0.010109102353453636,0.31490805745124817
2.5356433391571045,0.09288929402828217,-1.2022202014923096,1.1453803777694702,-0.135233074426651,0.010490577667951584,0.31567102670669556
2.555675745010376,0.09212634712457657,-1.204127550125122,1.1488136053085327,-0.1348516047000885,0.01125352829694748,0.31681543588638306
2.5758512020111084,0.09174486994743347,-1.204890489578247,1.1495765447616577,-0.134470134973526,0.01201647985726595,0.31834134459495544
2.5960593223571777,0.09021896868944168,-1.2060348987579346,1.1507209539413452,-0.1340886503458023,0.01125352829694748,0.31872281432151794
2.616147518157959,0.08869306743144989,-1.2079423666000366,1.1522468328475952,-0.1337071806192398,0.010872052982449532,0.31910428404808044
2.636212110519409,0.08869306743144989,-1.2090867757797241,1.1533913612365723,-0.1329442262649536,0.008964675478637218,0.32024872303009033
2.656303644180298,0.0871671661734581,-1.2098497152328491,1.1537728309631348,-0.13218127191066742,0.007057297509163618,0.3225375711917877
2.6763904094696045,0.086785688996315,-1.2106126546859741,1.1537728309631348,-0.13179980218410492,0.007438773289322853,0.3240634799003601
2.6964128017425537,0.086785688996315,-1.2117570638656616,1.1560616493225098,-0.13141833245754242,0.0078202486038208,0.3263523280620575
2.716519832611084,0.086785688996315,-1.2125200033187866,1.1575875282287598,-0.13103684782981873,0.00858320016413927,0.3263523280620575
2.736542224884033,0.0871671661734581,-1.2136644124984741,1.1594948768615723,-0.13103684782981873,0.010490577667951584,0.3263523280620575
2.756635904312134,0.0871671661734581,-1.2148088216781616,1.1617838144302368,-0.13103684782981873,0.011635004542768002,0.3263523280620575
2.776705026626587,0.0871671661734581,-1.2163348197937012,1.1644541025161743,-0.13065537810325623,0.013160906732082367,0.3263523280620575
2.7970073223114014,0.0871671661734581,-1.2170977592468262,1.1655985116958618,-0.12989242374897003,0.013160906732082367,0.32673379778862
2.817169189453125,0.0871671661734581,-1.2178606986999512,1.1671243906021118,-0.12912946939468384,0.012779430486261845,0.3274967670440674
2.837207078933716,0.0871671661734581,-1.2193865776062012,1.1686503887176514,-0.12760357558727264,0.01201647985726595,0.3282597064971924
2.857356548309326,0.086785688996315,-1.2209124565124512,1.1709392070770264,-0.12722209095954895,0.010872052982449532,0.32978561520576477
2.8774843215942383,0.086785688996315,-1.2220568656921387,1.1720836162567139,-0.12645913660526276,0.010872052982449532,0.33054855465888977
2.898149251937866,0.086785688996315,-1.2239643335342407,1.1728465557098389,-0.12607766687870026,0.010872052982449532,0.33093002438545227
2.918307065963745,0.0864042118191719,-1.2251087427139282,1.1736094951629639,-0.12531471252441406,0.010872052982449532,0.33131152391433716
2.938401699066162,0.08602273464202881,-1.2262531518936157,1.1751353740692139,-0.12455176562070847,0.01125352829694748,0.33207446336746216
2.9584312438964844,0.08487831056118011,-1.2270160913467407,1.1766613721847534,-0.12378881871700287,0.011635004542768002,0.33360037207603455
2.978527069091797,0.08411535620689392,-1.2285419702529907,1.1789501905441284,-0.12378881871700287,0.011635004542768002,0.33398184180259705
2.998603582382202,0.08297093212604523,-1.2300678491592407,1.1820019483566284,-0.12340734153985977,0.01125352829694748,0.33436331152915955
3.018688678741455,0.08182650804519653,-1.2315938472747803,1.185816764831543,-0.12340734153985977,0.010490577667951584,0.33512628078460693
3.039299726486206,0.08144503086805344,-1.2323567867279053,1.187342643737793,-0.12302586436271667,0.009346150793135166,0.33588922023773193
3.059462547302246,0.08106355369091034,-1.2327382564544678,1.188105583190918,-0.12264438718557358,0.007438773289322853,0.3374151289463043
3.0794930458068848,0.08030059933662415,-1.2335011959075928,1.1884870529174805,-0.12226291000843048,0.00667582219466567,0.3377965986728668
3.099571704864502,0.07991912961006165,-1.2338826656341553,1.188868522644043,-0.12188144028186798,0.007438773289322853,0.3381780683994293
3.1197595596313477,0.07991912961006165,-1.2350270748138428,1.1900129318237305,-0.12111848592758179,0.007438773289322853,0.3389410376548767
3.1397972106933594,0.07991912961006165,-1.2357900142669678,1.191157341003418,-0.1199740618467331,0.007438773289322853,0.3412298858165741
3.159910202026367,0.07991912961006165,-1.2365529537200928,1.192301869392395,-0.11959258466959,0.0078202486038208,0.3423742949962616
3.17995285987854,0.07991912961006165,-1.2369344234466553,1.193827748298645,-0.1192111074924469,0.0078202486038208,0.3435187339782715
3.200042963027954,0.07991912961006165,-1.2376973628997803,1.19611656665802,-0.1192111074924469,0.0078202486038208,0.34504464268684387
3.2201507091522217,0.07991912961006165,-1.2384604215621948,1.19764244556427,-0.1188296303153038,0.0078202486038208,0.34504464268684387
3.2405524253845215,0.07991912961006165,-1.2388418912887573,1.198405385017395,-0.11768520623445511,0.007438773289322853,0.34542611241340637
3.260751962661743,0.07991912961006165,-1.2392233610153198,1.1987868547439575,-0.11654078215360641,0.0078202486038208,0.34580758213996887
3.2808456420898438,0.07991912961006165,-1.2399863004684448,1.199549913406372,-0.11539635062217712,0.008201723918318748,0.34657052159309387
3.300949811935425,0.07991912961006165,-1.2407492399215698,1.2006943225860596,-0.11539635062217712,0.008201723918318748,0.34733349084854126
3.3210859298706055,0.07991912961006165,-1.2411307096481323,1.2014572620391846,-0.11501488089561462,0.00858320016413927,0.34847790002822876
3.341169834136963,0.07991912961006165,-1.2415121793746948,1.202601671218872,-0.11425192654132843,0.00858320016413927,0.34885939955711365
3.3612565994262695,0.07991912961006165,-1.2422751188278198,1.2037460803985596,-0.11387044936418533,0.00858320016413927,0.34885939955711365
3.381354808807373,0.07991912961006165,-1.2430380582809448,1.204890489578247,-0.11272602528333664,0.00858320016413927,0.34924086928367615
3.401880979537964,0.07991912961006165,-1.2434195280075073,1.205653429031372,-0.11272602528333664,0.008964675478637218,0.35000380873680115
3.4219863414764404,0.07991912961006165,-1.2441824674606323,1.2067978382110596,-0.11234454810619354,0.009346150793135166,0.35152971744537354
3.4420759677886963,0.07991912961006165,-1.2453268766403198,1.2079423666000366,-0.11196307092905045,0.010109102353453636,0.35229265689849854
3.4621694087982178,0.07991912961006165,-1.2460898160934448,1.2090867757797241,-0.11196307092905045,0.010490577667951584,0.35229265689849854
3.4823341369628906,0.07953765243291855,-1.2460898160934448,1.2098497152328491,-0.11120012402534485,0.010872052982449532,0.3526741564273834
3.5024306774139404,0.07953765243291855,-1.2460898160934448,1.2106126546859741,-0.11043716967105865,0.010872052982449532,0.3526741564273834
3.522512435913086,0.07915617525577545,-1.2464714050292969,1.2117570638656616,-0.10929274559020996,0.01125352829694748,0.3526741564273834
3.5427322387695312,0.07877469807863235,-1.2472343444824219,1.2125200033187866,-0.10852979123592377,0.011635004542768002,0.3530556261539459
3.562732696533203,0.07763027399778366,-1.2476158142089844,1.2136644124984741,-0.10852979123592377,0.01125352829694748,0.3534370958805084
3.582832098007202,0.07724879682064056,-1.2483787536621094,1.2140458822250366,-0.10814831405878067,0.012779430486261845,0.3542000353336334
3.6028850078582764,0.07686731964349747,-1.2495231628417969,1.2151904106140137,-0.10814831405878067,0.01201647985726595,0.3553444743156433
3.622990846633911,0.07610437273979187,-1.2502861022949219,1.2155718803405762,-0.10776684433221817,0.01125352829694748,0.3561074137687683
3.643131971359253,0.07534141838550568,-1.2514305114746094,1.2163348197937012,-0.10776684433221817,0.01201647985726595,0.3561074137687683
3.6631720066070557,0.07534141838550568,-1.2521934509277344,1.2178606986999512,-0.10700388997793198,0.011635004542768002,0.3564889132976532
3.683251142501831,0.07534141838550568,-1.2525749206542969,1.2182421684265137,-0.10624094307422638,0.01125352829694748,0.3568703830242157
3.703406810760498,0.07534141838550568,-1.2533378601074219,1.2190051078796387,-0.10509651154279709,0.01125352829694748,0.3572518527507782
3.7234904766082764,0.07534141838550568,-1.2537193298339844,1.2201495170593262,-0.10471503436565399,0.011635004542768002,0.3572518527507782
3.7436342239379883,0.07534141838550568,-1.2541009187698364,1.2212939262390137,-0.10471503436565399,0.01201647985726595,0.3576333224773407
3.7636823654174805,0.07534141838550568,-1.254482388496399,1.2224383354187012,-0.10433356463909149,0.013542382046580315,0.3583962619304657
3.7837674617767334,0.07534141838550568,-1.2548638582229614,1.2228199243545532,-0.1035706102848053,0.014686808921396732,0.3599221706390381
3.8039767742156982,0.07534141838550568,-1.255245327949524,1.2239643335342407,-0.1028076633810997,0.014686808921396732,0.3599221706390381
3.8240699768066406,0.07534141838550568,-1.2556267976760864,1.2247272729873657,-0.10204470902681351,0.014686808921396732,0.3599221706390381
3.844186782836914,0.07534141838550568,-1.2556267976760864,1.2254902124404907,-0.10128175467252731,0.014686808921396732,0.3603036403656006
3.8642611503601074,0.07534141838550568,-1.2563897371292114,1.2266346216201782,-0.10090028494596481,0.01506828423589468,0.3603036403656006
3.884347438812256,0.07534141838550568,-1.2563897371292114,1.2270160913467407,-0.10051880776882172,0.01506828423589468,0.3606851398944855
3.904376983642578,0.07534141838550568,-1.257534146308899,1.2281605005264282,-0.10051880776882172,0.01506828423589468,0.3606851398944855
3.9245312213897705,0.07534141838550568,-1.2579156160354614,1.2285419702529907,-0.10013733059167862,0.01583123579621315,0.361066609621048
3.944582462310791,0.07457847148180008,-1.2586785554885864,1.2289234399795532,-0.09975585341453552,0.01583123579621315,0.3614480793476105
3.9647157192230225,0.07419699430465698,-1.2594414949417114,1.2293049097061157,-0.09899290651082993,0.01735713705420494,0.36259251832962036
3.9848012924194336,0.07343403995037079,-1.2602044343948364,1.2304493188858032,-0.09784847497940063,0.018120087683200836,0.36335545778274536
4.004943132400513,0.07343403995037079,-1.260585904121399,1.2308309078216553,-0.09746700525283813,0.01773861236870289,0.36373692750930786
4.025017738342285,0.07343403995037079,-1.260585904121399,1.2319753170013428,-0.09708552807569504,0.016975661739706993,0.36411839723587036
4.0450921058654785,0.07343403995037079,-1.2609673738479614,1.2323567867279053,-0.09708552807569504,0.01735713705420494,0.36411839723587036
4.065202236175537,0.07343403995037079,-1.261730432510376,1.2331197261810303,-0.09708552807569504,0.01735713705420494,0.36449989676475525
4.085268497467041,0.07343403995037079,-1.261730432510376,1.2338826656341553,-0.09670405089855194,0.018120087683200836,0.36449989676475525
4.105323553085327,0.07343403995037079,-1.262493371963501,1.2346456050872803,-0.09708552807569504,0.018120087683200836,0.36449989676475525
4.125405311584473,0.07343403995037079,-1.2628748416900635,1.2350270748138428,-0.09670405089855194,0.018120087683200836,0.36526283621788025
4.145507097244263,0.07343403995037079,-1.2628748416900635,1.2350270748138428,-0.09632257372140884,0.018120087683200836,0.36564430594444275
4.165637016296387,0.07267109304666519,-1.2628748416900635,1.2350270748138428,-0.09632257372140884,0.01773861236870289,0.36717021465301514
4.185715198516846,0.07267109304666519,-1.2636377811431885,1.2365529537200928,-0.09594109654426575,0.01773861236870289,0.36755168437957764
4.205769300460815,0.07267109304666519,-1.264019250869751,1.2373158931732178,-0.09517814964056015,0.01735713705420494,0.36755168437957764
4.225859880447388,0.07267109304666519,-1.2644007205963135,1.2384604215621948,-0.09403372555971146,0.016594186425209045,0.36793315410614014
4.24593186378479,0.0722896158695221,-1.264782190322876,1.2384604215621948,-0.09365224838256836,0.016594186425209045,0.368314653635025
4.266088247299194,0.0722896158695221,-1.264782190322876,1.2388418912887573,-0.09327077120542526,0.016212711110711098,0.368314653635025
4.2861855030059814,0.0722896158695221,-1.265545129776001,1.2392233610153198,-0.09327077120542526,0.016594186425209045,0.368314653635025
4.306249380111694,0.0722896158695221,-1.267071008682251,1.2399863004684448,-0.09327077120542526,0.016594186425209045,0.368314653635025
4.326337814331055,0.0722896158695221,-1.268596887588501,1.2411307096481323,-0.09288929402828217,0.016594186425209045,0.368314653635025
4.346425294876099,0.071908138692379,-1.269741415977478,1.2418936491012573,-0.09250781685113907,0.016594186425209045,0.3686961233615875
4.366629362106323,0.0715266615152359,-1.269741415977478,1.2426565885543823,-0.09174486994743347,0.016975661739706993,0.36907759308815
4.386634588241577,0.0711451917886734,-1.2701228857040405,1.2434195280075073,-0.08983749151229858,0.016594186425209045,0.3706035017967224
4.40679144859314,0.07038223743438721,-1.269741415977478,1.2445639371871948,-0.08869306743144989,0.016212711110711098,0.3709849715232849
4.426909685134888,0.07038223743438721,-1.269741415977478,1.2464714050292969,-0.0875486359000206,0.016212711110711098,0.3709849715232849
4.447988986968994,0.07038223743438721,-1.269741415977478,1.2468528747558594,-0.0864042118191719,0.01506828423589468,0.3709849715232849
4.468064546585083,0.07038223743438721,-1.269741415977478,1.2472343444824219,-0.08602273464202881,0.01506828423589468,0.3713664412498474
4.488120794296265,0.07038223743438721,-1.2701228857040405,1.2472343444824219,-0.08602273464202881,0.01506828423589468,0.3717479109764099
4.508291006088257,0.07000076025724411,-1.270504355430603,1.2472343444824219,-0.08564125746488571,0.015449759550392628,0.3717479109764099
4.5283873081207275,0.07038223743438721,-1.271267294883728,1.2472343444824219,-0.08564125746488571,0.016212711110711098,0.3721294105052948
4.548546552658081,0.07000076025724411,-1.272030234336853,1.2479972839355469,-0.08525978773832321,0.016594186425209045,0.3721294105052948
4.568608283996582,0.07000076025724411,-1.2724117040634155,1.2487602233886719,-0.08525978773832321,0.016975661739706993,0.3725108802318573
4.588671684265137,0.07038223743438721,-1.272793173789978,1.2495231628417969,-0.08487831056118011,0.01735713705420494,0.3728923499584198
4.608757019042969,0.07038223743438721,-1.272793173789978,1.2502861022949219,-0.08449683338403702,0.01773861236870289,0.3736552894115448
4.628837823867798,0.07000076025724411,-1.272793173789978,1.2506675720214844,-0.08297093212604523,0.01773861236870289,0.3747997283935547
4.648932456970215,0.07000076025724411,-1.272793173789978,1.2510490417480469,-0.08258945494890213,0.01773861236870289,0.3747997283935547
4.669013261795044,0.07000076025724411,-1.272793173789978,1.2514305114746094,-0.08220797777175903,0.01773861236870289,0.3747997283935547
4.689114570617676,0.06961929053068161,-1.272793173789978,1.2518119812011719,-0.08220797777175903,0.01773861236870289,0.3751811981201172
4.709266185760498,0.06923781335353851,-1.2731746435165405,1.2525749206542969,-0.08220797777175903,0.018120087683200836,0.3747997283935547
4.729362726211548,0.06923781335353851,-1.2731746435165405,1.2529563903808594,-0.08182650804519653,0.018120087683200836,0.3751811981201172
4.749439716339111,0.06923781335353851,-1.2739375829696655,1.2533378601074219,-0.08106355369091034,0.018120087683200836,0.3751811981201172
4.769522666931152,0.06923781335353851,-1.2739375829696655,1.2537193298339844,-0.08068207651376724,0.018120087683200836,0.3751811981201172
4.789695978164673,0.06923781335353851,-1.2739375829696655,1.2537193298339844,-0.08030059933662415,0.018120087683200836,0.3755626678466797
4.809723854064941,0.06923781335353851,-1.274319052696228,1.2537193298339844,-0.07953765243291855,0.018501564860343933,0.3755626678466797
4.829932689666748,0.06923781335353851,-1.2747005224227905,1.254482388496399,-0.07915617525577545,0.018501564860343933,0.3755626678466797
4.850389242172241,0.06923781335353851,-1.275081992149353,1.2548638582229614,-0.07877469807863235,0.01888304017484188,0.3755626678466797
4.870542287826538,0.06923781335353851,-1.275081992149353,1.2556267976760864,-0.07877469807863235,0.01888304017484188,0.3755626678466797
4.890621900558472,0.06847485899925232,-1.275081992149353,1.2556267976760864,-0.07839322835206985,0.01888304017484188,0.3755626678466797
4.910703420639038,0.06809338182210922,-1.275081992149353,1.256008267402649,-0.07839322835206985,0.01888304017484188,0.3755626678466797
4.930778980255127,0.06809338182210922,-1.275844931602478,1.256771206855774,-0.07801175117492676,0.018501564860343933,0.3759441375732422
4.950862646102905,0.06809338182210922,-1.2762264013290405,1.257534146308899,-0.07801175117492676,0.018501564860343933,0.3759441375732422
4.970972061157227,0.06771191209554672,-1.276607871055603,1.257534146308899,-0.07801175117492676,0.018501564860343933,0.3767071068286896
4.9917378425598145,0.06733043491840363,-1.276607871055603,1.2579156160354614,-0.07763027399778366,0.01926451548933983,0.3778515160083771
5.0119171142578125,0.06733043491840363,-1.2769893407821655,1.2579156160354614,-0.07763027399778366,0.01926451548933983,0.3778515160083771
5.032011270523071,0.06733043491840363,-1.2769893407821655,1.2579156160354614,-0.07763027399778366,0.01926451548933983,0.3778515160083771
5.052051782608032,0.06733043491840363,-1.2769893407821655,1.2579156160354614,-0.07763027399778366,0.01888304017484188,0.3778515160083771
5.07213282585144,0.06733043491840363,-1.2773709297180176,1.259060025215149,-0.07724879682064056,0.01888304017484188,0.3778515160083771
5.092190980911255,0.06733043491840363,-1.2773709297180176,1.2594414949417114,-0.07648584991693497,0.01926451548933983,0.3778515160083771
5.112284898757935,0.06733043491840363,-1.2781338691711426,1.259822964668274,-0.07495994865894318,0.01888304017484188,0.37823301553726196
5.132359266281128,0.06733043491840363,-1.2788968086242676,1.260585904121399,-0.07457847148180008,0.01926451548933983,0.37823301553726196
5.152413606643677,0.06733043491840363,-1.27927827835083,1.260585904121399,-0.07419699430465698,0.019645990803837776,0.37823301553726196
5.172632217407227,0.06733043491840363,-1.2796597480773926,1.2609673738479614,-0.07381551712751389,0.020027466118335724,0.37823301553726196
5.192672491073608,0.06733043491840363,-1.280041217803955,1.2609673738479614,-0.07305257022380829,0.020027466118335724,0.37823301553726196
5.212773084640503,0.06733043491840363,-1.280041217803955,1.261348843574524,-0.0722896158695221,0.020027466118335724,0.37823301553726196
5.232814788818359,0.06733043491840363,-1.280041217803955,1.261348843574524,-0.0715266615152359,0.02079041674733162,0.37823301553726196
5.252867937088013,0.06733043491840363,-1.2804226875305176,1.2621119022369385,-0.0711451917886734,0.021171892061829567,0.37823301553726196
5.272960662841797,0.06733043491840363,-1.2804226875305176,1.2628748416900635,-0.0711451917886734,0.021553369238972664,0.37823301553726196
5.293032884597778,0.06733043491840363,-1.2804226875305176,1.2628748416900635,-0.0707637146115303,0.022697795182466507,0.37823301553726196
5.3130998611450195,0.06733043491840363,-1.2804226875305176,1.2628748416900635,-0.0707637146115303,0.022697795182466507,0.37823301553726196
5.333202838897705,0.06733043491840363,-1.28080415725708,1.263256311416626,-0.0707637146115303,0.023079270496964455,0.37823301553726196
5.353273391723633,0.06733043491840363,-1.2811856269836426,1.264019250869751,-0.07038223743438721,0.023079270496964455,0.37823301553726196
5.373406648635864,0.06733043491840363,-1.2811856269836426,1.264019250869751,-0.07000076025724411,0.023079270496964455,0.37823301553726196
5.393491268157959,0.06733043491840363,-1.2811856269836426,1.2644007205963135,-0.06961929053068161,0.023079270496964455,0.37861448526382446
5.413639783859253,0.06733043491840363,-1.2811856269836426,1.2651636600494385,-0.06885633617639542,0.023079270496964455,0.37861448526382446
5.433747291564941,0.06733043491840363,-1.2811856269836426,1.2651636600494385,-0.06809338182210922,0.023079270496964455,0.37861448526382446
5.453755617141724,0.06694895774126053,-1.2811856269836426,1.2659265995025635,-0.06771191209554672,0.023079270496964455,0.37861448526382446
5.473844528198242,0.06694895774126053,-1.2811856269836426,1.2659265995025635,-0.06733043491840363,0.023079270496964455,0.37861448526382446
5.493941307067871,0.06618601083755493,-1.281567096710205,1.2659265995025635,-0.06694895774126053,0.023460745811462402,0.37861448526382446
5.514019727706909,0.06618601083755493,-1.28233003616333,1.2659265995025635,-0.06694895774126053,0.023460745811462402,0.37899595499038696
5.534122705459595,0.06618601083755493,-1.283092975616455,1.2659265995025635,-0.06694895774126053,0.023079270496964455,0.37899595499038696
5.554225921630859,0.06542305648326874,-1.2834744453430176,1.2659265995025635,-0.06656748056411743,0.023079270496964455,0.37899595499038696
5.574321746826172,0.06542305648326874,-1.2842373847961426,1.266308069229126,-0.06580453366041183,0.023079270496964455,0.37899595499038696
5.594365119934082,0.06542305648326874,-1.2842373847961426,1.267071008682251,-0.06504157930612564,0.022697795182466507,0.37899595499038696
5.614480257034302,0.06542305648326874,-1.2842373847961426,1.2674524784088135,-0.06427863240242004,0.022697795182466507,0.37899595499038696
5.634568929672241,0.06542305648326874,-1.2842373847961426,1.267833948135376,-0.06389715522527695,0.022697795182466507,0.37899595499038696
5.654672861099243,0.06542305648326874,-1.2842373847961426,1.2682154178619385,-0.06351567804813385,0.022697795182466507,0.37899595499038696
5.674741506576538,0.06542305648326874,-1.2842373847961426,1.268596887588501,-0.06351567804813385,0.023079270496964455,0.37899595499038696
5.695076942443848,0.06542305648326874,-1.2842373847961426,1.2689783573150635,-0.06351567804813385,0.023079270496964455,0.37899595499038696
5.7151548862457275,0.06542305648326874,-1.284618854522705,1.2689783573150635,-0.06351567804813385,0.022697795182466507,0.37899595499038696
5.735356569290161,0.06542305648326874,-1.2842373847961426,1.269359827041626,-0.06313420087099075,0.023079270496964455,0.37937742471694946
5.755498170852661,0.06542305648326874,-1.284618854522705,1.2701228857040405,-0.06275273114442825,0.022697795182466507,0.37937742471694946
5.77558708190918,0.06542305648326874,-1.284618854522705,1.2701228857040405,-0.06275273114442825,0.022697795182466507,0.37975889444351196
5.795644998550415,0.06542305648326874,-1.284618854522705,1.2701228857040405,-0.06237125024199486,0.022697795182466507,0.37975889444351196
5.815736293792725,0.06542305648326874,-1.2850003242492676,1.270504355430603,-0.06198977679014206,0.022697795182466507,0.37975889444351196
5.8358423709869385,0.06542305648326874,-1.2853819131851196,1.2708858251571655,-0.06160829961299896,0.022697795182466507,0.38014039397239685
5.855897903442383,0.06542305648326874,-1.2857633829116821,1.271267294883728,-0.06084534898400307,0.023079270496964455,0.38014039397239685
5.875988006591797,0.06542305648326874,-1.2857633829116821,1.2716487646102905,-0.06008239835500717,0.023079270496964455,0.38052186369895935
5.89605975151062,0.06542305648326874,-1.2857633829116821,1.272030234336853,-0.06008239835500717,0.022697795182466507,0.38166627287864685
5.916160821914673,0.06542305648326874,-1.2853819131851196,1.272030234336853,-0.05970092490315437,0.022697795182466507,0.38166627287864685
5.936252593994141,0.06542305648326874,-1.2853819131851196,1.272030234336853,-0.059319447726011276,0.022697795182466507,0.38166627287864685
5.956315040588379,0.06542305648326874,-1.2857633829116821,1.2724117040634155,-0.059319447726011276,0.022697795182466507,0.38166627287864685
5.976409435272217,0.06542305648326874,-1.2861448526382446,1.2731746435165405,-0.05893797054886818,0.023079270496964455,0.38166627287864685
5.996453285217285,0.06542305648326874,-1.2865263223648071,1.2731746435165405,-0.05855649709701538,0.023079270496964455,0.38166627287864685
6.01685905456543,0.06542305648326874,-1.2865263223648071,1.2731746435165405,-0.058175019919872284,0.023079270496964455,0.38166627287864685
6.036945343017578,0.06542305648326874,-1.2865263223648071,1.2731746435165405,-0.05741206929087639,0.023079270496964455,0.38166627287864685
6.057004451751709,0.06504157930612564,-1.2865263223648071,1.2739375829696655,-0.056267641484737396,0.023079270496964455,0.38166627287864685
6.077097177505493,0.06504157930612564,-1.2865263223648071,1.2739375829696655,-0.056267641484737396,0.023079270496964455,0.38166627287864685
6.097161293029785,0.06504157930612564,-1.2865263223648071,1.2739375829696655,-0.056267641484737396,0.023079270496964455,0.38166627287864685
6.117213010787964,0.06504157930612564,-1.2865263223648071,1.2739375829696655,-0.0558861680328846,0.023079270496964455,0.38166627287864685
6.137301445007324,0.06504157930612564,-1.2865263223648071,1.274319052696228,-0.0558861680328846,0.023460745811462402,0.38166627287864685
6.157483339309692,0.06466010212898254,-1.2865263223648071,1.2747005224227905,-0.0555046908557415,0.023460745811462402,0.38166627287864685
6.177952527999878,0.06466010212898254,-1.2869077920913696,1.275081992149353,-0.0555046908557415,0.023460745811462402,0.38166627287864685
6.198030948638916,0.06427863240242004,-1.2869077920913696,1.275081992149353,-0.0551232174038887,0.02384222112596035,0.38166627287864685
6.21811056137085,0.06427863240242004,-1.2869077920913696,1.2754634618759155,-0.0551232174038887,0.023460745811462402,0.38166627287864685
6.238215208053589,0.06427863240242004,-1.2872892618179321,1.2754634618759155,-0.05436026677489281,0.02384222112596035,0.38166627287864685
6.25825047492981,0.06427863240242004,-1.2872892618179321,1.2754634618759155,-0.05397878959774971,0.02384222112596035,0.38166627287864685
6.278360843658447,0.06389715522527695,-1.2872892618179321,1.2754634618759155,-0.05359731614589691,0.02384222112596035,0.38166627287864685
6.298416376113892,0.06389715522527695,-1.2872892618179321,1.275844931602478,-0.053215838968753815,0.024223696440458298,0.38166627287864685
6.318970203399658,0.06351567804813385,-1.2872892618179321,1.2762264013290405,-0.05283436179161072,0.024605173617601395,0.38166627287864685
6.339059114456177,0.06351567804813385,-1.2872892618179321,1.2762264013290405,-0.05283436179161072,0.024986648932099342,0.38166627287864685
6.359118461608887,0.06313420087099075,-1.2872892618179321,1.2762264013290405,-0.05245288833975792,0.024605173617601395,0.38166627287864685
6.379249095916748,0.06313420087099075,-1.2876707315444946,1.276607871055603,-0.05245288833975792,0.024223696440458298,0.38166627287864685
6.399382591247559,0.06313420087099075,-1.2880522012710571,1.276607871055603,-0.05207141116261482,0.024223696440458298,0.38166627287864685
6.419417142868042,0.06313420087099075,-1.2884336709976196,1.2773709297180176,-0.05207141116261482,0.024605173617601395,0.38166627287864685
6.43954062461853,0.06313420087099075,-1.2884336709976196,1.2773709297180176,-0.051689937710762024,0.024605173617601395,0.38166627287864685
6.459607839584351,0.06313420087099075,-1.2884336709976196,1.2773709297180176,-0.051689937710762024,0.024986648932099342,0.38166627287864685
6.479753255844116,0.06313420087099075,-1.2884336709976196,1.2773709297180176,-0.05130846053361893,0.024986648932099342,0.38166627287864685
6.49987530708313,0.06313420087099075,-1.2884336709976196,1.2773709297180176,-0.05092698708176613,0.024986648932099342,0.38166627287864685
6.51995587348938,0.06313420087099075,-1.2884336709976196,1.2773709297180176,-0.05054550990462303,0.024605173617601395,0.38166627287864685
6.540109634399414,0.06313420087099075,-1.2884336709976196,1.27775239944458,-0.049782559275627136,0.024223696440458298,0.38166627287864685
6.560150146484375,0.06313420087099075,-1.2888151407241821,1.27775239944458,-0.04940108209848404,0.024605173617601395,0.38166627287864685
6.580251216888428,0.06313420087099075,-1.2888151407241821,1.27775239944458,-0.04901960864663124,0.024223696440458298,0.38166627287864685
6.600395917892456,0.06313420087099075,-1.2888151407241821,1.2781338691711426,-0.04901960864663124,0.024605173617601395,0.38166627287864685
6.62054443359375,0.06313420087099075,-1.2888151407241821,1.2781338691711426,-0.04901960864663124,0.024986648932099342,0.38128480315208435
6.6405580043792725,0.06313420087099075,-1.2888151407241821,1.278515338897705,-0.048638131469488144,0.024986648932099342,0.38128480315208435
6.660698652267456,0.06313420087099075,-1.2891966104507446,1.278515338897705,-0.048638131469488144,0.024986648932099342,0.38166627287864685
6.680790424346924,0.06313420087099075,-1.2891966104507446,1.278515338897705,-0.048256658017635345,0.024605173617601395,0.38128480315208435
6.7008655071258545,0.06313420087099075,-1.2891966104507446,1.2788968086242676,-0.048256658017635345,0.024986648932099342,0.38166627287864685
6.720928430557251,0.06313420087099075,-1.2895780801773071,1.27927827835083,-0.04787518084049225,0.024605173617601395,0.38128480315208435
6.741023063659668,0.06313420087099075,-1.2891966104507446,1.27927827835083,-0.04787518084049225,0.024605173617601395,0.38128480315208435
6.7611706256866455,0.06313420087099075,-1.2895780801773071,1.2796597480773926,-0.04749370738863945,0.024605173617601395,0.38128480315208435
6.781275272369385,0.06313420087099075,-1.2895780801773071,1.2796597480773926,-0.04711223021149635,0.024986648932099342,0.38128480315208435
6.801328659057617,0.06313420087099075,-1.2895780801773071,1.2796597480773926,-0.04634927958250046,0.024986648932099342,0.38128480315208435
6.821432828903198,0.06313420087099075,-1.2895780801773071,1.2796597480773926,-0.04558632895350456,0.024986648932099342,0.38128480315208435
6.841485500335693,0.06313420087099075,-1.2903410196304321,1.2796597480773926,-0.04558632895350456,0.024605173617601395,0.38128480315208435
6.861597537994385,0.06275273114442825,-1.2903410196304321,1.280041217803955,-0.045204851776361465,0.024986648932099342,0.38090333342552185
6.88170313835144,0.06275273114442825,-1.2903410196304321,1.280041217803955,-0.045204851776361465,0.024605173617601395,0.38090333342552185
6.901846408843994,0.06237125024199486,-1.2903410196304321,1.2804226875305176,-0.045204851776361465,0.024986648932099342,0.38090333342552185
6.921968698501587,0.06237125024199486,-1.2903410196304321,1.2804226875305176,-0.04482337832450867,0.024986648932099342,0.38090333342552185
6.942048788070679,0.06237125024199486,-1.2903410196304321,1.2804226875305176,-0.04482337832450867,0.024986648932099342,0.38052186369895935
6.962166786193848,0.06237125024199486,-1.2903410196304321,1.2804226875305176,-0.04482337832450867,0.024986648932099342,0.38052186369895935
6.982237339019775,0.06237125024199486,-1.2903410196304321,1.2804226875305176,-0.04482337832450867,0.024605173617601395,0.38052186369895935
7.002309799194336,0.06237125024199486,-1.2903410196304321,1.2804226875305176,-0.04444190114736557,0.024986648932099342,0.38014039397239685
7.022394418716431,0.06237125024199486,-1.2907224893569946,1.28080415725708,-0.04444190114736557,0.024986648932099342,0.38014039397239685
7.0424864292144775,0.06237125024199486,-1.2907224893569946,1.2811856269836426,-0.04406042397022247,0.024986648932099342,0.37975889444351196
7.0627052783966064,0.06237125024199486,-1.2907224893569946,1.281567096710205,-0.043678950518369675,0.024986648932099342,0.37975889444351196
7.082828998565674,0.06237125024199486,-1.2907224893569946,1.281567096710205,-0.04329747334122658,0.024986648932099342,0.37937742471694946
7.102912902832031,0.06198977679014206,-1.2907224893569946,1.281567096710205,-0.04291599988937378,0.024986648932099342,0.37937742471694946
7.122987985610962,0.06198977679014206,-1.2907224893569946,1.281567096710205,-0.04291599988937378,0.024986648932099342,0.37937742471694946
7.143164396286011,0.06198977679014206,-1.2907224893569946,1.281567096710205,-0.04253452271223068,0.024986648932099342,0.37937742471694946
7.163228750228882,0.06198977679014206,-1.2907224893569946,1.281567096710205,-0.042153049260377884,0.024986648932099342,0.37937742471694946
7.183276891708374,0.06198977679014206,-1.2911039590835571,1.2819485664367676,-0.04177157208323479,0.024986648932099342,0.37937742471694946
7.203378200531006,0.06198977679014206,-1.2911039590835571,1.28233003616333,-0.04139009863138199,0.02536812424659729,0.37899595499038696
7.22343897819519,0.06198977679014206,-1.2911039590835571,1.28233003616333,-0.04139009863138199,0.02536812424659729,0.37899595499038696
7.243539094924927,0.06198977679014206,-1.2911039590835571,1.28233003616333,-0.04139009863138199,0.02536812424659729,0.37899595499038696
7.263620853424072,0.06198977679014206,-1.2911039590835571,1.28233003616333,-0.04100862145423889,0.02536812424659729,0.37899595499038696
7.2837395668029785,0.06160829961299896,-1.2911039590835571,1.28233003616333,-0.04100862145423889,0.02536812424659729,0.37899595499038696
7.303829193115234,0.061226826161146164,-1.2914854288101196,1.28233003616333,-0.04100862145423889,0.025749599561095238,0.37899595499038696
7.32394552230835,0.061226826161146164,-1.2911039590835571,1.28233003616333,-0.040627144277095795,0.02536812424659729,0.37861448526382446
7.344047784805298,0.061226826161146164,-1.2914854288101196,1.2827115058898926,-0.040627144277095795,0.02536812424659729,0.37861448526382446
7.364138126373291,0.061226826161146164,-1.2914854288101196,1.2827115058898926,-0.040245670825242996,0.02536812424659729,0.37861448526382446
7.3842244148254395,0.061226826161146164,-1.2914854288101196,1.2827115058898926,-0.040245670825242996,0.02536812424659729,0.37861448526382446
7.4043128490448,0.061226826161146164,-1.2914854288101196,1.283092975616455,-0.0398641936480999,0.025749599561095238,0.37861448526382446
7.42439603805542,0.061226826161146164,-1.2914854288101196,1.2834744453430176,-0.0394827201962471,0.025749599561095238,0.37861448526382446
7.444478988647461,0.061226826161146164,-1.2914854288101196,1.2834744453430176,-0.039101243019104004,0.025749599561095238,0.37823301553726196
7.464569807052612,0.061226826161146164,-1.2914854288101196,1.2834744453430176,-0.03833829239010811,0.025749599561095238,0.37823301553726196
7.484680414199829,0.061226826161146164,-1.2914854288101196,1.2834744453430176,-0.03795681521296501,0.025749599561095238,0.37823301553726196
7.504748582839966,0.061226826161146164,-1.2914854288101196,1.28385591506958,-0.03757534176111221,0.02536812424659729,0.37823301553726196
7.525193929672241,0.061226826161146164,-1.2914854288101196,1.28385591506958,-0.03757534176111221,0.025749599561095238,0.37823301553726196
7.545297622680664,0.061226826161146164,-1.2914854288101196,1.28385591506958,-0.03757534176111221,0.025749599561095238,0.37823301553726196
7.565356254577637,0.061226826161146164,-1.2914854288101196,1.28385591506958,-0.037193864583969116,0.025749599561095238,0.3778515160083771
7.585457801818848,0.061226826161146164,-1.2914854288101196,1.28385591506958,-0.037193864583969116,0.025749599561095238,0.3778515160083771
7.605515956878662,0.061226826161146164,-1.2914854288101196,1.2842373847961426,-0.037193864583969116,0.025749599561095238,0.3774700462818146
7.625640153884888,0.061226826161146164,-1.2914854288101196,1.2842373847961426,-0.037193864583969116,0.025749599561095238,0.3774700462818146
7.645729064941406,0.061226826161146164,-1.2918668985366821,1.2842373847961426,-0.03681239113211632,0.025749599561095238,0.3774700462818146
7.665833234786987,0.061226826161146164,-1.2918668985366821,1.2842373847961426,-0.03681239113211632,0.025749599561095238,0.3770885765552521
7.685901403427124,0.061226826161146164,-1.2926298379898071,1.2842373847961426,-0.03643091395497322,0.025749599561095238,0.3770885765552521
7.738621473312378,0.061226826161146164,-1.2926298379898071,1.2842373847961426,-0.03604944050312042,0.025749599561095238,0.3767071068286896
7.758713483810425,0.061226826161146164,-1.2926298379898071,1.2842373847961426,-0.035667963325977325,0.025749599561095238,0.3763256371021271
7.778766870498657,0.061226826161146164,-1.2926298379898071,1.284618854522705,-0.03528648987412453,0.025749599561095238,0.3763256371021271
7.798930406570435,0.061226826161146164,-1.2926298379898071,1.284618854522705,-0.03452353551983833,0.025749599561095238,0.3759441375732422
7.818979024887085,0.061226826161146164,-1.2926298379898071,1.284618854522705,-0.034142062067985535,0.025749599561095238,0.3759441375732422
7.839057922363281,0.061226826161146164,-1.2926298379898071,1.284618854522705,-0.034142062067985535,0.025749599561095238,0.3759441375732422
7.859138011932373,0.061226826161146164,-1.2926298379898071,1.284618854522705,-0.034142062067985535,0.025749599561095238,0.3759441375732422
7.879338979721069,0.061226826161146164,-1.2926298379898071,1.284618854522705,-0.03376058489084244,0.025749599561095238,0.3755626678466797
7.899433135986328,0.061226826161146164,-1.2926298379898071,1.2850003242492676,-0.03376058489084244,0.025749599561095238,0.3755626678466797
7.919504165649414,0.061226826161146164,-1.2926298379898071,1.2857633829116821,-0.03376058489084244,0.025749599561095238,0.3755626678466797
7.93967604637146,0.061226826161146164,-1.2926298379898071,1.2857633829116821,-0.03376058489084244,0.025749599561095238,0.3751811981201172
7.959778308868408,0.061226826161146164,-1.2926298379898071,1.2857633829116821,-0.03376058489084244,0.025749599561095238,0.3751811981201172
7.979830741882324,0.061226826161146164,-1.2926298379898071,1.2857633829116821,-0.03337911143898964,0.026131074875593185,0.3751811981201172
7.99992823600769,0.061226826161146164,-1.2926298379898071,1.2857633829116821,-0.03337911143898964,0.025749599561095238,0.3751811981201172
8.020087718963623,0.061226826161146164,-1.2926298379898071,1.2857633829116821,-0.03337911143898964,0.026131074875593185,0.3751811981201172
8.040160179138184,0.061226826161146164,-1.2926298379898071,1.2857633829116821,-0.03337911143898964,0.025749599561095238,0.3747997283935547
8.060302734375,0.061226826161146164,-1.2926298379898071,1.2857633829116821,-0.03299763426184654,0.025749599561095238,0.3747997283935547
8.080368041992188,0.061226826161146164,-1.2926298379898071,1.2861448526382446,-0.03299763426184654,0.026131074875593185,0.3747997283935547
8.100957870483398,0.061226826161146164,-1.2926298379898071,1.2861448526382446,-0.03299763426184654,0.026131074875593185,0.3744182586669922
8.121058225631714,0.061226826161146164,-1.2926298379898071,1.2861448526382446,-0.032616160809993744,0.026131074875593185,0.3744182586669922
8.141171216964722,0.061226826161146164,-1.2926298379898071,1.2861448526382446,-0.032616160809993744,0.026131074875593185,0.3744182586669922
8.161241292953491,0.06084534898400307,-1.2926298379898071,1.2861448526382446,-0.03223468363285065,0.026131074875593185,0.3744182586669922
8.181347370147705,0.06084534898400307,-1.2926298379898071,1.2865263223648071,-0.03185320645570755,0.026131074875593185,0.3744182586669922
8.201390266418457,0.06084534898400307,-1.2926298379898071,1.2865263223648071,-0.031090257689356804,0.026131074875593185,0.3740367889404297
8.221487045288086,0.06084534898400307,-1.2926298379898071,1.2865263223648071,-0.030708782374858856,0.026131074875593185,0.3740367889404297
8.241617202758789,0.06084534898400307,-1.2926298379898071,1.2865263223648071,-0.03032730519771576,0.026131074875593185,0.3740367889404297
8.261790990829468,0.06046387553215027,-1.2926298379898071,1.2865263223648071,-0.03032730519771576,0.026131074875593185,0.3736552894115448
8.281912803649902,0.06008239835500717,-1.2926298379898071,1.2865263223648071,-0.03032730519771576,0.026131074875593185,0.3736552894115448
8.301959037780762,0.06008239835500717,-1.2926298379898071,1.2865263223648071,-0.02994582988321781,0.026131074875593185,0.3732738196849823
8.322049379348755,0.06008239835500717,-1.2926298379898071,1.2865263223648071,-0.02994582988321781,0.026131074875593185,0.3732738196849823
8.342122793197632,0.06008239835500717,-1.2926298379898071,1.2865263223648071,-0.02994582988321781,0.026131074875593185,0.3728923499584198
8.362194061279297,0.06008239835500717,-1.2926298379898071,1.2865263223648071,-0.02994582988321781,0.026131074875593185,0.3725108802318573
8.382325410842896,0.06008239835500717,-1.2930114269256592,1.2869077920913696,-0.02994582988321781,0.026512550190091133,0.3721294105052948
8.402376890182495,0.06008239835500717,-1.2930114269256592,1.2869077920913696,-0.029564354568719864,0.026512550190091133,0.3717479109764099
8.422455549240112,0.06008239835500717,-1.2930114269256592,1.2869077920913696,-0.029564354568719864,0.026512550190091133,0.3717479109764099
8.442550420761108,0.06008239835500717,-1.2933928966522217,1.2876707315444946,-0.029564354568719864,0.026512550190091133,0.3717479109764099
8.462627649307251,0.06008239835500717,-1.2933928966522217,1.2876707315444946,-0.029564354568719864,0.026512550190091133,0.3713664412498474
8.482696533203125,0.06008239835500717,-1.2933928966522217,1.2876707315444946,-0.029182879254221916,0.026512550190091133,0.3713664412498474
8.502785682678223,0.06008239835500717,-1.2933928966522217,1.2876707315444946,-0.02880140393972397,0.026512550190091133,0.3713664412498474
8.522884130477905,0.06008239835500717,-1.2933928966522217,1.2876707315444946,-0.02880140393972397,0.026512550190091133,0.3713664412498474
8.543010234832764,0.06008239835500717,-1.2933928966522217,1.2876707315444946,-0.02841992862522602,0.026512550190091133,0.3713664412498474
8.563100814819336,0.06008239835500717,-1.2933928966522217,1.2876707315444946,-0.02841992862522602,0.026512550190091133,0.3713664412498474
8.583228826522827,0.06008239835500717,-1.2933928966522217,1.2876707315444946,-0.028038453310728073,0.026512550190091133,0.3713664412498474
8.603292226791382,0.06008239835500717,-1.2933928966522217,1.2876707315444946,-0.027656977996230125,0.026512550190091133,0.3713664412498474
8.62337064743042,0.06008239835500717,-1.2933928966522217,1.2876707315444946,-0.02727550081908703,0.026512550190091133,0.3709849715232849
8.643733978271484,0.06008239835500717,-1.2933928966522217,1.2876707315444946,-0.02689402550458908,0.026512550190091133,0.3709849715232849
8.663858890533447,0.06008239835500717,-1.2933928966522217,1.2876707315444946,-0.02689402550458908,0.026512550190091133,0.3709849715232849
8.683952808380127,0.05970092490315437,-1.2933928966522217,1.2880522012710571,-0.02689402550458908,0.026512550190091133,0.3709849715232849
8.704013347625732,0.05970092490315437,-1.2933928966522217,1.2880522012710571,-0.026512550190091133,0.026512550190091133,0.3709849715232849
8.724096536636353,0.05970092490315437,-1.2933928966522217,1.2880522012710571,-0.026512550190091133,0.026512550190091133,0.3706035017967224
8.744163751602173,0.05970092490315437,-1.2933928966522217,1.2880522012710571,-0.026512550190091133,0.026512550190091133,0.3706035017967224
8.764240026473999,0.05970092490315437,-1.2933928966522217,1.2884336709976196,-0.026512550190091133,0.02689402550458908,0.3706035017967224
8.784444808959961,0.05970092490315437,-1.2933928966522217,1.2884336709976196,-0.026512550190091133,0.02689402550458908,0.3706035017967224
8.804599285125732,0.05970092490315437,-1.2933928966522217,1.2884336709976196,-0.026131074875593185,0.026512550190091133,0.3702220320701599
8.824678897857666,0.05893797054886818,-1.2933928966522217,1.2884336709976196,-0.026131074875593185,0.02727550081908703,0.3702220320701599
8.844741106033325,0.05893797054886818,-1.2933928966522217,1.2884336709976196,-0.026131074875593185,0.02727550081908703,0.3702220320701599
8.864834785461426,0.05893797054886818,-1.2933928966522217,1.2884336709976196,-0.026131074875593185,0.026512550190091133,0.369840532541275
8.884933710098267,0.05893797054886818,-1.2933928966522217,1.2884336709976196,-0.025749599561095238,0.02689402550458908,0.369840532541275
8.905096530914307,0.05893797054886818,-1.2933928966522217,1.2884336709976196,-0.025749599561095238,0.02689402550458908,0.3694590628147125
8.925095558166504,0.05893797054886818,-1.2933928966522217,1.2888151407241821,-0.025749599561095238,0.02689402550458908,0.3694590628147125
8.9451904296875,0.05893797054886818,-1.2933928966522217,1.2888151407241821,-0.025749599561095238,0.02689402550458908,0.36907759308815
8.965294599533081,0.05893797054886818,-1.2933928966522217,1.2888151407241821,-0.02536812424659729,0.02727550081908703,0.3686961233615875
8.98587942123413,0.05893797054886818,-1.2933928966522217,1.2888151407241821,-0.02536812424659729,0.02727550081908703,0.3686961233615875
9.00597333908081,0.05893797054886818,-1.2933928966522217,1.2888151407241821,-0.02536812424659729,0.02727550081908703,0.368314653635025
9.026083946228027,0.05893797054886818,-1.2933928966522217,1.2888151407241821,-0.024986648932099342,0.02727550081908703,0.368314653635025
9.046140432357788,0.05893797054886818,-1.2933928966522217,1.2888151407241821,-0.024605173617601395,0.02727550081908703,0.368314653635025
9.066205024719238,0.05893797054886818,-1.2933928966522217,1.2888151407241821,-0.024223696440458298,0.02689402550458908,0.36793315410614014
9.086305618286133,0.05893797054886818,-1.2933928966522217,1.2891966104507446,-0.024223696440458298,0.02689402550458908,0.36793315410614014
9.106394529342651,0.05893797054886818,-1.2933928966522217,1.2895780801773071,-0.02384222112596035,0.02727550081908703,0.36793315410614014
9.126441955566406,0.05893797054886818,-1.2933928966522217,1.2895780801773071,-0.023460745811462402,0.02727550081908703,0.36755168437957764
9.146537065505981,0.05893797054886818,-1.2933928966522217,1.2895780801773071,-0.023079270496964455,0.02727550081908703,0.36755168437957764
9.166607141494751,0.05893797054886818,-1.2933928966522217,1.2895780801773071,-0.023079270496964455,0.02727550081908703,0.36717021465301514
9.186735391616821,0.05893797054886818,-1.2933928966522217,1.2895780801773071,-0.022697795182466507,0.02727550081908703,0.36717021465301514
9.206825971603394,0.05893797054886818,-1.2933928966522217,1.2895780801773071,-0.022697795182466507,0.02727550081908703,0.36717021465301514
9.226886749267578,0.05893797054886818,-1.2933928966522217,1.2895780801773071,-0.022697795182466507,0.02727550081908703,0.36717021465301514
9.246975660324097,0.05893797054886818,-1.2933928966522217,1.2895780801773071,-0.022697795182466507,0.02727550081908703,0.36717021465301514
9.267074346542358,0.05893797054886818,-1.2933928966522217,1.2895780801773071,-0.02231631986796856,0.02727550081908703,0.36678874492645264
9.287195205688477,0.05893797054886818,-1.2933928966522217,1.2895780801773071,-0.02231631986796856,0.02727550081908703,0.36678874492645264
9.307286262512207,0.05893797054886818,-1.2933928966522217,1.2895780801773071,-0.02231631986796856,0.02727550081908703,0.36678874492645264
9.32736611366272,0.05893797054886818,-1.2937743663787842,1.2895780801773071,-0.02231631986796856,0.02727550081908703,0.36640727519989014
9.347498416900635,0.05893797054886818,-1.2937743663787842,1.2895780801773071,-0.02193484455347061,0.02727550081908703,0.36640727519989014
9.367579221725464,0.05893797054886818,-1.2937743663787842,1.2895780801773071,-0.02193484455347061,0.02727550081908703,0.36640727519989014
9.387636661529541,0.05893797054886818,-1.2937743663787842,1.2895780801773071,-0.021553369238972664,0.02727550081908703,0.36602577567100525
9.40773057937622,0.05893797054886818,-1.2933928966522217,1.2895780801773071,-0.021553369238972664,0.02727550081908703,0.36602577567100525
9.427938222885132,0.05893797054886818,-1.2937743663787842,1.2895780801773071,-0.021553369238972664,0.02727550081908703,0.36564430594444275
9.448232412338257,0.05893797054886818,-1.2937743663787842,1.2895780801773071,-0.021171892061829567,0.02727550081908703,0.36488136649131775
9.468326330184937,0.05893797054886818,-1.2937743663787842,1.2895780801773071,-0.021171892061829567,0.02727550081908703,0.36411839723587036
9.488387823104858,0.05893797054886818,-1.2937743663787842,1.2899595499038696,-0.02079041674733162,0.027656977996230125,0.36373692750930786
9.508472919464111,0.05893797054886818,-1.2937743663787842,1.2899595499038696,-0.02040894143283367,0.02727550081908703,0.36373692750930786
9.528607368469238,0.05893797054886818,-1.2937743663787842,1.2899595499038696,-0.020027466118335724,0.02727550081908703,0.36373692750930786
9.549391031265259,0.05893797054886818,-1.2937743663787842,1.2899595499038696,-0.020027466118335724,0.02727550081908703,0.36373692750930786
9.569557428359985,0.059319447726011276,-1.2937743663787842,1.2899595499038696,-0.019645990803837776,0.02727550081908703,0.36373692750930786
9.589640140533447,0.059319447726011276,-1.2937743663787842,1.2899595499038696,-0.019645990803837776,0.027656977996230125,0.36373692750930786
9.609719514846802,0.05893797054886818,-1.2937743663787842,1.2899595499038696,-0.019645990803837776,0.02727550081908703,0.36373692750930786
9.629950761795044,0.059319447726011276,-1.2937743663787842,1.2899595499038696,-0.01926451548933983,0.027656977996230125,0.36335545778274536
9.650089502334595,0.059319447726011276,-1.2937743663787842,1.2903410196304321,-0.01926451548933983,0.027656977996230125,0.36335545778274536
9.670328378677368,0.059319447726011276,-1.2937743663787842,1.2903410196304321,-0.01926451548933983,0.027656977996230125,0.36335545778274536
9.690478801727295,0.059319447726011276,-1.2937743663787842,1.2903410196304321,-0.01926451548933983,0.027656977996230125,0.36335545778274536
9.7104811668396,0.059319447726011276,-1.2937743663787842,1.2903410196304321,-0.01926451548933983,0.028038453310728073,0.36335545778274536
9.730567693710327,0.059319447726011276,-1.2937743663787842,1.2907224893569946,-0.01926451548933983,0.027656977996230125,0.36297398805618286
9.750634670257568,0.059319447726011276,-1.2937743663787842,1.2907224893569946,-0.01926451548933983,0.027656977996230125,0.36297398805618286
9.771042346954346,0.059319447726011276,-1.2937743663787842,1.2907224893569946,-0.01888304017484188,0.027656977996230125,0.36297398805618286
9.791132926940918,0.059319447726011276,-1.2941558361053467,1.2907224893569946,-0.01888304017484188,0.027656977996230125,0.36297398805618286
9.811248779296875,0.059319447726011276,-1.2945373058319092,1.2907224893569946,-0.01888304017484188,0.028038453310728073,0.36259251832962036
9.831305742263794,0.059319447726011276,-1.2945373058319092,1.2907224893569946,-0.01888304017484188,0.028038453310728073,0.36259251832962036
9.851405620574951,0.059319447726011276,-1.2945373058319092,1.2907224893569946,-0.018501564860343933,0.028038453310728073,0.3622110188007355
9.871452569961548,0.059319447726011276,-1.2945373058319092,1.2907224893569946,-0.018501564860343933,0.028038453310728073,0.3622110188007355
9.891564130783081,0.059319447726011276,-1.2945373058319092,1.2907224893569946,-0.018501564860343933,0.028038453310728073,0.3622110188007355
9.911643266677856,0.059319447726011276,-1.2945373058319092,1.2907224893569946,-0.018501564860343933,0.028038453310728073,0.361829549074173
9.931692838668823,0.059319447726011276,-1.2945373058319092,1.2911039590835571,-0.018120087683200836,0.028038453310728073,0.361829549074173
9.951795101165771,0.059319447726011276,-1.2945373058319092,1.2911039590835571,-0.018120087683200836,0.028038453310728073,0.3614480793476105
9.971893072128296,0.05893797054886818,-1.2945373058319092,1.2911039590835571,-0.018120087683200836,0.028038453310728073,0.361066609621048
9.992211818695068,0.05893797054886818,-1.2945373058319092,1.2911039590835571,-0.018120087683200836,0.028038453310728073,0.3606851398944855
10.01245403289795,0.05893797054886818,-1.2945373058319092,1.2911039590835571,-0.01773861236870289,0.028038453310728073,0.3606851398944855
10.032482862472534,0.05893797054886818,-1.2945373058319092,1.2914854288101196,-0.01773861236870289,0.028038453310728073,0.3603036403656006
10.052719116210938,0.05893797054886818,-1.2945373058319092,1.2918668985366821,-0.01773861236870289,0.028038453310728073,0.3603036403656006
10.072808265686035,0.05893797054886818,-1.2945373058319092,1.2918668985366821,-0.01735713705420494,0.028038453310728073,0.3603036403656006
10.092870712280273,0.05893797054886818,-1.2945373058319092,1.2918668985366821,-0.016975661739706993,0.028038453310728073,0.3599221706390381
10.113091945648193,0.05893797054886818,-1.2945373058319092,1.2918668985366821,-0.016594186425209045,0.028038453310728073,0.3599221706390381
10.13318133354187,0.05893797054886818,-1.2945373058319092,1.2918668985366821,-0.016594186425209045,0.028038453310728073,0.3599221706390381
10.153191089630127,0.05893797054886818,-1.2945373058319092,1.2918668985366821,-0.016212711110711098,0.028038453310728073,0.3599221706390381
10.173252582550049,0.05893797054886818,-1.2945373058319092,1.2918668985366821,-0.01583123579621315,0.028038453310728073,0.3599221706390381
10.193338871002197,0.05893797054886818,-1.2945373058319092,1.2918668985366821,-0.015449759550392628,0.028038453310728073,0.3599221706390381
10.213477849960327,0.05893797054886818,-1.2945373058319092,1.2918668985366821,-0.015449759550392628,0.028038453310728073,0.3595407009124756
10.233522891998291,0.05893797054886818,-1.2945373058319092,1.2918668985366821,-0.015449759550392628,0.028038453310728073,0.3595407009124756
10.253681421279907,0.05893797054886818,-1.2945373058319092,1.2918668985366821,-0.015449759550392628,0.028038453310728073,0.3595407009124756
10.273685455322266,0.05893797054886818,-1.2945373058319092,1.2918668985366821,-0.01506828423589468,0.028038453310728073,0.3595407009124756
10.293776273727417,0.05893797054886818,-1.2945373058319092,1.2918668985366821,-0.01506828423589468,0.028038453310728073,0.3591592311859131
10.313854932785034,0.05893797054886818,-1.2945373058319092,1.2918668985366821,-0.01506828423589468,0.028038453310728073,0.3591592311859131
10.333942413330078,0.05893797054886818,-1.2945373058319092,1.2918668985366821,-0.01506828423589468,0.028038453310728073,0.3591592311859131
10.354169845581055,0.05893797054886818,-1.2945373058319092,1.2918668985366821,-0.01506828423589468,0.028038453310728073,0.3591592311859131
10.374168395996094,0.05893797054886818,-1.2945373058319092,1.2918668985366821,-0.014686808921396732,0.028038453310728073,0.3587777614593506
10.394260883331299,0.05893797054886818,-1.2945373058319092,1.2918668985366821,-0.014686808921396732,0.028038453310728073,0.3587777614593506
10.414344787597656,0.05893797054886818,-1.2945373058319092,1.2918668985366821,-0.014686808921396732,0.028038453310728073,0.3583962619304657
10.434478521347046,0.05893797054886818,-1.2945373058319092,1.2918668985366821,-0.014686808921396732,0.028038453310728073,0.3583962619304657
10.45454740524292,0.05893797054886818,-1.2945373058319092,1.2918668985366821,-0.014686808921396732,0.028038453310728073,0.3580147922039032
10.474641799926758,0.05893797054886818,-1.2945373058319092,1.2918668985366821,-0.01430533267557621,0.028038453310728073,0.3576333224773407
10.494669914245605,0.05893797054886818,-1.2945373058319092,1.2922483682632446,-0.01430533267557621,0.028038453310728073,0.3572518527507782
10.514795541763306,0.05855649709701538,-1.2945373058319092,1.2922483682632446,-0.01430533267557621,0.028038453310728073,0.3564889132976532
10.534879922866821,0.058175019919872284,-1.2945373058319092,1.2922483682632446,-0.013923857361078262,0.028038453310728073,0.3564889132976532
10.55511474609375,0.058175019919872284,-1.2945373058319092,1.2922483682632446,-0.013923857361078262,0.028038453310728073,0.3564889132976532
10.575230360031128,0.058175019919872284,-1.2945373058319092,1.2922483682632446,-0.013923857361078262,0.028038453310728073,0.3561074137687683
10.59528112411499,0.058175019919872284,-1.2945373058319092,1.2922483682632446,-0.013542382046580315,0.028038453310728073,0.3561074137687683
10.61537504196167,0.058175019919872284,-1.2945373058319092,1.2922483682632446,-0.013160906732082367,0.028038453310728073,0.3561074137687683
10.635442018508911,0.058175019919872284,-1.2945373058319092,1.2926298379898071,-0.013160906732082367,0.028038453310728073,0.3561074137687683
10.655545473098755,0.058175019919872284,-1.2945373058319092,1.2926298379898071,-0.012779430486261845,0.028038453310728073,0.3557259440422058
10.675638675689697,0.058175019919872284,-1.2945373058319092,1.2926298379898071,-0.012397955171763897,0.028038453310728073,0.3557259440422058
10.69570517539978,0.058175019919872284,-1.2945373058319092,1.2926298379898071,-0.01201647985726595,0.028038453310728073,0.3557259440422058
10.7158043384552,0.058175019919872284,-1.2945373058319092,1.2926298379898071,-0.01201647985726595,0.028038453310728073,0.3553444743156433
10.735901117324829,0.058175019919872284,-1.2945373058319092,1.2926298379898071,-0.01201647985726595,0.028038453310728073,0.3553444743156433
10.756038427352905,0.058175019919872284,-1.2945373058319092,1.2926298379898071,-0.011635004542768002,0.028038453310728073,0.3553444743156433
10.776151657104492,0.058175019919872284,-1.2945373058319092,1.2926298379898071,-0.011635004542768002,0.028038453310728073,0.3549630045890808
10.796215295791626,0.058175019919872284,-1.2945373058319092,1.2930114269256592,-0.011635004542768002,0.028038453310728073,0.3549630045890808
10.81629467010498,0.058175019919872284,-1.2945373058319092,1.2930114269256592,-0.011635004542768002,0.028038453310728073,0.3549630045890808
10.836377143859863,0.058175019919872284,-1.2945373058319092,1.2930114269256592,-0.011635004542768002,0.028038453310728073,0.3545815348625183
10.856428861618042,0.058175019919872284,-1.2945373058319092,1.2930114269256592,-0.011635004542768002,0.028038453310728073,0.3545815348625183
10.876539468765259,0.058175019919872284,-1.2945373058319092,1.2930114269256592,-0.011635004542768002,0.028038453310728073,0.3542000353336334
10.896553993225098,0.058175019919872284,-1.2945373058319092,1.2930114269256592,-0.011635004542768002,0.028038453310728073,0.3542000353336334
10.916630983352661,0.058175019919872284,-1.2945373058319092,1.2930114269256592,-0.011635004542768002,0.028038453310728073,0.3538185656070709
10.936713695526123,0.058175019919872284,-1.2945373058319092,1.2930114269256592,-0.01125352829694748,0.028038453310728073,0.3534370958805084
10.956767082214355,0.058175019919872284,-1.2945373058319092,1.2930114269256592,-0.01125352829694748,0.028038453310728073,0.3530556261539459
10.976856708526611,0.058175019919872284,-1.2945373058319092,1.2930114269256592,-0.01125352829694748,0.028038453310728073,0.3530556261539459
10.996934175491333,0.058175019919872284,-1.2945373058319092,1.2930114269256592,-0.01125352829694748,0.028038453310728073,0.3526741564273834
11.017045974731445,0.058175019919872284,-1.2945373058319092,1.2930114269256592,-0.01125352829694748,0.028038453310728073,0.3526741564273834
11.037127017974854,0.058175019919872284,-1.2945373058319092,1.2933928966522217,-0.01125352829694748,0.028038453310728073,0.3526741564273834
11.057177066802979,0.058175019919872284,-1.2945373058319092,1.2937743663787842,-0.01125352829694748,0.028038453310728073,0.3526741564273834
11.077409267425537,0.058175019919872284,-1.2945373058319092,1.2937743663787842,-0.010872052982449532,0.028038453310728073,0.3526741564273834
11.09752631187439,0.057793546468019485,-1.2945373058319092,1.2937743663787842,-0.010872052982449532,0.028038453310728073,0.35229265689849854
11.117516040802002,0.057793546468019485,-1.2945373058319092,1.2937743663787842,-0.010872052982449532,0.028038453310728073,0.35229265689849854
11.137652397155762,0.058175019919872284,-1.2945373058319092,1.2937743663787842,-0.010872052982449532,0.028038453310728073,0.35229265689849854
11.15774130821228,0.057793546468019485,-1.2945373058319092,1.2937743663787842,-0.010872052982449532,0.028038453310728073,0.35229265689849854
11.1778404712677,0.057793546468019485,-1.2945373058319092,1.2937743663787842,-0.010490577667951584,0.028038453310728073,0.35191118717193604
11.19788908958435,0.057793546468019485,-1.2945373058319092,1.2937743663787842,-0.010490577667951584,0.028038453310728073,0.35191118717193604
11.217994928359985,0.057793546468019485,-1.2945373058319092,1.2937743663787842,-0.010490577667951584,0.028038453310728073,0.35191118717193604
11.238060474395752,0.057793546468019485,-1.2945373058319092,1.2937743663787842,-0.010490577667951584,0.028038453310728073,0.35191118717193604
11.258194208145142,0.057793546468019485,-1.2945373058319092,1.2937743663787842,-0.010109102353453636,0.028038453310728073,0.35191118717193604
11.278228759765625,0.057793546468019485,-1.2945373058319092,1.2937743663787842,-0.010109102353453636,0.028038453310728073,0.35152971744537354
11.298410654067993,0.057793546468019485,-1.2945373058319092,1.2937743663787842,-0.010109102353453636,0.028038453310728073,0.35152971744537354
11.318544864654541,0.057793546468019485,-1.2945373058319092,1.2937743663787842,-0.009727626107633114,0.028038453310728073,0.35152971744537354
11.338606595993042,0.057793546468019485,-1.2945373058319092,1.2937743663787842,-0.009727626107633114,0.028038453310728073,0.35114824771881104
11.358713388442993,0.057793546468019485,-1.2945373058319092,1.2937743663787842,-0.009346150793135166,0.028038453310728073,0.35114824771881104
11.37877631187439,0.057793546468019485,-1.2945373058319092,1.2937743663787842,-0.008964675478637218,0.02841992862522602,0.35114824771881104
11.399026155471802,0.057793546468019485,-1.2945373058319092,1.2937743663787842,-0.00858320016413927,0.02841992862522602,0.35076677799224854
11.419198036193848,0.057793546468019485,-1.2945373058319092,1.2937743663787842,-0.008201723918318748,0.02841992862522602,0.35076677799224854
11.439218997955322,0.057793546468019485,-1.2945373058319092,1.2937743663787842,-0.008201723918318748,0.02841992862522602,0.35038527846336365
11.459320783615112,0.057793546468019485,-1.2945373058319092,1.2937743663787842,-0.0078202486038208,0.02841992862522602,0.35000380873680115
11.479448080062866,0.057793546468019485,-1.2945373058319092,1.2937743663787842,-0.0078202486038208,0.02841992862522602,0.34962233901023865
11.499839544296265,0.057793546468019485,-1.2945373058319092,1.2937743663787842,-0.0078202486038208,0.02841992862522602,0.34924086928367615
11.519996404647827,0.05741206929087639,-1.2945373058319092,1.2937743663787842,-0.0078202486038208,0.02841992862522602,0.34885939955711365
11.540012121200562,0.05741206929087639,-1.2945373058319092,1.2937743663787842,-0.0078202486038208,0.02841992862522602,0.34885939955711365
11.560188055038452,0.05741206929087639,-1.2945373058319092,1.2937743663787842,-0.0078202486038208,0.02841992862522602,0.34847790002822876
11.580849647521973,0.05741206929087639,-1.2945373058319092,1.2937743663787842,-0.0078202486038208,0.02841992862522602,0.34847790002822876
11.600934028625488,0.05741206929087639,-1.2945373058319092,1.2937743663787842,-0.0078202486038208,0.02880140393972397,0.34809643030166626
11.621070384979248,0.05741206929087639,-1.2945373058319092,1.2941558361053467,-0.007438773289322853,0.02880140393972397,0.34809643030166626
11.641106367111206,0.05741206929087639,-1.2945373058319092,1.2941558361053467,-0.007438773289322853,0.02841992862522602,0.34809643030166626
11.661174058914185,0.05741206929087639,-1.2949187755584717,1.2941558361053467,-0.007438773289322853,0.02880140393972397,0.34809643030166626
11.681265354156494,0.05741206929087639,-1.2949187755584717,1.2941558361053467,-0.007438773289322853,0.02841992862522602,0.34771496057510376
11.701366424560547,0.05741206929087639,-1.2949187755584717,1.2941558361053467,-0.007438773289322853,0.02841992862522602,0.34771496057510376
11.721719026565552,0.05741206929087639,-1.2945373058319092,1.2941558361053467,-0.007438773289322853,0.02880140393972397,0.34771496057510376
11.741816759109497,0.05741206929087639,-1.2949187755584717,1.2941558361053467,-0.007438773289322853,0.02880140393972397,0.34733349084854126
11.762084007263184,0.05741206929087639,-1.2949187755584717,1.2941558361053467,-0.007438773289322853,0.02880140393972397,0.34733349084854126
11.78222918510437,0.05741206929087639,-1.2949187755584717,1.2941558361053467,-0.007438773289322853,0.02880140393972397,0.34733349084854126
11.80227279663086,0.05741206929087639,-1.2949187755584717,1.2941558361053467,-0.007057297509163618,0.02880140393972397,0.34695202112197876
11.822389125823975,0.05741206929087639,-1.2949187755584717,1.2941558361053467,-0.007057297509163618,0.02880140393972397,0.34695202112197876
11.842427492141724,0.05741206929087639,-1.2949187755584717,1.2941558361053467,-0.007057297509163618,0.02880140393972397,0.34657052159309387
11.862521886825562,0.05741206929087639,-1.2949187755584717,1.2941558361053467,-0.007057297509163618,0.02880140393972397,0.34618905186653137
11.882671594619751,0.05741206929087639,-1.2949187755584717,1.2945373058319092,-0.00667582219466567,0.02880140393972397,0.34580758213996887
11.902682304382324,0.05741206929087639,-1.2949187755584717,1.2945373058319092,-0.00667582219466567,0.02880140393972397,0.34542611241340637
11.922779321670532,0.05741206929087639,-1.2949187755584717,1.2945373058319092,-0.00667582219466567,0.02880140393972397,0.34542611241340637
11.942888498306274,0.05741206929087639,-1.2949187755584717,1.2949187755584717,-0.00667582219466567,0.02880140393972397,0.34504464268684387
11.962970495223999,0.05741206929087639,-1.2949187755584717,1.2949187755584717,-0.006294346414506435,0.02880140393972397,0.34504464268684387
11.983100652694702,0.05741206929087639,-1.2949187755584717,1.2949187755584717,-0.006294346414506435,0.02880140393972397,0.34504464268684387
12.003280639648438,0.05741206929087639,-1.2949187755584717,1.2949187755584717,-0.006294346414506435,0.02880140393972397,0.34504464268684387
12.023344993591309,0.05741206929087639,-1.2949187755584717,1.2949187755584717,-0.005912871100008488,0.02880140393972397,0.34504464268684387
12.043784379959106,0.05741206929087639,-1.2949187755584717,1.2949187755584717,-0.005531395319849253,0.02880140393972397,0.344663143157959
12.063886165618896,0.05741206929087639,-1.2949187755584717,1.2949187755584717,-0.005531395319849253,0.02880140393972397,0.344663143157959
12.08417272567749,0.05741206929087639,-1.2949187755584717,1.2949187755584717,-0.005149920005351305,0.02880140393972397,0.344663143157959
12.104353427886963,0.05741206929087639,-1.2949187755584717,1.2949187755584717,-0.00476844422519207,0.02880140393972397,0.344663143157959
12.124512434005737,0.05741206929087639,-1.2949187755584717,1.2949187755584717,-0.00476844422519207,0.02880140393972397,0.344663143157959
12.144576072692871,0.05741206929087639,-1.2949187755584717,1.2949187755584717,-0.004386968910694122,0.02880140393972397,0.3442816734313965
12.164639949798584,0.05741206929087639,-1.2949187755584717,1.2949187755584717,-0.004386968910694122,0.02880140393972397,0.3442816734313965
12.184752464294434,0.05741206929087639,-1.2949187755584717,1.2949187755584717,-0.004386968910694122,0.02880140393972397,0.3442816734313965
12.204789400100708,0.05741206929087639,-1.2949187755584717,1.2949187755584717,-0.004386968910694122,0.02880140393972397,0.3442816734313965
12.22488260269165,0.05741206929087639,-1.2949187755584717,1.2949187755584717,-0.004386968910694122,0.02880140393972397,0.343900203704834
12.24494743347168,0.05741206929087639,-1.2949187755584717,1.2949187755584717,-0.004386968910694122,0.02880140393972397,0.343900203704834
12.265023708343506,0.05741206929087639,-1.2949187755584717,1.2949187755584717,-0.004386968910694122,0.02880140393972397,0.343900203704834
12.285110712051392,0.05741206929087639,-1.2949187755584717,1.2949187755584717,-0.004005493130534887,0.02880140393972397,0.343900203704834
12.305282592773438,0.05741206929087639,-1.2953002452850342,1.2949187755584717,-0.004386968910694122,0.02880140393972397,0.3435187339782715
12.325359582901001,0.05741206929087639,-1.2953002452850342,1.2949187755584717,-0.004005493130534887,0.02880140393972397,0.3435187339782715
12.345442295074463,0.05741206929087639,-1.2953002452850342,1.2949187755584717,-0.004005493130534887,0.02880140393972397,0.3435187339782715
12.365699291229248,0.05741206929087639,-1.2953002452850342,1.2953002452850342,-0.004005493130534887,0.02880140393972397,0.343137264251709
12.385786771774292,0.05741206929087639,-1.2953002452850342,1.2953002452850342,-0.004005493130534887,0.02880140393972397,0.343137264251709
12.405854225158691,0.05741206929087639,-1.2953002452850342,1.2953002452850342,-0.004005493130534887,0.02880140393972397,0.3427557647228241
12.425949335098267,0.05741206929087639,-1.2953002452850342,1.2953002452850342,-0.004005493130534887,0.02880140393972397,0.3423742949962616
12.446058511734009,0.05741206929087639,-1.2953002452850342,1.2953002452850342,-0.0036240178160369396,0.02880140393972397,0.3419928252696991
12.466176986694336,0.05703059583902359,-1.2953002452850342,1.2960631847381592,-0.0036240178160369396,0.02880140393972397,0.3416113555431366
12.486269235610962,0.05703059583902359,-1.2953002452850342,1.2960631847381592,-0.0036240178160369396,0.02880140393972397,0.3416113555431366
12.506340503692627,0.05703059583902359,-1.2953002452850342,1.2960631847381592,-0.0036240178160369396,0.02880140393972397,0.3412298858165741
12.526466131210327,0.05703059583902359,-1.2953002452850342,1.2960631847381592,-0.0036240178160369396,0.02880140393972397,0.3412298858165741
12.546588659286499,0.05703059583902359,-1.2953002452850342,1.2960631847381592,-0.0036240178160369396,0.02880140393972397,0.3412298858165741
12.566605567932129,0.05703059583902359,-1.2953002452850342,1.2960631847381592,-0.0036240178160369396,0.02880140393972397,0.3412298858165741
12.586698055267334,0.05703059583902359,-1.2953002452850342,1.2960631847381592,-0.0032425422687083483,0.02880140393972397,0.3408484160900116
12.606785774230957,0.05703059583902359,-1.2953002452850342,1.2960631847381592,-0.0032425422687083483,0.02880140393972397,0.3408484160900116
12.627036094665527,0.05703059583902359,-1.2953002452850342,1.2960631847381592,-0.0032425422687083483,0.02880140393972397,0.3408484160900116
12.647119760513306,0.05703059583902359,-1.2953002452850342,1.2960631847381592,-0.0032425422687083483,0.02880140393972397,0.3408484160900116
12.66721510887146,0.05703059583902359,-1.2953002452850342,1.2960631847381592,-0.002861066721379757,0.02880140393972397,0.3404669165611267
12.6872878074646,0.05703059583902359,-1.2953002452850342,1.2960631847381592,-0.002861066721379757,0.02880140393972397,0.3404669165611267
12.737529993057251,0.05703059583902359,-1.2953002452850342,1.2960631847381592,-0.002861066721379757,0.02880140393972397,0.3400854468345642
12.757609128952026,0.05703059583902359,-1.2953002452850342,1.2960631847381592,-0.0024795911740511656,0.02880140393972397,0.3400854468345642
12.777678489685059,0.05359731614589691,-1.2956817150115967,1.2960631847381592,-0.0024795911740511656,0.030708782374858856,0.3400854468345642
12.797760725021362,0.049782559275627136,-1.2956817150115967,1.2960631847381592,-0.0024795911740511656,0.03757534176111221,0.3400854468345642
12.817925214767456,0.04291599988937378,-1.2968261241912842,1.2960631847381592,-0.0024795911740511656,0.040627144277095795,0.3400854468345642
12.838064908981323,0.03490501269698143,-1.2983520030975342,1.2960631847381592,-0.0024795911740511656,0.04253452271223068,0.3400854468345642
12.858093976974487,0.02384222112596035,-1.3002593517303467,1.2956817150115967,-0.002861066721379757,0.04482337832450867,0.3400854468345642
12.87827730178833,0.01201647985726595,-1.3017853498458862,1.2949187755584717,-0.002861066721379757,0.04291599988937378,0.3404669165611267
12.898377180099487,-0.0024795911740511656,-1.3040741682052612,1.2941558361053467,-0.002861066721379757,0.040627144277095795,0.3404669165611267
12.91864013671875,-0.01773861236870289,-1.3056000471115112,1.2937743663787842,-0.002861066721379757,0.03604944050312042,0.3408484160900116
12.938744068145752,-0.03452353551983833,-1.3078888654708862,1.2926298379898071,-0.002861066721379757,0.03376058489084244,0.3412298858165741
12.958799362182617,-0.04940108209848404,-1.3090333938598633,1.2918668985366821,-0.002861066721379757,0.02727550081908703,0.3416113555431366
12.978907346725464,-0.06466010212898254,-1.3109407424926758,1.2918668985366821,-0.002861066721379757,0.01888304017484188,0.343137264251709
12.998965978622437,-0.07648584991693497,-1.3136110305786133,1.2918668985366821,-0.002861066721379757,0.013923857361078262,0.34542611241340637
13.01905083656311,-0.086785688996315,-1.3162813186645508,1.2911039590835571,-0.002861066721379757,0.00858320016413927,0.34771496057510376
13.039136171340942,-0.09517814964056015,-1.3189517259597778,1.2899595499038696,-0.002861066721379757,0.007057297509163618,0.35152971744537354
13.059291124343872,-0.1039520874619484,-1.3208590745925903,1.2895780801773071,-0.0032425422687083483,0.007438773289322853,0.3557259440422058
13.079322338104248,-0.11158160120248795,-1.3242924213409424,1.2876707315444946,-0.0036240178160369396,0.01125352829694748,0.3580147922039032
13.099579334259033,-0.1188296303153038,-1.3261997699737549,1.2872892618179321,-0.004005493130534887,0.01506828423589468,0.361066609621048
13.119716882705688,-0.12722209095954895,-1.3284885883331299,1.2861448526382446,-0.005531395319849253,0.022697795182466507,0.36335545778274536
13.139944076538086,-0.1356145590543747,-1.3296329975128174,1.2853819131851196,-0.007438773289322853,0.03376058489084244,0.36640727519989014
13.160043478012085,-0.14515145123004913,-1.3315403461456299,1.284618854522705,-0.00858320016413927,0.038719769567251205,0.3694590628147125
13.180123567581177,-0.15430685877799988,-1.3330663442611694,1.28385591506958,-0.009727626107633114,0.04139009863138199,0.3721294105052948
13.200217485427856,-0.16422522068023682,-1.334973692893982,1.2834744453430176,-0.011635004542768002,0.04482337832450867,0.3759441375732422
13.22032356262207,-0.17299915850162506,-1.336499571800232,1.2819485664367676,-0.01201647985726595,0.04482337832450867,0.37975889444351196
13.240406036376953,-0.1813916265964508,-1.3376439809799194,1.281567096710205,-0.012397955171763897,0.04329747334122658,0.38357365131378174
13.26067852973938,-0.18902114033699036,-1.339551329612732,1.2804226875305176,-0.012779430486261845,0.03757534176111221,0.3877699077129364
13.281038522720337,-0.19550621509552002,-1.340695858001709,1.2796597480773926,-0.013160906732082367,0.03528648987412453,0.3912031650543213
13.30112886428833,-0.20237277448177338,-1.3426032066345215,1.27927827835083,-0.014686808921396732,0.035667963325977325,0.39501792192459106
13.32121205329895,-0.20847637951374054,-1.3441290855407715,1.27927827835083,-0.014686808921396732,0.03795681521296501,0.39768826961517334
13.341398000717163,-0.2141985148191452,-1.345273494720459,1.2788968086242676,-0.015449759550392628,0.045204851776361465,0.3995956480503082
13.361485481262207,-0.21953918039798737,-1.346799373626709,1.27775239944458,-0.01583123579621315,0.05283436179161072,0.4026474356651306
13.38153624534607,-0.22449836134910583,-1.3483253717422485,1.2769893407821655,-0.01583123579621315,0.05741206929087639,0.4064621925354004
13.40162205696106,-0.2302204966545105,-1.349469780921936,1.276607871055603,-0.016975661739706993,0.06542305648326874,0.40989547967910767
13.421753406524658,-0.23632410168647766,-1.350995659828186,1.275844931602478,-0.018501564860343933,0.0711451917886734,0.41256579756736755
13.44193434715271,-0.24204623699188232,-1.3521400690078735,1.275081992149353,-0.018501564860343933,0.07419699430465698,0.41447317600250244
13.462079286575317,-0.24891279637813568,-1.3536659479141235,1.275081992149353,-0.018501564860343933,0.07610437273979187,0.4171435236930847
13.482450485229492,-0.25654229521751404,-1.354810357093811,1.275081992149353,-0.018501564860343933,0.07915617525577545,0.4205767810344696
13.50267481803894,-0.2630273997783661,-1.355954885482788,1.275081992149353,-0.018120087683200836,0.07915617525577545,0.4243915379047394
13.522642850875854,-0.26798656582832336,-1.3570992946624756,1.275081992149353,-0.018120087683200836,0.07839322835206985,0.42629891633987427
13.542718172073364,-0.27141985297203064,-1.3578622341156006,1.275081992149353,-0.018120087683200836,0.07801175117492676,0.43125811219215393
13.562923669815063,-0.2756160795688629,-1.3586251735687256,1.275081992149353,-0.01735713705420494,0.08144503086805344,0.4346913993358612
13.582950353622437,-0.2775234580039978,-1.3593881130218506,1.275081992149353,-0.016594186425209045,0.08449683338403702,0.4362172782421112
13.60312271118164,-0.2801937758922577,-1.3601510524749756,1.2754634618759155,-0.015449759550392628,0.08983749151229858,0.438506156206131
13.623268842697144,-0.2821011543273926,-1.3609139919281006,1.275081992149353,-0.014686808921396732,0.09899290651082993,0.439269095659256
13.643674612045288,-0.28362706303596497,-1.362058401107788,1.275081992149353,-0.013923857361078262,0.10700388997793198,0.440032035112381
13.663816452026367,-0.28629741072654724,-1.362821340560913,1.275081992149353,-0.012397955171763897,0.11501488089561462,0.44232088327407837
13.684260368347168,-0.28896772861480713,-1.3635843992233276,1.275081992149353,-0.01125352829694748,0.12188144028186798,0.44422826170921326
13.704370260238647,-0.2924010157585144,-1.3643473386764526,1.275081992149353,-0.010109102353453636,0.12760357558727264,0.44689860939979553
13.72442102432251,-0.2973601818084717,-1.3654917478561401,1.275081992149353,-0.009346150793135166,0.13103684782981873,0.4499503970146179
13.744521379470825,-0.30155640840530396,-1.3666361570358276,1.275081992149353,-0.007057297509163618,0.13179980218410492,0.4518577754497528
13.764583110809326,-0.3061341345310211,-1.3673990964889526,1.275081992149353,-0.005912871100008488,0.13103684782981873,0.45643550157546997
13.78475022315979,-0.3103303611278534,-1.3685435056686401,1.275081992149353,-0.0036240178160369396,0.12836651504039764,0.45948728919029236
13.804886102676392,-0.3133821487426758,-1.3696879148483276,1.275081992149353,-0.0024795911740511656,0.12798504531383514,0.46177613735198975
13.824951887130737,-0.31414511799812317,-1.3704508543014526,1.275081992149353,-0.0013351644156500697,0.12989242374897003,0.4640650153160095
13.845067024230957,-0.31528952717781067,-1.3708323240280151,1.275081992149353,0.00019073777366429567,0.13218127191066742,0.465209424495697
13.865155935287476,-0.31528952717781067,-1.3712139129638672,1.275081992149353,0.00019073777366429567,0.13790340721607208,0.465209424495697
13.885228395462036,-0.31528952717781067,-1.3719768524169922,1.275081992149353,0.0009536888683214784,0.14515145123004913,0.4655908942222595
13.9053213596344,-0.31490805745124817,-1.3727397918701172,1.275081992149353,0.001716639962978661,0.15506981313228607,0.4671168029308319
13.925399780273438,-0.31567102670669556,-1.3735027313232422,1.2754634618759155,0.0032425422687083483,0.16422522068023682,0.4690241813659668
13.94560956954956,-0.31681543588638306,-1.3746471405029297,1.2754634618759155,0.004005493130534887,0.17032882571220398,0.4705500900745392
13.965697765350342,-0.31834134459495544,-1.3757915496826172,1.2754634618759155,0.00476844422519207,0.17490653693675995,0.4728389382362366
13.985786437988281,-0.32063019275665283,-1.3765544891357422,1.2754634618759155,0.006294346414506435,0.17833982408046722,0.47512778639793396
14.006155490875244,-0.3225375711917877,-1.3776988983154297,1.2754634618759155,0.008201723918318748,0.17795833945274353,0.47703516483306885
14.026256084442139,-0.32520791888237,-1.3784618377685547,1.275844931602478,0.009346150793135166,0.17757686972618103,0.47856107354164124
14.046324729919434,-0.3278782367706299,-1.3792248964309692,1.2762264013290405,0.011635004542768002,0.17605096101760864,0.4812313914299011
14.066381931304932,-0.32978561520576477,-1.3803693056106567,1.2762264013290405,0.012779430486261845,0.17757686972618103,0.4839017391204834
14.086493968963623,-0.33321890234947205,-1.3811322450637817,1.276607871055603,0.014686808921396732,0.17986571788787842,0.4842832088470459
14.106549978256226,-0.33436331152915955,-1.3822766542434692,1.2769893407821655,0.01583123579621315,0.1844434291124344,0.4850461483001709
14.126633644104004,-0.33512628078460693,-1.3830395936965942,1.2773709297180176,0.01735713705420494,0.18673227727413177,0.4873350262641907
14.14669680595398,-0.33512628078460693,-1.3845654726028442,1.2773709297180176,0.01926451548933983,0.19016556441783905,0.4892423748970032
14.166781187057495,-0.33512628078460693,-1.3857098817825317,1.27775239944458,0.020027466118335724,0.19512474536895752,0.49076828360557556
14.18687105178833,-0.33474478125572205,-1.3868544101715088,1.27775239944458,0.021171892061829567,0.200083926320076,0.49114975333213806
14.206931114196777,-0.33474478125572205,-1.3879988193511963,1.2781338691711426,0.02231631986796856,0.20542457699775696,0.49191272258758545
14.227039575576782,-0.33512628078460693,-1.3887617588043213,1.2781338691711426,0.023460745811462402,0.21076524257659912,0.49305713176727295
14.247102737426758,-0.33627068996429443,-1.3895246982574463,1.278515338897705,0.024986648932099342,0.2145799994468689,0.49458304047584534
14.267421007156372,-0.3374151289463043,-1.3906691074371338,1.27927827835083,0.026512550190091133,0.21915769577026367,0.4957274794578552
14.287522315979004,-0.3389410376548767,-1.3914320468902588,1.280041217803955,0.02689402550458908,0.22182802855968475,0.4987792670726776
14.307566404342651,-0.3404669165611267,-1.3925764560699463,1.28080415725708,0.02841992862522602,0.22182802855968475,0.50030517578125
14.327746629714966,-0.3419928252696991,-1.3933393955230713,1.28080415725708,0.030708782374858856,0.22182802855968475,0.5022125840187073
14.347768068313599,-0.3435187339782715,-1.3944838047027588,1.28080415725708,0.03223468363285065,0.22182802855968475,0.5029755234718323
14.367897033691406,-0.34504464268684387,-1.3952468633651733,1.281567096710205,0.03376058489084244,0.22259098291397095,0.5041199326515198
14.387993812561035,-0.34733349084854126,-1.3963912725448608,1.281567096710205,0.03490501269698143,0.22564278542995453,0.5071717500686646
