liuyurong129/humanoid-gym/humanoid/data/actual_q_20250521-032801.csv
timestamp,joint_1,joint_2,joint_3,joint_4,joint_5,joint_6
0.00013828277587890625,-0.00019073777366429567,0.1661325991153717,-0.08335240930318832,-0.007057297509163618,0.05207141116261482,-0.000572213320992887
0.020216703414916992,0.00019073777366429567,0.14248111844062805,-0.07343403995037079,-0.007057297509163618,0.04901960864663124,-0.000572213320992887
0.04033041000366211,-0.00019073777366429567,0.12111848592758179,-0.06389715522527695,-0.007057297509163618,0.04711223021149635,-0.000572213320992887
0.06038379669189453,0.00019073777366429567,0.10776684433221817,-0.057793546468019485,-0.007057297509163618,0.0394827201962471,-0.000572213320992887
0.08046197891235352,-0.00019073777366429567,0.09784847497940063,-0.051689937710762024,-0.007057297509163618,0.03147173300385475,-0.000572213320992887
0.10056281089782715,-0.00019073777366429567,0.09021896868944168,-0.04596780240535736,-0.00667582219466567,0.02536812424659729,-0.000572213320992887
0.12137675285339355,-0.00019073777366429567,0.08144503086805344,-0.042153049260377884,-0.005912871100008488,0.025749599561095238,-0.000572213320992887
0.14146685600280762,-0.00019073777366429567,0.07457847148180008,-0.040245670825242996,-0.005912871100008488,0.018501564860343933,-0.00019073777366429567
0.16152238845825195,-0.001716639962978661,0.06008239835500717,-0.03757534176111221,-0.006294346414506435,0.023079270496964455,-0.00019073777366429567
0.18161487579345703,-0.0024795911740511656,0.05359731614589691,-0.03757534176111221,-0.00667582219466567,0.026131074875593185,-0.000572213320992887
0.20168137550354004,-0.004005493130534887,0.039101243019104004,-0.03490501269698143,-0.007057297509163618,0.02727550081908703,-0.0009536888683214784
0.22179841995239258,-0.004386968910694122,0.032616160809993744,-0.03337911143898964,-0.007057297509163618,0.02880140393972397,-0.0020981156267225742
0.2418808937072754,-0.005531395319849253,0.02193484455347061,-0.03032730519771576,-0.007057297509163618,0.02994582988321781,-0.0032425422687083483
0.26192617416381836,-0.0078202486038208,0.009727626107633114,-0.027656977996230125,-0.007438773289322853,0.02994582988321781,-0.0032425422687083483
0.28201842308044434,-0.008201723918318748,0.00019073777366429567,-0.02536812424659729,-0.007438773289322853,0.02841992862522602,-0.0032425422687083483
0.30207014083862305,-0.011635004542768002,-0.016594186425209045,-0.023079270496964455,-0.0078202486038208,0.02880140393972397,-0.004005493130534887
0.32218122482299805,-0.013160906732082367,-0.02536812424659729,-0.02193484455347061,-0.008964675478637218,0.02841992862522602,-0.004386968910694122
0.3422577381134033,-0.015449759550392628,-0.045204851776361465,-0.018120087683200836,-0.010872052982449532,0.028038453310728073,-0.005912871100008488
0.3623385429382324,-0.016975661739706993,-0.0558861680328846,-0.01506828423589468,-0.01125352829694748,0.028038453310728073,-0.006294346414506435
0.382415771484375,-0.01926451548933983,-0.07038223743438721,-0.010872052982449532,-0.01201647985726595,0.028038453310728073,-0.00667582219466567
0.4024684429168701,-0.02193484455347061,-0.0864042118191719,-0.007057297509163618,-0.012397955171763897,0.028038453310728073,-0.00667582219466567
0.4225749969482422,-0.022697795182466507,-0.09975585341453552,-0.0032425422687083483,-0.014686808921396732,0.027656977996230125,-0.00667582219466567
0.4426307678222656,-0.026512550190091133,-0.12149996310472488,0.0013351644156500697,-0.015449759550392628,0.02841992862522602,-0.007438773289322853
0.4627187252044678,-0.029182879254221916,-0.1367589831352234,0.005149920005351305,-0.01773861236870289,0.02841992862522602,-0.007438773289322853
0.48279261589050293,-0.03147173300385475,-0.16079194843769073,0.01125352829694748,-0.01926451548933983,0.02841992862522602,-0.00858320016413927
0.5028622150421143,-0.03223468363285065,-0.17643244564533234,0.015449759550392628,-0.01888304017484188,0.02841992862522602,-0.00858320016413927
0.5229442119598389,-0.03490501269698143,-0.1997024416923523,0.023079270496964455,-0.02040894143283367,0.027656977996230125,-0.010109102353453636
0.5430257320404053,-0.03757534176111221,-0.22297245264053345,0.02994582988321781,-0.021171892061829567,0.028038453310728073,-0.01125352829694748
0.5631160736083984,-0.0394827201962471,-0.247768372297287,0.040245670825242996,-0.023460745811462402,0.028038453310728073,-0.011635004542768002
0.5831754207611084,-0.043678950518369675,-0.2821011543273926,0.05054550990462303,-0.024223696440458298,0.02880140393972397,-0.013542382046580315
0.6032669544219971,-0.04482337832450867,-0.30422675609588623,0.05893797054886818,-0.02689402550458908,0.028038453310728073,-0.013923857361078262
0.6233434677124023,-0.04901960864663124,-0.3423742949962616,0.07343403995037079,-0.027656977996230125,0.029182879254221916,-0.01506828423589468
0.6433959007263184,-0.05207141116261482,-0.3759441375732422,0.08373387902975082,-0.02994582988321781,0.02880140393972397,-0.01583123579621315
0.6634743213653564,-0.0555046908557415,-0.41332876682281494,0.09861142933368683,-0.030708782374858856,0.02880140393972397,-0.018501564860343933
0.6835072040557861,-0.058175019919872284,-0.4526207447052002,0.11234454810619354,-0.03147173300385475,0.02841992862522602,-0.01888304017484188
0.7035975456237793,-0.05970092490315437,-0.4888609051704407,0.13027389347553253,-0.03528648987412453,0.026512550190091133,-0.02040894143283367
0.7236471176147461,-0.06351567804813385,-0.5392156839370728,0.1501106321811676,-0.03604944050312042,0.026512550190091133,-0.022697795182466507
0.7437307834625244,-0.06427863240242004,-0.579270601272583,0.1684214472770691,-0.0394827201962471,0.026512550190091133,-0.022697795182466507
0.7638041973114014,-0.06694895774126053,-0.6303883194923401,0.19207294285297394,-0.0398641936480999,0.026131074875593185,-0.024986648932099342
0.7838680744171143,-0.06809338182210922,-0.6677729487419128,0.20733195543289185,-0.04253452271223068,0.026131074875593185,-0.025749599561095238
0.8039488792419434,-0.0707637146115303,-0.7143129706382751,0.2317463904619217,-0.04444190114736557,0.026512550190091133,-0.02727550081908703
0.8239970207214355,-0.0722896158695221,-0.7566567659378052,0.248531311750412,-0.04482337832450867,0.025749599561095238,-0.02880140393972397
0.8440911769866943,-0.07305257022380829,-0.7856488823890686,0.2660791873931885,-0.04634927958250046,0.02536812424659729,-0.02994582988321781
0.8641402721405029,-0.07305257022380829,-0.8207446336746216,0.2809567451477051,-0.04596780240535736,0.024986648932099342,-0.03032730519771576
0.8842251300811768,-0.07305257022380829,-0.8398184180259705,0.2935454249382019,-0.04749370738863945,0.02193484455347061,-0.030708782374858856
0.9043552875518799,-0.07343403995037079,-0.8634698987007141,0.3072785437107086,-0.048256658017635345,0.02079041674733162,-0.031090257689356804
0.9244160652160645,-0.07381551712751389,-0.8749141693115234,0.3133821487426758,-0.04901960864663124,0.022697795182466507,-0.03185320645570755
0.9444828033447266,-0.07495994865894318,-0.8836880922317505,0.3213931620121002,-0.04901960864663124,0.022697795182466507,-0.03299763426184654
0.9645333290100098,-0.07572289556264877,-0.8936064839363098,0.3278782367706299,-0.04940108209848404,0.02384222112596035,-0.03299763426184654
0.9846301078796387,-0.07610437273979187,-0.8989471197128296,0.33436331152915955,-0.049782559275627136,0.02384222112596035,-0.03299763426184654
1.0046827793121338,-0.07763027399778366,-0.9061951637268066,0.3404669165611267,-0.050164032727479935,0.02536812424659729,-0.03299763426184654
1.0247726440429688,-0.07763027399778366,-0.9081025123596191,0.34504464268684387,-0.05130846053361893,0.026512550190091133,-0.03299763426184654
1.044844627380371,-0.07724879682064056,-0.9122987985610962,0.3530556261539459,-0.05245288833975792,0.02536812424659729,-0.03337911143898964
1.0649232864379883,-0.07801175117492676,-0.9157320261001587,0.3587777614593506,-0.05283436179161072,0.02536812424659729,-0.03337911143898964
1.085031270980835,-0.07839322835206985,-0.9172579646110535,0.36526283621788025,-0.053215838968753815,0.024223696440458298,-0.03376058489084244
1.1050682067871094,-0.07877469807863235,-0.9214541912078857,0.3713664412498474,-0.05397878959774971,0.023079270496964455,-0.03376058489084244
1.125166893005371,-0.07877469807863235,-0.924124538898468,0.37899595499038696,-0.0555046908557415,0.02231631986796856,-0.03376058489084244
1.145226240158081,-0.07953765243291855,-0.9287022352218628,0.3866254687309265,-0.056267641484737396,0.021553369238972664,-0.03376058489084244
1.1653156280517578,-0.07953765243291855,-0.9302281141281128,0.3919661343097687,-0.05664911866188049,0.021171892061829567,-0.034142062067985535
1.1854019165039062,-0.07991912961006165,-0.9332799315452576,0.4007400572299957,-0.057793546468019485,0.018120087683200836,-0.03452353551983833
1.2054665088653564,-0.08030059933662415,-0.9363317489624023,0.4060807228088379,-0.05893797054886818,0.01888304017484188,-0.03490501269698143
1.2255654335021973,-0.08030059933662415,-0.9390020370483398,0.41409170627593994,-0.06008239835500717,0.016975661739706993,-0.035667963325977325
1.2456188201904297,-0.08030059933662415,-0.9435797929763794,0.4217212200164795,-0.06046387553215027,0.01583123579621315,-0.03604944050312042
1.2657089233398438,-0.08068207651376724,-0.9466315507888794,0.42973220348358154,-0.06275273114442825,0.01506828423589468,-0.03681239113211632
1.2857739925384521,-0.08068207651376724,-0.9515907764434814,0.438506156206131,-0.06389715522527695,0.013923857361078262,-0.037193864583969116
1.3058555126190186,-0.08068207651376724,-0.954261064529419,0.44537270069122314,-0.06466010212898254,0.013923857361078262,-0.037193864583969116
1.3259382247924805,-0.08068207651376724,-0.9580758213996887,0.4552910625934601,-0.06694895774126053,0.01125352829694748,-0.03795681521296501
1.346006155014038,-0.08106355369091034,-0.962272047996521,0.46177613735198975,-0.06809338182210922,0.010872052982449532,-0.03795681521296501
1.3660855293273926,-0.08106355369091034,-0.9657053351402283,0.4709315598011017,-0.06847485899925232,0.009727626107633114,-0.039101243019104004
1.3861398696899414,-0.08182650804519653,-0.9714275002479553,0.4797055125236511,-0.06923781335353851,0.008201723918318748,-0.0398641936480999
1.4062292575836182,-0.08182650804519653,-0.9748607873916626,0.4892423748970032,-0.0715266615152359,0.008201723918318748,-0.040245670825242996
1.4262974262237549,-0.08258945494890213,-0.9813458323478699,0.4999237060546875,-0.0722896158695221,0.006294346414506435,-0.04100862145423889
1.446380853652954,-0.08297093212604523,-0.9843976497650146,0.507553219795227,-0.07267109304666519,0.006294346414506435,-0.04100862145423889
1.466458797454834,-0.08335240930318832,-0.9889753460884094,0.5178530812263489,-0.07495994865894318,0.00476844422519207,-0.04139009863138199
1.4865407943725586,-0.08373387902975082,-0.9939345121383667,0.5251010656356812,-0.07534141838550568,0.002861066721379757,-0.04139009863138199
1.5066075325012207,-0.08411535620689392,-0.9981307983398438,0.534637987613678,-0.07648584991693497,0.0024795911740511656,-0.042153049260377884
1.526660442352295,-0.08487831056118011,-1.0049973726272583,0.543411910533905,-0.07763027399778366,0.0013351644156500697,-0.04253452271223068
1.5467517375946045,-0.08487831056118011,-1.0088120698928833,0.5540932416915894,-0.07877469807863235,0.0013351644156500697,-0.04329747334122658
1.5668163299560547,-0.08525978773832321,-1.0164415836334229,0.5666819214820862,-0.07991912961006165,-0.000572213320992887,-0.04444190114736557
1.5869040489196777,-0.08564125746488571,-1.019874930381775,0.5743114352226257,-0.08068207651376724,-0.000572213320992887,-0.04482337832450867
1.6069884300231934,-0.08564125746488571,-1.0255969762802124,0.5861371755599976,-0.08258945494890213,-0.001716639962978661,-0.045204851776361465
1.6270616054534912,-0.08564125746488571,-1.031700611114502,0.5941481590270996,-0.08335240930318832,-0.0024795911740511656,-0.04558632895350456
1.6471407413482666,-0.08525978773832321,-1.036659836769104,0.6055924296379089,-0.08564125746488571,-0.0024795911740511656,-0.04749370738863945
1.6671948432922363,-0.08564125746488571,-1.045433759689331,0.6166552305221558,-0.086785688996315,-0.005149920005351305,-0.048256658017635345
1.687291145324707,-0.08564125746488571,-1.050011396408081,0.6280995011329651,-0.08907453715801239,-0.00476844422519207,-0.048638131469488144
1.7073614597320557,-0.08525978773832321,-1.0584038496017456,0.6410696506500244,-0.09060044586658478,-0.00858320016413927,-0.048638131469488144
1.7274503707885742,-0.08564125746488571,-1.0626001358032227,0.649462103843689,-0.09136339277029037,-0.008964675478637218,-0.04901960864663124
1.7475242614746094,-0.08564125746488571,-1.0690852403640747,0.6635767221450806,-0.09441519528627396,-0.01506828423589468,-0.04940108209848404
1.767599105834961,-0.08564125746488571,-1.0767147541046143,0.6723506450653076,-0.09479667246341705,-0.018120087683200836,-0.04940108209848404
1.7876918315887451,-0.08564125746488571,-1.0820554494857788,0.6857023239135742,-0.09746700525283813,-0.018501564860343933,-0.05054550990462303
1.8077375888824463,-0.08564125746488571,-1.0912108421325684,0.6963835954666138,-0.09822995215654373,-0.02193484455347061,-0.05130846053361893
1.8278257846832275,-0.08564125746488571,-1.0973143577575684,0.7101167440414429,-0.09899290651082993,-0.022697795182466507,-0.05245288833975792
1.8478825092315674,-0.08564125746488571,-1.1057069301605225,0.7238498330116272,-0.1024261862039566,-0.02727550081908703,-0.05245288833975792
1.8679754734039307,-0.08564125746488571,-1.1110475063323975,0.7330052852630615,-0.1039520874619484,-0.027656977996230125,-0.05245288833975792
1.8880481719970703,-0.08525978773832321,-1.1175326108932495,0.7459754347801208,-0.10738536715507507,-0.03032730519771576,-0.05359731614589691
1.9081249237060547,-0.08525978773832321,-1.1255435943603516,0.7558938264846802,-0.10929274559020996,-0.032616160809993744,-0.0558861680328846
1.928206443786621,-0.08449683338403702,-1.1327916383743286,0.7703898549079895,-0.11272602528333664,-0.03299763426184654,-0.05664911866188049
1.9482591152191162,-0.08449683338403702,-1.1427099704742432,0.7829785346984863,-0.11539635062217712,-0.039101243019104004,-0.05703059583902359
1.9683558940887451,-0.08449683338403702,-1.1488136053085327,0.7970931529998779,-0.1180666834115982,-0.03833829239010811,-0.05893797054886818
1.9884541034698486,-0.08411535620689392,-1.1583504676818848,0.8127336502075195,-0.12264438718557358,-0.04329747334122658,-0.05893797054886818
2.0085411071777344,-0.08373387902975082,-1.1648355722427368,0.8257037997245789,-0.12455176562070847,-0.04596780240535736,-0.059319447726011276
2.0286173820495605,-0.08258945494890213,-1.1720836162567139,0.8432517051696777,-0.12951095402240753,-0.049782559275627136,-0.05970092490315437
2.0486907958984375,-0.08106355369091034,-1.181620478630066,0.8550774455070496,-0.13218127191066742,-0.05436026677489281,-0.06008239835500717
2.0687718391418457,-0.08030059933662415,-1.1884870529174805,0.8707179427146912,-0.1356145590543747,-0.0551232174038887,-0.06084534898400307
2.0888092517852783,-0.07801175117492676,-1.19916832447052,0.8848325610160828,-0.14019227027893066,-0.06198977679014206,-0.06046387553215027
2.1089022159576416,-0.07686731964349747,-1.2083238363265991,0.9004730582237244,-0.14286258816719055,-0.06237125024199486,-0.06237125024199486
2.1289756298065186,-0.07381551712751389,-1.2193865776062012,0.9199283123016357,-0.1516365259885788,-0.06885633617639542,-0.06313420087099075
2.1490490436553955,-0.0722896158695221,-1.2273975610733032,0.9332799315452576,-0.15316243469715118,-0.0711451917886734,-0.06542305648326874
2.1691226959228516,-0.06961929053068161,-1.2365529537200928,0.9538795948028564,-0.16117341816425323,-0.07648584991693497,-0.06618601083755493
2.189302444458008,-0.06733043491840363,-1.2483787536621094,0.9691386222839355,-0.1668955534696579,-0.08525978773832321,-0.06694895774126053
2.2093935012817383,-0.06542305648326874,-1.256771206855774,0.9885938763618469,-0.17299915850162506,-0.08564125746488571,-0.06809338182210922
2.2294344902038574,-0.06466010212898254,-1.269359827041626,1.0072861909866333,-0.1817730963230133,-0.09784847497940063,-0.06771191209554672
2.2495241165161133,-0.06466010212898254,-1.278515338897705,1.0255969762802124,-0.1848248988389969,-0.09822995215654373,-0.06961929053068161
2.2695910930633545,-0.06237125024199486,-1.2899595499038696,1.0496299266815186,-0.19550621509552002,-0.10662241280078888,-0.06847485899925232
2.2896668910980225,-0.061226826161146164,-1.3002593517303467,1.0652704238891602,-0.200083926320076,-0.11730372905731201,-0.06961929053068161
2.3097474575042725,-0.05855649709701538,-1.3086519241333008,1.0896848440170288,-0.20809490978717804,-0.12188144028186798,-0.06923781335353851
2.3297948837280273,-0.0555046908557415,-1.3208590745925903,1.1087586879730225,-0.21801327168941498,-0.13103684782981873,-0.06885633617639542
2.3498871326446533,-0.05245288833975792,-1.3303959369659424,1.1312657594680786,-0.22716869413852692,-0.1329442262649536,-0.06885633617639542
2.369941234588623,-0.04711223021149635,-1.342221736907959,1.1564431190490723,-0.2443350851535797,-0.14820325374603271,-0.06847485899925232
2.3900370597839355,-0.04291599988937378,-1.351758599281311,1.1774243116378784,-0.25349050760269165,-0.1501106321811676,-0.07000076025724411
2.410109519958496,-0.039101243019104004,-1.3601510524749756,1.19764244556427,-0.27103838324546814,-0.14744029939174652,-0.07038223743438721
2.4301955699920654,-0.03490501269698143,-1.3696879148483276,1.2174792289733887,-0.28553444147109985,-0.1516365259885788,-0.07305257022380829
2.450273275375366,-0.03337911143898964,-1.3754100799560547,1.2300678491592407,-0.30079346895217896,-0.13942931592464447,-0.07572289556264877
2.4712159633636475,-0.032616160809993744,-1.3788433074951172,1.2415121793746948,-0.3130006790161133,-0.13179980218410492,-0.08068207651376724
2.4913454055786133,-0.03337911143898964,-1.3811322450637817,1.2457083463668823,-0.3221561014652252,-0.12149996310472488,-0.08564125746488571
2.5351548194885254,-0.04329747334122658,-1.3910505771636963,1.2483787536621094,-0.3404669165611267,-0.09174486994743347,-0.09174486994743347
2.555238962173462,-0.04711223021149635,-1.3948653936386108,1.2479972839355469,-0.3442816734313965,-0.08297093212604523,-0.09479667246341705
2.5752904415130615,-0.05245288833975792,-1.3998245000839233,1.2479972839355469,-0.34771496057510376,-0.06885633617639542,-0.09441519528627396
2.595386266708374,-0.0558861680328846,-1.4032578468322754,1.2510490417480469,-0.35229265689849854,-0.06275273114442825,-0.09555962681770325
2.6154558658599854,-0.05397878959774971,-1.403639316558838,1.2594414949417114,-0.3576333224773407,-0.05245288833975792,-0.09555962681770325
2.6355338096618652,-0.05855649709701538,-1.403639316558838,1.263256311416626,-0.36335545778274536,-0.048638131469488144,-0.09517814964056015
2.6556177139282227,-0.05855649709701538,-1.4013503789901733,1.2674524784088135,-0.3686961233615875,-0.04139009863138199,-0.09441519528627396
2.6758298873901367,-0.05855649709701538,-1.402876377105713,1.269741415977478,-0.3744182586669922,-0.035667963325977325,-0.09327077120542526
2.695930242538452,-0.06008239835500717,-1.405928134918213,1.272030234336853,-0.37975889444351196,-0.026131074875593185,-0.09288929402828217
2.7159810066223145,-0.06160829961299896,-1.41165030002594,1.274319052696228,-0.3847180902957916,-0.016975661739706993,-0.09174486994743347
2.736079454421997,-0.06351567804813385,-1.4150835275650024,1.2773709297180176,-0.3889143168926239,-0.007438773289322853,-0.09060044586658478
2.7561328411102295,-0.06504157930612564,-1.416990876197815,1.2788968086242676,-0.39387351274490356,0.0013351644156500697,-0.0879301130771637
2.7762210369110107,-0.06847485899925232,-1.4173723459243774,1.2827115058898926,-0.39806973934173584,0.0078202486038208,-0.08487831056118011
2.796297550201416,-0.0707637146115303,-1.415464997291565,1.2891966104507446,-0.39845120906829834,0.001716639962978661,-0.08106355369091034
2.8169479370117188,-0.07000076025724411,-1.4150835275650024,1.2899595499038696,-0.4015030264854431,-0.001716639962978661,-0.07724879682064056
2.837043285369873,-0.07000076025724411,-1.4150835275650024,1.2911039590835571,-0.4045548141002655,-0.0078202486038208,-0.07343403995037079
2.8571014404296875,-0.07000076025724411,-1.4185168743133545,1.2918668985366821,-0.40951400995254517,-0.006294346414506435,-0.07038223743438721
2.877192974090576,-0.07038223743438721,-1.4200427532196045,1.2930114269256592,-0.41332876682281494,0.004386968910694122,-0.06961929053068161
2.8972668647766113,-0.07038223743438721,-1.4265278577804565,1.2930114269256592,-0.41676202416419983,0.012397955171763897,-0.06618601083755493
2.9173755645751953,-0.07038223743438721,-1.428435206413269,1.2949187755584717,-0.4217212200164795,0.024605173617601395,-0.06618601083755493
2.937443256378174,-0.0707637146115303,-1.428435206413269,1.2960631847381592,-0.42858776450157166,0.03299763426184654,-0.06466010212898254
2.9574897289276123,-0.07495994865894318,-1.424238920211792,1.2991149425506592,-0.43011367321014404,0.03643091395497322,-0.061226826161146164
2.977581262588501,-0.07686731964349747,-1.4192798137664795,1.3029297590255737,-0.42935073375701904,0.02994582988321781,-0.05664911866188049
2.9976370334625244,-0.07534141838550568,-1.4200427532196045,1.3006408214569092,-0.42935073375701904,0.018501564860343933,-0.05359731614589691
3.017728328704834,-0.07534141838550568,-1.421950101852417,1.3010224103927612,-0.42935073375701904,0.005912871100008488,-0.04901960864663124
3.037813901901245,-0.07610437273979187,-1.426146388053894,1.3029297590255737,-0.43125811219215393,0.0020981156267225742,-0.04596780240535736
3.0578887462615967,-0.07457847148180008,-1.4303425550460815,1.3017853498458862,-0.4346913993358612,0.005149920005351305,-0.043678950518369675
3.0779664516448975,-0.07305257022380829,-1.436446189880371,1.2979705333709717,-0.4381246566772461,0.012397955171763897,-0.040245670825242996
3.098015308380127,-0.07419699430465698,-1.436446189880371,1.2987334728240967,-0.44232088327407837,0.030708782374858856,-0.040245670825242996
3.1181085109710693,-0.07457847148180008,-1.438735008239746,1.2991149425506592,-0.4499503970146179,0.04940108209848404,-0.04100862145423889
3.138162612915039,-0.07839322835206985,-1.432249903678894,1.3044556379318237,-0.4491874575614929,0.05703059583902359,-0.0394827201962471
3.158257246017456,-0.07763027399778366,-1.423475980758667,1.3036926984786987,-0.4488059878349304,0.061226826161146164,-0.03681239113211632
3.1783175468444824,-0.07763027399778366,-1.418898344039917,1.3025482892990112,-0.44651713967323303,0.05054550990462303,-0.03185320645570755
3.198408365249634,-0.07839322835206985,-1.4192798137664795,1.3017853498458862,-0.44537270069122314,0.038719769567251205,-0.02994582988321781
3.2184972763061523,-0.07915617525577545,-1.425764799118042,1.3014038801193237,-0.44537270069122314,0.02536812424659729,-0.028038453310728073
3.238556146621704,-0.07801175117492676,-1.4272907972335815,1.3056000471115112,-0.44689860939979553,0.01926451548933983,-0.023079270496964455
3.258646011352539,-0.07801175117492676,-1.432249903678894,1.2994964122772217,-0.4499503970146179,0.019645990803837776,-0.021171892061829567
3.278701066970825,-0.07763027399778366,-1.436446189880371,1.2964446544647217,-0.4518577754497528,0.03528648987412453,-0.021171892061829567
3.2988009452819824,-0.07839322835206985,-1.441023826599121,1.2914854288101196,-0.45910581946372986,0.04711223021149635,-0.02193484455347061
3.3188772201538086,-0.07839322835206985,-1.440260887145996,1.2953002452850342,-0.46025025844573975,0.06084534898400307,-0.02079041674733162
3.3389556407928467,-0.07801175117492676,-1.431486964225769,1.2983520030975342,-0.46101319789886475,0.06466010212898254,-0.02079041674733162
3.3590338230133057,-0.07839322835206985,-1.4223315715789795,1.3044556379318237,-0.46025025844573975,0.06466010212898254,-0.016975661739706993
3.3790836334228516,-0.07915617525577545,-1.421187162399292,1.3036926984786987,-0.45910581946372986,0.0551232174038887,-0.01430533267557621
3.3991734981536865,-0.07839322835206985,-1.4223315715789795,1.3021668195724487,-0.4560540020465851,0.04901960864663124,-0.012779430486261845
3.4192495346069336,-0.07839322835206985,-1.4253833293914795,1.3021668195724487,-0.45643550157546997,0.032616160809993744,-0.008964675478637218
3.439337730407715,-0.07877469807863235,-1.429961085319519,1.3010224103927612,-0.45796138048171997,0.029564354568719864,-0.00667582219466567
3.4593863487243652,-0.07991912961006165,-1.436446189880371,1.2983520030975342,-0.46101319789886475,0.028038453310728073,-0.005912871100008488
3.4794607162475586,-0.07724879682064056,-1.438735008239746,1.2964446544647217,-0.4640650153160095,0.040627144277095795,-0.005912871100008488
3.499574661254883,-0.07686731964349747,-1.4444571733474731,1.2941558361053467,-0.4736018776893616,0.0551232174038887,-0.007438773289322853
3.519625186920166,-0.07763027399778366,-1.4448386430740356,1.2994964122772217,-0.4732204079627991,0.06237125024199486,-0.005149920005351305
3.539714813232422,-0.07686731964349747,-1.4337759017944336,1.3044556379318237,-0.4736018776893616,0.06656748056411743,-0.005149920005351305
3.5597991943359375,-0.07839322835206985,-1.421950101852417,1.3052185773849487,-0.4724574685096741,0.06656748056411743,-0.0020981156267225742
3.5798914432525635,-0.07839322835206985,-1.4093613624572754,1.3063629865646362,-0.4713130295276642,0.061226826161146164,0.0013351644156500697
3.599975824356079,-0.07915617525577545,-1.408979892730713,1.3025482892990112,-0.4697871506214142,0.05245288833975792,0.00476844422519207
3.620053768157959,-0.07953765243291855,-1.4078354835510254,1.3014038801193237,-0.4678797721862793,0.04444190114736557,0.007057297509163618
3.6401402950286865,-0.08030059933662415,-1.413939118385315,1.2968261241912842,-0.4674982726573944,0.026131074875593185,0.010872052982449532
3.660187005996704,-0.07991912961006165,-1.419661283493042,1.2968261241912842,-0.4686427116394043,0.024605173617601395,0.012397955171763897
3.680276870727539,-0.07915617525577545,-1.426909327507019,1.2933928966522217,-0.4694056510925293,0.027656977996230125,0.012397955171763897
3.70035982131958,-0.07801175117492676,-1.432249903678894,1.2926298379898071,-0.47474631667137146,0.04444190114736557,0.012397955171763897
3.720458507537842,-0.07839322835206985,-1.435683250427246,1.2911039590835571,-0.4812313914299011,0.05436026677489281,0.00858320016413927
3.7405333518981934,-0.07877469807863235,-1.4353017807006836,1.2983520030975342,-0.4800869822502136,0.05855649709701538,0.010872052982449532
3.7606141567230225,-0.07724879682064056,-1.419661283493042,1.3017853498458862,-0.4797055125236511,0.0555046908557415,0.01201647985726595
3.780733823776245,-0.07724879682064056,-1.4047837257385254,1.3025482892990112,-0.47894254326820374,0.053215838968753815,0.012779430486261845
3.8007683753967285,-0.07724879682064056,-1.3925764560699463,1.3014038801193237,-0.47779813408851624,0.04406042397022247,0.013160906732082367
3.820875644683838,-0.07724879682064056,-1.3845654726028442,1.3014038801193237,-0.47436484694480896,0.03528648987412453,0.01506828423589468
3.8409271240234375,-0.07724879682064056,-1.3815137147903442,1.2953002452850342,-0.47436484694480896,0.02384222112596035,0.016212711110711098
3.8610126972198486,-0.07915617525577545,-1.3807507753372192,1.2914854288101196,-0.47436484694480896,0.013923857361078262,0.016212711110711098
3.8810927867889404,-0.07953765243291855,-1.3860913515090942,1.28385591506958,-0.47474631667137146,0.0032425422687083483,0.016975661739706993
3.901169538497925,-0.07801175117492676,-1.3929579257965088,1.275081992149353,-0.47474631667137146,-0.0013351644156500697,0.01773861236870289
3.921285629272461,-0.07457847148180008,-1.408216953277588,1.272030234336853,-0.47512778639793396,0.0009536888683214784,0.01773861236870289
3.94132924079895,-0.07534141838550568,-1.4143205881118774,1.2754634618759155,-0.47627222537994385,0.007438773289322853,0.01773861236870289
3.961406946182251,-0.07381551712751389,-1.420424222946167,1.278515338897705,-0.4819943606853485,0.027656977996230125,0.016594186425209045
3.9814701080322266,-0.0715266615152359,-1.419661283493042,1.2834744453430176,-0.482375830411911,0.02384222112596035,0.016975661739706993
4.001556396484375,-0.06923781335353851,-1.405165195465088,1.2869077920913696,-0.4827573001384735,0.016594186425209045,0.018120087683200836
4.021639347076416,-0.06923781335353851,-1.3960098028182983,1.2911039590835571,-0.482375830411911,0.016975661739706993,0.01926451548933983
4.041705131530762,-0.06885633617639542,-1.3887617588043213,1.2926298379898071,-0.481612890958786,0.00476844422519207,0.019645990803837776
4.061783075332642,-0.06885633617639542,-1.3868544101715088,1.2922483682632446,-0.4808499217033386,-0.0020981156267225742,0.020027466118335724
4.081827402114868,-0.06923781335353851,-1.3883802890777588,1.2899595499038696,-0.4797055125236511,-0.01125352829694748,0.020027466118335724
4.101921558380127,-0.0711451917886734,-1.3933393955230713,1.2865263223648071,-0.47932401299476624,-0.023460745811462402,0.02079041674733162
4.122020721435547,-0.06885633617639542,-1.402876377105713,1.2819485664367676,-0.47932401299476624,-0.028038453310728073,0.02040894143283367
4.142111778259277,-0.06809338182210922,-1.408216953277588,1.2804226875305176,-0.4797055125236511,-0.026512550190091133,0.02079041674733162
4.162198543548584,-0.06771191209554672,-1.416990876197815,1.2804226875305176,-0.4808499217033386,-0.00476844422519207,0.019645990803837776
4.182278633117676,-0.06885633617639542,-1.421187162399292,1.2827115058898926,-0.4839017391204834,0.011635004542768002,0.01888304017484188
4.202478885650635,-0.06694895774126053,-1.4200427532196045,1.2869077920913696,-0.4839017391204834,0.008964675478637218,0.01926451548933983
4.222449064254761,-0.06847485899925232,-1.404402256011963,1.2899595499038696,-0.4839017391204834,0.010109102353453636,0.020027466118335724
4.242537975311279,-0.06885633617639542,-1.3887617588043213,1.2911039590835571,-0.4835202693939209,0.012397955171763897,0.02040894143283367
4.262616157531738,-0.07000076025724411,-1.3818951845169067,1.2914854288101196,-0.4835202693939209,0.002861066721379757,0.02079041674733162
4.282692193984985,-0.0711451917886734,-1.3738842010498047,1.2930114269256592,-0.483138769865036,-0.00667582219466567,0.02193484455347061
4.3027684688568115,-0.0715266615152359,-1.3723583221435547,1.2922483682632446,-0.483138769865036,-0.019645990803837776,0.023079270496964455
4.322842597961426,-0.07419699430465698,-1.3712139129638672,1.2903410196304321,-0.483138769865036,-0.023079270496964455,0.023079270496964455
4.342918872833252,-0.07534141838550568,-1.3738842010498047,1.2869077920913696,-0.483138769865036,-0.025749599561095238,0.023460745811462402
4.362972021102905,-0.07495994865894318,-1.3818951845169067,1.278515338897705,-0.483138769865036,-0.024223696440458298,0.023460745811462402
4.383056640625,-0.0722896158695221,-1.3902876377105713,1.275844931602478,-0.4835202693939209,-0.016975661739706993,0.023460745811462402
4.4031853675842285,-0.07000076025724411,-1.3979171514511108,1.275844931602478,-0.4842832088470459,0.00019073777366429567,0.022697795182466507
4.423228025436401,-0.0715266615152359,-1.4013503789901733,1.2769893407821655,-0.4892423748970032,0.01888304017484188,0.020027466118335724
4.443367004394531,-0.0715266615152359,-1.3975356817245483,1.2804226875305176,-0.49038681387901306,0.021171892061829567,0.02040894143283367
4.463857650756836,-0.07343403995037079,-1.3948653936386108,1.2804226875305176,-0.49038681387901306,0.016975661739706993,0.02079041674733162
4.483951568603516,-0.07419699430465698,-1.3891432285308838,1.281567096710205,-0.4888609051704407,0.007438773289322853,0.023079270496964455
4.50400185585022,-0.07343403995037079,-1.3948653936386108,1.2804226875305176,-0.4880979657173157,-0.0036240178160369396,0.023460745811462402
4.524097919464111,-0.07343403995037079,-1.4002059698104858,1.280041217803955,-0.4873350262641907,-0.016212711110711098,0.02384222112596035
4.544178247451782,-0.0715266615152359,-1.4063096046447754,1.2804226875305176,-0.4877164959907532,-0.023460745811462402,0.026131074875593185
4.564258337020874,-0.06885633617639542,-1.412413239479065,1.2796597480773926,-0.4873350262641907,-0.021553369238972664,0.027656977996230125
4.584341526031494,-0.06733043491840363,-1.4192798137664795,1.276607871055603,-0.4884794354438782,-0.001716639962978661,0.02727550081908703
4.604719638824463,-0.07000076025724411,-1.420424222946167,1.2773709297180176,-0.49191272258758545,0.021553369238972664,0.025749599561095238
4.624809741973877,-0.06885633617639542,-1.4192798137664795,1.281567096710205,-0.49305713176727295,0.031090257689356804,0.023460745811462402
4.644861698150635,-0.06771191209554672,-1.4085984230041504,1.2842373847961426,-0.49191272258758545,0.026131074875593185,0.024605173617601395
4.664957761764526,-0.06694895774126053,-1.3948653936386108,1.2865263223648071,-0.49038681387901306,0.02231631986796856,0.026131074875593185
4.685016870498657,-0.06733043491840363,-1.3918135166168213,1.2853819131851196,-0.4892423748970032,0.012397955171763897,0.02727550081908703
4.705097198486328,-0.06771191209554672,-1.3860913515090942,1.2865263223648071,-0.4873350262641907,0.0024795911740511656,0.02841992862522602
4.725201368331909,-0.06847485899925232,-1.3883802890777588,1.283092975616455,-0.4869535267353058,-0.006294346414506435,0.030708782374858856
4.745396852493286,-0.07000076025724411,-1.3960098028182983,1.27927827835083,-0.4865720570087433,-0.018501564860343933,0.03223468363285065
4.76548171043396,-0.06885633617639542,-1.405165195465088,1.275844931602478,-0.4865720570087433,-0.023460745811462402,0.032616160809993744
4.785537004470825,-0.06427863240242004,-1.4101243019104004,1.2773709297180176,-0.4865720570087433,-0.018501564860343933,0.03299763426184654
4.805631399154663,-0.06580453366041183,-1.4185168743133545,1.2769893407821655,-0.4877164959907532,-0.004005493130534887,0.03299763426184654
4.825719118118286,-0.06618601083755493,-1.425764799118042,1.2796597480773926,-0.49114975333213806,0.018120087683200836,0.030708782374858856
4.845795631408691,-0.06618601083755493,-1.4230945110321045,1.2834744453430176,-0.49191272258758545,0.018120087683200836,0.030708782374858856
4.8658740520477295,-0.06733043491840363,-1.409742832183838,1.2888151407241821,-0.49191272258758545,0.035667963325977325,0.030708782374858856
4.88593316078186,-0.06809338182210922,-1.4070725440979004,1.2861448526382446,-0.49153125286102295,0.03299763426184654,0.031090257689356804
4.9060304164886475,-0.06923781335353851,-1.4055466651916504,1.2857633829116821,-0.49000534415245056,0.01773861236870289,0.03223468363285065
4.926087379455566,-0.06923781335353851,-1.4101243019104004,1.2895780801773071,-0.49000534415245056,0.006294346414506435,0.03299763426184654
4.946183919906616,-0.06961929053068161,-1.4158464670181274,1.2891966104507446,-0.49000534415245056,-0.002861066721379757,0.03490501269698143
4.966246128082275,-0.06923781335353851,-1.4208056926727295,1.2853819131851196,-0.49038681387901306,-0.0013351644156500697,0.03643091395497322
4.986316680908203,-0.07038223743438721,-1.4230945110321045,1.28233003616333,-0.49038681387901306,0.004005493130534887,0.03643091395497322
5.0064568519592285,-0.0711451917886734,-1.4303425550460815,1.281567096710205,-0.49229419231414795,0.031090257689356804,0.03528648987412453
5.026505947113037,-0.07305257022380829,-1.4353017807006836,1.284618854522705,-0.49496451020240784,0.04329747334122658,0.032616160809993744
5.046618461608887,-0.0715266615152359,-1.432249903678894,1.2899595499038696,-0.49420157074928284,0.037193864583969116,0.034142062067985535
5.066674470901489,-0.07267109304666519,-1.41470205783844,1.2953002452850342,-0.49420157074928284,0.04482337832450867,0.03376058489084244
5.086795330047607,-0.07343403995037079,-1.3982986211776733,1.2983520030975342,-0.49343863129615784,0.05054550990462303,0.034142062067985535
5.106878757476807,-0.07419699430465698,-1.3914320468902588,1.2994964122772217,-0.49267566204071045,0.04291599988937378,0.034142062067985535
5.126954555511475,-0.07572289556264877,-1.3826581239700317,1.3014038801193237,-0.48962387442588806,0.03604944050312042,0.03490501269698143
5.147039890289307,-0.07648584991693497,-1.3811322450637817,1.3017853498458862,-0.48962387442588806,0.02994582988321781,0.03604944050312042
5.167096138000488,-0.07953765243291855,-1.3807507753372192,1.2994964122772217,-0.48962387442588806,0.02727550081908703,0.035667963325977325
5.187189817428589,-0.08144503086805344,-1.3834210634231567,1.2945373058319092,-0.49000534415245056,0.02536812424659729,0.03604944050312042
5.207249402999878,-0.08144503086805344,-1.3918135166168213,1.284618854522705,-0.49000534415245056,0.02841992862522602,0.03604944050312042
5.227348804473877,-0.08030059933662415,-1.3994430303573608,1.28385591506958,-0.49038681387901306,0.03643091395497322,0.03643091395497322
5.247390985488892,-0.07839322835206985,-1.4085984230041504,1.2850003242492676,-0.49420157074928284,0.04596780240535736,0.03376058489084244
5.267465114593506,-0.07915617525577545,-1.412413239479065,1.2876707315444946,-0.4953460097312927,0.0555046908557415,0.03299763426184654
5.287543773651123,-0.07915617525577545,-1.4070725440979004,1.2899595499038696,-0.49458304047584534,0.05436026677489281,0.03376058489084244
5.307596683502197,-0.07953765243291855,-1.4021133184432983,1.2899595499038696,-0.49305713176727295,0.04787518084049225,0.034142062067985535
5.327701807022095,-0.07953765243291855,-1.3948653936386108,1.2907224893569946,-0.49000534415245056,0.03833829239010811,0.03528648987412453
5.347756624221802,-0.07915617525577545,-1.4013503789901733,1.2876707315444946,-0.49000534415245056,0.025749599561095238,0.037193864583969116
5.367850065231323,-0.07877469807863235,-1.4063096046447754,1.2876707315444946,-0.49000534415245056,0.012397955171763897,0.03833829239010811
5.387925386428833,-0.07648584991693497,-1.41317617893219,1.2876707315444946,-0.49000534415245056,0.0036240178160369396,0.038719769567251205
5.40799880027771,-0.07419699430465698,-1.41775381565094,1.2872892618179321,-0.49038681387901306,0.002861066721379757,0.038719769567251205
5.428081274032593,-0.07267109304666519,-1.423475980758667,1.283092975616455,-0.49114975333213806,0.018120087683200836,0.03833829239010811
5.448135852813721,-0.07305257022380829,-1.4253833293914795,1.2850003242492676,-0.4964904189109802,0.03795681521296501,0.03528648987412453
5.4682395458221436,-0.071908138692379,-1.4272907972335815,1.2891966104507446,-0.4976348578929901,0.03528648987412453,0.03490501269698143
5.488290548324585,-0.0722896158695221,-1.4158464670181274,1.2933928966522217,-0.4976348578929901,0.03337911143898964,0.03452353551983833
5.50839900970459,-0.0722896158695221,-1.402876377105713,1.2953002452850342,-0.4976348578929901,0.03795681521296501,0.03452353551983833
5.528479814529419,-0.07267109304666519,-1.4009689092636108,1.2945373058319092,-0.4968718886375427,0.02536812424659729,0.03490501269698143
5.548556804656982,-0.07305257022380829,-1.3990615606307983,1.2949187755584717,-0.49458304047584534,0.01201647985726595,0.035667963325977325
5.5686562061309814,-0.07305257022380829,-1.4040207862854004,1.2937743663787842,-0.49382010102272034,-0.005912871100008488,0.03833829239010811
5.588711977005005,-0.07267109304666519,-1.4112688302993774,1.2899595499038696,-0.49343863129615784,-0.00667582219466567,0.03833829239010811
5.60880970954895,-0.071908138692379,-1.415464997291565,1.2876707315444946,-0.49420157074928284,-0.00476844422519207,0.03795681521296501
5.628867864608765,-0.07038223743438721,-1.421187162399292,1.2853819131851196,-0.49458304047584534,0.01125352829694748,0.03757534176111221
5.648956060409546,-0.0715266615152359,-1.4295796155929565,1.28080415725708,-0.4983977973461151,0.030708782374858856,0.035667963325977325
5.669036149978638,-0.0722896158695221,-1.4345388412475586,1.2853819131851196,-0.4991607666015625,0.04711223021149635,0.03223468363285065
5.6891114711761475,-0.07305257022380829,-1.4303425550460815,1.2911039590835571,-0.4987792670726776,0.04749370738863945,0.03147173300385475
5.709187984466553,-0.07343403995037079,-1.4127947092056274,1.2956817150115967,-0.4987792670726776,0.05436026677489281,0.02994582988321781
5.729239463806152,-0.07419699430465698,-1.4070725440979004,1.2922483682632446,-0.4980163276195526,0.05741206929087639,0.02880140393972397
5.749330759048462,-0.07572289556264877,-1.402876377105713,1.2914854288101196,-0.49382010102272034,0.039101243019104004,0.02994582988321781
5.76938271522522,-0.07648584991693497,-1.4105058908462524,1.2907224893569946,-0.49114975333213806,0.024605173617601395,0.03223468363285065
5.789478540420532,-0.07610437273979187,-1.413939118385315,1.2907224893569946,-0.49076828360557556,0.01926451548933983,0.03223468363285065
5.809593200683594,-0.07610437273979187,-1.418898344039917,1.2880522012710571,-0.49267566204071045,0.023079270496964455,0.03147173300385475
5.829646587371826,-0.07724879682064056,-1.4238574504852295,1.2842373847961426,-0.49382010102272034,0.03490501269698143,0.03223468363285065
5.84972357749939,-0.07801175117492676,-1.433012843132019,1.2811856269836426,-0.4991607666015625,0.056267641484737396,0.03032730519771576
5.869779109954834,-0.07953765243291855,-1.437972068786621,1.2853819131851196,-0.4983977973461151,0.06733043491840363,0.031090257689356804
5.8898725509643555,-0.07801175117492676,-1.4337759017944336,1.2911039590835571,-0.4980163276195526,0.06733043491840363,0.03147173300385475
5.909943342208862,-0.07953765243291855,-1.418135404586792,1.2972075939178467,-0.4972533881664276,0.07419699430465698,0.032616160809993744
5.930033206939697,-0.07991912961006165,-1.4017318487167358,1.3010224103927612,-0.49496451020240784,0.07724879682064056,0.03452353551983833
5.950125217437744,-0.08068207651376724,-1.3971542119979858,1.3025482892990112,-0.49153125286102295,0.06885633617639542,0.03490501269698143
5.970196962356567,-0.08258945494890213,-1.3895246982574463,1.3036926984786987,-0.4877164959907532,0.059319447726011276,0.03757534176111221
5.990294933319092,-0.08373387902975082,-1.3879988193511963,1.3040741682052612,-0.4865720570087433,0.05130846053361893,0.039101243019104004
6.010324001312256,-0.0864042118191719,-1.3910505771636963,1.2998778820037842,-0.4861905872821808,0.050164032727479935,0.0394827201962471
6.030415773391724,-0.0875486359000206,-1.3979171514511108,1.2933928966522217,-0.4861905872821808,0.04787518084049225,0.04100862145423889
6.050471544265747,-0.08335240930318832,-1.406691074371338,1.2865263223648071,-0.4865720570087433,0.04787518084049225,0.04177157208323479
6.070562362670898,-0.08297093212604523,-1.4173723459243774,1.281567096710205,-0.4873350262641907,0.05397878959774971,0.04177157208323479
6.09066104888916,-0.08411535620689392,-1.4295796155929565,1.28385591506958,-0.49153125286102295,0.07534141838550568,0.040245670825242996
6.110714912414551,-0.08182650804519653,-1.4360647201538086,1.2865263223648071,-0.49420157074928284,0.07953765243291855,0.03795681521296501
6.130836248397827,-0.07724879682064056,-1.435683250427246,1.2941558361053467,-0.49305713176727295,0.06542305648326874,0.0394827201962471
6.150863409042358,-0.07686731964349747,-1.421950101852417,1.3002593517303467,-0.49191272258758545,0.05893797054886818,0.0394827201962471
6.170960187911987,-0.07724879682064056,-1.4032578468322754,1.3033112287521362,-0.49076828360557556,0.05855649709701538,0.0394827201962471
6.19102668762207,-0.07724879682064056,-1.3948653936386108,1.3048371076583862,-0.49000534415245056,0.04329747334122658,0.0394827201962471
6.211108446121216,-0.07763027399778366,-1.3857098817825317,1.3078888654708862,-0.4865720570087433,0.023079270496964455,0.040627144277095795
6.231184005737305,-0.07801175117492676,-1.3834210634231567,1.3097963333129883,-0.4854276478290558,0.016975661739706993,0.04329747334122658
6.251269817352295,-0.07991912961006165,-1.3815137147903442,1.3067444562911987,-0.4858091175556183,0.01125352829694748,0.04291599988937378
6.271365165710449,-0.08030059933662415,-1.3830395936965942,1.3017853498458862,-0.4858091175556183,0.004005493130534887,0.04329747334122658
6.2913572788238525,-0.07915617525577545,-1.3899061679840088,1.2911039590835571,-0.4861905872821808,0.004386968910694122,0.043678950518369675
6.311446189880371,-0.07801175117492676,-1.3982986211776733,1.2876707315444946,-0.4861905872821808,0.010490577667951584,0.04406042397022247
6.331516981124878,-0.07648584991693497,-1.407454013824463,1.2880522012710571,-0.4880979657173157,0.026512550190091133,0.04253452271223068
6.351597785949707,-0.07686731964349747,-1.41317617893219,1.2880522012710571,-0.49191272258758545,0.04100862145423889,0.03757534176111221
6.3716721534729,-0.07724879682064056,-1.4127947092056274,1.2903410196304321,-0.49114975333213806,0.043678950518369675,0.03833829239010811
6.391741514205933,-0.07724879682064056,-1.4021133184432983,1.2903410196304321,-0.49038681387901306,0.03528648987412453,0.03833829239010811
6.411809682846069,-0.07763027399778366,-1.3929579257965088,1.2922483682632446,-0.49000534415245056,0.026131074875593185,0.039101243019104004
6.431853294372559,-0.07763027399778366,-1.3921949863433838,1.2911039590835571,-0.4888609051704407,0.01125352829694748,0.0394827201962471
6.451944828033447,-0.07839322835206985,-1.3925764560699463,1.2899595499038696,-0.4873350262641907,-0.004005493130534887,0.0398641936480999
6.472005367279053,-0.07572289556264877,-1.4005874395370483,1.2869077920913696,-0.4865720570087433,-0.018501564860343933,0.04177157208323479
6.492079496383667,-0.071908138692379,-1.4093613624572754,1.2865263223648071,-0.4869535267353058,-0.023460745811462402,0.042153049260377884
6.512154579162598,-0.06847485899925232,-1.41622793674469,1.2850003242492676,-0.4869535267353058,-0.025749599561095238,0.04253452271223068
6.532224893569946,-0.07038223743438721,-1.4185168743133545,1.281567096710205,-0.4888609051704407,-0.0020981156267225742,0.040627144277095795
6.552334308624268,-0.0715266615152359,-1.421950101852417,1.27927827835083,-0.49382010102272034,0.030708782374858856,0.03643091395497322
6.5723559856414795,-0.0722896158695221,-1.421187162399292,1.2834744453430176,-0.4953460097312927,0.03528648987412453,0.03490501269698143
6.592442750930786,-0.07381551712751389,-1.409742832183838,1.2865263223648071,-0.49343863129615784,0.03032730519771576,0.03643091395497322
6.6124982833862305,-0.07648584991693497,-1.4017318487167358,1.2869077920913696,-0.49153125286102295,0.02689402550458908,0.03681239113211632
6.632577419281006,-0.07763027399778366,-1.3910505771636963,1.2876707315444946,-0.49038681387901306,0.01773861236870289,0.03833829239010811
6.652653932571411,-0.07839322835206985,-1.3921949863433838,1.2853819131851196,-0.49000534415245056,0.005531395319849253,0.03795681521296501
6.672717571258545,-0.07915617525577545,-1.3956283330917358,1.284618854522705,-0.48962387442588806,-0.013923857361078262,0.038719769567251205
6.692790269851685,-0.07877469807863235,-1.403639316558838,1.28233003616333,-0.48962387442588806,-0.02536812424659729,0.038719769567251205
6.712844371795654,-0.07038223743438721,-1.410887360572815,1.28233003616333,-0.48962387442588806,-0.02841992862522602,0.038719769567251205
6.732954025268555,-0.06961929053068161,-1.416990876197815,1.27927827835083,-0.49038681387901306,-0.024605173617601395,0.03795681521296501
6.753016471862793,-0.07267109304666519,-1.424238920211792,1.27927827835083,-0.49076828360557556,0.006294346414506435,0.03681239113211632
6.773094654083252,-0.07305257022380829,-1.426146388053894,1.2804226875305176,-0.49458304047584534,0.02689402550458908,0.03299763426184654
6.793210744857788,-0.06961929053068161,-1.422713041305542,1.2861448526382446,-0.49382010102272034,0.02079041674733162,0.03376058489084244
6.8132712841033936,-0.06961929053068161,-1.4078354835510254,1.2895780801773071,-0.49382010102272034,0.01430533267557621,0.034142062067985535
6.833354234695435,-0.07000076025724411,-1.3944838047027588,1.2926298379898071,-0.49305713176727295,0.01430533267557621,0.03452353551983833
6.8534018993377686,-0.07000076025724411,-1.3834210634231567,1.2937743663787842,-0.49191272258758545,0.004005493130534887,0.03490501269698143
6.873495101928711,-0.07038223743438721,-1.3780803680419922,1.2949187755584717,-0.49114975333213806,-0.0024795911740511656,0.03490501269698143
6.893554210662842,-0.0711451917886734,-1.3742656707763672,1.2926298379898071,-0.49038681387901306,-0.012397955171763897,0.035667963325977325
6.913644552230835,-0.07305257022380829,-1.3723583221435547,1.2891966104507446,-0.49038681387901306,-0.018501564860343933,0.03643091395497322
6.933717727661133,-0.07305257022380829,-1.3754100799560547,1.284618854522705,-0.49038681387901306,-0.020027466118335724,0.03643091395497322
6.953798532485962,-0.0722896158695221,-1.3830395936965942,1.276607871055603,-0.49038681387901306,-0.01926451548933983,0.03643091395497322
6.973876714706421,-0.0711451917886734,-1.3910505771636963,1.2724117040634155,-0.49076828360557556,-0.016594186425209045,0.03528648987412453
6.99409818649292,-0.07038223743438721,-1.3948653936386108,1.275081992149353,-0.49114975333213806,0.004005493130534887,0.03376058489084244
7.01419734954834,-0.0707637146115303,-1.3967727422714233,1.2754634618759155,-0.49420157074928284,0.010109102353453636,0.03032730519771576
7.034258842468262,-0.07267109304666519,-1.3944838047027588,1.276607871055603,-0.49343863129615784,0.0078202486038208,0.030708782374858856
7.054351568222046,-0.0722896158695221,-1.3925764560699463,1.2781338691711426,-0.49267566204071045,0.00476844422519207,0.031090257689356804
7.0744147300720215,-0.0711451917886734,-1.3960098028182983,1.276607871055603,-0.49114975333213806,-0.005531395319849253,0.03223468363285065
7.0945045948028564,-0.07000076025724411,-1.4002059698104858,1.27775239944458,-0.49076828360557556,-0.016212711110711098,0.03337911143898964
7.114592790603638,-0.0707637146115303,-1.4063096046447754,1.2773709297180176,-0.49076828360557556,-0.02193484455347061,0.03528648987412453
7.135023355484009,-0.06694895774126053,-1.412413239479065,1.2781338691711426,-0.49076828360557556,-0.02079041674733162,0.03528648987412453
7.155115365982056,-0.06618601083755493,-1.4192798137664795,1.27775239944458,-0.49114975333213806,-0.01430533267557621,0.03528648987412453
7.175173997879028,-0.06694895774126053,-1.4200427532196045,1.278515338897705,-0.49191272258758545,0.009346150793135166,0.03452353551983833
7.195275068283081,-0.06733043491840363,-1.41775381565094,1.2804226875305176,-0.49496451020240784,0.018501564860343933,0.03299763426184654
7.215360164642334,-0.06847485899925232,-1.407454013824463,1.2834744453430176,-0.49420157074928284,0.02040894143283367,0.03337911143898964
7.235441207885742,-0.06923781335353851,-1.3986800909042358,1.2869077920913696,-0.49420157074928284,0.02231631986796856,0.03376058489084244
7.255523443222046,-0.07000076025724411,-1.3979171514511108,1.2850003242492676,-0.49191272258758545,0.013542382046580315,0.03452353551983833
7.275594472885132,-0.07038223743438721,-1.3998245000839233,1.2853819131851196,-0.49076828360557556,0.005912871100008488,0.03490501269698143
7.2956929206848145,-0.07038223743438721,-1.4047837257385254,1.2842373847961426,-0.49076828360557556,-0.009346150793135166,0.03681239113211632
7.31572699546814,-0.0722896158695221,-1.408979892730713,1.2842373847961426,-0.49076828360557556,-0.0036240178160369396,0.03757534176111221
7.335829973220825,-0.07038223743438721,-1.4158464670181274,1.2788968086242676,-0.49114975333213806,0.001716639962978661,0.037193864583969116
7.355896949768066,-0.06809338182210922,-1.4215686321258545,1.2773709297180176,-0.49153125286102295,0.01926451548933983,0.037193864583969116
7.375980615615845,-0.06847485899925232,-1.4272907972335815,1.2739375829696655,-0.4961089491844177,0.029564354568719864,0.03452353551983833
7.396056175231934,-0.06809338182210922,-1.428435206413269,1.28080415725708,-0.4968718886375427,0.04406042397022247,0.032616160809993744
7.416151762008667,-0.06847485899925232,-1.419661283493042,1.2872892618179321,-0.4964904189109802,0.048256658017635345,0.03147173300385475
7.436236143112183,-0.06961929053068161,-1.407454013824463,1.2918668985366821,-0.4964904189109802,0.048256658017635345,0.030708782374858856
7.456300497055054,-0.0711451917886734,-1.4024949073791504,1.2937743663787842,-0.49496451020240784,0.046730753034353256,0.030708782374858856
7.476389646530151,-0.07305257022380829,-1.3994430303573608,1.2922483682632446,-0.49305713176727295,0.040245670825242996,0.031090257689356804
7.496450185775757,-0.07305257022380829,-1.4055466651916504,1.2899595499038696,-0.49038681387901306,0.03299763426184654,0.03147173300385475
7.516556024551392,-0.07343403995037079,-1.41165030002594,1.2884336709976196,-0.49000534415245056,0.01888304017484188,0.03337911143898964
7.536634206771851,-0.07419699430465698,-1.418135404586792,1.2861448526382446,-0.49076828360557556,0.018120087683200836,0.03376058489084244
7.556703090667725,-0.07534141838550568,-1.4223315715789795,1.2842373847961426,-0.49076828360557556,0.01926451548933983,0.03376058489084244
7.576805591583252,-0.07648584991693497,-1.4303425550460815,1.2796597480773926,-0.4968718886375427,0.048638131469488144,0.03299763426184654
7.597031831741333,-0.07686731964349747,-1.4333943128585815,1.2811856269836426,-0.4976348578929901,0.04901960864663124,0.03032730519771576
7.617120265960693,-0.07457847148180008,-1.4311054944992065,1.2891966104507446,-0.4972533881664276,0.04253452271223068,0.03185320645570755
7.637176036834717,-0.07305257022380829,-1.420424222946167,1.2949187755584717,-0.49458304047584534,0.03795681521296501,0.03299763426184654
7.657259941101074,-0.0722896158695221,-1.409742832183838,1.2979705333709717,-0.49153125286102295,0.032616160809993744,0.035667963325977325
7.67733359336853,-0.07267109304666519,-1.409742832183838,1.2949187755584717,-0.49000534415245056,0.025749599561095238,0.03643091395497322
7.697404623031616,-0.07267109304666519,-1.408216953277588,1.2949187755584717,-0.4884794354438782,0.02040894143283367,0.03795681521296501
7.717498779296875,-0.0722896158695221,-1.4127947092056274,1.2922483682632446,-0.4861905872821808,0.00476844422519207,0.038719769567251205
7.7380828857421875,-0.07305257022380829,-1.4173723459243774,1.2918668985366821,-0.4873350262641907,0.008964675478637218,0.03795681521296501
7.758169889450073,-0.07305257022380829,-1.4230945110321045,1.2872892618179321,-0.4877164959907532,0.012397955171763897,0.03795681521296501
7.778218507766724,-0.07267109304666519,-1.427672266960144,1.2857633829116821,-0.49076828360557556,0.032616160809993744,0.03795681521296501
7.798311233520508,-0.07343403995037079,-1.4311054944992065,1.2827115058898926,-0.49458304047584534,0.04177157208323479,0.034142062067985535
7.81839656829834,-0.07457847148180008,-1.429198145866394,1.2891966104507446,-0.49458304047584534,0.053215838968753815,0.03452353551983833
7.83847713470459,-0.07610437273979187,-1.418135404586792,1.2922483682632446,-0.49382010102272034,0.05703059583902359,0.03490501269698143
7.858585357666016,-0.07801175117492676,-1.408216953277588,1.2937743663787842,-0.49114975333213806,0.051689937710762024,0.03604944050312042
7.878650903701782,-0.07953765243291855,-1.4009689092636108,1.2937743663787842,-0.48962387442588806,0.04444190114736557,0.03795681521296501
7.8987226486206055,-0.08030059933662415,-1.4005874395370483,1.2911039590835571,-0.4884794354438782,0.03528648987412453,0.03833829239010811
7.918789625167847,-0.07991912961006165,-1.4085984230041504,1.2891966104507446,-0.4877164959907532,0.023460745811462402,0.03833829239010811
7.938868761062622,-0.07686731964349747,-1.41470205783844,1.2891966104507446,-0.4869535267353058,0.010872052982449532,0.0398641936480999
7.958945274353027,-0.07381551712751389,-1.418898344039917,1.2895780801773071,-0.4877164959907532,0.010109102353453636,0.0394827201962471
7.97903299331665,-0.07495994865894318,-1.423475980758667,1.2865263223648071,-0.49153125286102295,0.029564354568719864,0.038719769567251205
7.999110460281372,-0.07495994865894318,-1.4295796155929565,1.2861448526382446,-0.4961089491844177,0.04482337832450867,0.03490501269698143
8.019185304641724,-0.07495994865894318,-1.4288166761398315,1.2891966104507446,-0.4964904189109802,0.04940108209848404,0.03490501269698143
8.039267539978027,-0.07610437273979187,-1.4185168743133545,1.2933928966522217,-0.4976348578929901,0.06504157930612564,0.03490501269698143
8.059328556060791,-0.07801175117492676,-1.4135576486587524,1.2914854288101196,-0.4957274794578552,0.06389715522527695,0.03490501269698143
8.07939863204956,-0.07839322835206985,-1.409742832183838,1.2914854288101196,-0.49305713176727295,0.04787518084049225,0.037193864583969116
8.099436044692993,-0.07763027399778366,-1.416990876197815,1.2895780801773071,-0.49191272258758545,0.03757534176111221,0.03795681521296501
8.119528770446777,-0.07801175117492676,-1.419661283493042,1.2926298379898071,-0.49038681387901306,0.03032730519771576,0.03833829239010811
8.139602422714233,-0.07877469807863235,-1.4223315715789795,1.2941558361053467,-0.49076828360557556,0.02193484455347061,0.039101243019104004
8.159681797027588,-0.07572289556264877,-1.4272907972335815,1.2872892618179321,-0.49153125286102295,0.027656977996230125,0.038719769567251205
8.179765462875366,-0.07419699430465698,-1.432249903678894,1.2853819131851196,-0.4961089491844177,0.040245670825242996,0.03795681521296501
8.200589895248413,-0.07495994865894318,-1.433012843132019,1.2857633829116821,-0.4968718886375427,0.04558632895350456,0.03795681521296501
8.220730781555176,-0.07495994865894318,-1.425764799118042,1.2895780801773071,-0.4968718886375427,0.05703059583902359,0.03757534176111221
8.240776300430298,-0.07572289556264877,-1.41775381565094,1.2930114269256592,-0.4964904189109802,0.06008239835500717,0.03795681521296501
8.260868787765503,-0.07572289556264877,-1.4093613624572754,1.2960631847381592,-0.49343863129615784,0.05092698708176613,0.039101243019104004
8.280930280685425,-0.07686731964349747,-1.4120317697525024,1.2918668985366821,-0.49114975333213806,0.045204851776361465,0.039101243019104004
8.301016330718994,-0.07534141838550568,-1.413939118385315,1.2918668985366821,-0.49000534415245056,0.04177157208323479,0.040245670825242996
8.321101903915405,-0.07495994865894318,-1.4192798137664795,1.2903410196304321,-0.49000534415245056,0.026512550190091133,0.04100862145423889
8.341413736343384,-0.07648584991693497,-1.422713041305542,1.2914854288101196,-0.49076828360557556,0.021171892061829567,0.04177157208323479
8.361489295959473,-0.07724879682064056,-1.426909327507019,1.2884336709976196,-0.49114975333213806,0.029182879254221916,0.04177157208323479
8.381549835205078,-0.07572289556264877,-1.429198145866394,1.2876707315444946,-0.4964904189109802,0.04711223021149635,0.040245670825242996
8.401647090911865,-0.07534141838550568,-1.4318684339523315,1.2880522012710571,-0.4983977973461151,0.04444190114736557,0.03795681521296501
8.421741724014282,-0.07686731964349747,-1.424238920211792,1.2930114269256592,-0.4983977973461151,0.04711223021149635,0.03833829239010811
8.441799640655518,-0.07610437273979187,-1.41775381565094,1.2918668985366821,-0.4976348578929901,0.048638131469488144,0.039101243019104004
8.461880683898926,-0.07572289556264877,-1.4143205881118774,1.2911039590835571,-0.4961089491844177,0.039101243019104004,0.0394827201962471
8.481972217559814,-0.07495994865894318,-1.418135404586792,1.2899595499038696,-0.49496451020240784,0.030708782374858856,0.0394827201962471
8.502042770385742,-0.07457847148180008,-1.4215686321258545,1.2914854288101196,-0.49458304047584534,0.027656977996230125,0.0398641936480999
8.522085428237915,-0.07305257022380829,-1.4238574504852295,1.2918668985366821,-0.49458304047584534,0.02536812424659729,0.0398641936480999
8.542168617248535,-0.07343403995037079,-1.4265278577804565,1.2884336709976196,-0.49496451020240784,0.021553369238972664,0.04100862145423889
8.562243700027466,-0.07686731964349747,-1.4295796155929565,1.2869077920913696,-0.4987792670726776,0.04100862145423889,0.0398641936480999
8.582313537597656,-0.07915617525577545,-1.430724024772644,1.2872892618179321,-0.4987792670726776,0.04711223021149635,0.039101243019104004
8.602398872375488,-0.07915617525577545,-1.4246203899383545,1.2918668985366821,-0.4980163276195526,0.04482337832450867,0.0398641936480999
8.622451543807983,-0.07877469807863235,-1.416990876197815,1.2930114269256592,-0.4968718886375427,0.03795681521296501,0.040627144277095795
8.642544746398926,-0.07801175117492676,-1.4085984230041504,1.2960631847381592,-0.49382010102272034,0.02994582988321781,0.042153049260377884
8.66258978843689,-0.07495994865894318,-1.409742832183838,1.2949187755584717,-0.49229419231414795,0.02193484455347061,0.04291599988937378
8.682680130004883,-0.071908138692379,-1.412413239479065,1.2918668985366821,-0.49076828360557556,0.010872052982449532,0.04329747334122658
8.702752590179443,-0.0722896158695221,-1.418135404586792,1.2895780801773071,-0.49076828360557556,0.005531395319849253,0.04406042397022247
8.722826480865479,-0.0715266615152359,-1.421187162399292,1.2907224893569946,-0.49114975333213806,0.00858320016413927,0.043678950518369675
8.742913246154785,-0.07038223743438721,-1.426909327507019,1.2880522012710571,-0.49229419231414795,0.014686808921396732,0.043678950518369675
8.763145446777344,-0.07267109304666519,-1.4280537366867065,1.2861448526382446,-0.4980163276195526,0.03528648987412453,0.040245670825242996
8.783234119415283,-0.07305257022380829,-1.4295796155929565,1.2861448526382446,-0.4983977973461151,0.035667963325977325,0.039101243019104004
8.803285121917725,-0.07305257022380829,-1.4208056926727295,1.2911039590835571,-0.4991607666015625,0.03032730519771576,0.03795681521296501
8.823376417160034,-0.07267109304666519,-1.4105058908462524,1.2945373058319092,-0.4987792670726776,0.029564354568719864,0.03833829239010811
8.843446016311646,-0.071908138692379,-1.41165030002594,1.2911039590835571,-0.4980163276195526,0.02040894143283367,0.03833829239010811
8.863534927368164,-0.0711451917886734,-1.4120317697525024,1.2918668985366821,-0.4972533881664276,0.0032425422687083483,0.03833829239010811
8.883728504180908,-0.06923781335353851,-1.415464997291565,1.2922483682632446,-0.4972533881664276,-0.01125352829694748,0.039101243019104004
8.903790950775146,-0.06961929053068161,-1.4200427532196045,1.2918668985366821,-0.4976348578929901,-0.0024795911740511656,0.038719769567251205
8.92389965057373,-0.07038223743438721,-1.4238574504852295,1.2876707315444946,-0.4976348578929901,-0.000572213320992887,0.038719769567251205
8.943942070007324,-0.07000076025724411,-1.426909327507019,1.2861448526382446,-0.4980163276195526,0.016975661739706993,0.038719769567251205
8.964045524597168,-0.0707637146115303,-1.4318684339523315,1.281567096710205,-0.501068115234375,0.03032730519771576,0.035667963325977325
8.984111785888672,-0.071908138692379,-1.4318684339523315,1.2876707315444946,-0.501068115234375,0.039101243019104004,0.035667963325977325
9.004192590713501,-0.0715266615152359,-1.421187162399292,1.2922483682632446,-0.4999237060546875,0.03757534176111221,0.035667963325977325
9.024252891540527,-0.0722896158695221,-1.4070725440979004,1.2933928966522217,-0.4976348578929901,0.034142062067985535,0.03757534176111221
9.044522523880005,-0.07305257022380829,-1.3948653936386108,1.2941558361053467,-0.4961089491844177,0.02994582988321781,0.03795681521296501
9.064610719680786,-0.07343403995037079,-1.3883802890777588,1.2941558361053467,-0.49267566204071045,0.018501564860343933,0.038719769567251205
9.084660291671753,-0.07381551712751389,-1.3857098817825317,1.2907224893569946,-0.49000534415245056,0.005912871100008488,0.0398641936480999
9.104746103286743,-0.07534141838550568,-1.3857098817825317,1.2891966104507446,-0.49000534415245056,-0.001716639962978661,0.0398641936480999
9.124809741973877,-0.07534141838550568,-1.3918135166168213,1.283092975616455,-0.49000534415245056,-0.005912871100008488,0.0398641936480999
9.144885540008545,-0.07305257022380829,-1.3982986211776733,1.27775239944458,-0.49000534415245056,-0.0078202486038208,0.040627144277095795
9.164962530136108,-0.07000076025724411,-1.409742832183838,1.275081992149353,-0.49000534415245056,-0.0009536888683214784,0.0398641936480999
9.18534517288208,-0.071908138692379,-1.41622793674469,1.275844931602478,-0.49076828360557556,0.01125352829694748,0.039101243019104004
9.205434083938599,-0.071908138692379,-1.421950101852417,1.278515338897705,-0.49458304047584534,0.03337911143898964,0.03528648987412453
9.225483179092407,-0.06885633617639542,-1.4208056926727295,1.2834744453430176,-0.49382010102272034,0.02880140393972397,0.03604944050312042
9.245574712753296,-0.0711451917886734,-1.4070725440979004,1.2857633829116821,-0.49305713176727295,0.020027466118335724,0.03681239113211632
9.265643119812012,-0.07305257022380829,-1.3967727422714233,1.2869077920913696,-0.49114975333213806,0.020027466118335724,0.03757534176111221
9.285708665847778,-0.07534141838550568,-1.3860913515090942,1.2865263223648071,-0.49000534415245056,0.007057297509163618,0.038719769567251205
9.305787563323975,-0.07610437273979187,-1.3845654726028442,1.284618854522705,-0.49000534415245056,-0.00667582219466567,0.038719769567251205
9.325862884521484,-0.07839322835206985,-1.3860913515090942,1.28385591506958,-0.48962387442588806,-0.016212711110711098,0.0394827201962471
9.345955848693848,-0.07877469807863235,-1.3914320468902588,1.2811856269836426,-0.4892423748970032,-0.025749599561095238,0.0394827201962471
9.366010189056396,-0.07305257022380829,-1.4005874395370483,1.27775239944458,-0.48962387442588806,-0.030708782374858856,0.0394827201962471
9.38610291481018,-0.0722896158695221,-1.4063096046447754,1.275844931602478,-0.49000534415245056,-0.030708782374858856,0.039101243019104004
9.406189918518066,-0.07038223743438721,-1.41317617893219,1.2769893407821655,-0.49076828360557556,-0.004386968910694122,0.03757534176111221
9.426284074783325,-0.0707637146115303,-1.41775381565094,1.2788968086242676,-0.49229419231414795,0.016594186425209045,0.03452353551983833
9.446364402770996,-0.06885633617639542,-1.41622793674469,1.2827115058898926,-0.49343863129615784,0.016975661739706993,0.03376058489084244
9.466410160064697,-0.0707637146115303,-1.4005874395370483,1.2827115058898926,-0.49267566204071045,0.012779430486261845,0.034142062067985535
9.486518859863281,-0.071908138692379,-1.3864728212356567,1.2834744453430176,-0.49076828360557556,0.013542382046580315,0.03452353551983833
9.506560325622559,-0.07305257022380829,-1.3792248964309692,1.28233003616333,-0.49000534415245056,-0.001716639962978661,0.03490501269698143
9.52671504020691,-0.07381551712751389,-1.3731212615966797,1.2834744453430176,-0.49000534415245056,-0.012397955171763897,0.035667963325977325
9.54680323600769,-0.07457847148180008,-1.3723583221435547,1.278515338897705,-0.48962387442588806,-0.02727550081908703,0.037193864583969116
9.56686544418335,-0.07724879682064056,-1.3723583221435547,1.2747005224227905,-0.48962387442588806,-0.03490501269698143,0.03833829239010811
9.586950540542603,-0.07686731964349747,-1.3769359588623047,1.267833948135376,-0.4892423748970032,-0.040627144277095795,0.03833829239010811
9.606992244720459,-0.07267109304666519,-1.3883802890777588,1.263256311416626,-0.48962387442588806,-0.040627144277095795,0.03757534176111221
9.62708330154419,-0.06885633617639542,-1.4021133184432983,1.261730432510376,-0.4892423748970032,-0.03299763426184654,0.03757534176111221
9.647133111953735,-0.06885633617639542,-1.406691074371338,1.267071008682251,-0.49000534415245056,-0.01773861236870289,0.037193864583969116
9.667239427566528,-0.06656748056411743,-1.4078354835510254,1.2674524784088135,-0.49153125286102295,0.0013351644156500697,0.03147173300385475
9.68733549118042,-0.06275273114442825,-1.4017318487167358,1.272030234336853,-0.49305713176727295,-0.0009536888683214784,0.03147173300385475
9.707388401031494,-0.06771191209554672,-1.3948653936386108,1.273556113243103,-0.49305713176727295,-0.005912871100008488,0.03147173300385475
9.727451801300049,-0.07038223743438721,-1.3879988193511963,1.2769893407821655,-0.49114975333213806,-0.008201723918318748,0.032616160809993744
9.747498512268066,-0.0715266615152359,-1.3883802890777588,1.2773709297180176,-0.49114975333213806,-0.018120087683200836,0.03376058489084244
9.76758337020874,-0.07305257022380829,-1.3918135166168213,1.275844931602478,-0.49076828360557556,-0.02536812424659729,0.03452353551983833
9.78763723373413,-0.07038223743438721,-1.4009689092636108,1.275081992149353,-0.49076828360557556,-0.0398641936480999,0.03681239113211632
9.807735681533813,-0.06618601083755493,-1.408216953277588,1.2762264013290405,-0.49076828360557556,-0.04558632895350456,0.03795681521296501
9.827819108963013,-0.06389715522527695,-1.4150835275650024,1.274319052696228,-0.49114975333213806,-0.03490501269698143,0.037193864583969116
9.847936868667603,-0.06466010212898254,-1.418898344039917,1.272030234336853,-0.49114975333213806,-0.00858320016413927,0.03643091395497322
9.867991924285889,-0.06427863240242004,-1.420424222946167,1.2716487646102905,-0.49343863129615784,0.0024795911740511656,0.03223468363285065
9.888050556182861,-0.06389715522527695,-1.415464997291565,1.274319052696228,-0.4968718886375427,0.007057297509163618,0.030708782374858856
9.908134460449219,-0.06542305648326874,-1.4070725440979004,1.27775239944458,-0.4968718886375427,0.026131074875593185,0.030708782374858856
9.928189277648926,-0.06847485899925232,-1.4078354835510254,1.2754634618759155,-0.4953460097312927,0.020027466118335724,0.03147173300385475
9.948284387588501,-0.06580453366041183,-1.408216953277588,1.28080415725708,-0.49420157074928284,0.0078202486038208,0.03223468363285065
9.96834921836853,-0.06618601083755493,-1.4120317697525024,1.281567096710205,-0.49458304047584534,0.006294346414506435,0.03376058489084244
9.988425254821777,-0.06618601083755493,-1.41622793674469,1.2827115058898926,-0.49420157074928284,0.0024795911740511656,0.03528648987412453
10.0085289478302,-0.06885633617639542,-1.4238574504852295,1.2804226875305176,-0.49420157074928284,-0.004005493130534887,0.03833829239010811
10.028576135635376,-0.06809338182210922,-1.4246203899383545,1.2811856269836426,-0.49458304047584534,0.011635004542768002,0.03795681521296501
10.048668384552002,-0.06961929053068161,-1.427672266960144,1.280041217803955,-0.4980163276195526,0.02384222112596035,0.03643091395497322
10.068722486495972,-0.0722896158695221,-1.4253833293914795,1.2861448526382446,-0.4972533881664276,0.026512550190091133,0.037193864583969116
10.08881139755249,-0.06885633617639542,-1.4166094064712524,1.2876707315444946,-0.4964904189109802,0.023460745811462402,0.03757534176111221
10.108886480331421,-0.06733043491840363,-1.4085984230041504,1.2899595499038696,-0.49420157074928284,0.01926451548933983,0.03833829239010811
10.128968954086304,-0.06580453366041183,-1.4047837257385254,1.2899595499038696,-0.49305713176727295,0.013160906732082367,0.039101243019104004
10.149040222167969,-0.06580453366041183,-1.408216953277588,1.2869077920913696,-0.49191272258758545,0.008201723918318748,0.039101243019104004
10.169089555740356,-0.06580453366041183,-1.4127947092056274,1.2872892618179321,-0.49191272258758545,0.00858320016413927,0.039101243019104004
10.189179182052612,-0.06656748056411743,-1.41622793674469,1.2865263223648071,-0.49191272258758545,0.00858320016413927,0.039101243019104004
10.209232807159424,-0.06733043491840363,-1.4208056926727295,1.2834744453430176,-0.49267566204071045,0.01201647985726595,0.039101243019104004
10.22931981086731,-0.07038223743438721,-1.4238574504852295,1.281567096710205,-0.4957274794578552,0.022697795182466507,0.03833829239010811
10.249411344528198,-0.0707637146115303,-1.429198145866394,1.2842373847961426,-0.4972533881664276,0.02880140393972397,0.03795681521296501
10.269487857818604,-0.0722896158695221,-1.4265278577804565,1.2895780801773071,-0.4972533881664276,0.02079041674733162,0.038719769567251205
10.289574384689331,-0.0722896158695221,-1.4135576486587524,1.2933928966522217,-0.4964904189109802,0.020027466118335724,0.0394827201962471
10.309630632400513,-0.0715266615152359,-1.4078354835510254,1.2945373058319092,-0.4964904189109802,0.016212711110711098,0.03833829239010811
10.32972240447998,-0.07000076025724411,-1.405928134918213,1.2945373058319092,-0.4953460097312927,0.0013351644156500697,0.039101243019104004
10.349774837493896,-0.06694895774126053,-1.41165030002594,1.2922483682632446,-0.49382010102272034,-0.005912871100008488,0.039101243019104004
10.36986780166626,-0.06809338182210922,-1.413939118385315,1.2911039590835571,-0.49458304047584534,-0.002861066721379757,0.038719769567251205
10.389964818954468,-0.06923781335353851,-1.4166094064712524,1.2899595499038696,-0.49458304047584534,0.00476844422519207,0.03833829239010811
10.41002607345581,-0.07305257022380829,-1.4208056926727295,1.28385591506958,-0.49458304047584534,0.021171892061829567,0.038719769567251205
10.430112361907959,-0.07419699430465698,-1.426146388053894,1.27927827835083,-0.4983977973461151,0.03795681521296501,0.035667963325977325
10.45022702217102,-0.07724879682064056,-1.4280537366867065,1.28233003616333,-0.4980163276195526,0.04177157208323479,0.03604944050312042
10.4703528881073,-0.07686731964349747,-1.425001859664917,1.2876707315444946,-0.4972533881664276,0.03452353551983833,0.03757534176111221
10.49039363861084,-0.07534141838550568,-1.41165030002594,1.2903410196304321,-0.49420157074928284,0.022697795182466507,0.038719769567251205
10.510482549667358,-0.07495994865894318,-1.3952468633651733,1.2922483682632446,-0.49382010102272034,0.018501564860343933,0.0394827201962471
10.53054165840149,-0.07305257022380829,-1.3899061679840088,1.2918668985366821,-0.49191272258758545,0.005149920005351305,0.040245670825242996
10.55062484741211,-0.0707637146115303,-1.3826581239700317,1.2918668985366821,-0.49000534415245056,-0.006294346414506435,0.04253452271223068
10.570717334747314,-0.06847485899925232,-1.3822766542434692,1.2876707315444946,-0.49038681387901306,-0.008964675478637218,0.04253452271223068
10.591048955917358,-0.06694895774126053,-1.3853284120559692,1.2842373847961426,-0.49038681387901306,-0.008201723918318748,0.04253452271223068
10.611137628555298,-0.06580453366041183,-1.3925764560699463,1.2781338691711426,-0.49000534415245056,-0.012779430486261845,0.04253452271223068
10.631190538406372,-0.06618601083755493,-1.4005874395370483,1.2762264013290405,-0.49076828360557556,-0.007438773289322853,0.042153049260377884
10.651285886764526,-0.06733043491840363,-1.4078354835510254,1.2754634618759155,-0.49191272258758545,0.0078202486038208,0.040245670825242996
10.671376705169678,-0.06809338182210922,-1.4143205881118774,1.275081992149353,-0.49458304047584534,0.020027466118335724,0.0394827201962471
10.69145131111145,-0.06771191209554672,-1.4135576486587524,1.2762264013290405,-0.49458304047584534,0.01735713705420494,0.038719769567251205
10.711540460586548,-0.06694895774126053,-1.407454013824463,1.2796597480773926,-0.49496451020240784,0.01430533267557621,0.038719769567251205
10.731581687927246,-0.06656748056411743,-1.4021133184432983,1.2827115058898926,-0.49458304047584534,0.00858320016413927,0.038719769567251205
10.751670360565186,-0.06580453366041183,-1.3994430303573608,1.2850003242492676,-0.49496451020240784,0.00019073777366429567,0.038719769567251205
10.771722555160522,-0.06313420087099075,-1.3971542119979858,1.2869077920913696,-0.4953460097312927,-0.0036240178160369396,0.03833829239010811
10.791811466217041,-0.06237125024199486,-1.3975356817245483,1.2869077920913696,-0.4961089491844177,-0.006294346414506435,0.03833829239010811
10.811911344528198,-0.05970092490315437,-1.3994430303573608,1.2865263223648071,-0.4983977973461151,-0.001716639962978661,0.037193864583969116
10.831973791122437,-0.058175019919872284,-1.4021133184432983,1.2853819131851196,-0.4991607666015625,0.008201723918318748,0.03528648987412453
10.852055549621582,-0.0558861680328846,-1.4040207862854004,1.2842373847961426,-0.5037384629249573,0.010109102353453636,0.03185320645570755
10.872105836868286,-0.05130846053361893,-1.4047837257385254,1.2842373847961426,-0.5079346895217896,0.01125352829694748,0.027656977996230125
10.89220666885376,-0.04901960864663124,-1.403639316558838,1.284618854522705,-0.508316159248352,0.010490577667951584,0.027656977996230125
10.912263631820679,-0.04253452271223068,-1.4024949073791504,1.2857633829116821,-0.5102235674858093,0.009727626107633114,0.026512550190091133
10.932394742965698,-0.0398641936480999,-1.4013503789901733,1.2869077920913696,-0.5128938555717468,0.008201723918318748,0.02536812424659729
10.95243525505066,-0.03376058489084244,-1.4013503789901733,1.2876707315444946,-0.5151827335357666,0.007438773289322853,0.021171892061829567
10.97254991531372,-0.030708782374858856,-1.4021133184432983,1.2876707315444946,-0.5174715518951416,0.0078202486038208,0.01926451548933983
10.992714166641235,-0.026512550190091133,-1.4032578468322754,1.2872892618179321,-0.5201418995857239,0.00858320016413927,0.01735713705420494
11.012788772583008,-0.021171892061829567,-1.4040207862854004,1.2869077920913696,-0.5220493078231812,0.008201723918318748,0.01430533267557621
11.0328848361969,-0.01773861236870289,-1.4040207862854004,1.2869077920913696,-0.5247195959091187,0.008201723918318748,0.01125352829694748
11.052939653396606,-0.010872052982449532,-1.4040207862854004,1.2876707315444946,-0.5262455344200134,0.0078202486038208,0.008964675478637218
11.073019742965698,-0.0078202486038208,-1.403639316558838,1.2880522012710571,-0.5281528830528259,0.006294346414506435,0.007057297509163618
11.093126773834229,-0.0009536888683214784,-1.403639316558838,1.2888151407241821,-0.5308232307434082,0.007057297509163618,0.002861066721379757
11.113181829452515,0.002861066721379757,-1.4040207862854004,1.2888151407241821,-0.5334935784339905,0.0078202486038208,0.00019073777366429567
11.133255004882812,0.008201723918318748,-1.4047837257385254,1.2888151407241821,-0.5365453362464905,0.008964675478637218,-0.004386968910694122
11.15330457687378,0.013542382046580315,-1.405165195465088,1.2891966104507446,-0.54112309217453,0.008964675478637218,-0.0078202486038208
11.17340087890625,0.016594186425209045,-1.405165195465088,1.2895780801773071,-0.543411910533905,0.009346150793135166,-0.009727626107633114
11.193461656570435,0.022697795182466507,-1.4055466651916504,1.2899595499038696,-0.5464637279510498,0.009346150793135166,-0.013160906732082367
11.213536977767944,0.026131074875593185,-1.4055466651916504,1.2903410196304321,-0.5506599545478821,0.007057297509163618,-0.015449759550392628
11.233608484268188,0.032616160809993744,-1.405928134918213,1.2911039590835571,-0.5540932416915894,0.0078202486038208,-0.019645990803837776
11.253678560256958,0.03604944050312042,-1.4063096046447754,1.2914854288101196,-0.5560005903244019,0.0078202486038208,-0.023460745811462402
11.273874282836914,0.04100862145423889,-1.4070725440979004,1.2922483682632446,-0.5613412857055664,0.008201723918318748,-0.02689402550458908
11.293886423110962,0.04558632895350456,-1.4078354835510254,1.2930114269256592,-0.5651560425758362,0.009346150793135166,-0.030708782374858856
11.313973903656006,0.04901960864663124,-1.408216953277588,1.2941558361053467,-0.5701152086257935,0.009727626107633114,-0.034142062067985535
11.33402132987976,0.0551232174038887,-1.4093613624572754,1.2960631847381592,-0.5735484957695007,0.010490577667951584,-0.03833829239010811
11.354115962982178,0.058175019919872284,-1.4101243019104004,1.2964446544647217,-0.5773632526397705,0.00858320016413927,-0.04177157208323479
11.374175548553467,0.06351567804813385,-1.410887360572815,1.2979705333709717,-0.5811780095100403,0.010109102353453636,-0.045204851776361465
11.394251823425293,0.06618601083755493,-1.4112688302993774,1.2987334728240967,-0.5853742361068726,0.008201723918318748,-0.04940108209848404
11.414336919784546,0.06961929053068161,-1.4120317697525024,1.2994964122772217,-0.5907148718833923,0.008201723918318748,-0.05397878959774971
11.43437933921814,0.07381551712751389,-1.4135576486587524,1.3006408214569092,-0.5952925682067871,0.009346150793135166,-0.05893797054886818
11.454490900039673,0.07610437273979187,-1.4143205881118774,1.3014038801193237,-0.6010147333145142,0.0078202486038208,-0.06351567804813385
11.474512338638306,0.08182650804519653,-1.4158464670181274,1.3044556379318237,-0.6052109599113464,0.008964675478637218,-0.06885633617639542
11.494614124298096,0.08449683338403702,-1.4166094064712524,1.3048371076583862,-0.6086442470550537,0.00667582219466567,-0.07381551712751389
11.514694213867188,0.08945601433515549,-1.41775381565094,1.3071259260177612,-0.615129292011261,0.008201723918318748,-0.08030059933662415
11.534759998321533,0.09288929402828217,-1.419661283493042,1.3078888654708862,-0.619325578212738,0.007438773289322853,-0.08449683338403702
11.554868698120117,0.09632257372140884,-1.4208056926727295,1.3097963333129883,-0.6235218048095703,0.00858320016413927,-0.08983749151229858
11.574898719787598,0.10051880776882172,-1.4230945110321045,1.3113222122192383,-0.6288624405860901,0.008964675478637218,-0.09517814964056015
11.59499454498291,0.1028076633810997,-1.4246203899383545,1.3120851516723633,-0.6330586671829224,0.00858320016413927,-0.10128175467252731
11.615057706832886,0.10776684433221817,-1.426146388053894,1.3147554397583008,-0.6395437717437744,0.011635004542768002,-0.10700388997793198
11.635152339935303,0.10967422276735306,-1.4265278577804565,1.3158998489379883,-0.6464102864265442,0.00858320016413927,-0.11310750246047974
11.655226707458496,0.11272602528333664,-1.426909327507019,1.3181887865066528,-0.6525139212608337,0.01201647985726595,-0.1188296303153038
11.675304412841797,0.11539635062217712,-1.4272907972335815,1.3200961351394653,-0.657473087310791,0.012397955171763897,-0.12264438718557358
11.69539189338684,0.11692225188016891,-1.4280537366867065,1.3220034837722778,-0.6635767221450806,0.012397955171763897,-0.12798504531383514
11.715440511703491,0.11959258466959,-1.429198145866394,1.3242924213409424,-0.6692988276481628,0.014686808921396732,-0.13218127191066742
11.7355318069458,0.12073700875043869,-1.4303425550460815,1.3246738910675049,-0.6757839322090149,0.013923857361078262,-0.13752193748950958
11.755582809448242,0.12340734153985977,-1.432249903678894,1.3269627094268799,-0.6834134459495544,0.018120087683200836,-0.14324407279491425
11.77567434310913,0.12340734153985977,-1.433012843132019,1.3277256488800049,-0.6906614899635315,0.016594186425209045,-0.14820325374603271
11.79575228691101,0.12455176562070847,-1.434157371520996,1.3292515277862549,-0.698291003704071,0.019645990803837776,-0.1527809500694275
11.815828800201416,0.12455176562070847,-1.4353017807006836,1.3307774066925049,-0.7051575779914856,0.020027466118335724,-0.15888457000255585
11.835894584655762,0.12455176562070847,-1.436446189880371,1.3315403461456299,-0.7135500311851501,0.01926451548933983,-0.1657511293888092
11.85594367980957,0.12417028844356537,-1.4375905990600586,1.332684874534607,-0.7207980751991272,0.01926451548933983,-0.16956588625907898
11.876037359237671,0.12417028844356537,-1.438735008239746,1.3330663442611694,-0.7280460596084595,0.01773861236870289,-0.17376211285591125
11.896090984344482,0.12378881871700287,-1.441023826599121,1.3338292837142944,-0.7352941036224365,0.01735713705420494,-0.17872129380702972
11.916203737258911,0.12302586436271667,-1.4429312944412231,1.3338292837142944,-0.7425421476364136,0.01506828423589468,-0.18596932291984558
11.936280727386475,0.12302586436271667,-1.4440757036209106,1.3338292837142944,-0.7505531311035156,0.013923857361078262,-0.19130998849868774
11.956355094909668,0.12302586436271667,-1.4459830522537231,1.3338292837142944,-0.7574197053909302,0.012779430486261845,-0.19550621509552002
11.976420879364014,0.12340734153985977,-1.4471274614334106,1.3338292837142944,-0.7646677494049072,0.008964675478637218,-0.20199130475521088
11.996472597122192,0.12340734153985977,-1.4486533403396606,1.3338292837142944,-0.770008385181427,0.006294346414506435,-0.20962081849575043
12.016567468643188,0.12340734153985977,-1.4497978687286377,1.3338292837142944,-0.7799267768859863,0.0036240178160369396,-0.21648737788200378
12.03663420677185,0.12340734153985977,-1.4509422779083252,1.3338292837142944,-0.7875562906265259,-0.0009536888683214784,-0.22259098291397095
12.056712865829468,0.12340734153985977,-1.4528496265411377,1.333447813987732,-0.7955672740936279,-0.0032425422687083483,-0.2290760725736618
12.076791524887085,0.12302586436271667,-1.4536125659942627,1.333447813987732,-0.8062485456466675,-0.009346150793135166,-0.23785001039505005
12.096866369247437,0.12340734153985977,-1.4547569751739502,1.333447813987732,-0.8157854676246643,-0.015449759550392628,-0.2470054179430008
12.116973876953125,0.12340734153985977,-1.4547569751739502,1.332684874534607,-0.8257037997245789,-0.019645990803837776,-0.25501641631126404
12.13702917098999,0.12417028844356537,-1.4547569751739502,1.3315403461456299,-0.8363851308822632,-0.024605173617601395,-0.2634088695049286
12.157122611999512,0.12493324279785156,-1.4547569751739502,1.3307774066925049,-0.84744793176651,-0.03223468363285065,-0.27218279242515564
12.177183389663696,0.12684062123298645,-1.4543755054473877,1.3292515277862549,-0.8600366115570068,-0.04177157208323479,-0.2813382148742676
12.197263956069946,0.12874799966812134,-1.4536125659942627,1.3277256488800049,-0.8726252913475037,-0.04711223021149635,-0.290112167596817
12.21735167503357,0.13027389347553253,-1.4532310962677002,1.3261997699737549,-0.8871213793754578,-0.053215838968753815,-0.29812315106391907
12.237418413162231,0.1325627565383911,-1.4520866870880127,1.3235293626785278,-0.8993285894393921,-0.06275273114442825,-0.3065156042575836
12.257496356964111,0.134470134973526,-1.4505608081817627,1.3216220140457153,-0.9126802682876587,-0.06771191209554672,-0.3130006790161133
12.27755069732666,0.1359960287809372,-1.4490348100662231,1.3197146654129028,-0.9260318875312805,-0.07801175117492676,-0.31643396615982056
12.29764199256897,0.13904783129692078,-1.4471274614334106,1.3170443773269653,-0.9367132186889648,-0.08564125746488571,-0.3221561014652252
12.317707300186157,0.13904783129692078,-1.4463645219802856,1.3151369094848633,-0.9470130205154419,-0.08983749151229858,-0.3225375711917877
12.337788343429565,0.14019227027893066,-1.4448386430740356,1.3117036819458008,-0.9554055333137512,-0.09708552807569504,-0.3233005404472351
12.35787582397461,0.14171816408634186,-1.4436942338943481,1.3090333938598633,-0.9657053351402283,-0.09822995215654373,-0.32520791888237
12.378039598464966,0.14209964871406555,-1.4414052963256836,1.3063629865646362,-0.9748607873916626,-0.10090028494596481,-0.32673379778862
12.398136854171753,0.14248111844062805,-1.438735008239746,1.3029297590255737,-0.9821087718009949,-0.09822995215654373,-0.3282597064971924
12.418216228485107,0.14324407279491425,-1.4360647201538086,1.3002593517303467,-0.9893568158149719,-0.1024261862039566,-0.3282597064971924
12.438305377960205,0.14438849687576294,-1.434157371520996,1.2968261241912842,-0.9969863295555115,-0.10852979123592377,-0.3282597064971924
12.458363771438599,0.14515145123004913,-1.4326313734054565,1.2949187755584717,-1.0034713745117188,-0.11158160120248795,-0.3278782367706299
12.478490829467773,0.14553292095661163,-1.4303425550460815,1.2914854288101196,-1.0088120698928833,-0.11501488089561462,-0.3271152675151825
12.498567342758179,0.14629587531089783,-1.4295796155929565,1.2884336709976196,-1.0149157047271729,-0.11425192654132843,-0.32673379778862
12.519303560256958,0.14744029939174652,-1.4288166761398315,1.2857633829116821,-1.0206378698349,-0.11425192654132843,-0.32520791888237
12.539385557174683,0.14782176911830902,-1.4265278577804565,1.2834744453430176,-1.024452567100525,-0.11577782779932022,-0.3240634799003601
12.559434413909912,0.14782176911830902,-1.423475980758667,1.281567096710205,-1.0297932624816895,-0.11501488089561462,-0.3217746317386627
12.579529762268066,0.14782176911830902,-1.423475980758667,1.2811856269836426,-1.0305562019348145,-0.11463340371847153,-0.3217746317386627
12.599598407745361,0.14858472347259521,-1.4200427532196045,1.2762264013290405,-1.0385671854019165,-0.12874799966812134,-0.31719690561294556
12.619673252105713,0.1504921019077301,-1.419661283493042,1.2731746435165405,-1.0423818826675415,-0.13179980218410492,-0.31528952717781067
12.639750242233276,0.1504921019077301,-1.4192798137664795,1.2708858251571655,-1.044670820236206,-0.12989242374897003,-0.3126192092895508
12.659798860549927,0.1504921019077301,-1.418898344039917,1.2682154178619385,-1.049248456954956,-0.12455176562070847,-0.3110933005809784
12.679893970489502,0.1504921019077301,-1.4173723459243774,1.266308069229126,-1.0523003339767456,-0.1203555315732956,-0.309567391872406
12.699906587600708,0.1508735716342926,-1.4150835275650024,1.265545129776001,-1.0561150312423706,-0.1188296303153038,-0.3076600432395935
12.719992399215698,0.1520180106163025,-1.4127947092056274,1.2636377811431885,-1.0576409101486206,-0.12722209095954895,-0.30384528636932373
12.740064144134521,0.152399480342865,-1.4101243019104004,1.262493371963501,-1.0606927871704102,-0.1348516047000885,-0.30155640840530396
12.76013708114624,0.15354390442371368,-1.4112688302993774,1.2602044343948364,-1.0645074844360352,-0.14133669435977936,-0.29850462079048157
12.780219316482544,0.15468832850456238,-1.4120317697525024,1.2586785554885864,-1.0679408311843872,-0.14515145123004913,-0.2954528033733368
12.800271034240723,0.15583276748657227,-1.4127947092056274,1.257534146308899,-1.0709925889968872,-0.14019227027893066,-0.2946898639202118
12.820366144180298,0.15545128285884857,-1.4127947092056274,1.255245327949524,-1.0736628770828247,-0.12798504531383514,-0.2943083941936493
12.840419054031372,0.15545128285884857,-1.4101243019104004,1.254482388496399,-1.0755703449249268,-0.1199740618467331,-0.2927824854850769
12.860507249832153,0.15506981313228607,-1.406691074371338,1.2529563903808594,-1.0767147541046143,-0.12302586436271667,-0.28934919834136963
12.880580186843872,0.15430685877799988,-1.4017318487167358,1.2533378601074219,-1.0778591632843018,-0.13179980218410492,-0.28553444147109985
12.900660991668701,0.15506981313228607,-1.402876377105713,1.2506675720214844,-1.0786221027374268,-0.14553292095661163,-0.2821011543273926
12.920740365982056,0.15545128285884857,-1.4032578468322754,1.2499046325683594,-1.0809109210968018,-0.15850308537483215,-0.2775234580039978
12.94079041481018,0.15697719156742096,-1.405165195465088,1.2521934509277344,-1.0839627981185913,-0.15735866129398346,-0.2763790488243103
12.960883378982544,0.15659570693969727,-1.405928134918213,1.2499046325683594,-1.0862516164779663,-0.15468832850456238,-0.2759975492954254
12.980938196182251,0.15659570693969727,-1.405165195465088,1.2460898160934448,-1.0885404348373413,-0.12989242374897003,-0.2763790488243103
13.001027345657349,0.15545128285884857,-1.402876377105713,1.2430380582809448,-1.0893033742904663,-0.12111848592758179,-0.2756160795688629
13.02110481262207,0.15583276748657227,-1.4005874395370483,1.2438009977340698,-1.0904479026794434,-0.11577782779932022,-0.2752346098423004
13.041182518005371,0.15659570693969727,-1.3982986211776733,1.2438009977340698,-1.0904479026794434,-0.12836651504039764,-0.27218279242515564
13.061260461807251,0.15735866129398346,-1.3956283330917358,1.2441824674606323,-1.0908293724060059,-0.14324407279491425,-0.26798656582832336
13.08130955696106,0.15774014592170715,-1.3986800909042358,1.2422751188278198,-1.0923552513122559,-0.15888457000255585,-0.265697717666626
13.101398706436157,0.15774014592170715,-1.3990615606307983,1.2422751188278198,-1.0938811302185059,-0.1646067053079605,-0.2641718089580536
13.121483087539673,0.15926603972911835,-1.403639316558838,1.2430380582809448,-1.0942625999450684,-0.16002899408340454,-0.2626459002494812
13.14157247543335,0.15888457000255585,-1.4040207862854004,1.2418936491012573,-1.0957884788513184,-0.1493476778268814,-0.2618829607963562
13.161650657653809,0.15812161564826965,-1.402876377105713,1.2384604215621948,-1.0973143577575684,-0.12607766687870026,-0.2622644305229187
13.181729793548584,0.15774014592170715,-1.3990615606307983,1.2380788326263428,-1.098840355873108,-0.11692225188016891,-0.2622644305229187
13.20182728767395,0.15926603972911835,-1.3971542119979858,1.2388418912887573,-1.0992218255996704,-0.12874799966812134,-0.2599755823612213
13.221879720687866,0.15964750945568085,-1.3963912725448608,1.2392233610153198,-1.099603295326233,-0.1501106321811676,-0.2569237947463989
13.24197793006897,0.16041046380996704,-1.3956283330917358,1.2399863004684448,-1.0999847650527954,-0.16002899408340454,-0.25463491678237915
13.262037515640259,0.16117341816425323,-1.3990615606307983,1.2388418912887573,-1.101129174232483,-0.1684214472770691,-0.25349050760269165
13.282124519348145,0.16117341816425323,-1.4021133184432983,1.2384604215621948,-1.1015106439590454,-0.17185473442077637,-0.25310903787612915
13.302210092544556,0.16155488789081573,-1.4070725440979004,1.2373158931732178,-1.103417992591858,-0.16269932687282562,-0.25120165944099426
13.322282791137695,0.16155488789081573,-1.4055466651916504,1.2365529537200928,-1.104180932044983,-0.14438849687576294,-0.25158312916755676
13.342350006103516,0.16117341816425323,-1.403639316558838,1.2346456050872803,-1.104180932044983,-0.12798504531383514,-0.25234606862068176
13.362401962280273,0.16002899408340454,-1.3963912725448608,1.2354085445404053,-1.1045624017715454,-0.12798504531383514,-0.25120165944099426
13.38248586654663,0.16117341816425323,-1.3899061679840088,1.2361714839935303,-1.1045624017715454,-0.13866636157035828,-0.2500572204589844
13.402540922164917,0.16155488789081573,-1.3918135166168213,1.2338826656341553,-1.1045624017715454,-0.15964750945568085,-0.2473868876695633
13.422619104385376,0.16346226632595062,-1.3933393955230713,1.2361714839935303,-1.106088399887085,-0.17681391537189484,-0.2439536154270172
13.442697286605835,0.1646067053079605,-1.3967727422714233,1.2369344234466553,-1.107614278793335,-0.17719538509845734,-0.24319066107273102
13.462764978408813,0.16384375095367432,-1.3998245000839233,1.2369344234466553,-1.1079957485198975,-0.17338064312934875,-0.24242770671844482
13.482834100723267,0.16231784224510193,-1.4032578468322754,1.2338826656341553,-1.109140157699585,-0.16384375095367432,-0.24280919134616852
13.502886772155762,0.16269932687282562,-1.4021133184432983,1.2335011959075928,-1.10990309715271,-0.12684062123298645,-0.2462424635887146
13.522992134094238,0.16231784224510193,-1.4017318487167358,1.2308309078216553,-1.110666036605835,-0.11692225188016891,-0.2466239482164383
13.543049812316895,0.16079194843769073,-1.3952468633651733,1.2335011959075928,-1.1110475063323975,-0.10662241280078888,-0.247768372297287
13.563146114349365,0.15850308537483215,-1.3883802890777588,1.2327382564544678,-1.1110475063323975,-0.10128175467252731,-0.2473868876695633
13.583253145217896,0.15735866129398346,-1.3845654726028442,1.2323567867279053,-1.110666036605835,-0.12607766687870026,-0.2450980395078659
13.603342294692993,0.15850308537483215,-1.3902876377105713,1.2319753170013428,-1.110666036605835,-0.14591439068317413,-0.24242770671844482
13.623379945755005,0.15964750945568085,-1.3967727422714233,1.2323567867279053,-1.1102845668792725,-0.16002899408340454,-0.24166475236415863
13.643429040908813,0.15926603972911835,-1.3975356817245483,1.2369344234466553,-1.10990309715271,-0.16231784224510193,-0.24013885855674744
13.663525581359863,0.15850308537483215,-1.4017318487167358,1.2319753170013428,-1.1102845668792725,-0.1516365259885788,-0.24013885855674744
13.68358325958252,0.15964750945568085,-1.402876377105713,1.2270160913467407,-1.110666036605835,-0.12531471252441406,-0.24280919134616852
13.70367980003357,0.15964750945568085,-1.403639316558838,1.2232013940811157,-1.1110475063323975,-0.11539635062217712,-0.24280919134616852
13.723756551742554,0.16002899408340454,-1.4002059698104858,1.2243458032608032,-1.11142897605896,-0.10090028494596481,-0.24357213079929352
13.744140386581421,0.15964750945568085,-1.3929579257965088,1.2266346216201782,-1.11142897605896,-0.09746700525283813,-0.24319066107273102
13.764230012893677,0.15964750945568085,-1.3891432285308838,1.2308309078216553,-1.1118104457855225,-0.11043716967105865,-0.24280919134616852
13.784286975860596,0.15850308537483215,-1.3937208652496338,1.2281605005264282,-1.1118104457855225,-0.1337071806192398,-0.24052032828330994
13.8043794631958,0.16041046380996704,-1.3952468633651733,1.2319753170013428,-1.11142897605896,-0.1520180106163025,-0.23861294984817505
13.824444770812988,0.16002899408340454,-1.3979171514511108,1.2357900142669678,-1.1110475063323975,-0.1512550562620163,-0.23861294984817505
13.844527959823608,0.15964750945568085,-1.402876377105713,1.2350270748138428,-1.11142897605896,-0.1512550562620163,-0.23861294984817505
13.864614963531494,0.15964750945568085,-1.407454013824463,1.2331197261810303,-1.1110475063323975,-0.13828489184379578,-0.23937590420246124
13.885337591171265,0.15964750945568085,-1.405165195465088,1.2327382564544678,-1.1110475063323975,-0.11959258466959,-0.24013885855674744
13.90545392036438,0.15964750945568085,-1.402876377105713,1.2327382564544678,-1.11142897605896,-0.10814831405878067,-0.23975738883018494
13.925511121749878,0.15964750945568085,-1.3960098028182983,1.2338826656341553,-1.1118104457855225,-0.11348897218704224,-0.23975738883018494
13.945600748062134,0.16041046380996704,-1.3948653936386108,1.2342641353607178,-1.11142897605896,-0.13218127191066742,-0.23823148012161255
13.965684175491333,0.15964750945568085,-1.3948653936386108,1.2338826656341553,-1.1118104457855225,-0.15583276748657227,-0.23517967760562897
13.98575735092163,0.16308079659938812,-1.3982986211776733,1.2357900142669678,-1.11142897605896,-0.16994735598564148,-0.23441672325134277
14.005847930908203,0.16269932687282562,-1.4005874395370483,1.2369344234466553,-1.11142897605896,-0.17109178006649017,-0.23289081454277039
14.025897979736328,0.16269932687282562,-1.4040207862854004,1.2350270748138428,-1.1118104457855225,-0.1672770231962204,-0.23250934481620789
14.0459885597229,0.16231784224510193,-1.4070725440979004,1.2319753170013428,-1.112191915512085,-0.152399480342865,-0.23403525352478027
14.066051959991455,0.16269932687282562,-1.405928134918213,1.2319753170013428,-1.113336443901062,-0.1203555315732956,-0.23670557141304016
14.086142778396606,0.16269932687282562,-1.4047837257385254,1.2315938472747803,-1.114099383354187,-0.11120012402534485,-0.23708705604076385
14.10624647140503,0.16231784224510193,-1.3952468633651733,1.2338826656341553,-1.114862322807312,-0.11158160120248795,-0.23708705604076385
14.12632417678833,0.16041046380996704,-1.3921949863433838,1.2335011959075928,-1.114862322807312,-0.12493324279785156,-0.23594263195991516
14.146422147750854,0.16002899408340454,-1.3899061679840088,1.2338826656341553,-1.1152437925338745,-0.1504921019077301,-0.23365376889705658
14.166475772857666,0.16269932687282562,-1.3967727422714233,1.2338826656341553,-1.1152437925338745,-0.1672770231962204,-0.23250934481620789
14.186564445495605,0.16231784224510193,-1.4002059698104858,1.2369344234466553,-1.1137179136276245,-0.17109178006649017,-0.2309834510087967
14.206620454788208,0.16041046380996704,-1.4017318487167358,1.2369344234466553,-1.1144808530807495,-0.16918440163135529,-0.2309834510087967
14.22671627998352,0.16269932687282562,-1.402876377105713,1.2315938472747803,-1.114862322807312,-0.14782176911830902,-0.23289081454277039
14.246771812438965,0.16384375095367432,-1.4047837257385254,1.2296863794326782,-1.114862322807312,-0.1180666834115982,-0.23556114733219147
14.266867637634277,0.16384375095367432,-1.4047837257385254,1.2289234399795532,-1.114862322807312,-0.11425192654132843,-0.23556114733219147
