liuyurong129/humanoid-gym/humanoid/data/actual_q_20250522-032454.csv
timestamp,joint_1,joint_2,joint_3,joint_4,joint_5,joint_6
5.507469177246094e-05,-0.00019073777366429567,0.002861066721379757,-0.0013351644156500697,-0.00019073777366429567,-0.00019073777366429567,-0.00019073777366429567
0.02013850212097168,-0.00019073777366429567,0.0020981156267225742,-0.0013351644156500697,-0.00019073777366429567,-0.00019073777366429567,-0.00019073777366429567
0.04021310806274414,-0.00019073777366429567,0.001716639962978661,-0.0013351644156500697,-0.00019073777366429567,-0.00019073777366429567,-0.00019073777366429567
0.06029319763183594,-0.00019073777366429567,0.001716639962978661,-0.0013351644156500697,-0.00019073777366429567,-0.00019073777366429567,-0.00019073777366429567
0.0803534984588623,-0.00019073777366429567,0.001716639962978661,-0.0009536888683214784,-0.00019073777366429567,-0.00019073777366429567,-0.00019073777366429567
0.1004185676574707,-0.00019073777366429567,0.0009536888683214784,-0.000572213320992887,-0.00019073777366429567,-0.00019073777366429567,-0.00019073777366429567
0.12062811851501465,-0.00019073777366429567,0.000572213320992887,-0.00019073777366429567,-0.00019073777366429567,-0.00019073777366429567,-0.00019073777366429567
0.14062023162841797,-0.00019073777366429567,0.0009536888683214784,0.00019073777366429567,-0.00019073777366429567,-0.00019073777366429567,-0.00019073777366429567
0.1607208251953125,-0.000572213320992887,0.000572213320992887,0.000572213320992887,-0.00019073777366429567,-0.00019073777366429567,-0.00019073777366429567
0.18078255653381348,-0.000572213320992887,0.000572213320992887,0.0009536888683214784,-0.00019073777366429567,-0.00019073777366429567,-0.00019073777366429567
0.20137596130371094,-0.0013351644156500697,0.000572213320992887,0.0009536888683214784,-0.00019073777366429567,-0.00019073777366429567,-0.00019073777366429567
0.22147655487060547,-0.0024795911740511656,-0.00019073777366429567,0.0013351644156500697,-0.00019073777366429567,-0.00019073777366429567,-0.00019073777366429567
0.24166584014892578,-0.002861066721379757,-0.000572213320992887,0.001716639962978661,-0.00019073777366429567,-0.00019073777366429567,-0.00019073777366429567
0.2616875171661377,-0.004005493130534887,-0.00019073777366429567,0.0020981156267225742,-0.00019073777366429567,-0.00019073777366429567,0.00019073777366429567
0.2817564010620117,-0.00476844422519207,-0.00019073777366429567,0.0024795911740511656,-0.00019073777366429567,-0.00019073777366429567,0.00019073777366429567
0.3019249439239502,-0.005531395319849253,-0.000572213320992887,0.002861066721379757,-0.00019073777366429567,-0.00019073777366429567,0.00019073777366429567
0.32193803787231445,-0.005912871100008488,-0.000572213320992887,0.002861066721379757,-0.00019073777366429567,-0.00019073777366429567,0.00019073777366429567
0.3420114517211914,-0.00667582219466567,-0.000572213320992887,0.002861066721379757,-0.00019073777366429567,-0.00019073777366429567,0.00019073777366429567
0.36211347579956055,-0.0078202486038208,-0.0013351644156500697,0.002861066721379757,-0.00019073777366429567,-0.00019073777366429567,0.000572213320992887
0.38216519355773926,-0.0078202486038208,-0.0013351644156500697,0.0032425422687083483,-0.00019073777366429567,-0.000572213320992887,0.000572213320992887
0.4022552967071533,-0.0078202486038208,-0.0013351644156500697,0.004005493130534887,-0.00019073777366429567,-0.000572213320992887,0.000572213320992887
0.42238378524780273,-0.0078202486038208,-0.0013351644156500697,0.004005493130534887,-0.00019073777366429567,-0.00019073777366429567,0.000572213320992887
0.4424715042114258,-0.008964675478637218,-0.0013351644156500697,0.004386968910694122,-0.00019073777366429567,-0.00019073777366429567,0.000572213320992887
0.46255016326904297,-0.009727626107633114,-0.0013351644156500697,0.00476844422519207,-0.00019073777366429567,-0.00019073777366429567,0.000572213320992887
0.48259472846984863,-0.010109102353453636,-0.0013351644156500697,0.00476844422519207,-0.00019073777366429567,-0.000572213320992887,0.000572213320992887
0.5026800632476807,-0.010872052982449532,-0.0013351644156500697,0.00476844422519207,-0.00019073777366429567,-0.000572213320992887,0.0009536888683214784
0.5227594375610352,-0.01201647985726595,-0.001716639962978661,0.00476844422519207,-0.00019073777366429567,-0.000572213320992887,0.0009536888683214784
0.5428996086120605,-0.012779430486261845,-0.0020981156267225742,0.005149920005351305,-0.000572213320992887,-0.000572213320992887,0.0009536888683214784
0.5629854202270508,-0.013160906732082367,-0.0024795911740511656,0.005531395319849253,-0.000572213320992887,-0.000572213320992887,0.0009536888683214784
0.5830538272857666,-0.013923857361078262,-0.0024795911740511656,0.005531395319849253,-0.000572213320992887,-0.000572213320992887,0.0013351644156500697
0.6031324863433838,-0.014686808921396732,-0.0024795911740511656,0.005912871100008488,-0.000572213320992887,-0.000572213320992887,0.0013351644156500697
0.6232044696807861,-0.01506828423589468,-0.0024795911740511656,0.006294346414506435,-0.000572213320992887,-0.000572213320992887,0.0013351644156500697
0.6432700157165527,-0.01506828423589468,-0.0024795911740511656,0.00667582219466567,-0.000572213320992887,-0.000572213320992887,0.0013351644156500697
0.6634385585784912,-0.01583123579621315,-0.0024795911740511656,0.00667582219466567,-0.000572213320992887,-0.000572213320992887,0.001716639962978661
0.6834759712219238,-0.016975661739706993,-0.002861066721379757,0.007057297509163618,-0.000572213320992887,-0.00019073777366429567,0.001716639962978661
0.7035274505615234,-0.016975661739706993,-0.0032425422687083483,0.007057297509163618,-0.0009536888683214784,-0.000572213320992887,0.001716639962978661
0.7236270904541016,-0.018120087683200836,-0.0032425422687083483,0.007057297509163618,-0.0009536888683214784,-0.000572213320992887,0.0020981156267225742
0.7436935901641846,-0.01926451548933983,-0.0036240178160369396,0.007057297509163618,-0.0009536888683214784,-0.000572213320992887,0.0024795911740511656
0.764005184173584,-0.020027466118335724,-0.0036240178160369396,0.0078202486038208,-0.0009536888683214784,-0.000572213320992887,0.0024795911740511656
0.7841000556945801,-0.02040894143283367,-0.0036240178160369396,0.008201723918318748,-0.0009536888683214784,-0.000572213320992887,0.0032425422687083483
0.8041591644287109,-0.021171892061829567,-0.0036240178160369396,0.008201723918318748,-0.0013351644156500697,-0.000572213320992887,0.0036240178160369396
0.824291467666626,-0.02231631986796856,-0.0036240178160369396,0.008201723918318748,-0.0013351644156500697,-0.000572213320992887,0.004005493130534887
0.8443632125854492,-0.02231631986796856,-0.004005493130534887,0.00858320016413927,-0.0013351644156500697,-0.000572213320992887,0.004005493130534887
0.8644001483917236,-0.02231631986796856,-0.004386968910694122,0.00858320016413927,-0.0013351644156500697,-0.000572213320992887,0.004386968910694122
0.8844876289367676,-0.023079270496964455,-0.004386968910694122,0.008964675478637218,-0.001716639962978661,-0.000572213320992887,0.004386968910694122
0.9045593738555908,-0.024223696440458298,-0.004386968910694122,0.008964675478637218,-0.001716639962978661,-0.000572213320992887,0.004386968910694122
0.9253413677215576,-0.024605173617601395,-0.004386968910694122,0.009346150793135166,-0.0020981156267225742,-0.000572213320992887,0.004386968910694122
0.945432186126709,-0.02536812424659729,-0.004386968910694122,0.010109102353453636,-0.0024795911740511656,-0.000572213320992887,0.004386968910694122
0.9654974937438965,-0.026131074875593185,-0.004386968910694122,0.010109102353453636,-0.002861066721379757,-0.000572213320992887,0.004386968910694122
0.9857661724090576,-0.02689402550458908,-0.004386968910694122,0.010109102353453636,-0.0032425422687083483,-0.000572213320992887,0.00476844422519207
1.0059669017791748,-0.027656977996230125,-0.004386968910694122,0.010490577667951584,-0.0036240178160369396,-0.000572213320992887,0.00476844422519207
1.0259535312652588,-0.027656977996230125,-0.00476844422519207,0.010490577667951584,-0.0036240178160369396,-0.0009536888683214784,0.00476844422519207
1.046065330505371,-0.02880140393972397,-0.005149920005351305,0.010872052982449532,-0.004005493130534887,-0.0009536888683214784,0.00476844422519207
1.0662291049957275,-0.029564354568719864,-0.005531395319849253,0.010872052982449532,-0.004005493130534887,-0.0009536888683214784,0.00476844422519207
1.0862786769866943,-0.029564354568719864,-0.005531395319849253,0.01125352829694748,-0.004005493130534887,-0.0009536888683214784,0.005149920005351305
1.1063411235809326,-0.03032730519771576,-0.005531395319849253,0.01125352829694748,-0.004005493130534887,-0.0009536888683214784,0.005149920005351305
1.1265065670013428,-0.031090257689356804,-0.005912871100008488,0.01201647985726595,-0.004386968910694122,-0.000572213320992887,0.005149920005351305
1.146637201309204,-0.03185320645570755,-0.006294346414506435,0.012397955171763897,-0.004386968910694122,-0.0009536888683214784,0.005531395319849253
1.1667864322662354,-0.032616160809993744,-0.006294346414506435,0.012397955171763897,-0.004386968910694122,-0.000572213320992887,0.005531395319849253
1.1869118213653564,-0.03376058489084244,-0.006294346414506435,0.012779430486261845,-0.00476844422519207,-0.0009536888683214784,0.005912871100008488
1.2069954872131348,-0.03490501269698143,-0.00667582219466567,0.013160906732082367,-0.00476844422519207,-0.0009536888683214784,0.005912871100008488
1.2271168231964111,-0.035667963325977325,-0.00667582219466567,0.013160906732082367,-0.00476844422519207,-0.0013351644156500697,0.006294346414506435
1.2472374439239502,-0.03681239113211632,-0.00667582219466567,0.013923857361078262,-0.005149920005351305,-0.0013351644156500697,0.007057297509163618
1.2673015594482422,-0.03681239113211632,-0.00667582219466567,0.014686808921396732,-0.005149920005351305,-0.0013351644156500697,0.0078202486038208
1.287454605102539,-0.03681239113211632,-0.00667582219466567,0.014686808921396732,-0.005531395319849253,-0.0013351644156500697,0.008201723918318748
1.3076088428497314,-0.03795681521296501,-0.00667582219466567,0.01506828423589468,-0.005531395319849253,-0.0013351644156500697,0.008201723918318748
1.3276238441467285,-0.039101243019104004,-0.00667582219466567,0.01506828423589468,-0.005912871100008488,-0.0009536888683214784,0.008201723918318748
1.3477261066436768,-0.0398641936480999,-0.007438773289322853,0.01506828423589468,-0.006294346414506435,-0.0013351644156500697,0.00858320016413927
1.3679215908050537,-0.040627144277095795,-0.007438773289322853,0.015449759550392628,-0.00667582219466567,-0.0013351644156500697,0.00858320016413927
1.3880419731140137,-0.04177157208323479,-0.007438773289322853,0.015449759550392628,-0.007057297509163618,-0.0013351644156500697,0.00858320016413927
1.408127784729004,-0.042153049260377884,-0.0078202486038208,0.016212711110711098,-0.007057297509163618,-0.0013351644156500697,0.008964675478637218
1.4281740188598633,-0.04253452271223068,-0.0078202486038208,0.016212711110711098,-0.007438773289322853,-0.001716639962978661,0.008964675478637218
1.448302984237671,-0.04406042397022247,-0.0078202486038208,0.016975661739706993,-0.007438773289322853,-0.001716639962978661,0.008964675478637218
1.468386173248291,-0.04444190114736557,-0.0078202486038208,0.01735713705420494,-0.007438773289322853,-0.0020981156267225742,0.009346150793135166
1.489006519317627,-0.04444190114736557,-0.0078202486038208,0.01735713705420494,-0.007438773289322853,-0.0020981156267225742,0.009346150793135166
1.5091257095336914,-0.04558632895350456,-0.00858320016413927,0.01773861236870289,-0.0078202486038208,-0.001716639962978661,0.009727626107633114
1.529181957244873,-0.04634927958250046,-0.00858320016413927,0.01773861236870289,-0.0078202486038208,-0.001716639962978661,0.009727626107633114
1.5492968559265137,-0.04711223021149635,-0.00858320016413927,0.018120087683200836,-0.0078202486038208,-0.001716639962978661,0.010109102353453636
1.5693557262420654,-0.04787518084049225,-0.00858320016413927,0.018501564860343933,-0.0078202486038208,-0.0020981156267225742,0.010490577667951584
1.589453935623169,-0.04901960864663124,-0.00858320016413927,0.01926451548933983,-0.008201723918318748,-0.001716639962978661,0.011635004542768002
1.6096184253692627,-0.049782559275627136,-0.008964675478637218,0.019645990803837776,-0.008201723918318748,-0.0020981156267225742,0.011635004542768002
1.6296570301055908,-0.050164032727479935,-0.008964675478637218,0.019645990803837776,-0.008201723918318748,-0.002861066721379757,0.011635004542768002
1.6497271060943604,-0.05130846053361893,-0.008964675478637218,0.019645990803837776,-0.008201723918318748,-0.002861066721379757,0.01201647985726595
1.6698741912841797,-0.051689937710762024,-0.009727626107633114,0.019645990803837776,-0.008201723918318748,-0.0032425422687083483,0.01201647985726595
1.6902844905853271,-0.05130846053361893,-0.009727626107633114,0.020027466118335724,-0.008201723918318748,-0.0036240178160369396,0.01201647985726595
1.7103888988494873,-0.05245288833975792,-0.009727626107633114,0.02079041674733162,-0.00858320016413927,-0.0036240178160369396,0.01201647985726595
1.7305235862731934,-0.05359731614589691,-0.009727626107633114,0.021171892061829567,-0.00858320016413927,-0.0032425422687083483,0.01201647985726595
1.7507350444793701,-0.054741740226745605,-0.009727626107633114,0.021553369238972664,-0.00858320016413927,-0.0032425422687083483,0.01201647985726595
1.7708227634429932,-0.0555046908557415,-0.009727626107633114,0.021553369238972664,-0.008964675478637218,-0.0036240178160369396,0.012397955171763897
1.7909226417541504,-0.056267641484737396,-0.010109102353453636,0.021553369238972664,-0.008964675478637218,-0.0036240178160369396,0.012397955171763897
1.8110246658325195,-0.05741206929087639,-0.010490577667951584,0.02193484455347061,-0.008964675478637218,-0.004005493130534887,0.012397955171763897
1.8311078548431396,-0.058175019919872284,-0.010872052982449532,0.02231631986796856,-0.009346150793135166,-0.004005493130534887,0.012397955171763897
1.8511831760406494,-0.05855649709701538,-0.010872052982449532,0.022697795182466507,-0.009346150793135166,-0.004005493130534887,0.012397955171763897
1.8713247776031494,-0.05855649709701538,-0.010872052982449532,0.022697795182466507,-0.009727626107633114,-0.004005493130534887,0.012779430486261845
1.8913636207580566,-0.059319447726011276,-0.010872052982449532,0.023079270496964455,-0.009727626107633114,-0.004005493130534887,0.012779430486261845
1.9114117622375488,-0.06046387553215027,-0.010872052982449532,0.023460745811462402,-0.010490577667951584,-0.004005493130534887,0.012779430486261845
1.9315400123596191,-0.06160829961299896,-0.010872052982449532,0.023460745811462402,-0.010872052982449532,-0.004005493130534887,0.012779430486261845
1.9516196250915527,-0.06198977679014206,-0.01125352829694748,0.02384222112596035,-0.01125352829694748,-0.004005493130534887,0.013160906732082367
1.9720439910888672,-0.06313420087099075,-0.011635004542768002,0.024223696440458298,-0.01125352829694748,-0.004005493130534887,0.013160906732082367
1.9921681880950928,-0.06427863240242004,-0.011635004542768002,0.024986648932099342,-0.01125352829694748,-0.004005493130534887,0.013160906732082367
2.012227773666382,-0.06504157930612564,-0.011635004542768002,0.024986648932099342,-0.011635004542768002,-0.004386968910694122,0.013542382046580315
2.03237247467041,-0.06618601083755493,-0.011635004542768002,0.024986648932099342,-0.011635004542768002,-0.004386968910694122,0.013923857361078262
2.0524048805236816,-0.06656748056411743,-0.01201647985726595,0.02536812424659729,-0.011635004542768002,-0.004386968910694122,0.01430533267557621
2.072462558746338,-0.06694895774126053,-0.01201647985726595,0.02536812424659729,-0.011635004542768002,-0.004386968910694122,0.014686808921396732
2.0925490856170654,-0.06809338182210922,-0.01201647985726595,0.025749599561095238,-0.011635004542768002,-0.004386968910694122,0.01506828423589468
2.112661838531494,-0.06885633617639542,-0.01201647985726595,0.025749599561095238,-0.01201647985726595,-0.004386968910694122,0.01506828423589468
2.1327507495880127,-0.07038223743438721,-0.01201647985726595,0.026512550190091133,-0.01201647985726595,-0.00476844422519207,0.015449759550392628
2.152841091156006,-0.0715266615152359,-0.012779430486261845,0.02689402550458908,-0.012397955171763897,-0.00476844422519207,0.015449759550392628
2.173666477203369,-0.07267109304666519,-0.012779430486261845,0.02689402550458908,-0.012397955171763897,-0.00476844422519207,0.015449759550392628
2.193779945373535,-0.07305257022380829,-0.013160906732082367,0.02727550081908703,-0.012397955171763897,-0.005149920005351305,0.01583123579621315
2.2138307094573975,-0.07305257022380829,-0.013160906732082367,0.027656977996230125,-0.012779430486261845,-0.005531395319849253,0.01583123579621315
2.2343928813934326,-0.07343403995037079,-0.013923857361078262,0.027656977996230125,-0.012779430486261845,-0.005912871100008488,0.01583123579621315
2.2544755935668945,-0.07419699430465698,-0.013923857361078262,0.02841992862522602,-0.013542382046580315,-0.00667582219466567,0.016212711110711098
2.274536371231079,-0.07457847148180008,-0.013923857361078262,0.02880140393972397,-0.013923857361078262,-0.00667582219466567,0.016212711110711098
2.2946367263793945,-0.07572289556264877,-0.013923857361078262,0.029182879254221916,-0.014686808921396732,-0.00667582219466567,0.016212711110711098
2.314718246459961,-0.07648584991693497,-0.013923857361078262,0.029564354568719864,-0.01506828423589468,-0.006294346414506435,0.016594186425209045
2.334768295288086,-0.07763027399778366,-0.013923857361078262,0.02994582988321781,-0.01506828423589468,-0.007057297509163618,0.016594186425209045
2.354875087738037,-0.07877469807863235,-0.013923857361078262,0.02994582988321781,-0.01506828423589468,-0.007057297509163618,0.016975661739706993
2.3749446868896484,-0.07953765243291855,-0.013923857361078262,0.03032730519771576,-0.01506828423589468,-0.007438773289322853,0.016975661739706993
2.395000696182251,-0.08030059933662415,-0.01430533267557621,0.030708782374858856,-0.015449759550392628,-0.007438773289322853,0.01773861236870289
2.4150679111480713,-0.08106355369091034,-0.014686808921396732,0.03147173300385475,-0.015449759550392628,-0.007438773289322853,0.018120087683200836
2.4351401329040527,-0.08106355369091034,-0.01506828423589468,0.03185320645570755,-0.015449759550392628,-0.007438773289322853,0.01888304017484188
2.4564108848571777,-0.08220797777175903,-0.01506828423589468,0.03185320645570755,-0.015449759550392628,-0.007057297509163618,0.01888304017484188
2.476578950881958,-0.08373387902975082,-0.01506828423589468,0.03185320645570755,-0.015449759550392628,-0.007057297509163618,0.01888304017484188
2.49660062789917,-0.08411535620689392,-0.01506828423589468,0.03185320645570755,-0.01583123579621315,-0.007057297509163618,0.01926451548933983
2.5170185565948486,-0.08564125746488571,-0.015449759550392628,0.03223468363285065,-0.01583123579621315,-0.007438773289322853,0.01926451548933983
2.537169933319092,-0.086785688996315,-0.01583123579621315,0.03299763426184654,-0.01583123579621315,-0.0078202486038208,0.01926451548933983
2.557203769683838,-0.0875486359000206,-0.01583123579621315,0.03337911143898964,-0.01583123579621315,-0.0078202486038208,0.019645990803837776
2.577374219894409,-0.0875486359000206,-0.01583123579621315,0.034142062067985535,-0.016212711110711098,-0.0078202486038208,0.019645990803837776
2.5973870754241943,-0.0879301130771637,-0.01583123579621315,0.034142062067985535,-0.016212711110711098,-0.0078202486038208,0.019645990803837776
2.617449998855591,-0.08869306743144989,-0.016212711110711098,0.034142062067985535,-0.016594186425209045,-0.007438773289322853,0.020027466118335724
2.637592315673828,-0.09021896868944168,-0.016212711110711098,0.03528648987412453,-0.016594186425209045,-0.007057297509163618,0.020027466118335724
2.6576309204101562,-0.09098191559314728,-0.016212711110711098,0.03528648987412453,-0.016975661739706993,-0.007057297509163618,0.020027466118335724
2.677748680114746,-0.09212634712457657,-0.016212711110711098,0.03604944050312042,-0.01735713705420494,-0.007438773289322853,0.02040894143283367
2.6978349685668945,-0.09327077120542526,-0.016594186425209045,0.03604944050312042,-0.01773861236870289,-0.007438773289322853,0.02040894143283367
2.7178871631622314,-0.09403372555971146,-0.016975661739706993,0.03643091395497322,-0.018120087683200836,-0.0078202486038208,0.02040894143283367
2.738074779510498,-0.09479667246341705,-0.016975661739706993,0.03681239113211632,-0.018501564860343933,-0.0078202486038208,0.02040894143283367
2.758244276046753,-0.09517814964056015,-0.01735713705420494,0.037193864583969116,-0.018501564860343933,-0.0078202486038208,0.02079041674733162
2.779200315475464,-0.09555962681770325,-0.01735713705420494,0.037193864583969116,-0.01888304017484188,-0.0078202486038208,0.021171892061829567
2.799321174621582,-0.09708552807569504,-0.01735713705420494,0.03795681521296501,-0.01888304017484188,-0.0078202486038208,0.021553369238972664
2.8193764686584473,-0.09784847497940063,-0.01735713705420494,0.03795681521296501,-0.01888304017484188,-0.007438773289322853,0.02193484455347061
2.839501142501831,-0.09899290651082993,-0.01773861236870289,0.03795681521296501,-0.01926451548933983,-0.007438773289322853,0.02193484455347061
2.859684467315674,-0.10013733059167862,-0.018120087683200836,0.03833829239010811,-0.01926451548933983,-0.0078202486038208,0.02231631986796856
2.8798341751098633,-0.10090028494596481,-0.018120087683200836,0.038719769567251205,-0.01926451548933983,-0.0078202486038208,0.022697795182466507
2.8999412059783936,-0.10204470902681351,-0.018120087683200836,0.039101243019104004,-0.01926451548933983,-0.0078202486038208,0.023079270496964455
2.9200398921966553,-0.1024261862039566,-0.018120087683200836,0.0394827201962471,-0.019645990803837776,-0.008201723918318748,0.023079270496964455
2.940112352371216,-0.1028076633810997,-0.018120087683200836,0.0398641936480999,-0.019645990803837776,-0.0078202486038208,0.023460745811462402
2.960181474685669,-0.1039520874619484,-0.018501564860343933,0.040245670825242996,-0.019645990803837776,-0.0078202486038208,0.023460745811462402
2.9802236557006836,-0.10433356463909149,-0.01888304017484188,0.040245670825242996,-0.020027466118335724,-0.0078202486038208,0.023460745811462402
3.0002968311309814,-0.10585946589708328,-0.01926451548933983,0.040627144277095795,-0.020027466118335724,-0.007438773289322853,0.02384222112596035
3.02040958404541,-0.10662241280078888,-0.01926451548933983,0.04100862145423889,-0.020027466118335724,-0.007438773289322853,0.02384222112596035
3.0405335426330566,-0.10776684433221817,-0.01926451548933983,0.04139009863138199,-0.020027466118335724,-0.0078202486038208,0.024223696440458298
3.0605742931365967,-0.10891126841306686,-0.01926451548933983,0.04177157208323479,-0.02040894143283367,-0.008201723918318748,0.024605173617601395
3.0806713104248047,-0.10929274559020996,-0.01926451548933983,0.042153049260377884,-0.02040894143283367,-0.008201723918318748,0.024986648932099342
3.1007497310638428,-0.11005569249391556,-0.020027466118335724,0.04253452271223068,-0.02079041674733162,-0.008201723918318748,0.026131074875593185
3.121286630630493,-0.11120012402534485,-0.02040894143283367,0.04291599988937378,-0.021171892061829567,-0.0078202486038208,0.02727550081908703
3.141491174697876,-0.11310750246047974,-0.021171892061829567,0.043678950518369675,-0.021553369238972664,-0.0078202486038208,0.02727550081908703
3.1614837646484375,-0.11425192654132843,-0.021171892061829567,0.04406042397022247,-0.02231631986796856,-0.007438773289322853,0.02727550081908703
3.1815574169158936,-0.11539635062217712,-0.021171892061829567,0.04444190114736557,-0.022697795182466507,-0.008201723918318748,0.027656977996230125
3.2016494274139404,-0.11615930497646332,-0.021171892061829567,0.04444190114736557,-0.022697795182466507,-0.008201723918318748,0.028038453310728073
3.221723794937134,-0.11654078215360641,-0.021171892061829567,0.04482337832450867,-0.022697795182466507,-0.008201723918318748,0.028038453310728073
3.2418296337127686,-0.11692225188016891,-0.021553369238972664,0.045204851776361465,-0.022697795182466507,-0.008201723918318748,0.02841992862522602
3.2619802951812744,-0.11768520623445511,-0.021553369238972664,0.04596780240535736,-0.022697795182466507,-0.008201723918318748,0.02880140393972397
3.2819879055023193,-0.1188296303153038,-0.02193484455347061,0.04634927958250046,-0.023079270496964455,-0.0078202486038208,0.029182879254221916
3.302079677581787,-0.1199740618467331,-0.02231631986796856,0.046730753034353256,-0.023079270496964455,-0.0078202486038208,0.029564354568719864
3.322165012359619,-0.12073700875043869,-0.02231631986796856,0.04711223021149635,-0.023460745811462402,-0.0078202486038208,0.02994582988321781
3.342217445373535,-0.12188144028186798,-0.02231631986796856,0.04749370738863945,-0.023460745811462402,-0.008201723918318748,0.03032730519771576
3.3623156547546387,-0.12302586436271667,-0.02231631986796856,0.04787518084049225,-0.023460745811462402,-0.008201723918318748,0.03032730519771576
3.3824267387390137,-0.12417028844356537,-0.022697795182466507,0.048256658017635345,-0.023460745811462402,-0.008201723918318748,0.030708782374858856
3.402759552001953,-0.12417028844356537,-0.022697795182466507,0.048638131469488144,-0.02384222112596035,-0.00858320016413927,0.030708782374858856
3.422870397567749,-0.12531471252441406,-0.023079270496964455,0.04901960864663124,-0.02384222112596035,-0.008201723918318748,0.030708782374858856
3.4429354667663574,-0.12645913660526276,-0.023460745811462402,0.049782559275627136,-0.02384222112596035,-0.008201723918318748,0.031090257689356804
3.463024616241455,-0.12760357558727264,-0.023460745811462402,0.050164032727479935,-0.024223696440458298,-0.0078202486038208,0.031090257689356804
3.483124017715454,-0.12836651504039764,-0.023460745811462402,0.05054550990462303,-0.024605173617601395,-0.0078202486038208,0.03147173300385475
3.503192901611328,-0.12989242374897003,-0.023460745811462402,0.05130846053361893,-0.024986648932099342,-0.008201723918318748,0.03147173300385475
3.523280620574951,-0.13103684782981873,-0.02384222112596035,0.05207141116261482,-0.02536812424659729,-0.008201723918318748,0.03185320645570755
3.5433380603790283,-0.13141833245754242,-0.024223696440458298,0.05207141116261482,-0.025749599561095238,-0.00858320016413927,0.03223468363285065
3.563439130783081,-0.13218127191066742,-0.024223696440458298,0.05245288833975792,-0.025749599561095238,-0.00858320016413927,0.03223468363285065
3.5835113525390625,-0.1333257108926773,-0.024605173617601395,0.05245288833975792,-0.026131074875593185,-0.00858320016413927,0.03299763426184654
3.6035561561584473,-0.1340886503458023,-0.024605173617601395,0.05283436179161072,-0.026131074875593185,-0.008201723918318748,0.034142062067985535
3.6236538887023926,-0.1356145590543747,-0.024605173617601395,0.05359731614589691,-0.026512550190091133,-0.0078202486038208,0.034142062067985535
3.6437838077545166,-0.1363775134086609,-0.024986648932099342,0.05397878959774971,-0.026512550190091133,-0.008201723918318748,0.03452353551983833
3.6638364791870117,-0.13752193748950958,-0.02536812424659729,0.05436026677489281,-0.026512550190091133,-0.00858320016413927,0.03490501269698143
3.683917999267578,-0.13866636157035828,-0.025749599561095238,0.054741740226745605,-0.02689402550458908,-0.00858320016413927,0.03490501269698143
3.7039999961853027,-0.13904783129692078,-0.026131074875593185,0.0551232174038887,-0.02689402550458908,-0.00858320016413927,0.03528648987412453
3.724531650543213,-0.14057374000549316,-0.026512550190091133,0.0558861680328846,-0.02689402550458908,-0.00858320016413927,0.03528648987412453
3.7446184158325195,-0.14209964871406555,-0.026512550190091133,0.056267641484737396,-0.02689402550458908,-0.00858320016413927,0.035667963325977325
3.7647461891174316,-0.14286258816719055,-0.026512550190091133,0.05664911866188049,-0.02727550081908703,-0.008201723918318748,0.03604944050312042
3.784832000732422,-0.14400701224803925,-0.026512550190091133,0.05703059583902359,-0.02727550081908703,-0.00858320016413927,0.037193864583969116
3.8049049377441406,-0.14476996660232544,-0.02689402550458908,0.057793546468019485,-0.027656977996230125,-0.00858320016413927,0.03757534176111221
3.8253157138824463,-0.14667734503746033,-0.027656977996230125,0.058175019919872284,-0.027656977996230125,-0.00858320016413927,0.03795681521296501
3.8454301357269287,-0.14820325374603271,-0.028038453310728073,0.05893797054886818,-0.028038453310728073,-0.008201723918318748,0.03795681521296501
3.865506887435913,-0.1489662081003189,-0.02841992862522602,0.059319447726011276,-0.02841992862522602,-0.009346150793135166,0.03833829239010811
3.885580539703369,-0.1501106321811676,-0.02841992862522602,0.06008239835500717,-0.02880140393972397,-0.009346150793135166,0.03833829239010811
3.905653715133667,-0.1512550562620163,-0.02841992862522602,0.06046387553215027,-0.029182879254221916,-0.008964675478637218,0.03833829239010811
3.9257118701934814,-0.152399480342865,-0.02841992862522602,0.06084534898400307,-0.029564354568719864,-0.008964675478637218,0.03833829239010811
3.9458091259002686,-0.15316243469715118,-0.02841992862522602,0.061226826161146164,-0.029564354568719864,-0.008964675478637218,0.038719769567251205
3.9658820629119873,-0.15392538905143738,-0.02880140393972397,0.06198977679014206,-0.02994582988321781,-0.008964675478637218,0.039101243019104004
3.9859602451324463,-0.15468832850456238,-0.02880140393972397,0.06275273114442825,-0.02994582988321781,-0.009346150793135166,0.039101243019104004
4.006063222885132,-0.15621423721313477,-0.029182879254221916,0.06313420087099075,-0.02994582988321781,-0.008964675478637218,0.0394827201962471
4.026157379150391,-0.15697719156742096,-0.029564354568719864,0.06351567804813385,-0.03032730519771576,-0.008964675478637218,0.0398641936480999
4.046202898025513,-0.15850308537483215,-0.029564354568719864,0.06389715522527695,-0.03032730519771576,-0.008964675478637218,0.0398641936480999
4.066365480422974,-0.16002899408340454,-0.02994582988321781,0.06466010212898254,-0.03032730519771576,-0.008964675478637218,0.040627144277095795
4.086463212966919,-0.16041046380996704,-0.02994582988321781,0.06504157930612564,-0.03032730519771576,-0.009346150793135166,0.04139009863138199
4.10675311088562,-0.16155488789081573,-0.03032730519771576,0.06580453366041183,-0.030708782374858856,-0.009727626107633114,0.04177157208323479
4.126893043518066,-0.16308079659938812,-0.030708782374858856,0.06694895774126053,-0.030708782374858856,-0.010109102353453636,0.042153049260377884
4.14696741104126,-0.16422522068023682,-0.030708782374858856,0.06733043491840363,-0.031090257689356804,-0.010109102353453636,0.042153049260377884
4.167665719985962,-0.1661325991153717,-0.030708782374858856,0.06771191209554672,-0.031090257689356804,-0.010109102353453636,0.04253452271223068
4.187759160995483,-0.1672770231962204,-0.031090257689356804,0.06885633617639542,-0.03147173300385475,-0.010109102353453636,0.04291599988937378
4.2078258991241455,-0.1680399775505066,-0.03147173300385475,0.06923781335353851,-0.03147173300385475,-0.010490577667951584,0.04329747334122658
4.227964162826538,-0.16918440163135529,-0.03147173300385475,0.07000076025724411,-0.03185320645570755,-0.010872052982449532,0.04406042397022247
4.248005151748657,-0.17032882571220398,-0.03185320645570755,0.07038223743438721,-0.032616160809993744,-0.010872052982449532,0.045204851776361465
4.268056392669678,-0.17185473442077637,-0.03185320645570755,0.07038223743438721,-0.03299763426184654,-0.010872052982449532,0.04558632895350456
4.288176774978638,-0.17338064312934875,-0.03223468363285065,0.0707637146115303,-0.03376058489084244,-0.010872052982449532,0.04558632895350456
4.308346748352051,-0.17414358258247375,-0.032616160809993744,0.0715266615152359,-0.03376058489084244,-0.010490577667951584,0.04558632895350456
4.32857084274292,-0.17528800666332245,-0.03299763426184654,0.0722896158695221,-0.034142062067985535,-0.010872052982449532,0.04596780240535736
4.348727464675903,-0.17719538509845734,-0.03299763426184654,0.07343403995037079,-0.034142062067985535,-0.010872052982449532,0.04634927958250046
4.368778705596924,-0.17948424816131592,-0.03337911143898964,0.07381551712751389,-0.03452353551983833,-0.010872052982449532,0.046730753034353256
4.388909578323364,-0.1817730963230133,-0.03376058489084244,0.07457847148180008,-0.03452353551983833,-0.010490577667951584,0.046730753034353256
4.4090211391448975,-0.1825360506772995,-0.03376058489084244,0.07495994865894318,-0.03490501269698143,-0.010872052982449532,0.04711223021149635
4.42918586730957,-0.1832990050315857,-0.034142062067985535,0.07572289556264877,-0.03490501269698143,-0.01125352829694748,0.048256658017635345
4.449409484863281,-0.1848248988389969,-0.03490501269698143,0.07686731964349747,-0.03490501269698143,-0.01125352829694748,0.04940108209848404
4.469404935836792,-0.18635080754756927,-0.03490501269698143,0.07763027399778366,-0.03528648987412453,-0.010872052982449532,0.04940108209848404
4.489476203918457,-0.18787670135498047,-0.03528648987412453,0.07801175117492676,-0.035667963325977325,-0.010872052982449532,0.049782559275627136
4.509651184082031,-0.18940261006355286,-0.035667963325977325,0.07877469807863235,-0.03604944050312042,-0.010490577667951584,0.050164032727479935
4.529731035232544,-0.18978407979011536,-0.03604944050312042,0.07953765243291855,-0.03681239113211632,-0.010490577667951584,0.05054550990462303
4.549761533737183,-0.19130998849868774,-0.03604944050312042,0.08030059933662415,-0.037193864583969116,-0.010872052982449532,0.05092698708176613
4.569841623306274,-0.19283588230609894,-0.03604944050312042,0.08106355369091034,-0.037193864583969116,-0.010872052982449532,0.051689937710762024
4.590320825576782,-0.19474326074123383,-0.03681239113211632,0.08182650804519653,-0.03757534176111221,-0.010872052982449532,0.05283436179161072
4.610415697097778,-0.1962691694498062,-0.03681239113211632,0.08297093212604523,-0.03757534176111221,-0.010490577667951584,0.053215838968753815
4.630518674850464,-0.1970321238040924,-0.037193864583969116,0.08335240930318832,-0.03795681521296501,-0.010872052982449532,0.05359731614589691
4.650707483291626,-0.1989395022392273,-0.03795681521296501,0.08411535620689392,-0.03795681521296501,-0.010490577667951584,0.05397878959774971
4.670876741409302,-0.20122835040092468,-0.03833829239010811,0.08525978773832321,-0.03833829239010811,-0.010872052982449532,0.05436026677489281
4.690900564193726,-0.20389868319034576,-0.03833829239010811,0.08602273464202881,-0.03833829239010811,-0.010490577667951584,0.054741740226745605
4.710999250411987,-0.20542457699775696,-0.038719769567251205,0.0871671661734581,-0.038719769567251205,-0.01125352829694748,0.0558861680328846
4.731125831604004,-0.20618753135204315,-0.039101243019104004,0.0879301130771637,-0.038719769567251205,-0.01125352829694748,0.05664911866188049
4.751147985458374,-0.20771344006061554,-0.039101243019104004,0.08907453715801239,-0.038719769567251205,-0.01125352829694748,0.05703059583902359
4.771237373352051,-0.20962081849575043,-0.0394827201962471,0.09021896868944168,-0.039101243019104004,-0.010872052982449532,0.05703059583902359
4.791326522827148,-0.21114671230316162,-0.0398641936480999,0.09060044586658478,-0.0398641936480999,-0.010490577667951584,0.05741206929087639
4.811713457107544,-0.21190966665744781,-0.040245670825242996,0.09136339277029037,-0.040627144277095795,-0.010872052982449532,0.05741206929087639
4.83191990852356,-0.2130540907382965,-0.040245670825242996,0.09212634712457657,-0.04100862145423889,-0.010872052982449532,0.057793546468019485
4.8519580364227295,-0.2149614691734314,-0.04100862145423889,0.09288929402828217,-0.04139009863138199,-0.010872052982449532,0.058175019919872284
4.87201452255249,-0.21686884760856628,-0.04100862145423889,0.09403372555971146,-0.04177157208323479,-0.010109102353453636,0.05893797054886818
4.89209508895874,-0.21839475631713867,-0.04139009863138199,0.09479667246341705,-0.042153049260377884,-0.010109102353453636,0.05970092490315437
4.912205219268799,-0.21992065012454987,-0.04177157208323479,0.09594109654426575,-0.042153049260377884,-0.01125352829694748,0.06084534898400307
4.932284116744995,-0.22106507420539856,-0.042153049260377884,0.09708552807569504,-0.042153049260377884,-0.010872052982449532,0.06160829961299896
4.952423334121704,-0.22297245264053345,-0.04291599988937378,0.09784847497940063,-0.04253452271223068,-0.010490577667951584,0.06198977679014206
4.972523212432861,-0.22526131570339203,-0.04329747334122658,0.09861142933368683,-0.04291599988937378,-0.010490577667951584,0.06275273114442825
4.99259877204895,-0.22716869413852692,-0.043678950518369675,0.09975585341453552,-0.043678950518369675,-0.010109102353453636,0.06427863240242004
5.012730360031128,-0.2290760725736618,-0.04406042397022247,0.10051880776882172,-0.04406042397022247,-0.010109102353453636,0.06427863240242004
5.032808780670166,-0.2309834510087967,-0.04444190114736557,0.10204470902681351,-0.04482337832450867,-0.010109102353453636,0.06466010212898254
5.052869081497192,-0.23327229917049408,-0.04482337832450867,0.1028076633810997,-0.04482337832450867,-0.010109102353453636,0.06504157930612564
5.072962999343872,-0.23556114733219147,-0.045204851776361465,0.10433356463909149,-0.045204851776361465,-0.010872052982449532,0.06542305648326874
5.0930492877960205,-0.23670557141304016,-0.04558632895350456,0.10509651154279709,-0.045204851776361465,-0.010490577667951584,0.06618601083755493
5.113555192947388,-0.23937590420246124,-0.04596780240535736,0.10624094307422638,-0.04558632895350456,-0.009346150793135166,0.06694895774126053
5.13364577293396,-0.24128328263759613,-0.04634927958250046,0.10738536715507507,-0.04558632895350456,-0.008964675478637218,0.06809338182210922
5.1537556648254395,-0.24280919134616852,-0.046730753034353256,0.10891126841306686,-0.04596780240535736,-0.009727626107633114,0.06885633617639542
5.173807621002197,-0.2458609938621521,-0.04711223021149635,0.10967422276735306,-0.04596780240535736,-0.009346150793135166,0.06961929053068161
5.193909168243408,-0.2481498420238495,-0.04787518084049225,0.11196307092905045,-0.04634927958250046,-0.00858320016413927,0.0707637146115303
5.213979959487915,-0.24967575073242188,-0.048256658017635345,0.11272602528333664,-0.04634927958250046,-0.008964675478637218,0.071908138692379
5.234155893325806,-0.25234606862068176,-0.048256658017635345,0.11425192654132843,-0.046730753034353256,-0.008964675478637218,0.0722896158695221
5.254299640655518,-0.25463491678237915,-0.048256658017635345,0.11577782779932022,-0.04749370738863945,-0.008201723918318748,0.07267109304666519
5.274372577667236,-0.25577935576438904,-0.048638131469488144,0.11692225188016891,-0.048256658017635345,-0.00858320016413927,0.07305257022380829
5.294463396072388,-0.2580682039260864,-0.04940108209848404,0.1188296303153038,-0.048638131469488144,-0.008201723918318748,0.07343403995037079
5.314529180526733,-0.2611200213432312,-0.050164032727479935,0.1199740618467331,-0.04940108209848404,-0.008201723918318748,0.07457847148180008
5.3346405029296875,-0.2645532786846161,-0.05092698708176613,0.12226291000843048,-0.049782559275627136,-0.0078202486038208,0.07572289556264877
5.354710578918457,-0.26722362637519836,-0.051689937710762024,0.12417028844356537,-0.049782559275627136,-0.0078202486038208,0.07648584991693497
5.374772548675537,-0.26951247453689575,-0.05207141116261482,0.12569619715213776,-0.05054550990462303,-0.0078202486038208,0.07763027399778366
5.394892692565918,-0.27218279242515564,-0.05283436179161072,0.12760357558727264,-0.05130846053361893,-0.008201723918318748,0.07953765243291855
5.414989948272705,-0.2744716703891754,-0.05359731614589691,0.13027389347553253,-0.051689937710762024,-0.008201723918318748,0.08030059933662415
5.435096263885498,-0.2771419882774353,-0.05397878959774971,0.13179980218410492,-0.05245288833975792,-0.0078202486038208,0.08068207651376724
5.4551873207092285,-0.2794308364391327,-0.054741740226745605,0.1348516047000885,-0.05283436179161072,-0.008201723918318748,0.08182650804519653
5.475241661071777,-0.2821011543273926,-0.0551232174038887,0.1371404528617859,-0.05283436179161072,-0.007057297509163618,0.08335240930318832
5.495476245880127,-0.28477150201797485,-0.0555046908557415,0.13981078565120697,-0.053215838968753815,-0.00667582219466567,0.08373387902975082
5.5155980587005615,-0.28782328963279724,-0.05664911866188049,0.14324407279491425,-0.053215838968753815,-0.007057297509163618,0.08449683338403702
5.53564977645874,-0.2912565767765045,-0.05741206929087639,0.14515145123004913,-0.05359731614589691,-0.007057297509163618,0.0864042118191719
5.555865526199341,-0.2946898639202118,-0.05855649709701538,0.14782176911830902,-0.05359731614589691,-0.007057297509163618,0.0879301130771637
5.575863361358643,-0.2969787120819092,-0.059319447726011276,0.1504921019077301,-0.05397878959774971,-0.00667582219466567,0.08907453715801239
5.596033573150635,-0.29964902997016907,-0.06046387553215027,0.15316243469715118,-0.05436026677489281,-0.007057297509163618,0.09136339277029037
5.61612868309021,-0.30346378684043884,-0.06198977679014206,0.15697719156742096,-0.054741740226745605,-0.006294346414506435,0.09174486994743347
5.6361870765686035,-0.3065156042575836,-0.06275273114442825,0.15926603972911835,-0.0558861680328846,-0.005912871100008488,0.09288929402828217
5.6566526889801025,-0.3107118308544159,-0.06389715522527695,0.16346226632595062,-0.05664911866188049,-0.00476844422519207,0.09441519528627396
5.6767659187316895,-0.31490805745124817,-0.06542305648326874,0.1684214472770691,-0.05703059583902359,-0.0032425422687083483,0.09632257372140884
5.69681715965271,-0.31872281432151794,-0.06694895774126053,0.17109178006649017,-0.057793546468019485,-0.0024795911740511656,0.09861142933368683
5.716992378234863,-0.3236820101737976,-0.06885633617639542,0.17681391537189484,-0.05855649709701538,-0.0013351644156500697,0.09937438368797302
5.737022638320923,-0.3278782367706299,-0.07038223743438721,0.1817730963230133,-0.05970092490315437,-0.0009536888683214784,0.10090028494596481
5.757261037826538,-0.33283740282058716,-0.0722896158695221,0.18596932291984558,-0.06046387553215027,-0.00019073777366429567,0.1028076633810997
5.777376651763916,-0.3377965986728668,-0.07495994865894318,0.19245441257953644,-0.06084534898400307,-0.000572213320992887,0.10509651154279709
5.797432899475098,-0.3419928252696991,-0.07763027399778366,0.1970321238040924,-0.061226826161146164,-0.00019073777366429567,0.10700388997793198
5.8175318241119385,-0.34695202112197876,-0.08144503086805344,0.20428015291690826,-0.06198977679014206,-0.000572213320992887,0.11005569249391556
5.837661504745483,-0.35152971744537354,-0.08411535620689392,0.21076524257659912,-0.06275273114442825,0.0009536888683214784,0.11158160120248795
5.8577165603637695,-0.3572518527507782,-0.0871671661734581,0.21877622604370117,-0.06427863240242004,0.0013351644156500697,0.11577782779932022
5.87782621383667,-0.36297398805618286,-0.09212634712457657,0.2290760725736618,-0.06466010212898254,0.002861066721379757,0.1184481605887413
5.897894620895386,-0.3686961233615875,-0.09937438368797302,0.23899443447589874,-0.06542305648326874,0.0036240178160369396,0.12149996310472488
5.917983055114746,-0.3751811981201172,-0.10814831405878067,0.25120165944099426,-0.06694895774126053,0.0036240178160369396,0.12455176562070847
5.938084602355957,-0.38166627287864685,-0.11768520623445511,0.2653162479400635,-0.06771191209554672,0.0032425422687083483,0.12645913660526276
5.958186149597168,-0.386243999004364,-0.12417028844356537,0.2775234580039978,-0.06809338182210922,0.004386968910694122,0.12989242374897003
5.978567600250244,-0.3904402256011963,-0.13179980218410492,0.2920195460319519,-0.06847485899925232,0.005149920005351305,0.1337071806192398
5.998692035675049,-0.39616236090660095,-0.14553292095661163,0.30460822582244873,-0.06923781335353851,0.005912871100008488,0.1367589831352234
6.018782138824463,-0.4018844962120056,-0.16231784224510193,0.32101166248321533,-0.07000076025724411,0.006294346414506435,0.14133669435977936
6.038839101791382,-0.4064621925354004,-0.17528800666332245,0.3381780683994293,-0.0707637146115303,0.007057297509163618,0.14515145123004913
6.059002161026001,-0.4079881012439728,-0.1825360506772995,0.35114824771881104,-0.0715266615152359,0.009346150793135166,0.1504921019077301
6.079403638839722,-0.41027694940567017,-0.1958876997232437,0.368314653635025,-0.071908138692379,0.010490577667951584,0.15392538905143738
6.099506378173828,-0.41294726729393005,-0.2134355753660202,0.38319218158721924,-0.0722896158695221,0.011635004542768002,0.15812161564826965
6.119578123092651,-0.41523614525794983,-0.230601966381073,0.39425498247146606,-0.07267109304666519,0.012779430486261845,0.16308079659938812
6.1396825313568115,-0.41599908471107483,-0.24357213079929352,0.4079881012439728,-0.07305257022380829,0.01430533267557621,0.1676585078239441
6.159739017486572,-0.41638055443763733,-0.25158312916755676,0.41676202416419983,-0.07381551712751389,0.016212711110711098,0.17147326469421387
6.179886341094971,-0.41676202416419983,-0.2618829607963562,0.42629891633987427,-0.07457847148180008,0.018120087683200836,0.17605096101760864
6.1999876499176025,-0.4175249934196472,-0.2782863974571228,0.4362172782421112,-0.07495994865894318,0.020027466118335724,0.17795833945274353
6.220096111297607,-0.4171435236930847,-0.2939268946647644,0.44308385252952576,-0.07534141838550568,0.02193484455347061,0.1817730963230133
6.240260124206543,-0.4171435236930847,-0.3065156042575836,0.4491874575614929,-0.07534141838550568,0.02536812424659729,0.18558785319328308
6.26039457321167,-0.4171435236930847,-0.31681543588638306,0.4560540020465851,-0.07572289556264877,0.02689402550458908,0.18787670135498047
6.280426025390625,-0.4171435236930847,-0.3236820101737976,0.46101319789886475,-0.07572289556264877,0.02880140393972397,0.19054703414440155
6.300642490386963,-0.4171435236930847,-0.33283740282058716,0.4663538634777069,-0.07610437273979187,0.02994582988321781,0.19359883666038513
6.320801019668579,-0.4171435236930847,-0.34542611241340637,0.4705500900745392,-0.07648584991693497,0.030708782374858856,0.1958876997232437
6.340871810913086,-0.4171435236930847,-0.3583962619304657,0.4728389382362366,-0.07724879682064056,0.030708782374858856,0.1977950781583786
6.361157417297363,-0.4175249934196472,-0.36717021465301514,0.47589075565338135,-0.07763027399778366,0.030708782374858856,0.200083926320076
6.381195306777954,-0.4175249934196472,-0.3709849715232849,0.47703516483306885,-0.07839322835206985,0.031090257689356804,0.20275425910949707
6.40123438835144,-0.4175249934196472,-0.3732738196849823,0.47894254326820374,-0.07877469807863235,0.031090257689356804,0.20351719856262207
6.421339988708496,-0.4179064631462097,-0.3778515160083771,0.4808499217033386,-0.07877469807863235,0.03299763426184654,0.20428015291690826
6.441407918930054,-0.4179064631462097,-0.38052186369895935,0.482375830411911,-0.07915617525577545,0.03452353551983833,0.20580606162548065
6.461562633514404,-0.4179064631462097,-0.38166627287864685,0.4842832088470459,-0.07915617525577545,0.03528648987412453,0.20733195543289185
6.48162317276001,-0.4182879328727722,-0.38166627287864685,0.4861905872821808,-0.07915617525577545,0.03643091395497322,0.20771344006061554
6.501661062240601,-0.4182879328727722,-0.38166627287864685,0.4880979657173157,-0.07953765243291855,0.037193864583969116,0.21000228822231293
6.521761417388916,-0.4182879328727722,-0.38166627287864685,0.49076828360557556,-0.07953765243291855,0.03757534176111221,0.21114671230316162
6.541844606399536,-0.4182879328727722,-0.38166627287864685,0.49267566204071045,-0.07953765243291855,0.03757534176111221,0.212672621011734
6.562065839767456,-0.4190509021282196,-0.38204777240753174,0.49496451020240784,-0.07953765243291855,0.03795681521296501,0.2145799994468689
6.582155227661133,-0.4201953113079071,-0.38204777240753174,0.4991607666015625,-0.07991912961006165,0.038719769567251205,0.2153429538011551
6.602236270904541,-0.421339750289917,-0.38204777240753174,0.5018310546875,-0.07991912961006165,0.039101243019104004,0.21839475631713867
6.62231969833374,-0.4217212200164795,-0.38281071186065674,0.5052643418312073,-0.08030059933662415,0.040627144277095795,0.22068360447883606
6.642400503158569,-0.422102689743042,-0.38281071186065674,0.509079098701477,-0.08068207651376724,0.042153049260377884,0.22259098291397095
6.662464141845703,-0.422102689743042,-0.38281071186065674,0.5121309161186218,-0.08182650804519653,0.04291599988937378,0.22487983107566833
6.68256950378418,-0.422102689743042,-0.38281071186065674,0.5170900821685791,-0.08220797777175903,0.04558632895350456,0.22716869413852692
6.70264744758606,-0.4224841594696045,-0.38319218158721924,0.5205233693122864,-0.08258945494890213,0.04711223021149635,0.2298390120267868
6.722724914550781,-0.4224841594696045,-0.38281071186065674,0.5258640646934509,-0.08258945494890213,0.050164032727479935,0.2317463904619217
6.742798566818237,-0.4228656589984894,-0.38281071186065674,0.5296788215637207,-0.08297093212604523,0.05245288833975792,0.23403525352478027
6.762875080108643,-0.4232471287250519,-0.38281071186065674,0.5334935784339905,-0.08335240930318832,0.05283436179161072,0.23708705604076385
6.7829484939575195,-0.4243915379047394,-0.38357365131378174,0.5384527444839478,-0.08373387902975082,0.0555046908557415,0.23975738883018494
6.80301308631897,-0.42629891633987427,-0.3843366205692291,0.54264897108078,-0.08373387902975082,0.056267641484737396,0.24128328263759613
6.823096036911011,-0.42896926403045654,-0.3858625292778015,0.5483710765838623,-0.08411535620689392,0.0558861680328846,0.2450980395078659
6.843173503875732,-0.43011367321014404,-0.3873884081840515,0.5518043637275696,-0.08449683338403702,0.05664911866188049,0.24891279637813568
6.863223075866699,-0.43163958191871643,-0.3892957866191864,0.5567635893821716,-0.08525978773832321,0.0558861680328846,0.25234606862068176
6.883327484130859,-0.4339284300804138,-0.3904402256011963,0.5617227554321289,-0.08602273464202881,0.056267641484737396,0.25616082549095154
6.903435707092285,-0.4358358085155487,-0.3927290737628937,0.5659189820289612,-0.086785688996315,0.05664911866188049,0.2584496736526489
6.923538446426392,-0.4365987777709961,-0.39425498247146606,0.569733738899231,-0.086785688996315,0.057793546468019485,0.2611200213432312
6.943626880645752,-0.4365987777709961,-0.39539939165115356,0.5743114352226257,-0.0871671661734581,0.059319447726011276,0.2645532786846161
6.963719606399536,-0.4365987777709961,-0.39692530035972595,0.576981782913208,-0.0871671661734581,0.06046387553215027,0.26760509610176086
6.984729051589966,-0.4365987777709961,-0.39768826961517334,0.5811780095100403,-0.0871671661734581,0.06160829961299896,0.27180132269859314
7.004818677902222,-0.4365987777709961,-0.39806973934173584,0.5849927663803101,-0.0871671661734581,0.06427863240242004,0.2752346098423004
7.024889230728149,-0.4365987777709961,-0.39845120906829834,0.5876630544662476,-0.0871671661734581,0.06580453366041183,0.2786678969860077
7.044952630996704,-0.4365987777709961,-0.39845120906829834,0.5903334021568298,-0.0871671661734581,0.06885633617639542,0.2821011543273926
7.065054893493652,-0.4369802474975586,-0.39845120906829834,0.5949110984802246,-0.0875486359000206,0.0715266615152359,0.28400853276252747
7.0851075649261475,-0.4373617172241211,-0.39845120906829834,0.5971999764442444,-0.0875486359000206,0.07267109304666519,0.28820478916168213
7.105199813842773,-0.4388876259326935,-0.39845120906829834,0.6006332635879517,-0.0879301130771637,0.07648584991693497,0.2927824854850769
7.125271558761597,-0.44079500436782837,-0.39921414852142334,0.6052109599113464,-0.0883115902543068,0.07877469807863235,0.2962157726287842
7.145355463027954,-0.44193941354751587,-0.4007400572299957,0.6074998378753662,-0.08945601433515549,0.08144503086805344,0.30155640840530396
7.16542649269104,-0.44384679198265076,-0.4026474356651306,0.612077534198761,-0.08983749151229858,0.08258945494890213,0.30460822582244873
7.185593128204346,-0.44575417041778564,-0.4037918746471405,0.615129292011261,-0.09021896868944168,0.08335240930318832,0.3084229826927185
7.2056050300598145,-0.44689860939979553,-0.4045548141002655,0.6170367002487183,-0.09021896868944168,0.08220797777175903,0.3122377395629883
7.225701093673706,-0.44728007912635803,-0.4053177833557129,0.6197070479393005,-0.09021896868944168,0.08297093212604523,0.31567102670669556
7.245769023895264,-0.4484245181083679,-0.4068436622619629,0.621614396572113,-0.09021896868944168,0.08297093212604523,0.32024872303009033
7.26593542098999,-0.4488059878349304,-0.4087510406970978,0.6231403350830078,-0.09060044586658478,0.08449683338403702,0.3244449496269226
7.286117076873779,-0.4488059878349304,-0.41027694940567017,0.6258106231689453,-0.09021896868944168,0.0871671661734581,0.3286411762237549
7.306159019470215,-0.4488059878349304,-0.41142138838768005,0.6273365616798401,-0.09060044586658478,0.08907453715801239,0.33131152391433716
7.326314687728882,-0.4488059878349304,-0.41294726729393005,0.6292439103126526,-0.09060044586658478,0.09021896868944168,0.33436331152915955
7.346411466598511,-0.4488059878349304,-0.41523614525794983,0.6311513185501099,-0.09060044586658478,0.09365224838256836,0.33665215969085693
7.366493463516235,-0.4488059878349304,-0.41638055443763733,0.6322957277297974,-0.09060044586658478,0.09670405089855194,0.3393225073814392
7.386566877365112,-0.4491874575614929,-0.4171435236930847,0.6345845460891724,-0.09060044586658478,0.09861142933368683,0.343900203704834
7.406634569168091,-0.4491874575614929,-0.4171435236930847,0.6364919543266296,-0.09098191559314728,0.10090028494596481,0.34657052159309387
7.426699161529541,-0.4495689272880554,-0.4171435236930847,0.6380178332328796,-0.09136339277029037,0.1031891331076622,0.35114824771881104
7.44677472114563,-0.4507133662700653,-0.41676202416419983,0.6406881809234619,-0.09136339277029037,0.10509651154279709,0.3542000353336334
7.466965913772583,-0.4514763057231903,-0.41676202416419983,0.6429770588874817,-0.09136339277029037,0.10585946589708328,0.3583962619304657
7.487664461135864,-0.4510948359966278,-0.4171435236930847,0.6445029377937317,-0.09136339277029037,0.10624094307422638,0.36297398805618286
7.50777792930603,-0.4514763057231903,-0.4171435236930847,0.647173285484314,-0.09136339277029037,0.10662241280078888,0.368314653635025
7.527820110321045,-0.4522392749786377,-0.4179064631462097,0.6483176946640015,-0.09136339277029037,0.10776684433221817,0.3725108802318573
7.547945737838745,-0.4533836841583252,-0.4186694025993347,0.6498435735702515,-0.09174486994743347,0.10929274559020996,0.3767071068286896
7.568032264709473,-0.4537651538848877,-0.4194323718547821,0.6513695120811462,-0.09174486994743347,0.11158160120248795,0.38128480315208435
7.5881829261779785,-0.4541466534137726,-0.4205767810344696,0.6525139212608337,-0.09174486994743347,0.11387044936418533,0.3877699077129364
7.6082923412323,-0.4552910625934601,-0.4224841594696045,0.6540398001670837,-0.09174486994743347,0.11501488089561462,0.3923476040363312
7.6284496784210205,-0.45643550157546997,-0.42553597688674927,0.6555657386779785,-0.09212634712457657,0.11654078215360641,0.39768826961517334
7.648608207702637,-0.45643550157546997,-0.42782482504844666,0.6570916175842285,-0.09250781685113907,0.11730372905731201,0.4022659659385681
7.668702602386475,-0.45643550157546997,-0.43011367321014404,0.6589990258216858,-0.09288929402828217,0.11730372905731201,0.4064621925354004
7.688805341720581,-0.45643550157546997,-0.43202105164527893,0.6597619652748108,-0.09365224838256836,0.1180666834115982,0.41103988885879517
7.708889961242676,-0.45643550157546997,-0.4335469603538513,0.6609063744544983,-0.09365224838256836,0.11959258466959,0.41485464572906494
7.728976011276245,-0.45643550157546997,-0.4350728690624237,0.6628137826919556,-0.09403372555971146,0.12340734153985977,0.4182879328727722
7.749052286148071,-0.45757991075515747,-0.4358358085155487,0.6643396615982056,-0.09403372555971146,0.12607766687870026,0.4232471287250519
7.769146919250488,-0.45834288001060486,-0.4358358085155487,0.6662470698356628,-0.09441519528627396,0.13027389347553253,0.42744335532188416
7.789253234863281,-0.45872434973716736,-0.4358358085155487,0.6677729487419128,-0.09441519528627396,0.1329442262649536,0.4327840209007263
7.809288740158081,-0.45834288001060486,-0.4358358085155487,0.6692988276481628,-0.09441519528627396,0.1348516047000885,0.4373617172241211
7.829388856887817,-0.45834288001060486,-0.4358358085155487,0.6715877056121826,-0.09441519528627396,0.1359960287809372,0.44155794382095337
7.84954571723938,-0.45872434973716736,-0.4365987777709961,0.6727321147918701,-0.09441519528627396,0.13752193748950958,0.44575417041778564
7.869634628295898,-0.45910581946372986,-0.4381246566772461,0.6734950542449951,-0.09441519528627396,0.13866636157035828,0.4510948359966278
7.8897950649261475,-0.45948728919029236,-0.4404135048389435,0.6746395230293274,-0.09441519528627396,0.13981078565120697,0.45757991075515747
7.909853219985962,-0.46025025844573975,-0.44193941354751587,0.6754024624824524,-0.09441519528627396,0.14133669435977936,0.46292057633399963
7.92992901802063,-0.46139466762542725,-0.44422826170921326,0.6761654019355774,-0.09441519528627396,0.14248111844062805,0.4671168029308319
7.950052261352539,-0.46139466762542725,-0.44804301857948303,0.6776912808418274,-0.09441519528627396,0.14324407279491425,0.4724574685096741
7.97017765045166,-0.46139466762542725,-0.4518577754497528,0.6788357496261597,-0.09441519528627396,0.14400701224803925,0.47779813408851624
7.990242004394531,-0.46139466762542725,-0.4549095928668976,0.6803616285324097,-0.09441519528627396,0.14591439068317413,0.4827573001384735
8.010339498519897,-0.46139466762542725,-0.45643550157546997,0.6818875670433044,-0.09441519528627396,0.14782176911830902,0.4873350262641907
8.030431509017944,-0.46139466762542725,-0.45757991075515747,0.6826505064964294,-0.09441519528627396,0.1497291475534439,0.49114975333213806
8.050528049468994,-0.46139466762542725,-0.45872434973716736,0.6849393248558044,-0.09441519528627396,0.1516365259885788,0.49496451020240784
8.070605993270874,-0.46139466762542725,-0.45948728919029236,0.6868467330932617,-0.09441519528627396,0.15392538905143738,0.4999237060546875
8.090739727020264,-0.46139466762542725,-0.45986875891685486,0.6879911422729492,-0.09403372555971146,0.15735866129398346,0.5052643418312073
8.110915899276733,-0.46177613735198975,-0.45986875891685486,0.6898985505104065,-0.09403372555971146,0.15850308537483215,0.5113679766654968
8.13094425201416,-0.46253910660743713,-0.46025025844573975,0.6906614899635315,-0.09403372555971146,0.16079194843769073,0.5174715518951416
8.151085138320923,-0.46330204606056213,-0.46063172817230225,0.6914244294166565,-0.09403372555971146,0.16308079659938812,0.5243381261825562
8.171259641647339,-0.4640650153160095,-0.46101319789886475,0.692568838596344,-0.09403372555971146,0.16422522068023682,0.5308232307434082
8.191486597061157,-0.465209424495697,-0.46253910660743713,0.6929503083229065,-0.09403372555971146,0.1657511293888092,0.5384527444839478
8.211641788482666,-0.4659723937511444,-0.46292057633399963,0.6944762468338013,-0.09365224838256836,0.1661325991153717,0.5453193187713623
8.231671571731567,-0.4655908942222595,-0.4648279547691345,0.6952391862869263,-0.09365224838256836,0.1665140837430954,0.5529488325119019
8.25174880027771,-0.4655908942222595,-0.4659723937511444,0.6960021257400513,-0.09365224838256836,0.1676585078239441,0.5598153471946716
8.271818399429321,-0.4655908942222595,-0.4663538634777069,0.6967650651931763,-0.09365224838256836,0.16880293190479279,0.5670633912086487
8.29188871383667,-0.4655908942222595,-0.4667353332042694,0.697528064250946,-0.09327077120542526,0.17071031033992767,0.5731670260429382
8.312079668045044,-0.4659723937511444,-0.4667353332042694,0.6986724734306335,-0.09327077120542526,0.17414358258247375,0.579270601272583
8.33214783668518,-0.4663538634777069,-0.4667353332042694,0.699816882610321,-0.09288929402828217,0.17795833945274353,0.5872815847396851
8.352240562438965,-0.4674982726573944,-0.4667353332042694,0.700579822063446,-0.09250781685113907,0.1832990050315857,0.5956740379333496
8.37234377861023,-0.4694056510925293,-0.4667353332042694,0.7021057605743408,-0.09212634712457657,0.18749523162841797,0.6036850810050964
8.392393589019775,-0.4709315598011017,-0.4667353332042694,0.7028687000274658,-0.09136339277029037,0.19054703414440155,0.614366352558136
8.412492752075195,-0.4724574685096741,-0.4667353332042694,0.7028687000274658,-0.09021896868944168,0.19359883666038513,0.6239032745361328
8.432718753814697,-0.4736018776893616,-0.4671168029308319,0.7032501697540283,-0.08945601433515549,0.19359883666038513,0.6330586671829224
8.45272421836853,-0.47436484694480896,-0.4671168029308319,0.7028687000274658,-0.08869306743144989,0.19359883666038513,0.6425955891609192
8.472804546356201,-0.47512778639793396,-0.4678797721862793,0.7028687000274658,-0.0875486359000206,0.19359883666038513,0.6513695120811462
8.492988348007202,-0.47589075565338135,-0.4701686203479767,0.7032501697540283,-0.086785688996315,0.19474326074123383,0.6612878441810608
8.512986183166504,-0.47589075565338135,-0.4728389382362366,0.7040131092071533,-0.08602273464202881,0.1966506391763687,0.6727321147918701
8.533064603805542,-0.47589075565338135,-0.47474631667137146,0.7047760486602783,-0.08525978773832321,0.200083926320076,0.6818875670433044
8.553289413452148,-0.47627222537994385,-0.47703516483306885,0.7051575779914856,-0.08449683338403702,0.20389868319034576,0.6921873688697815
8.573379755020142,-0.47589075565338135,-0.47932401299476624,0.7055390477180481,-0.08297093212604523,0.20733195543289185,0.7021057605743408
8.593449354171753,-0.47589075565338135,-0.4812313914299011,0.7055390477180481,-0.08258945494890213,0.21114671230316162,0.7112611532211304
8.61398696899414,-0.47589075565338135,-0.4819943606853485,0.7059205174446106,-0.08220797777175903,0.2130540907382965,0.7207980751991272
8.634073734283447,-0.47589075565338135,-0.482375830411911,0.7066834568977356,-0.08106355369091034,0.2149614691734314,0.7307164072990417
8.654128551483154,-0.47589075565338135,-0.4819943606853485,0.7070649266242981,-0.07991912961006165,0.21725031733512878,0.7421606779098511
8.674220085144043,-0.47589075565338135,-0.4819943606853485,0.7082093358039856,-0.07801175117492676,0.21763180196285248,0.7543678879737854
8.694332361221313,-0.47589075565338135,-0.4819943606853485,0.7082093358039856,-0.07610437273979187,0.21801327168941498,0.767719566822052
8.714375734329224,-0.47589075565338135,-0.4819943606853485,0.7082093358039856,-0.07495994865894318,0.21839475631713867,0.7818341255187988
8.734482288360596,-0.47627222537994385,-0.482375830411911,0.7082093358039856,-0.07381551712751389,0.21992065012454987,0.7948042750358582
8.75456714630127,-0.47741663455963135,-0.482375830411911,0.7070649266242981,-0.07267109304666519,0.22144655883312225,0.8081559538841248
8.774744510650635,-0.47856107354164124,-0.482375830411911,0.7063019871711731,-0.0715266615152359,0.22335393726825714,0.8207446336746216
8.7948317527771,-0.4800869822502136,-0.4819943606853485,0.7051575779914856,-0.0707637146115303,0.22640573978424072,0.8337147831916809
8.814918041229248,-0.4804684519767761,-0.4819943606853485,0.7043945789337158,-0.07000076025724411,0.2283131182193756,0.84592205286026
8.834998607635498,-0.4804684519767761,-0.4819943606853485,0.7028687000274658,-0.06885633617639542,0.2286945879459381,0.8581292629241943
8.855250835418701,-0.4804684519767761,-0.4819943606853485,0.7017242908477783,-0.06771191209554672,0.2286945879459381,0.8695735335350037
8.87523627281189,-0.4808499217033386,-0.4819943606853485,0.700579822063446,-0.06694895774126053,0.2286945879459381,0.8813992738723755
8.895365238189697,-0.481612890958786,-0.4808499217033386,0.699816882610321,-0.06504157930612564,0.2294575423002243,0.892080545425415
8.915457963943481,-0.4827573001384735,-0.4800869822502136,0.6979095339775085,-0.06351567804813385,0.23250934481620789,0.9016174674034119
8.935823440551758,-0.4839017391204834,-0.47894254326820374,0.6963835954666138,-0.06275273114442825,0.23517967760562897,0.9130617380142212
8.955908060073853,-0.4846646785736084,-0.47817960381507874,0.6944762468338013,-0.06160829961299896,0.23594263195991516,0.9206912517547607
8.975979089736938,-0.4854276478290558,-0.47703516483306885,0.692568838596344,-0.06084534898400307,0.23594263195991516,0.9294651746749878
8.996074676513672,-0.4854276478290558,-0.47665369510650635,0.691042959690094,-0.06008239835500717,0.23556114733219147,0.9382390975952148
9.01616907119751,-0.4854276478290558,-0.47589075565338135,0.6898985505104065,-0.05893797054886818,0.23556114733219147,0.9451056718826294
9.036232948303223,-0.4854276478290558,-0.47512778639793396,0.6883726119995117,-0.058175019919872284,0.23517967760562897,0.952735185623169
9.056297302246094,-0.4854276478290558,-0.47398337721824646,0.6876096725463867,-0.0558861680328846,0.23517967760562897,0.9611276388168335
9.076436758041382,-0.4854276478290558,-0.4724574685096741,0.6860837936401367,-0.0555046908557415,0.23517967760562897,0.9668498039245605
9.096590757369995,-0.4854276478290558,-0.4716945290565491,0.6849393248558044,-0.0551232174038887,0.23517967760562897,0.9725719094276428
9.1167151927948,-0.4854276478290558,-0.4701686203479767,0.6834134459495544,-0.05359731614589691,0.23517967760562897,0.9798199534416199
9.136803388595581,-0.4858091175556183,-0.4690241813659668,0.6811245679855347,-0.05283436179161072,0.23517967760562897,0.9863049983978271
9.156908750534058,-0.4865720570087433,-0.4674982726573944,0.6788357496261597,-0.05207141116261482,0.23479819297790527,0.9920271635055542
9.177042245864868,-0.4877164959907532,-0.4667353332042694,0.6784542798995972,-0.05207141116261482,0.23441672325134277,0.9977492690086365
9.197119235992432,-0.4877164959907532,-0.465209424495697,0.6765468716621399,-0.051689937710762024,0.23327229917049408,1.0030899047851562
9.217297554016113,-0.4877164959907532,-0.46368351578712463,0.6754024624824524,-0.050164032727479935,0.2317463904619217,1.0084306001663208
9.237339735031128,-0.4877164959907532,-0.46177613735198975,0.6742580533027649,-0.04901960864663124,0.230601966381073,1.0137712955474854
9.257511854171753,-0.4880979657173157,-0.46063172817230225,0.6723506450653076,-0.04787518084049225,0.230601966381073,1.0175859928131104
9.277629137039185,-0.4884794354438782,-0.45948728919029236,0.6704432964324951,-0.04787518084049225,0.2309834510087967,1.021400809288025
9.297649621963501,-0.4888609051704407,-0.45834288001060486,0.6685358881950378,-0.04787518084049225,0.2313649207353592,1.0267413854599
9.31773853302002,-0.4888609051704407,-0.45757991075515747,0.6677729487419128,-0.04787518084049225,0.2317463904619217,1.0313191413879395
9.33780837059021,-0.48962387442588806,-0.45681697130203247,0.6673914790153503,-0.04711223021149635,0.2313649207353592,1.035896897315979
9.357861757278442,-0.49000534415245056,-0.4549095928668976,0.6662470698356628,-0.04558632895350456,0.2309834510087967,1.0393301248550415
9.3780677318573,-0.49000534415245056,-0.4530022144317627,0.6647211313247681,-0.045204851776361465,0.2290760725736618,1.042000412940979
9.398179292678833,-0.49000534415245056,-0.4514763057231903,0.6628137826919556,-0.04482337832450867,0.22793163359165192,1.0442893505096436
9.418399810791016,-0.49000534415245056,-0.4510948359966278,0.6609063744544983,-0.04444190114736557,0.22755016386508942,1.046959638595581
9.438583850860596,-0.49000534415245056,-0.4499503970146179,0.6589990258216858,-0.04444190114736557,0.22755016386508942,1.051155924797058
9.45864748954773,-0.49000534415245056,-0.4495689272880554,0.6578545570373535,-0.04406042397022247,0.22755016386508942,1.0538262128829956
9.47874140739441,-0.48962387442588806,-0.4484245181083679,0.6570916175842285,-0.04406042397022247,0.22793163359165192,1.058022379875183
9.498817205429077,-0.48962387442588806,-0.44728007912635803,0.6570916175842285,-0.04329747334122658,0.22793163359165192,1.0622186660766602
9.51890230178833,-0.49000534415245056,-0.44575417041778564,0.6563286781311035,-0.04177157208323479,0.22755016386508942,1.0633630752563477
9.53899884223938,-0.49038681387901306,-0.44460976123809814,0.654421329498291,-0.04100862145423889,0.22678720951080322,1.0652704238891602
9.559147119522095,-0.49076828360557556,-0.44270238280296326,0.6521324515342712,-0.040627144277095795,0.22602425515651703,1.0679408311843872
9.579391717910767,-0.49076828360557556,-0.44270238280296326,0.6509880423545837,-0.04100862145423889,0.22487983107566833,1.0687037706375122
9.599480390548706,-0.49076828360557556,-0.44270238280296326,0.649462103843689,-0.04100862145423889,0.22373540699481964,1.0713740587234497
9.61957836151123,-0.49076828360557556,-0.44270238280296326,0.6483176946640015,-0.04100862145423889,0.22259098291397095,1.0744259357452393
9.639717817306519,-0.49076828360557556,-0.44155794382095337,0.6483176946640015,-0.04100862145423889,0.22182802855968475,1.0782406330108643
9.659815788269043,-0.49076828360557556,-0.4404135048389435,0.6483176946640015,-0.040627144277095795,0.22106507420539856,1.0790035724639893
9.679911851882935,-0.49038681387901306,-0.438506156206131,0.647936224937439,-0.0398641936480999,0.22144655883312225,1.0793850421905518
9.700061559677124,-0.49038681387901306,-0.4373617172241211,0.6475547552108765,-0.0394827201962471,0.22106507420539856,1.0816738605499268
9.7201566696167,-0.49038681387901306,-0.4362172782421112,0.6452658772468567,-0.03833829239010811,0.22106507420539856,1.0847257375717163
9.74022126197815,-0.49038681387901306,-0.4350728690624237,0.6422140598297119,-0.03757534176111221,0.22106507420539856,1.0862516164779663
9.760374307632446,-0.49038681387901306,-0.4346913993358612,0.6395437717437744,-0.03757534176111221,0.22106507420539856,1.0870145559310913
9.780409812927246,-0.49038681387901306,-0.4346913993358612,0.6395437717437744,-0.03795681521296501,0.22068360447883606,1.0900664329528809
9.800476789474487,-0.49038681387901306,-0.4343098998069763,0.6399252414703369,-0.03795681521296501,0.22068360447883606,1.0915923118591309
9.820687770843506,-0.49038681387901306,-0.4331654906272888,0.6406881809234619,-0.03757534176111221,0.22068360447883606,1.0923552513122559
9.841782569885254,-0.49038681387901306,-0.43202105164527893,0.6406881809234619,-0.03757534176111221,0.21992065012454987,1.0927367210388184
9.861884832382202,-0.49038681387901306,-0.43163958191871643,0.6403067111968994,-0.03757534176111221,0.21992065012454987,1.0927367210388184
9.881949663162231,-0.49038681387901306,-0.43011367321014404,0.6387808322906494,-0.03757534176111221,0.21992065012454987,1.0931181907653809
9.902040719985962,-0.49076828360557556,-0.42935073375701904,0.6368734240531921,-0.03757534176111221,0.21992065012454987,1.0934996604919434
9.922155857086182,-0.49076828360557556,-0.42935073375701904,0.6349660754203796,-0.03757534176111221,0.21992065012454987,1.0946440696716309
9.942235708236694,-0.49076828360557556,-0.42935073375701904,0.6349660754203796,-0.03795681521296501,0.21953918039798737,1.0969328880310059
9.962732315063477,-0.49076828360557556,-0.42935073375701904,0.6353475451469421,-0.03757534176111221,0.21915769577026367,1.0976959466934204
9.982826232910156,-0.49076828360557556,-0.42896926403045654,0.6357290148735046,-0.03757534176111221,0.21877622604370117,1.0976959466934204
10.002893209457397,-0.49038681387901306,-0.42820629477500916,0.6357290148735046,-0.03757534176111221,0.21801327168941498,1.0976959466934204
10.023024320602417,-0.49076828360557556,-0.42820629477500916,0.6353475451469421,-0.03757534176111221,0.21763180196285248,1.099603295326233
10.043110609054565,-0.49038681387901306,-0.42820629477500916,0.6349660754203796,-0.03757534176111221,0.21725031733512878,1.101892113685608
10.063154935836792,-0.49038681387901306,-0.42820629477500916,0.6334401369094849,-0.03757534176111221,0.21725031733512878,1.102655053138733
10.08324646949768,-0.49000534415245056,-0.42820629477500916,0.6326771974563599,-0.03757534176111221,0.21763180196285248,1.104180932044983
10.103327751159668,-0.48962387442588806,-0.42820629477500916,0.6322957277297974,-0.03757534176111221,0.21725031733512878,1.104180932044983
10.123998165130615,-0.48962387442588806,-0.42820629477500916,0.6326771974563599,-0.03757534176111221,0.21725031733512878,1.1045624017715454
10.144085168838501,-0.48962387442588806,-0.42744335532188416,0.6334401369094849,-0.03757534176111221,0.21725031733512878,1.1045624017715454
10.164157390594482,-0.48962387442588806,-0.42591744661331177,0.6334401369094849,-0.03757534176111221,0.21725031733512878,1.1045624017715454
10.18468427658081,-0.48962387442588806,-0.42515450716018677,0.6330586671829224,-0.03757534176111221,0.21725031733512878,1.1045624017715454
10.204777002334595,-0.48962387442588806,-0.4247730076313019,0.6319142580032349,-0.03757534176111221,0.21725031733512878,1.1045624017715454
10.224867582321167,-0.48962387442588806,-0.4243915379047394,0.6307697892189026,-0.03757534176111221,0.21686884760856628,1.1045624017715454
10.24495792388916,-0.48962387442588806,-0.4243915379047394,0.6300068497657776,-0.03757534176111221,0.21648737788200378,1.1053253412246704
10.265114784240723,-0.48962387442588806,-0.4243915379047394,0.6300068497657776,-0.03795681521296501,0.21648737788200378,1.10685133934021
10.285447835922241,-0.48962387442588806,-0.4243915379047394,0.6300068497657776,-0.03757534176111221,0.21648737788200378,1.1087586879730225
10.305628299713135,-0.48962387442588806,-0.4243915379047394,0.6300068497657776,-0.03757534176111221,0.21648737788200378,1.109140157699585
10.325641632080078,-0.48962387442588806,-0.4243915379047394,0.6300068497657776,-0.03757534176111221,0.2161058932542801,1.1110475063323975
10.345821619033813,-0.48962387442588806,-0.4240100681781769,0.6296253800392151,-0.03757534176111221,0.2157244235277176,1.1118104457855225
10.365862131118774,-0.48962387442588806,-0.4240100681781769,0.6292439103126526,-0.03757534176111221,0.2153429538011551,1.1118104457855225
10.385932922363281,-0.48962387442588806,-0.4240100681781769,0.6292439103126526,-0.03757534176111221,0.2149614691734314,1.112191915512085
10.406013011932373,-0.48962387442588806,-0.4240100681781769,0.6292439103126526,-0.03757534176111221,0.2145799994468689,1.112191915512085
10.426100492477417,-0.48962387442588806,-0.4240100681781769,0.6292439103126526,-0.03757534176111221,0.2141985148191452,1.112191915512085
10.446285963058472,-0.48962387442588806,-0.4236285984516144,0.6292439103126526,-0.03757534176111221,0.2138170450925827,1.112191915512085
10.466309547424316,-0.48962387442588806,-0.4236285984516144,0.6292439103126526,-0.03795681521296501,0.2134355753660202,1.112191915512085
10.487291812896729,-0.48962387442588806,-0.4232471287250519,0.6288624405860901,-0.03795681521296501,0.2130540907382965,1.1125733852386475
10.5074143409729,-0.48962387442588806,-0.4228656589984894,0.6280995011329651,-0.03795681521296501,0.2130540907382965,1.11295485496521
10.52748441696167,-0.48962387442588806,-0.4228656589984894,0.6280995011329651,-0.03795681521296501,0.2130540907382965,1.114099383354187
10.547584295272827,-0.48962387442588806,-0.4228656589984894,0.6277180314064026,-0.03795681521296501,0.2130540907382965,1.114862322807312
10.56764006614685,-0.48962387442588806,-0.4228656589984894,0.6277180314064026,-0.03795681521296501,0.2130540907382965,1.1152437925338745
10.58769941329956,-0.48962387442588806,-0.4228656589984894,0.6277180314064026,-0.03795681521296501,0.2130540907382965,1.1152437925338745
10.607802152633667,-0.48962387442588806,-0.4228656589984894,0.6273365616798401,-0.03795681521296501,0.2130540907382965,1.1152437925338745
10.627956628799438,-0.4892423748970032,-0.4228656589984894,0.6273365616798401,-0.03795681521296501,0.2130540907382965,1.1152437925338745
10.648054838180542,-0.4880979657173157,-0.4228656589984894,0.6273365616798401,-0.03795681521296501,0.212672621011734,1.115625262260437
10.668153762817383,-0.4877164959907532,-0.4228656589984894,0.6273365616798401,-0.03833829239010811,0.21229113638401031,1.115625262260437
10.688222408294678,-0.4877164959907532,-0.4228656589984894,0.6273365616798401,-0.03795681521296501,0.21229113638401031,1.115625262260437
10.708329677581787,-0.4877164959907532,-0.4224841594696045,0.6273365616798401,-0.03833829239010811,0.212672621011734,1.115625262260437
10.728451251983643,-0.4877164959907532,-0.422102689743042,0.6273365616798401,-0.03833829239010811,0.212672621011734,1.1160067319869995
10.748508930206299,-0.4880979657173157,-0.422102689743042,0.6269550919532776,-0.038719769567251205,0.212672621011734,1.116388201713562
10.768625974655151,-0.4888609051704407,-0.422102689743042,0.6269550919532776,-0.038719769567251205,0.212672621011734,1.1167696714401245
10.78874921798706,-0.4888609051704407,-0.422102689743042,0.6269550919532776,-0.038719769567251205,0.21190966665744781,1.117151141166687
10.809122085571289,-0.4888609051704407,-0.4217212200164795,0.6265735626220703,-0.039101243019104004,0.21152819693088531,1.1182955503463745
10.829177618026733,-0.4888609051704407,-0.4217212200164795,0.6261920928955078,-0.038719769567251205,0.21076524257659912,1.118677020072937
10.8492591381073,-0.4888609051704407,-0.4217212200164795,0.6258106231689453,-0.039101243019104004,0.21114671230316162,1.118677020072937
10.869484186172485,-0.4884794354438782,-0.4217212200164795,0.6258106231689453,-0.0394827201962471,0.21190966665744781,1.1190584897994995
10.889569520950317,-0.4884794354438782,-0.4217212200164795,0.6261920928955078,-0.0398641936480999,0.21229113638401031,1.1190584897994995
10.909794807434082,-0.4884794354438782,-0.421339750289917,0.6261920928955078,-0.0398641936480999,0.212672621011734,1.1190584897994995
10.94063949584961,-0.4884794354438782,-0.421339750289917,0.6261920928955078,-0.0398641936480999,0.212672621011734,1.1190584897994995
10.960695743560791,-0.4888609051704407,-0.4209582805633545,0.6261920928955078,-0.0398641936480999,0.21229113638401031,1.1190584897994995
10.980786561965942,-0.49000534415245056,-0.4209582805633545,0.6261920928955078,-0.0398641936480999,0.21229113638401031,1.1190584897994995
11.001113414764404,-0.48962387442588806,-0.4209582805633545,0.6261920928955078,-0.0398641936480999,0.21229113638401031,1.119439959526062
11.021233797073364,-0.48962387442588806,-0.4209582805633545,0.6261920928955078,-0.040245670825242996,0.21190966665744781,1.119439959526062
11.041312217712402,-0.48962387442588806,-0.4209582805633545,0.6261920928955078,-0.040627144277095795,0.21190966665744781,1.119439959526062
11.061412572860718,-0.48962387442588806,-0.4209582805633545,0.6261920928955078,-0.040627144277095795,0.21229113638401031,1.119439959526062
11.081496238708496,-0.48962387442588806,-0.4209582805633545,0.6258106231689453,-0.04100862145423889,0.21229113638401031,1.119439959526062
11.101686477661133,-0.48962387442588806,-0.4209582805633545,0.6258106231689453,-0.04100862145423889,0.212672621011734,1.119439959526062
11.121779203414917,-0.48962387442588806,-0.4209582805633545,0.6258106231689453,-0.04100862145423889,0.212672621011734,1.119439959526062
11.14185094833374,-0.48962387442588806,-0.4209582805633545,0.6254291534423828,-0.04100862145423889,0.212672621011734,1.119439959526062
11.161928415298462,-0.48962387442588806,-0.4209582805633545,0.6254291534423828,-0.04100862145423889,0.21229113638401031,1.119439959526062
11.182017803192139,-0.48962387442588806,-0.4209582805633545,0.6250476837158203,-0.04100862145423889,0.21229113638401031,1.119439959526062
11.202072858810425,-0.48962387442588806,-0.4209582805633545,0.6250476837158203,-0.04100862145423889,0.21229113638401031,1.119439959526062
11.222180128097534,-0.48962387442588806,-0.4209582805633545,0.6250476837158203,-0.04100862145423889,0.21229113638401031,1.1198214292526245
11.242286443710327,-0.48962387442588806,-0.4209582805633545,0.6254291534423828,-0.04100862145423889,0.21229113638401031,1.1198214292526245
11.262385129928589,-0.4888609051704407,-0.4209582805633545,0.6254291534423828,-0.04100862145423889,0.21229113638401031,1.1198214292526245
11.282473802566528,-0.4877164959907532,-0.4209582805633545,0.6254291534423828,-0.04100862145423889,0.21190966665744781,1.1198214292526245
11.302520990371704,-0.4877164959907532,-0.4209582805633545,0.6254291534423828,-0.04100862145423889,0.21229113638401031,1.120202898979187
11.322604417800903,-0.4877164959907532,-0.4209582805633545,0.6254291534423828,-0.04100862145423889,0.21229113638401031,1.120202898979187
11.34268832206726,-0.4877164959907532,-0.4209582805633545,0.6254291534423828,-0.04100862145423889,0.212672621011734,1.120202898979187
11.362952709197998,-0.4877164959907532,-0.4209582805633545,0.6254291534423828,-0.04100862145423889,0.212672621011734,1.1205843687057495
11.38304328918457,-0.4880979657173157,-0.4209582805633545,0.6254291534423828,-0.04100862145423889,0.21229113638401031,1.1205843687057495
11.40311574935913,-0.4884794354438782,-0.4209582805633545,0.6254291534423828,-0.04100862145423889,0.21229113638401031,1.120965838432312
11.423198938369751,-0.4884794354438782,-0.4209582805633545,0.6254291534423828,-0.04100862145423889,0.21190966665744781,1.1217288970947266
11.443266868591309,-0.4884794354438782,-0.4209582805633545,0.6254291534423828,-0.04100862145423889,0.21190966665744781,1.1224918365478516
11.463325262069702,-0.4884794354438782,-0.4209582805633545,0.6254291534423828,-0.04100862145423889,0.21190966665744781,1.1224918365478516
11.483407497406006,-0.4884794354438782,-0.4209582805633545,0.6254291534423828,-0.04100862145423889,0.21190966665744781,1.1224918365478516
11.503484725952148,-0.4884794354438782,-0.4209582805633545,0.6254291534423828,-0.04100862145423889,0.21229113638401031,1.1224918365478516
11.523653745651245,-0.4884794354438782,-0.4209582805633545,0.6254291534423828,-0.04100862145423889,0.21229113638401031,1.1224918365478516
11.543766498565674,-0.4884794354438782,-0.4209582805633545,0.6254291534423828,-0.04100862145423889,0.21229113638401031,1.1224918365478516
11.563844680786133,-0.4884794354438782,-0.4209582805633545,0.6254291534423828,-0.04100862145423889,0.21229113638401031,1.1224918365478516
11.583970069885254,-0.4884794354438782,-0.4209582805633545,0.6254291534423828,-0.04100862145423889,0.21190966665744781,1.122873306274414
11.604080438613892,-0.4884794354438782,-0.4209582805633545,0.6254291534423828,-0.04100862145423889,0.21190966665744781,1.122873306274414
11.624097108840942,-0.4884794354438782,-0.4209582805633545,0.6254291534423828,-0.04100862145423889,0.21190966665744781,1.122873306274414
11.644357442855835,-0.4884794354438782,-0.4209582805633545,0.6254291534423828,-0.04100862145423889,0.21190966665744781,1.122873306274414
11.66445803642273,-0.4884794354438782,-0.4209582805633545,0.6254291534423828,-0.04100862145423889,0.21190966665744781,1.122873306274414
11.684651374816895,-0.4884794354438782,-0.4209582805633545,0.6258106231689453,-0.04100862145423889,0.21190966665744781,1.122873306274414
11.704762697219849,-0.4884794354438782,-0.4209582805633545,0.6258106231689453,-0.04100862145423889,0.21190966665744781,1.1232547760009766
11.724917888641357,-0.4884794354438782,-0.4209582805633545,0.6258106231689453,-0.04100862145423889,0.21190966665744781,1.1232547760009766
11.744970560073853,-0.4884794354438782,-0.4209582805633545,0.6258106231689453,-0.04100862145423889,0.21190966665744781,1.1232547760009766
11.765069484710693,-0.4884794354438782,-0.4209582805633545,0.6258106231689453,-0.04100862145423889,0.21190966665744781,1.1232547760009766
11.785350799560547,-0.4884794354438782,-0.4209582805633545,0.6258106231689453,-0.04100862145423889,0.21190966665744781,1.1232547760009766
11.805557489395142,-0.4884794354438782,-0.4209582805633545,0.6258106231689453,-0.04100862145423889,0.21190966665744781,1.1232547760009766
11.825518608093262,-0.4888609051704407,-0.4209582805633545,0.6258106231689453,-0.04100862145423889,0.21152819693088531,1.1232547760009766
11.845616579055786,-0.4888609051704407,-0.4209582805633545,0.6254291534423828,-0.04100862145423889,0.21190966665744781,1.1232547760009766
11.865734100341797,-0.4888609051704407,-0.4209582805633545,0.6258106231689453,-0.04100862145423889,0.21190966665744781,1.123636245727539
11.885771751403809,-0.4888609051704407,-0.4209582805633545,0.6258106231689453,-0.04100862145423889,0.21152819693088531,1.123636245727539
11.905879497528076,-0.4888609051704407,-0.4209582805633545,0.6254291534423828,-0.04100862145423889,0.21152819693088531,1.123636245727539
11.925999641418457,-0.4888609051704407,-0.4209582805633545,0.6254291534423828,-0.04100862145423889,0.21152819693088531,1.123636245727539
11.946049690246582,-0.4884794354438782,-0.4209582805633545,0.6254291534423828,-0.04100862145423889,0.21152819693088531,1.123636245727539
11.966148376464844,-0.4884794354438782,-0.4209582805633545,0.6254291534423828,-0.04100862145423889,0.21152819693088531,1.1240177154541016
11.986319065093994,-0.4884794354438782,-0.4209582805633545,0.6254291534423828,-0.04100862145423889,0.21152819693088531,1.1240177154541016
12.006521940231323,-0.4884794354438782,-0.4209582805633545,0.6254291534423828,-0.04100862145423889,0.21152819693088531,1.1240177154541016
12.026665210723877,-0.4884794354438782,-0.4209582805633545,0.6254291534423828,-0.04100862145423889,0.21152819693088531,1.1240177154541016
12.046711444854736,-0.4884794354438782,-0.4209582805633545,0.6254291534423828,-0.04100862145423889,0.21152819693088531,1.124399185180664
12.066813945770264,-0.4884794354438782,-0.4209582805633545,0.6254291534423828,-0.04100862145423889,0.21152819693088531,1.1247806549072266
12.086911678314209,-0.4884794354438782,-0.4209582805633545,0.6254291534423828,-0.04100862145423889,0.21152819693088531,1.1263065338134766
12.106993436813354,-0.4884794354438782,-0.4209582805633545,0.6254291534423828,-0.04100862145423889,0.21152819693088531,1.1263065338134766
12.127228021621704,-0.4884794354438782,-0.4209582805633545,0.6254291534423828,-0.04100862145423889,0.21152819693088531,1.1263065338134766
12.147293090820312,-0.4884794354438782,-0.4209582805633545,0.6254291534423828,-0.04100862145423889,0.21152819693088531,1.1263065338134766
12.16735029220581,-0.4884794354438782,-0.4209582805633545,0.6254291534423828,-0.04100862145423889,0.21152819693088531,1.1263065338134766
12.187483787536621,-0.4884794354438782,-0.4209582805633545,0.6250476837158203,-0.04100862145423889,0.21152819693088531,1.1263065338134766
12.207625389099121,-0.4884794354438782,-0.4209582805633545,0.6254291534423828,-0.04100862145423889,0.21152819693088531,1.1263065338134766
12.227643013000488,-0.4888609051704407,-0.4209582805633545,0.6250476837158203,-0.04100862145423889,0.21152819693088531,1.1263065338134766
12.247733354568481,-0.4888609051704407,-0.4209582805633545,0.6250476837158203,-0.04100862145423889,0.21152819693088531,1.1263065338134766
12.267839193344116,-0.4888609051704407,-0.4209582805633545,0.6250476837158203,-0.04100862145423889,0.21152819693088531,1.1263065338134766
12.287930011749268,-0.4888609051704407,-0.4209582805633545,0.6250476837158203,-0.04100862145423889,0.21152819693088531,1.1263065338134766
12.308478355407715,-0.4888609051704407,-0.4209582805633545,0.6250476837158203,-0.04100862145423889,0.21152819693088531,1.1263065338134766
12.328613042831421,-0.4888609051704407,-0.4209582805633545,0.6250476837158203,-0.04100862145423889,0.21152819693088531,1.1263065338134766
12.348709106445312,-0.4888609051704407,-0.4209582805633545,0.6250476837158203,-0.04100862145423889,0.21152819693088531,1.1263065338134766
12.368846893310547,-0.4888609051704407,-0.4209582805633545,0.6250476837158203,-0.04100862145423889,0.21152819693088531,1.1263065338134766
12.388933897018433,-0.4888609051704407,-0.4209582805633545,0.6250476837158203,-0.04100862145423889,0.21152819693088531,1.1263065338134766
12.408961296081543,-0.4888609051704407,-0.4209582805633545,0.6250476837158203,-0.04100862145423889,0.21152819693088531,1.1263065338134766
12.42907190322876,-0.4888609051704407,-0.4209582805633545,0.6250476837158203,-0.04100862145423889,0.21152819693088531,1.1263065338134766
12.449373960494995,-0.4888609051704407,-0.4209582805633545,0.6250476837158203,-0.04100862145423889,0.21152819693088531,1.1263065338134766
12.469565868377686,-0.4888609051704407,-0.4209582805633545,0.6250476837158203,-0.04100862145423889,0.21152819693088531,1.1263065338134766
12.490210771560669,-0.4884794354438782,-0.4209582805633545,0.6250476837158203,-0.04100862145423889,0.21152819693088531,1.125925064086914
12.510444164276123,-0.4884794354438782,-0.4209582805633545,0.6250476837158203,-0.04100862145423889,0.21152819693088531,1.125925064086914
12.53057050704956,-0.4880979657173157,-0.4205767810344696,0.6250476837158203,-0.04100862145423889,0.21190966665744781,1.125925064086914
12.550578594207764,-0.4839017391204834,-0.4198138415813446,0.6250476837158203,-0.04100862145423889,0.21076524257659912,1.1255435943603516
12.570748329162598,-0.47589075565338135,-0.4179064631462097,0.6246662139892578,-0.04100862145423889,0.20504310727119446,1.124399185180664
12.590953350067139,-0.46215763688087463,-0.41485464572906494,0.6239032745361328,-0.04100862145423889,0.1993209719657898,1.1224918365478516
12.611051797866821,-0.44422826170921326,-0.41103988885879517,0.6231403350830078,-0.040627144277095795,0.1977950781583786,1.121347427368164
12.631124019622803,-0.4236285984516144,-0.4068436622619629,0.6227588057518005,-0.04100862145423889,0.19550621509552002,1.118677020072937
12.651371717453003,-0.39616236090660095,-0.4030289053916931,0.6219958662986755,-0.040627144277095795,0.1985580176115036,1.117914080619812
12.671467304229736,-0.36602577567100525,-0.39692530035972595,0.6212329268455505,-0.040627144277095795,0.20160982012748718,1.1160067319869995
12.691586971282959,-0.33360037207603455,-0.3919661343097687,0.6197070479393005,-0.040627144277095795,0.20237277448177338,1.1137179136276245
12.711629867553711,-0.2965972423553467,-0.3843366205692291,0.6177996397018433,-0.040627144277095795,0.20733195543289185,1.1110475063323975
12.731740474700928,-0.2592126429080963,-0.3725108802318573,0.6139848828315735,-0.040627144277095795,0.21038375794887543,1.10685133934021
12.751841068267822,-0.22411687672138214,-0.361066609621048,0.6097886562347412,-0.04100862145423889,0.2149614691734314,1.1022735834121704
12.771885395050049,-0.19207294285297394,-0.34580758213996887,0.6040665507316589,-0.04100862145423889,0.22259098291397095,1.0934996604919434
12.791963815689087,-0.1665140837430954,-0.32978561520576477,0.5956740379333496,-0.04177157208323479,0.2286945879459381,1.0866330862045288
12.81203579902649,-0.14362554252147675,-0.31414511799812317,0.5891889929771423,-0.04329747334122658,0.23212787508964539,1.0812923908233643
12.832176923751831,-0.12607766687870026,-0.2977416515350342,0.5804150700569153,-0.045204851776361465,0.23403525352478027,1.0763332843780518
12.852267026901245,-0.11387044936418533,-0.28324559330940247,0.5739299654960632,-0.046730753034353256,0.2298390120267868,1.0725184679031372
12.872337341308594,-0.10547798871994019,-0.2733272314071655,0.568970799446106,-0.04787518084049225,0.22640573978424072,1.0683223009109497
12.89249038696289,-0.09937438368797302,-0.2634088695049286,0.5643930435180664,-0.04787518084049225,0.21839475631713867,1.0660333633422852
12.912591695785522,-0.09441519528627396,-0.25425344705581665,0.5586709380149841,-0.04940108209848404,0.2134355753660202,1.0633630752563477
12.932653903961182,-0.09098191559314728,-0.2443350851535797,0.5537117719650269,-0.050164032727479935,0.21000228822231293,1.0622186660766602
12.952776670455933,-0.08602273464202881,-0.23594263195991516,0.5476081371307373,-0.051689937710762024,0.20733195543289185,1.0595483779907227
12.972866535186768,-0.08030059933662415,-0.2298390120267868,0.5388342142105103,-0.053215838968753815,0.20504310727119446,1.0568779706954956
12.992958068847656,-0.071908138692379,-0.22602425515651703,0.5319676399230957,-0.05397878959774971,0.2004653960466385,1.0553520917892456
13.013505220413208,-0.06008239835500717,-0.22220951318740845,0.5231937170028687,-0.0558861680328846,0.1977950781583786,1.051918864250183
13.033597230911255,-0.04596780240535736,-0.2138170450925827,0.5148012638092041,-0.059319447726011276,0.19169145822525024,1.048485517501831
13.05368709564209,-0.027656977996230125,-0.20428015291690826,0.506790280342102,-0.06198977679014206,0.18635080754756927,1.046196699142456
13.07374906539917,-0.007057297509163618,-0.19398032128810883,0.4999237060546875,-0.06313420087099075,0.182154580950737,1.042763352394104
13.093816995620728,0.010490577667951584,-0.18673227727413177,0.49420157074928284,-0.06694895774126053,0.182154580950737,1.0393301248550415
13.113894939422607,0.025749599561095238,-0.1836804747581482,0.49191272258758545,-0.06885633617639542,0.1817730963230133,1.0378042459487915
13.133978605270386,0.03795681521296501,-0.1813916265964508,0.49000534415245056,-0.0711451917886734,0.1844434291124344,1.035896897315979
13.154037714004517,0.04558632895350456,-0.17681391537189484,0.48962387442588806,-0.071908138692379,0.18596932291984558,1.033989429473877
13.174095392227173,0.05054550990462303,-0.17032882571220398,0.48962387442588806,-0.071908138692379,0.18635080754756927,1.032463550567627
13.19443416595459,0.05245288833975792,-0.1657511293888092,0.48962387442588806,-0.0722896158695221,0.1836804747581482,1.0320820808410645
13.214534282684326,0.05245288833975792,-0.1653696447610855,0.4880979657173157,-0.07267109304666519,0.17681391537189484,1.031700611114502
13.234599351882935,0.05130846053361893,-0.1661325991153717,0.4869535267353058,-0.07305257022380829,0.17185473442077637,1.0313191413879395
13.254727125167847,0.05092698708176613,-0.1668955534696579,0.4861905872821808,-0.07419699430465698,0.16384375095367432,1.0305562019348145
13.274822473526001,0.05092698708176613,-0.1680399775505066,0.4846646785736084,-0.07572289556264877,0.16079194843769073,1.028648853302002
13.294910669326782,0.05130846053361893,-0.16956588625907898,0.4839017391204834,-0.07839322835206985,0.15812161564826965,1.0271228551864624
13.315027236938477,0.05397878959774971,-0.17223620414733887,0.4827573001384735,-0.08030059933662415,0.15659570693969727,1.024452567100525
13.335112810134888,0.05970092490315437,-0.17719538509845734,0.4812313914299011,-0.08373387902975082,0.15545128285884857,1.0233081579208374
13.35518503189087,0.06694895774126053,-0.1832990050315857,0.4808499217033386,-0.08564125746488571,0.1527809500694275,1.021400809288025
13.37539291381836,0.07724879682064056,-0.19054703414440155,0.4800869822502136,-0.08983749151229858,0.1493476778268814,1.0191118717193604
13.395477056503296,0.0879301130771637,-0.1981765478849411,0.4797055125236511,-0.09479667246341705,0.14820325374603271,1.0179674625396729
13.415546178817749,0.09708552807569504,-0.20237277448177338,0.4797055125236511,-0.09822995215654373,0.14476996660232544,1.0160601139068604
13.435636281967163,0.10547798871994019,-0.20771344006061554,0.4797055125236511,-0.09937438368797302,0.14324407279491425,1.0137712955474854
13.455735683441162,0.11081864684820175,-0.2157244235277176,0.47932401299476624,-0.10204470902681351,0.14133669435977936,1.0133898258209229
13.47578477859497,0.11310750246047974,-0.22373540699481964,0.4797055125236511,-0.10509651154279709,0.14095520973205566,1.0126268863677979
13.49586796760559,0.11425192654132843,-0.2313649207353592,0.4797055125236511,-0.10585946589708328,0.13828489184379578,1.0114823579788208
13.515950918197632,0.11425192654132843,-0.23632410168647766,0.4797055125236511,-0.10662241280078888,0.1359960287809372,1.0107194185256958
13.536088705062866,0.11463340371847153,-0.24128328263759613,0.4800869822502136,-0.10852979123592377,0.13065537810325623,1.0095750093460083
13.556163549423218,0.11501488089561462,-0.24929426610469818,0.4804684519767761,-0.10967422276735306,0.12722209095954895,1.0084306001663208
13.576194763183594,0.11577782779932022,-0.2603570520877838,0.4804684519767761,-0.11234454810619354,0.12378881871700287,1.0069047212600708
13.596253871917725,0.11654078215360641,-0.2744716703891754,0.4804684519767761,-0.11539635062217712,0.12111848592758179,1.0057603120803833
13.616344451904297,0.1184481605887413,-0.28706035017967224,0.4808499217033386,-0.1192111074924469,0.11768520623445511,1.0046159029006958
13.636419296264648,0.12111848592758179,-0.2946898639202118,0.482375830411911,-0.12226291000843048,0.11425192654132843,1.0042344331741333
13.656561613082886,0.12417028844356537,-0.30041199922561646,0.4835202693939209,-0.12493324279785156,0.11196307092905045,1.0027084350585938
13.676645278930664,0.12722209095954895,-0.3114747703075409,0.4854276478290558,-0.12684062123298645,0.11043716967105865,1.0019454956054688
13.696730136871338,0.12836651504039764,-0.3278782367706299,0.4861905872821808,-0.12874799966812134,0.10814831405878067,1.0000381469726562
13.717587232589722,0.13103684782981873,-0.3412298858165741,0.4869535267353058,-0.13218127191066742,0.10547798871994019,0.9988937377929688
13.737688302993774,0.1325627565383911,-0.35076677799224854,0.4877164959907532,-0.1333257108926773,0.10433356463909149,0.9981307983398438
13.757748365402222,0.1337071806192398,-0.3572518527507782,0.4884794354438782,-0.135233074426651,0.1024261862039566,0.9977492690086365
13.778198957443237,0.1337071806192398,-0.3622110188007355,0.49000534415245056,-0.1363775134086609,0.10128175467252731,0.996604859828949
13.798288106918335,0.1337071806192398,-0.3725108802318573,0.49153125286102295,-0.13828489184379578,0.10013733059167862,0.9962233901023865
13.818392515182495,0.1337071806192398,-0.3839551508426666,0.49267566204071045,-0.13981078565120697,0.09861142933368683,0.9946975111961365
13.838416337966919,0.1337071806192398,-0.39501792192459106,0.49305713176727295,-0.14133669435977936,0.09670405089855194,0.994316041469574
13.858510255813599,0.1348516047000885,-0.4018844962120056,0.49382010102272034,-0.14362554252147675,0.09441519528627396,0.9939345121383667
13.87858533859253,0.1359960287809372,-0.4037918746471405,0.4953460097312927,-0.14438849687576294,0.09174486994743347,0.9939345121383667
13.898946046829224,0.1371404528617859,-0.4053177833557129,0.4968718886375427,-0.14705882966518402,0.09021896868944168,0.9935530424118042
13.91904592514038,0.13866636157035828,-0.4076066315174103,0.4980163276195526,-0.1493476778268814,0.08907453715801239,0.9924086332321167
13.93911337852478,0.13866636157035828,-0.4091325104236603,0.4991607666015625,-0.1508735716342926,0.08907453715801239,0.9908827543258667
13.959373235702515,0.13904783129692078,-0.4083695709705353,0.50030517578125,-0.152399480342865,0.08945601433515549,0.9901197552680969
13.979459762573242,0.13866636157035828,-0.4076066315174103,0.5014495849609375,-0.15430685877799988,0.08869306743144989,0.9897382855415344
13.999561786651611,0.13866636157035828,-0.4076066315174103,0.5025940537452698,-0.15545128285884857,0.0871671661734581,0.9885938763618469
14.019696712493896,0.13866636157035828,-0.4072251319885254,0.5033569931983948,-0.15774014592170715,0.08487831056118011,0.9878309369087219
14.039796590805054,0.13866636157035828,-0.4072251319885254,0.5045014023780823,-0.15888457000255585,0.08335240930318832,0.9870679974555969
14.059869289398193,0.13866636157035828,-0.4072251319885254,0.5048828721046448,-0.16079194843769073,0.08220797777175903,0.9870679974555969
14.079941511154175,0.13866636157035828,-0.4068436622619629,0.5052643418312073,-0.16269932687282562,0.08182650804519653,0.9866865277290344
14.100037097930908,0.13866636157035828,-0.4060807228088379,0.5064088106155396,-0.164988175034523,0.08182650804519653,0.9863049983978271
14.120096206665039,0.13866636157035828,-0.4056992530822754,0.5071717500686646,-0.1661325991153717,0.08144503086805344,0.9851605892181396
14.140324115753174,0.13866636157035828,-0.4053177833557129,0.5086976289749146,-0.1680399775505066,0.08068207651376724,0.9840161800384521
