liuyurong129/humanoid-gym/humanoid/data/actual_q_20250523-020244.csv
timestamp,joint_1,joint_2,joint_3,joint_4,joint_5,joint_6
0.00021910667419433594,-0.00019073777366429567,0.001716639962978661,-0.001716639962978661,-0.00019073777366429567,-0.00019073777366429567,-0.00019073777366429567
0.020366907119750977,-0.00019073777366429567,0.001716639962978661,-0.0009536888683214784,-0.00019073777366429567,-0.00019073777366429567,-0.00019073777366429567
0.04049062728881836,-0.00019073777366429567,0.0013351644156500697,-0.0009536888683214784,-0.00019073777366429567,-0.00019073777366429567,-0.000572213320992887
0.060568809509277344,-0.00019073777366429567,0.0013351644156500697,-0.0009536888683214784,-0.00019073777366429567,-0.00019073777366429567,-0.00019073777366429567
0.08073949813842773,-0.00019073777366429567,0.0013351644156500697,-0.000572213320992887,-0.00019073777366429567,-0.00019073777366429567,-0.00019073777366429567
0.10085248947143555,-0.00019073777366429567,-0.0036240178160369396,0.001716639962978661,-0.00019073777366429567,-0.00019073777366429567,-0.00019073777366429567
0.12096118927001953,-0.00019073777366429567,-0.010109102353453636,0.006294346414506435,-0.00019073777366429567,-0.000572213320992887,-0.00019073777366429567
0.1410510540008545,-0.00019073777366429567,-0.023079270496964455,0.013542382046580315,0.00019073777366429567,-0.000572213320992887,0.00019073777366429567
0.16124820709228516,-0.00019073777366429567,-0.03643091395497322,0.021553369238972664,0.00019073777366429567,-0.0009536888683214784,0.000572213320992887
0.18123126029968262,-0.00019073777366429567,-0.05283436179161072,0.029182879254221916,0.000572213320992887,-0.0013351644156500697,0.0009536888683214784
0.20139169692993164,-0.000572213320992887,-0.0711451917886734,0.0394827201962471,0.0009536888683214784,-0.001716639962978661,0.0020981156267225742
0.2213881015777588,-0.000572213320992887,-0.09136339277029037,0.04749370738863945,0.0009536888683214784,-0.002861066721379757,0.0036240178160369396
0.24151372909545898,-0.0013351644156500697,-0.11539635062217712,0.05741206929087639,0.0013351644156500697,-0.0032425422687083483,0.00476844422519207
0.2617154121398926,-0.0020981156267225742,-0.13866636157035828,0.06809338182210922,0.0013351644156500697,-0.0032425422687083483,0.006294346414506435
0.2816915512084961,-0.0032425422687083483,-0.16231784224510193,0.07610437273979187,0.001716639962978661,-0.0036240178160369396,0.00858320016413927
0.30173420906066895,-0.004386968910694122,-0.18520638346672058,0.0879301130771637,0.0024795911740511656,-0.005149920005351305,0.010109102353453636
0.32183194160461426,-0.005149920005351305,-0.20313572883605957,0.09975585341453552,0.004005493130534887,-0.006294346414506435,0.01201647985726595
0.3419198989868164,-0.006294346414506435,-0.21953918039798737,0.10929274559020996,0.005149920005351305,-0.007438773289322853,0.014686808921396732
0.3620493412017822,-0.0078202486038208,-0.23556114733219147,0.12111848592758179,0.007057297509163618,-0.00858320016413927,0.016594186425209045
0.3821699619293213,-0.009727626107633114,-0.25463491678237915,0.1337071806192398,0.008201723918318748,-0.010109102353453636,0.01926451548933983
0.4022214412689209,-0.01201647985726595,-0.27218279242515564,0.14248111844062805,0.008964675478637218,-0.010490577667951584,0.02040894143283367
0.4222579002380371,-0.014686808921396732,-0.28820478916168213,0.152399480342865,0.008964675478637218,-0.013160906732082367,0.023079270496964455
0.4424574375152588,-0.01735713705420494,-0.30117493867874146,0.16231784224510193,0.009727626107633114,-0.014686808921396732,0.024223696440458298
0.4626610279083252,-0.01926451548933983,-0.309567391872406,0.17032882571220398,0.010490577667951584,-0.015449759550392628,0.026512550190091133
0.48316526412963867,-0.02079041674733162,-0.31452658772468567,0.17566949129104614,0.01201647985726595,-0.01773861236870289,0.027656977996230125
0.5032422542572021,-0.023460745811462402,-0.3217746317386627,0.1817730963230133,0.013160906732082367,-0.02079041674733162,0.029182879254221916
0.5232949256896973,-0.02536812424659729,-0.3290226459503174,0.1844434291124344,0.01506828423589468,-0.024605173617601395,0.030708782374858856
0.543341875076294,-0.026512550190091133,-0.33054855465888977,0.18596932291984558,0.016212711110711098,-0.025749599561095238,0.03185320645570755
0.5633988380432129,-0.026512550190091133,-0.32978561520576477,0.18673227727413177,0.016975661739706993,-0.031090257689356804,0.034142062067985535
0.5836029052734375,-0.026512550190091133,-0.3278782367706299,0.18711376190185547,0.018501564860343933,-0.03376058489084244,0.03528648987412453
0.6036102771759033,-0.02727550081908703,-0.3240634799003601,0.18787670135498047,0.019645990803837776,-0.03528648987412453,0.037193864583969116
0.6236824989318848,-0.028038453310728073,-0.31948578357696533,0.18978407979011536,0.020027466118335724,-0.03604944050312042,0.038719769567251205
0.6437356472015381,-0.02880140393972397,-0.31567102670669556,0.19054703414440155,0.02040894143283367,-0.035667963325977325,0.04100862145423889
0.6639187335968018,-0.029564354568719864,-0.309567391872406,0.19207294285297394,0.021553369238972664,-0.03604944050312042,0.04291599988937378
0.6839191913604736,-0.03032730519771576,-0.30308231711387634,0.19359883666038513,0.02384222112596035,-0.03604944050312042,0.04482337832450867
0.7039604187011719,-0.030708782374858856,-0.2969787120819092,0.19550621509552002,0.025749599561095238,-0.035667963325977325,0.046730753034353256
0.7240540981292725,-0.03147173300385475,-0.2904936373233795,0.1974135935306549,0.02727550081908703,-0.03604944050312042,0.04940108209848404
0.7441248893737793,-0.032616160809993744,-0.28362706303596497,0.2004653960466385,0.027656977996230125,-0.035667963325977325,0.05130846053361893
0.7642385959625244,-0.03337911143898964,-0.2763790488243103,0.20313572883605957,0.02841992862522602,-0.035667963325977325,0.05397878959774971
0.784264087677002,-0.03376058489084244,-0.27141985297203064,0.20618753135204315,0.02880140393972397,-0.035667963325977325,0.05664911866188049
0.8043713569641113,-0.03452353551983833,-0.26798656582832336,0.21000228822231293,0.031090257689356804,-0.035667963325977325,0.05893797054886818
0.8245270252227783,-0.03490501269698143,-0.2653162479400635,0.2149614691734314,0.032616160809993744,-0.03643091395497322,0.06237125024199486
0.8450479507446289,-0.03490501269698143,-0.2645532786846161,0.21877622604370117,0.03490501269698143,-0.037193864583969116,0.06618601083755493
0.8651556968688965,-0.03604944050312042,-0.2645532786846161,0.22220951318740845,0.03643091395497322,-0.03681239113211632,0.0707637146115303
0.8852221965789795,-0.03681239113211632,-0.2645532786846161,0.22526131570339203,0.039101243019104004,-0.03681239113211632,0.07457847148180008
0.9052796363830566,-0.03757534176111221,-0.2645532786846161,0.22640573978424072,0.042153049260377884,-0.037193864583969116,0.07877469807863235
0.9254069328308105,-0.03833829239010811,-0.26684215664863586,0.22755016386508942,0.04558632895350456,-0.037193864583969116,0.08297093212604523
0.9454641342163086,-0.0394827201962471,-0.26836803555488586,0.2298390120267868,0.04901960864663124,-0.037193864583969116,0.0864042118191719
0.9656012058258057,-0.0398641936480999,-0.26989394426345825,0.2309834510087967,0.053215838968753815,-0.037193864583969116,0.09021896868944168
0.9856956005096436,-0.0398641936480999,-0.27103838324546814,0.23250934481620789,0.0555046908557415,-0.038719769567251205,0.09441519528627396
1.0058095455169678,-0.0398641936480999,-0.27180132269859314,0.23403525352478027,0.058175019919872284,-0.040245670825242996,0.09822995215654373
1.0258798599243164,-0.040627144277095795,-0.27180132269859314,0.23670557141304016,0.06046387553215027,-0.040627144277095795,0.10128175467252731
1.045919418334961,-0.04100862145423889,-0.27180132269859314,0.23785001039505005,0.06084534898400307,-0.04100862145423889,0.10433356463909149
1.0660018920898438,-0.04139009863138199,-0.272945761680603,0.23899443447589874,0.06160829961299896,-0.04139009863138199,0.10662241280078888
1.086071491241455,-0.04177157208323479,-0.2752346098423004,0.24090181291103363,0.06198977679014206,-0.04139009863138199,0.10929274559020996
1.106139898300171,-0.04177157208323479,-0.2767605185508728,0.24204623699188232,0.06389715522527695,-0.04100862145423889,0.11081864684820175
1.1263046264648438,-0.042153049260377884,-0.2798123061656952,0.24319066107273102,0.06542305648326874,-0.04100862145423889,0.11387044936418533
1.146399974822998,-0.04291599988937378,-0.28248265385627747,0.2443350851535797,0.06809338182210922,-0.040245670825242996,0.11577782779932022
1.1664433479309082,-0.04291599988937378,-0.28324559330940247,0.2450980395078659,0.06923781335353851,-0.0398641936480999,0.1180666834115982
1.1865355968475342,-0.043678950518369675,-0.28324559330940247,0.2462424635887146,0.06961929053068161,-0.0394827201962471,0.1203555315732956
1.2067015171051025,-0.04444190114736557,-0.28324559330940247,0.2481498420238495,0.0715266615152359,-0.0394827201962471,0.12188144028186798
1.2268099784851074,-0.04482337832450867,-0.28362706303596497,0.24929426610469818,0.071908138692379,-0.038719769567251205,0.12455176562070847
1.2468671798706055,-0.04482337832450867,-0.28553444147109985,0.25120165944099426,0.071908138692379,-0.038719769567251205,0.12684062123298645
1.266918659210205,-0.04482337832450867,-0.28667888045310974,0.25196459889411926,0.0722896158695221,-0.03795681521296501,0.12798504531383514
1.2870068550109863,-0.04482337832450867,-0.28858625888824463,0.25234606862068176,0.0722896158695221,-0.03604944050312042,0.12989242374897003
1.3070716857910156,-0.045204851776361465,-0.290112167596817,0.25234606862068176,0.07305257022380829,-0.03490501269698143,0.13179980218410492
1.3271374702453613,-0.04596780240535736,-0.2935454249382019,0.25310903787612915,0.07457847148180008,-0.03223468363285065,0.13218127191066742
1.3472535610198975,-0.04596780240535736,-0.2965972423553467,0.25463491678237915,0.07648584991693497,-0.031090257689356804,0.1340886503458023
1.3673489093780518,-0.04634927958250046,-0.29850462079048157,0.25577935576438904,0.07724879682064056,-0.029564354568719864,0.135233074426651
1.3875095844268799,-0.046730753034353256,-0.29850462079048157,0.2569237947463989,0.07839322835206985,-0.02880140393972397,0.1359960287809372
1.4075040817260742,-0.046730753034353256,-0.29850462079048157,0.2588311731815338,0.07839322835206985,-0.02880140393972397,0.1367589831352234
1.4275901317596436,-0.046730753034353256,-0.29850462079048157,0.2599755823612213,0.07839322835206985,-0.02880140393972397,0.13904783129692078
1.447679042816162,-0.046730753034353256,-0.29850462079048157,0.2607385218143463,0.07877469807863235,-0.02841992862522602,0.13981078565120697
1.467726469039917,-0.04711223021149635,-0.29926756024360657,0.2618829607963562,0.07877469807863235,-0.02841992862522602,0.14133669435977936
1.4877986907958984,-0.04711223021149635,-0.30079346895217896,0.2622644305229187,0.07877469807863235,-0.02727550081908703,0.14286258816719055
1.5079026222229004,-0.04787518084049225,-0.30384528636932373,0.2630273997783661,0.07915617525577545,-0.024986648932099342,0.14362554252147675
1.5279653072357178,-0.04787518084049225,-0.30498969554901123,0.2637903392314911,0.07877469807863235,-0.024223696440458298,0.14515145123004913
1.5480573177337646,-0.04787518084049225,-0.3065156042575836,0.2637903392314911,0.07915617525577545,-0.02384222112596035,0.14667734503746033
1.568087100982666,-0.048256658017635345,-0.308041512966156,0.2645532786846161,0.07915617525577545,-0.022697795182466507,0.14820325374603271
1.5881731510162354,-0.048638131469488144,-0.3091859221458435,0.2660791873931885,0.07915617525577545,-0.02193484455347061,0.1497291475534439
1.6082415580749512,-0.04901960864663124,-0.3103303611278534,0.26722362637519836,0.07953765243291855,-0.02079041674733162,0.1504921019077301
1.628288984298706,-0.050164032727479935,-0.3107118308544159,0.26836803555488586,0.07953765243291855,-0.02040894143283367,0.1512550562620163
1.648353099822998,-0.050164032727479935,-0.3110933005809784,0.26913100481033325,0.07953765243291855,-0.01926451548933983,0.1527809500694275
1.668473243713379,-0.05054550990462303,-0.3110933005809784,0.26951247453689575,0.07991912961006165,-0.018501564860343933,0.15392538905143738
1.688507080078125,-0.05092698708176613,-0.3110933005809784,0.27027541399002075,0.08030059933662415,-0.01773861236870289,0.15545128285884857
1.7086715698242188,-0.05092698708176613,-0.3122377395629883,0.27027541399002075,0.08030059933662415,-0.016975661739706993,0.15697719156742096
1.7287590503692627,-0.05092698708176613,-0.3130006790161133,0.27141985297203064,0.08144503086805344,-0.016212711110711098,0.15774014592170715
1.748967170715332,-0.05092698708176613,-0.31490805745124817,0.2725642919540405,0.08258945494890213,-0.01583123579621315,0.15774014592170715
1.7689106464385986,-0.05092698708176613,-0.31567102670669556,0.273708701133728,0.08297093212604523,-0.01430533267557621,0.15812161564826965
1.7890000343322754,-0.05092698708176613,-0.31834134459495544,0.2744716703891754,0.08335240930318832,-0.013542382046580315,0.15888457000255585
1.8091068267822266,-0.05130846053361893,-0.31872281432151794,0.2752346098423004,0.08373387902975082,-0.012397955171763897,0.16002899408340454
1.8291311264038086,-0.05207141116261482,-0.31948578357696533,0.2759975492954254,0.08411535620689392,-0.010872052982449532,0.16117341816425323
1.8492140769958496,-0.05207141116261482,-0.32063019275665283,0.2763790488243103,0.08487831056118011,-0.009727626107633114,0.16155488789081573
1.869281530380249,-0.05207141116261482,-0.3217746317386627,0.2763790488243103,0.08602273464202881,-0.009727626107633114,0.16193637251853943
1.8893458843231201,-0.05207141116261482,-0.3236820101737976,0.2771419882774353,0.0864042118191719,-0.009346150793135166,0.16308079659938812
1.909740924835205,-0.05283436179161072,-0.3255893886089325,0.2779049277305603,0.0864042118191719,-0.008964675478637218,0.1646067053079605
1.9298827648162842,-0.05436026677489281,-0.32673379778862,0.2790493667125702,0.086785688996315,-0.008201723918318748,0.1653696447610855
1.9500362873077393,-0.054741740226745605,-0.3278782367706299,0.2805752754211426,0.086785688996315,-0.008201723918318748,0.1661325991153717
1.9700665473937988,-0.0551232174038887,-0.32978561520576477,0.2813382148742676,0.086785688996315,-0.0078202486038208,0.1665140837430954
1.9901292324066162,-0.0551232174038887,-0.32978561520576477,0.2817196846008301,0.086785688996315,-0.007438773289322853,0.16880293190479279
2.010206937789917,-0.0551232174038887,-0.32978561520576477,0.28286412358283997,0.0871671661734581,-0.0078202486038208,0.16956588625907898
2.0302481651306152,-0.0551232174038887,-0.32978561520576477,0.28362706303596497,0.0875486359000206,-0.007438773289322853,0.17071031033992767
2.0505270957946777,-0.0551232174038887,-0.33016708493232727,0.28362706303596497,0.0875486359000206,-0.005912871100008488,0.17223620414733887
2.070688009262085,-0.0551232174038887,-0.32978561520576477,0.28439003229141235,0.08907453715801239,-0.005149920005351305,0.17299915850162506
2.090714931488037,-0.0555046908557415,-0.32978561520576477,0.28515297174453735,0.09021896868944168,-0.004005493130534887,0.17338064312934875
2.1107656955718994,-0.056267641484737396,-0.33093002438545227,0.28591591119766235,0.09021896868944168,-0.0020981156267225742,0.17490653693675995
2.130852222442627,-0.056267641484737396,-0.33093002438545227,0.28667888045310974,0.09098191559314728,-0.0013351644156500697,0.17643244564533234
2.15092134475708,-0.056267641484737396,-0.33169299364089966,0.28744181990623474,0.09098191559314728,-0.0009536888683214784,0.17681391537189484
2.170978307723999,-0.056267641484737396,-0.33207446336746216,0.28782328963279724,0.09098191559314728,-0.0009536888683214784,0.17757686972618103
2.1910576820373535,-0.05703059583902359,-0.33398184180259705,0.28820478916168213,0.09136339277029037,-0.000572213320992887,0.17833982408046722
2.21113657951355,-0.05703059583902359,-0.33512628078460693,0.28896772861480713,0.09212634712457657,0.000572213320992887,0.17986571788787842
2.2311885356903076,-0.05703059583902359,-0.33627068996429443,0.28896772861480713,0.09365224838256836,0.00019073777366429567,0.1802472025156021
2.251387596130371,-0.05741206929087639,-0.3381780683994293,0.28934919834136963,0.09441519528627396,0.0013351644156500697,0.1810101419687271
2.271474838256836,-0.05741206929087639,-0.3397039771080017,0.2904936373233795,0.09441519528627396,0.001716639962978661,0.182154580950737
2.2915685176849365,-0.058175019919872284,-0.3408484160900116,0.2920195460319519,0.09479667246341705,0.0032425422687083483,0.1832990050315857
2.3116204738616943,-0.058175019919872284,-0.3419928252696991,0.2920195460319519,0.09517814964056015,0.005149920005351305,0.1836804747581482
2.3317432403564453,-0.05855649709701538,-0.3423742949962616,0.2927824854850769,0.09517814964056015,0.005912871100008488,0.1840619444847107
2.351813793182373,-0.05893797054886818,-0.3423742949962616,0.2931639552116394,0.09555962681770325,0.006294346414506435,0.1840619444847107
2.371886730194092,-0.059319447726011276,-0.3423742949962616,0.2939268946647644,0.09594109654426575,0.0078202486038208,0.1844434291124344
2.392132043838501,-0.05970092490315437,-0.3423742949962616,0.2946898639202118,0.09632257372140884,0.008201723918318748,0.18520638346672058
2.41211199760437,-0.06046387553215027,-0.3423742949962616,0.2958342730998993,0.09708552807569504,0.008964675478637218,0.18635080754756927
2.4322216510772705,-0.061226826161146164,-0.3423742949962616,0.2962157726287842,0.09784847497940063,0.009727626107633114,0.18749523162841797
2.4522690773010254,-0.061226826161146164,-0.3423742949962616,0.2973601818084717,0.09822995215654373,0.010490577667951584,0.18787670135498047
2.472343921661377,-0.061226826161146164,-0.3427557647228241,0.2977416515350342,0.09822995215654373,0.010872052982449532,0.18863965570926666
2.492429256439209,-0.061226826161146164,-0.343900203704834,0.29812315106391907,0.09822995215654373,0.011635004542768002,0.18940261006355286
2.512695789337158,-0.061226826161146164,-0.34542611241340637,0.29812315106391907,0.09861142933368683,0.012779430486261845,0.19130998849868774
2.5328314304351807,-0.061226826161146164,-0.34618905186653137,0.29850462079048157,0.09899290651082993,0.013160906732082367,0.19207294285297394
2.5529448986053467,-0.061226826161146164,-0.34771496057510376,0.29926756024360657,0.09899290651082993,0.013542382046580315,0.19245441257953644
2.573397397994995,-0.06160829961299896,-0.34885939955711365,0.29926756024360657,0.09975585341453552,0.014686808921396732,0.19359883666038513
2.593474864959717,-0.06237125024199486,-0.34885939955711365,0.29964902997016907,0.10128175467252731,0.016212711110711098,0.19512474536895752
2.613595962524414,-0.06351567804813385,-0.34885939955711365,0.30041199922561646,0.10204470902681351,0.016975661739706993,0.19550621509552002
2.6337015628814697,-0.06389715522527695,-0.34885939955711365,0.30117493867874146,0.1028076633810997,0.016975661739706993,0.1962691694498062
2.653763771057129,-0.06466010212898254,-0.35000380873680115,0.30231937766075134,0.1028076633810997,0.01735713705420494,0.1974135935306549
2.673865556716919,-0.06466010212898254,-0.35038527846336365,0.30308231711387634,0.1035706102848053,0.01735713705420494,0.1985580176115036
2.693899631500244,-0.06466010212898254,-0.35114824771881104,0.30384528636932373,0.10433356463909149,0.01735713705420494,0.1993209719657898
2.714010238647461,-0.06466010212898254,-0.35229265689849854,0.30460822582244873,0.10471503436565399,0.01735713705420494,0.1997024416923523
2.7340760231018066,-0.06466010212898254,-0.3545815348625183,0.30460822582244873,0.10509651154279709,0.018120087683200836,0.200083926320076
2.7541451454162598,-0.06466010212898254,-0.3553444743156433,0.30537116527557373,0.10509651154279709,0.01888304017484188,0.20160982012748718
2.7742137908935547,-0.06466010212898254,-0.3568703830242157,0.30537116527557373,0.10509651154279709,0.019645990803837776,0.20237277448177338
2.7942728996276855,-0.06504157930612564,-0.3572518527507782,0.30537116527557373,0.10509651154279709,0.02040894143283367,0.20237277448177338
2.8143441677093506,-0.06542305648326874,-0.3572518527507782,0.3057526648044586,0.10547798871994019,0.02079041674733162,0.20275425910949707
2.834442138671875,-0.06542305648326874,-0.3572518527507782,0.3068970739841461,0.10547798871994019,0.02079041674733162,0.20313572883605957
2.8545291423797607,-0.06580453366041183,-0.3572518527507782,0.3076600432395935,0.10585946589708328,0.021553369238972664,0.20389868319034576
2.8745906352996826,-0.06656748056411743,-0.3568703830242157,0.3084229826927185,0.10585946589708328,0.02193484455347061,0.20504310727119446
2.894887685775757,-0.06656748056411743,-0.3568703830242157,0.3084229826927185,0.10662241280078888,0.023460745811462402,0.20618753135204315
2.914978265762329,-0.06694895774126053,-0.3568703830242157,0.3084229826927185,0.10738536715507507,0.02384222112596035,0.20656901597976685
2.9350898265838623,-0.06694895774126053,-0.3568703830242157,0.308804452419281,0.10814831405878067,0.024223696440458298,0.20695048570632935
2.955177068710327,-0.06771191209554672,-0.3572518527507782,0.309567391872406,0.10852979123592377,0.02536812424659729,0.20733195543289185
2.9752397537231445,-0.06771191209554672,-0.3580147922039032,0.3103303611278534,0.10929274559020996,0.02689402550458908,0.20809490978717804
2.9952852725982666,-0.06771191209554672,-0.3591592311859131,0.3110933005809784,0.10967422276735306,0.028038453310728073,0.20962081849575043
3.015368700027466,-0.06771191209554672,-0.361066609621048,0.3126192092895508,0.11043716967105865,0.02841992862522602,0.21000228822231293
3.0354702472686768,-0.06771191209554672,-0.361066609621048,0.3126192092895508,0.11081864684820175,0.029564354568719864,0.21038375794887543
3.0555615425109863,-0.06847485899925232,-0.3622110188007355,0.3126192092895508,0.11120012402534485,0.03032730519771576,0.21038375794887543
3.075645923614502,-0.06961929053068161,-0.3622110188007355,0.3126192092895508,0.11120012402534485,0.03147173300385475,0.21038375794887543
3.095708131790161,-0.06961929053068161,-0.3622110188007355,0.3126192092895508,0.11158160120248795,0.03185320645570755,0.21076524257659912
3.1157686710357666,-0.06961929053068161,-0.3622110188007355,0.3126192092895508,0.11196307092905045,0.03185320645570755,0.21076524257659912
3.135920524597168,-0.06961929053068161,-0.3622110188007355,0.3133821487426758,0.11234454810619354,0.03223468363285065,0.21152819693088531
3.1559383869171143,-0.06961929053068161,-0.3622110188007355,0.31414511799812317,0.11272602528333664,0.03299763426184654,0.212672621011734
3.1759822368621826,-0.07000076025724411,-0.36259251832962036,0.31452658772468567,0.11272602528333664,0.034142062067985535,0.2138170450925827
3.196072816848755,-0.07000076025724411,-0.36297398805618286,0.31490805745124817,0.11310750246047974,0.03528648987412453,0.2141985148191452
3.2161388397216797,-0.0707637146115303,-0.36373692750930786,0.31490805745124817,0.11348897218704224,0.03643091395497322,0.2145799994468689
3.2363429069519043,-0.0707637146115303,-0.36411839723587036,0.31528952717781067,0.11348897218704224,0.03795681521296501,0.2153429538011551
3.256408929824829,-0.0711451917886734,-0.36526283621788025,0.31605249643325806,0.11348897218704224,0.03795681521296501,0.21725031733512878
3.2765285968780518,-0.0715266615152359,-0.36717021465301514,0.31681543588638306,0.11425192654132843,0.03833829239010811,0.21763180196285248
3.2965965270996094,-0.071908138692379,-0.368314653635025,0.31719690561294556,0.11501488089561462,0.039101243019104004,0.21763180196285248
3.316678285598755,-0.071908138692379,-0.36907759308815,0.31757840514183044,0.11615930497646332,0.038719769567251205,0.21801327168941498
3.336768388748169,-0.071908138692379,-0.36907759308815,0.31757840514183044,0.11692225188016891,0.038719769567251205,0.21877622604370117
3.3568336963653564,-0.0722896158695221,-0.36907759308815,0.31795987486839294,0.11692225188016891,0.038719769567251205,0.21953918039798737
3.3768794536590576,-0.07267109304666519,-0.36907759308815,0.31795987486839294,0.11730372905731201,0.0394827201962471,0.22068360447883606
3.396980047225952,-0.07267109304666519,-0.36907759308815,0.31872281432151794,0.1184481605887413,0.0394827201962471,0.22144655883312225
3.417055606842041,-0.07305257022380829,-0.36907759308815,0.31986725330352783,0.1192111074924469,0.040245670825242996,0.22182802855968475
3.437252998352051,-0.07305257022380829,-0.36907759308815,0.32024872303009033,0.1199740618467331,0.040627144277095795,0.22220951318740845
3.4573397636413574,-0.07381551712751389,-0.36907759308815,0.32024872303009033,0.1203555315732956,0.042153049260377884,0.22297245264053345
3.4774787425994873,-0.07419699430465698,-0.36907759308815,0.32063019275665283,0.1203555315732956,0.04291599988937378,0.22449836134910583
3.497520685195923,-0.07495994865894318,-0.36907759308815,0.32063019275665283,0.12073700875043869,0.043678950518369675,0.22487983107566833
3.517587423324585,-0.07495994865894318,-0.36907759308815,0.32063019275665283,0.12073700875043869,0.04406042397022247,0.22487983107566833
3.537623643875122,-0.07495994865894318,-0.36907759308815,0.32101166248321533,0.12073700875043869,0.04406042397022247,0.22526131570339203
3.5576915740966797,-0.07495994865894318,-0.36907759308815,0.3213931620121002,0.12111848592758179,0.04406042397022247,0.22526131570339203
3.5777406692504883,-0.07534141838550568,-0.36907759308815,0.3225375711917877,0.12149996310472488,0.04444190114736557,0.22564278542995453
3.5978198051452637,-0.07572289556264877,-0.3694590628147125,0.3229190409183502,0.12188144028186798,0.045204851776361465,0.22602425515651703
3.617893695831299,-0.07610437273979187,-0.3702220320701599,0.3233005404472351,0.12302586436271667,0.046730753034353256,0.22678720951080322
3.6379613876342773,-0.07610437273979187,-0.3713664412498474,0.3236820101737976,0.12378881871700287,0.04711223021149635,0.2283131182193756
3.6581838130950928,-0.07610437273979187,-0.3725108802318573,0.3240634799003601,0.12417028844356537,0.04749370738863945,0.2286945879459381
3.678271532058716,-0.07610437273979187,-0.3732738196849823,0.3240634799003601,0.12455176562070847,0.048256658017635345,0.2290760725736618
3.69834566116333,-0.07686731964349747,-0.3751811981201172,0.3240634799003601,0.12455176562070847,0.04901960864663124,0.2290760725736618
3.7189667224884033,-0.07724879682064056,-0.3755626678466797,0.3240634799003601,0.12455176562070847,0.050164032727479935,0.2294575423002243
3.7390527725219727,-0.07763027399778366,-0.3763256371021271,0.3240634799003601,0.12493324279785156,0.050164032727479935,0.2294575423002243
3.7590880393981934,-0.07801175117492676,-0.3763256371021271,0.3244449496269226,0.12531471252441406,0.050164032727479935,0.2302204966545105
3.7791733741760254,-0.07801175117492676,-0.3763256371021271,0.3248264193534851,0.12607766687870026,0.050164032727479935,0.2309834510087967
3.799248456954956,-0.07801175117492676,-0.3763256371021271,0.32520791888237,0.12722209095954895,0.050164032727479935,0.23212787508964539
3.819330930709839,-0.07839322835206985,-0.3763256371021271,0.32520791888237,0.12798504531383514,0.05054550990462303,0.23250934481620789
3.839501142501831,-0.07915617525577545,-0.3763256371021271,0.3255893886089325,0.12836651504039764,0.051689937710762024,0.23289081454277039
3.8596296310424805,-0.07915617525577545,-0.3763256371021271,0.32673379778862,0.12836651504039764,0.05283436179161072,0.23289081454277039
3.8797101974487305,-0.07915617525577545,-0.3763256371021271,0.3271152675151825,0.12836651504039764,0.05359731614589691,0.23289081454277039
3.8997480869293213,-0.07953765243291855,-0.3763256371021271,0.3274967670440674,0.12874799966812134,0.05436026677489281,0.23365376889705658
3.919839382171631,-0.08030059933662415,-0.3763256371021271,0.3282597064971924,0.12912946939468384,0.0555046908557415,0.23441672325134277
3.939908981323242,-0.08030059933662415,-0.3763256371021271,0.3286411762237549,0.12951095402240753,0.05703059583902359,0.23594263195991516
3.959953784942627,-0.08030059933662415,-0.3763256371021271,0.3286411762237549,0.13027389347553253,0.05741206929087639,0.23632410168647766
3.9800407886505127,-0.08030059933662415,-0.3763256371021271,0.3286411762237549,0.13065537810325623,0.05741206929087639,0.23632410168647766
4.000167369842529,-0.08106355369091034,-0.3763256371021271,0.3286411762237549,0.13065537810325623,0.058175019919872284,0.23632410168647766
4.020225524902344,-0.08182650804519653,-0.3763256371021271,0.3286411762237549,0.13103684782981873,0.05893797054886818,0.23632410168647766
4.04028058052063,-0.08220797777175903,-0.3763256371021271,0.3286411762237549,0.13103684782981873,0.059319447726011276,0.23632410168647766
4.060424566268921,-0.08220797777175903,-0.3767071068286896,0.3290226459503174,0.13103684782981873,0.05893797054886818,0.23670557141304016
4.080498456954956,-0.08220797777175903,-0.3770885765552521,0.32940414547920227,0.13141833245754242,0.05893797054886818,0.23670557141304016
4.1007020473480225,-0.08220797777175903,-0.3774700462818146,0.32940414547920227,0.13141833245754242,0.05893797054886818,0.23708705604076385
4.120788335800171,-0.08220797777175903,-0.3774700462818146,0.32978561520576477,0.13179980218410492,0.059319447726011276,0.23746852576732635
4.140852689743042,-0.08220797777175903,-0.37823301553726196,0.33054855465888977,0.13179980218410492,0.06008239835500717,0.23746852576732635
4.160909414291382,-0.08258945494890213,-0.37937742471694946,0.33131152391433716,0.13218127191066742,0.06198977679014206,0.23861294984817505
4.180997371673584,-0.08297093212604523,-0.38052186369895935,0.33131152391433716,0.1329442262649536,0.06351567804813385,0.23975738883018494
4.201087236404419,-0.08335240930318832,-0.38052186369895935,0.33131152391433716,0.134470134973526,0.06504157930612564,0.24013885855674744
4.221193552017212,-0.08373387902975082,-0.38052186369895935,0.33131152391433716,0.135233074426651,0.06580453366041183,0.24052032828330994
4.2414960861206055,-0.08411535620689392,-0.38052186369895935,0.33131152391433716,0.1356145590543747,0.06580453366041183,0.24052032828330994
4.261598110198975,-0.08411535620689392,-0.38090333342552185,0.33169299364089966,0.1356145590543747,0.06580453366041183,0.24052032828330994
4.281660556793213,-0.08411535620689392,-0.38166627287864685,0.33207446336746216,0.1359960287809372,0.06580453366041183,0.24090181291103363
4.302227020263672,-0.08411535620689392,-0.38357365131378174,0.33245593309402466,0.1363775134086609,0.06542305648326874,0.24128328263759613
4.322350263595581,-0.08449683338403702,-0.38357365131378174,0.33245593309402466,0.1371404528617859,0.06580453366041183,0.24128328263759613
4.342397451400757,-0.08449683338403702,-0.38357365131378174,0.33245593309402466,0.13752193748950958,0.06580453366041183,0.24242770671844482
4.362547397613525,-0.08487831056118011,-0.38357365131378174,0.33245593309402466,0.13828489184379578,0.06580453366041183,0.2439536154270172
4.382627487182617,-0.08525978773832321,-0.38357365131378174,0.33245593309402466,0.13904783129692078,0.06733043491840363,0.2443350851535797
4.4026947021484375,-0.08602273464202881,-0.38357365131378174,0.33283740282058716,0.13904783129692078,0.06885633617639542,0.2450980395078659
4.4232587814331055,-0.0864042118191719,-0.38357365131378174,0.33360037207603455,0.13942931592464447,0.06923781335353851,0.2450980395078659
4.443344354629517,-0.0864042118191719,-0.38357365131378174,0.33360037207603455,0.13942931592464447,0.06961929053068161,0.2454795092344284
4.463459253311157,-0.0864042118191719,-0.38357365131378174,0.33436331152915955,0.13981078565120697,0.06961929053068161,0.2466239482164383
4.483486890792847,-0.0864042118191719,-0.38357365131378174,0.33436331152915955,0.14019227027893066,0.06961929053068161,0.2473868876695633
4.503703832626343,-0.0871671661734581,-0.38357365131378174,0.33436331152915955,0.14057374000549316,0.07000076025724411,0.247768372297287
4.523771047592163,-0.0875486359000206,-0.38357365131378174,0.33474478125572205,0.14095520973205566,0.0707637146115303,0.247768372297287
4.54374885559082,-0.0875486359000206,-0.38357365131378174,0.33474478125572205,0.14133669435977936,0.0715266615152359,0.247768372297287
4.56381893157959,-0.0875486359000206,-0.38357365131378174,0.33474478125572205,0.14209964871406555,0.071908138692379,0.2481498420238495
4.584003925323486,-0.0875486359000206,-0.38357365131378174,0.33474478125572205,0.14248111844062805,0.071908138692379,0.2481498420238495
4.604003667831421,-0.0875486359000206,-0.38357365131378174,0.33474478125572205,0.14248111844062805,0.0722896158695221,0.2481498420238495
4.624086856842041,-0.0879301130771637,-0.38357365131378174,0.33550775051116943,0.14286258816719055,0.07267109304666519,0.248531311750412
4.644273519515991,-0.0883115902543068,-0.3843366205692291,0.33550775051116943,0.14286258816719055,0.07305257022380829,0.248531311750412
4.664332628250122,-0.08869306743144989,-0.3847180902957916,0.33588922023773193,0.14324407279491425,0.07419699430465698,0.24891279637813568
4.684436798095703,-0.08869306743144989,-0.3847180902957916,0.33588922023773193,0.14362554252147675,0.07381551712751389,0.24929426610469818
4.704833507537842,-0.08869306743144989,-0.3847180902957916,0.33588922023773193,0.14362554252147675,0.07381551712751389,0.2500572204589844
4.725102424621582,-0.08945601433515549,-0.3854810297489166,0.33588922023773193,0.14400701224803925,0.07419699430465698,0.2508201599121094
4.7450549602508545,-0.09021896868944168,-0.386243999004364,0.33665215969085693,0.14515145123004913,0.07495994865894318,0.25158312916755676
4.765251159667969,-0.09021896868944168,-0.3873884081840515,0.33665215969085693,0.14591439068317413,0.07610437273979187,0.25158312916755676
4.785399913787842,-0.09021896868944168,-0.3877699077129364,0.3370336592197418,0.14667734503746033,0.07648584991693497,0.25158312916755676
4.805522441864014,-0.09021896868944168,-0.3877699077129364,0.3370336592197418,0.14667734503746033,0.07648584991693497,0.25158312916755676
4.825527667999268,-0.09021896868944168,-0.3877699077129364,0.3370336592197418,0.14667734503746033,0.07686731964349747,0.25196459889411926
4.84563136100769,-0.09021896868944168,-0.3885328471660614,0.3370336592197418,0.14705882966518402,0.07801175117492676,0.25196459889411926
4.865784168243408,-0.09060044586658478,-0.3885328471660614,0.3374151289463043,0.14705882966518402,0.07915617525577545,0.25196459889411926
4.885826826095581,-0.09060044586658478,-0.3885328471660614,0.3377965986728668,0.14744029939174652,0.07991912961006165,0.25234606862068176
4.905942440032959,-0.09060044586658478,-0.3885328471660614,0.3377965986728668,0.14782176911830902,0.08068207651376724,0.25272753834724426
4.925961971282959,-0.09060044586658478,-0.3885328471660614,0.3381780683994293,0.14858472347259521,0.08106355369091034,0.25310903787612915
4.946055173873901,-0.09098191559314728,-0.3885328471660614,0.3389410376548767,0.1489662081003189,0.08106355369091034,0.25425344705581665
4.96621298789978,-0.09174486994743347,-0.3885328471660614,0.3389410376548767,0.1493476778268814,0.08220797777175903,0.25501641631126404
4.986286163330078,-0.09174486994743347,-0.3885328471660614,0.3389410376548767,0.1497291475534439,0.08220797777175903,0.25501641631126404
5.006376266479492,-0.09174486994743347,-0.3885328471660614,0.3393225073814392,0.1501106321811676,0.08220797777175903,0.25539788603782654
5.026496410369873,-0.09174486994743347,-0.3885328471660614,0.3393225073814392,0.1501106321811676,0.08220797777175903,0.25501641631126404
5.0465803146362305,-0.09212634712457657,-0.3885328471660614,0.3393225073814392,0.1501106321811676,0.08258945494890213,0.25539788603782654
5.066669702529907,-0.09250781685113907,-0.3885328471660614,0.3393225073814392,0.1501106321811676,0.08373387902975082,0.25539788603782654
5.086724281311035,-0.09288929402828217,-0.3885328471660614,0.3393225073814392,0.1504921019077301,0.08449683338403702,0.25539788603782654
5.106785774230957,-0.09288929402828217,-0.3885328471660614,0.3393225073814392,0.1504921019077301,0.08449683338403702,0.25577935576438904
5.126892805099487,-0.09365224838256836,-0.3885328471660614,0.3397039771080017,0.1508735716342926,0.08525978773832321,0.25577935576438904
5.147139072418213,-0.09441519528627396,-0.3885328471660614,0.3397039771080017,0.1512550562620163,0.086785688996315,0.25616082549095154
5.167288541793823,-0.09479667246341705,-0.3885328471660614,0.3397039771080017,0.1512550562620163,0.0871671661734581,0.25616082549095154
5.187328577041626,-0.09479667246341705,-0.3885328471660614,0.3397039771080017,0.1516365259885788,0.0871671661734581,0.25654229521751404
5.207425117492676,-0.09479667246341705,-0.3885328471660614,0.3397039771080017,0.152399480342865,0.0871671661734581,0.2569237947463989
5.2274863719940186,-0.09479667246341705,-0.3885328471660614,0.3397039771080017,0.15316243469715118,0.0871671661734581,0.2580682039260864
5.247639894485474,-0.09479667246341705,-0.3885328471660614,0.3397039771080017,0.15430685877799988,0.0875486359000206,0.2588311731815338
5.267668724060059,-0.09479667246341705,-0.3885328471660614,0.3397039771080017,0.15468832850456238,0.0875486359000206,0.2588311731815338
5.287733554840088,-0.09479667246341705,-0.3885328471660614,0.3397039771080017,0.15506981313228607,0.0879301130771637,0.2588311731815338
5.307837247848511,-0.09479667246341705,-0.3885328471660614,0.3397039771080017,0.15506981313228607,0.0879301130771637,0.2588311731815338
5.327946186065674,-0.09517814964056015,-0.3885328471660614,0.3397039771080017,0.15545128285884857,0.0879301130771637,0.2588311731815338
5.347974061965942,-0.09594109654426575,-0.3885328471660614,0.3397039771080017,0.15583276748657227,0.0883115902543068,0.2588311731815338
5.368062973022461,-0.09594109654426575,-0.3885328471660614,0.3397039771080017,0.15659570693969727,0.08869306743144989,0.2592126429080963
5.388133525848389,-0.09594109654426575,-0.3885328471660614,0.3397039771080017,0.15697719156742096,0.08869306743144989,0.2592126429080963
5.408247947692871,-0.09632257372140884,-0.3885328471660614,0.3397039771080017,0.15697719156742096,0.08907453715801239,0.2592126429080963
5.428291082382202,-0.09708552807569504,-0.3885328471660614,0.3397039771080017,0.15697719156742096,0.09021896868944168,0.2595941126346588
5.448366165161133,-0.09784847497940063,-0.3885328471660614,0.3397039771080017,0.15697719156742096,0.09060044586658478,0.2595941126346588
5.4684765338897705,-0.09784847497940063,-0.3885328471660614,0.3397039771080017,0.15735866129398346,0.09174486994743347,0.2595941126346588
5.488856792449951,-0.09784847497940063,-0.3885328471660614,0.3397039771080017,0.15735866129398346,0.09174486994743347,0.2595941126346588
5.508935213088989,-0.09784847497940063,-0.3885328471660614,0.3397039771080017,0.15735866129398346,0.09212634712457657,0.2599755823612213
5.529093027114868,-0.09784847497940063,-0.3885328471660614,0.3397039771080017,0.15735866129398346,0.09250781685113907,0.2599755823612213
5.549090147018433,-0.09784847497940063,-0.3885328471660614,0.3397039771080017,0.15774014592170715,0.09327077120542526,0.2599755823612213
5.569180727005005,-0.09822995215654373,-0.3885328471660614,0.3400854468345642,0.15774014592170715,0.09403372555971146,0.2603570520877838
5.589310884475708,-0.09822995215654373,-0.3889143168926239,0.3400854468345642,0.15812161564826965,0.09479667246341705,0.2615014910697937
5.60935378074646,-0.09861142933368683,-0.3889143168926239,0.3408484160900116,0.15812161564826965,0.09517814964056015,0.2626459002494812
5.629417896270752,-0.09899290651082993,-0.3889143168926239,0.3416113555431366,0.15812161564826965,0.09594109654426575,0.2626459002494812
5.649483680725098,-0.09899290651082993,-0.3896772861480713,0.3419928252696991,0.15812161564826965,0.09594109654426575,0.2626459002494812
5.669530868530273,-0.09899290651082993,-0.3896772861480713,0.3419928252696991,0.15888457000255585,0.09632257372140884,0.2630273997783661
5.689625024795532,-0.09899290651082993,-0.3896772861480713,0.3419928252696991,0.15888457000255585,0.09555962681770325,0.2630273997783661
5.709712982177734,-0.09937438368797302,-0.3896772861480713,0.3419928252696991,0.15888457000255585,0.09555962681770325,0.2630273997783661
5.729776382446289,-0.10013733059167862,-0.3912031650543213,0.3419928252696991,0.15888457000255585,0.09594109654426575,0.2630273997783661
5.7498297691345215,-0.10013733059167862,-0.3915846347808838,0.3419928252696991,0.15964750945568085,0.09670405089855194,0.2630273997783661
5.770020484924316,-0.10013733059167862,-0.3915846347808838,0.3419928252696991,0.16117341816425323,0.09670405089855194,0.2630273997783661
5.7901129722595215,-0.10013733059167862,-0.3915846347808838,0.3419928252696991,0.16193637251853943,0.09670405089855194,0.2634088695049286
5.8101396560668945,-0.10013733059167862,-0.3915846347808838,0.3419928252696991,0.16231784224510193,0.09670405089855194,0.2634088695049286
5.830215215682983,-0.10090028494596481,-0.3915846347808838,0.3419928252696991,0.16269932687282562,0.09708552807569504,0.2634088695049286
5.8503217697143555,-0.10128175467252731,-0.3915846347808838,0.3419928252696991,0.16346226632595062,0.09784847497940063,0.2634088695049286
5.87047553062439,-0.10128175467252731,-0.3915846347808838,0.3419928252696991,0.16384375095367432,0.09822995215654373,0.2634088695049286
5.89046835899353,-0.10128175467252731,-0.3915846347808838,0.3419928252696991,0.16422522068023682,0.09861142933368683,0.2637903392314911
5.9106597900390625,-0.10166323184967041,-0.3915846347808838,0.3419928252696991,0.16422522068023682,0.09861142933368683,0.2637903392314911
5.930732488632202,-0.10204470902681351,-0.3915846347808838,0.3419928252696991,0.1646067053079605,0.09975585341453552,0.2641718089580536
5.951305150985718,-0.10204470902681351,-0.3915846347808838,0.3419928252696991,0.1646067053079605,0.09975585341453552,0.264934778213501
5.97137188911438,-0.10204470902681351,-0.3915846347808838,0.3419928252696991,0.164988175034523,0.10051880776882172,0.265697717666626
5.991531133651733,-0.10204470902681351,-0.3915846347808838,0.3419928252696991,0.164988175034523,0.10090028494596481,0.265697717666626
6.0115156173706055,-0.1024261862039566,-0.3915846347808838,0.3419928252696991,0.164988175034523,0.10128175467252731,0.2660791873931885
6.031607627868652,-0.1024261862039566,-0.3915846347808838,0.3419928252696991,0.164988175034523,0.10166323184967041,0.2660791873931885
6.0517590045928955,-0.1031891331076622,-0.3915846347808838,0.3419928252696991,0.164988175034523,0.1028076633810997,0.2660791873931885
6.071794509887695,-0.1031891331076622,-0.3915846347808838,0.3419928252696991,0.164988175034523,0.1028076633810997,0.2660791873931885
6.091902256011963,-0.1031891331076622,-0.3915846347808838,0.3419928252696991,0.164988175034523,0.1031891331076622,0.2660791873931885
6.1119468212127686,-0.1031891331076622,-0.3915846347808838,0.3419928252696991,0.1653696447610855,0.1031891331076622,0.2660791873931885
6.132062911987305,-0.1035706102848053,-0.3915846347808838,0.3419928252696991,0.1653696447610855,0.1031891331076622,0.2660791873931885
6.152163505554199,-0.1039520874619484,-0.3915846347808838,0.3419928252696991,0.1657511293888092,0.1031891331076622,0.2660791873931885
6.172321796417236,-0.10509651154279709,-0.3915846347808838,0.3419928252696991,0.1657511293888092,0.10471503436565399,0.266460657119751
6.192357778549194,-0.10509651154279709,-0.3915846347808838,0.3419928252696991,0.1661325991153717,0.10547798871994019,0.266460657119751
6.212419271469116,-0.10509651154279709,-0.3915846347808838,0.3419928252696991,0.1665140837430954,0.10547798871994019,0.266460657119751
6.232493162155151,-0.10509651154279709,-0.3915846347808838,0.3419928252696991,0.1668955534696579,0.10547798871994019,0.266460657119751
6.252657651901245,-0.10509651154279709,-0.3915846347808838,0.3419928252696991,0.1672770231962204,0.10624094307422638,0.266460657119751
6.272673606872559,-0.10509651154279709,-0.3915846347808838,0.3419928252696991,0.1680399775505066,0.10662241280078888,0.26684215664863586
6.292808771133423,-0.10509651154279709,-0.3915846347808838,0.3419928252696991,0.16880293190479279,0.10738536715507507,0.26684215664863586
6.312891721725464,-0.10509651154279709,-0.3915846347808838,0.3419928252696991,0.16918440163135529,0.10852979123592377,0.26722362637519836
6.332935333251953,-0.10509651154279709,-0.3915846347808838,0.3419928252696991,0.16956588625907898,0.10891126841306686,0.26722362637519836
6.353108644485474,-0.10509651154279709,-0.3915846347808838,0.3419928252696991,0.16956588625907898,0.10929274559020996,0.26722362637519836
6.373284578323364,-0.10509651154279709,-0.3915846347808838,0.3419928252696991,0.16994735598564148,0.10967422276735306,0.26722362637519836
6.393425226211548,-0.10509651154279709,-0.3915846347808838,0.3419928252696991,0.16994735598564148,0.10967422276735306,0.26760509610176086
6.413662910461426,-0.10547798871994019,-0.3915846347808838,0.3419928252696991,0.16994735598564148,0.11005569249391556,0.26760509610176086
6.4337732791900635,-0.10547798871994019,-0.3915846347808838,0.3419928252696991,0.17071031033992767,0.11005569249391556,0.26798656582832336
6.453836679458618,-0.10624094307422638,-0.3915846347808838,0.3419928252696991,0.17147326469421387,0.11005569249391556,0.26874953508377075
6.4738688468933105,-0.10624094307422638,-0.3915846347808838,0.3427557647228241,0.17185473442077637,0.11043716967105865,0.26989394426345825
6.493977785110474,-0.10662241280078888,-0.3915846347808838,0.343137264251709,0.17223620414733887,0.11043716967105865,0.26989394426345825
6.514116525650024,-0.10662241280078888,-0.3915846347808838,0.343137264251709,0.17261768877506256,0.11043716967105865,0.26989394426345825
6.534141302108765,-0.10700388997793198,-0.3915846347808838,0.3435187339782715,0.17261768877506256,0.11081864684820175,0.27027541399002075
6.55427360534668,-0.10700388997793198,-0.3915846347808838,0.343900203704834,0.17261768877506256,0.11081864684820175,0.27027541399002075
6.5742998123168945,-0.10700388997793198,-0.3915846347808838,0.343900203704834,0.17299915850162506,0.11120012402534485,0.27027541399002075
6.594367504119873,-0.10700388997793198,-0.3915846347808838,0.3435187339782715,0.17299915850162506,0.11120012402534485,0.27027541399002075
6.614612102508545,-0.10700388997793198,-0.3915846347808838,0.3435187339782715,0.17299915850162506,0.11196307092905045,0.27027541399002075
6.634690046310425,-0.10738536715507507,-0.3915846347808838,0.3435187339782715,0.17299915850162506,0.11272602528333664,0.27027541399002075
6.654769420623779,-0.10738536715507507,-0.3915846347808838,0.3435187339782715,0.17299915850162506,0.11348897218704224,0.27027541399002075
6.674824237823486,-0.10738536715507507,-0.3912031650543213,0.3435187339782715,0.17338064312934875,0.11387044936418533,0.27027541399002075
6.694952011108398,-0.10738536715507507,-0.3912031650543213,0.3435187339782715,0.17338064312934875,0.11463340371847153,0.27027541399002075
6.715021133422852,-0.10776684433221817,-0.3912031650543213,0.343137264251709,0.17376211285591125,0.11539635062217712,0.27065691351890564
6.735085487365723,-0.10852979123592377,-0.3912031650543213,0.3427557647228241,0.17376211285591125,0.11654078215360641,0.27065691351890564
6.7554638385772705,-0.10852979123592377,-0.3908216953277588,0.3427557647228241,0.17376211285591125,0.11654078215360641,0.27065691351890564
6.775577783584595,-0.10852979123592377,-0.3908216953277588,0.3427557647228241,0.17414358258247375,0.11654078215360641,0.27065691351890564
6.795720338821411,-0.10891126841306686,-0.3908216953277588,0.3427557647228241,0.17414358258247375,0.11654078215360641,0.27065691351890564
6.815717697143555,-0.10929274559020996,-0.3908216953277588,0.3427557647228241,0.17490653693675995,0.11692225188016891,0.27065691351890564
6.835917949676514,-0.10929274559020996,-0.3908216953277588,0.3427557647228241,0.17566949129104614,0.11654078215360641,0.27103838324546814
6.855917453765869,-0.10929274559020996,-0.3908216953277588,0.3427557647228241,0.17643244564533234,0.11654078215360641,0.27103838324546814
6.876058101654053,-0.10929274559020996,-0.3908216953277588,0.3427557647228241,0.17643244564533234,0.11654078215360641,0.27103838324546814
6.896146774291992,-0.10929274559020996,-0.3908216953277588,0.3427557647228241,0.17681391537189484,0.11654078215360641,0.27141985297203064
6.916200399398804,-0.10929274559020996,-0.3908216953277588,0.3427557647228241,0.17681391537189484,0.11654078215360641,0.27141985297203064
6.936302423477173,-0.10967422276735306,-0.3908216953277588,0.3423742949962616,0.17719538509845734,0.11692225188016891,0.27218279242515564
6.956449747085571,-0.10967422276735306,-0.3908216953277588,0.3419928252696991,0.17757686972618103,0.11692225188016891,0.2725642919540405
6.976529359817505,-0.11043716967105865,-0.3908216953277588,0.3416113555431366,0.17795833945274353,0.11730372905731201,0.2733272314071655
6.996534585952759,-0.11043716967105865,-0.3908216953277588,0.3408484160900116,0.17795833945274353,0.11730372905731201,0.273708701133728
7.01660943031311,-0.11081864684820175,-0.3908216953277588,0.3397039771080017,0.17833982408046722,0.11730372905731201,0.273708701133728
7.036705493927002,-0.11158160120248795,-0.3908216953277588,0.3393225073814392,0.17872129380702972,0.11730372905731201,0.273708701133728
7.056786775588989,-0.11234454810619354,-0.3908216953277588,0.3393225073814392,0.17872129380702972,0.11768520623445511,0.273708701133728
7.076843738555908,-0.11272602528333664,-0.3908216953277588,0.3393225073814392,0.17872129380702972,0.11730372905731201,0.273708701133728
7.096978187561035,-0.11272602528333664,-0.3908216953277588,0.3397039771080017,0.17948424816131592,0.11768520623445511,0.273708701133728
7.1170477867126465,-0.11234454810619354,-0.3908216953277588,0.3397039771080017,0.1802472025156021,0.11768520623445511,0.273708701133728
7.137127637863159,-0.11234454810619354,-0.3908216953277588,0.3397039771080017,0.1802472025156021,0.1180666834115982,0.273708701133728
7.157189846038818,-0.11272602528333664,-0.3908216953277588,0.3397039771080017,0.1802472025156021,0.1180666834115982,0.273708701133728
7.177373886108398,-0.11272602528333664,-0.3908216953277588,0.3397039771080017,0.1802472025156021,0.1188296303153038,0.273708701133728
7.197390556335449,-0.11234454810619354,-0.3908216953277588,0.3397039771080017,0.1802472025156021,0.11959258466959,0.273708701133728
7.217446565628052,-0.11272602528333664,-0.3908216953277588,0.3397039771080017,0.1806286722421646,0.12073700875043869,0.273708701133728
7.237537384033203,-0.11234454810619354,-0.3908216953277588,0.3397039771080017,0.1806286722421646,0.12149996310472488,0.273708701133728
7.257630348205566,-0.11272602528333664,-0.3908216953277588,0.3397039771080017,0.1806286722421646,0.12149996310472488,0.273708701133728
7.277684926986694,-0.11272602528333664,-0.3908216953277588,0.3397039771080017,0.1806286722421646,0.12188144028186798,0.273708701133728
7.297768831253052,-0.11272602528333664,-0.3904402256011963,0.3397039771080017,0.1806286722421646,0.12226291000843048,0.273708701133728
7.317792654037476,-0.11272602528333664,-0.3904402256011963,0.3397039771080017,0.1806286722421646,0.12226291000843048,0.273708701133728
7.337846755981445,-0.11348897218704224,-0.3904402256011963,0.3397039771080017,0.1806286722421646,0.12264438718557358,0.273708701133728
7.357933282852173,-0.11348897218704224,-0.3908216953277588,0.3397039771080017,0.1806286722421646,0.12302586436271667,0.273708701133728
7.378000020980835,-0.11348897218704224,-0.3904402256011963,0.3397039771080017,0.1806286722421646,0.12302586436271667,0.273708701133728
7.398062705993652,-0.11387044936418533,-0.3904402256011963,0.3397039771080017,0.1806286722421646,0.12264438718557358,0.273708701133728
7.418185472488403,-0.11425192654132843,-0.3904402256011963,0.3397039771080017,0.1806286722421646,0.12302586436271667,0.273708701133728
7.438248872756958,-0.11463340371847153,-0.3904402256011963,0.3397039771080017,0.1806286722421646,0.12302586436271667,0.273708701133728
7.45836067199707,-0.11463340371847153,-0.3904402256011963,0.3397039771080017,0.1806286722421646,0.12340734153985977,0.273708701133728
7.478400230407715,-0.11463340371847153,-0.3904402256011963,0.3397039771080017,0.1810101419687271,0.12340734153985977,0.273708701133728
7.498559951782227,-0.11463340371847153,-0.3900587558746338,0.3397039771080017,0.1810101419687271,0.12378881871700287,0.273708701133728
7.51856803894043,-0.11463340371847153,-0.3900587558746338,0.3397039771080017,0.1810101419687271,0.12340734153985977,0.273708701133728
7.538655757904053,-0.11463340371847153,-0.3896772861480713,0.3397039771080017,0.1810101419687271,0.12340734153985977,0.273708701133728
7.558749675750732,-0.11463340371847153,-0.3892957866191864,0.3397039771080017,0.1810101419687271,0.12340734153985977,0.273708701133728
7.578908681869507,-0.11463340371847153,-0.3892957866191864,0.3397039771080017,0.1813916265964508,0.12378881871700287,0.273708701133728
7.598928689956665,-0.11501488089561462,-0.3889143168926239,0.3397039771080017,0.182154580950737,0.12417028844356537,0.273708701133728
7.61905574798584,-0.11539635062217712,-0.3885328471660614,0.3397039771080017,0.182917520403862,0.12455176562070847,0.273708701133728
7.639079809188843,-0.11577782779932022,-0.3885328471660614,0.3397039771080017,0.182917520403862,0.12455176562070847,0.273708701133728
7.659172534942627,-0.11577782779932022,-0.3885328471660614,0.3397039771080017,0.1832990050315857,0.12417028844356537,0.273708701133728
7.679333209991455,-0.11577782779932022,-0.3885328471660614,0.3397039771080017,0.1836804747581482,0.12455176562070847,0.273708701133728
7.699328660964966,-0.11577782779932022,-0.3885328471660614,0.3397039771080017,0.1840619444847107,0.12455176562070847,0.273708701133728
7.719546556472778,-0.11615930497646332,-0.3885328471660614,0.3397039771080017,0.1840619444847107,0.12455176562070847,0.273708701133728
7.73963189125061,-0.11654078215360641,-0.3885328471660614,0.3397039771080017,0.1844434291124344,0.12531471252441406,0.273708701133728
7.759702682495117,-0.11654078215360641,-0.3885328471660614,0.3397039771080017,0.1840619444847107,0.12531471252441406,0.273708701133728
7.779749870300293,-0.11654078215360641,-0.3885328471660614,0.3397039771080017,0.1840619444847107,0.12531471252441406,0.273708701133728
7.799899339675903,-0.11654078215360641,-0.3885328471660614,0.3397039771080017,0.1844434291124344,0.12569619715213776,0.273708701133728
7.819978713989258,-0.11654078215360641,-0.3885328471660614,0.3397039771080017,0.1844434291124344,0.12569619715213776,0.273708701133728
7.840128660202026,-0.11654078215360641,-0.3885328471660614,0.3397039771080017,0.1848248988389969,0.12607766687870026,0.273708701133728
7.8604912757873535,-0.11654078215360641,-0.3885328471660614,0.3397039771080017,0.1848248988389969,0.12645913660526276,0.273708701133728
7.880606412887573,-0.11654078215360641,-0.3885328471660614,0.3397039771080017,0.1848248988389969,0.12722209095954895,0.273708701133728
7.900789976119995,-0.11654078215360641,-0.3885328471660614,0.3397039771080017,0.1848248988389969,0.12798504531383514,0.273708701133728
7.920766830444336,-0.11654078215360641,-0.3885328471660614,0.3397039771080017,0.18520638346672058,0.12836651504039764,0.273708701133728
7.9409918785095215,-0.11654078215360641,-0.3881513774394989,0.3397039771080017,0.18558785319328308,0.12912946939468384,0.273708701133728
7.960958957672119,-0.11654078215360641,-0.3881513774394989,0.3397039771080017,0.18596932291984558,0.12912946939468384,0.2740901708602905
7.981403589248657,-0.11654078215360641,-0.3881513774394989,0.3397039771080017,0.18596932291984558,0.12951095402240753,0.273708701133728
8.001492977142334,-0.11654078215360641,-0.3881513774394989,0.3397039771080017,0.18635080754756927,0.12951095402240753,0.2740901708602905
8.021610736846924,-0.11654078215360641,-0.3877699077129364,0.3397039771080017,0.18673227727413177,0.12951095402240753,0.2740901708602905
8.041632175445557,-0.11654078215360641,-0.3873884081840515,0.3393225073814392,0.18711376190185547,0.12951095402240753,0.2740901708602905
8.061699390411377,-0.11654078215360641,-0.3873884081840515,0.3393225073814392,0.18749523162841797,0.12989242374897003,0.2744716703891754
8.081812381744385,-0.11654078215360641,-0.3873884081840515,0.3393225073814392,0.18787670135498047,0.13065537810325623,0.2744716703891754
8.101866245269775,-0.11692225188016891,-0.387006938457489,0.3393225073814392,0.18787670135498047,0.13103684782981873,0.2744716703891754
8.121928930282593,-0.11730372905731201,-0.387006938457489,0.3393225073814392,0.18787670135498047,0.13141833245754242,0.2748531401157379
8.14198350906372,-0.11730372905731201,-0.387006938457489,0.3389410376548767,0.18787670135498047,0.13218127191066742,0.2748531401157379
8.162073135375977,-0.11730372905731201,-0.3866254687309265,0.3389410376548767,0.18825818598270416,0.13179980218410492,0.2752346098423004
8.182407140731812,-0.11730372905731201,-0.3866254687309265,0.3389410376548767,0.18825818598270416,0.13218127191066742,0.2752346098423004
8.202582120895386,-0.11730372905731201,-0.3866254687309265,0.3389410376548767,0.18863965570926666,0.13218127191066742,0.2756160795688629
8.222651481628418,-0.11730372905731201,-0.3866254687309265,0.3389410376548767,0.18902114033699036,0.13218127191066742,0.2759975492954254
8.24266505241394,-0.11730372905731201,-0.3866254687309265,0.3389410376548767,0.18940261006355286,0.13218127191066742,0.2763790488243103
8.262788772583008,-0.11730372905731201,-0.3866254687309265,0.3389410376548767,0.18940261006355286,0.1325627565383911,0.2767605185508728
8.282938718795776,-0.11768520623445511,-0.386243999004364,0.3389410376548767,0.18940261006355286,0.1325627565383911,0.2767605185508728
8.302980184555054,-0.11768520623445511,-0.386243999004364,0.3389410376548767,0.19016556441783905,0.1329442262649536,0.2767605185508728
8.323092222213745,-0.11768520623445511,-0.386243999004364,0.3385595381259918,0.19054703414440155,0.1333257108926773,0.2767605185508728
8.343178033828735,-0.11768520623445511,-0.386243999004364,0.3385595381259918,0.19054703414440155,0.1333257108926773,0.2767605185508728
8.363249063491821,-0.1188296303153038,-0.386243999004364,0.3385595381259918,0.19092851877212524,0.1340886503458023,0.2767605185508728
8.383293867111206,-0.1188296303153038,-0.3854810297489166,0.3385595381259918,0.19092851877212524,0.1348516047000885,0.2767605185508728
8.403400659561157,-0.1188296303153038,-0.3854810297489166,0.3385595381259918,0.19092851877212524,0.134470134973526,0.2767605185508728
8.423489332199097,-0.1188296303153038,-0.3854810297489166,0.3385595381259918,0.19130998849868774,0.134470134973526,0.2767605185508728
8.44365644454956,-0.1188296303153038,-0.3854810297489166,0.3385595381259918,0.19130998849868774,0.1348516047000885,0.2767605185508728
8.463682174682617,-0.1188296303153038,-0.3854810297489166,0.3381780683994293,0.19169145822525024,0.1356145590543747,0.2767605185508728
8.483828067779541,-0.1188296303153038,-0.3854810297489166,0.3374151289463043,0.19169145822525024,0.1359960287809372,0.2767605185508728
8.503918409347534,-0.1188296303153038,-0.3854810297489166,0.3374151289463043,0.19169145822525024,0.1363775134086609,0.2771419882774353
8.524158477783203,-0.1188296303153038,-0.3854810297489166,0.3370336592197418,0.19169145822525024,0.1363775134086609,0.2771419882774353
8.544236183166504,-0.1192111074924469,-0.3854810297489166,0.3370336592197418,0.19169145822525024,0.1367589831352234,0.2767605185508728
8.564298391342163,-0.11959258466959,-0.3854810297489166,0.3370336592197418,0.19207294285297394,0.1367589831352234,0.2771419882774353
8.584602355957031,-0.11959258466959,-0.3850995600223541,0.3370336592197418,0.19245441257953644,0.1367589831352234,0.2771419882774353
8.604742288589478,-0.11959258466959,-0.3850995600223541,0.3370336592197418,0.19245441257953644,0.1367589831352234,0.2767605185508728
8.624772071838379,-0.11959258466959,-0.3850995600223541,0.3370336592197418,0.19245441257953644,0.1367589831352234,0.2771419882774353
8.64484715461731,-0.11959258466959,-0.3850995600223541,0.33665215969085693,0.19245441257953644,0.1367589831352234,0.2771419882774353
8.665054559707642,-0.11959258466959,-0.3847180902957916,0.33665215969085693,0.19245441257953644,0.1371404528617859,0.2771419882774353
8.685102462768555,-0.11959258466959,-0.3847180902957916,0.33665215969085693,0.19283588230609894,0.13790340721607208,0.2771419882774353
8.705169200897217,-0.11959258466959,-0.3843366205692291,0.33665215969085693,0.19321736693382263,0.13828489184379578,0.2771419882774353
8.725249528884888,-0.11959258466959,-0.3843366205692291,0.33665215969085693,0.19398032128810883,0.13866636157035828,0.2771419882774353
8.745288133621216,-0.11959258466959,-0.3843366205692291,0.33665215969085693,0.19436179101467133,0.13904783129692078,0.2771419882774353
8.765363454818726,-0.11959258466959,-0.3843366205692291,0.33665215969085693,0.19398032128810883,0.13866636157035828,0.2771419882774353
8.785450458526611,-0.1199740618467331,-0.3843366205692291,0.33665215969085693,0.19398032128810883,0.13866636157035828,0.2771419882774353
8.805520296096802,-0.1203555315732956,-0.3843366205692291,0.33665215969085693,0.19398032128810883,0.13904783129692078,0.2771419882774353
8.82559847831726,-0.12073700875043869,-0.3843366205692291,0.33665215969085693,0.19398032128810883,0.13904783129692078,0.2771419882774353
8.845628023147583,-0.12073700875043869,-0.3843366205692291,0.33665215969085693,0.19436179101467133,0.13942931592464447,0.2771419882774353
8.865697860717773,-0.12073700875043869,-0.3839551508426666,0.33665215969085693,0.19436179101467133,0.13904783129692078,0.2771419882774353
8.885868310928345,-0.12073700875043869,-0.3839551508426666,0.33627068996429443,0.19436179101467133,0.13904783129692078,0.2771419882774353
8.905948162078857,-0.12073700875043869,-0.38357365131378174,0.33588922023773193,0.19474326074123383,0.13904783129692078,0.2771419882774353
8.9259934425354,-0.12073700875043869,-0.38319218158721924,0.33550775051116943,0.19474326074123383,0.13981078565120697,0.2771419882774353
8.946074485778809,-0.12073700875043869,-0.38319218158721924,0.33550775051116943,0.19474326074123383,0.13981078565120697,0.2771419882774353
8.96614384651184,-0.12073700875043869,-0.38357365131378174,0.33550775051116943,0.19474326074123383,0.13981078565120697,0.2771419882774353
8.98621416091919,-0.12111848592758179,-0.38357365131378174,0.33550775051116943,0.19474326074123383,0.13981078565120697,0.2771419882774353
9.006697416305542,-0.12149996310472488,-0.38357365131378174,0.33550775051116943,0.19512474536895752,0.14019227027893066,0.2771419882774353
9.026779651641846,-0.12149996310472488,-0.38357365131378174,0.33550775051116943,0.19512474536895752,0.13981078565120697,0.2771419882774353
9.046898126602173,-0.12149996310472488,-0.38319218158721924,0.33550775051116943,0.19512474536895752,0.13981078565120697,0.2771419882774353
9.067003965377808,-0.12149996310472488,-0.38319218158721924,0.33512628078460693,0.19512474536895752,0.13981078565120697,0.2771419882774353
9.087050437927246,-0.12149996310472488,-0.38319218158721924,0.33512628078460693,0.19550621509552002,0.14019227027893066,0.2771419882774353
9.107134819030762,-0.12149996310472488,-0.38319218158721924,0.33512628078460693,0.19550621509552002,0.14057374000549316,0.2771419882774353
9.127199649810791,-0.12149996310472488,-0.38319218158721924,0.33474478125572205,0.19550621509552002,0.14095520973205566,0.2771419882774353
9.1472647190094,-0.12149996310472488,-0.38319218158721924,0.33474478125572205,0.1958876997232437,0.14095520973205566,0.2771419882774353
9.167336463928223,-0.12188144028186798,-0.38319218158721924,0.33474478125572205,0.1958876997232437,0.14095520973205566,0.2771419882774353
9.187471151351929,-0.12188144028186798,-0.38319218158721924,0.33474478125572205,0.1958876997232437,0.14095520973205566,0.2771419882774353
9.207526445388794,-0.12188144028186798,-0.38319218158721924,0.33436331152915955,0.1958876997232437,0.14095520973205566,0.2771419882774353
9.227721929550171,-0.12264438718557358,-0.38281071186065674,0.33436331152915955,0.1962691694498062,0.14133669435977936,0.2771419882774353
9.247808694839478,-0.12264438718557358,-0.38242924213409424,0.33436331152915955,0.1962691694498062,0.14171816408634186,0.2771419882774353
9.267872095108032,-0.12264438718557358,-0.38242924213409424,0.33436331152915955,0.1966506391763687,0.14209964871406555,0.2771419882774353
9.287951469421387,-0.12264438718557358,-0.38242924213409424,0.33436331152915955,0.1970321238040924,0.14209964871406555,0.2771419882774353
9.308034181594849,-0.12264438718557358,-0.38242924213409424,0.33436331152915955,0.1970321238040924,0.14286258816719055,0.2771419882774353
9.32803225517273,-0.12264438718557358,-0.38242924213409424,0.33436331152915955,0.1974135935306549,0.14286258816719055,0.2771419882774353
9.348119497299194,-0.12264438718557358,-0.38242924213409424,0.33436331152915955,0.1974135935306549,0.14362554252147675,0.2771419882774353
9.368277311325073,-0.12264438718557358,-0.38242924213409424,0.33398184180259705,0.1977950781583786,0.14362554252147675,0.2771419882774353
9.388264656066895,-0.12264438718557358,-0.38242924213409424,0.33360037207603455,0.1981765478849411,0.14362554252147675,0.2771419882774353
9.408353805541992,-0.12264438718557358,-0.38204777240753174,0.33321890234947205,0.1985580176115036,0.14362554252147675,0.2771419882774353
9.428439140319824,-0.12302586436271667,-0.38204777240753174,0.33321890234947205,0.1981765478849411,0.14362554252147675,0.2771419882774353
9.448513984680176,-0.12340734153985977,-0.38204777240753174,0.33321890234947205,0.1981765478849411,0.14362554252147675,0.2771419882774353
9.468594312667847,-0.12340734153985977,-0.38204777240753174,0.33321890234947205,0.1985580176115036,0.14362554252147675,0.2771419882774353
9.488694667816162,-0.12340734153985977,-0.38166627287864685,0.33321890234947205,0.1985580176115036,0.14362554252147675,0.2771419882774353
9.508805274963379,-0.12340734153985977,-0.38128480315208435,0.33321890234947205,0.1985580176115036,0.14362554252147675,0.2771419882774353
9.528848648071289,-0.12340734153985977,-0.38128480315208435,0.33321890234947205,0.1985580176115036,0.14400701224803925,0.2771419882774353
9.548891305923462,-0.12340734153985977,-0.38128480315208435,0.33321890234947205,0.1989395022392273,0.14400701224803925,0.2771419882774353
9.569150447845459,-0.12378881871700287,-0.38128480315208435,0.33245593309402466,0.1985580176115036,0.14438849687576294,0.2771419882774353
9.589168310165405,-0.12378881871700287,-0.38128480315208435,0.33245593309402466,0.1989395022392273,0.14438849687576294,0.2771419882774353
9.609189748764038,-0.12378881871700287,-0.38128480315208435,0.33245593309402466,0.1989395022392273,0.14438849687576294,0.2771419882774353
9.629327297210693,-0.12378881871700287,-0.38128480315208435,0.33245593309402466,0.1989395022392273,0.14438849687576294,0.2771419882774353
9.64936113357544,-0.12378881871700287,-0.38128480315208435,0.33245593309402466,0.1989395022392273,0.14438849687576294,0.2771419882774353
9.669493198394775,-0.12378881871700287,-0.38090333342552185,0.33245593309402466,0.1989395022392273,0.14476996660232544,0.2771419882774353
9.689623355865479,-0.12417028844356537,-0.38090333342552185,0.33245593309402466,0.1993209719657898,0.14476996660232544,0.2771419882774353
9.709795236587524,-0.12455176562070847,-0.38052186369895935,0.33245593309402466,0.1989395022392273,0.14553292095661163,0.2771419882774353
9.729871988296509,-0.12455176562070847,-0.38052186369895935,0.33245593309402466,0.1989395022392273,0.14553292095661163,0.2771419882774353
9.750031471252441,-0.12455176562070847,-0.38052186369895935,0.33245593309402466,0.1993209719657898,0.14553292095661163,0.2771419882774353
9.770071029663086,-0.12455176562070847,-0.38052186369895935,0.33245593309402466,0.1993209719657898,0.14591439068317413,0.2771419882774353
9.790127515792847,-0.12455176562070847,-0.38052186369895935,0.33207446336746216,0.1993209719657898,0.14629587531089783,0.2771419882774353
9.810278415679932,-0.12455176562070847,-0.38052186369895935,0.33207446336746216,0.1993209719657898,0.14629587531089783,0.2771419882774353
9.830623626708984,-0.12455176562070847,-0.38052186369895935,0.33169299364089966,0.1997024416923523,0.14667734503746033,0.2771419882774353
9.850489854812622,-0.12455176562070847,-0.38014039397239685,0.33131152391433716,0.1997024416923523,0.14667734503746033,0.2771419882774353
9.870566844940186,-0.12455176562070847,-0.38014039397239685,0.33131152391433716,0.1997024416923523,0.14667734503746033,0.2771419882774353
9.890870094299316,-0.12493324279785156,-0.38014039397239685,0.33131152391433716,0.1997024416923523,0.14667734503746033,0.2771419882774353
9.910760641098022,-0.12493324279785156,-0.38014039397239685,0.33131152391433716,0.200083926320076,0.14667734503746033,0.2771419882774353
9.930920839309692,-0.12493324279785156,-0.37975889444351196,0.33131152391433716,0.200083926320076,0.14667734503746033,0.2771419882774353
9.950934648513794,-0.12493324279785156,-0.37937742471694946,0.33131152391433716,0.2004653960466385,0.14667734503746033,0.2771419882774353
9.971022605895996,-0.12493324279785156,-0.37899595499038696,0.33131152391433716,0.2004653960466385,0.14705882966518402,0.2771419882774353
9.991387844085693,-0.12531471252441406,-0.37899595499038696,0.33131152391433716,0.20084688067436218,0.14705882966518402,0.2771419882774353
10.011602401733398,-0.12569619715213776,-0.37899595499038696,0.33131152391433716,0.20084688067436218,0.14744029939174652,0.2771419882774353
10.031625032424927,-0.12569619715213776,-0.37899595499038696,0.33093002438545227,0.20084688067436218,0.14705882966518402,0.2771419882774353
10.051764726638794,-0.12569619715213776,-0.37899595499038696,0.33093002438545227,0.20084688067436218,0.14705882966518402,0.2771419882774353
10.071877002716064,-0.12569619715213776,-0.37899595499038696,0.33054855465888977,0.20122835040092468,0.14705882966518402,0.2771419882774353
10.091933965682983,-0.12569619715213776,-0.37899595499038696,0.33054855465888977,0.20122835040092468,0.14705882966518402,0.2771419882774353
10.112012147903442,-0.12569619715213776,-0.37899595499038696,0.33054855465888977,0.20122835040092468,0.14744029939174652,0.2771419882774353
10.132145166397095,-0.12569619715213776,-0.37861448526382446,0.33016708493232727,0.20122835040092468,0.14744029939174652,0.2771419882774353
10.152281999588013,-0.12569619715213776,-0.37823301553726196,0.33016708493232727,0.20122835040092468,0.14744029939174652,0.2771419882774353
10.172284841537476,-0.12569619715213776,-0.37823301553726196,0.33016708493232727,0.20160982012748718,0.14782176911830902,0.2771419882774353
10.192414283752441,-0.12569619715213776,-0.37823301553726196,0.33016708493232727,0.20199130475521088,0.14782176911830902,0.2771419882774353
10.212467908859253,-0.12569619715213776,-0.37823301553726196,0.33016708493232727,0.20199130475521088,0.14782176911830902,0.2771419882774353
10.23253059387207,-0.12607766687870026,-0.37823301553726196,0.32978561520576477,0.20199130475521088,0.14782176911830902,0.2771419882774353
10.252607583999634,-0.12607766687870026,-0.37823301553726196,0.32940414547920227,0.20199130475521088,0.14782176911830902,0.2771419882774353
10.272720098495483,-0.12607766687870026,-0.37823301553726196,0.32940414547920227,0.20199130475521088,0.14782176911830902,0.2771419882774353
10.292813301086426,-0.12684062123298645,-0.37823301553726196,0.32940414547920227,0.20199130475521088,0.14820325374603271,0.2771419882774353
10.312885999679565,-0.12684062123298645,-0.37823301553726196,0.32940414547920227,0.20199130475521088,0.14820325374603271,0.2771419882774353
10.333014488220215,-0.12684062123298645,-0.37823301553726196,0.32940414547920227,0.20199130475521088,0.14820325374603271,0.2771419882774353
10.353078842163086,-0.12684062123298645,-0.3778515160083771,0.32940414547920227,0.20237277448177338,0.14820325374603271,0.2771419882774353
10.373172760009766,-0.12684062123298645,-0.3774700462818146,0.3290226459503174,0.20237277448177338,0.14820325374603271,0.2771419882774353
10.393222093582153,-0.12684062123298645,-0.3770885765552521,0.3290226459503174,0.20237277448177338,0.14820325374603271,0.2767605185508728
10.41330099105835,-0.12684062123298645,-0.3770885765552521,0.3290226459503174,0.20237277448177338,0.14858472347259521,0.2771419882774353
10.433350801467896,-0.12684062123298645,-0.3770885765552521,0.3290226459503174,0.20237277448177338,0.1493476778268814,0.2767605185508728
10.453429222106934,-0.12684062123298645,-0.3770885765552521,0.3290226459503174,0.20237277448177338,0.1497291475534439,0.2767605185508728
10.473632574081421,-0.12684062123298645,-0.3770885765552521,0.3290226459503174,0.20237277448177338,0.1497291475534439,0.2767605185508728
10.493637084960938,-0.12684062123298645,-0.3770885765552521,0.3282597064971924,0.20275425910949707,0.1501106321811676,0.2767605185508728
10.513867855072021,-0.12684062123298645,-0.3770885765552521,0.3282597064971924,0.20237277448177338,0.1497291475534439,0.2767605185508728
10.534073829650879,-0.12684062123298645,-0.3770885765552521,0.3282597064971924,0.20275425910949707,0.1497291475534439,0.2767605185508728
10.554207801818848,-0.12684062123298645,-0.3770885765552521,0.3282597064971924,0.20275425910949707,0.1497291475534439,0.2767605185508728
10.574300527572632,-0.12684062123298645,-0.3770885765552521,0.3282597064971924,0.20275425910949707,0.1501106321811676,0.2767605185508728
10.594411849975586,-0.12684062123298645,-0.3770885765552521,0.3282597064971924,0.20313572883605957,0.1501106321811676,0.2767605185508728
10.614502191543579,-0.12684062123298645,-0.3767071068286896,0.3282597064971924,0.20313572883605957,0.1501106321811676,0.2767605185508728
10.634570837020874,-0.12684062123298645,-0.3767071068286896,0.3282597064971924,0.20313572883605957,0.1501106321811676,0.2767605185508728
10.654697179794312,-0.12722209095954895,-0.3763256371021271,0.3282597064971924,0.20313572883605957,0.1501106321811676,0.2767605185508728
10.67473030090332,-0.12760357558727264,-0.3763256371021271,0.3282597064971924,0.20313572883605957,0.1501106321811676,0.2767605185508728
10.694871187210083,-0.12760357558727264,-0.3763256371021271,0.3278782367706299,0.20313572883605957,0.1504921019077301,0.2767605185508728
10.714995384216309,-0.12760357558727264,-0.3763256371021271,0.3278782367706299,0.20313572883605957,0.1504921019077301,0.2767605185508728
10.735079050064087,-0.12760357558727264,-0.3763256371021271,0.3274967670440674,0.20313572883605957,0.1504921019077301,0.2767605185508728
10.755263566970825,-0.12760357558727264,-0.3763256371021271,0.3271152675151825,0.20351719856262207,0.1504921019077301,0.2763790488243103
10.775451898574829,-0.12760357558727264,-0.3763256371021271,0.3271152675151825,0.20313572883605957,0.1504921019077301,0.2763790488243103
10.795471429824829,-0.12760357558727264,-0.3763256371021271,0.3271152675151825,0.20313572883605957,0.1504921019077301,0.2763790488243103
10.81553602218628,-0.12760357558727264,-0.3763256371021271,0.3271152675151825,0.20351719856262207,0.1508735716342926,0.2763790488243103
10.8356192111969,-0.12760357558727264,-0.3759441375732422,0.3271152675151825,0.20351719856262207,0.1512550562620163,0.2763790488243103
10.855690002441406,-0.12760357558727264,-0.3759441375732422,0.3271152675151825,0.20389868319034576,0.1512550562620163,0.2763790488243103
10.875766038894653,-0.12760357558727264,-0.3759441375732422,0.3271152675151825,0.20389868319034576,0.1508735716342926,0.2763790488243103
10.89590859413147,-0.12798504531383514,-0.3759441375732422,0.3271152675151825,0.20389868319034576,0.1508735716342926,0.2763790488243103
10.915961265563965,-0.12798504531383514,-0.3759441375732422,0.3271152675151825,0.20389868319034576,0.1508735716342926,0.2763790488243103
10.93600058555603,-0.12798504531383514,-0.3751811981201172,0.3271152675151825,0.20389868319034576,0.1508735716342926,0.2763790488243103
10.956095457077026,-0.12836651504039764,-0.3751811981201172,0.32673379778862,0.20389868319034576,0.1512550562620163,0.2759975492954254
10.976227521896362,-0.12874799966812134,-0.3751811981201172,0.32673379778862,0.20466163754463196,0.1516365259885788,0.2759975492954254
10.996274948120117,-0.12874799966812134,-0.3751811981201172,0.32673379778862,0.20542457699775696,0.1520180106163025,0.2759975492954254
11.016328573226929,-0.12874799966812134,-0.3751811981201172,0.3263523280620575,0.20542457699775696,0.1520180106163025,0.2759975492954254
11.036403894424438,-0.12874799966812134,-0.3751811981201172,0.3263523280620575,0.20542457699775696,0.1516365259885788,0.2759975492954254
11.056459665298462,-0.12874799966812134,-0.3751811981201172,0.325970858335495,0.20542457699775696,0.1516365259885788,0.2756160795688629
11.076678991317749,-0.12874799966812134,-0.3747997283935547,0.325970858335495,0.20542457699775696,0.1516365259885788,0.2756160795688629
11.096718072891235,-0.12874799966812134,-0.3747997283935547,0.325970858335495,0.20542457699775696,0.1520180106163025,0.2756160795688629
11.116804599761963,-0.12874799966812134,-0.3744182586669922,0.325970858335495,0.20542457699775696,0.1520180106163025,0.2756160795688629
11.136901140213013,-0.12874799966812134,-0.3744182586669922,0.325970858335495,0.20542457699775696,0.1520180106163025,0.2756160795688629
11.157004594802856,-0.12874799966812134,-0.3744182586669922,0.325970858335495,0.20542457699775696,0.152399480342865,0.2752346098423004
11.17710280418396,-0.12874799966812134,-0.3744182586669922,0.32520791888237,0.20542457699775696,0.152399480342865,0.2752346098423004
11.197172164916992,-0.12874799966812134,-0.3744182586669922,0.3248264193534851,0.20542457699775696,0.152399480342865,0.2752346098423004
11.217239141464233,-0.12874799966812134,-0.3740367889404297,0.3248264193534851,0.20542457699775696,0.152399480342865,0.2748531401157379
11.23731803894043,-0.12874799966812134,-0.3744182586669922,0.3248264193534851,0.20542457699775696,0.152399480342865,0.2748531401157379
11.257408142089844,-0.12874799966812134,-0.3740367889404297,0.3248264193534851,0.20542457699775696,0.152399480342865,0.2744716703891754
11.277440786361694,-0.12874799966812134,-0.3740367889404297,0.3248264193534851,0.20580606162548065,0.15316243469715118,0.2744716703891754
11.297523021697998,-0.12874799966812134,-0.3740367889404297,0.3248264193534851,0.20542457699775696,0.15316243469715118,0.2744716703891754
11.317570447921753,-0.12874799966812134,-0.3740367889404297,0.3248264193534851,0.20542457699775696,0.15354390442371368,0.2744716703891754
11.337635278701782,-0.12874799966812134,-0.3740367889404297,0.3248264193534851,0.20542457699775696,0.15354390442371368,0.2744716703891754
11.357763290405273,-0.12912946939468384,-0.3740367889404297,0.3248264193534851,0.20542457699775696,0.15354390442371368,0.2744716703891754
11.378165483474731,-0.12912946939468384,-0.3736552894115448,0.3248264193534851,0.20542457699775696,0.15354390442371368,0.2744716703891754
11.398263216018677,-0.12951095402240753,-0.3732738196849823,0.3248264193534851,0.20542457699775696,0.15354390442371368,0.2744716703891754
11.418327569961548,-0.12989242374897003,-0.3728923499584198,0.3248264193534851,0.20542457699775696,0.15392538905143738,0.2744716703891754
11.438363790512085,-0.12989242374897003,-0.3728923499584198,0.3248264193534851,0.20580606162548065,0.15392538905143738,0.2744716703891754
11.458432674407959,-0.12989242374897003,-0.3728923499584198,0.3244449496269226,0.20580606162548065,0.15392538905143738,0.2744716703891754
11.478503942489624,-0.12989242374897003,-0.3732738196849823,0.3240634799003601,0.20580606162548065,0.15354390442371368,0.2744716703891754
11.498584508895874,-0.12989242374897003,-0.3732738196849823,0.3240634799003601,0.20580606162548065,0.15392538905143738,0.2744716703891754
11.5186767578125,-0.12989242374897003,-0.3728923499584198,0.3240634799003601,0.20580606162548065,0.15392538905143738,0.2744716703891754
11.538743495941162,-0.12989242374897003,-0.3728923499584198,0.3240634799003601,0.20580606162548065,0.15430685877799988,0.2744716703891754
11.558831691741943,-0.12989242374897003,-0.3728923499584198,0.3240634799003601,0.20618753135204315,0.15430685877799988,0.2744716703891754
11.578910827636719,-0.12989242374897003,-0.3728923499584198,0.3240634799003601,0.20618753135204315,0.15430685877799988,0.2744716703891754
11.598983764648438,-0.12989242374897003,-0.3728923499584198,0.3240634799003601,0.20618753135204315,0.15430685877799988,0.2744716703891754
11.619028091430664,-0.12989242374897003,-0.3728923499584198,0.3240634799003601,0.20618753135204315,0.15430685877799988,0.2744716703891754
11.639139413833618,-0.12989242374897003,-0.3728923499584198,0.3236820101737976,0.20618753135204315,0.15430685877799988,0.2744716703891754
11.65921688079834,-0.12989242374897003,-0.3725108802318573,0.3236820101737976,0.20618753135204315,0.15430685877799988,0.2744716703891754
11.67933964729309,-0.12989242374897003,-0.3721294105052948,0.3236820101737976,0.20618753135204315,0.15430685877799988,0.2744716703891754
11.699493646621704,-0.12989242374897003,-0.3721294105052948,0.3236820101737976,0.20656901597976685,0.15430685877799988,0.2744716703891754
11.719707727432251,-0.12989242374897003,-0.3721294105052948,0.3229190409183502,0.20656901597976685,0.15468832850456238,0.2744716703891754
11.739659309387207,-0.12989242374897003,-0.3721294105052948,0.3229190409183502,0.20656901597976685,0.15468832850456238,0.2744716703891754
11.759718418121338,-0.12989242374897003,-0.3721294105052948,0.3225375711917877,0.20656901597976685,0.15468832850456238,0.2740901708602905
11.779789209365845,-0.12989242374897003,-0.3721294105052948,0.3229190409183502,0.20656901597976685,0.15468832850456238,0.2740901708602905
11.799827814102173,-0.12989242374897003,-0.3721294105052948,0.3229190409183502,0.20656901597976685,0.15468832850456238,0.2740901708602905
11.819915771484375,-0.13027389347553253,-0.3721294105052948,0.3229190409183502,0.20695048570632935,0.15468832850456238,0.2740901708602905
11.840105295181274,-0.13027389347553253,-0.3717479109764099,0.3229190409183502,0.20695048570632935,0.15506981313228607,0.2740901708602905
11.860087394714355,-0.13065537810325623,-0.3717479109764099,0.3225375711917877,0.20695048570632935,0.15506981313228607,0.2740901708602905
11.880317449569702,-0.13103684782981873,-0.3717479109764099,0.3225375711917877,0.20656901597976685,0.15468832850456238,0.2740901708602905
11.90032434463501,-0.13065537810325623,-0.3717479109764099,0.3221561014652252,0.20695048570632935,0.15468832850456238,0.2740901708602905
11.920371532440186,-0.13065537810325623,-0.3713664412498474,0.3221561014652252,0.20695048570632935,0.15468832850456238,0.2740901708602905
11.940657377243042,-0.13065537810325623,-0.3709849715232849,0.3221561014652252,0.20695048570632935,0.15468832850456238,0.2740901708602905
11.960774660110474,-0.13065537810325623,-0.3709849715232849,0.3221561014652252,0.20695048570632935,0.15506981313228607,0.273708701133728
11.980743169784546,-0.13065537810325623,-0.3709849715232849,0.3221561014652252,0.20695048570632935,0.15545128285884857,0.2740901708602905
12.000919818878174,-0.13065537810325623,-0.3709849715232849,0.3221561014652252,0.20695048570632935,0.15545128285884857,0.273708701133728
12.020965576171875,-0.13065537810325623,-0.3709849715232849,0.3221561014652252,0.20695048570632935,0.15506981313228607,0.273708701133728
12.04107117652893,-0.13065537810325623,-0.3713664412498474,0.3240634799003601,0.20656901597976685,0.15506981313228607,0.2733272314071655
12.061117887496948,-0.13103684782981873,-0.3721294105052948,0.325970858335495,0.20618753135204315,0.15468832850456238,0.27141985297203064
12.08136510848999,-0.13103684782981873,-0.3732738196849823,0.33169299364089966,0.20580606162548065,0.15430685877799988,0.26913100481033325
12.10128664970398,-0.13141833245754242,-0.3740367889404297,0.33627068996429443,0.20580606162548065,0.15430685877799988,0.265697717666626
12.121472835540771,-0.13179980218410492,-0.3744182586669922,0.3412298858165741,0.20580606162548065,0.15468832850456238,0.2618829607963562
12.141525506973267,-0.1329442262649536,-0.3747997283935547,0.34809643030166626,0.20504310727119446,0.15430685877799988,0.2584496736526489
12.161648511886597,-0.1337071806192398,-0.3751811981201172,0.3534370958805084,0.20351719856262207,0.15430685877799988,0.25425344705581665
12.18198561668396,-0.1340886503458023,-0.3767071068286896,0.3587777614593506,0.20160982012748718,0.15354390442371368,0.248531311750412
12.202122926712036,-0.1348516047000885,-0.3774700462818146,0.36640727519989014,0.2004653960466385,0.1520180106163025,0.24357213079929352
12.222206592559814,-0.1356145590543747,-0.37823301553726196,0.3728923499584198,0.1985580176115036,0.1501106321811676,0.23823148012161255
12.242245197296143,-0.1359960287809372,-0.37861448526382446,0.37975889444351196,0.1970321238040924,0.1489662081003189,0.23365376889705658
12.262424945831299,-0.1371404528617859,-0.37899595499038696,0.3900587558746338,0.19436179101467133,0.14744029939174652,0.2283131182193756
12.282476425170898,-0.13904783129692078,-0.38052186369895935,0.4007400572299957,0.19436179101467133,0.14667734503746033,0.22220951318740845
12.304005146026611,-0.13981078565120697,-0.38204777240753174,0.4087510406970978,0.19398032128810883,0.14629587531089783,0.2157244235277176
12.32412075996399,-0.14133669435977936,-0.38357365131378174,0.4190509021282196,0.19398032128810883,0.14553292095661163,0.20923933386802673
12.344234943389893,-0.14248111844062805,-0.3854810297489166,0.42591744661331177,0.19359883666038513,0.14438849687576294,0.20313572883605957
12.364538669586182,-0.14324407279491425,-0.3881513774394989,0.43240252137184143,0.19207294285297394,0.14324407279491425,0.1970321238040924
12.384633779525757,-0.14438849687576294,-0.3915846347808838,0.440032035112381,0.19092851877212524,0.14171816408634186,0.18978407979011536
12.40471363067627,-0.14438849687576294,-0.39463645219802856,0.44728007912635803,0.18902114033699036,0.13981078565120697,0.1832990050315857
12.424785375595093,-0.14476996660232544,-0.39806973934173584,0.4533836841583252,0.18749523162841797,0.13828489184379578,0.17795833945274353
12.444897651672363,-0.14553292095661163,-0.4007400572299957,0.46063172817230225,0.18673227727413177,0.1363775134086609,0.17223620414733887
12.465067386627197,-0.14705882966518402,-0.4056992530822754,0.4697871506214142,0.18596932291984558,0.1348516047000885,0.1668955534696579
12.485106706619263,-0.14820325374603271,-0.4087510406970978,0.47589075565338135,0.18596932291984558,0.135233074426651,0.16117341816425323
12.505261182785034,-0.1493476778268814,-0.41065841913223267,0.4835202693939209,0.1840619444847107,0.1325627565383911,0.15659570693969727
12.525302171707153,-0.1497291475534439,-0.41256579756736755,0.49191272258758545,0.1832990050315857,0.13027389347553253,0.1512550562620163
12.545325517654419,-0.1504921019077301,-0.41409170627593994,0.4987792670726776,0.1825360506772995,0.12912946939468384,0.14629587531089783
12.565377950668335,-0.1504921019077301,-0.41485464572906494,0.5056458115577698,0.182154580950737,0.12798504531383514,0.14057374000549316
12.585477828979492,-0.1516365259885788,-0.41676202416419983,0.5140383243560791,0.182154580950737,0.12760357558727264,0.135233074426651
12.605547428131104,-0.1527809500694275,-0.4171435236930847,0.5205233693122864,0.1806286722421646,0.12760357558727264,0.13103684782981873
12.625638484954834,-0.15392538905143738,-0.4186694025993347,0.5270084738731384,0.17948424816131592,0.12760357558727264,0.12722209095954895
12.64570951461792,-0.15468832850456238,-0.4209582805633545,0.534637987613678,0.17948424816131592,0.12798504531383514,0.12188144028186798
12.665807723999023,-0.15583276748657227,-0.4224841594696045,0.54264897108078,0.17910276353359222,0.12798504531383514,0.11730372905731201
12.685924530029297,-0.15697719156742096,-0.4236285984516144,0.5487525463104248,0.17795833945274353,0.12722209095954895,0.11234454810619354
12.705989360809326,-0.15812161564826965,-0.42515450716018677,0.5548561811447144,0.17643244564533234,0.12569619715213776,0.10776684433221817
12.726205348968506,-0.15964750945568085,-0.42668038606643677,0.5613412857055664,0.17605096101760864,0.12455176562070847,0.1035706102848053
12.746233940124512,-0.16155488789081573,-0.42668038606643677,0.5670633912086487,0.17528800666332245,0.12455176562070847,0.09937438368797302
12.766296625137329,-0.16346226632595062,-0.42668038606643677,0.5708781480789185,0.17452506721019745,0.12378881871700287,0.09517814964056015
12.786425113677979,-0.164988175034523,-0.42668038606643677,0.5750743746757507,0.17376211285591125,0.12378881871700287,0.09060044586658478
12.806447744369507,-0.1672770231962204,-0.42668038606643677,0.5796520709991455,0.17299915850162506,0.12264438718557358,0.086785688996315
12.826515436172485,-0.1680399775505066,-0.42706188559532166,0.5830853581428528,0.17261768877506256,0.12149996310472488,0.08258945494890213
12.846581220626831,-0.1684214472770691,-0.42744335532188416,0.5861371755599976,0.17223620414733887,0.12111848592758179,0.07839322835206985
12.866799116134644,-0.16994735598564148,-0.42782482504844666,0.5888075232505798,0.17223620414733887,0.12073700875043869,0.07419699430465698
12.886834144592285,-0.17071031033992767,-0.42820629477500916,0.5914778113365173,0.17185473442077637,0.12073700875043869,0.07038223743438721
12.906960010528564,-0.17147326469421387,-0.42973220348358154,0.5933852195739746,0.17147326469421387,0.12073700875043869,0.06580453366041183
12.927068948745728,-0.17223620414733887,-0.43163958191871643,0.5964370369911194,0.17109178006649017,0.12111848592758179,0.061226826161146164
12.94719123840332,-0.17223620414733887,-0.4335469603538513,0.5994887948036194,0.17032882571220398,0.12111848592758179,0.05741206929087639
12.967206239700317,-0.17261768877506256,-0.4354543387889862,0.6013962030410767,0.16918440163135529,0.12073700875043869,0.05359731614589691
12.987325668334961,-0.17338064312934875,-0.4381246566772461,0.6044480204582214,0.1684214472770691,0.12073700875043869,0.050164032727479935
13.007388830184937,-0.17452506721019745,-0.4404135048389435,0.6067368388175964,0.1680399775505066,0.12073700875043869,0.04634927958250046
13.027460098266602,-0.17528800666332245,-0.44232088327407837,0.6082627773284912,0.1676585078239441,0.1203555315732956,0.043678950518369675
13.047534704208374,-0.17566949129104614,-0.44308385252952576,0.6097886562347412,0.1672770231962204,0.11959258466959,0.04139009863138199
13.067602157592773,-0.17719538509845734,-0.44308385252952576,0.612077534198761,0.1657511293888092,0.1188296303153038,0.038719769567251205
13.087651252746582,-0.17757686972618103,-0.44308385252952576,0.6139848828315735,0.164988175034523,0.11768520623445511,0.03490501269698143
13.107785940170288,-0.17910276353359222,-0.44346532225608826,0.6162737607955933,0.164988175034523,0.11692225188016891,0.03185320645570755
13.127870082855225,-0.17986571788787842,-0.44308385252952576,0.6197070479393005,0.164988175034523,0.11692225188016891,0.029564354568719864
13.147936820983887,-0.1802472025156021,-0.44308385252952576,0.6227588057518005,0.164988175034523,0.11654078215360641,0.02727550081908703
13.16800570487976,-0.17986571788787842,-0.44308385252952576,0.6242847442626953,0.164988175034523,0.11654078215360641,0.024605173617601395
13.188089847564697,-0.17986571788787842,-0.44308385252952576,0.6261920928955078,0.1646067053079605,0.11615930497646332,0.023079270496964455
13.208150148391724,-0.1802472025156021,-0.44346532225608826,0.6284809708595276,0.1646067053079605,0.11577782779932022,0.02079041674733162
13.228234052658081,-0.1802472025156021,-0.44346532225608826,0.6296253800392151,0.16422522068023682,0.11577782779932022,0.01888304017484188
13.248377561569214,-0.1813916265964508,-0.44384679198265076,0.6315327882766724,0.16384375095367432,0.11654078215360641,0.016594186425209045
13.268385171890259,-0.1817730963230133,-0.44422826170921326,0.6342030763626099,0.16384375095367432,0.11692225188016891,0.013923857361078262
13.288442373275757,-0.182154580950737,-0.44422826170921326,0.6349660754203796,0.16384375095367432,0.11654078215360641,0.012397955171763897
13.308563470840454,-0.182154580950737,-0.44460976123809814,0.6364919543266296,0.16384375095367432,0.11539635062217712,0.009727626107633114
13.32864785194397,-0.1825360506772995,-0.44537270069122314,0.6383993029594421,0.16346226632595062,0.11425192654132843,0.007438773289322853
13.348715543746948,-0.182917520403862,-0.44613564014434814,0.6395437717437744,0.16308079659938812,0.11310750246047974,0.005531395319849253
13.368865728378296,-0.1836804747581482,-0.44804301857948303,0.6406881809234619,0.16308079659938812,0.11310750246047974,0.0024795911740511656
13.388952493667603,-0.1844434291124344,-0.4495689272880554,0.6422140598297119,0.16269932687282562,0.11348897218704224,0.001716639962978661
13.409024477005005,-0.1844434291124344,-0.4518577754497528,0.6433585286140442,0.16155488789081573,0.11234454810619354,-0.00019073777366429567
13.42913293838501,-0.18520638346672058,-0.4526207447052002,0.6437399983406067,0.16117341816425323,0.11234454810619354,-0.0013351644156500697
13.449226140975952,-0.18596932291984558,-0.4545281231403351,0.6452658772468567,0.16079194843769073,0.11234454810619354,-0.0024795911740511656
13.469287395477295,-0.18635080754756927,-0.4556725323200226,0.6467918157577515,0.16079194843769073,0.11234454810619354,-0.00476844422519207
13.489521980285645,-0.18673227727413177,-0.4560540020465851,0.647936224937439,0.16079194843769073,0.11196307092905045,-0.006294346414506435
13.509619951248169,-0.18711376190185547,-0.45643550157546997,0.649462103843689,0.16079194843769073,0.11196307092905045,-0.00858320016413927
13.52981972694397,-0.18749523162841797,-0.45643550157546997,0.6506065726280212,0.16041046380996704,0.11081864684820175,-0.010490577667951584
13.549777030944824,-0.18787670135498047,-0.45643550157546997,0.6513695120811462,0.16041046380996704,0.11005569249391556,-0.012779430486261845
13.569939613342285,-0.18863965570926666,-0.45643550157546997,0.6517509818077087,0.16041046380996704,0.11005569249391556,-0.013923857361078262
13.589974880218506,-0.18940261006355286,-0.45643550157546997,0.6528953909873962,0.16002899408340454,0.10967422276735306,-0.016212711110711098
13.610123634338379,-0.18940261006355286,-0.45681697130203247,0.6536583304405212,0.15964750945568085,0.10967422276735306,-0.01773861236870289
13.630190134048462,-0.18978407979011536,-0.45681697130203247,0.654421329498291,0.15850308537483215,0.10929274559020996,-0.020027466118335724
13.650272369384766,-0.19054703414440155,-0.45757991075515747,0.6563286781311035,0.15812161564826965,0.10929274559020996,-0.021171892061829567
13.670328140258789,-0.19054703414440155,-0.45796138048171997,0.6570916175842285,0.15774014592170715,0.10891126841306686,-0.02384222112596035
13.690462827682495,-0.19054703414440155,-0.45757991075515747,0.6586175560951233,0.15774014592170715,0.10852979123592377,-0.024605173617601395
13.710558652877808,-0.19092851877212524,-0.45796138048171997,0.6605249047279358,0.15735866129398346,0.10852979123592377,-0.025749599561095238
13.730679512023926,-0.19169145822525024,-0.45872434973716736,0.6628137826919556,0.15735866129398346,0.10852979123592377,-0.02727550081908703
13.750757932662964,-0.19207294285297394,-0.45872434973716736,0.6635767221450806,0.15735866129398346,0.10929274559020996,-0.028038453310728073
13.770842790603638,-0.19245441257953644,-0.45872434973716736,0.6651026010513306,0.15735866129398346,0.10929274559020996,-0.02880140393972397
13.790925741195679,-0.19245441257953644,-0.45872434973716736,0.6662470698356628,0.15735866129398346,0.10814831405878067,-0.031090257689356804
13.811015129089355,-0.19245441257953644,-0.45872434973716736,0.6666285395622253,0.15735866129398346,0.10814831405878067,-0.032616160809993744
13.831060647964478,-0.19245441257953644,-0.45872434973716736,0.6666285395622253,0.15697719156742096,0.10738536715507507,-0.03452353551983833
13.851208686828613,-0.19283588230609894,-0.45872434973716736,0.6677729487419128,0.15697719156742096,0.10662241280078888,-0.035667963325977325
13.871253490447998,-0.19283588230609894,-0.45872434973716736,0.6681544184684753,0.15659570693969727,0.10662241280078888,-0.03643091395497322
13.891693830490112,-0.19359883666038513,-0.45872434973716736,0.6692988276481628,0.15659570693969727,0.10700388997793198,-0.03833829239010811
13.911875486373901,-0.19398032128810883,-0.45910581946372986,0.6704432964324951,0.15659570693969727,0.10700388997793198,-0.0398641936480999
13.931959390640259,-0.19436179101467133,-0.45948728919029236,0.6719691753387451,0.15659570693969727,0.10700388997793198,-0.042153049260377884
13.951982259750366,-0.19474326074123383,-0.45948728919029236,0.6731135845184326,0.15659570693969727,0.10662241280078888,-0.04329747334122658
13.97209358215332,-0.19474326074123383,-0.45986875891685486,0.6742580533027649,0.15621423721313477,0.10585946589708328,-0.04406042397022247
13.992370843887329,-0.19512474536895752,-0.45986875891685486,0.6750209927558899,0.15621423721313477,0.10547798871994019,-0.04596780240535736
14.012385368347168,-0.1958876997232437,-0.46063172817230225,0.6761654019355774,0.15545128285884857,0.10547798871994019,-0.046730753034353256
14.03247880935669,-0.1966506391763687,-0.46215763688087463,0.6773098111152649,0.15545128285884857,0.10585946589708328,-0.048638131469488144
14.05250883102417,-0.1966506391763687,-0.46368351578712463,0.6784542798995972,0.15506981313228607,0.10624094307422638,-0.050164032727479935
14.072558164596558,-0.1966506391763687,-0.4648279547691345,0.6792172193527222,0.15506981313228607,0.10624094307422638,-0.05092698708176613
14.092674016952515,-0.1966506391763687,-0.4648279547691345,0.6799801588058472,0.15468832850456238,0.10547798871994019,-0.051689937710762024
14.11279010772705,-0.1970321238040924,-0.4663538634777069,0.6807430982589722,0.15354390442371368,0.10471503436565399,-0.05359731614589691
14.132890701293945,-0.1974135935306549,-0.4671168029308319,0.6815060377120972,0.15354390442371368,0.10509651154279709,-0.054741740226745605
14.152923107147217,-0.1981765478849411,-0.4678797721862793,0.6826505064964294,0.15354390442371368,0.10547798871994019,-0.056267641484737396
14.173003196716309,-0.1981765478849411,-0.4682612419128418,0.6841763854026794,0.15316243469715118,0.10547798871994019,-0.057793546468019485
14.193064212799072,-0.1989395022392273,-0.4686427116394043,0.6845578551292419,0.15316243469715118,0.10547798871994019,-0.05893797054886818
14.213218450546265,-0.1989395022392273,-0.4686427116394043,0.6857023239135742,0.15316243469715118,0.10547798871994019,-0.06084534898400307
14.233258247375488,-0.1997024416923523,-0.4690241813659668,0.6868467330932617,0.15316243469715118,0.10547798871994019,-0.06160829961299896
14.253336429595947,-0.200083926320076,-0.4690241813659668,0.6876096725463867,0.15316243469715118,0.10509651154279709,-0.06313420087099075
14.273592948913574,-0.200083926320076,-0.4690241813659668,0.6883726119995117,0.15316243469715118,0.10509651154279709,-0.06504157930612564
14.293637752532959,-0.2004653960466385,-0.4690241813659668,0.6891355514526367,0.15316243469715118,0.10471503436565399,-0.06580453366041183
14.313716650009155,-0.20084688067436218,-0.4690241813659668,0.6898985505104065,0.1527809500694275,0.10509651154279709,-0.06656748056411743
14.333921909332275,-0.20084688067436218,-0.4690241813659668,0.691042959690094,0.1527809500694275,0.10509651154279709,-0.06847485899925232
14.354029178619385,-0.20122835040092468,-0.4701686203479767,0.6921873688697815,0.152399480342865,0.10547798871994019,-0.06923781335353851
14.374117136001587,-0.20160982012748718,-0.4709315598011017,0.6929503083229065,0.1520180106163025,0.10509651154279709,-0.0707637146115303
