liuyurong129/humanoid-gym/humanoid/data/actual_q_20250521-003427.csv
timestamp,joint_1,joint_2,joint_3,joint_4,joint_5,joint_6
5.53131103515625e-05,0.00019073777366429567,0.17414358258247375,-0.0875486359000206,-0.00019073777366429567,0.00019073777366429567,-0.000572213320992887
0.020113229751586914,-0.00019073777366429567,0.15583276748657227,-0.07953765243291855,-0.00019073777366429567,0.00019073777366429567,-0.000572213320992887
0.040181636810302734,-0.00019073777366429567,0.1325627565383911,-0.06847485899925232,-0.00019073777366429567,0.000572213320992887,-0.0009536888683214784
0.06024622917175293,-0.00019073777366429567,0.11387044936418533,-0.061226826161146164,-0.00019073777366429567,0.0020981156267225742,-0.000572213320992887
0.08034944534301758,-0.00019073777366429567,0.11196307092905045,-0.061226826161146164,-0.00019073777366429567,0.0009536888683214784,-0.000572213320992887
0.1005105972290039,-0.00019073777366429567,0.11234454810619354,-0.06046387553215027,-0.00019073777366429567,0.0009536888683214784,-0.000572213320992887
0.12057161331176758,-0.00019073777366429567,0.11081864684820175,-0.058175019919872284,-0.00019073777366429567,0.0009536888683214784,-0.000572213320992887
0.14072680473327637,-0.00019073777366429567,0.10967422276735306,-0.05703059583902359,-0.00019073777366429567,0.0009536888683214784,-0.000572213320992887
0.16072607040405273,-0.00019073777366429567,0.10852979123592377,-0.0558861680328846,0.00019073777366429567,0.0009536888683214784,-0.000572213320992887
0.18083405494689941,-0.000572213320992887,0.10585946589708328,-0.0551232174038887,0.00019073777366429567,0.0009536888683214784,-0.000572213320992887
0.2008805274963379,-0.000572213320992887,0.10433356463909149,-0.054741740226745605,0.00019073777366429567,0.0009536888683214784,-0.000572213320992887
0.220963716506958,-0.0009536888683214784,0.1024261862039566,-0.05397878959774971,0.00019073777366429567,0.0009536888683214784,-0.000572213320992887
0.24103355407714844,-0.0020981156267225742,0.10051880776882172,-0.05283436179161072,0.00019073777366429567,0.0009536888683214784,-0.000572213320992887
0.2612030506134033,-0.0024795911740511656,0.09975585341453552,-0.05130846053361893,0.000572213320992887,0.0009536888683214784,-0.000572213320992887
0.2812638282775879,-0.002861066721379757,0.09861142933368683,-0.050164032727479935,0.0009536888683214784,0.0009536888683214784,-0.000572213320992887
0.30133581161499023,-0.0032425422687083483,0.09708552807569504,-0.049782559275627136,0.0013351644156500697,0.000572213320992887,-0.000572213320992887
0.32150983810424805,-0.004386968910694122,0.09555962681770325,-0.04901960864663124,0.001716639962978661,0.000572213320992887,-0.000572213320992887
0.3415558338165283,-0.005149920005351305,0.09288929402828217,-0.04787518084049225,0.0024795911740511656,0.0009536888683214784,-0.00019073777366429567
0.36159348487854004,-0.005531395319849253,0.09060044586658478,-0.04634927958250046,0.002861066721379757,0.0009536888683214784,-0.00019073777366429567
0.38173484802246094,-0.005912871100008488,0.08945601433515549,-0.04482337832450867,0.0036240178160369396,0.000572213320992887,-0.00019073777366429567
0.40174126625061035,-0.006294346414506435,0.0879301130771637,-0.04406042397022247,0.0036240178160369396,0.000572213320992887,-0.00019073777366429567
0.42182326316833496,-0.007057297509163618,0.08602273464202881,-0.04329747334122658,0.004005493130534887,0.000572213320992887,-0.00019073777366429567
0.442035436630249,-0.0078202486038208,0.08411535620689392,-0.04139009863138199,0.004386968910694122,0.000572213320992887,-0.00019073777366429567
0.46207380294799805,-0.0078202486038208,0.08258945494890213,-0.040627144277095795,0.00476844422519207,0.000572213320992887,-0.00019073777366429567
0.48219871520996094,-0.0078202486038208,0.08068207651376724,-0.0394827201962471,0.005531395319849253,0.000572213320992887,-0.00019073777366429567
0.5022115707397461,-0.00858320016413927,0.07839322835206985,-0.03795681521296501,0.006294346414506435,0.000572213320992887,0.00019073777366429567
0.522287130355835,-0.009346150793135166,0.07610437273979187,-0.03643091395497322,0.00667582219466567,0.000572213320992887,0.00019073777366429567
0.5423634052276611,-0.009727626107633114,0.07534141838550568,-0.03604944050312042,0.007057297509163618,0.000572213320992887,0.00019073777366429567
0.5624294281005859,-0.010109102353453636,0.07343403995037079,-0.03528648987412453,0.007057297509163618,0.000572213320992887,0.00019073777366429567
0.582512617111206,-0.010872052982449532,0.0711451917886734,-0.03376058489084244,0.007438773289322853,0.000572213320992887,0.00019073777366429567
0.6025698184967041,-0.01201647985726595,0.06885633617639542,-0.03223468363285065,0.007438773289322853,0.000572213320992887,0.000572213320992887
0.6226475238800049,-0.01201647985726595,0.06809338182210922,-0.03147173300385475,0.0078202486038208,0.000572213320992887,0.000572213320992887
0.6427392959594727,-0.012397955171763897,0.06618601083755493,-0.03032730519771576,0.008201723918318748,0.000572213320992887,0.000572213320992887
0.6628522872924805,-0.012779430486261845,0.06389715522527695,-0.02880140393972397,0.008201723918318748,0.000572213320992887,0.000572213320992887
0.6829149723052979,-0.013542382046580315,0.06237125024199486,-0.027656977996230125,0.008964675478637218,0.000572213320992887,0.000572213320992887
0.7030088901519775,-0.01430533267557621,0.06084534898400307,-0.026131074875593185,0.009727626107633114,0.000572213320992887,0.000572213320992887
0.7230541706085205,-0.014686808921396732,0.05893797054886818,-0.024986648932099342,0.010490577667951584,0.000572213320992887,0.0009536888683214784
0.7431724071502686,-0.01506828423589468,0.056267641484737396,-0.023460745811462402,0.010490577667951584,0.00019073777366429567,0.0009536888683214784
0.7632448673248291,-0.01506828423589468,0.0551232174038887,-0.022697795182466507,0.010872052982449532,0.00019073777366429567,0.0009536888683214784
0.7832839488983154,-0.01506828423589468,0.05359731614589691,-0.02193484455347061,0.01125352829694748,0.00019073777366429567,0.0009536888683214784
0.8033397197723389,-0.01583123579621315,0.051689937710762024,-0.02079041674733162,0.01125352829694748,0.00019073777366429567,0.0009536888683214784
0.823420524597168,-0.016975661739706993,0.04940108209848404,-0.019645990803837776,0.011635004542768002,0.00019073777366429567,0.0009536888683214784
0.8434901237487793,-0.01735713705420494,0.04787518084049225,-0.018120087683200836,0.01201647985726595,0.00019073777366429567,0.0009536888683214784
0.8635971546173096,-0.01773861236870289,0.04596780240535736,-0.016975661739706993,0.012779430486261845,0.00019073777366429567,0.0013351644156500697
0.8837625980377197,-0.01888304017484188,0.04406042397022247,-0.015449759550392628,0.01430533267557621,0.00019073777366429567,0.0013351644156500697
0.9039402008056641,-0.01926451548933983,0.04177157208323479,-0.013542382046580315,0.014686808921396732,0.00019073777366429567,0.0013351644156500697
0.9240169525146484,-0.019645990803837776,0.0398641936480999,-0.012397955171763897,0.01506828423589468,0.00019073777366429567,0.0013351644156500697
0.9440302848815918,-0.020027466118335724,0.03833829239010811,-0.011635004542768002,0.015449759550392628,-0.00019073777366429567,0.001716639962978661
0.9641828536987305,-0.02079041674733162,0.03643091395497322,-0.010109102353453636,0.01583123579621315,-0.00019073777366429567,0.001716639962978661
0.9842729568481445,-0.021553369238972664,0.03452353551983833,-0.00858320016413927,0.016594186425209045,-0.00019073777366429567,0.001716639962978661
1.0043582916259766,-0.02193484455347061,0.03337911143898964,-0.0078202486038208,0.016975661739706993,0.00019073777366429567,0.001716639962978661
1.0244040489196777,-0.02193484455347061,0.030708782374858856,-0.006294346414506435,0.018120087683200836,-0.00019073777366429567,0.0020981156267225742
1.044501781463623,-0.02231631986796856,0.02841992862522602,-0.00476844422519207,0.018501564860343933,-0.00019073777366429567,0.0020981156267225742
1.0645709037780762,-0.02231631986796856,0.026512550190091133,-0.0036240178160369396,0.018501564860343933,-0.000572213320992887,0.0024795911740511656
1.0846421718597412,-0.022697795182466507,0.024605173617601395,-0.0024795911740511656,0.01888304017484188,-0.00019073777366429567,0.0024795911740511656
1.1047160625457764,-0.023079270496964455,0.023079270496964455,-0.0013351644156500697,0.01888304017484188,-0.00019073777366429567,0.002861066721379757
1.1259338855743408,-0.024223696440458298,0.021171892061829567,-0.00019073777366429567,0.01926451548933983,-0.00019073777366429567,0.002861066721379757
1.146026611328125,-0.024605173617601395,0.01888304017484188,0.0020981156267225742,0.019645990803837776,-0.00019073777366429567,0.0032425422687083483
1.1661272048950195,-0.024986648932099342,0.016594186425209045,0.004005493130534887,0.02040894143283367,-0.00019073777366429567,0.0036240178160369396
1.1862046718597412,-0.025749599561095238,0.015449759550392628,0.005149920005351305,0.02193484455347061,-0.00019073777366429567,0.004005493130534887
1.2065298557281494,-0.026512550190091133,0.013160906732082367,0.00667582219466567,0.02231631986796856,-0.00019073777366429567,0.004005493130534887
1.226611614227295,-0.02727550081908703,0.010109102353453636,0.00858320016413927,0.022697795182466507,-0.00019073777366429567,0.004005493130534887
1.2466905117034912,-0.027656977996230125,0.0078202486038208,0.009727626107633114,0.023079270496964455,-0.000572213320992887,0.004005493130534887
1.2667510509490967,-0.027656977996230125,0.005912871100008488,0.010872052982449532,0.023079270496964455,-0.000572213320992887,0.004386968910694122
1.2868280410766602,-0.02880140393972397,0.0032425422687083483,0.012397955171763897,0.024223696440458298,-0.00019073777366429567,0.004386968910694122
1.306999683380127,-0.029182879254221916,0.0009536888683214784,0.013923857361078262,0.024986648932099342,-0.00019073777366429567,0.004386968910694122
1.3270666599273682,-0.029564354568719864,-0.000572213320992887,0.015449759550392628,0.025749599561095238,-0.00019073777366429567,0.004386968910694122
1.347076416015625,-0.029564354568719864,-0.0024795911740511656,0.016594186425209045,0.025749599561095238,-0.000572213320992887,0.00476844422519207
1.3672597408294678,-0.02994582988321781,-0.005912871100008488,0.01888304017484188,0.026131074875593185,-0.0009536888683214784,0.00476844422519207
1.3872692584991455,-0.030708782374858856,-0.008201723918318748,0.02040894143283367,0.026512550190091133,-0.000572213320992887,0.00476844422519207
1.4073340892791748,-0.03147173300385475,-0.010872052982449532,0.02193484455347061,0.02689402550458908,-0.000572213320992887,0.00476844422519207
1.4273641109466553,-0.03147173300385475,-0.01430533267557621,0.023460745811462402,0.02727550081908703,-0.000572213320992887,0.005149920005351305
1.4474444389343262,-0.03223468363285065,-0.016975661739706993,0.02536812424659729,0.028038453310728073,-0.000572213320992887,0.00476844422519207
1.467519998550415,-0.032616160809993744,-0.018501564860343933,0.026512550190091133,0.029182879254221916,-0.000572213320992887,0.005149920005351305
1.48758864402771,-0.034142062067985535,-0.021171892061829567,0.027656977996230125,0.02994582988321781,-0.000572213320992887,0.005149920005351305
1.5076310634613037,-0.03490501269698143,-0.02384222112596035,0.029564354568719864,0.03032730519771576,-0.000572213320992887,0.005149920005351305
1.527742862701416,-0.03490501269698143,-0.026512550190091133,0.031090257689356804,0.03032730519771576,-0.0009536888683214784,0.005149920005351305
1.5477936267852783,-0.03528648987412453,-0.02880140393972397,0.032616160809993744,0.031090257689356804,-0.0009536888683214784,0.005531395319849253
1.5679259300231934,-0.03604944050312042,-0.03147173300385475,0.034142062067985535,0.03185320645570755,-0.000572213320992887,0.005531395319849253
1.5879709720611572,-0.03681239113211632,-0.034142062067985535,0.03643091395497322,0.03299763426184654,-0.00019073777366429567,0.005531395319849253
1.6080524921417236,-0.03681239113211632,-0.03643091395497322,0.03795681521296501,0.03337911143898964,-0.000572213320992887,0.005531395319849253
1.6281206607818604,-0.03681239113211632,-0.03833829239010811,0.0398641936480999,0.03376058489084244,-0.0009536888683214784,0.005912871100008488
1.648193597793579,-0.03681239113211632,-0.0398641936480999,0.040627144277095795,0.03376058489084244,-0.0009536888683214784,0.005912871100008488
1.6682608127593994,-0.037193864583969116,-0.04253452271223068,0.042153049260377884,0.034142062067985535,-0.0009536888683214784,0.005912871100008488
1.6883468627929688,-0.03833829239010811,-0.04634927958250046,0.04406042397022247,0.03452353551983833,-0.000572213320992887,0.005912871100008488
1.7084121704101562,-0.039101243019104004,-0.04901960864663124,0.04596780240535736,0.03490501269698143,-0.000572213320992887,0.006294346414506435
1.7284750938415527,-0.039101243019104004,-0.05130846053361893,0.046730753034353256,0.03643091395497322,-0.0009536888683214784,0.00667582219466567
1.7485239505767822,-0.0398641936480999,-0.05436026677489281,0.048638131469488144,0.037193864583969116,-0.0009536888683214784,0.007438773289322853
1.7686195373535156,-0.040627144277095795,-0.05703059583902359,0.05092698708176613,0.03757534176111221,-0.0009536888683214784,0.0078202486038208
1.788675308227539,-0.04139009863138199,-0.05893797054886818,0.05283436179161072,0.03795681521296501,-0.000572213320992887,0.008201723918318748
1.808746337890625,-0.04139009863138199,-0.06084534898400307,0.05436026677489281,0.038719769567251205,-0.0009536888683214784,0.008201723918318748
1.828801155090332,-0.04177157208323479,-0.06389715522527695,0.0555046908557415,0.0398641936480999,-0.0009536888683214784,0.008201723918318748
1.848938226699829,-0.042153049260377884,-0.06733043491840363,0.058175019919872284,0.04139009863138199,-0.0009536888683214784,0.008201723918318748
1.8691325187683105,-0.04253452271223068,-0.06961929053068161,0.059319447726011276,0.04139009863138199,-0.0009536888683214784,0.008201723918318748
1.889129400253296,-0.04329747334122658,-0.071908138692379,0.061226826161146164,0.042153049260377884,-0.000572213320992887,0.00858320016413927
1.9093773365020752,-0.04406042397022247,-0.07534141838550568,0.06313420087099075,0.042153049260377884,-0.000572213320992887,0.00858320016413927
1.929471492767334,-0.04406042397022247,-0.07801175117492676,0.06580453366041183,0.04329747334122658,-0.0009536888683214784,0.00858320016413927
1.9495420455932617,-0.04444190114736557,-0.08068207651376724,0.06733043491840363,0.04444190114736557,-0.0009536888683214784,0.00858320016413927
1.9695892333984375,-0.04444190114736557,-0.08411535620689392,0.06923781335353851,0.045204851776361465,-0.0013351644156500697,0.008964675478637218
1.9900193214416504,-0.045204851776361465,-0.0875486359000206,0.0715266615152359,0.04558632895350456,-0.000572213320992887,0.008964675478637218
2.0101137161254883,-0.04596780240535736,-0.09021896868944168,0.07343403995037079,0.04596780240535736,-0.000572213320992887,0.008964675478637218
2.03018856048584,-0.046730753034353256,-0.09288929402828217,0.07572289556264877,0.046730753034353256,-0.000572213320992887,0.008964675478637218
2.0503504276275635,-0.04711223021149635,-0.09517814964056015,0.07724879682064056,0.04787518084049225,-0.0009536888683214784,0.008964675478637218
2.0703635215759277,-0.04787518084049225,-0.09708552807569504,0.07877469807863235,0.048638131469488144,-0.0013351644156500697,0.009346150793135166
2.090441942214966,-0.048638131469488144,-0.10051880776882172,0.08068207651376724,0.04901960864663124,-0.0009536888683214784,0.009727626107633114
2.11055326461792,-0.04901960864663124,-0.10433356463909149,0.08335240930318832,0.04940108209848404,-0.0013351644156500697,0.009727626107633114
2.1306281089782715,-0.04940108209848404,-0.10776684433221817,0.08487831056118011,0.05054550990462303,-0.000572213320992887,0.010109102353453636
2.150664806365967,-0.050164032727479935,-0.11081864684820175,0.0871671661734581,0.05207141116261482,-0.0009536888683214784,0.01125352829694748
2.1709184646606445,-0.05054550990462303,-0.11425192654132843,0.08983749151229858,0.05245288833975792,-0.0009536888683214784,0.011635004542768002
2.1910600662231445,-0.05130846053361893,-0.11730372905731201,0.09250781685113907,0.05283436179161072,-0.000572213320992887,0.011635004542768002
2.211099147796631,-0.05130846053361893,-0.11959258466959,0.09479667246341705,0.05397878959774971,-0.0013351644156500697,0.01201647985726595
2.2311480045318604,-0.05130846053361893,-0.12226291000843048,0.09708552807569504,0.054741740226745605,-0.0013351644156500697,0.01201647985726595
2.2513415813446045,-0.051689937710762024,-0.12531471252441406,0.09937438368797302,0.056267641484737396,-0.0013351644156500697,0.01201647985726595
2.2714061737060547,-0.05245288833975792,-0.12912946939468384,0.1024261862039566,0.056267641484737396,-0.0009536888683214784,0.01201647985726595
2.2914137840270996,-0.05283436179161072,-0.1325627565383911,0.10471503436565399,0.05664911866188049,-0.000572213320992887,0.01201647985726595
2.311523914337158,-0.05359731614589691,-0.1356145590543747,0.10662241280078888,0.05703059583902359,-0.000572213320992887,0.01201647985726595
2.331568479537964,-0.05436026677489281,-0.13828489184379578,0.10891126841306686,0.057793546468019485,-0.000572213320992887,0.01201647985726595
2.351644992828369,-0.054741740226745605,-0.14057374000549316,0.11158160120248795,0.059319447726011276,-0.0013351644156500697,0.01201647985726595
2.371730327606201,-0.0555046908557415,-0.14324407279491425,0.11425192654132843,0.05970092490315437,-0.0013351644156500697,0.012397955171763897
2.391789674758911,-0.056267641484737396,-0.14667734503746033,0.11654078215360641,0.06008239835500717,-0.0013351644156500697,0.012397955171763897
2.4119558334350586,-0.056267641484737396,-0.1497291475534439,0.1180666834115982,0.06046387553215027,-0.0009536888683214784,0.012397955171763897
2.4320578575134277,-0.05664911866188049,-0.1527809500694275,0.1203555315732956,0.06084534898400307,-0.0009536888683214784,0.012397955171763897
2.4522266387939453,-0.05664911866188049,-0.15430685877799988,0.12149996310472488,0.06160829961299896,-0.0009536888683214784,0.012397955171763897
2.4722306728363037,-0.05703059583902359,-0.15697719156742096,0.12378881871700287,0.06313420087099075,-0.0009536888683214784,0.012397955171763897
2.4925310611724854,-0.057793546468019485,-0.16079194843769073,0.12607766687870026,0.06351567804813385,-0.000572213320992887,0.012397955171763897
2.5126867294311523,-0.05855649709701538,-0.16384375095367432,0.12951095402240753,0.06389715522527695,-0.0009536888683214784,0.012397955171763897
2.5327179431915283,-0.05855649709701538,-0.1661325991153717,0.13141833245754242,0.06466010212898254,-0.0013351644156500697,0.012779430486261845
2.5527737140655518,-0.05855649709701538,-0.16880293190479279,0.1333257108926773,0.06542305648326874,-0.0013351644156500697,0.012779430486261845
2.5730297565460205,-0.05893797054886818,-0.17147326469421387,0.135233074426651,0.06694895774126053,-0.0013351644156500697,0.012779430486261845
2.593118190765381,-0.059319447726011276,-0.17490653693675995,0.13828489184379578,0.06771191209554672,-0.0009536888683214784,0.012779430486261845
2.613215923309326,-0.06008239835500717,-0.17795833945274353,0.14019227027893066,0.06847485899925232,-0.000572213320992887,0.012779430486261845
2.633279800415039,-0.06046387553215027,-0.1817730963230133,0.14209964871406555,0.06923781335353851,-0.00019073777366429567,0.012779430486261845
2.6533758640289307,-0.06084534898400307,-0.1844434291124344,0.14400701224803925,0.0707637146115303,-0.0009536888683214784,0.012779430486261845
2.6734650135040283,-0.061226826161146164,-0.18749523162841797,0.14782176911830902,0.0711451917886734,-0.0013351644156500697,0.013160906732082367
2.6938064098358154,-0.06198977679014206,-0.19169145822525024,0.1504921019077301,0.071908138692379,-0.0013351644156500697,0.013160906732082367
2.7139012813568115,-0.06275273114442825,-0.1958876997232437,0.15316243469715118,0.07305257022380829,-0.0009536888683214784,0.013160906732082367
2.7340362071990967,-0.06313420087099075,-0.1989395022392273,0.15545128285884857,0.07457847148180008,-0.0009536888683214784,0.013542382046580315
2.7541158199310303,-0.06313420087099075,-0.20160982012748718,0.15812161564826965,0.07495994865894318,-0.0009536888683214784,0.013542382046580315
2.77422833442688,-0.06351567804813385,-0.20466163754463196,0.16002899408340454,0.07572289556264877,-0.0013351644156500697,0.013923857361078262
2.794278621673584,-0.06427863240242004,-0.20847637951374054,0.16269932687282562,0.07648584991693497,-0.0009536888683214784,0.013923857361078262
2.8144779205322266,-0.06504157930612564,-0.21114671230316162,0.1661325991153717,0.07839322835206985,-0.000572213320992887,0.01430533267557621
2.8345468044281006,-0.06580453366041183,-0.2145799994468689,0.16918440163135529,0.07877469807863235,-0.0013351644156500697,0.014686808921396732
2.854604482650757,-0.06580453366041183,-0.21763180196285248,0.17147326469421387,0.07915617525577545,-0.0013351644156500697,0.01506828423589468
2.8746438026428223,-0.06618601083755493,-0.22220951318740845,0.17490653693675995,0.07953765243291855,-0.001716639962978661,0.01506828423589468
2.8947789669036865,-0.06618601083755493,-0.22526131570339203,0.17719538509845734,0.08068207651376724,-0.001716639962978661,0.015449759550392628
2.9148237705230713,-0.06618601083755493,-0.22793163359165192,0.17986571788787842,0.08220797777175903,-0.0009536888683214784,0.015449759550392628
2.9348835945129395,-0.06656748056411743,-0.2309834510087967,0.1813916265964508,0.08297093212604523,-0.0009536888683214784,0.015449759550392628
2.954932451248169,-0.06733043491840363,-0.23327229917049408,0.1844434291124344,0.08449683338403702,-0.000572213320992887,0.015449759550392628
2.975018262863159,-0.06809338182210922,-0.23746852576732635,0.18749523162841797,0.08564125746488571,-0.000572213320992887,0.015449759550392628
2.995091199874878,-0.06847485899925232,-0.24013885855674744,0.19054703414440155,0.08602273464202881,-0.0013351644156500697,0.015449759550392628
3.015158176422119,-0.06847485899925232,-0.24242770671844482,0.19321736693382263,0.0864042118191719,-0.001716639962978661,0.01583123579621315
3.035212278366089,-0.06923781335353851,-0.2466239482164383,0.1958876997232437,0.0871671661734581,-0.001716639962978661,0.01583123579621315
3.0553207397460938,-0.06961929053068161,-0.25120165944099426,0.1993209719657898,0.0883115902543068,-0.0013351644156500697,0.016212711110711098
3.075551748275757,-0.07038223743438721,-0.25501641631126404,0.20199130475521088,0.08983749151229858,-0.00019073777366429567,0.01583123579621315
3.095513343811035,-0.0711451917886734,-0.2588311731815338,0.20504310727119446,0.09060044586658478,-0.00019073777366429567,0.016212711110711098
3.1156363487243652,-0.0711451917886734,-0.2626459002494812,0.20847637951374054,0.09136339277029037,-0.000572213320992887,0.016212711110711098
3.1357226371765137,-0.0711451917886734,-0.2660791873931885,0.212672621011734,0.09327077120542526,-0.0013351644156500697,0.016212711110711098
3.155795097351074,-0.0715266615152359,-0.26913100481033325,0.2157244235277176,0.09403372555971146,-0.001716639962978661,0.016594186425209045
3.175849676132202,-0.07267109304666519,-0.272945761680603,0.21839475631713867,0.09441519528627396,-0.0013351644156500697,0.016594186425209045
3.196065902709961,-0.07305257022380829,-0.2756160795688629,0.22106507420539856,0.09479667246341705,-0.0009536888683214784,0.016594186425209045
3.216200590133667,-0.07305257022380829,-0.2786678969860077,0.22449836134910583,0.09670405089855194,-0.0009536888683214784,0.016594186425209045
3.2362422943115234,-0.07305257022380829,-0.2821011543273926,0.22755016386508942,0.09784847497940063,-0.0013351644156500697,0.016975661739706993
3.256319046020508,-0.07305257022380829,-0.28667888045310974,0.2309834510087967,0.09861142933368683,-0.0009536888683214784,0.016975661739706993
3.276384115219116,-0.07305257022380829,-0.291638046503067,0.23556114733219147,0.10051880776882172,-0.0009536888683214784,0.01735713705420494
3.296449661254883,-0.07343403995037079,-0.2946898639202118,0.23899443447589874,0.10128175467252731,-0.0009536888683214784,0.01735713705420494
3.316602945327759,-0.07343403995037079,-0.2977416515350342,0.24204623699188232,0.10204470902681351,-0.0013351644156500697,0.01773861236870289
3.336636781692505,-0.07381551712751389,-0.30155640840530396,0.2450980395078659,0.1028076633810997,-0.0009536888683214784,0.01773861236870289
3.3568263053894043,-0.07419699430465698,-0.30498969554901123,0.24891279637813568,0.10433356463909149,-0.0009536888683214784,0.01773861236870289
3.3769068717956543,-0.07457847148180008,-0.3084229826927185,0.25234606862068176,0.10509651154279709,-0.0009536888683214784,0.018501564860343933
3.397061824798584,-0.07534141838550568,-0.3107118308544159,0.25501641631126404,0.10585946589708328,-0.0009536888683214784,0.01888304017484188
3.4170916080474854,-0.07534141838550568,-0.31376364827156067,0.2569237947463989,0.10624094307422638,-0.0013351644156500697,0.01888304017484188
3.437274217605591,-0.07534141838550568,-0.31834134459495544,0.2607385218143463,0.10814831405878067,-0.0009536888683214784,0.01888304017484188
3.4574055671691895,-0.07572289556264877,-0.3221561014652252,0.2645532786846161,0.10891126841306686,-0.0009536888683214784,0.01888304017484188
3.477499485015869,-0.07648584991693497,-0.32520791888237,0.26760509610176086,0.10929274559020996,-0.000572213320992887,0.01926451548933983
3.4975368976593018,-0.07686731964349747,-0.3286411762237549,0.27065691351890564,0.11005569249391556,-0.0009536888683214784,0.01926451548933983
3.5176260471343994,-0.07763027399778366,-0.33360037207603455,0.2748531401157379,0.11196307092905045,-0.0009536888683214784,0.01926451548933983
3.5377159118652344,-0.07763027399778366,-0.3374151289463043,0.2786678969860077,0.11272602528333664,-0.0009536888683214784,0.01926451548933983
3.55777907371521,-0.07763027399778366,-0.3412298858165741,0.28248265385627747,0.11348897218704224,-0.0009536888683214784,0.01926451548933983
3.5778415203094482,-0.07801175117492676,-0.344663143157959,0.28515297174453735,0.11425192654132843,-0.0009536888683214784,0.01926451548933983
3.5979342460632324,-0.07877469807863235,-0.34847790002822876,0.28934919834136963,0.11577782779932022,-0.0009536888683214784,0.019645990803837776
3.618053913116455,-0.07877469807863235,-0.3526741564273834,0.2924010157585144,0.11654078215360641,-0.000572213320992887,0.019645990803837776
3.638101816177368,-0.07877469807863235,-0.3564889132976532,0.2958342730998993,0.11730372905731201,-0.00019073777366429567,0.019645990803837776
3.6582882404327393,-0.07915617525577545,-0.3595407009124756,0.29850462079048157,0.1192111074924469,-0.0009536888683214784,0.019645990803837776
3.6783671379089355,-0.07953765243291855,-0.36488136649131775,0.30270084738731384,0.12073700875043869,-0.0009536888683214784,0.020027466118335724
3.6984570026397705,-0.07953765243291855,-0.3694590628147125,0.3061341345310211,0.12188144028186798,-0.00019073777366429567,0.019645990803837776
3.718499183654785,-0.07953765243291855,-0.3728923499584198,0.3084229826927185,0.12340734153985977,-0.000572213320992887,0.019645990803837776
3.7386882305145264,-0.07953765243291855,-0.3767071068286896,0.3118562698364258,0.12417028844356537,-0.0009536888683214784,0.020027466118335724
3.758807897567749,-0.08030059933662415,-0.38052186369895935,0.31528952717781067,0.12531471252441406,-0.000572213320992887,0.020027466118335724
3.778888463973999,-0.08030059933662415,-0.38357365131378174,0.31834134459495544,0.12722209095954895,-0.00019073777366429567,0.020027466118335724
3.7989914417266846,-0.08030059933662415,-0.386243999004364,0.3213931620121002,0.12760357558727264,-0.00019073777366429567,0.020027466118335724
3.81897234916687,-0.08030059933662415,-0.3896772861480713,0.32520791888237,0.12836651504039764,-0.0009536888683214784,0.020027466118335724
3.8391294479370117,-0.08068207651376724,-0.3927290737628937,0.3286411762237549,0.12989242374897003,-0.000572213320992887,0.020027466118335724
3.8591909408569336,-0.08068207651376724,-0.39692530035972595,0.33245593309402466,0.13103684782981873,-0.0009536888683214784,0.020027466118335724
3.8792359828948975,-0.08068207651376724,-0.4007400572299957,0.33588922023773193,0.13141833245754242,-0.00019073777366429567,0.020027466118335724
3.899290084838867,-0.08106355369091034,-0.4045548141002655,0.3389410376548767,0.13218127191066742,-0.00019073777366429567,0.02040894143283367
3.919407844543457,-0.08144503086805344,-0.4083695709705353,0.3427557647228241,0.1337071806192398,-0.00019073777366429567,0.020027466118335724
3.9394497871398926,-0.08144503086805344,-0.41256579756736755,0.34580758213996887,0.1348516047000885,-0.00019073777366429567,0.020027466118335724
3.9595253467559814,-0.08182650804519653,-0.4171435236930847,0.34962233901023865,0.1367589831352234,-0.00019073777366429567,0.02040894143283367
3.9800145626068115,-0.08258945494890213,-0.422102689743042,0.3545815348625183,0.13790340721607208,-0.00019073777366429567,0.02040894143283367
4.000092506408691,-0.08258945494890213,-0.42629891633987427,0.3587777614593506,0.13866636157035828,-0.00019073777366429567,0.02040894143283367
4.020168781280518,-0.08258945494890213,-0.43049514293670654,0.36297398805618286,0.13942931592464447,-0.00019073777366429567,0.02040894143283367
4.0402162075042725,-0.08258945494890213,-0.4339284300804138,0.36678874492645264,0.14057374000549316,0.00019073777366429567,0.02040894143283367
4.060270547866821,-0.08258945494890213,-0.4377431869506836,0.3706035017967224,0.14209964871406555,-0.00019073777366429567,0.02040894143283367
4.080346584320068,-0.08297093212604523,-0.44346532225608826,0.3759441375732422,0.14362554252147675,-0.00019073777366429567,0.02040894143283367
4.100414037704468,-0.08373387902975082,-0.4491874575614929,0.38014039397239685,0.14553292095661163,0.0009536888683214784,0.02040894143283367
4.120481729507446,-0.08373387902975082,-0.4533836841583252,0.38357365131378174,0.14667734503746033,0.0009536888683214784,0.02040894143283367
4.1405346393585205,-0.08373387902975082,-0.45719844102859497,0.387006938457489,0.14820325374603271,0.00019073777366429567,0.02040894143283367
4.160648584365845,-0.08411535620689392,-0.46177613735198975,0.3912031650543213,0.1497291475534439,0.00019073777366429567,0.02040894143283367
4.180811405181885,-0.08487831056118011,-0.4663538634777069,0.39425498247146606,0.1508735716342926,0.0013351644156500697,0.02040894143283367
4.200823783874512,-0.08487831056118011,-0.4705500900745392,0.39845120906829834,0.15316243469715118,0.0009536888683214784,0.02040894143283367
4.220921039581299,-0.08487831056118011,-0.47474631667137146,0.4030289053916931,0.15430685877799988,0.0009536888683214784,0.02079041674733162
4.24098014831543,-0.08487831056118011,-0.4797055125236511,0.4072251319885254,0.15621423721313477,0.0009536888683214784,0.02079041674733162
4.261030673980713,-0.08487831056118011,-0.483138769865036,0.41027694940567017,0.15697719156742096,0.0013351644156500697,0.02040894143283367
4.28126335144043,-0.08487831056118011,-0.4877164959907532,0.41447317600250244,0.15888457000255585,0.0009536888683214784,0.02079041674733162
4.301385402679443,-0.08487831056118011,-0.49267566204071045,0.4201953113079071,0.16079194843769073,0.0013351644156500697,0.02079041674733162
4.321432590484619,-0.08525978773832321,-0.4980163276195526,0.4243915379047394,0.16231784224510193,0.0020981156267225742,0.02079041674733162
4.341495037078857,-0.08564125746488571,-0.5037384629249573,0.42896926403045654,0.1646067053079605,0.002861066721379757,0.02079041674733162
4.361765146255493,-0.08564125746488571,-0.5079346895217896,0.4335469603538513,0.1661325991153717,0.0032425422687083483,0.02079041674733162
4.38184666633606,-0.08564125746488571,-0.5117494463920593,0.4369802474975586,0.1684214472770691,0.0024795911740511656,0.02079041674733162
4.402012586593628,-0.08564125746488571,-0.5163271427154541,0.44117647409439087,0.16918440163135529,0.0020981156267225742,0.02079041674733162
4.422009706497192,-0.08564125746488571,-0.5205233693122864,0.44499123096466064,0.17032882571220398,0.002861066721379757,0.021171892061829567
4.442129135131836,-0.08564125746488571,-0.5251010656356812,0.4488059878349304,0.17223620414733887,0.0032425422687083483,0.02079041674733162
4.462209224700928,-0.08564125746488571,-0.5292973518371582,0.4537651538848877,0.17376211285591125,0.0032425422687083483,0.021171892061829567
4.482267379760742,-0.08564125746488571,-0.5334935784339905,0.45719844102859497,0.17566949129104614,0.0036240178160369396,0.02079041674733162
4.502331972122192,-0.08564125746488571,-0.5388342142105103,0.46292057633399963,0.17681391537189484,0.004005493130534887,0.021171892061829567
4.522418260574341,-0.08564125746488571,-0.54417484998703,0.4686427116394043,0.17948424816131592,0.004005493130534887,0.021171892061829567
4.542489767074585,-0.08564125746488571,-0.5479896068572998,0.4732204079627991,0.1810101419687271,0.0036240178160369396,0.021171892061829567
4.562589645385742,-0.08564125746488571,-0.5525673031806946,0.47665369510650635,0.182917520403862,0.004005493130534887,0.021171892061829567
4.582661390304565,-0.08564125746488571,-0.5579079985618591,0.482375830411911,0.1840619444847107,0.004386968910694122,0.021171892061829567
4.602764129638672,-0.08564125746488571,-0.5636301040649414,0.4877164959907532,0.18558785319328308,0.004386968910694122,0.021171892061829567
4.623016595840454,-0.08564125746488571,-0.5685893297195435,0.49153125286102295,0.18749523162841797,0.005149920005351305,0.021171892061829567
4.643124580383301,-0.08564125746488571,-0.5731670260429382,0.4957274794578552,0.18978407979011536,0.005912871100008488,0.021553369238972664
4.6631340980529785,-0.08564125746488571,-0.578507661819458,0.5014495849609375,0.19092851877212524,0.005531395319849253,0.021553369238972664
4.68320369720459,-0.08564125746488571,-0.5838482975959778,0.5064088106155396,0.19245441257953644,0.006294346414506435,0.021553369238972664
4.703318119049072,-0.08564125746488571,-0.5891889929771423,0.5117494463920593,0.19474326074123383,0.007438773289322853,0.021553369238972664
4.723349094390869,-0.08564125746488571,-0.5937666893005371,0.5163271427154541,0.1970321238040924,0.0078202486038208,0.02193484455347061
4.743526220321655,-0.08564125746488571,-0.5983443856239319,0.5216678380966187,0.1993209719657898,0.007438773289322853,0.02193484455347061
4.763605356216431,-0.08564125746488571,-0.6029220819473267,0.5273899435997009,0.20160982012748718,0.008201723918318748,0.02193484455347061
4.783659934997559,-0.08564125746488571,-0.6082627773284912,0.5319676399230957,0.20275425910949707,0.007438773289322853,0.02193484455347061
4.803741693496704,-0.08525978773832321,-0.615129292011261,0.5376898050308228,0.20542457699775696,0.00858320016413927,0.02193484455347061
4.823829889297485,-0.08525978773832321,-0.620851457118988,0.54417484998703,0.20695048570632935,0.008964675478637218,0.02193484455347061
4.843884468078613,-0.08564125746488571,-0.6261920928955078,0.5491340756416321,0.20923933386802673,0.009346150793135166,0.02193484455347061
4.863974332809448,-0.08564125746488571,-0.6303883194923401,0.5529488325119019,0.21000228822231293,0.009727626107633114,0.02193484455347061
4.884034156799316,-0.08564125746488571,-0.6357290148735046,0.5571450591087341,0.21152819693088531,0.010109102353453636,0.02193484455347061
4.904119968414307,-0.08564125746488571,-0.6414511203765869,0.5624856948852539,0.2138170450925827,0.010490577667951584,0.02193484455347061
4.92420768737793,-0.08564125746488571,-0.6464102864265442,0.5682078003883362,0.2157244235277176,0.010109102353453636,0.02193484455347061
4.944391489028931,-0.08564125746488571,-0.6509880423545837,0.5724040865898132,0.21839475631713867,0.010490577667951584,0.02193484455347061
4.964447736740112,-0.08564125746488571,-0.655947208404541,0.5773632526397705,0.22068360447883606,0.010872052982449532,0.02193484455347061
4.984796524047852,-0.08564125746488571,-0.6609063744544983,0.5823224186897278,0.22220951318740845,0.011635004542768002,0.02193484455347061
5.004913330078125,-0.08564125746488571,-0.6670100092887878,0.5884260535240173,0.22526131570339203,0.01125352829694748,0.021553369238972664
5.025004148483276,-0.08525978773832321,-0.6727321147918701,0.5937666893005371,0.22755016386508942,0.01201647985726595,0.021553369238972664
5.045051097869873,-0.08525978773832321,-0.6776912808418274,0.5979629158973694,0.2290760725736618,0.01201647985726595,0.021553369238972664
5.065310716629028,-0.08525978773832321,-0.6834134459495544,0.6029220819473267,0.2309834510087967,0.012397955171763897,0.02193484455347061
5.085367918014526,-0.08525978773832321,-0.690280020236969,0.6097886562347412,0.23289081454277039,0.012397955171763897,0.02193484455347061
5.105441093444824,-0.08449683338403702,-0.6960021257400513,0.6155108213424683,0.23594263195991516,0.013160906732082367,0.021553369238972664
5.125598192214966,-0.08449683338403702,-0.7024872303009033,0.621614396572113,0.23746852576732635,0.01506828423589468,0.021553369238972664
5.145693063735962,-0.08449683338403702,-0.7097352743148804,0.6288624405860901,0.24013885855674744,0.016212711110711098,0.021171892061829567
5.165886163711548,-0.08449683338403702,-0.7166017889976501,0.6349660754203796,0.24357213079929352,0.01735713705420494,0.02079041674733162
5.1859166622161865,-0.08411535620689392,-0.724612832069397,0.6422140598297119,0.2462424635887146,0.01888304017484188,0.02079041674733162
5.205991268157959,-0.08297093212604523,-0.732623815536499,0.6506065726280212,0.24891279637813568,0.01926451548933983,0.02040894143283367
5.226049423217773,-0.08258945494890213,-0.7394903302192688,0.6570916175842285,0.25196459889411926,0.01926451548933983,0.02040894143283367
5.2461159229278564,-0.08220797777175903,-0.7455939650535583,0.6628137826919556,0.25463491678237915,0.019645990803837776,0.02040894143283367
5.266162872314453,-0.08182650804519653,-0.7528420090675354,0.6700618267059326,0.2580682039260864,0.02040894143283367,0.020027466118335724
5.286252021789551,-0.08068207651376724,-0.7612344622612,0.6776912808418274,0.2611200213432312,0.02231631986796856,0.020027466118335724
5.30640172958374,-0.08030059933662415,-0.768482506275177,0.6853207945823669,0.2641718089580536,0.02193484455347061,0.020027466118335724
5.326478719711304,-0.08030059933662415,-0.775730550289154,0.691805899143219,0.2660791873931885,0.022697795182466507,0.019645990803837776
5.3465282917022705,-0.08030059933662415,-0.7829785346984863,0.6979095339775085,0.26951247453689575,0.024986648932099342,0.019645990803837776
5.366651773452759,-0.08030059933662415,-0.7906080484390259,0.7055390477180481,0.272945761680603,0.025749599561095238,0.019645990803837776
5.386705160140991,-0.07953765243291855,-0.7967116832733154,0.7112611532211304,0.2752346098423004,0.024605173617601395,0.01926451548933983
5.406778335571289,-0.07915617525577545,-0.8039597272872925,0.7185091972351074,0.2794308364391327,0.02536812424659729,0.01926451548933983
5.42682671546936,-0.07839322835206985,-0.8112077713012695,0.7242313027381897,0.28400853276252747,0.025749599561095238,0.01926451548933983
5.446929216384888,-0.07724879682064056,-0.8180742859840393,0.7303349375724792,0.28896772861480713,0.02727550081908703,0.01888304017484188
5.467001438140869,-0.07610437273979187,-0.8257037997245789,0.7387273907661438,0.2927824854850769,0.026512550190091133,0.018501564860343933
5.487058401107788,-0.07572289556264877,-0.8333333134651184,0.7459754347801208,0.2962157726287842,0.02727550081908703,0.01773861236870289
5.507206916809082,-0.07381551712751389,-0.841725766658783,0.7536049485206604,0.30117493867874146,0.028038453310728073,0.016212711110711098
5.52724027633667,-0.07305257022380829,-0.8512626886367798,0.76276034116745,0.308041512966156,0.029182879254221916,0.01583123579621315
5.547330379486084,-0.0722896158695221,-0.8611810207366943,0.7738231420516968,0.31414511799812317,0.02994582988321781,0.014686808921396732
5.567419528961182,-0.07038223743438721,-0.8726252913475037,0.7841230034828186,0.3225375711917877,0.030708782374858856,0.013542382046580315
5.587443828582764,-0.06885633617639542,-0.8859769701957703,0.7959487438201904,0.33169299364089966,0.03337911143898964,0.012397955171763897
5.607528209686279,-0.06771191209554672,-0.9008545279502869,0.8100633025169373,0.3408484160900116,0.03376058489084244,0.01125352829694748
5.627594470977783,-0.06580453366041183,-0.9157320261001587,0.8249408602714539,0.34885939955711365,0.03337911143898964,0.010109102353453636
5.64768123626709,-0.06389715522527695,-0.9306095838546753,0.838674008846283,0.3568703830242157,0.03528648987412453,0.0078202486038208
5.66773796081543,-0.061226826161146164,-0.9470130205154419,0.8554589152336121,0.36755168437957764,0.03643091395497322,0.005149920005351305
5.687825918197632,-0.058175019919872284,-0.9660868048667908,0.8756771087646484,0.38166627287864685,0.03757534176111221,0.0009536888683214784
5.707886219024658,-0.056267641484737396,-0.9863049983978271,0.8947508931159973,0.39654383063316345,0.040627144277095795,-0.004005493130534887
5.727969408035278,-0.05397878959774971,-1.0046159029006958,0.9119172692298889,0.4182879328727722,0.04711223021149635,-0.013542382046580315
5.748049974441528,-0.053215838968753815,-1.0168230533599854,0.9214541912078857,0.4545281231403351,0.053215838968753815,-0.029182879254221916
5.768143892288208,-0.05359731614589691,-1.019874930381775,0.9206912517547607,0.4991607666015625,0.06275273114442825,-0.059319447726011276
5.78820276260376,-0.05359731614589691,-1.0160601139068604,0.9195467829704285,0.5193789601325989,0.05130846053361893,-0.0722896158695221
5.80826735496521,-0.053215838968753815,-1.0160601139068604,0.9214541912078857,0.5323491096496582,0.04749370738863945,-0.09021896868944168
5.828363656997681,-0.05359731614589691,-1.0160601139068604,0.9267948269844055,0.5457007884979248,0.05359731614589691,-0.10013733059167862
5.8484413623809814,-0.05436026677489281,-1.0149157047271729,0.9279392957687378,0.5731670260429382,0.05703059583902359,-0.1203555315732956
5.868542432785034,-0.05703059583902359,-1.0137712955474854,0.924124538898468,0.5933852195739746,0.06275273114442825,-0.1363775134086609
5.888569116592407,-0.056267641484737396,-1.0126268863677979,0.9203097820281982,0.6170367002487183,0.06923781335353851,-0.16231784224510193
5.908698320388794,-0.056267641484737396,-1.0133898258209229,0.9195467829704285,0.6280995011329651,0.06275273114442825,-0.17261768877506256
5.928804874420166,-0.0555046908557415,-1.0156786441802979,0.9199283123016357,0.6338216066360474,0.06198977679014206,-0.17986571788787842
5.948911428451538,-0.05436026677489281,-1.0175859928131104,0.9203097820281982,0.6368734240531921,0.06008239835500717,-0.1832990050315857
5.968925952911377,-0.053215838968753815,-1.0172045230865479,0.9222171306610107,0.6399252414703369,0.057793546468019485,-0.18596932291984558
5.989052057266235,-0.053215838968753815,-1.0168230533599854,0.9283207654953003,0.647173285484314,0.06160829961299896,-0.19130998849868774
6.009079456329346,-0.05359731614589691,-1.0164415836334229,0.9302281141281128,0.6662470698356628,0.06961929053068161,-0.1997024416923523
6.029178142547607,-0.0551232174038887,-1.0160601139068604,0.9298466444015503,0.6761654019355774,0.07343403995037079,-0.20351719856262207
6.049255132675171,-0.05664911866188049,-1.0160601139068604,0.9279392957687378,0.6834134459495544,0.07648584991693497,-0.20847637951374054
6.069534063339233,-0.05664911866188049,-1.0194933414459229,0.9275577664375305,0.7021057605743408,0.07457847148180008,-0.21992065012454987
6.089637279510498,-0.056267641484737396,-1.0233081579208374,0.9290837049484253,0.7124055624008179,0.06961929053068161,-0.22259098291397095
6.109703302383423,-0.0555046908557415,-1.025978446006775,0.9302281141281128,0.7177462577819824,0.06275273114442825,-0.22564278542995453
6.129747629165649,-0.0555046908557415,-1.0263599157333374,0.9328984618186951,0.7211795449256897,0.05970092490315437,-0.2283131182193756
6.150017976760864,-0.0555046908557415,-1.0263599157333374,0.9416723847389221,0.7272831201553345,0.06008239835500717,-0.23289081454277039
6.16998028755188,-0.0558861680328846,-1.0263599157333374,0.9447242021560669,0.734912633895874,0.0722896158695221,-0.23899443447589874
6.190056800842285,-0.05664911866188049,-1.024452567100525,0.9451056718826294,0.7383459210395813,0.07763027399778366,-0.24052032828330994
6.21016263961792,-0.05664911866188049,-1.0240710973739624,0.9439612627029419,0.7406347990036011,0.07915617525577545,-0.24242770671844482
6.23029088973999,-0.05664911866188049,-1.024452567100525,0.9416723847389221,0.7425421476364136,0.07915617525577545,-0.2447165697813034
6.250308036804199,-0.058175019919872284,-1.030174732208252,0.9439612627029419,0.7597085237503052,0.07724879682064056,-0.25654229521751404
6.27041220664978,-0.05703059583902359,-1.0362783670425415,0.9462500810623169,0.7681010365486145,0.0715266615152359,-0.2626459002494812
6.290447473526001,-0.05741206929087639,-1.0393301248550415,0.9493018984794617,0.7742046117782593,0.06542305648326874,-0.26798656582832336
6.310532808303833,-0.057793546468019485,-1.039711594581604,0.954261064529419,0.775730550289154,0.06008239835500717,-0.26989394426345825
6.330597639083862,-0.05741206929087639,-1.039711594581604,0.959220290184021,0.7833600640296936,0.059319447726011276,-0.2752346098423004
6.3506996631622314,-0.05664911866188049,-1.0385671854019165,0.9588387608528137,0.7925154566764832,0.07419699430465698,-0.28553444147109985
6.370815753936768,-0.057793546468019485,-1.036659836769104,0.9569314122200012,0.7993820309638977,0.08030059933662415,-0.28973066806793213
6.390977382659912,-0.05855649709701538,-1.036659836769104,0.951972246170044,0.8039597272872925,0.08258945494890213,-0.2962157726287842
6.411149024963379,-0.058175019919872284,-1.037422776222229,0.9500648379325867,0.8100633025169373,0.07915617525577545,-0.30422675609588623
6.431177377700806,-0.05664911866188049,-1.0416189432144165,0.9504463076591492,0.813115119934082,0.07572289556264877,-0.3076600432395935
6.451203107833862,-0.056267641484737396,-1.043907880783081,0.9515907764434814,0.8154039978981018,0.06771191209554672,-0.3110933005809784
6.4712793827056885,-0.056267641484737396,-1.043907880783081,0.953498125076294,0.8173113465309143,0.06351567804813385,-0.3114747703075409
6.491357803344727,-0.05664911866188049,-1.042763352394104,0.959220290184021,0.8203631639480591,0.06466010212898254,-0.3133821487426758
6.511394739151001,-0.057793546468019485,-1.0416189432144165,0.962272047996521,0.8302815556526184,0.0711451917886734,-0.3233005404472351
6.531511068344116,-0.05893797054886818,-1.0408560037612915,0.962272047996521,0.8352407217025757,0.08106355369091034,-0.3263523280620575
6.551596403121948,-0.05893797054886818,-1.0408560037612915,0.9603646993637085,0.8382925391197205,0.08411535620689392,-0.3290226459503174
6.571663856506348,-0.05893797054886818,-1.0416189432144165,0.9580758213996887,0.8421072959899902,0.08449683338403702,-0.33245593309402466
6.59175181388855,-0.05970092490315437,-1.0450522899627686,0.9573128819465637,0.8550774455070496,0.08182650804519653,-0.34618905186653137
6.6118385791778564,-0.05855649709701538,-1.048485517501831,0.9576943516731262,0.8600366115570068,0.07724879682064056,-0.34885939955711365
6.6320295333862305,-0.05855649709701538,-1.050011396408081,0.9588387608528137,0.8619440197944641,0.06961929053068161,-0.34962233901023865
6.652055263519287,-0.05893797054886818,-1.0496299266815186,0.960746169090271,0.8638513684272766,0.06733043491840363,-0.35076677799224854
6.672100305557251,-0.058175019919872284,-1.0496299266815186,0.9645609259605408,0.8669031858444214,0.06847485899925232,-0.3530556261539459
6.692222595214844,-0.058175019919872284,-1.0481040477752686,0.9660868048667908,0.8867399096488953,0.07648584991693497,-0.3732738196849823
6.712332248687744,-0.05855649709701538,-1.0473411083221436,0.9653238654136658,0.89131760597229,0.08258945494890213,-0.3759441375732422
6.732383489608765,-0.05855649709701538,-1.047722578048706,0.9630350470542908,0.8966583013534546,0.0864042118191719,-0.38281071186065674
6.7524614334106445,-0.06351567804813385,-1.0503928661346436,0.9649423956871033,0.9134432077407837,0.08182650804519653,-0.3999771177768707
6.772629499435425,-0.06275273114442825,-1.0545891523361206,0.967994213104248,0.9237430095672607,0.07724879682064056,-0.41218432784080505
6.792786598205566,-0.06160829961299896,-1.057259440422058,0.9748607873916626,0.9321355223655701,0.06923781335353851,-0.4209582805633545
6.812835931777954,-0.059319447726011276,-1.0584038496017456,0.9805828928947449,0.9405279755592346,0.06160829961299896,-0.43202105164527893
6.832920074462891,-0.0555046908557415,-1.057259440422058,0.9802014231681824,0.951209306716919,0.06961929053068161,-0.44689860939979553
6.852994203567505,-0.05741206929087639,-1.0553520917892456,0.9782940149307251,0.9565499424934387,0.07534141838550568,-0.4545281231403351
6.873086452484131,-0.057793546468019485,-1.0538262128829956,0.9737163186073303,0.961509108543396,0.08144503086805344,-0.46177613735198975
6.893131971359253,-0.05855649709701538,-1.0568779706954956,0.9710460305213928,0.9866865277290344,0.08449683338403702,-0.482375830411911
6.913174867630005,-0.058175019919872284,-1.0610742568969727,0.9721904397010803,0.994316041469574,0.08106355369091034,-0.4865720570087433
6.933282852172852,-0.057793546468019485,-1.0652704238891602,0.9737163186073303,0.9985122680664062,0.07495994865894318,-0.49076828360557556
6.953368186950684,-0.057793546468019485,-1.0664149522781372,0.9744792580604553,1.0000381469726562,0.06656748056411743,-0.49267566204071045
6.97342848777771,-0.05855649709701538,-1.0660333633422852,0.9760051965713501,1.0019454956054688,0.06275273114442825,-0.49382010102272034
6.993473052978516,-0.05855649709701538,-1.0648889541625977,0.9802014231681824,1.0042344331741333,0.06656748056411743,-0.49496451020240784
7.0135657787323,-0.057793546468019485,-1.0637445449829102,0.9817273020744324,1.0191118717193604,0.071908138692379,-0.5098420977592468
7.033672571182251,-0.05893797054886818,-1.0629816055297852,0.9809643626213074,1.021400809288025,0.08182650804519653,-0.5121309161186218
7.053731679916382,-0.05855649709701538,-1.0626001358032227,0.9798199534416199,1.0236896276474,0.08602273464202881,-0.5163271427154541
7.0738420486450195,-0.05970092490315437,-1.0633630752563477,0.9763866662979126,1.0282673835754395,0.0864042118191719,-0.5228122472763062
7.093887567520142,-0.059319447726011276,-1.0652704238891602,0.9775310754776001,1.0328450202941895,0.07801175117492676,-0.5285343527793884
7.113969802856445,-0.059319447726011276,-1.0671778917312622,0.9786755442619324,1.0351338386535645,0.0707637146115303,-0.5312047004699707
7.134031295776367,-0.059319447726011276,-1.0675593614578247,0.9813458323478699,1.0370413064956665,0.06733043491840363,-0.5315861701965332
7.154173851013184,-0.05970092490315437,-1.0671778917312622,0.9866865277290344,1.041237473487854,0.06580453366041183,-0.5342565178871155
7.174277305603027,-0.059319447726011276,-1.0667964220046997,0.9885938763618469,1.0553520917892456,0.07267109304666519,-0.5502784848213196
7.194355726242065,-0.06008239835500717,-1.0656518936157227,0.9889753460884094,1.058022379875183,0.08106355369091034,-0.5521858334541321
7.214457035064697,-0.06046387553215027,-1.0648889541625977,0.9885938763618469,1.0599298477172852,0.0864042118191719,-0.5552376508712769
7.234469175338745,-0.06008239835500717,-1.0652704238891602,0.9847791194915771,1.0610742568969727,0.0871671661734581,-0.5579079985618591
7.254577875137329,-0.06160829961299896,-1.0675593614578247,0.9855420589447021,1.0755703449249268,0.08258945494890213,-0.5682078003883362
7.274659156799316,-0.06084534898400307,-1.0702296495437622,0.9855420589447021,1.0812923908233643,0.07572289556264877,-0.5701152086257935
7.294706106185913,-0.061226826161146164,-1.0709925889968872,0.9874494671821594,1.0839627981185913,0.06885633617639542,-0.5735484957695007
7.314798593521118,-0.06237125024199486,-1.0706111192703247,0.9920271635055542,1.0862516164779663,0.06580453366041183,-0.5754558444023132
7.334871768951416,-0.06198977679014206,-1.0702296495437622,0.9962233901023865,1.0923552513122559,0.06542305648326874,-0.5815594792366028
7.354973554611206,-0.06237125024199486,-1.0690852403640747,0.9977492690086365,1.0938811302185059,0.07839322835206985,-0.5853742361068726
7.375118255615234,-0.06275273114442825,-1.0679408311843872,0.9977492690086365,1.0961699485778809,0.08411535620689392,-0.5876630544662476
7.3951239585876465,-0.06237125024199486,-1.0679408311843872,0.996604859828949,1.0961699485778809,0.08411535620689392,-0.5888075232505798
7.41520094871521,-0.06160829961299896,-1.0706111192703247,0.9920271635055542,1.0984588861465454,0.08564125746488571,-0.5922408103942871
7.435281991958618,-0.06046387553215027,-1.0721369981765747,0.9905012845993042,1.1022735834121704,0.07534141838550568,-0.5956740379333496
7.45533561706543,-0.06046387553215027,-1.0732814073562622,0.9905012845993042,1.102655053138733,0.06733043491840363,-0.5975814461708069
7.475489616394043,-0.06046387553215027,-1.0736628770828247,0.9905012845993042,1.1030365228652954,0.06198977679014206,-0.5983443856239319
7.495611190795898,-0.06084534898400307,-1.0732814073562622,0.9924086332321167,1.1037994623184204,0.06275273114442825,-0.5983443856239319
7.5156800746917725,-0.06084534898400307,-1.0725184679031372,0.995841920375824,1.109140157699585,0.06427863240242004,-0.6017776727676392
7.535788536071777,-0.06198977679014206,-1.0717555284500122,0.9981307983398438,1.1198214292526245,0.07648584991693497,-0.613603413105011
7.555808782577515,-0.06275273114442825,-1.0709925889968872,0.997367799282074,1.1232547760009766,0.08220797777175903,-0.6181811094284058
7.575895547866821,-0.06275273114442825,-1.0713740587234497,0.9946975111961365,1.124399185180664,0.08220797777175903,-0.620088517665863
7.595970392227173,-0.06237125024199486,-1.0725184679031372,0.9931715726852417,1.1308842897415161,0.08258945494890213,-0.6269550919532776
7.616060495376587,-0.06160829961299896,-1.0748074054718018,0.9931715726852417,1.1343175172805786,0.0722896158695221,-0.6292439103126526
7.636239528656006,-0.061226826161146164,-1.0763332843780518,0.9946975111961365,1.1377508640289307,0.06504157930612564,-0.6326771974563599
7.656323671340942,-0.06160829961299896,-1.0767147541046143,0.9981307983398438,1.1385138034820557,0.05893797054886818,-0.6338216066360474
7.6764373779296875,-0.05970092490315437,-1.0763332843780518,1.0008010864257812,1.1430914402008057,0.058175019919872284,-0.6364919543266296
7.696492910385132,-0.06084534898400307,-1.0744259357452393,1.0034713745117188,1.1511024236679077,0.07267109304666519,-0.6456473469734192
7.716600656509399,-0.06046387553215027,-1.0732814073562622,1.0034713745117188,1.1522468328475952,0.08144503086805344,-0.649462103843689
7.73668909072876,-0.06046387553215027,-1.0728999376296997,1.0023269653320312,1.1522468328475952,0.08373387902975082,-0.6513695120811462
7.75676417350769,-0.06046387553215027,-1.0736628770828247,1.0004196166992188,1.1526284217834473,0.08487831056118011,-0.6521324515342712
7.7768425941467285,-0.06389715522527695,-1.0755703449249268,0.9992752075195312,1.1610208749771118,0.07915617525577545,-0.6589990258216858
7.796910762786865,-0.06389715522527695,-1.0774776935577393,0.9992752075195312,1.1655985116958618,0.06809338182210922,-0.6628137826919556
7.816979169845581,-0.06351567804813385,-1.0778591632843018,0.9996566772460938,1.1713206768035889,0.06160829961299896,-0.6631952524185181
7.837020635604858,-0.06504157930612564,-1.0778591632843018,1.0015640258789062,1.1720836162567139,0.05970092490315437,-0.6643396615982056
7.8571202754974365,-0.06542305648326874,-1.0767147541046143,1.0065232515335083,1.1747539043426514,0.06237125024199486,-0.6662470698356628
7.877232789993286,-0.06008239835500717,-1.0763332843780518,1.0072861909866333,1.179331660270691,0.06961929053068161,-0.6715877056121826
7.897308588027954,-0.06008239835500717,-1.0755703449249268,1.0069047212600708,1.180094599723816,0.07801175117492676,-0.6719691753387451
7.917362928390503,-0.05855649709701538,-1.0748074054718018,1.0057603120803833,1.180094599723816,0.08106355369091034,-0.6742580533027649
7.937439680099487,-0.05741206929087639,-1.0755703449249268,1.0027084350585938,1.1804760694503784,0.07953765243291855,-0.6773098111152649
7.95751166343689,-0.06008239835500717,-1.0770962238311768,1.0011825561523438,1.185816764831543,0.07648584991693497,-0.6818875670433044
7.977584600448608,-0.06084534898400307,-1.0786221027374268,1.0008010864257812,1.186579704284668,0.06656748056411743,-0.6826505064964294
7.997624158859253,-0.06160829961299896,-1.0790035724639893,1.0011825561523438,1.1884870529174805,0.061226826161146164,-0.6837949156761169
8.017708539962769,-0.06351567804813385,-1.0790035724639893,1.0030899047851562,1.189631462097168,0.059319447726011276,-0.6837949156761169
8.037774085998535,-0.06466010212898254,-1.0782406330108643,1.0076676607131958,1.191157341003418,0.06198977679014206,-0.6841763854026794
8.057852029800415,-0.05741206929087639,-1.0774776935577393,1.0084306001663208,1.19611656665802,0.06733043491840363,-0.689517080783844
8.077919006347656,-0.05741206929087639,-1.0767147541046143,1.0072861909866333,1.1987868547439575,0.07572289556264877,-0.6898985505104065
8.09800386428833,-0.05664911866188049,-1.0767147541046143,1.0061417818069458,1.1987868547439575,0.07839322835206985,-0.691805899143219
8.118090391159058,-0.057793546468019485,-1.0774776935577393,1.0019454956054688,1.199549913406372,0.07915617525577545,-0.6956206560134888
8.138160705566406,-0.05893797054886818,-1.0782406330108643,1.0011825561523438,1.201075792312622,0.07267109304666519,-0.698291003704071
8.158228397369385,-0.05855649709701538,-1.0797665119171143,1.0011825561523438,1.201838731765747,0.06694895774126053,-0.700579822063446
8.178308010101318,-0.05893797054886818,-1.0801479816436768,1.0023269653320312,1.2029831409454346,0.06237125024199486,-0.7009612917900085
8.198370695114136,-0.06008239835500717,-1.0797665119171143,1.0057603120803833,1.2045090198516846,0.06160829961299896,-0.7017242908477783
8.218433380126953,-0.06160829961299896,-1.0797665119171143,1.0103379487991333,1.2094682455062866,0.05855649709701538,-0.7059205174446106
8.238506555557251,-0.06237125024199486,-1.0786221027374268,1.0091935396194458,1.2129014730453491,0.07267109304666519,-0.7112611532211304
8.258578062057495,-0.06313420087099075,-1.0774776935577393,1.0069047212600708,1.2155718803405762,0.07724879682064056,-0.7135500311851501
8.278710842132568,-0.06466010212898254,-1.0782406330108643,1.0046159029006958,1.2193865776062012,0.07953765243291855,-0.7173647880554199
8.298785209655762,-0.06466010212898254,-1.0793850421905518,1.0042344331741333,1.2262531518936157,0.07267109304666519,-0.7242313027381897
8.318813562393188,-0.06275273114442825,-1.0812923908233643,1.0057603120803833,1.2304493188858032,0.06466010212898254,-0.7280460596084595
8.33906602859497,-0.06198977679014206,-1.0824369192123413,1.0084306001663208,1.2312123775482178,0.0555046908557415,-0.7303349375724792
8.359166145324707,-0.06198977679014206,-1.0824369192123413,1.0145342350006104,1.2331197261810303,0.05436026677489281,-0.7314793467521667
8.379256010055542,-0.06198977679014206,-1.0816738605499268,1.0164415836334229,1.2407492399215698,0.06008239835500717,-0.7413977384567261
8.399313688278198,-0.06275273114442825,-1.0797665119171143,1.0164415836334229,1.2422751188278198,0.07000076025724411,-0.7429236173629761
8.419355392456055,-0.06313420087099075,-1.0786221027374268,1.0160601139068604,1.2438009977340698,0.07572289556264877,-0.7455939650535583
8.439469814300537,-0.06313420087099075,-1.0786221027374268,1.0137712955474854,1.2445639371871948,0.07763027399778366,-0.7467383742332458
8.459535598754883,-0.06389715522527695,-1.0797665119171143,1.0130083560943604,1.2483787536621094,0.07763027399778366,-0.7494087219238281
8.479611873626709,-0.06351567804813385,-1.0820554494857788,1.0168230533599854,1.2533378601074219,0.06160829961299896,-0.7520790696144104
8.499661445617676,-0.06275273114442825,-1.0839627981185913,1.0194933414459229,1.2548638582229614,0.05207141116261482,-0.7536049485206604
8.51974630355835,-0.06237125024199486,-1.0839627981185913,1.0263599157333374,1.257534146308899,0.048256658017635345,-0.7558938264846802
8.539838075637817,-0.06046387553215027,-1.0828183889389038,1.0263599157333374,1.264019250869751,0.05893797054886818,-0.7661936283111572
8.559900522232056,-0.06198977679014206,-1.0805294513702393,1.0255969762802124,1.2651636600494385,0.06809338182210922,-0.7688639760017395
8.579941272735596,-0.06275273114442825,-1.0790035724639893,1.02521550655365,1.267071008682251,0.07457847148180008,-0.7711527943611145
8.600025177001953,-0.06237125024199486,-1.0790035724639893,1.0236896276474,1.2674524784088135,0.07457847148180008,-0.7726787328720093
8.620101690292358,-0.06313420087099075,-1.0809109210968018,1.0183489322662354,1.2689783573150635,0.07457847148180008,-0.7745860815048218
8.640171527862549,-0.06237125024199486,-1.0824369192123413,1.0164415836334229,1.273556113243103,0.06427863240242004,-0.777256429195404
8.660269737243652,-0.06198977679014206,-1.0843442678451538,1.0160601139068604,1.275081992149353,0.04940108209848404,-0.777256429195404
8.680438756942749,-0.06198977679014206,-1.0851072072982788,1.0156786441802979,1.2754634618759155,0.04558632895350456,-0.777256429195404
8.700554609298706,-0.06313420087099075,-1.0851072072982788,1.0172045230865479,1.275844931602478,0.04711223021149635,-0.7776378989219666
8.720545530319214,-0.06237125024199486,-1.0835813283920288,1.0210193395614624,1.2762264013290405,0.05092698708176613,-0.7784008383750916
8.740604162216187,-0.06046387553215027,-1.0828183889389038,1.022926688194275,1.2811856269836426,0.06046387553215027,-0.7848859429359436
8.760684490203857,-0.06046387553215027,-1.0812923908233643,1.0225452184677124,1.28233003616333,0.06961929053068161,-0.7864118218421936
8.780756950378418,-0.05970092490315437,-1.0805294513702393,1.02216374874115,1.28233003616333,0.071908138692379,-0.7867932915687561
8.800847291946411,-0.05855649709701538,-1.0809109210968018,1.0194933414459229,1.28233003616333,0.0711451917886734,-0.7867932915687561
8.821404218673706,-0.06466010212898254,-1.0824369192123413,1.0168230533599854,1.2842373847961426,0.06656748056411743,-0.7902265787124634
8.84143352508545,-0.06618601083755493,-1.0831998586654663,1.0164415836334229,1.2857633829116821,0.05359731614589691,-0.7925154566764832
8.861525058746338,-0.06618601083755493,-1.0843442678451538,1.0164415836334229,1.2869077920913696,0.048256658017635345,-0.7925154566764832
8.881587028503418,-0.06733043491840363,-1.0843442678451538,1.0172045230865479,1.2876707315444946,0.048256658017635345,-0.7925154566764832
8.901675939559937,-0.06885633617639542,-1.0835813283920288,1.0202564001083374,1.2888151407241821,0.05092698708176613,-0.7925154566764832
8.921756267547607,-0.06580453366041183,-1.0828183889389038,1.0206378698349,1.2911039590835571,0.05664911866188049,-0.7932783961296082
8.941828727722168,-0.06542305648326874,-1.0820554494857788,1.0191118717193604,1.2926298379898071,0.06733043491840363,-0.7944228053092957
8.96187138557434,-0.06542305648326874,-1.0816738605499268,1.0160601139068604,1.2930114269256592,0.0722896158695221,-0.7967116832733154
8.981959342956543,-0.06656748056411743,-1.0820554494857788,1.0160601139068604,1.2987334728240967,0.0715266615152359,-0.8012893795967102
9.002059698104858,-0.06542305648326874,-1.0843442678451538,1.0202564001083374,1.3025482892990112,0.059319447726011276,-0.802815318107605
9.02222204208374,-0.06389715522527695,-1.0866330862045288,1.024452567100525,1.3059815168380737,0.046730753034353256,-0.80663001537323
9.042315006256104,-0.06542305648326874,-1.0870145559310913,1.0236896276474,1.3078888654708862,0.04482337832450867,-0.8104447722434998
9.062471151351929,-0.06694895774126053,-1.0839627981185913,1.0183489322662354,1.3101778030395508,0.061226826161146164,-0.8184558153152466
9.082509756088257,-0.06847485899925232,-1.0805294513702393,1.0187304019927979,1.3124666213989258,0.05436026677489281,-0.8203631639480591
9.102832078933716,-0.06427863240242004,-1.0801479816436768,1.021400809288025,1.3166629076004028,0.050164032727479935,-0.8241779208183289
9.122931003570557,-0.06351567804813385,-1.0812923908233643,1.0210193395614624,1.3178073167800903,0.05397878959774971,-0.8268482685089111
9.143142461776733,-0.06923781335353851,-1.0820554494857788,1.0191118717193604,1.3242924213409424,0.057793546468019485,-0.8337147831916809
9.16357707977295,-0.07038223743438721,-1.0820554494857788,1.0179674625396729,1.3323034048080444,0.05207141116261482,-0.839436948299408
9.183696031570435,-0.06961929053068161,-1.0828183889389038,1.0191118717193604,1.335736632347107,0.04711223021149635,-0.8405813574790955
9.203866481781006,-0.07038223743438721,-1.0831998586654663,1.0210193395614624,1.3368810415267944,0.04291599988937378,-0.841725766658783
9.223872900009155,-0.07000076025724411,-1.0831998586654663,1.0255969762802124,1.3391698598861694,0.0398641936480999,-0.8424887657165527
9.243991613388062,-0.06504157930612564,-1.0828183889389038,1.0275044441223145,1.3433661460876465,0.04329747334122658,-0.8463035225868225
9.264090299606323,-0.06427863240242004,-1.0828183889389038,1.0275044441223145,1.3441290855407715,0.05092698708176613,-0.846684992313385
9.284167289733887,-0.06275273114442825,-1.0820554494857788,1.0263599157333374,1.3441290855407715,0.0558861680328846,-0.848210871219635
9.304632425308228,-0.061226826161146164,-1.0820554494857788,1.022926688194275,1.3441290855407715,0.0555046908557415,-0.8497368097305298
9.324763059616089,-0.06542305648326874,-1.0828183889389038,1.02216374874115,1.3490883111953735,0.05436026677489281,-0.8539330363273621
9.344786643981934,-0.06580453366041183,-1.0843442678451538,1.022926688194275,1.350995659828186,0.043678950518369675,-0.8543145060539246
9.364873886108398,-0.06694895774126053,-1.0851072072982788,1.0233081579208374,1.3521400690078735,0.03833829239010811,-0.8543145060539246
9.384925603866577,-0.06733043491840363,-1.0851072072982788,1.025978446006775,1.3536659479141235,0.03681239113211632,-0.8546959757804871
9.405032873153687,-0.06275273114442825,-1.0835813283920288,1.029411792755127,1.3555734157562256,0.03833829239010811,-0.8562218546867371
9.425103902816772,-0.06084534898400307,-1.0828183889389038,1.0297932624816895,1.3586251735687256,0.049782559275627136,-0.8611810207366943
9.44524073600769,-0.06160829961299896,-1.0824369192123413,1.0297932624816895,1.359006643295288,0.05245288833975792,-0.8623254895210266
9.465284824371338,-0.06198977679014206,-1.0820554494857788,1.0275044441223145,1.3586251735687256,0.05741206929087639,-0.8646143078804016
9.48548674583435,-0.06427863240242004,-1.0828183889389038,1.0225452184677124,1.3609139919281006,0.05703059583902359,-0.8665217161178589
9.505499839782715,-0.06389715522527695,-1.0839627981185913,1.0217822790145874,1.3635843992233276,0.04711223021149635,-0.8688105344772339
9.525593996047974,-0.06351567804813385,-1.0854886770248413,1.0217822790145874,1.3647288084030151,0.0394827201962471,-0.8691920638084412
9.545640707015991,-0.06389715522527695,-1.0862516164779663,1.0217822790145874,1.3654917478561401,0.03376058489084244,-0.8688105344772339
9.565751791000366,-0.06580453366041183,-1.0858701467514038,1.0233081579208374,1.3658732175827026,0.03337911143898964,-0.8688105344772339
9.585814476013184,-0.06694895774126053,-1.0847257375717163,1.027885913848877,1.3662546873092651,0.035667963325977325,-0.8691920638084412
9.605883121490479,-0.06618601083755493,-1.0839627981185913,1.0271228551864624,1.3670176267623901,0.049782559275627136,-0.8710994124412537
9.625932931900024,-0.06618601083755493,-1.0828183889389038,1.0225452184677124,1.3685435056686401,0.057793546468019485,-0.8722438216209412
9.646015167236328,-0.07000076025724411,-1.0828183889389038,1.0191118717193604,1.3712139129638672,0.06237125024199486,-0.8733882904052734
9.666105270385742,-0.07038223743438721,-1.0831998586654663,1.0191118717193604,1.3731212615966797,0.05359731614589691,-0.8764400482177734
9.686161756515503,-0.06885633617639542,-1.0854886770248413,1.0206378698349,1.3746471405029297,0.04634927958250046,-0.8779659867286682
9.706230401992798,-0.06885633617639542,-1.0858701467514038,1.02216374874115,1.3765544891357422,0.04100862145423889,-0.8787289261817932
9.726330280303955,-0.06923781335353851,-1.0854886770248413,1.0255969762802124,1.3773174285888672,0.040627144277095795,-0.8791103959083557
9.746388912200928,-0.06656748056411743,-1.0847257375717163,1.0271228551864624,1.3784618377685547,0.04100862145423889,-0.8802548050880432
9.766479969024658,-0.06656748056411743,-1.0831998586654663,1.025978446006775,1.3811322450637817,0.05664911866188049,-0.8821622133255005
9.786534309387207,-0.06771191209554672,-1.0816738605499268,1.024452567100525,1.3811322450637817,0.06046387553215027,-0.8836880922317505
9.806730508804321,-0.06771191209554672,-1.0820554494857788,1.0217822790145874,1.3845654726028442,0.06198977679014206,-0.8871213793754578
9.826833248138428,-0.06542305648326874,-1.0831998586654663,1.0236896276474,1.3895246982574463,0.051689937710762024,-0.88979172706604
9.847004413604736,-0.06466010212898254,-1.0858701467514038,1.0282673835754395,1.3918135166168213,0.03833829239010811,-0.89131760597229
9.867014408111572,-0.06389715522527695,-1.0873960256576538,1.0351338386535645,1.3933393955230713,0.02727550081908703,-0.8943694233894348
9.887124061584473,-0.06198977679014206,-1.0866330862045288,1.037422776222229,1.3944838047027588,0.029182879254221916,-0.8981841802597046
9.907210111618042,-0.06275273114442825,-1.0843442678451538,1.0355154275894165,1.3952468633651733,0.045204851776361465,-0.9000915288925171
9.927313804626465,-0.06389715522527695,-1.0824369192123413,1.032463550567627,1.3952468633651733,0.05359731614589691,-0.9027618765830994
9.947350025177002,-0.06618601083755493,-1.0805294513702393,1.0282673835754395,1.3963912725448608,0.05741206929087639,-0.9042877554893494
9.967525005340576,-0.06771191209554672,-1.0820554494857788,1.0320820808410645,1.402876377105713,0.048638131469488144,-0.9069581031799316
9.987660884857178,-0.06275273114442825,-1.0851072072982788,1.034752368927002,1.4063096046447754,0.039101243019104004,-0.9081025123596191
10.007876634597778,-0.06160829961299896,-1.0881589651107788,1.0378042459487915,1.4078354835510254,0.030708782374858856,-0.9100099205970764
10.027892112731934,-0.06237125024199486,-1.0881589651107788,1.043144941329956,1.409742832183838,0.022697795182466507,-0.9126802682876587
10.047982454299927,-0.06160829961299896,-1.0870145559310913,1.044670820236206,1.4105058908462524,0.02880140393972397,-0.9164950251579285
10.068073034286499,-0.06084534898400307,-1.0851072072982788,1.0442893505096436,1.410887360572815,0.0394827201962471,-0.9199283123016357
10.088124513626099,-0.06084534898400307,-1.0835813283920288,1.043144941329956,1.410887360572815,0.04749370738863945,-0.9225986003875732
10.108167886734009,-0.061226826161146164,-1.0839627981185913,1.0408560037612915,1.4112688302993774,0.04901960864663124,-0.9237430095672607
10.128266334533691,-0.06656748056411743,-1.0847257375717163,1.038948655128479,1.4158464670181274,0.04634927958250046,-0.9252689480781555
10.148344039916992,-0.06656748056411743,-1.0862516164779663,1.0385671854019165,1.4192798137664795,0.035667963325977325,-0.924887478351593
10.168429374694824,-0.06656748056411743,-1.0877774953842163,1.0385671854019165,1.421187162399292,0.02536812424659729,-0.9252689480781555
10.188481092453003,-0.06885633617639542,-1.0881589651107788,1.038948655128479,1.421187162399292,0.02231631986796856,-0.9252689480781555
10.208567142486572,-0.06961929053068161,-1.0877774953842163,1.041237473487854,1.4215686321258545,0.023460745811462402,-0.9252689480781555
10.228630781173706,-0.06275273114442825,-1.0866330862045288,1.043144941329956,1.421950101852417,0.03032730519771576,-0.9260318875312805
10.248696565628052,-0.059319447726011276,-1.0851072072982788,1.0435264110565186,1.4238574504852295,0.04329747334122658,-0.9279392957687378
10.268747329711914,-0.05893797054886818,-1.0851072072982788,1.0435264110565186,1.424238920211792,0.04558632895350456,-0.9302281141281128
10.288830041885376,-0.05741206929087639,-1.0851072072982788,1.042000412940979,1.4238574504852295,0.04596780240535736,-0.9313725233078003
10.308937549591064,-0.05970092490315437,-1.0862516164779663,1.038185715675354,1.424238920211792,0.04482337832450867,-0.9321355223655701
10.328973054885864,-0.06466010212898254,-1.0866330862045288,1.0378042459487915,1.425001859664917,0.032616160809993744,-0.9328984618186951
10.34903073310852,-0.06618601083755493,-1.0877774953842163,1.038948655128479,1.425764799118042,0.02536812424659729,-0.9332799315452576
10.369117498397827,-0.06771191209554672,-1.0877774953842163,1.039711594581604,1.4272907972335815,0.023460745811462402,-0.9328984618186951
10.389191150665283,-0.0707637146115303,-1.0873960256576538,1.042763352394104,1.428435206413269,0.024986648932099342,-0.9328984618186951
10.40929126739502,-0.06618601083755493,-1.0870145559310913,1.0450522899627686,1.429198145866394,0.026512550190091133,-0.9332799315452576
10.429317235946655,-0.06580453366041183,-1.0858701467514038,1.0442893505096436,1.429961085319519,0.040245670825242996,-0.9340428709983826
10.449414730072021,-0.06580453366041183,-1.0851072072982788,1.042000412940979,1.4303425550460815,0.045204851776361465,-0.9355688095092773
10.469488143920898,-0.06580453366041183,-1.0854886770248413,1.0362783670425415,1.430724024772644,0.046730753034353256,-0.9370946884155273
10.489571571350098,-0.06542305648326874,-1.0858701467514038,1.0355154275894165,1.4337759017944336,0.040245670825242996,-0.9397650361061096
10.509658813476562,-0.06542305648326874,-1.0873960256576538,1.0362783670425415,1.4345388412475586,0.028038453310728073,-0.9397650361061096
10.529827356338501,-0.06504157930612564,-1.0881589651107788,1.0370413064956665,1.4360647201538086,0.02384222112596035,-0.9397650361061096
10.549811601638794,-0.06618601083755493,-1.0877774953842163,1.038185715675354,1.4360647201538086,0.024605173617601395,-0.9397650361061096
10.569875955581665,-0.06618601083755493,-1.0870145559310913,1.042000412940979,1.436446189880371,0.02689402550458908,-0.9401465058326721
10.589972734451294,-0.06389715522527695,-1.0858701467514038,1.042763352394104,1.437209129333496,0.03795681521296501,-0.9416723847389221
10.610040664672852,-0.06427863240242004,-1.0851072072982788,1.042763352394104,1.437972068786621,0.04444190114736557,-0.9420538544654846
10.630128383636475,-0.06389715522527695,-1.0847257375717163,1.0408560037612915,1.437972068786621,0.046730753034353256,-0.9431982636451721
10.650285482406616,-0.06427863240242004,-1.0854886770248413,1.0378042459487915,1.437972068786621,0.04749370738863945,-0.9431982636451721
10.6703360080719,-0.06733043491840363,-1.0866330862045288,1.037422776222229,1.4414052963256836,0.038719769567251205,-0.9462500810623169
10.690448522567749,-0.06809338182210922,-1.0881589651107788,1.0378042459487915,1.4417868852615356,0.030708782374858856,-0.9470130205154419
10.710525751113892,-0.06923781335353851,-1.0881589651107788,1.0385671854019165,1.4436942338943481,0.02536812424659729,-0.9470130205154419
10.730577230453491,-0.0715266615152359,-1.0877774953842163,1.040474534034729,1.4436942338943481,0.025749599561095238,-0.9470130205154419
10.750762462615967,-0.0711451917886734,-1.0870145559310913,1.0442893505096436,1.4440757036209106,0.02880140393972397,-0.9470130205154419
10.770856618881226,-0.06923781335353851,-1.0866330862045288,1.043144941329956,1.4444571733474731,0.04291599988937378,-0.9473945498466492
10.791015386581421,-0.06923781335353851,-1.0858701467514038,1.0423818826675415,1.4452201128005981,0.046730753034353256,-0.9477760195732117
10.81097960472107,-0.06847485899925232,-1.0858701467514038,1.039711594581604,1.4448386430740356,0.04940108209848404,-0.9493018984794617
10.831030368804932,-0.06733043491840363,-1.0866330862045288,1.0378042459487915,1.4486533403396606,0.040245670825242996,-0.951209306716919
10.851153135299683,-0.06656748056411743,-1.0881589651107788,1.038185715675354,1.4517052173614502,0.032616160809993744,-0.951209306716919
10.871199131011963,-0.06580453366041183,-1.0889219045639038,1.0393301248550415,1.4517052173614502,0.026512550190091133,-0.951209306716919
10.891424417495728,-0.06618601083755493,-1.0893033742904663,1.0400930643081665,1.4520866870880127,0.026131074875593185,-0.9515907764434814
10.911566019058228,-0.06694895774126053,-1.0889219045639038,1.043144941329956,1.4528496265411377,0.027656977996230125,-0.9515907764434814
10.931743383407593,-0.06580453366041183,-1.0881589651107788,1.0435264110565186,1.4536125659942627,0.02841992862522602,-0.9523537158966064
10.951826810836792,-0.06771191209554672,-1.0858701467514038,1.038948655128479,1.4547569751739502,0.04406042397022247,-0.9546425342559814
10.971849918365479,-0.07457847148180008,-1.0851072072982788,1.0378042459487915,1.4574273824691772,0.04940108209848404,-0.9580758213996887
10.991977214813232,-0.07305257022380829,-1.0866330862045288,1.0378042459487915,1.4597162008285522,0.045204851776361465,-0.9588387608528137
11.012036800384521,-0.0722896158695221,-1.0885404348373413,1.041237473487854,1.4616235494613647,0.038719769567251205,-0.959220290184021
11.03210997581482,-0.071908138692379,-1.0900664329528809,1.045433759689331,1.4627679586410522,0.026131074875593185,-0.9603646993637085
11.052157878875732,-0.06427863240242004,-1.0904479026794434,1.0496299266815186,1.4627679586410522,0.02193484455347061,-0.9618905782699585
11.072330236434937,-0.06198977679014206,-1.0889219045639038,1.0465781688690186,1.4627679586410522,0.03604944050312042,-0.9645609259605408
11.092370510101318,-0.06466010212898254,-1.0866330862045288,1.0423818826675415,1.4631494283676147,0.04329747334122658,-0.9668498039245605
11.112406253814697,-0.06504157930612564,-1.0858701467514038,1.0393301248550415,1.4646753072738647,0.048256658017635345,-0.970283031463623
11.132460355758667,-0.06542305648326874,-1.0870145559310913,1.0393301248550415,1.4696345329284668,0.043678950518369675,-0.9733348488807678
11.152544498443604,-0.06542305648326874,-1.0896848440170288,1.043907880783081,1.4719233512878418,0.03528648987412453,-0.9737163186073303
11.172621011734009,-0.06351567804813385,-1.0908293724060059,1.047722578048706,1.4730678796768188,0.023079270496964455,-0.9733348488807678
11.19268274307251,-0.06046387553215027,-1.0904479026794434,1.0481040477752686,1.4734493494033813,0.025749599561095238,-0.9744792580604553
11.212841272354126,-0.06618601083755493,-1.0870145559310913,1.0481040477752686,1.4730678796768188,0.030708782374858856,-0.9763866662979126
11.232930898666382,-0.06618601083755493,-1.0831998586654663,1.041237473487854,1.4734493494033813,0.04444190114736557,-0.9779125452041626
11.253071784973145,-0.0707637146115303,-1.0820554494857788,1.0393301248550415,1.4742122888565063,0.04940108209848404,-0.9794384837150574
11.273159503936768,-0.06351567804813385,-1.0847257375717163,1.045433759689331,1.4776455163955688,0.040245670825242996,-0.9813458323478699
11.293181657791138,-0.06084534898400307,-1.0881589651107788,1.0473411083221436,1.482604742050171,0.04253452271223068,-0.9813458323478699
11.313301086425781,-0.061226826161146164,-1.0900664329528809,1.0465781688690186,1.482604742050171,0.04100862145423889,-0.9824903011322021
11.333341598510742,-0.06351567804813385,-1.0900664329528809,1.050774335861206,1.485656499862671,0.029564354568719864,-0.9836347103118896
11.353426933288574,-0.06198977679014206,-1.0900664329528809,1.053444743156433,1.485656499862671,0.02689402550458908,-0.9847791194915771
11.373483180999756,-0.06046387553215027,-1.0889219045639038,1.047722578048706,1.485656499862671,0.040245670825242996,-0.9859235286712646
11.393577814102173,-0.06427863240242004,-1.0870145559310913,1.043907880783081,1.485656499862671,0.04100862145423889,-0.9870679974555969
11.41364073753357,-0.06580453366041183,-1.0858701467514038,1.042000412940979,1.4860379695892334,0.048256658017635345,-0.9882124066352844
11.433708906173706,-0.06542305648326874,-1.0881589651107788,1.045433759689331,1.489852786064148,0.039101243019104004,-0.9889753460884094
11.45398473739624,-0.06275273114442825,-1.0893033742904663,1.0458152294158936,1.4887083768844604,0.03757534176111221,-0.9908827543258667
11.474116325378418,-0.06351567804813385,-1.0893033742904663,1.047722578048706,1.489089846611023,0.03223468363285065,-0.9920271635055542
11.494192838668823,-0.06237125024199486,-1.0889219045639038,1.046959638595581,1.4887083768844604,0.03376058489084244,-0.9939345121383667
11.514298439025879,-0.05703059583902359,-1.0877774953842163,1.0450522899627686,1.489089846611023,0.040245670825242996,-0.995841920375824
11.5343918800354,-0.056267641484737396,-1.0870145559310913,1.0416189432144165,1.4887083768844604,0.04787518084049225,-0.9969863295555115
11.554484367370605,-0.06237125024199486,-1.0870145559310913,1.0393301248550415,1.4887083768844604,0.05054550990462303,-0.9985122680664062
11.57456660270691,-0.06580453366041183,-1.0873960256576538,1.040474534034729,1.4887083768844604,0.04177157208323479,-0.9996566772460938
11.594630241394043,-0.06427863240242004,-1.0881589651107788,1.043144941329956,1.4887083768844604,0.03757534176111221,-1.0000381469726562
11.614720344543457,-0.06542305648326874,-1.0881589651107788,1.0442893505096436,1.489852786064148,0.03528648987412453,-0.9992752075195312
11.63483214378357,-0.06504157930612564,-1.0870145559310913,1.046959638595581,1.4902342557907104,0.035667963325977325,-0.9992752075195312
11.654903173446655,-0.06389715522527695,-1.0866330862045288,1.0488669872283936,1.492141604423523,0.040245670825242996,-0.9992752075195312
11.674936532974243,-0.06237125024199486,-1.0858701467514038,1.050011396408081,1.492141604423523,0.04711223021149635,-0.9988937377929688
11.694998979568481,-0.05970092490315437,-1.0851072072982788,1.051155924797058,1.492141604423523,0.04940108209848404,-0.9988937377929688
11.715100526809692,-0.05741206929087639,-1.0847257375717163,1.051918864250183,1.492141604423523,0.048638131469488144,-0.9992752075195312
11.735160827636719,-0.05359731614589691,-1.0851072072982788,1.0523003339767456,1.492141604423523,0.04749370738863945,-0.9992752075195312
11.755234479904175,-0.051689937710762024,-1.0851072072982788,1.052681803703308,1.492141604423523,0.04482337832450867,-0.9996566772460938
11.775309801101685,-0.049782559275627136,-1.0851072072982788,1.054207682609558,1.4925230741500854,0.04177157208323479,-0.9988937377929688
11.795397281646729,-0.04901960864663124,-1.0847257375717163,1.0561150312423706,1.4925230741500854,0.04177157208323479,-0.9988937377929688
11.815608501434326,-0.04901960864663124,-1.0847257375717163,1.057259440422058,1.492904543876648,0.04406042397022247,-0.9988937377929688
11.835583925247192,-0.048256658017635345,-1.0839627981185913,1.0584038496017456,1.4932860136032104,0.04634927958250046,-0.9988937377929688
11.855651617050171,-0.046730753034353256,-1.0831998586654663,1.0595483779907227,1.4940489530563354,0.04711223021149635,-0.9985122680664062
11.87573528289795,-0.045204851776361465,-1.0828183889389038,1.0603113174438477,1.4948118925094604,0.04787518084049225,-0.9985122680664062
11.895822763442993,-0.04291599988937378,-1.0828183889389038,1.0614557266235352,1.495193362236023,0.04711223021149635,-0.9985122680664062
11.915866136550903,-0.040245670825242996,-1.0828183889389038,1.0622186660766602,1.495193362236023,0.04711223021149635,-0.9988937377929688
11.935945987701416,-0.03795681521296501,-1.0828183889389038,1.0629816055297852,1.495956301689148,0.04558632895350456,-0.9985122680664062
11.956020832061768,-0.03643091395497322,-1.0828183889389038,1.0641260147094727,1.495956301689148,0.045204851776361465,-0.9985122680664062
11.976099729537964,-0.03604944050312042,-1.0828183889389038,1.0648889541625977,1.495956301689148,0.046730753034353256,-0.9988937377929688
11.996142625808716,-0.035667963325977325,-1.0820554494857788,1.0660333633422852,1.496337890625,0.04711223021149635,-0.9985122680664062
12.016221284866333,-0.03452353551983833,-1.0812923908233643,1.0671778917312622,1.4967193603515625,0.04711223021149635,-0.9985122680664062
12.036463260650635,-0.034142062067985535,-1.0809109210968018,1.0675593614578247,1.4974822998046875,0.04749370738863945,-0.9981307983398438
12.056472778320312,-0.032616160809993744,-1.0809109210968018,1.0690852403640747,1.4982452392578125,0.04749370738863945,-0.9981307983398438
12.076561212539673,-0.031090257689356804,-1.0809109210968018,1.0698481798171997,1.498626708984375,0.04901960864663124,-0.9981307983398438
12.096616506576538,-0.029182879254221916,-1.0805294513702393,1.0706111192703247,1.4990081787109375,0.048638131469488144,-0.9977492690086365
12.116696119308472,-0.028038453310728073,-1.0805294513702393,1.0709925889968872,1.4990081787109375,0.048638131469488144,-0.9981307983398438
12.136863946914673,-0.026131074875593185,-1.0805294513702393,1.0717555284500122,1.4990081787109375,0.048256658017635345,-0.9981307983398438
12.156968832015991,-0.02384222112596035,-1.0797665119171143,1.0725184679031372,1.4993896484375,0.048256658017635345,-0.9977492690086365
12.177017211914062,-0.02384222112596035,-1.0797665119171143,1.0732814073562622,1.4993896484375,0.048638131469488144,-0.9977492690086365
12.19706106185913,-0.022697795182466507,-1.0793850421905518,1.0744259357452393,1.4997711181640625,0.04787518084049225,-0.997367799282074
12.217159032821655,-0.02193484455347061,-1.0790035724639893,1.0755703449249268,1.500152587890625,0.049782559275627136,-0.996604859828949
12.237257719039917,-0.021171892061829567,-1.0786221027374268,1.0763332843780518,1.500152587890625,0.04901960864663124,-0.9954604506492615
12.257299423217773,-0.020027466118335724,-1.0786221027374268,1.0767147541046143,1.500152587890625,0.049782559275627136,-0.9954604506492615
12.277434825897217,-0.018501564860343933,-1.0786221027374268,1.0774776935577393,1.5005340576171875,0.050164032727479935,-0.9954604506492615
12.297476291656494,-0.016975661739706993,-1.0786221027374268,1.0782406330108643,1.5005340576171875,0.048256658017635345,-0.9954604506492615
12.317520380020142,-0.016212711110711098,-1.0786221027374268,1.0790035724639893,1.50091552734375,0.048638131469488144,-0.995078980922699
12.337692022323608,-0.01430533267557621,-1.0778591632843018,1.0790035724639893,1.50091552734375,0.04940108209848404,-0.995078980922699
12.357783794403076,-0.01430533267557621,-1.0774776935577393,1.0801479816436768,1.501678466796875,0.048256658017635345,-0.995078980922699
12.377868175506592,-0.013542382046580315,-1.0770962238311768,1.0809109210968018,1.5020599365234375,0.049782559275627136,-0.995078980922699
12.397940397262573,-0.012397955171763897,-1.0770962238311768,1.0812923908233643,1.50244140625,0.05130846053361893,-0.995078980922699
12.417999029159546,-0.01201647985726595,-1.0767147541046143,1.0820554494857788,1.503204345703125,0.050164032727479935,-0.9946975111961365
12.438098907470703,-0.01125352829694748,-1.0767147541046143,1.0828183889389038,1.503204345703125,0.05092698708176613,-0.9946975111961365
12.45822525024414,-0.010490577667951584,-1.0767147541046143,1.0831998586654663,1.5035858154296875,0.05092698708176613,-0.9946975111961365
12.47825813293457,-0.009346150793135166,-1.0767147541046143,1.0835813283920288,1.5039674043655396,0.050164032727479935,-0.9946975111961365
12.498347043991089,-0.007438773289322853,-1.0767147541046143,1.0843442678451538,1.5039674043655396,0.049782559275627136,-0.9946975111961365
12.518481492996216,-0.00667582219466567,-1.0763332843780518,1.0851072072982788,1.504348874092102,0.05130846053361893,-0.9946975111961365
12.538542747497559,-0.005149920005351305,-1.0759518146514893,1.0854886770248413,1.5047303438186646,0.05130846053361893,-0.994316041469574
12.55860424041748,-0.004386968910694122,-1.0755703449249268,1.0858701467514038,1.5047303438186646,0.05054550990462303,-0.994316041469574
12.578756332397461,-0.004386968910694122,-1.0755703449249268,1.0862516164779663,1.505111813545227,0.05092698708176613,-0.994316041469574
12.598853349685669,-0.0032425422687083483,-1.0751888751983643,1.0873960256576538,1.505874752998352,0.05245288833975792,-0.994316041469574
12.618908643722534,-0.002861066721379757,-1.0751888751983643,1.0873960256576538,1.506637692451477,0.05207141116261482,-0.9939345121383667
12.63909101486206,-0.0020981156267225742,-1.0748074054718018,1.0877774953842163,1.506637692451477,0.051689937710762024,-0.994316041469574
12.659188747406006,-0.0013351644156500697,-1.0748074054718018,1.0881589651107788,1.5070191621780396,0.05207141116261482,-0.994316041469574
12.67925500869751,-0.00019073777366429567,-1.0744259357452393,1.0885404348373413,1.5070191621780396,0.05207141116261482,-0.9939345121383667
12.699301958084106,0.000572213320992887,-1.0744259357452393,1.0889219045639038,1.507400631904602,0.051689937710762024,-0.9939345121383667
12.719382762908936,0.0013351644156500697,-1.0744259357452393,1.0896848440170288,1.507400631904602,0.051689937710762024,-0.9939345121383667
12.739479780197144,0.002861066721379757,-1.0744259357452393,1.0908293724060059,1.507400631904602,0.05092698708176613,-0.9939345121383667
12.759525775909424,0.002861066721379757,-1.0744259357452393,1.0912108421325684,1.507400631904602,0.05207141116261482,-0.9939345121383667
12.779575824737549,0.0036240178160369396,-1.0736628770828247,1.0915923118591309,1.5077821016311646,0.05245288833975792,-0.9935530424118042
12.7996666431427,0.004386968910694122,-1.0732814073562622,1.0915923118591309,1.508163571357727,0.05207141116261482,-0.9931715726852417
12.819734811782837,0.005149920005351305,-1.0732814073562622,1.0927367210388184,1.508163571357727,0.05245288833975792,-0.9927901029586792
12.839793682098389,0.005149920005351305,-1.0732814073562622,1.0931181907653809,1.5085450410842896,0.05245288833975792,-0.9927901029586792
12.859845399856567,0.007057297509163618,-1.0728999376296997,1.0934996604919434,1.5085450410842896,0.05207141116261482,-0.9927901029586792
12.87994384765625,0.007057297509163618,-1.0728999376296997,1.0934996604919434,1.508926510810852,0.05245288833975792,-0.9924086332321167
12.899996995925903,0.008201723918318748,-1.0725184679031372,1.0938811302185059,1.5093079805374146,0.05207141116261482,-0.9920271635055542
12.920072555541992,0.008964675478637218,-1.0725184679031372,1.0946440696716309,1.509689450263977,0.05207141116261482,-0.9920271635055542
12.940119504928589,0.008964675478637218,-1.0725184679031372,1.0950255393981934,1.510452389717102,0.05245288833975792,-0.9920271635055542
12.960235595703125,0.010109102353453636,-1.0725184679031372,1.0954070091247559,1.510452389717102,0.05245288833975792,-0.9920271635055542
12.980332612991333,0.010490577667951584,-1.0721369981765747,1.0957884788513184,1.5108338594436646,0.05245288833975792,-0.9920271635055542
13.000364542007446,0.01125352829694748,-1.0721369981765747,1.0965514183044434,1.5108338594436646,0.05207141116261482,-0.9916456937789917
13.020476341247559,0.012397955171763897,-1.0721369981765747,1.0969328880310059,1.511215329170227,0.05245288833975792,-0.9916456937789917
13.040539979934692,0.012779430486261845,-1.0721369981765747,1.0973143577575684,1.5115967988967896,0.05245288833975792,-0.9912642240524292
13.0606050491333,0.01430533267557621,-1.0713740587234497,1.0976959466934204,1.5119783878326416,0.05245288833975792,-0.9912642240524292
13.08074688911438,0.01430533267557621,-1.0709925889968872,1.098077416419983,1.5119783878326416,0.05245288833975792,-0.9916456937789917
13.100769996643066,0.01506828423589468,-1.0709925889968872,1.098840355873108,1.5119783878326416,0.053215838968753815,-0.9912642240524292
13.12088656425476,0.015449759550392628,-1.0706111192703247,1.0992218255996704,1.512359857559204,0.053215838968753815,-0.9912642240524292
13.140929222106934,0.016212711110711098,-1.0706111192703247,1.099603295326233,1.5127413272857666,0.05283436179161072,-0.9912642240524292
13.161019325256348,0.016594186425209045,-1.0706111192703247,1.099603295326233,1.513885736465454,0.05283436179161072,-0.9912642240524292
13.18106460571289,0.01735713705420494,-1.0706111192703247,1.100366234779358,1.5142672061920166,0.05245288833975792,-0.9912642240524292
13.20123291015625,0.01773861236870289,-1.0706111192703247,1.1007477045059204,1.5142672061920166,0.05245288833975792,-0.9908827543258667
13.221389055252075,0.01888304017484188,-1.0702296495437622,1.101129174232483,1.514648675918579,0.05245288833975792,-0.9908827543258667
13.241420984268188,0.01926451548933983,-1.0702296495437622,1.1015106439590454,1.514648675918579,0.05245288833975792,-0.9908827543258667
13.26154899597168,0.020027466118335724,-1.0702296495437622,1.1015106439590454,1.514648675918579,0.053215838968753815,-0.9908827543258667
13.28162956237793,0.021553369238972664,-1.0702296495437622,1.101892113685608,1.514648675918579,0.05283436179161072,-0.9908827543258667
13.301691770553589,0.021553369238972664,-1.0698481798171997,1.102655053138733,1.5150301456451416,0.05207141116261482,-0.9908827543258667
13.321810007095337,0.021553369238972664,-1.0694667100906372,1.1030365228652954,1.5150301456451416,0.05245288833975792,-0.9908827543258667
13.34182620048523,0.02193484455347061,-1.0694667100906372,1.1030365228652954,1.515411615371704,0.05245288833975792,-0.9908827543258667
13.361930131912231,0.022697795182466507,-1.0690852403640747,1.1037994623184204,1.5157930850982666,0.053215838968753815,-0.9908827543258667
13.382015228271484,0.023460745811462402,-1.0690852403640747,1.1037994623184204,1.5157930850982666,0.05397878959774971,-0.9908827543258667
13.402072429656982,0.02384222112596035,-1.0687037706375122,1.1037994623184204,1.516174554824829,0.053215838968753815,-0.9908827543258667
13.422221183776855,0.024605173617601395,-1.0687037706375122,1.104180932044983,1.516174554824829,0.05245288833975792,-0.9905012845993042
13.44232702255249,0.025749599561095238,-1.0687037706375122,1.104943871498108,1.5165560245513916,0.05245288833975792,-0.9908827543258667
13.462386846542358,0.02689402550458908,-1.0683223009109497,1.1053253412246704,1.5173189640045166,0.05283436179161072,-0.9905012845993042
13.482453107833862,0.026512550190091133,-1.0683223009109497,1.1053253412246704,1.517700433731079,0.053215838968753815,-0.9905012845993042
13.502504587173462,0.027656977996230125,-1.0683223009109497,1.1057069301605225,1.5180819034576416,0.05283436179161072,-0.9905012845993042
13.522616386413574,0.028038453310728073,-1.0683223009109497,1.106088399887085,1.5180819034576416,0.05359731614589691,-0.9901197552680969
13.542756795883179,0.02880140393972397,-1.0683223009109497,1.106088399887085,1.518463373184204,0.05283436179161072,-0.9901197552680969
13.562793493270874,0.02880140393972397,-1.0683223009109497,1.1064698696136475,1.518463373184204,0.05245288833975792,-0.9901197552680969
13.582842588424683,0.02880140393972397,-1.0683223009109497,1.10685133934021,1.518463373184204,0.05245288833975792,-0.9897382855415344
13.60301685333252,0.029564354568719864,-1.0683223009109497,1.107614278793335,1.5188448429107666,0.05283436179161072,-0.9901197552680969
13.623011589050293,0.02994582988321781,-1.0679408311843872,1.1079957485198975,1.5188448429107666,0.05283436179161072,-0.9897382855415344
13.643091917037964,0.031090257689356804,-1.0675593614578247,1.1079957485198975,1.5188448429107666,0.05359731614589691,-0.9897382855415344
13.66317629814148,0.03147173300385475,-1.0671778917312622,1.10837721824646,1.519226312637329,0.05283436179161072,-0.9893568158149719
13.683299779891968,0.03185320645570755,-1.0671778917312622,1.1087586879730225,1.519226312637329,0.05359731614589691,-0.9885938763618469
13.703328371047974,0.03185320645570755,-1.0671778917312622,1.109140157699585,1.5196079015731812,0.053215838968753815,-0.9874494671821594
13.723428010940552,0.03299763426184654,-1.0667964220046997,1.1095216274261475,1.5199893712997437,0.05283436179161072,-0.9874494671821594
13.743469715118408,0.03337911143898964,-1.0667964220046997,1.10990309715271,1.5203708410263062,0.053215838968753815,-0.9874494671821594
13.763545751571655,0.03376058489084244,-1.0664149522781372,1.10990309715271,1.5207523107528687,0.053215838968753815,-0.9874494671821594
13.783613681793213,0.034142062067985535,-1.0664149522781372,1.1102845668792725,1.5207523107528687,0.053215838968753815,-0.9874494671821594
13.803685903549194,0.03452353551983833,-1.0664149522781372,1.110666036605835,1.5211337804794312,0.053215838968753815,-0.9874494671821594
13.823742389678955,0.03604944050312042,-1.0664149522781372,1.1110475063323975,1.5215152502059937,0.05283436179161072,-0.9870679974555969
13.843913555145264,0.03604944050312042,-1.0664149522781372,1.11142897605896,1.5218967199325562,0.05283436179161072,-0.9870679974555969
13.863977432250977,0.03643091395497322,-1.0664149522781372,1.112191915512085,1.5218967199325562,0.05283436179161072,-0.9870679974555969
13.884047031402588,0.03643091395497322,-1.0660333633422852,1.112191915512085,1.5218967199325562,0.05397878959774971,-0.9870679974555969
13.904115200042725,0.037193864583969116,-1.0660333633422852,1.112191915512085,1.5222781896591187,0.05359731614589691,-0.9866865277290344
13.924245119094849,0.03795681521296501,-1.0660333633422852,1.113336443901062,1.5222781896591187,0.053215838968753815,-0.9866865277290344
13.944434642791748,0.03795681521296501,-1.0660333633422852,1.113336443901062,1.5226596593856812,0.05283436179161072,-0.9863049983978271
13.964454412460327,0.03833829239010811,-1.0660333633422852,1.1137179136276245,1.5226596593856812,0.05283436179161072,-0.9863049983978271
13.984588146209717,0.0394827201962471,-1.0652704238891602,1.114099383354187,1.5226596593856812,0.05283436179161072,-0.9866865277290344
14.004631519317627,0.0398641936480999,-1.0648889541625977,1.1144808530807495,1.5226596593856812,0.05359731614589691,-0.9863049983978271
14.02471375465393,0.040245670825242996,-1.0648889541625977,1.114862322807312,1.5234225988388062,0.05397878959774971,-0.9863049983978271
14.044810056686401,0.04139009863138199,-1.0648889541625977,1.1152437925338745,1.5234225988388062,0.05359731614589691,-0.9859235286712646
14.064939022064209,0.04177157208323479,-1.0648889541625977,1.115625262260437,1.5234225988388062,0.05397878959774971,-0.9847791194915771
14.08499813079834,0.042153049260377884,-1.0645074844360352,1.115625262260437,1.5238040685653687,0.05359731614589691,-0.9840161800384521
14.105064153671265,0.04291599988937378,-1.0645074844360352,1.115625262260437,1.5241855382919312,0.05359731614589691,-0.9840161800384521
14.125137329101562,0.04329747334122658,-1.0645074844360352,1.1160067319869995,1.5245670080184937,0.053215838968753815,-0.9840161800384521
14.145248174667358,0.043678950518369675,-1.0641260147094727,1.116388201713562,1.5249484777450562,0.053215838968753815,-0.9840161800384521
14.165411710739136,0.043678950518369675,-1.0641260147094727,1.116388201713562,1.5249484777450562,0.05397878959774971,-0.9840161800384521
14.185420274734497,0.04406042397022247,-1.0641260147094727,1.1167696714401245,1.5253299474716187,0.05397878959774971,-0.9840161800384521
14.205458164215088,0.04444190114736557,-1.0641260147094727,1.117151141166687,1.5257114171981812,0.05397878959774971,-0.9840161800384521
14.225684881210327,0.04482337832450867,-1.0641260147094727,1.1175326108932495,1.5257114171981812,0.05359731614589691,-0.9840161800384521
14.245733976364136,0.045204851776361465,-1.0641260147094727,1.1175326108932495,1.5257114171981812,0.05359731614589691,-0.9840161800384521
14.265851020812988,0.04558632895350456,-1.0641260147094727,1.1175326108932495,1.5260928869247437,0.05359731614589691,-0.9836347103118896
