liuyurong129/humanoid-gym/humanoid/data/actual_q_20250523-024634.csv
timestamp,joint_1,joint_2,joint_3,joint_4,joint_5,joint_6
5.221366882324219e-05,-0.0009536888683214784,0.17147326469421387,-0.0871671661734581,0.00019073777366429567,-0.000572213320992887,-0.00019073777366429567
0.020115137100219727,-0.0013351644156500697,0.1508735716342926,-0.07839322835206985,0.00019073777366429567,-0.0013351644156500697,0.00019073777366429567
0.040193796157836914,-0.0013351644156500697,0.12722209095954895,-0.06771191209554672,0.00019073777366429567,-0.0009536888683214784,-0.00019073777366429567
0.06023263931274414,-0.0009536888683214784,0.11081864684820175,-0.061226826161146164,0.00019073777366429567,0.0009536888683214784,-0.00019073777366429567
0.0803229808807373,-0.0009536888683214784,0.10166323184967041,-0.05970092490315437,0.00019073777366429567,-0.00019073777366429567,-0.00019073777366429567
0.10039353370666504,-0.0013351644156500697,0.09327077120542526,-0.05855649709701538,0.00019073777366429567,-0.000572213320992887,-0.00019073777366429567
0.1205439567565918,-0.0009536888683214784,0.0864042118191719,-0.05664911866188049,0.00019073777366429567,-0.0009536888683214784,-0.00019073777366429567
0.14055943489074707,-0.0009536888683214784,0.08030059933662415,-0.0558861680328846,0.00019073777366429567,-0.001716639962978661,-0.00019073777366429567
0.16064786911010742,-0.0009536888683214784,0.07381551712751389,-0.0558861680328846,0.00019073777366429567,-0.001716639962978661,-0.00019073777366429567
0.18069219589233398,-0.0009536888683214784,0.06885633617639542,-0.0558861680328846,0.00019073777366429567,-0.001716639962978661,-0.00019073777366429567
0.20073413848876953,-0.0009536888683214784,0.06466010212898254,-0.056267641484737396,-0.00019073777366429567,-0.0013351644156500697,-0.000572213320992887
0.22084331512451172,-0.0009536888683214784,0.06160829961299896,-0.056267641484737396,0.00019073777366429567,-0.001716639962978661,-0.000572213320992887
0.24096918106079102,-0.0013351644156500697,0.06046387553215027,-0.0558861680328846,-0.00019073777366429567,-0.0020981156267225742,-0.000572213320992887
0.26099371910095215,-0.0009536888683214784,0.059319447726011276,-0.0555046908557415,-0.00019073777366429567,-0.0020981156267225742,-0.000572213320992887
0.28113389015197754,-0.0009536888683214784,0.05855649709701538,-0.0551232174038887,0.00019073777366429567,-0.0020981156267225742,-0.000572213320992887
0.30116987228393555,-0.0009536888683214784,0.05664911866188049,-0.054741740226745605,0.00019073777366429567,-0.0020981156267225742,-0.0009536888683214784
0.32123494148254395,-0.0009536888683214784,0.054741740226745605,-0.054741740226745605,-0.00019073777366429567,-0.0024795911740511656,-0.0009536888683214784
0.34130191802978516,-0.0009536888683214784,0.05245288833975792,-0.0551232174038887,-0.00019073777366429567,-0.0024795911740511656,-0.0009536888683214784
0.36134862899780273,-0.0009536888683214784,0.05054550990462303,-0.054741740226745605,-0.00019073777366429567,-0.0020981156267225742,-0.0009536888683214784
0.3814356327056885,-0.0009536888683214784,0.048256658017635345,-0.054741740226745605,-0.00019073777366429567,-0.0024795911740511656,-0.0009536888683214784
0.4015188217163086,-0.0009536888683214784,0.04634927958250046,-0.054741740226745605,-0.00019073777366429567,-0.0024795911740511656,-0.0009536888683214784
0.4215703010559082,-0.0009536888683214784,0.04482337832450867,-0.05397878959774971,-0.00019073777366429567,-0.0024795911740511656,-0.0013351644156500697
0.44180798530578613,-0.0009536888683214784,0.04291599988937378,-0.05359731614589691,-0.00019073777366429567,-0.0024795911740511656,-0.0013351644156500697
0.46192049980163574,-0.0009536888683214784,0.040627144277095795,-0.053215838968753815,-0.00019073777366429567,-0.0024795911740511656,-0.0013351644156500697
0.48197269439697266,-0.0009536888683214784,0.03833829239010811,-0.053215838968753815,-0.00019073777366429567,-0.002861066721379757,-0.001716639962978661
0.5020174980163574,-0.0009536888683214784,0.03643091395497322,-0.053215838968753815,-0.00019073777366429567,-0.002861066721379757,-0.001716639962978661
0.522075891494751,-0.0009536888683214784,0.03452353551983833,-0.053215838968753815,-0.00019073777366429567,-0.002861066721379757,-0.001716639962978661
0.5421633720397949,-0.0009536888683214784,0.03147173300385475,-0.053215838968753815,-0.00019073777366429567,-0.0032425422687083483,-0.001716639962978661
0.5622355937957764,-0.0009536888683214784,0.02880140393972397,-0.05283436179161072,-0.00019073777366429567,-0.0032425422687083483,-0.001716639962978661
0.5822949409484863,-0.0009536888683214784,0.025749599561095238,-0.05283436179161072,-0.000572213320992887,-0.0032425422687083483,-0.0020981156267225742
0.6023647785186768,-0.0009536888683214784,0.022697795182466507,-0.05283436179161072,-0.000572213320992887,-0.0032425422687083483,-0.0020981156267225742
0.622462272644043,-0.0009536888683214784,0.020027466118335724,-0.05245288833975792,-0.000572213320992887,-0.0036240178160369396,-0.0020981156267225742
0.6425454616546631,-0.0009536888683214784,0.018501564860343933,-0.051689937710762024,-0.000572213320992887,-0.004005493130534887,-0.0024795911740511656
0.6625809669494629,-0.0009536888683214784,0.01583123579621315,-0.05130846053361893,-0.000572213320992887,-0.004386968910694122,-0.0032425422687083483
0.6827428340911865,-0.0009536888683214784,0.012779430486261845,-0.05092698708176613,-0.0009536888683214784,-0.004386968910694122,-0.0036240178160369396
0.702826976776123,-0.0009536888683214784,0.010109102353453636,-0.05092698708176613,-0.0009536888683214784,-0.00476844422519207,-0.004386968910694122
0.722886323928833,-0.0009536888683214784,0.007438773289322853,-0.05092698708176613,-0.0009536888683214784,-0.005531395319849253,-0.004386968910694122
0.7429494857788086,-0.0009536888683214784,0.0036240178160369396,-0.05054550990462303,-0.0013351644156500697,-0.005531395319849253,-0.00476844422519207
0.7630271911621094,-0.0009536888683214784,0.0009536888683214784,-0.050164032727479935,-0.0013351644156500697,-0.005912871100008488,-0.00476844422519207
0.7831029891967773,-0.0009536888683214784,-0.001716639962978661,-0.049782559275627136,-0.001716639962978661,-0.005912871100008488,-0.00476844422519207
0.8031489849090576,-0.0009536888683214784,-0.004005493130534887,-0.049782559275627136,-0.001716639962978661,-0.005912871100008488,-0.005149920005351305
0.8232505321502686,-0.0009536888683214784,-0.007438773289322853,-0.04901960864663124,-0.0020981156267225742,-0.006294346414506435,-0.005149920005351305
0.8433341979980469,-0.0009536888683214784,-0.011635004542768002,-0.04901960864663124,-0.0020981156267225742,-0.006294346414506435,-0.005149920005351305
0.8634469509124756,-0.0009536888683214784,-0.01506828423589468,-0.048638131469488144,-0.0024795911740511656,-0.006294346414506435,-0.005149920005351305
0.8834877014160156,-0.0009536888683214784,-0.02040894143283367,-0.048638131469488144,-0.0024795911740511656,-0.006294346414506435,-0.005531395319849253
0.903588056564331,-0.0009536888683214784,-0.024605173617601395,-0.048638131469488144,-0.002861066721379757,-0.006294346414506435,-0.005531395319849253
0.9237630367279053,-0.0009536888683214784,-0.02841992862522602,-0.04749370738863945,-0.002861066721379757,-0.00667582219466567,-0.005912871100008488
0.9437394142150879,-0.0009536888683214784,-0.03223468363285065,-0.04711223021149635,-0.002861066721379757,-0.00667582219466567,-0.006294346414506435
0.9637892246246338,-0.0009536888683214784,-0.03795681521296501,-0.04634927958250046,-0.0032425422687083483,-0.007057297509163618,-0.006294346414506435
0.9839060306549072,-0.0009536888683214784,-0.043678950518369675,-0.04558632895350456,-0.0032425422687083483,-0.007438773289322853,-0.007057297509163618
1.0039708614349365,-0.0009536888683214784,-0.050164032727479935,-0.045204851776361465,-0.0032425422687083483,-0.0078202486038208,-0.00858320016413927
1.0240373611450195,-0.0009536888683214784,-0.05703059583902359,-0.04482337832450867,-0.0036240178160369396,-0.008201723918318748,-0.00858320016413927
1.0440964698791504,-0.0009536888683214784,-0.06504157930612564,-0.04444190114736557,-0.0036240178160369396,-0.00858320016413927,-0.008964675478637218
1.064202070236206,-0.0009536888683214784,-0.07343403995037079,-0.04329747334122658,-0.004005493130534887,-0.009346150793135166,-0.008964675478637218
1.0843415260314941,-0.0009536888683214784,-0.08144503086805344,-0.04139009863138199,-0.004005493130534887,-0.009727626107633114,-0.009346150793135166
1.1043524742126465,-0.00019073777366429567,-0.08945601433515549,-0.0398641936480999,-0.004386968910694122,-0.010490577667951584,-0.009727626107633114
1.124403953552246,0.00019073777366429567,-0.10051880776882172,-0.03757534176111221,-0.005149920005351305,-0.01201647985726595,-0.010872052982449532
1.1444940567016602,0.00019073777366429567,-0.1180666834115982,-0.03299763426184654,-0.005912871100008488,-0.013542382046580315,-0.01201647985726595
1.1647381782531738,0.001716639962978661,-0.14133669435977936,-0.026512550190091133,-0.007438773289322853,-0.014686808921396732,-0.012779430486261845
1.18497896194458,0.0036240178160369396,-0.16308079659938812,-0.02193484455347061,-0.008201723918318748,-0.018120087683200836,-0.01430533267557621
1.20512056350708,0.005149920005351305,-0.17833982408046722,-0.01430533267557621,-0.008964675478637218,-0.019645990803837776,-0.016594186425209045
1.225182056427002,0.005531395319849253,-0.1848248988389969,-0.012779430486261845,-0.009727626107633114,-0.021553369238972664,-0.016594186425209045
1.2452514171600342,0.005149920005351305,-0.18558785319328308,-0.01125352829694748,-0.010490577667951584,-0.021553369238972664,-0.01735713705420494
1.2653584480285645,0.005149920005351305,-0.1848248988389969,-0.010109102353453636,-0.010490577667951584,-0.022697795182466507,-0.018120087683200836
1.2854557037353516,0.005149920005351305,-0.182917520403862,-0.009346150793135166,-0.010872052982449532,-0.023460745811462402,-0.01926451548933983
1.3055663108825684,0.005149920005351305,-0.1813916265964508,-0.008964675478637218,-0.010872052982449532,-0.024605173617601395,-0.019645990803837776
1.3255786895751953,0.005149920005351305,-0.1806286722421646,-0.008964675478637218,-0.01125352829694748,-0.02536812424659729,-0.019645990803837776
1.3456780910491943,0.005149920005351305,-0.1802472025156021,-0.0078202486038208,-0.01125352829694748,-0.025749599561095238,-0.019645990803837776
1.365760326385498,0.005531395319849253,-0.1802472025156021,-0.007057297509163618,-0.011635004542768002,-0.025749599561095238,-0.020027466118335724
1.3858606815338135,0.005531395319849253,-0.1802472025156021,-0.007057297509163618,-0.011635004542768002,-0.026131074875593185,-0.020027466118335724
1.4059576988220215,0.005912871100008488,-0.17986571788787842,-0.00667582219466567,-0.01201647985726595,-0.026512550190091133,-0.02040894143283367
1.4259862899780273,0.006294346414506435,-0.17986571788787842,-0.005531395319849253,-0.012397955171763897,-0.02689402550458908,-0.02079041674733162
1.4460556507110596,0.006294346414506435,-0.17986571788787842,-0.005149920005351305,-0.013542382046580315,-0.02689402550458908,-0.02079041674733162
1.4661123752593994,0.006294346414506435,-0.17910276353359222,-0.005149920005351305,-0.01430533267557621,-0.02727550081908703,-0.021171892061829567
1.486321210861206,0.00667582219466567,-0.17833982408046722,-0.004005493130534887,-0.01430533267557621,-0.027656977996230125,-0.02231631986796856
1.5064213275909424,0.007057297509163618,-0.17757686972618103,-0.0032425422687083483,-0.014686808921396732,-0.02841992862522602,-0.023460745811462402
1.5264112949371338,0.007438773289322853,-0.17719538509845734,-0.002861066721379757,-0.014686808921396732,-0.029564354568719864,-0.023460745811462402
1.5464487075805664,0.007438773289322853,-0.17681391537189484,-0.0024795911740511656,-0.01506828423589468,-0.02994582988321781,-0.02384222112596035
1.5665485858917236,0.007438773289322853,-0.17566949129104614,-0.001716639962978661,-0.01506828423589468,-0.03032730519771576,-0.02384222112596035
1.5866062641143799,0.007438773289322853,-0.17490653693675995,-0.0009536888683214784,-0.015449759550392628,-0.030708782374858856,-0.02384222112596035
1.6067383289337158,0.007438773289322853,-0.17414358258247375,-0.000572213320992887,-0.01583123579621315,-0.03147173300385475,-0.024223696440458298
1.6267476081848145,0.007438773289322853,-0.17376211285591125,0.00019073777366429567,-0.016212711110711098,-0.03185320645570755,-0.024605173617601395
1.6468324661254883,0.0078202486038208,-0.17299915850162506,0.0009536888683214784,-0.016594186425209045,-0.03223468363285065,-0.024986648932099342
1.666987419128418,0.008201723918318748,-0.17261768877506256,0.0013351644156500697,-0.01773861236870289,-0.03299763426184654,-0.025749599561095238
1.6870019435882568,0.008201723918318748,-0.17261768877506256,0.0020981156267225742,-0.018120087683200836,-0.03299763426184654,-0.026512550190091133
1.7070891857147217,0.008201723918318748,-0.17185473442077637,0.0020981156267225742,-0.018120087683200836,-0.03337911143898964,-0.02689402550458908
1.7271945476531982,0.00858320016413927,-0.17071031033992767,0.002861066721379757,-0.018501564860343933,-0.03337911143898964,-0.02689402550458908
1.747223138809204,0.00858320016413927,-0.17032882571220398,0.0032425422687083483,-0.018501564860343933,-0.03337911143898964,-0.02727550081908703
1.7674100399017334,0.00858320016413927,-0.16956588625907898,0.0036240178160369396,-0.01888304017484188,-0.03376058489084244,-0.027656977996230125
1.7875752449035645,0.009727626107633114,-0.16880293190479279,0.00476844422519207,-0.01888304017484188,-0.03452353551983833,-0.027656977996230125
1.8076272010803223,0.009727626107633114,-0.1676585078239441,0.005531395319849253,-0.01888304017484188,-0.03528648987412453,-0.027656977996230125
1.8277242183685303,0.009727626107633114,-0.1668955534696579,0.005531395319849253,-0.01926451548933983,-0.03528648987412453,-0.028038453310728073
1.847785472869873,0.009727626107633114,-0.1657511293888092,0.00667582219466567,-0.019645990803837776,-0.03604944050312042,-0.02841992862522602
1.8679156303405762,0.010109102353453636,-0.1653696447610855,0.007438773289322853,-0.019645990803837776,-0.03643091395497322,-0.02880140393972397
1.887958288192749,0.010490577667951584,-0.164988175034523,0.007438773289322853,-0.02040894143283367,-0.03681239113211632,-0.029182879254221916
1.9083046913146973,0.010490577667951584,-0.1646067053079605,0.008201723918318748,-0.021553369238972664,-0.03681239113211632,-0.030708782374858856
1.9283876419067383,0.010490577667951584,-0.1646067053079605,0.008201723918318748,-0.02193484455347061,-0.037193864583969116,-0.031090257689356804
1.9485113620758057,0.010490577667951584,-0.16346226632595062,0.009346150793135166,-0.022697795182466507,-0.037193864583969116,-0.03147173300385475
1.9685537815093994,0.010490577667951584,-0.16269932687282562,0.009346150793135166,-0.022697795182466507,-0.03757534176111221,-0.03185320645570755
1.9889380931854248,0.010490577667951584,-0.16155488789081573,0.010109102353453636,-0.023079270496964455,-0.03795681521296501,-0.03223468363285065
2.0090246200561523,0.010872052982449532,-0.16041046380996704,0.011635004542768002,-0.023460745811462402,-0.038719769567251205,-0.03299763426184654
2.0291616916656494,0.011635004542768002,-0.16002899408340454,0.012397955171763897,-0.024605173617601395,-0.0398641936480999,-0.034142062067985535
2.0492606163024902,0.011635004542768002,-0.15850308537483215,0.012397955171763897,-0.02536812424659729,-0.04100862145423889,-0.03452353551983833
2.0693788528442383,0.01201647985726595,-0.15735866129398346,0.013160906732082367,-0.025749599561095238,-0.04177157208323479,-0.03528648987412453
2.0894007682800293,0.012397955171763897,-0.15545128285884857,0.013542382046580315,-0.025749599561095238,-0.04253452271223068,-0.03528648987412453
2.109571933746338,0.012397955171763897,-0.15430685877799988,0.014686808921396732,-0.026131074875593185,-0.04329747334122658,-0.03528648987412453
2.1295688152313232,0.012397955171763897,-0.15392538905143738,0.01506828423589468,-0.026131074875593185,-0.043678950518369675,-0.03604944050312042
2.1496758460998535,0.012779430486261845,-0.15392538905143738,0.01583123579621315,-0.026512550190091133,-0.04444190114736557,-0.03681239113211632
2.1697750091552734,0.013160906732082367,-0.15316243469715118,0.016975661739706993,-0.02689402550458908,-0.04482337832450867,-0.03833829239010811
2.1898982524871826,0.01430533267557621,-0.1527809500694275,0.018120087683200836,-0.02727550081908703,-0.04596780240535736,-0.039101243019104004
2.20992112159729,0.01506828423589468,-0.15316243469715118,0.019645990803837776,-0.028038453310728073,-0.04787518084049225,-0.040245670825242996
2.2300286293029785,0.016212711110711098,-0.15316243469715118,0.023079270496964455,-0.02880140393972397,-0.04901960864663124,-0.042153049260377884
2.250084161758423,0.018501564860343933,-0.15316243469715118,0.02727550081908703,-0.02994582988321781,-0.05130846053361893,-0.04291599988937378
2.2702417373657227,0.020027466118335724,-0.15506981313228607,0.03185320645570755,-0.030708782374858856,-0.05245288833975792,-0.04482337832450867
2.290435552597046,0.022697795182466507,-0.16117341816425323,0.038719769567251205,-0.03299763426184654,-0.0555046908557415,-0.04634927958250046
2.310525417327881,0.025749599561095238,-0.17299915850162506,0.050164032727479935,-0.034142062067985535,-0.059319447726011276,-0.048638131469488144
2.330597400665283,0.029182879254221916,-0.18711376190185547,0.06046387553215027,-0.035667963325977325,-0.06160829961299896,-0.05054550990462303
2.3506650924682617,0.03299763426184654,-0.20351719856262207,0.0722896158695221,-0.03681239113211632,-0.06466010212898254,-0.053215838968753815
2.3708622455596924,0.03604944050312042,-0.21953918039798737,0.08564125746488571,-0.03757534176111221,-0.06694895774126053,-0.054741740226745605
2.3909752368927,0.03795681521296501,-0.23212787508964539,0.09822995215654373,-0.03757534176111221,-0.06847485899925232,-0.05741206929087639
2.4110641479492188,0.039101243019104004,-0.23861294984817505,0.10700388997793198,-0.03833829239010811,-0.06847485899925232,-0.058175019919872284
2.431126117706299,0.040245670825242996,-0.23899443447589874,0.11196307092905045,-0.03833829239010811,-0.07000076025724411,-0.059319447726011276
2.451317548751831,0.04100862145423889,-0.23785001039505005,0.11730372905731201,-0.0398641936480999,-0.0711451917886734,-0.06084534898400307
2.4714198112487793,0.04177157208323479,-0.23632410168647766,0.12149996310472488,-0.04100862145423889,-0.0722896158695221,-0.06160829961299896
2.491475820541382,0.04291599988937378,-0.23441672325134277,0.12493324279785156,-0.04177157208323479,-0.07457847148180008,-0.06275273114442825
2.5115230083465576,0.043678950518369675,-0.23250934481620789,0.12798504531383514,-0.042153049260377884,-0.07801175117492676,-0.06504157930612564
2.5317633152008057,0.045204851776361465,-0.23289081454277039,0.13103684782981873,-0.04291599988937378,-0.07991912961006165,-0.06542305648326874
2.551846742630005,0.04749370738863945,-0.23441672325134277,0.135233074426651,-0.04329747334122658,-0.08449683338403702,-0.06771191209554672
2.571915626525879,0.04901960864663124,-0.23632410168647766,0.13981078565120697,-0.04444190114736557,-0.0871671661734581,-0.06923781335353851
2.5919697284698486,0.05092698708176613,-0.23937590420246124,0.14591439068317413,-0.04558632895350456,-0.08945601433515549,-0.071908138692379
2.612046718597412,0.05397878959774971,-0.2443350851535797,0.15506981313228607,-0.04711223021149635,-0.09288929402828217,-0.07343403995037079
2.632112741470337,0.057793546468019485,-0.25120165944099426,0.1653696447610855,-0.04901960864663124,-0.09403372555971146,-0.07610437273979187
2.6522908210754395,0.061226826161146164,-0.2595941126346588,0.17605096101760864,-0.05054550990462303,-0.09670405089855194,-0.07763027399778366
2.672280788421631,0.06466010212898254,-0.26989394426345825,0.18596932291984558,-0.05245288833975792,-0.09899290651082993,-0.07991912961006165
2.692369222640991,0.06847485899925232,-0.2813382148742676,0.1974135935306549,-0.053215838968753815,-0.10204470902681351,-0.08106355369091034
2.7124292850494385,0.071908138692379,-0.2904936373233795,0.20809490978717804,-0.05397878959774971,-0.1039520874619484,-0.08373387902975082
2.7325282096862793,0.07534141838550568,-0.2965972423553467,0.2141985148191452,-0.05436026677489281,-0.10738536715507507,-0.08525978773832321
2.7525973320007324,0.07724879682064056,-0.29850462079048157,0.21992065012454987,-0.0555046908557415,-0.11043716967105865,-0.0871671661734581
2.772723913192749,0.07801175117492676,-0.2977416515350342,0.22297245264053345,-0.056267641484737396,-0.11196307092905045,-0.0883115902543068
2.792773485183716,0.07801175117492676,-0.2954528033733368,0.22487983107566833,-0.05703059583902359,-0.11272602528333664,-0.08869306743144989
2.812993288040161,0.07801175117492676,-0.2931639552116394,0.22602425515651703,-0.057793546468019485,-0.11425192654132843,-0.08983749151229858
2.832962989807129,0.07801175117492676,-0.2904936373233795,0.22716869413852692,-0.059319447726011276,-0.11539635062217712,-0.09098191559314728
2.853064775466919,0.07877469807863235,-0.28744181990623474,0.22716869413852692,-0.06046387553215027,-0.1180666834115982,-0.09250781685113907
2.873098373413086,0.07953765243291855,-0.28477150201797485,0.22716869413852692,-0.06160829961299896,-0.1203555315732956,-0.09517814964056015
2.8932363986968994,0.08068207651376724,-0.28286412358283997,0.2286945879459381,-0.06275273114442825,-0.12340734153985977,-0.09632257372140884
2.9132649898529053,0.08144503086805344,-0.28286412358283997,0.230601966381073,-0.06389715522527695,-0.12569619715213776,-0.09937438368797302
2.933309555053711,0.08335240930318832,-0.28324559330940247,0.23289081454277039,-0.06542305648326874,-0.12836651504039764,-0.1024261862039566
2.953547239303589,0.08525978773832321,-0.28324559330940247,0.23594263195991516,-0.06771191209554672,-0.13141833245754242,-0.10471503436565399
2.973691463470459,0.0871671661734581,-0.28439003229141235,0.23899443447589874,-0.06885633617639542,-0.1340886503458023,-0.10662241280078888
2.9938416481018066,0.08945601433515549,-0.28858625888824463,0.24166475236415863,-0.0711451917886734,-0.13790340721607208,-0.11005569249391556
3.0138776302337646,0.09136339277029037,-0.2935454249382019,0.2450980395078659,-0.0722896158695221,-0.14057374000549316,-0.11310750246047974
3.0340418815612793,0.09327077120542526,-0.29964902997016907,0.24967575073242188,-0.07305257022380829,-0.14248111844062805,-0.11539635062217712
3.054051399230957,0.09555962681770325,-0.30498969554901123,0.25387197732925415,-0.07343403995037079,-0.14591439068317413,-0.1184481605887413
3.0741119384765625,0.09708552807569504,-0.308804452419281,0.2573052644729614,-0.07495994865894318,-0.1489662081003189,-0.12149996310472488
3.094160556793213,0.09899290651082993,-0.3099488914012909,0.2595941126346588,-0.07610437273979187,-0.1520180106163025,-0.12417028844356537
3.1142454147338867,0.09975585341453552,-0.308804452419281,0.2618829607963562,-0.07686731964349747,-0.15430685877799988,-0.12607766687870026
3.1344175338745117,0.10013733059167862,-0.3061341345310211,0.2630273997783661,-0.07839322835206985,-0.15621423721313477,-0.12874799966812134
3.154470205307007,0.10051880776882172,-0.30422675609588623,0.2641718089580536,-0.07915617525577545,-0.15774014592170715,-0.12989242374897003
3.1747658252716064,0.10128175467252731,-0.30193790793418884,0.2653162479400635,-0.08030059933662415,-0.16155488789081573,-0.13218127191066742
3.194856643676758,0.10204470902681351,-0.30117493867874146,0.26722362637519836,-0.08220797777175903,-0.1653696447610855,-0.1333257108926773
3.2150189876556396,0.1024261862039566,-0.30155640840530396,0.26836803555488586,-0.08373387902975082,-0.1680399775505066,-0.1367589831352234
3.2350127696990967,0.1035706102848053,-0.30270084738731384,0.27027541399002075,-0.08525978773832321,-0.17147326469421387,-0.13981078565120697
3.255244493484497,0.10509651154279709,-0.30460822582244873,0.272945761680603,-0.0864042118191719,-0.17566949129104614,-0.14248111844062805
3.275197982788086,0.10662241280078888,-0.3068970739841461,0.2756160795688629,-0.0879301130771637,-0.17910276353359222,-0.14667734503746033
3.295311689376831,0.10814831405878067,-0.308041512966156,0.2782863974571228,-0.08945601433515549,-0.1825360506772995,-0.1508735716342926
3.315330982208252,0.11043716967105865,-0.3091859221458435,0.28286412358283997,-0.09136339277029037,-0.18673227727413177,-0.15583276748657227
3.3354578018188477,0.11234454810619354,-0.3110933005809784,0.28667888045310974,-0.09365224838256836,-0.19054703414440155,-0.15926603972911835
3.355556011199951,0.11425192654132843,-0.3122377395629883,0.290112167596817,-0.09632257372140884,-0.19359883666038513,-0.16308079659938812
3.3755931854248047,0.11577782779932022,-0.3130006790161133,0.291638046503067,-0.09784847497940063,-0.1966506391763687,-0.1665140837430954
3.395815372467041,0.11692225188016891,-0.31414511799812317,0.2927824854850769,-0.09899290651082993,-0.2004653960466385,-0.17032882571220398
3.4159014225006104,0.11768520623445511,-0.31567102670669556,0.2939268946647644,-0.10090028494596481,-0.20313572883605957,-0.17376211285591125
3.4359946250915527,0.1180666834115982,-0.31681543588638306,0.2954528033733368,-0.1028076633810997,-0.20656901597976685,-0.17795833945274353
3.4560415744781494,0.1188296303153038,-0.31948578357696533,0.2962157726287842,-0.10509651154279709,-0.21000228822231293,-0.1817730963230133
3.4762156009674072,0.12073700875043869,-0.32063019275665283,0.2977416515350342,-0.10624094307422638,-0.2134355753660202,-0.18520638346672058
3.4963254928588867,0.12226291000843048,-0.32024872303009033,0.29812315106391907,-0.10852979123592377,-0.21801327168941498,-0.18902114033699036
3.5163185596466064,0.12378881871700287,-0.31910428404808044,0.29850462079048157,-0.11043716967105865,-0.22144655883312225,-0.19283588230609894
3.536487579345703,0.12493324279785156,-0.31719690561294556,0.29888609051704407,-0.11272602528333664,-0.22373540699481964,-0.1970321238040924
3.55657696723938,0.12607766687870026,-0.31528952717781067,0.29926756024360657,-0.11577782779932022,-0.22602425515651703,-0.2004653960466385
3.5766334533691406,0.12760357558727264,-0.31376364827156067,0.29964902997016907,-0.11768520623445511,-0.2290760725736618,-0.20504310727119446
3.5967519283294678,0.12836651504039764,-0.31376364827156067,0.30003052949905396,-0.1203555315732956,-0.23212787508964539,-0.20885786414146423
3.6168293952941895,0.12912946939468384,-0.3130006790161133,0.30041199922561646,-0.12302586436271667,-0.23441672325134277,-0.21190966665744781
3.6369056701660156,0.13027389347553253,-0.3130006790161133,0.30079346895217896,-0.12493324279785156,-0.23746852576732635,-0.21648737788200378
3.6569740772247314,0.13103684782981873,-0.3130006790161133,0.30117493867874146,-0.12645913660526276,-0.24013885855674744,-0.21992065012454987
3.677018642425537,0.13218127191066742,-0.31414511799812317,0.30193790793418884,-0.12836651504039764,-0.24357213079929352,-0.22449836134910583
3.69710111618042,0.1329442262649536,-0.31414511799812317,0.30270084738731384,-0.13141833245754242,-0.2466239482164383,-0.2294575423002243
3.717174768447876,0.1340886503458023,-0.31414511799812317,0.30346378684043884,-0.1340886503458023,-0.2500572204589844,-0.23403525352478027
3.737286329269409,0.135233074426651,-0.31414511799812317,0.30346378684043884,-0.1371404528617859,-0.25387197732925415,-0.23746852576732635
3.757363796234131,0.1359960287809372,-0.31414511799812317,0.30346378684043884,-0.14019227027893066,-0.25654229521751404,-0.24128328263759613
3.777493953704834,0.13790340721607208,-0.31414511799812317,0.30384528636932373,-0.14286258816719055,-0.2599755823612213,-0.2454795092344284
3.797513723373413,0.13904783129692078,-0.31376364827156067,0.30422675609588623,-0.14629587531089783,-0.2641718089580536,-0.24891279637813568
3.8175649642944336,0.13942931592464447,-0.3130006790161133,0.30460822582244873,-0.1493476778268814,-0.266460657119751,-0.25387197732925415
3.8376595973968506,0.14133669435977936,-0.3118562698364258,0.30460822582244873,-0.15316243469715118,-0.26989394426345825,-0.2588311731815338
3.857715129852295,0.14248111844062805,-0.3103303611278534,0.30498969554901123,-0.15735866129398346,-0.2725642919540405,-0.2634088695049286
3.8778059482574463,0.14324407279491425,-0.3099488914012909,0.3057526648044586,-0.16117341816425323,-0.2748531401157379,-0.26836803555488586
3.897857189178467,0.14324407279491425,-0.3099488914012909,0.3057526648044586,-0.1657511293888092,-0.2771419882774353,-0.2725642919540405
3.9179270267486572,0.14438849687576294,-0.3099488914012909,0.3061341345310211,-0.16994735598564148,-0.2801937758922577,-0.2779049277305603
3.938034772872925,0.14553292095661163,-0.3099488914012909,0.3061341345310211,-0.17376211285591125,-0.28362706303596497,-0.28286412358283997
3.958134889602661,0.14629587531089783,-0.3099488914012909,0.3061341345310211,-0.17681391537189484,-0.28706035017967224,-0.28896772861480713
3.9782533645629883,0.14820325374603271,-0.309567391872406,0.3061341345310211,-0.1802472025156021,-0.2904936373233795,-0.2931639552116394
3.9982666969299316,0.14858472347259521,-0.308804452419281,0.3061341345310211,-0.1844434291124344,-0.2939268946647644,-0.2973601818084717
4.0183329582214355,0.1493476778268814,-0.3072785437107086,0.3061341345310211,-0.18825818598270416,-0.2965972423553467,-0.30270084738731384
4.038406610488892,0.1497291475534439,-0.3061341345310211,0.3061341345310211,-0.19245441257953644,-0.29888609051704407,-0.3084229826927185
4.058638095855713,0.1497291475534439,-0.3061341345310211,0.3061341345310211,-0.1981765478849411,-0.30193790793418884,-0.31414511799812317
4.0787413120269775,0.1504921019077301,-0.3057526648044586,0.3061341345310211,-0.20351719856262207,-0.3061341345310211,-0.31986725330352783
4.098826169967651,0.1516365259885788,-0.3057526648044586,0.3061341345310211,-0.20771344006061554,-0.3099488914012909,-0.3263523280620575
4.118882656097412,0.15316243469715118,-0.3057526648044586,0.3061341345310211,-0.21152819693088531,-0.31452658772468567,-0.33245593309402466
4.138973712921143,0.15392538905143738,-0.30537116527557373,0.3061341345310211,-0.2145799994468689,-0.31910428404808044,-0.3389410376548767
4.159084320068359,0.15545128285884857,-0.30460822582244873,0.3057526648044586,-0.21992065012454987,-0.3229190409183502,-0.343900203704834
4.179143667221069,0.15621423721313477,-0.30346378684043884,0.30537116527557373,-0.22411687672138214,-0.3263523280620575,-0.35076677799224854
4.199392557144165,0.15735866129398346,-0.30193790793418884,0.30498969554901123,-0.2290760725736618,-0.33054855465888977,-0.3572518527507782
4.219508171081543,0.15774014592170715,-0.30155640840530396,0.30384528636932373,-0.23441672325134277,-0.33398184180259705,-0.36373692750930786
4.239637851715088,0.15812161564826965,-0.30117493867874146,0.30231937766075134,-0.24013885855674744,-0.3381780683994293,-0.3706035017967224
4.259769439697266,0.15964750945568085,-0.30003052949905396,0.30155640840530396,-0.2447165697813034,-0.3419928252696991,-0.37823301553726196
4.27983021736145,0.16079194843769073,-0.29850462079048157,0.30041199922561646,-0.2481498420238495,-0.34542611241340637,-0.3858625292778015
4.30000376701355,0.16155488789081573,-0.2958342730998993,0.29850462079048157,-0.25234606862068176,-0.34847790002822876,-0.3934920132160187
4.320135593414307,0.16231784224510193,-0.2943083941936493,0.2969787120819092,-0.2576867341995239,-0.35152971744537354,-0.3999771177768707
4.340125560760498,0.16308079659938812,-0.2931639552116394,0.2958342730998993,-0.264934778213501,-0.3549630045890808,-0.4072251319885254
4.36019229888916,0.16384375095367432,-0.2931639552116394,0.2950713336467743,-0.27180132269859314,-0.3587777614593506,-0.41409170627593994
4.380283832550049,0.1646067053079605,-0.2924010157585144,0.2943083941936493,-0.2775234580039978,-0.3614480793476105,-0.421339750289917
4.400341749191284,0.1661325991153717,-0.290875107049942,0.2920195460319519,-0.2813382148742676,-0.36564430594444275,-0.42858776450157166
4.4206085205078125,0.1668955534696579,-0.28896772861480713,0.28934919834136963,-0.28820478916168213,-0.3694590628147125,-0.4350728690624237
4.4407548904418945,0.1676585078239441,-0.28477150201797485,0.28706035017967224,-0.2920195460319519,-0.3736552894115448,-0.44270238280296326
4.460909128189087,0.1680399775505066,-0.2821011543273926,0.28324559330940247,-0.2977416515350342,-0.3774700462818146,-0.44804301857948303
4.480947017669678,0.1680399775505066,-0.2813382148742676,0.2813382148742676,-0.30384528636932373,-0.38128480315208435,-0.4549095928668976
4.501140832901001,0.16880293190479279,-0.2813382148742676,0.2809567451477051,-0.3107118308544159,-0.3839551508426666,-0.46101319789886475
4.521132469177246,0.17071031033992767,-0.2817196846008301,0.2798123061656952,-0.31452658772468567,-0.3889143168926239,-0.4674982726573944
4.541346549987793,0.17261768877506256,-0.2809567451477051,0.2782863974571228,-0.31872281432151794,-0.39387351274490356,-0.4728389382362366
4.561435222625732,0.17414358258247375,-0.2744716703891754,0.2759975492954254,-0.3217746317386627,-0.39654383063316345,-0.47932401299476624
4.581529140472412,0.17452506721019745,-0.26989394426345825,0.27027541399002075,-0.32673379778862,-0.39806973934173584,-0.4842832088470459
4.601565361022949,0.17414358258247375,-0.26913100481033325,0.26798656582832336,-0.33398184180259705,-0.4015030264854431,-0.4884794354438782
4.621738910675049,0.17452506721019745,-0.2733272314071655,0.26951247453689575,-0.3412298858165741,-0.404173344373703,-0.49343863129615784
4.6418304443359375,0.17719538509845734,-0.2733272314071655,0.27065691351890564,-0.34657052159309387,-0.4079881012439728,-0.4987792670726776
4.661914348602295,0.1806286722421646,-0.26722362637519836,0.266460657119751,-0.34885939955711365,-0.41103988885879517,-0.5048828721046448
4.681958913803101,0.1806286722421646,-0.2595941126346588,0.2588311731815338,-0.34847790002822876,-0.41294726729393005,-0.5079346895217896
4.702044248580933,0.17795833945274353,-0.2584496736526489,0.25463491678237915,-0.3549630045890808,-0.41599908471107483,-0.5102235674858093
4.722234487533569,0.17757686972618103,-0.264934778213501,0.2603570520877838,-0.3587777614593506,-0.41485464572906494,-0.5163271427154541
4.742248773574829,0.182917520403862,-0.2725642919540405,0.2630273997783661,-0.36564430594444275,-0.422102689743042,-0.5189974904060364
4.762313604354858,0.18940261006355286,-0.27141985297203064,0.2615014910697937,-0.369840532541275,-0.43163958191871643,-0.5231937170028687
4.782395362854004,0.19092851877212524,-0.2588311731815338,0.2576867341995239,-0.36678874492645264,-0.43163958191871643,-0.5285343527793884
4.802455902099609,0.19054703414440155,-0.2500572204589844,0.2500572204589844,-0.3694590628147125,-0.42935073375701904,-0.5273899435997009
4.822560548782349,0.18635080754756927,-0.2504386901855469,0.2450980395078659,-0.3751811981201172,-0.43087664246559143,-0.5281528830528259
4.842621088027954,0.1840619444847107,-0.2615014910697937,0.24967575073242188,-0.3847180902957916,-0.4358358085155487,-0.5289158225059509
4.862660646438599,0.18902114033699036,-0.27065691351890564,0.2569237947463989,-0.3885328471660614,-0.4388876259326935,-0.5357823967933655
4.882723808288574,0.19512474536895752,-0.27065691351890564,0.2580682039260864,-0.3854810297489166,-0.44270238280296326,-0.5395971536636353
4.9028167724609375,0.1981765478849411,-0.2588311731815338,0.25272753834724426,-0.3778515160083771,-0.44728007912635803,-0.5407415628433228
4.922893762588501,0.19436179101467133,-0.2462424635887146,0.24319066107273102,-0.37975889444351196,-0.44499123096466064,-0.5395971536636353
4.9429450035095215,0.18787670135498047,-0.24090181291103363,0.23899443447589874,-0.3877699077129364,-0.44117647409439087,-0.54112309217453
4.963040590286255,0.1836804747581482,-0.2458609938621521,0.23746852576732635,-0.39845120906829834,-0.44270238280296326,-0.54264897108078
4.983113527297974,0.1844434291124344,-0.2588311731815338,0.2443350851535797,-0.4068436622619629,-0.4495689272880554,-0.543411910533905
5.003274440765381,0.18749523162841797,-0.27103838324546814,0.2500572204589844,-0.4053177833557129,-0.4537651538848877,-0.5498970150947571
5.023311614990234,0.18940261006355286,-0.2740901708602905,0.24967575073242188,-0.39692530035972595,-0.4514763057231903,-0.5510414242744446
5.04364538192749,0.19092851877212524,-0.26951247453689575,0.2473868876695633,-0.3873884081840515,-0.4507133662700653,-0.5498970150947571
5.063786506652832,0.19207294285297394,-0.25349050760269165,0.2443350851535797,-0.3847180902957916,-0.44537270069122314,-0.5495155453681946
5.083873748779297,0.19245441257953644,-0.23937590420246124,0.23632410168647766,-0.3915846347808838,-0.4381246566772461,-0.5483710765838623
5.103961706161499,0.19130998849868774,-0.2286945879459381,0.23289081454277039,-0.4007400572299957,-0.4396505653858185,-0.5506599545478821
5.124022483825684,0.19016556441783905,-0.22716869413852692,0.230601966381073,-0.41218432784080505,-0.44308385252952576,-0.5502784848213196
5.144075393676758,0.18863965570926666,-0.23441672325134277,0.230601966381073,-0.4209582805633545,-0.4488059878349304,-0.5506599545478821
5.164163589477539,0.18940261006355286,-0.25463491678237915,0.23670557141304016,-0.4224841594696045,-0.4560540020465851,-0.5518043637275696
5.1842145919799805,0.19169145822525024,-0.27180132269859314,0.24319066107273102,-0.41599908471107483,-0.464446485042572,-0.5544747114181519
5.204516887664795,0.19283588230609894,-0.2809567451477051,0.2454795092344284,-0.4060807228088379,-0.45834288001060486,-0.5552376508712769
5.224684000015259,0.19321736693382263,-0.2801937758922577,0.2439536154270172,-0.3934920132160187,-0.4549095928668976,-0.5563820600509644
5.244748830795288,0.19359883666038513,-0.273708701133728,0.24280919134616852,-0.3927290737628937,-0.4488059878349304,-0.5540932416915894
5.26485538482666,0.19359883666038513,-0.2588311731815338,0.24128328263759613,-0.39921414852142334,-0.44079500436782837,-0.5548561811447144
5.284902095794678,0.19474326074123383,-0.24319066107273102,0.23212787508964539,-0.41103988885879517,-0.44117647409439087,-0.5548561811447144
5.305049180984497,0.19245441257953644,-0.2317463904619217,0.22335393726825714,-0.4205767810344696,-0.44766154885292053,-0.5544747114181519
5.325088262557983,0.1848248988389969,-0.23250934481620789,0.21992065012454987,-0.4343098998069763,-0.4503318965435028,-0.5548561811447144
5.345430374145508,0.1813916265964508,-0.2473868876695633,0.22564278542995453,-0.439269095659256,-0.4541466534137726,-0.5563820600509644
5.365558385848999,0.1848248988389969,-0.2595941126346588,0.23517967760562897,-0.43011367321014404,-0.4560540020465851,-0.5628671646118164
5.385636568069458,0.19245441257953644,-0.2630273997783661,0.23632410168647766,-0.41218432784080505,-0.45872434973716736,-0.5609598159790039
5.4057111740112305,0.1974135935306549,-0.25158312916755676,0.230601966381073,-0.39692530035972595,-0.45834288001060486,-0.5621042251586914
5.425994396209717,0.1966506391763687,-0.23785001039505005,0.22449836134910583,-0.39692530035972595,-0.4560540020465851,-0.5605783462524414
5.4461517333984375,0.19283588230609894,-0.2313649207353592,0.21877622604370117,-0.41027694940567017,-0.4503318965435028,-0.5613412857055664
5.466139078140259,0.18978407979011536,-0.23708705604076385,0.22030213475227356,-0.42553597688674927,-0.4514763057231903,-0.5624856948852539
5.486302375793457,0.19359883666038513,-0.2500572204589844,0.2286945879459381,-0.4365987777709961,-0.4560540020465851,-0.5632486343383789
5.506372690200806,0.1970321238040924,-0.2615014910697937,0.23670557141304016,-0.4377431869506836,-0.4537651538848877,-0.5670633912086487
5.5264506340026855,0.1977950781583786,-0.2615014910697937,0.23937590420246124,-0.42668038606643677,-0.4537651538848877,-0.570496678352356
5.54655647277832,0.1985580176115036,-0.25234606862068176,0.23441672325134277,-0.41027694940567017,-0.4518577754497528,-0.5685893297195435
5.566648483276367,0.1962691694498062,-0.23937590420246124,0.22487983107566833,-0.4068436622619629,-0.44804301857948303,-0.5663004517555237
5.586737394332886,0.19283588230609894,-0.2286945879459381,0.21877622604370117,-0.41065841913223267,-0.4549095928668976,-0.5674448609352112
5.606774568557739,0.18825818598270416,-0.22716869413852692,0.21763180196285248,-0.4194323718547821,-0.45643550157546997,-0.5674448609352112
5.626867771148682,0.1844434291124344,-0.23861294984817505,0.21877622604370117,-0.43240252137184143,-0.46063172817230225,-0.5670633912086487
5.64693021774292,0.18940261006355286,-0.25158312916755676,0.2302204966545105,-0.4381246566772461,-0.4674982726573944,-0.5708781480789185
5.66700291633606,0.1981765478849411,-0.25577935576438904,0.23517967760562897,-0.42515450716018677,-0.4663538634777069,-0.5739299654960632
5.687199354171753,0.20237277448177338,-0.24967575073242188,0.2298390120267868,-0.41561761498451233,-0.4659723937511444,-0.5708781480789185
5.707251071929932,0.20084688067436218,-0.23708705604076385,0.22297245264053345,-0.41447317600250244,-0.4655908942222595,-0.5708781480789185
5.7273008823394775,0.1962691694498062,-0.2294575423002243,0.21915769577026367,-0.41561761498451233,-0.4488059878349304,-0.5727855563163757
5.747377157211304,0.19245441257953644,-0.2302204966545105,0.21801327168941498,-0.42591744661331177,-0.4491874575614929,-0.572022557258606
5.767489433288574,0.19092851877212524,-0.24280919134616852,0.22182802855968475,-0.4343098998069763,-0.4526207447052002,-0.5731670260429382
5.78751277923584,0.19321736693382263,-0.2599755823612213,0.2317463904619217,-0.4388876259326935,-0.46177613735198975,-0.5743114352226257
5.807615518569946,0.19436179101467133,-0.26760509610176086,0.23594263195991516,-0.4377431869506836,-0.46177613735198975,-0.5743114352226257
5.827756404876709,0.1958876997232437,-0.264934778213501,0.23632410168647766,-0.42515450716018677,-0.46139466762542725,-0.5766003131866455
5.84782338142395,0.1966506391763687,-0.25272753834724426,0.23250934481620789,-0.41561761498451233,-0.45948728919029236,-0.5746929049491882
5.867988348007202,0.19512474536895752,-0.23556114733219147,0.22220951318740845,-0.4186694025993347,-0.45643550157546997,-0.5727855563163757
5.88799524307251,0.19130998849868774,-0.22564278542995453,0.2153429538011551,-0.42668038606643677,-0.45910581946372986,-0.5735484957695007
5.908069610595703,0.18558785319328308,-0.22678720951080322,0.2134355753660202,-0.438506156206131,-0.46215763688087463,-0.5735484957695007
5.928180694580078,0.1832990050315857,-0.24242770671844482,0.21953918039798737,-0.4499503970146179,-0.4640650153160095,-0.5739299654960632
5.948218584060669,0.18902114033699036,-0.25616082549095154,0.2309834510087967,-0.44689860939979553,-0.4701686203479767,-0.5807965397834778
5.968288421630859,0.1974135935306549,-0.2607385218143463,0.23403525352478027,-0.4362172782421112,-0.4709315598011017,-0.5758373141288757
5.988345146179199,0.20199130475521088,-0.25387197732925415,0.2309834510087967,-0.4224841594696045,-0.4724574685096741,-0.5773632526397705
6.008454084396362,0.20237277448177338,-0.23441672325134277,0.22335393726825714,-0.4201953113079071,-0.4705500900745392,-0.576218843460083
6.028601169586182,0.1981765478849411,-0.22373540699481964,0.2145799994468689,-0.4243915379047394,-0.45643550157546997,-0.5750743746757507
6.048582553863525,0.19092851877212524,-0.22297245264053345,0.21190966665744781,-0.4365987777709961,-0.45986875891685486,-0.5746929049491882
6.0688316822052,0.18635080754756927,-0.23289081454277039,0.2149614691734314,-0.4488059878349304,-0.464446485042572,-0.576218843460083
6.088918209075928,0.18558785319328308,-0.2458609938621521,0.22449836134910583,-0.45681697130203247,-0.4655908942222595,-0.578507661819458
6.109009265899658,0.19398032128810883,-0.25158312916755676,0.2317463904619217,-0.44384679198265076,-0.4736018776893616,-0.5846112966537476
6.129058837890625,0.20237277448177338,-0.24891279637813568,0.22678720951080322,-0.43240252137184143,-0.4797055125236511,-0.5788891315460205
6.149167060852051,0.20122835040092468,-0.23250934481620789,0.21992065012454987,-0.4228656589984894,-0.4797055125236511,-0.5811780095100403
6.16929817199707,0.19474326074123383,-0.21992065012454987,0.2130540907382965,-0.4232471287250519,-0.47436484694480896,-0.5811780095100403
6.189405679702759,0.19016556441783905,-0.21953918039798737,0.21229113638401031,-0.43087664246559143,-0.4720759987831116,-0.5788891315460205
6.209482908248901,0.18673227727413177,-0.23441672325134277,0.2153429538011551,-0.44232088327407837,-0.47703516483306885,-0.5788891315460205
6.229551315307617,0.18940261006355286,-0.25158312916755676,0.22640573978424072,-0.4507133662700653,-0.4842832088470459,-0.579270601272583
6.2496497631073,0.19474326074123383,-0.2599755823612213,0.23594263195991516,-0.4484245181083679,-0.4819943606853485,-0.5884260535240173
6.26968789100647,0.200083926320076,-0.25501641631126404,0.23403525352478027,-0.4358358085155487,-0.483138769865036,-0.5861371755599976
6.2898759841918945,0.20084688067436218,-0.23594263195991516,0.22487983107566833,-0.43011367321014404,-0.4835202693939209,-0.5846112966537476
6.309949159622192,0.1970321238040924,-0.22297245264053345,0.2145799994468689,-0.4331654906272888,-0.47741663455963135,-0.5865186452865601
6.329988479614258,0.19130998849868774,-0.21839475631713867,0.21152819693088531,-0.44270238280296326,-0.47589075565338135,-0.5857557058334351
6.350075006484985,0.18711376190185547,-0.22487983107566833,0.21076524257659912,-0.4530022144317627,-0.47589075565338135,-0.5857557058334351
6.370138168334961,0.18749523162841797,-0.24319066107273102,0.21801327168941498,-0.46101319789886475,-0.4835202693939209,-0.5857557058334351
6.390182733535767,0.19207294285297394,-0.2584496736526489,0.22755016386508942,-0.45681697130203247,-0.49153125286102295,-0.5922408103942871
6.410296678543091,0.19550621509552002,-0.2645532786846161,0.23250934481620789,-0.44613564014434814,-0.4854276478290558,-0.5918593406677246
6.430405378341675,0.1993209719657898,-0.2615014910697937,0.23365376889705658,-0.43163958191871643,-0.483138769865036,-0.5918593406677246
6.450450420379639,0.20084688067436218,-0.2470054179430008,0.2302204966545105,-0.43049514293670654,-0.4797055125236511,-0.5884260535240173
6.470556735992432,0.20084688067436218,-0.22755016386508942,0.22220951318740845,-0.4362172782421112,-0.4694056510925293,-0.5891889929771423
6.4906580448150635,0.1997024416923523,-0.2153429538011551,0.2161058932542801,-0.44766154885292053,-0.47741663455963135,-0.5880445837974548
6.5107316970825195,0.1989395022392273,-0.21000228822231293,0.2157244235277176,-0.45834288001060486,-0.47932401299476624,-0.5880445837974548
6.531104803085327,0.1985580176115036,-0.212672621011734,0.2161058932542801,-0.4667353332042694,-0.4819943606853485,-0.5914778113365173
6.551215887069702,0.1974135935306549,-0.22487983107566833,0.21686884760856628,-0.4659723937511444,-0.49038681387901306,-0.5922408103942871
6.571394920349121,0.1981765478849411,-0.24280919134616852,0.22259098291397095,-0.46101319789886475,-0.4968718886375427,-0.5914778113365173
6.591418981552124,0.1981765478849411,-0.25501641631126404,0.22526131570339203,-0.44766154885292053,-0.4953460097312927,-0.5941481590270996
6.61149525642395,0.1989395022392273,-0.2595941126346588,0.22449836134910583,-0.4358358085155487,-0.49000534415245056,-0.5937666893005371
6.631575345993042,0.1993209719657898,-0.25654229521751404,0.22373540699481964,-0.42935073375701904,-0.4865720570087433,-0.5933852195739746
6.651683807373047,0.200083926320076,-0.248531311750412,0.22411687672138214,-0.43202105164527893,-0.4812313914299011,-0.5926222801208496
6.67183518409729,0.20122835040092468,-0.2286945879459381,0.21877622604370117,-0.4396505653858185,-0.4720759987831116,-0.5926222801208496
6.691928863525391,0.20275425910949707,-0.2130540907382965,0.21000228822231293,-0.4518577754497528,-0.47627222537994385,-0.5918593406677246
6.712029695510864,0.20084688067436218,-0.20771344006061554,0.20428015291690826,-0.45986875891685486,-0.4835202693939209,-0.5888075232505798
6.732065200805664,0.1966506391763687,-0.21190966665744781,0.200083926320076,-0.4728389382362366,-0.4861905872821808,-0.5888075232505798
6.752140522003174,0.19245441257953644,-0.22526131570339203,0.20389868319034576,-0.4724574685096741,-0.49000534415245056,-0.5907148718833923
6.772284984588623,0.1977950781583786,-0.23975738883018494,0.2141985148191452,-0.45719844102859497,-0.49458304047584534,-0.5945296287536621
6.7922399044036865,0.20504310727119446,-0.2447165697813034,0.2145799994468689,-0.44384679198265076,-0.49114975333213806,-0.5876630544662476
6.812747001647949,0.21000228822231293,-0.23785001039505005,0.21152819693088531,-0.43049514293670654,-0.49229419231414795,-0.5888075232505798
6.83289909362793,0.21114671230316162,-0.22068360447883606,0.20656901597976685,-0.4327840209007263,-0.4880979657173157,-0.5869001150131226
6.852990388870239,0.20771344006061554,-0.20847637951374054,0.200083926320076,-0.44460976123809814,-0.47512778639793396,-0.5865186452865601
6.873027801513672,0.20199130475521088,-0.21000228822231293,0.1970321238040924,-0.45757991075515747,-0.47703516483306885,-0.5869001150131226
6.893506765365601,0.1989395022392273,-0.21992065012454987,0.1993209719657898,-0.4713130295276642,-0.4804684519767761,-0.5853742361068726
6.913594484329224,0.1989395022392273,-0.23365376889705658,0.20847637951374054,-0.47665369510650635,-0.4808499217033386,-0.5872815847396851
