liuyurong129/humanoid-gym/humanoid/data/actual_q_20250521-002357.csv
timestamp,joint_1,joint_2,joint_3,joint_4,joint_5,joint_6
0.00021123886108398438,0.00019073777366429567,0.17414358258247375,-0.086785688996315,-0.00019073777366429567,0.00019073777366429567,-0.000572213320992887
0.020322322845458984,0.000572213320992887,0.15545128285884857,-0.07915617525577545,-0.00019073777366429567,-0.00019073777366429567,-0.000572213320992887
0.04037904739379883,0.00019073777366429567,0.13179980218410492,-0.06809338182210922,-0.000572213320992887,0.00019073777366429567,-0.000572213320992887
0.060431480407714844,0.00019073777366429567,0.11348897218704224,-0.06008239835500717,-0.00019073777366429567,0.0024795911740511656,-0.000572213320992887
0.08050251007080078,-0.00019073777366429567,0.11234454810619354,-0.06084534898400307,-0.00019073777366429567,0.00019073777366429567,-0.000572213320992887
0.10071873664855957,-0.00019073777366429567,0.11348897218704224,-0.061226826161146164,-0.000572213320992887,-0.00019073777366429567,-0.00019073777366429567
0.12080025672912598,-0.00019073777366429567,0.11463340371847153,-0.06084534898400307,-0.00019073777366429567,-0.00019073777366429567,-0.000572213320992887
0.14083027839660645,-0.00019073777366429567,0.11463340371847153,-0.06008239835500717,-0.00019073777366429567,-0.00019073777366429567,-0.00019073777366429567
0.1608724594116211,-0.00019073777366429567,0.11501488089561462,-0.06046387553215027,-0.00019073777366429567,-0.00019073777366429567,-0.000572213320992887
0.18096685409545898,-0.000572213320992887,0.11425192654132843,-0.06046387553215027,-0.00019073777366429567,-0.00019073777366429567,-0.00019073777366429567
0.20107412338256836,-0.0009536888683214784,0.11348897218704224,-0.06046387553215027,-0.00019073777366429567,-0.00019073777366429567,-0.00019073777366429567
0.22112441062927246,-0.001716639962978661,0.11310750246047974,-0.06046387553215027,-0.00019073777366429567,-0.00019073777366429567,-0.00019073777366429567
0.24124407768249512,-0.0024795911740511656,0.11310750246047974,-0.06046387553215027,-0.00019073777366429567,0.00019073777366429567,-0.00019073777366429567
0.2612605094909668,-0.0024795911740511656,0.11310750246047974,-0.06008239835500717,-0.00019073777366429567,-0.00019073777366429567,-0.00019073777366429567
0.2813377380371094,-0.0032425422687083483,0.11272602528333664,-0.06008239835500717,-0.00019073777366429567,-0.00019073777366429567,-0.00019073777366429567
0.3014037609100342,-0.004386968910694122,0.11234454810619354,-0.06008239835500717,-0.00019073777366429567,-0.00019073777366429567,-0.00019073777366429567
0.32146573066711426,-0.005149920005351305,0.11196307092905045,-0.06008239835500717,-0.00019073777366429567,-0.00019073777366429567,-0.00019073777366429567
0.3415260314941406,-0.005531395319849253,0.11196307092905045,-0.06008239835500717,-0.00019073777366429567,-0.00019073777366429567,-0.00019073777366429567
0.36165475845336914,-0.005912871100008488,0.11158160120248795,-0.05970092490315437,-0.00019073777366429567,-0.00019073777366429567,-0.00019073777366429567
0.38172268867492676,-0.005912871100008488,0.11158160120248795,-0.05970092490315437,-0.00019073777366429567,-0.00019073777366429567,-0.00019073777366429567
0.4017651081085205,-0.007057297509163618,0.11081864684820175,-0.05970092490315437,0.00019073777366429567,-0.00019073777366429567,-0.00019073777366429567
0.42187070846557617,-0.0078202486038208,0.11043716967105865,-0.05970092490315437,0.00019073777366429567,-0.00019073777366429567,-0.00019073777366429567
0.4419384002685547,-0.0078202486038208,0.10967422276735306,-0.05970092490315437,0.00019073777366429567,-0.00019073777366429567,-0.00019073777366429567
0.4620029926300049,-0.008201723918318748,0.10967422276735306,-0.059319447726011276,0.000572213320992887,-0.00019073777366429567,-0.00019073777366429567
0.4821012020111084,-0.00858320016413927,0.10967422276735306,-0.059319447726011276,0.000572213320992887,-0.00019073777366429567,-0.00019073777366429567
0.5021271705627441,-0.008964675478637218,0.10967422276735306,-0.059319447726011276,0.0009536888683214784,-0.00019073777366429567,-0.00019073777366429567
0.522214412689209,-0.009727626107633114,0.10929274559020996,-0.05893797054886818,0.0009536888683214784,-0.00019073777366429567,-0.00019073777366429567
0.5422945022583008,-0.010109102353453636,0.10852979123592377,-0.05855649709701538,0.0013351644156500697,-0.000572213320992887,-0.00019073777366429567
0.5624051094055176,-0.010109102353453636,0.10852979123592377,-0.05855649709701538,0.001716639962978661,-0.000572213320992887,-0.00019073777366429567
0.5824182033538818,-0.010872052982449532,0.10852979123592377,-0.05855649709701538,0.001716639962978661,-0.000572213320992887,-0.00019073777366429567
0.6026034355163574,-0.01201647985726595,0.10776684433221817,-0.05855649709701538,0.0020981156267225742,-0.00019073777366429567,-0.00019073777366429567
0.6227195262908936,-0.012397955171763897,0.10738536715507507,-0.05855649709701538,0.0024795911740511656,-0.000572213320992887,-0.00019073777366429567
0.6428203582763672,-0.012779430486261845,0.10738536715507507,-0.05855649709701538,0.002861066721379757,-0.000572213320992887,-0.00019073777366429567
0.6628351211547852,-0.012779430486261845,0.10700388997793198,-0.05855649709701538,0.002861066721379757,-0.000572213320992887,-0.00019073777366429567
0.6828837394714355,-0.013542382046580315,0.10662241280078888,-0.058175019919872284,0.0032425422687083483,-0.000572213320992887,0.00019073777366429567
0.7030019760131836,-0.01430533267557621,0.10662241280078888,-0.058175019919872284,0.0032425422687083483,-0.000572213320992887,0.00019073777366429567
0.723059892654419,-0.014686808921396732,0.10624094307422638,-0.058175019919872284,0.0032425422687083483,-0.000572213320992887,0.00019073777366429567
0.7431118488311768,-0.014686808921396732,0.10547798871994019,-0.057793546468019485,0.0036240178160369396,-0.000572213320992887,0.00019073777366429567
0.7631666660308838,-0.01506828423589468,0.10547798871994019,-0.057793546468019485,0.0036240178160369396,-0.0009536888683214784,0.00019073777366429567
0.7832562923431396,-0.015449759550392628,0.10547798871994019,-0.057793546468019485,0.0036240178160369396,-0.000572213320992887,0.00019073777366429567
0.8033511638641357,-0.016212711110711098,0.10471503436565399,-0.05741206929087639,0.004005493130534887,-0.000572213320992887,0.00019073777366429567
0.8234164714813232,-0.016975661739706993,0.10471503436565399,-0.05741206929087639,0.004005493130534887,-0.000572213320992887,0.000572213320992887
0.8434839248657227,-0.016975661739706993,0.10471503436565399,-0.05741206929087639,0.004386968910694122,-0.0009536888683214784,0.00019073777366429567
0.8635914325714111,-0.01773861236870289,0.10433356463909149,-0.05741206929087639,0.00476844422519207,-0.0009536888683214784,0.000572213320992887
0.8836808204650879,-0.01888304017484188,0.1035706102848053,-0.05741206929087639,0.004386968910694122,-0.000572213320992887,0.000572213320992887
0.9037864208221436,-0.01926451548933983,0.1031891331076622,-0.05703059583902359,0.00476844422519207,-0.0009536888683214784,0.000572213320992887
0.9239566326141357,-0.01926451548933983,0.1028076633810997,-0.05703059583902359,0.005149920005351305,-0.0009536888683214784,0.000572213320992887
0.9439907073974609,-0.020027466118335724,0.1024261862039566,-0.05664911866188049,0.006294346414506435,-0.0009536888683214784,0.000572213320992887
0.9640359878540039,-0.021171892061829567,0.1024261862039566,-0.05664911866188049,0.006294346414506435,-0.0009536888683214784,0.000572213320992887
0.9840836524963379,-0.02193484455347061,0.1024261862039566,-0.056267641484737396,0.00667582219466567,-0.0009536888683214784,0.000572213320992887
1.0041725635528564,-0.02193484455347061,0.1024261862039566,-0.056267641484737396,0.00667582219466567,-0.0009536888683214784,0.000572213320992887
1.0242631435394287,-0.02231631986796856,0.10166323184967041,-0.0558861680328846,0.007057297509163618,-0.0013351644156500697,0.0009536888683214784
1.0446877479553223,-0.02231631986796856,0.10128175467252731,-0.0558861680328846,0.007057297509163618,-0.0013351644156500697,0.0009536888683214784
1.0647358894348145,-0.02231631986796856,0.10128175467252731,-0.0558861680328846,0.007057297509163618,-0.0013351644156500697,0.0009536888683214784
1.084867000579834,-0.022697795182466507,0.10051880776882172,-0.0558861680328846,0.007438773289322853,-0.0013351644156500697,0.0009536888683214784
1.1048939228057861,-0.02384222112596035,0.10013733059167862,-0.0555046908557415,0.007438773289322853,-0.0013351644156500697,0.0009536888683214784
1.1249840259552002,-0.024223696440458298,0.10051880776882172,-0.0555046908557415,0.007438773289322853,-0.0013351644156500697,0.0009536888683214784
1.145047664642334,-0.024223696440458298,0.10013733059167862,-0.0555046908557415,0.007438773289322853,-0.0013351644156500697,0.0009536888683214784
1.165191411972046,-0.024605173617601395,0.09937438368797302,-0.0555046908557415,0.0078202486038208,-0.0013351644156500697,0.0013351644156500697
1.185283899307251,-0.02536812424659729,0.09899290651082993,-0.0555046908557415,0.0078202486038208,-0.0013351644156500697,0.0013351644156500697
1.20534086227417,-0.026512550190091133,0.09899290651082993,-0.0555046908557415,0.008201723918318748,-0.0013351644156500697,0.0013351644156500697
1.22542405128479,-0.02689402550458908,0.09822995215654373,-0.0555046908557415,0.008201723918318748,-0.001716639962978661,0.0013351644156500697
1.245609998703003,-0.02727550081908703,0.09822995215654373,-0.0555046908557415,0.00858320016413927,-0.001716639962978661,0.0013351644156500697
1.265678882598877,-0.027656977996230125,0.09822995215654373,-0.0551232174038887,0.00858320016413927,-0.001716639962978661,0.0013351644156500697
1.2858960628509521,-0.028038453310728073,0.09746700525283813,-0.0551232174038887,0.009346150793135166,-0.001716639962978661,0.0013351644156500697
1.305931568145752,-0.029182879254221916,0.09746700525283813,-0.0551232174038887,0.009727626107633114,-0.001716639962978661,0.001716639962978661
1.3261232376098633,-0.029182879254221916,0.09746700525283813,-0.0551232174038887,0.010109102353453636,-0.001716639962978661,0.001716639962978661
1.3462066650390625,-0.029182879254221916,0.09708552807569504,-0.054741740226745605,0.010490577667951584,-0.0020981156267225742,0.001716639962978661
1.366272211074829,-0.029564354568719864,0.09670405089855194,-0.05436026677489281,0.010490577667951584,-0.0020981156267225742,0.001716639962978661
1.386411190032959,-0.029564354568719864,0.09632257372140884,-0.05436026677489281,0.010872052982449532,-0.0020981156267225742,0.001716639962978661
1.4066684246063232,-0.02994582988321781,0.09632257372140884,-0.05436026677489281,0.010872052982449532,-0.0020981156267225742,0.001716639962978661
1.4268462657928467,-0.031090257689356804,0.09555962681770325,-0.05436026677489281,0.010872052982449532,-0.0024795911740511656,0.001716639962978661
1.44691801071167,-0.03147173300385475,0.09517814964056015,-0.05436026677489281,0.010872052982449532,-0.0024795911740511656,0.0020981156267225742
1.466973066329956,-0.03147173300385475,0.09517814964056015,-0.05436026677489281,0.01125352829694748,-0.0024795911740511656,0.0020981156267225742
1.4870266914367676,-0.03185320645570755,0.09517814964056015,-0.05397878959774971,0.01125352829694748,-0.002861066721379757,0.0024795911740511656
1.507171392440796,-0.03299763426184654,0.09441519528627396,-0.05359731614589691,0.01125352829694748,-0.0032425422687083483,0.0024795911740511656
1.5272159576416016,-0.034142062067985535,0.09403372555971146,-0.05359731614589691,0.01125352829694748,-0.0032425422687083483,0.0024795911740511656
1.5472869873046875,-0.03490501269698143,0.09403372555971146,-0.05359731614589691,0.011635004542768002,-0.0032425422687083483,0.0024795911740511656
1.5673396587371826,-0.03490501269698143,0.09327077120542526,-0.05359731614589691,0.011635004542768002,-0.004005493130534887,0.002861066721379757
1.5874567031860352,-0.03528648987412453,0.09288929402828217,-0.05359731614589691,0.01201647985726595,-0.004005493130534887,0.002861066721379757
1.6075196266174316,-0.03604944050312042,0.09288929402828217,-0.05359731614589691,0.012397955171763897,-0.004005493130534887,0.002861066721379757
1.6276087760925293,-0.03681239113211632,0.09250781685113907,-0.053215838968753815,0.012779430486261845,-0.004005493130534887,0.0032425422687083483
1.647651195526123,-0.03681239113211632,0.09212634712457657,-0.053215838968753815,0.013542382046580315,-0.004386968910694122,0.0036240178160369396
1.6677391529083252,-0.03681239113211632,0.09212634712457657,-0.053215838968753815,0.014686808921396732,-0.004386968910694122,0.004005493130534887
1.6878223419189453,-0.037193864583969116,0.09098191559314728,-0.053215838968753815,0.014686808921396732,-0.004386968910694122,0.004005493130534887
1.7078981399536133,-0.037193864583969116,0.09098191559314728,-0.053215838968753815,0.014686808921396732,-0.004386968910694122,0.004005493130534887
1.7279729843139648,-0.03795681521296501,0.09098191559314728,-0.05283436179161072,0.014686808921396732,-0.00476844422519207,0.004005493130534887
1.748298168182373,-0.038719769567251205,0.09060044586658478,-0.05245288833975792,0.01506828423589468,-0.004386968910694122,0.004005493130534887
1.7683868408203125,-0.0394827201962471,0.09021896868944168,-0.05207141116261482,0.01506828423589468,-0.004386968910694122,0.004005493130534887
1.7884409427642822,-0.0398641936480999,0.08983749151229858,-0.05207141116261482,0.01506828423589468,-0.00476844422519207,0.004005493130534887
1.8085036277770996,-0.040245670825242996,0.08983749151229858,-0.05207141116261482,0.015449759550392628,-0.00476844422519207,0.004386968910694122
1.8286876678466797,-0.04139009863138199,0.08983749151229858,-0.051689937710762024,0.015449759550392628,-0.00476844422519207,0.004386968910694122
1.8487863540649414,-0.04177157208323479,0.08907453715801239,-0.051689937710762024,0.01583123579621315,-0.005149920005351305,0.004386968910694122
1.8688690662384033,-0.04177157208323479,0.08869306743144989,-0.05130846053361893,0.016212711110711098,-0.005149920005351305,0.004386968910694122
1.8889615535736084,-0.042153049260377884,0.0883115902543068,-0.05130846053361893,0.016594186425209045,-0.005912871100008488,0.004386968910694122
1.9091646671295166,-0.04291599988937378,0.0879301130771637,-0.05130846053361893,0.016975661739706993,-0.005912871100008488,0.004386968910694122
1.92926025390625,-0.04406042397022247,0.0879301130771637,-0.05130846053361893,0.01773861236870289,-0.005912871100008488,0.004386968910694122
1.9493374824523926,-0.04406042397022247,0.0875486359000206,-0.05130846053361893,0.018120087683200836,-0.005912871100008488,0.004386968910694122
1.9693739414215088,-0.04406042397022247,0.086785688996315,-0.05092698708176613,0.018501564860343933,-0.005912871100008488,0.00476844422519207
1.9894447326660156,-0.04406042397022247,0.086785688996315,-0.05054550990462303,0.018501564860343933,-0.006294346414506435,0.004386968910694122
2.0095198154449463,-0.04482337832450867,0.08602273464202881,-0.050164032727479935,0.018501564860343933,-0.007438773289322853,0.004386968910694122
2.029590129852295,-0.04558632895350456,0.08564125746488571,-0.050164032727479935,0.018501564860343933,-0.007438773289322853,0.00476844422519207
2.0496602058410645,-0.04634927958250046,0.08564125746488571,-0.050164032727479935,0.01888304017484188,-0.007438773289322853,0.00476844422519207
2.0697038173675537,-0.04634927958250046,0.08564125746488571,-0.050164032727479935,0.01888304017484188,-0.0078202486038208,0.00476844422519207
2.0897998809814453,-0.04711223021149635,0.08487831056118011,-0.050164032727479935,0.01926451548933983,-0.0078202486038208,0.00476844422519207
2.1098639965057373,-0.048256658017635345,0.08449683338403702,-0.049782559275627136,0.01926451548933983,-0.0078202486038208,0.00476844422519207
2.1299469470977783,-0.048638131469488144,0.08373387902975082,-0.049782559275627136,0.019645990803837776,-0.0078202486038208,0.00476844422519207
2.1500067710876465,-0.04901960864663124,0.08373387902975082,-0.04940108209848404,0.019645990803837776,-0.0078202486038208,0.00476844422519207
2.1703438758850098,-0.04940108209848404,0.08373387902975082,-0.04940108209848404,0.020027466118335724,-0.0078202486038208,0.00476844422519207
2.190432548522949,-0.049782559275627136,0.08297093212604523,-0.04940108209848404,0.020027466118335724,-0.0078202486038208,0.00476844422519207
2.2104930877685547,-0.05054550990462303,0.08258945494890213,-0.04901960864663124,0.021171892061829567,-0.0078202486038208,0.005149920005351305
2.2305636405944824,-0.05130846053361893,0.08258945494890213,-0.04901960864663124,0.021553369238972664,-0.0078202486038208,0.00476844422519207
2.2506215572357178,-0.05130846053361893,0.08220797777175903,-0.04901960864663124,0.02193484455347061,-0.008201723918318748,0.00476844422519207
2.270735025405884,-0.05130846053361893,0.08182650804519653,-0.048638131469488144,0.02231631986796856,-0.008201723918318748,0.00476844422519207
2.2909629344940186,-0.051689937710762024,0.08068207651376724,-0.04787518084049225,0.02231631986796856,-0.008201723918318748,0.005149920005351305
2.3109564781188965,-0.05245288833975792,0.08068207651376724,-0.04787518084049225,0.02231631986796856,-0.0078202486038208,0.005149920005351305
2.3310227394104004,-0.05359731614589691,0.08068207651376724,-0.04787518084049225,0.02231631986796856,-0.008201723918318748,0.005149920005351305
2.3511433601379395,-0.05397878959774971,0.08068207651376724,-0.04787518084049225,0.022697795182466507,-0.008201723918318748,0.005149920005351305
2.371169328689575,-0.05436026677489281,0.07953765243291855,-0.04787518084049225,0.023079270496964455,-0.008201723918318748,0.005149920005351305
2.3913187980651855,-0.054741740226745605,0.07953765243291855,-0.04749370738863945,0.023079270496964455,-0.008201723918318748,0.005149920005351305
2.4118847846984863,-0.0555046908557415,0.07953765243291855,-0.04749370738863945,0.023460745811462402,-0.008201723918318748,0.005149920005351305
2.43204402923584,-0.056267641484737396,0.07839322835206985,-0.04711223021149635,0.023460745811462402,-0.008201723918318748,0.005531395319849253
2.452070951461792,-0.05664911866188049,0.07839322835206985,-0.04711223021149635,0.02384222112596035,-0.00858320016413927,0.005531395319849253
2.472137689590454,-0.05664911866188049,0.07839322835206985,-0.04711223021149635,0.024223696440458298,-0.00858320016413927,0.005149920005351305
2.4924018383026123,-0.057793546468019485,0.07763027399778366,-0.046730753034353256,0.024986648932099342,-0.008201723918318748,0.005531395319849253
2.5125060081481934,-0.05855649709701538,0.07724879682064056,-0.04634927958250046,0.02536812424659729,-0.008201723918318748,0.005531395319849253
2.5325887203216553,-0.05855649709701538,0.07648584991693497,-0.04596780240535736,0.02536812424659729,-0.008201723918318748,0.005531395319849253
2.552591323852539,-0.05893797054886818,0.07648584991693497,-0.04596780240535736,0.025749599561095238,-0.008201723918318748,0.005531395319849253
2.572658061981201,-0.05893797054886818,0.07610437273979187,-0.04596780240535736,0.025749599561095238,-0.00858320016413927,0.005531395319849253
2.5927419662475586,-0.06008239835500717,0.07572289556264877,-0.04596780240535736,0.026131074875593185,-0.00858320016413927,0.005912871100008488
2.6128015518188477,-0.06084534898400307,0.07534141838550568,-0.04558632895350456,0.026131074875593185,-0.008201723918318748,0.005531395319849253
2.632906675338745,-0.06084534898400307,0.07534141838550568,-0.04558632895350456,0.026131074875593185,-0.00858320016413927,0.005531395319849253
2.652984142303467,-0.06160829961299896,0.07457847148180008,-0.045204851776361465,0.026512550190091133,-0.00858320016413927,0.005912871100008488
2.673112392425537,-0.06198977679014206,0.07381551712751389,-0.04482337832450867,0.026512550190091133,-0.00858320016413927,0.005912871100008488
2.6931698322296143,-0.06275273114442825,0.07343403995037079,-0.04482337832450867,0.02689402550458908,-0.00858320016413927,0.005912871100008488
2.713223457336426,-0.06351567804813385,0.07343403995037079,-0.04444190114736557,0.02689402550458908,-0.008964675478637218,0.006294346414506435
2.733405828475952,-0.06389715522527695,0.07343403995037079,-0.04406042397022247,0.02727550081908703,-0.008964675478637218,0.00667582219466567
2.753481149673462,-0.06466010212898254,0.07267109304666519,-0.04406042397022247,0.02727550081908703,-0.008964675478637218,0.007057297509163618
2.7735416889190674,-0.06542305648326874,0.0722896158695221,-0.043678950518369675,0.027656977996230125,-0.008964675478637218,0.007438773289322853
2.7936060428619385,-0.06580453366041183,0.071908138692379,-0.043678950518369675,0.028038453310728073,-0.008964675478637218,0.0078202486038208
2.8137640953063965,-0.06580453366041183,0.0715266615152359,-0.043678950518369675,0.02880140393972397,-0.009727626107633114,0.0078202486038208
2.8338499069213867,-0.06618601083755493,0.0711451917886734,-0.04329747334122658,0.029182879254221916,-0.009727626107633114,0.008201723918318748
2.8539185523986816,-0.06618601083755493,0.0711451917886734,-0.04329747334122658,0.029564354568719864,-0.010109102353453636,0.008201723918318748
2.873988389968872,-0.06694895774126053,0.07038223743438721,-0.04291599988937378,0.02994582988321781,-0.009727626107633114,0.008201723918318748
2.8942015171051025,-0.06809338182210922,0.07000076025724411,-0.04291599988937378,0.02994582988321781,-0.009727626107633114,0.008201723918318748
2.914332151412964,-0.06847485899925232,0.06961929053068161,-0.04291599988937378,0.02994582988321781,-0.009727626107633114,0.008201723918318748
2.9343814849853516,-0.06923781335353851,0.06885633617639542,-0.04291599988937378,0.03032730519771576,-0.009727626107633114,0.008201723918318748
2.9544172286987305,-0.07000076025724411,0.06847485899925232,-0.04291599988937378,0.030708782374858856,-0.010490577667951584,0.00858320016413927
2.974496364593506,-0.0707637146115303,0.06809338182210922,-0.04253452271223068,0.031090257689356804,-0.01125352829694748,0.00858320016413927
2.9945645332336426,-0.0711451917886734,0.06809338182210922,-0.04177157208323479,0.03147173300385475,-0.01125352829694748,0.00858320016413927
3.014639139175415,-0.0715266615152359,0.06809338182210922,-0.04177157208323479,0.03185320645570755,-0.01201647985726595,0.00858320016413927
3.03468918800354,-0.0722896158695221,0.06771191209554672,-0.04139009863138199,0.032616160809993744,-0.01201647985726595,0.00858320016413927
3.0547568798065186,-0.07305257022380829,0.06694895774126053,-0.04100862145423889,0.03299763426184654,-0.01201647985726595,0.00858320016413927
3.074869394302368,-0.07305257022380829,0.06618601083755493,-0.04100862145423889,0.03337911143898964,-0.01201647985726595,0.00858320016413927
3.0950520038604736,-0.07305257022380829,0.06580453366041183,-0.04100862145423889,0.03337911143898964,-0.01201647985726595,0.00858320016413927
3.115082263946533,-0.07343403995037079,0.06542305648326874,-0.04100862145423889,0.03376058489084244,-0.012397955171763897,0.008964675478637218
3.1351988315582275,-0.07381551712751389,0.06504157930612564,-0.04100862145423889,0.03376058489084244,-0.012397955171763897,0.008964675478637218
3.155303716659546,-0.07457847148180008,0.06466010212898254,-0.040627144277095795,0.03376058489084244,-0.01201647985726595,0.008964675478637218
3.175365686416626,-0.07534141838550568,0.06389715522527695,-0.040245670825242996,0.034142062067985535,-0.01201647985726595,0.008964675478637218
3.1954691410064697,-0.07572289556264877,0.06389715522527695,-0.0398641936480999,0.034142062067985535,-0.012397955171763897,0.008964675478637218
3.215820074081421,-0.07648584991693497,0.06351567804813385,-0.0398641936480999,0.034142062067985535,-0.012397955171763897,0.009346150793135166
3.235905408859253,-0.07724879682064056,0.06313420087099075,-0.0394827201962471,0.03452353551983833,-0.013542382046580315,0.009346150793135166
3.2560572624206543,-0.07763027399778366,0.06275273114442825,-0.039101243019104004,0.03490501269698143,-0.01430533267557621,0.009346150793135166
3.2761456966400146,-0.07801175117492676,0.06198977679014206,-0.039101243019104004,0.03528648987412453,-0.01506828423589468,0.009727626107633114
3.2961812019348145,-0.07877469807863235,0.06160829961299896,-0.039101243019104004,0.03604944050312042,-0.015449759550392628,0.009727626107633114
3.3162755966186523,-0.07953765243291855,0.06084534898400307,-0.039101243019104004,0.03681239113211632,-0.015449759550392628,0.009727626107633114
3.336334228515625,-0.07953765243291855,0.06084534898400307,-0.038719769567251205,0.03681239113211632,-0.01583123579621315,0.010490577667951584
3.356400966644287,-0.08030059933662415,0.06084534898400307,-0.038719769567251205,0.037193864583969116,-0.01583123579621315,0.01125352829694748
3.376648426055908,-0.08068207651376724,0.06008239835500717,-0.038719769567251205,0.03757534176111221,-0.015449759550392628,0.011635004542768002
3.3967337608337402,-0.08106355369091034,0.059319447726011276,-0.03795681521296501,0.03757534176111221,-0.015449759550392628,0.011635004542768002
3.4168143272399902,-0.08144503086805344,0.05855649709701538,-0.03757534176111221,0.03757534176111221,-0.015449759550392628,0.011635004542768002
3.4368860721588135,-0.08258945494890213,0.05893797054886818,-0.03757534176111221,0.03795681521296501,-0.015449759550392628,0.011635004542768002
3.4569358825683594,-0.08297093212604523,0.05855649709701538,-0.037193864583969116,0.03795681521296501,-0.01583123579621315,0.011635004542768002
3.4770634174346924,-0.08373387902975082,0.057793546468019485,-0.03681239113211632,0.03833829239010811,-0.01583123579621315,0.011635004542768002
3.4971141815185547,-0.08487831056118011,0.05741206929087639,-0.03681239113211632,0.038719769567251205,-0.01583123579621315,0.011635004542768002
3.5171658992767334,-0.08525978773832321,0.05664911866188049,-0.03681239113211632,0.0394827201962471,-0.016212711110711098,0.011635004542768002
3.537277936935425,-0.08564125746488571,0.056267641484737396,-0.03681239113211632,0.040245670825242996,-0.01583123579621315,0.01201647985726595
3.557358503341675,-0.08602273464202881,0.0555046908557415,-0.03643091395497322,0.04100862145423889,-0.016212711110711098,0.01201647985726595
3.577468156814575,-0.086785688996315,0.0555046908557415,-0.03604944050312042,0.04100862145423889,-0.01583123579621315,0.01201647985726595
3.5975263118743896,-0.0875486359000206,0.054741740226745605,-0.035667963325977325,0.04100862145423889,-0.016212711110711098,0.01201647985726595
3.617610216140747,-0.0875486359000206,0.05436026677489281,-0.03528648987412453,0.04100862145423889,-0.01583123579621315,0.01201647985726595
3.637683391571045,-0.0879301130771637,0.05359731614589691,-0.03490501269698143,0.04139009863138199,-0.016212711110711098,0.01201647985726595
3.6577250957489014,-0.08907453715801239,0.05283436179161072,-0.03452353551983833,0.04177157208323479,-0.01583123579621315,0.01201647985726595
3.6778225898742676,-0.08983749151229858,0.05207141116261482,-0.03452353551983833,0.04177157208323479,-0.01583123579621315,0.012397955171763897
3.697880268096924,-0.08983749151229858,0.051689937710762024,-0.034142062067985535,0.042153049260377884,-0.01583123579621315,0.012397955171763897
3.7179455757141113,-0.09098191559314728,0.05130846053361893,-0.03376058489084244,0.04253452271223068,-0.016212711110711098,0.012397955171763897
3.7381091117858887,-0.09212634712457657,0.05092698708176613,-0.03337911143898964,0.043678950518369675,-0.01583123579621315,0.012397955171763897
3.758192539215088,-0.09250781685113907,0.05054550990462303,-0.03299763426184654,0.04444190114736557,-0.016212711110711098,0.012397955171763897
3.778280735015869,-0.09288929402828217,0.049782559275627136,-0.03299763426184654,0.04482337832450867,-0.016594186425209045,0.012397955171763897
3.798468828201294,-0.09365224838256836,0.04940108209848404,-0.032616160809993744,0.04482337832450867,-0.016594186425209045,0.012397955171763897
3.8184516429901123,-0.09403372555971146,0.04901960864663124,-0.032616160809993744,0.04482337832450867,-0.016594186425209045,0.012397955171763897
3.8386049270629883,-0.09479667246341705,0.048638131469488144,-0.032616160809993744,0.045204851776361465,-0.016212711110711098,0.012779430486261845
3.858645439147949,-0.09517814964056015,0.048256658017635345,-0.03185320645570755,0.045204851776361465,-0.016594186425209045,0.012779430486261845
3.8787569999694824,-0.09517814964056015,0.04749370738863945,-0.03147173300385475,0.04558632895350456,-0.016212711110711098,0.012779430486261845
3.898804187774658,-0.09594109654426575,0.04634927958250046,-0.03147173300385475,0.04596780240535736,-0.016594186425209045,0.012779430486261845
3.9188671112060547,-0.09708552807569504,0.04634927958250046,-0.031090257689356804,0.04634927958250046,-0.016212711110711098,0.012779430486261845
3.938958168029785,-0.09746700525283813,0.04634927958250046,-0.030708782374858856,0.046730753034353256,-0.016594186425209045,0.012779430486261845
3.9590771198272705,-0.09822995215654373,0.04558632895350456,-0.030708782374858856,0.04787518084049225,-0.016975661739706993,0.012779430486261845
3.979191541671753,-0.09899290651082993,0.04444190114736557,-0.02994582988321781,0.048638131469488144,-0.016594186425209045,0.012779430486261845
3.99936842918396,-0.09975585341453552,0.04406042397022247,-0.029564354568719864,0.048638131469488144,-0.01735713705420494,0.012779430486261845
4.01938271522522,-0.10013733059167862,0.043678950518369675,-0.029182879254221916,0.04901960864663124,-0.01735713705420494,0.012779430486261845
4.03945517539978,-0.10128175467252731,0.04253452271223068,-0.02880140393972397,0.04901960864663124,-0.016975661739706993,0.013160906732082367
4.059505224227905,-0.10204470902681351,0.04177157208323479,-0.02841992862522602,0.04940108209848404,-0.016975661739706993,0.013160906732082367
4.079556941986084,-0.10204470902681351,0.04139009863138199,-0.02841992862522602,0.04940108209848404,-0.01735713705420494,0.013160906732082367
4.099611043930054,-0.10204470902681351,0.04139009863138199,-0.02841992862522602,0.049782559275627136,-0.01773861236870289,0.013160906732082367
4.119691610336304,-0.1028076633810997,0.040627144277095795,-0.028038453310728073,0.05054550990462303,-0.01773861236870289,0.013160906732082367
4.139763355255127,-0.1035706102848053,0.040245670825242996,-0.02727550081908703,0.051689937710762024,-0.01773861236870289,0.013542382046580315
4.159844160079956,-0.10433356463909149,0.0394827201962471,-0.02689402550458908,0.051689937710762024,-0.016975661739706993,0.013542382046580315
4.179886102676392,-0.10471503436565399,0.0394827201962471,-0.026512550190091133,0.05207141116261482,-0.01735713705420494,0.013542382046580315
4.2000038623809814,-0.10547798871994019,0.039101243019104004,-0.026512550190091133,0.05245288833975792,-0.01773861236870289,0.013923857361078262
4.220135927200317,-0.10624094307422638,0.03795681521296501,-0.026131074875593185,0.05245288833975792,-0.01773861236870289,0.01430533267557621
4.240143537521362,-0.10662241280078888,0.03757534176111221,-0.026131074875593185,0.05283436179161072,-0.018120087683200836,0.01430533267557621
4.260194778442383,-0.10738536715507507,0.037193864583969116,-0.025749599561095238,0.05283436179161072,-0.018120087683200836,0.014686808921396732
4.280274391174316,-0.10814831405878067,0.03681239113211632,-0.02536812424659729,0.05283436179161072,-0.018120087683200836,0.014686808921396732
4.3003387451171875,-0.10891126841306686,0.03604944050312042,-0.024605173617601395,0.053215838968753815,-0.01773861236870289,0.01506828423589468
4.320415019989014,-0.10929274559020996,0.03604944050312042,-0.024605173617601395,0.05359731614589691,-0.018120087683200836,0.01506828423589468
4.34047794342041,-0.10929274559020996,0.03528648987412453,-0.024605173617601395,0.05436026677489281,-0.018501564860343933,0.01506828423589468
4.360573768615723,-0.10967422276735306,0.03452353551983833,-0.024605173617601395,0.0555046908557415,-0.018501564860343933,0.01506828423589468
4.38064432144165,-0.11005569249391556,0.03376058489084244,-0.024223696440458298,0.056267641484737396,-0.018501564860343933,0.015449759550392628
4.400832414627075,-0.11081864684820175,0.03376058489084244,-0.024223696440458298,0.056267641484737396,-0.018120087683200836,0.015449759550392628
4.421220779418945,-0.11158160120248795,0.03299763426184654,-0.023460745811462402,0.056267641484737396,-0.018120087683200836,0.015449759550392628
4.441321849822998,-0.11196307092905045,0.03223468363285065,-0.022697795182466507,0.05664911866188049,-0.018501564860343933,0.015449759550392628
4.461395740509033,-0.11272602528333664,0.03185320645570755,-0.02231631986796856,0.05703059583902359,-0.01888304017484188,0.015449759550392628
4.481470584869385,-0.11387044936418533,0.03185320645570755,-0.02231631986796856,0.05741206929087639,-0.018501564860343933,0.015449759550392628
4.50151515007019,-0.11463340371847153,0.031090257689356804,-0.02193484455347061,0.058175019919872284,-0.018501564860343933,0.015449759550392628
4.521608352661133,-0.11463340371847153,0.02994582988321781,-0.02193484455347061,0.059319447726011276,-0.01888304017484188,0.01583123579621315
4.5416834354400635,-0.11501488089561462,0.029564354568719864,-0.021171892061829567,0.05970092490315437,-0.01888304017484188,0.01583123579621315
4.561765432357788,-0.11615930497646332,0.029182879254221916,-0.02079041674733162,0.05970092490315437,-0.018501564860343933,0.01583123579621315
4.581811428070068,-0.11654078215360641,0.028038453310728073,-0.02040894143283367,0.05970092490315437,-0.018501564860343933,0.01583123579621315
4.60196852684021,-0.11692225188016891,0.02727550081908703,-0.020027466118335724,0.06008239835500717,-0.01888304017484188,0.01583123579621315
4.622001886367798,-0.11730372905731201,0.026512550190091133,-0.020027466118335724,0.06008239835500717,-0.01888304017484188,0.016212711110711098
4.642054557800293,-0.1180666834115982,0.026131074875593185,-0.019645990803837776,0.06084534898400307,-0.01888304017484188,0.016212711110711098
4.662100791931152,-0.1188296303153038,0.025749599561095238,-0.01926451548933983,0.061226826161146164,-0.01888304017484188,0.016212711110711098
4.682184934616089,-0.11959258466959,0.024986648932099342,-0.018501564860343933,0.061226826161146164,-0.01888304017484188,0.016212711110711098
4.70225977897644,-0.1203555315732956,0.024605173617601395,-0.018120087683200836,0.06160829961299896,-0.01888304017484188,0.016212711110711098
4.722324371337891,-0.12111848592758179,0.024605173617601395,-0.018120087683200836,0.06237125024199486,-0.018501564860343933,0.016212711110711098
4.74252462387085,-0.12149996310472488,0.02384222112596035,-0.018120087683200836,0.06351567804813385,-0.01926451548933983,0.016594186425209045
4.762513875961304,-0.12188144028186798,0.022697795182466507,-0.01735713705420494,0.06351567804813385,-0.01926451548933983,0.016594186425209045
4.782615661621094,-0.12264438718557358,0.02193484455347061,-0.016975661739706993,0.06389715522527695,-0.01888304017484188,0.016594186425209045
4.802679061889648,-0.12340734153985977,0.021171892061829567,-0.016594186425209045,0.06389715522527695,-0.01926451548933983,0.016594186425209045
4.822727203369141,-0.12417028844356537,0.021171892061829567,-0.016212711110711098,0.06427863240242004,-0.01888304017484188,0.016975661739706993
4.8428168296813965,-0.12417028844356537,0.02040894143283367,-0.01583123579621315,0.06466010212898254,-0.01888304017484188,0.016975661739706993
4.862866640090942,-0.12531471252441406,0.019645990803837776,-0.01506828423589468,0.06580453366041183,-0.01926451548933983,0.016975661739706993
4.882939100265503,-0.12607766687870026,0.01926451548933983,-0.014686808921396732,0.06694895774126053,-0.01926451548933983,0.01735713705420494
4.903058052062988,-0.12645913660526276,0.018501564860343933,-0.01430533267557621,0.06733043491840363,-0.01926451548933983,0.01735713705420494
4.923181533813477,-0.12722209095954895,0.01773861236870289,-0.013542382046580315,0.06771191209554672,-0.01888304017484188,0.01773861236870289
4.943209648132324,-0.12836651504039764,0.01735713705420494,-0.012779430486261845,0.06771191209554672,-0.01888304017484188,0.01773861236870289
4.963366985321045,-0.12912946939468384,0.016594186425209045,-0.012397955171763897,0.06809338182210922,-0.01926451548933983,0.018120087683200836
4.983415603637695,-0.12912946939468384,0.015449759550392628,-0.01201647985726595,0.06847485899925232,-0.01926451548933983,0.018501564860343933
5.003569841384888,-0.12951095402240753,0.01506828423589468,-0.011635004542768002,0.06885633617639542,-0.019645990803837776,0.01888304017484188
5.02360725402832,-0.13065537810325623,0.01430533267557621,-0.011635004542768002,0.06923781335353851,-0.01926451548933983,0.01888304017484188
5.04367470741272,-0.13103684782981873,0.013923857361078262,-0.01125352829694748,0.07038223743438721,-0.01888304017484188,0.01888304017484188
5.063720226287842,-0.13103684782981873,0.013160906732082367,-0.010872052982449532,0.0707637146115303,-0.01926451548933983,0.01888304017484188
5.083802223205566,-0.13179980218410492,0.012397955171763897,-0.010490577667951584,0.0711451917886734,-0.019645990803837776,0.01888304017484188
5.10390043258667,-0.13218127191066742,0.01201647985726595,-0.009727626107633114,0.0711451917886734,-0.019645990803837776,0.01888304017484188
5.124040126800537,-0.1333257108926773,0.010872052982449532,-0.009346150793135166,0.0715266615152359,-0.01926451548933983,0.01926451548933983
5.14406156539917,-0.1340886503458023,0.010490577667951584,-0.009346150793135166,0.0715266615152359,-0.01888304017484188,0.01926451548933983
5.164268732070923,-0.1348516047000885,0.009727626107633114,-0.00858320016413927,0.0722896158695221,-0.01926451548933983,0.01926451548933983
5.184353590011597,-0.1356145590543747,0.008964675478637218,-0.008201723918318748,0.07267109304666519,-0.019645990803837776,0.01926451548933983
5.204357385635376,-0.1363775134086609,0.008201723918318748,-0.007438773289322853,0.07381551712751389,-0.020027466118335724,0.01926451548933983
5.224530220031738,-0.1367589831352234,0.0078202486038208,-0.007057297509163618,0.07457847148180008,-0.019645990803837776,0.019645990803837776
5.2446489334106445,-0.1367589831352234,0.007438773289322853,-0.00667582219466567,0.07495994865894318,-0.020027466118335724,0.019645990803837776
5.26479172706604,-0.13790340721607208,0.006294346414506435,-0.005912871100008488,0.07534141838550568,-0.01926451548933983,0.019645990803837776
5.284859895706177,-0.13828489184379578,0.005912871100008488,-0.005531395319849253,0.07534141838550568,-0.01926451548933983,0.019645990803837776
5.304899215698242,-0.13866636157035828,0.005149920005351305,-0.005531395319849253,0.07572289556264877,-0.019645990803837776,0.019645990803837776
5.325119495391846,-0.13904783129692078,0.004005493130534887,-0.00476844422519207,0.07610437273979187,-0.019645990803837776,0.019645990803837776
5.345182657241821,-0.13981078565120697,0.002861066721379757,-0.004386968910694122,0.07686731964349747,-0.020027466118335724,0.020027466118335724
5.365177631378174,-0.14095520973205566,0.002861066721379757,-0.004005493130534887,0.07839322835206985,-0.019645990803837776,0.020027466118335724
5.385473728179932,-0.14133669435977936,0.0020981156267225742,-0.0036240178160369396,0.07839322835206985,-0.019645990803837776,0.020027466118335724
5.405541896820068,-0.14209964871406555,0.0009536888683214784,-0.0032425422687083483,0.07877469807863235,-0.019645990803837776,0.020027466118335724
5.425597667694092,-0.14286258816719055,0.000572213320992887,-0.0024795911740511656,0.07877469807863235,-0.019645990803837776,0.020027466118335724
5.445664882659912,-0.14324407279491425,-0.00019073777366429567,-0.0020981156267225742,0.07915617525577545,-0.020027466118335724,0.020027466118335724
5.465803384780884,-0.14362554252147675,-0.0009536888683214784,-0.0020981156267225742,0.07915617525577545,-0.019645990803837776,0.020027466118335724
5.485864639282227,-0.14400701224803925,-0.001716639962978661,-0.0013351644156500697,0.07953765243291855,-0.020027466118335724,0.020027466118335724
5.505981206893921,-0.14476996660232544,-0.0024795911740511656,-0.0009536888683214784,0.07991912961006165,-0.020027466118335724,0.020027466118335724
5.526036024093628,-0.14591439068317413,-0.0032425422687083483,-0.00019073777366429567,0.08068207651376724,-0.020027466118335724,0.020027466118335724
5.546097278594971,-0.14591439068317413,-0.004386968910694122,0.00019073777366429567,0.08144503086805344,-0.019645990803837776,0.02040894143283367
5.566156625747681,-0.14629587531089783,-0.005149920005351305,0.0009536888683214784,0.08220797777175903,-0.020027466118335724,0.02040894143283367
5.586283922195435,-0.14705882966518402,-0.005912871100008488,0.0013351644156500697,0.08220797777175903,-0.020027466118335724,0.02040894143283367
5.6063454151153564,-0.14782176911830902,-0.006294346414506435,0.001716639962978661,0.08258945494890213,-0.020027466118335724,0.02040894143283367
5.626420259475708,-0.14858472347259521,-0.007438773289322853,0.0024795911740511656,0.08297093212604523,-0.020027466118335724,0.02040894143283367
5.646500110626221,-0.1493476778268814,-0.00858320016413927,0.0032425422687083483,0.08335240930318832,-0.019645990803837776,0.02079041674733162
5.666557550430298,-0.1501106321811676,-0.008964675478637218,0.004005493130534887,0.08373387902975082,-0.020027466118335724,0.02079041674733162
5.686668872833252,-0.1512550562620163,-0.009727626107633114,0.004386968910694122,0.08525978773832321,-0.02040894143283367,0.02079041674733162
5.706727504730225,-0.1520180106163025,-0.010872052982449532,0.00476844422519207,0.08602273464202881,-0.02040894143283367,0.02079041674733162
5.7269158363342285,-0.152399480342865,-0.01201647985726595,0.005149920005351305,0.08602273464202881,-0.02040894143283367,0.02079041674733162
5.746937990188599,-0.15316243469715118,-0.012779430486261845,0.005149920005351305,0.0864042118191719,-0.02040894143283367,0.021171892061829567
5.7669923305511475,-0.15316243469715118,-0.013923857361078262,0.005912871100008488,0.0864042118191719,-0.02040894143283367,0.021171892061829567
5.787067890167236,-0.15316243469715118,-0.01506828423589468,0.00667582219466567,0.086785688996315,-0.020027466118335724,0.021171892061829567
5.807132720947266,-0.15354390442371368,-0.01583123579621315,0.007438773289322853,0.0871671661734581,-0.02040894143283367,0.021553369238972664
5.827348470687866,-0.15430685877799988,-0.016212711110711098,0.0078202486038208,0.0879301130771637,-0.020027466118335724,0.021553369238972664
5.847403287887573,-0.15506981313228607,-0.016975661739706993,0.00858320016413927,0.08869306743144989,-0.020027466118335724,0.02193484455347061
5.867525339126587,-0.15583276748657227,-0.018120087683200836,0.008964675478637218,0.08945601433515549,-0.02040894143283367,0.02193484455347061
5.8875651359558105,-0.15659570693969727,-0.01888304017484188,0.009727626107633114,0.08983749151229858,-0.02040894143283367,0.02231631986796856
5.907621145248413,-0.15659570693969727,-0.01926451548933983,0.010109102353453636,0.09021896868944168,-0.02079041674733162,0.02231631986796856
5.927701950073242,-0.15774014592170715,-0.02040894143283367,0.010490577667951584,0.09098191559314728,-0.02079041674733162,0.022697795182466507
5.947788238525391,-0.15850308537483215,-0.021171892061829567,0.010872052982449532,0.09174486994743347,-0.02079041674733162,0.022697795182466507
5.9678497314453125,-0.15964750945568085,-0.022697795182466507,0.01201647985726595,0.09327077120542526,-0.02079041674733162,0.022697795182466507
5.987905263900757,-0.16041046380996704,-0.023460745811462402,0.012397955171763897,0.09365224838256836,-0.02079041674733162,0.023079270496964455
6.007972240447998,-0.16041046380996704,-0.024223696440458298,0.012397955171763897,0.09365224838256836,-0.021171892061829567,0.023079270496964455
6.028090000152588,-0.16041046380996704,-0.024986648932099342,0.013160906732082367,0.09403372555971146,-0.02193484455347061,0.023079270496964455
6.0481579303741455,-0.16117341816425323,-0.026512550190091133,0.01430533267557621,0.09441519528627396,-0.02193484455347061,0.023079270496964455
6.068269729614258,-0.16155488789081573,-0.02689402550458908,0.01506828423589468,0.09517814964056015,-0.021171892061829567,0.023460745811462402
6.088422060012817,-0.16231784224510193,-0.02841992862522602,0.015449759550392628,0.09632257372140884,-0.021171892061829567,0.023079270496964455
6.108460426330566,-0.16308079659938812,-0.029564354568719864,0.016212711110711098,0.09708552807569504,-0.021171892061829567,0.023460745811462402
6.128515243530273,-0.16384375095367432,-0.030708782374858856,0.016975661739706993,0.09746700525283813,-0.021553369238972664,0.023460745811462402
6.148622274398804,-0.164988175034523,-0.03147173300385475,0.01773861236870289,0.09784847497940063,-0.021553369238972664,0.023460745811462402
6.168682813644409,-0.1657511293888092,-0.03223468363285065,0.018120087683200836,0.09822995215654373,-0.021553369238972664,0.02384222112596035
6.188871622085571,-0.1661325991153717,-0.03299763426184654,0.01926451548933983,0.09861142933368683,-0.02231631986796856,0.02384222112596035
6.208954572677612,-0.1668955534696579,-0.03376058489084244,0.020027466118335724,0.10013733059167862,-0.02193484455347061,0.02384222112596035
6.229049205780029,-0.1676585078239441,-0.03490501269698143,0.02079041674733162,0.10128175467252731,-0.02193484455347061,0.02384222112596035
6.249119758605957,-0.1676585078239441,-0.03604944050312042,0.021553369238972664,0.10128175467252731,-0.021553369238972664,0.024223696440458298
6.26916766166687,-0.1680399775505066,-0.037193864583969116,0.02231631986796856,0.10166323184967041,-0.02193484455347061,0.024223696440458298
6.289276361465454,-0.16880293190479279,-0.03833829239010811,0.023079270496964455,0.10204470902681351,-0.02193484455347061,0.024223696440458298
6.309425115585327,-0.16956588625907898,-0.039101243019104004,0.023460745811462402,0.1028076633810997,-0.02193484455347061,0.024605173617601395
6.329437971115112,-0.16994735598564148,-0.0398641936480999,0.02384222112596035,0.10433356463909149,-0.02193484455347061,0.024605173617601395
6.349508762359619,-0.17071031033992767,-0.04100862145423889,0.024605173617601395,0.10471503436565399,-0.02193484455347061,0.024986648932099342
6.369574785232544,-0.17223620414733887,-0.04291599988937378,0.025749599561095238,0.10471503436565399,-0.021553369238972664,0.025749599561095238
6.389793157577515,-0.17261768877506256,-0.04406042397022247,0.02689402550458908,0.10509651154279709,-0.02193484455347061,0.02689402550458908
6.409815549850464,-0.17299915850162506,-0.045204851776361465,0.02727550081908703,0.10585946589708328,-0.02193484455347061,0.02727550081908703
6.429887056350708,-0.17414358258247375,-0.046730753034353256,0.028038453310728073,0.10624094307422638,-0.02193484455347061,0.02727550081908703
6.449966192245483,-0.17452506721019745,-0.048256658017635345,0.029182879254221916,0.10738536715507507,-0.02193484455347061,0.02727550081908703
6.470064401626587,-0.17490653693675995,-0.048638131469488144,0.029564354568719864,0.10852979123592377,-0.02193484455347061,0.02727550081908703
6.4901039600372314,-0.17528800666332245,-0.049782559275627136,0.03032730519771576,0.10852979123592377,-0.02193484455347061,0.02727550081908703
6.510148525238037,-0.17566949129104614,-0.05054550990462303,0.03147173300385475,0.10929274559020996,-0.02193484455347061,0.02727550081908703
6.530227422714233,-0.17719538509845734,-0.05245288833975792,0.03223468363285065,0.10929274559020996,-0.02193484455347061,0.02727550081908703
6.550289630889893,-0.17719538509845734,-0.053215838968753815,0.03299763426184654,0.10967422276735306,-0.021553369238972664,0.02727550081908703
6.570369005203247,-0.17795833945274353,-0.05436026677489281,0.03337911143898964,0.11120012402534485,-0.02193484455347061,0.027656977996230125
6.590702295303345,-0.17910276353359222,-0.0555046908557415,0.034142062067985535,0.11234454810619354,-0.021553369238972664,0.027656977996230125
6.6108691692352295,-0.1802472025156021,-0.05664911866188049,0.035667963325977325,0.11234454810619354,-0.02193484455347061,0.027656977996230125
6.630964994430542,-0.1802472025156021,-0.057793546468019485,0.03681239113211632,0.11272602528333664,-0.02193484455347061,0.027656977996230125
6.650987386703491,-0.1810101419687271,-0.05893797054886818,0.037193864583969116,0.11310750246047974,-0.02231631986796856,0.027656977996230125
6.6710546016693115,-0.1813916265964508,-0.06008239835500717,0.03795681521296501,0.11425192654132843,-0.02193484455347061,0.027656977996230125
6.691143989562988,-0.182154580950737,-0.06160829961299896,0.038719769567251205,0.11501488089561462,-0.021553369238972664,0.027656977996230125
6.711194753646851,-0.182154580950737,-0.06275273114442825,0.0394827201962471,0.11577782779932022,-0.02193484455347061,0.028038453310728073
6.7312657833099365,-0.1825360506772995,-0.06351567804813385,0.0398641936480999,0.11615930497646332,-0.02193484455347061,0.028038453310728073
6.751323699951172,-0.1832990050315857,-0.06466010212898254,0.040627144277095795,0.11654078215360641,-0.02193484455347061,0.028038453310728073
6.771404504776001,-0.1844434291124344,-0.06580453366041183,0.04139009863138199,0.11692225188016891,-0.021553369238972664,0.028038453310728073
6.7914719581604,-0.1848248988389969,-0.06733043491840363,0.042153049260377884,0.11768520623445511,-0.021553369238972664,0.028038453310728073
6.811574697494507,-0.18520638346672058,-0.06809338182210922,0.04253452271223068,0.11959258466959,-0.021553369238972664,0.02841992862522602
6.831653356552124,-0.18635080754756927,-0.06923781335353851,0.043678950518369675,0.1199740618467331,-0.02193484455347061,0.029182879254221916
6.851720571517944,-0.18673227727413177,-0.0711451917886734,0.04444190114736557,0.1203555315732956,-0.02193484455347061,0.029182879254221916
6.8717873096466064,-0.18711376190185547,-0.0722896158695221,0.04558632895350456,0.12149996310472488,-0.021553369238972664,0.029564354568719864
6.891872406005859,-0.18749523162841797,-0.07305257022380829,0.04634927958250046,0.12302586436271667,-0.02193484455347061,0.029564354568719864
6.911910057067871,-0.18863965570926666,-0.07495994865894318,0.04711223021149635,0.12378881871700287,-0.021553369238972664,0.02994582988321781
6.932003498077393,-0.18940261006355286,-0.07648584991693497,0.048256658017635345,0.12417028844356537,-0.021171892061829567,0.02994582988321781
6.9520745277404785,-0.18940261006355286,-0.07801175117492676,0.04901960864663124,0.12455176562070847,-0.021553369238972664,0.03032730519771576
6.972150802612305,-0.18940261006355286,-0.07877469807863235,0.049782559275627136,0.12531471252441406,-0.02193484455347061,0.03032730519771576
6.9922497272491455,-0.18978407979011536,-0.07953765243291855,0.05054550990462303,0.12722209095954895,-0.02193484455347061,0.03032730519771576
7.0125391483306885,-0.19054703414440155,-0.08144503086805344,0.05207141116261482,0.12760357558727264,-0.021553369238972664,0.03032730519771576
7.032614231109619,-0.19169145822525024,-0.08335240930318832,0.05359731614589691,0.12760357558727264,-0.02079041674733162,0.03032730519771576
7.052679538726807,-0.19245441257953644,-0.08487831056118011,0.054741740226745605,0.12836651504039764,-0.02079041674733162,0.03032730519771576
7.0727410316467285,-0.19359883666038513,-0.0864042118191719,0.0555046908557415,0.12912946939468384,-0.02040894143283367,0.03032730519771576
7.0928053855896,-0.19436179101467133,-0.0879301130771637,0.056267641484737396,0.13065537810325623,-0.02079041674733162,0.030708782374858856
7.1128928661346436,-0.19474326074123383,-0.08907453715801239,0.05703059583902359,0.13103684782981873,-0.02079041674733162,0.030708782374858856
7.132981538772583,-0.1958876997232437,-0.09060044586658478,0.058175019919872284,0.13141833245754242,-0.021171892061829567,0.030708782374858856
7.153046131134033,-0.1966506391763687,-0.09174486994743347,0.05893797054886818,0.13179980218410492,-0.02079041674733162,0.030708782374858856
7.173110008239746,-0.1966506391763687,-0.09327077120542526,0.06008239835500717,0.13218127191066742,-0.02079041674733162,0.030708782374858856
7.193191051483154,-0.1966506391763687,-0.09479667246341705,0.061226826161146164,0.1333257108926773,-0.02079041674733162,0.031090257689356804
7.21327543258667,-0.1970321238040924,-0.09594109654426575,0.06198977679014206,0.134470134973526,-0.02079041674733162,0.030708782374858856
7.233328342437744,-0.1974135935306549,-0.09708552807569504,0.06313420087099075,0.1348516047000885,-0.02040894143283367,0.030708782374858856
7.253373384475708,-0.1989395022392273,-0.09861142933368683,0.06389715522527695,0.1356145590543747,-0.020027466118335724,0.030708782374858856
7.2735512256622314,-0.1997024416923523,-0.10013733059167862,0.06580453366041183,0.1363775134086609,-0.020027466118335724,0.030708782374858856
7.293646574020386,-0.200083926320076,-0.10128175467252731,0.06656748056411743,0.13790340721607208,-0.020027466118335724,0.030708782374858856
7.313680171966553,-0.20084688067436218,-0.1024261862039566,0.06771191209554672,0.13866636157035828,-0.020027466118335724,0.031090257689356804
7.333738803863525,-0.20160982012748718,-0.1035706102848053,0.06885633617639542,0.13866636157035828,-0.02040894143283367,0.031090257689356804
7.353841781616211,-0.20199130475521088,-0.10547798871994019,0.07000076025724411,0.13904783129692078,-0.02040894143283367,0.03147173300385475
7.37389612197876,-0.20199130475521088,-0.10662241280078888,0.0711451917886734,0.13942931592464447,-0.02040894143283367,0.031090257689356804
7.394006967544556,-0.20237277448177338,-0.10852979123592377,0.0715266615152359,0.14019227027893066,-0.020027466118335724,0.031090257689356804
7.414042949676514,-0.20389868319034576,-0.11081864684820175,0.07267109304666519,0.14133669435977936,-0.019645990803837776,0.031090257689356804
7.4341418743133545,-0.20389868319034576,-0.11272602528333664,0.07381551712751389,0.14248111844062805,-0.019645990803837776,0.03147173300385475
7.454207897186279,-0.20389868319034576,-0.11425192654132843,0.07534141838550568,0.14362554252147675,-0.020027466118335724,0.03147173300385475
7.474261999130249,-0.20428015291690826,-0.11577782779932022,0.07610437273979187,0.14515145123004913,-0.020027466118335724,0.03147173300385475
7.494310617446899,-0.20504310727119446,-0.11692225188016891,0.07724879682064056,0.14629587531089783,-0.020027466118335724,0.03185320645570755
7.514387845993042,-0.20580606162548065,-0.1180666834115982,0.07801175117492676,0.14629587531089783,-0.019645990803837776,0.03147173300385475
7.534451246261597,-0.20618753135204315,-0.1192111074924469,0.07953765243291855,0.14705882966518402,-0.01926451548933983,0.03185320645570755
7.554560899734497,-0.20618753135204315,-0.1199740618467331,0.08068207651376724,0.14782176911830902,-0.019645990803837776,0.03185320645570755
7.574634552001953,-0.20695048570632935,-0.12111848592758179,0.08182650804519653,0.1497291475534439,-0.019645990803837776,0.03185320645570755
7.594700336456299,-0.20771344006061554,-0.12302586436271667,0.08297093212604523,0.1501106321811676,-0.020027466118335724,0.03223468363285065
7.61477255821228,-0.20847637951374054,-0.12417028844356537,0.08411535620689392,0.1504921019077301,-0.019645990803837776,0.03223468363285065
7.634867429733276,-0.20923933386802673,-0.12607766687870026,0.08525978773832321,0.1512550562620163,-0.019645990803837776,0.03223468363285065
7.654932022094727,-0.20923933386802673,-0.12798504531383514,0.08602273464202881,0.15316243469715118,-0.019645990803837776,0.032616160809993744
7.675049304962158,-0.20962081849575043,-0.13027389347553253,0.0871671661734581,0.15392538905143738,-0.01926451548933983,0.03337911143898964
7.695134878158569,-0.21038375794887543,-0.13141833245754242,0.0883115902543068,0.15468832850456238,-0.01926451548933983,0.034142062067985535
7.715223073959351,-0.21114671230316162,-0.1329442262649536,0.08983749151229858,0.15583276748657227,-0.01926451548933983,0.034142062067985535
7.735332250595093,-0.21114671230316162,-0.1340886503458023,0.09098191559314728,0.15697719156742096,-0.019645990803837776,0.03452353551983833
7.756203889846802,-0.21114671230316162,-0.135233074426651,0.09212634712457657,0.15735866129398346,-0.019645990803837776,0.03490501269698143
7.7763142585754395,-0.21152819693088531,-0.1371404528617859,0.09365224838256836,0.15774014592170715,-0.019645990803837776,0.03452353551983833
7.796385765075684,-0.21229113638401031,-0.13942931592464447,0.09594109654426575,0.15888457000255585,-0.01926451548933983,0.03490501269698143
7.816496133804321,-0.212672621011734,-0.14133669435977936,0.09670405089855194,0.16002899408340454,-0.018501564860343933,0.03490501269698143
7.836560249328613,-0.2134355753660202,-0.14286258816719055,0.09784847497940063,0.16117341816425323,-0.018501564860343933,0.03490501269698143
7.8566131591796875,-0.2141985148191452,-0.14515145123004913,0.09937438368797302,0.16155488789081573,-0.01888304017484188,0.03490501269698143
7.876688003540039,-0.2145799994468689,-0.14629587531089783,0.10051880776882172,0.16269932687282562,-0.01926451548933983,0.03490501269698143
7.8967626094818115,-0.2157244235277176,-0.14782176911830902,0.10204470902681351,0.1646067053079605,-0.01926451548933983,0.03528648987412453
7.916843414306641,-0.21648737788200378,-0.1497291475534439,0.1024261862039566,0.164988175034523,-0.01888304017484188,0.03528648987412453
7.9369282722473145,-0.21648737788200378,-0.1508735716342926,0.1035706102848053,0.1653696447610855,-0.01926451548933983,0.03528648987412453
7.957001447677612,-0.21648737788200378,-0.1527809500694275,0.10509651154279709,0.1661325991153717,-0.01888304017484188,0.035667963325977325
7.977065801620483,-0.21648737788200378,-0.15468832850456238,0.10624094307422638,0.1676585078239441,-0.018501564860343933,0.03528648987412453
7.9970924854278564,-0.21763180196285248,-0.15659570693969727,0.10700388997793198,0.16880293190479279,-0.01773861236870289,0.035667963325977325
8.017221689224243,-0.21839475631713867,-0.15774014592170715,0.10852979123592377,0.16918440163135529,-0.018501564860343933,0.03604944050312042
8.037256479263306,-0.21839475631713867,-0.15888457000255585,0.10967422276735306,0.17109178006649017,-0.018501564860343933,0.03604944050312042
8.057334423065186,-0.21839475631713867,-0.16041046380996704,0.11120012402534485,0.17223620414733887,-0.01888304017484188,0.03681239113211632
8.077404022216797,-0.21839475631713867,-0.16193637251853943,0.11234454810619354,0.17299915850162506,-0.01888304017484188,0.037193864583969116
8.09749460220337,-0.21877622604370117,-0.16346226632595062,0.11387044936418533,0.17414358258247375,-0.018501564860343933,0.037193864583969116
8.117613554000854,-0.21915769577026367,-0.1653696447610855,0.11539635062217712,0.17605096101760864,-0.018120087683200836,0.03757534176111221
8.137716054916382,-0.21992065012454987,-0.1684214472770691,0.11692225188016891,0.17643244564533234,-0.01773861236870289,0.03757534176111221
8.157735347747803,-0.22068360447883606,-0.17071031033992767,0.1180666834115982,0.17643244564533234,-0.01735713705420494,0.03757534176111221
8.178047180175781,-0.22106507420539856,-0.17185473442077637,0.1199740618467331,0.17795833945274353,-0.018501564860343933,0.03757534176111221
8.19823408126831,-0.22182802855968475,-0.17376211285591125,0.12111848592758179,0.17986571788787842,-0.018501564860343933,0.03795681521296501
8.218249797821045,-0.22259098291397095,-0.17605096101760864,0.12188144028186798,0.1802472025156021,-0.018120087683200836,0.03795681521296501
8.238317728042603,-0.22297245264053345,-0.17795833945274353,0.12340734153985977,0.1810101419687271,-0.018501564860343933,0.03795681521296501
8.258373975753784,-0.22297245264053345,-0.17910276353359222,0.12531471252441406,0.182917520403862,-0.018120087683200836,0.03795681521296501
8.278493404388428,-0.22335393726825714,-0.1802472025156021,0.12684062123298645,0.1832990050315857,-0.01773861236870289,0.03795681521296501
8.298593521118164,-0.22373540699481964,-0.1817730963230133,0.12836651504039764,0.1836804747581482,-0.01773861236870289,0.03795681521296501
8.318634033203125,-0.22411687672138214,-0.182917520403862,0.12912946939468384,0.1840619444847107,-0.01773861236870289,0.03795681521296501
8.338711738586426,-0.22449836134910583,-0.1844434291124344,0.13065537810325623,0.1844434291124344,-0.01773861236870289,0.03795681521296501
8.358781814575195,-0.22487983107566833,-0.18749523162841797,0.13218127191066742,0.18558785319328308,-0.01773861236870289,0.03795681521296501
8.378888607025146,-0.22564278542995453,-0.18940261006355286,0.1337071806192398,0.18749523162841797,-0.01773861236870289,0.03833829239010811
8.399044275283813,-0.22602425515651703,-0.19054703414440155,0.134470134973526,0.18749523162841797,-0.01773861236870289,0.03795681521296501
8.41903281211853,-0.22564278542995453,-0.19359883666038513,0.1356145590543747,0.18902114033699036,-0.01773861236870289,0.03833829239010811
8.439120054244995,-0.22602425515651703,-0.19474326074123383,0.13752193748950958,0.19092851877212524,-0.01773861236870289,0.03833829239010811
8.459184885025024,-0.22640573978424072,-0.1962691694498062,0.13942931592464447,0.19092851877212524,-0.016975661739706993,0.03833829239010811
8.479280948638916,-0.22678720951080322,-0.1981765478849411,0.14057374000549316,0.19169145822525024,-0.016975661739706993,0.03833829239010811
8.499489545822144,-0.22755016386508942,-0.20084688067436218,0.14209964871406555,0.19245441257953644,-0.016594186425209045,0.03833829239010811
8.519598245620728,-0.2283131182193756,-0.20199130475521088,0.14400701224803925,0.19474326074123383,-0.016212711110711098,0.03833829239010811
8.539668560028076,-0.2283131182193756,-0.20351719856262207,0.14515145123004913,0.19550621509552002,-0.016212711110711098,0.03833829239010811
8.559864282608032,-0.2283131182193756,-0.20428015291690826,0.14591439068317413,0.1970321238040924,-0.016975661739706993,0.03833829239010811
8.580248832702637,-0.2290760725736618,-0.20733195543289185,0.14782176911830902,0.1989395022392273,-0.016594186425209045,0.03833829239010811
8.600329875946045,-0.2302204966545105,-0.20962081849575043,0.1497291475534439,0.1997024416923523,-0.016212711110711098,0.03833829239010811
8.620393991470337,-0.2302204966545105,-0.21114671230316162,0.1512550562620163,0.20160982012748718,-0.015449759550392628,0.03833829239010811
8.640460729598999,-0.2302204966545105,-0.2134355753660202,0.152399480342865,0.20275425910949707,-0.01583123579621315,0.038719769567251205
8.660520792007446,-0.2309834510087967,-0.2153429538011551,0.15392538905143738,0.20389868319034576,-0.016594186425209045,0.038719769567251205
8.680667877197266,-0.2313649207353592,-0.21877622604370117,0.15621423721313477,0.20580606162548065,-0.016212711110711098,0.038719769567251205
8.70071530342102,-0.2309834510087967,-0.22182802855968475,0.15774014592170715,0.20618753135204315,-0.01583123579621315,0.03833829239010811
8.720903396606445,-0.2313649207353592,-0.22335393726825714,0.15926603972911835,0.20656901597976685,-0.01583123579621315,0.038719769567251205
8.74108338356018,-0.23212787508964539,-0.22526131570339203,0.16155488789081573,0.20733195543289185,-0.015449759550392628,0.038719769567251205
8.761080265045166,-0.23289081454277039,-0.22640573978424072,0.16308079659938812,0.20962081849575043,-0.015449759550392628,0.038719769567251205
8.781123399734497,-0.23289081454277039,-0.2283131182193756,0.164988175034523,0.21038375794887543,-0.01583123579621315,0.038719769567251205
8.80120301246643,-0.23327229917049408,-0.2313649207353592,0.1676585078239441,0.21229113638401031,-0.01583123579621315,0.038719769567251205
8.821274995803833,-0.23327229917049408,-0.23365376889705658,0.16918440163135529,0.2138170450925827,-0.01583123579621315,0.038719769567251205
8.841341733932495,-0.23327229917049408,-0.23632410168647766,0.17032882571220398,0.2138170450925827,-0.01583123579621315,0.038719769567251205
8.861401557922363,-0.23365376889705658,-0.23708705604076385,0.17185473442077637,0.2153429538011551,-0.01506828423589468,0.038719769567251205
8.881497144699097,-0.23403525352478027,-0.24013885855674744,0.17299915850162506,0.21686884760856628,-0.01506828423589468,0.038719769567251205
8.901597499847412,-0.23441672325134277,-0.24090181291103363,0.17490653693675995,0.21725031733512878,-0.014686808921396732,0.038719769567251205
8.92166519165039,-0.23517967760562897,-0.24242770671844482,0.17643244564533234,0.21801327168941498,-0.01506828423589468,0.038719769567251205
8.94170594215393,-0.23517967760562897,-0.2439536154270172,0.17833982408046722,0.21915769577026367,-0.015449759550392628,0.038719769567251205
8.961784362792969,-0.23517967760562897,-0.2458609938621521,0.1806286722421646,0.22068360447883606,-0.01506828423589468,0.038719769567251205
8.981871366500854,-0.23556114733219147,-0.2473868876695633,0.1825360506772995,0.22144655883312225,-0.01506828423589468,0.039101243019104004
9.001935958862305,-0.23556114733219147,-0.24891279637813568,0.1840619444847107,0.22335393726825714,-0.014686808921396732,0.038719769567251205
9.022003412246704,-0.23632410168647766,-0.25196459889411926,0.18558785319328308,0.22526131570339203,-0.013923857361078262,0.039101243019104004
9.042081594467163,-0.23670557141304016,-0.25463491678237915,0.18749523162841797,0.22678720951080322,-0.013542382046580315,0.038719769567251205
9.062159299850464,-0.23746852576732635,-0.2569237947463989,0.18978407979011536,0.2283131182193756,-0.013160906732082367,0.039101243019104004
9.08221435546875,-0.23746852576732635,-0.2588311731815338,0.19092851877212524,0.2290760725736618,-0.01430533267557621,0.039101243019104004
9.10238242149353,-0.23746852576732635,-0.2615014910697937,0.19283588230609894,0.2309834510087967,-0.01506828423589468,0.039101243019104004
9.122479438781738,-0.23823148012161255,-0.2637903392314911,0.19474326074123383,0.23250934481620789,-0.014686808921396732,0.0394827201962471
9.142563819885254,-0.23861294984817505,-0.265697717666626,0.1974135935306549,0.23327229917049408,-0.013542382046580315,0.039101243019104004
9.162651777267456,-0.23861294984817505,-0.26722362637519836,0.1989395022392273,0.23517967760562897,-0.012779430486261845,0.039101243019104004
9.182689905166626,-0.23861294984817505,-0.26951247453689575,0.20084688067436218,0.23632410168647766,-0.012397955171763897,0.039101243019104004
9.202778339385986,-0.23937590420246124,-0.27141985297203064,0.20313572883605957,0.23632410168647766,-0.01201647985726595,0.039101243019104004
9.222843170166016,-0.23937590420246124,-0.273708701133728,0.20504310727119446,0.23785001039505005,-0.01125352829694748,0.039101243019104004
9.242954015731812,-0.23937590420246124,-0.2767605185508728,0.20695048570632935,0.23937590420246124,-0.011635004542768002,0.039101243019104004
9.26302719116211,-0.23975738883018494,-0.2794308364391327,0.20847637951374054,0.24052032828330994,-0.01201647985726595,0.0394827201962471
9.28312349319458,-0.24013885855674744,-0.2817196846008301,0.21114671230316162,0.24204623699188232,-0.01201647985726595,0.0394827201962471
9.303228855133057,-0.24052032828330994,-0.28362706303596497,0.2130540907382965,0.24357213079929352,-0.01125352829694748,0.0394827201962471
9.323279857635498,-0.24052032828330994,-0.28629741072654724,0.2149614691734314,0.2439536154270172,-0.01125352829694748,0.0394827201962471
9.343321800231934,-0.24052032828330994,-0.28858625888824463,0.21648737788200378,0.2447165697813034,-0.01125352829694748,0.0394827201962471
9.363397359848022,-0.24052032828330994,-0.2912565767765045,0.21877622604370117,0.2466239482164383,-0.01125352829694748,0.0394827201962471
9.383484363555908,-0.24052032828330994,-0.2927824854850769,0.22144655883312225,0.247768372297287,-0.01125352829694748,0.0394827201962471
9.403599739074707,-0.24052032828330994,-0.2943083941936493,0.22335393726825714,0.24891279637813568,-0.010872052982449532,0.0394827201962471
9.42366099357605,-0.24090181291103363,-0.2965972423553467,0.22564278542995453,0.25158312916755676,-0.010872052982449532,0.0394827201962471
9.44381046295166,-0.24128328263759613,-0.29964902997016907,0.2283131182193756,0.25310903787612915,-0.010490577667951584,0.0394827201962471
9.463927507400513,-0.24166475236415863,-0.30270084738731384,0.2309834510087967,0.25501641631126404,-0.010109102353453636,0.0394827201962471
9.484036684036255,-0.24166475236415863,-0.30498969554901123,0.23289081454277039,0.25654229521751404,-0.010109102353453636,0.0394827201962471
9.504056692123413,-0.24204623699188232,-0.308041512966156,0.23441672325134277,0.2584496736526489,-0.010109102353453636,0.0394827201962471
9.524191617965698,-0.24280919134616852,-0.3107118308544159,0.23632410168647766,0.2599755823612213,-0.009727626107633114,0.0394827201962471
9.54426383972168,-0.24280919134616852,-0.3130006790161133,0.23899443447589874,0.2618829607963562,-0.009727626107633114,0.0394827201962471
9.56433653831482,-0.24280919134616852,-0.31567102670669556,0.24166475236415863,0.2626459002494812,-0.008964675478637218,0.0394827201962471
9.58438491821289,-0.24280919134616852,-0.31910428404808044,0.2443350851535797,0.2637903392314911,-0.00858320016413927,0.0394827201962471
9.60447359085083,-0.24319066107273102,-0.3221561014652252,0.247768372297287,0.2660791873931885,-0.0078202486038208,0.0398641936480999
9.624541521072388,-0.24357213079929352,-0.3240634799003601,0.24929426610469818,0.26722362637519836,-0.007438773289322853,0.0394827201962471
9.644646167755127,-0.24357213079929352,-0.32673379778862,0.25120165944099426,0.26951247453689575,-0.0078202486038208,0.0394827201962471
9.665019989013672,-0.24357213079929352,-0.32940414547920227,0.25387197732925415,0.27065691351890564,-0.007438773289322853,0.0394827201962471
9.68510127067566,-0.24357213079929352,-0.33321890234947205,0.2573052644729614,0.27180132269859314,-0.007438773289322853,0.0394827201962471
9.705196619033813,-0.24357213079929352,-0.33588922023773193,0.2592126429080963,0.273708701133728,-0.006294346414506435,0.0394827201962471
9.725218057632446,-0.2439536154270172,-0.3381780683994293,0.2618829607963562,0.2744716703891754,-0.00667582219466567,0.0394827201962471
9.7456693649292,-0.2447165697813034,-0.3400854468345642,0.2634088695049286,0.2775234580039978,-0.00667582219466567,0.0394827201962471
9.765767097473145,-0.2454795092344284,-0.343900203704834,0.266460657119751,0.2798123061656952,-0.006294346414506435,0.0394827201962471
9.785849332809448,-0.2454795092344284,-0.34771496057510376,0.26836803555488586,0.2821011543273926,-0.005531395319849253,0.0394827201962471
9.805904865264893,-0.2454795092344284,-0.35152971744537354,0.27065691351890564,0.28477150201797485,-0.005531395319849253,0.0394827201962471
9.8259916305542,-0.2454795092344284,-0.3545815348625183,0.2733272314071655,0.28667888045310974,-0.005531395319849253,0.0394827201962471
9.846122741699219,-0.2454795092344284,-0.3580147922039032,0.2759975492954254,0.28896772861480713,-0.005531395319849253,0.0398641936480999
9.866156339645386,-0.2454795092344284,-0.3614480793476105,0.2779049277305603,0.28934919834136963,-0.00476844422519207,0.0394827201962471
9.886240005493164,-0.2454795092344284,-0.36488136649131775,0.2801937758922577,0.2924010157585144,-0.004005493130534887,0.0394827201962471
9.906283378601074,-0.2454795092344284,-0.368314653635025,0.28286412358283997,0.2943083941936493,-0.0032425422687083483,0.0394827201962471
9.926363945007324,-0.2454795092344284,-0.3709849715232849,0.28553444147109985,0.2962157726287842,-0.0036240178160369396,0.0394827201962471
9.946428537368774,-0.2454795092344284,-0.3721294105052948,0.28782328963279724,0.2973601818084717,-0.0032425422687083483,0.0394827201962471
9.96651315689087,-0.2454795092344284,-0.3747997283935547,0.28973066806793213,0.30041199922561646,-0.0036240178160369396,0.0394827201962471
9.986574649810791,-0.2454795092344284,-0.37861448526382446,0.2927824854850769,0.30346378684043884,-0.002861066721379757,0.0394827201962471
10.006692171096802,-0.2454795092344284,-0.38242924213409424,0.2954528033733368,0.3065156042575836,-0.0020981156267225742,0.039101243019104004
10.026766777038574,-0.2454795092344284,-0.3850995600223541,0.29812315106391907,0.308041512966156,-0.0020981156267225742,0.0394827201962471
10.046818017959595,-0.2454795092344284,-0.3877699077129364,0.30003052949905396,0.3103303611278534,-0.0020981156267225742,0.039101243019104004
10.066885232925415,-0.2454795092344284,-0.3912031650543213,0.30270084738731384,0.3122377395629883,-0.001716639962978661,0.0394827201962471
10.086980819702148,-0.2454795092344284,-0.39501792192459106,0.3057526648044586,0.31452658772468567,-0.000572213320992887,0.039101243019104004
10.107084274291992,-0.2454795092344284,-0.39768826961517334,0.308804452419281,0.31605249643325806,-0.000572213320992887,0.039101243019104004
10.127134323120117,-0.2454795092344284,-0.4015030264854431,0.3099488914012909,0.31834134459495544,-0.000572213320992887,0.039101243019104004
10.147291660308838,-0.2454795092344284,-0.4053177833557129,0.3130006790161133,0.3217746317386627,-0.000572213320992887,0.039101243019104004
10.16736364364624,-0.2454795092344284,-0.40989547967910767,0.31528952717781067,0.3240634799003601,-0.000572213320992887,0.039101243019104004
10.187562227249146,-0.2454795092344284,-0.41371023654937744,0.31795987486839294,0.325970858335495,0.00019073777366429567,0.038719769567251205
10.207571506500244,-0.2454795092344284,-0.41638055443763733,0.32024872303009033,0.32940414547920227,0.00019073777366429567,0.038719769567251205
10.22765851020813,-0.2454795092344284,-0.4190509021282196,0.3236820101737976,0.33245593309402466,0.00019073777366429567,0.038719769567251205
10.247713088989258,-0.2454795092344284,-0.422102689743042,0.3263523280620575,0.33474478125572205,0.00019073777366429567,0.038719769567251205
10.267815589904785,-0.2454795092344284,-0.42553597688674927,0.3286411762237549,0.3370336592197418,0.0009536888683214784,0.03833829239010811
10.287865161895752,-0.2454795092344284,-0.42858776450157166,0.33169299364089966,0.3404669165611267,0.0020981156267225742,0.03833829239010811
10.30793285369873,-0.2454795092344284,-0.43202105164527893,0.33474478125572205,0.3423742949962616,0.0020981156267225742,0.03833829239010811
10.328004360198975,-0.2454795092344284,-0.4362172782421112,0.3370336592197418,0.34504464268684387,0.002861066721379757,0.03795681521296501
10.348077774047852,-0.2454795092344284,-0.4404135048389435,0.3404669165611267,0.34847790002822876,0.0032425422687083483,0.03795681521296501
10.368164300918579,-0.2454795092344284,-0.44422826170921326,0.3435187339782715,0.35191118717193604,0.0036240178160369396,0.03757534176111221
10.388261079788208,-0.2454795092344284,-0.44804301857948303,0.34618905186653137,0.3549630045890808,0.004005493130534887,0.03757534176111221
10.408331155776978,-0.2454795092344284,-0.4518577754497528,0.34924086928367615,0.3576333224773407,0.004386968910694122,0.03757534176111221
10.428543090820312,-0.2454795092344284,-0.4556725323200226,0.3530556261539459,0.361066609621048,0.004386968910694122,0.037193864583969116
10.448589324951172,-0.2454795092344284,-0.45948728919029236,0.3572518527507782,0.36449989676475525,0.00476844422519207,0.03681239113211632
10.468621492385864,-0.2454795092344284,-0.46292057633399963,0.3599221706390381,0.36755168437957764,0.006294346414506435,0.03604944050312042
10.488669157028198,-0.2454795092344284,-0.4667353332042694,0.36373692750930786,0.3702220320701599,0.0078202486038208,0.03528648987412453
10.508750677108765,-0.2454795092344284,-0.4701686203479767,0.368314653635025,0.3721294105052948,0.008201723918318748,0.03452353551983833
10.528846740722656,-0.2454795092344284,-0.47474631667137146,0.3709849715232849,0.3751811981201172,0.00858320016413927,0.03376058489084244
10.54890489578247,-0.2454795092344284,-0.4797055125236511,0.3755626678466797,0.37937742471694946,0.009727626107633114,0.03337911143898964
10.569000244140625,-0.2454795092344284,-0.4850461483001709,0.37975889444351196,0.3854810297489166,0.010872052982449532,0.032616160809993744
10.58906888961792,-0.2454795092344284,-0.4892423748970032,0.3839551508426666,0.3892957866191864,0.010872052982449532,0.03147173300385475
10.609267711639404,-0.2454795092344284,-0.49305713176727295,0.3877699077129364,0.3931105434894562,0.010872052982449532,0.030708782374858856
10.629274606704712,-0.2447165697813034,-0.4980163276195526,0.3923476040363312,0.39768826961517334,0.01201647985726595,0.03032730519771576
10.649363994598389,-0.2443350851535797,-0.5025940537452698,0.39692530035972595,0.4015030264854431,0.012779430486261845,0.02994582988321781
10.669488668441772,-0.2443350851535797,-0.5079346895217896,0.4011215269565582,0.4064621925354004,0.013542382046580315,0.029564354568719864
10.689517974853516,-0.24357213079929352,-0.5128938555717468,0.4037918746471405,0.41103988885879517,0.01506828423589468,0.02841992862522602
10.709586381912231,-0.24204623699188232,-0.5189974904060364,0.4079881012439728,0.4175249934196472,0.016594186425209045,0.02727550081908703
10.729652404785156,-0.24204623699188232,-0.5251010656356812,0.41218432784080505,0.421339750289917,0.01773861236870289,0.026131074875593185
10.749750852584839,-0.24128328263759613,-0.5319676399230957,0.41599908471107483,0.42553597688674927,0.018501564860343933,0.02536812424659729
10.76997971534729,-0.24013885855674744,-0.5395971536636353,0.4205767810344696,0.43125811219215393,0.02040894143283367,0.022697795182466507
10.790158033370972,-0.23975738883018494,-0.5476081371307373,0.42591744661331177,0.438506156206131,0.02193484455347061,0.021553369238972664
10.810183048248291,-0.23937590420246124,-0.5544747114181519,0.43011367321014404,0.44460976123809814,0.022697795182466507,0.020027466118335724
10.830269575119019,-0.23861294984817505,-0.5621042251586914,0.4362172782421112,0.4488059878349304,0.02536812424659729,0.01926451548933983
10.850361585617065,-0.23823148012161255,-0.569733738899231,0.44308385252952576,0.45643550157546997,0.026131074875593185,0.01773861236870289
10.870418548583984,-0.23785001039505005,-0.5758373141288757,0.4488059878349304,0.4640650153160095,0.02727550081908703,0.016594186425209045
10.890530586242676,-0.23708705604076385,-0.5834668278694153,0.4549095928668976,0.4728389382362366,0.028038453310728073,0.014686808921396732
10.910585641860962,-0.23594263195991516,-0.5903334021568298,0.46177613735198975,0.482375830411911,0.03032730519771576,0.012779430486261845
10.930662631988525,-0.23517967760562897,-0.5971999764442444,0.4678797721862793,0.49038681387901306,0.031090257689356804,0.01125352829694748
10.950780868530273,-0.23365376889705658,-0.6044480204582214,0.4732204079627991,0.5014495849609375,0.03032730519771576,0.009727626107633114
10.970849752426147,-0.23250934481620789,-0.6132219433784485,0.47894254326820374,0.5117494463920593,0.031090257689356804,0.007057297509163618
10.990926265716553,-0.2309834510087967,-0.6219958662986755,0.4854276478290558,0.5247195959091187,0.03490501269698143,0.0032425422687083483
11.011032104492188,-0.2302204966545105,-0.6296253800392151,0.49267566204071045,0.5388342142105103,0.037193864583969116,-0.000572213320992887
11.03107476234436,-0.2302204966545105,-0.6364919543266296,0.4983977973461151,0.5540932416915894,0.040627144277095795,-0.005912871100008488
11.051135301589966,-0.2298390120267868,-0.6429770588874817,0.5025940537452698,0.5724040865898132,0.04634927958250046,-0.01125352829694748
11.07121992111206,-0.2302204966545105,-0.6490806341171265,0.506027340888977,0.5933852195739746,0.05054550990462303,-0.016975661739706993
11.091286182403564,-0.2302204966545105,-0.6536583304405212,0.507553219795227,0.6204699873924255,0.0551232174038887,-0.02727550081908703
11.111368417739868,-0.2302204966545105,-0.655947208404541,0.508316159248352,0.647936224937439,0.05741206929087639,-0.03757534176111221
11.131450414657593,-0.2302204966545105,-0.6563286781311035,0.508316159248352,0.6696802973747253,0.06160829961299896,-0.05092698708176613
11.151554584503174,-0.2302204966545105,-0.6563286781311035,0.508316159248352,0.7120240926742554,0.06618601083755493,-0.0715266615152359
11.171651363372803,-0.2302204966545105,-0.6555657386779785,0.508316159248352,0.7467383742332458,0.07457847148180008,-0.09555962681770325
11.191779613494873,-0.2298390120267868,-0.655947208404541,0.507553219795227,0.7791637778282166,0.08487831056118011,-0.12493324279785156
11.211829900741577,-0.2302204966545105,-0.6563286781311035,0.506027340888977,0.8119707107543945,0.09670405089855194,-0.15850308537483215
11.231874465942383,-0.2302204966545105,-0.6570916175842285,0.5029755234718323,0.8421072959899902,0.10471503436565399,-0.18902114033699036
11.251959800720215,-0.2298390120267868,-0.6601434350013733,0.5018310546875,0.8710994124412537,0.10547798871994019,-0.21953918039798737
11.272038459777832,-0.2298390120267868,-0.6643396615982056,0.5029755234718323,0.8939879536628723,0.10509651154279709,-0.2447165697813034
11.292125940322876,-0.2298390120267868,-0.6696802973747253,0.5064088106155396,0.9153505563735962,0.1035706102848053,-0.266460657119751
11.312180995941162,-0.2302204966545105,-0.6692988276481628,0.5125123858451843,0.9367132186889648,0.09937438368797302,-0.28782328963279724
11.332290649414062,-0.2302204966545105,-0.6689173579216003,0.5151827335357666,0.9569314122200012,0.1024261862039566,-0.3091859221458435
11.35236406326294,-0.2298390120267868,-0.6689173579216003,0.5148012638092041,0.9760051965713501,0.11425192654132843,-0.33054855465888977
11.372420072555542,-0.2302204966545105,-0.6692988276481628,0.5128938555717468,0.9927901029586792,0.12111848592758179,-0.35152971744537354
11.392534017562866,-0.2290760725736618,-0.6704432964324951,0.5079346895217896,1.0072861909866333,0.12455176562070847,-0.3686961233615875
11.41258692741394,-0.2283131182193756,-0.6723506450653076,0.506790280342102,1.021400809288025,0.11730372905731201,-0.38319218158721924
11.432617425918579,-0.22755016386508942,-0.6784542798995972,0.506790280342102,1.0343708992004395,0.1028076633810997,-0.39578089118003845
11.45283842086792,-0.2283131182193756,-0.6822690367698669,0.5148012638092041,1.047722578048706,0.08983749151229858,-0.4087510406970978
11.47292685508728,-0.2294575423002243,-0.6837949156761169,0.5258640646934509,1.0587854385375977,0.08106355369091034,-0.4198138415813446
11.492992401123047,-0.2309834510087967,-0.6822690367698669,0.5373083353042603,1.0694667100906372,0.08068207651376724,-0.43087664246559143
11.51305103302002,-0.22755016386508942,-0.6803616285324097,0.5399786233901978,1.0805294513702393,0.09441519528627396,-0.44346532225608826
11.533177614212036,-0.22297245264053345,-0.6780728101730347,0.5323491096496582,1.0915923118591309,0.12149996310472488,-0.45796138048171997
11.553261756896973,-0.22220951318740845,-0.6742580533027649,0.5193789601325989,1.101129174232483,0.1359960287809372,-0.4697871506214142
11.573344469070435,-0.22106507420539856,-0.6731135845184326,0.5117494463920593,1.1030365228652954,0.14324407279491425,-0.47779813408851624
11.593412160873413,-0.21801327168941498,-0.6750209927558899,0.5086976289749146,1.101892113685608,0.12684062123298645,-0.47932401299476624
11.61345386505127,-0.21763180196285248,-0.6807430982589722,0.5079346895217896,1.102655053138733,0.10662241280078888,-0.47779813408851624
11.63354229927063,-0.21725031733512878,-0.6837949156761169,0.506790280342102,1.1022735834121704,0.10051880776882172,-0.47817960381507874
11.653626918792725,-0.21801327168941498,-0.6822690367698669,0.5071717500686646,1.103417992591858,0.09975585341453552,-0.47741663455963135
11.6736900806427,-0.21877622604370117,-0.6803616285324097,0.5094605684280396,1.1037994623184204,0.11348897218704224,-0.47817960381507874
11.693774223327637,-0.21877622604370117,-0.6795986890792847,0.5113679766654968,1.1053253412246704,0.12798504531383514,-0.47817960381507874
11.713806390762329,-0.21839475631713867,-0.6795986890792847,0.5117494463920593,1.10685133934021,0.13179980218410492,-0.47817960381507874
11.73388123512268,-0.21801327168941498,-0.6795986890792847,0.5117494463920593,1.1064698696136475,0.12836651504039764,-0.47817960381507874
11.753962993621826,-0.21648737788200378,-0.6807430982589722,0.5106050372123718,1.1053253412246704,0.12111848592758179,-0.47856107354164124
11.774015426635742,-0.2149614691734314,-0.6826505064964294,0.5102235674858093,1.104943871498108,0.11577782779932022,-0.47817960381507874
11.794097661972046,-0.2145799994468689,-0.6826505064964294,0.5098420977592468,1.1045624017715454,0.11158160120248795,-0.47817960381507874
11.814168214797974,-0.2145799994468689,-0.6822690367698669,0.5102235674858093,1.104943871498108,0.11387044936418533,-0.47817960381507874
11.834259986877441,-0.2161058932542801,-0.6822690367698669,0.5113679766654968,1.1057069301605225,0.1184481605887413,-0.47817960381507874
11.854357719421387,-0.21648737788200378,-0.6822690367698669,0.5117494463920593,1.106088399887085,0.12340734153985977,-0.47817960381507874
11.874439239501953,-0.2157244235277176,-0.6822690367698669,0.5117494463920593,1.1064698696136475,0.12226291000843048,-0.47817960381507874
11.89452862739563,-0.2153429538011551,-0.6826505064964294,0.5117494463920593,1.1057069301605225,0.1203555315732956,-0.47856107354164124
11.914676666259766,-0.2141985148191452,-0.6830319762229919,0.5117494463920593,1.1057069301605225,0.1184481605887413,-0.47817960381507874
11.934776782989502,-0.21114671230316162,-0.6837949156761169,0.5117494463920593,1.1057069301605225,0.11577782779932022,-0.47817960381507874
11.954846620559692,-0.21114671230316162,-0.6837949156761169,0.5117494463920593,1.1057069301605225,0.1180666834115982,-0.47817960381507874
11.974904775619507,-0.21114671230316162,-0.6837949156761169,0.5121309161186218,1.1057069301605225,0.11959258466959,-0.47817960381507874
11.99516224861145,-0.21114671230316162,-0.6837949156761169,0.5128938555717468,1.106088399887085,0.11959258466959,-0.47817960381507874
12.015258550643921,-0.21114671230316162,-0.6837949156761169,0.5128938555717468,1.106088399887085,0.1203555315732956,-0.47817960381507874
12.035383462905884,-0.21114671230316162,-0.6841763854026794,0.5128938555717468,1.106088399887085,0.1192111074924469,-0.47817960381507874
12.055466413497925,-0.21114671230316162,-0.6845578551292419,0.5128938555717468,1.1057069301605225,0.1180666834115982,-0.47817960381507874
12.075505018234253,-0.21114671230316162,-0.6845578551292419,0.5128938555717468,1.1057069301605225,0.1184481605887413,-0.47817960381507874
12.095651626586914,-0.21114671230316162,-0.6845578551292419,0.5132753252983093,1.1057069301605225,0.1184481605887413,-0.47817960381507874
12.115774631500244,-0.21076524257659912,-0.6849393248558044,0.5136567950248718,1.1057069301605225,0.1188296303153038,-0.47817960381507874
12.135761022567749,-0.21038375794887543,-0.6849393248558044,0.5136567950248718,1.106088399887085,0.1199740618467331,-0.47817960381507874
12.155810832977295,-0.21000228822231293,-0.6849393248558044,0.5140383243560791,1.106088399887085,0.1199740618467331,-0.47817960381507874
12.175894021987915,-0.21000228822231293,-0.6857023239135742,0.5140383243560791,1.106088399887085,0.11959258466959,-0.47817960381507874
12.195969820022583,-0.20962081849575043,-0.6860837936401367,0.5140383243560791,1.106088399887085,0.11959258466959,-0.47817960381507874
12.216251134872437,-0.20885786414146423,-0.6864652633666992,0.5140383243560791,1.1057069301605225,0.1188296303153038,-0.47817960381507874
12.236265659332275,-0.20847637951374054,-0.6868467330932617,0.5140383243560791,1.1057069301605225,0.1192111074924469,-0.47817960381507874
12.256523609161377,-0.20809490978717804,-0.6868467330932617,0.5144197940826416,1.106088399887085,0.11959258466959,-0.47817960381507874
12.276679754257202,-0.20771344006061554,-0.6868467330932617,0.5148012638092041,1.106088399887085,0.1192111074924469,-0.47817960381507874
12.296730995178223,-0.20733195543289185,-0.6868467330932617,0.5151827335357666,1.106088399887085,0.12073700875043869,-0.47817960381507874
12.316766500473022,-0.20695048570632935,-0.6868467330932617,0.5155642032623291,1.106088399887085,0.11959258466959,-0.47817960381507874
12.337266683578491,-0.20695048570632935,-0.6868467330932617,0.5159456729888916,1.106088399887085,0.1199740618467331,-0.47817960381507874
12.357374429702759,-0.20580606162548065,-0.6876096725463867,0.5159456729888916,1.106088399887085,0.1199740618467331,-0.47817960381507874
12.377456665039062,-0.20580606162548065,-0.6879911422729492,0.5159456729888916,1.106088399887085,0.1203555315732956,-0.47817960381507874
12.397501707077026,-0.20504310727119446,-0.6879911422729492,0.5159456729888916,1.106088399887085,0.11959258466959,-0.47817960381507874
12.41767144203186,-0.20466163754463196,-0.6879911422729492,0.5159456729888916,1.106088399887085,0.1199740618467331,-0.47817960381507874
12.437758207321167,-0.20428015291690826,-0.6883726119995117,0.5163271427154541,1.106088399887085,0.1203555315732956,-0.47817960381507874
12.457855224609375,-0.20389868319034576,-0.6887540817260742,0.5167086124420166,1.106088399887085,0.1199740618467331,-0.47817960381507874
12.477921962738037,-0.20389868319034576,-0.6891355514526367,0.5170900821685791,1.106088399887085,0.1199740618467331,-0.47817960381507874
12.497970581054688,-0.20351719856262207,-0.6891355514526367,0.5170900821685791,1.106088399887085,0.11959258466959,-0.47817960381507874
12.518069505691528,-0.20351719856262207,-0.6891355514526367,0.5170900821685791,1.106088399887085,0.11959258466959,-0.47817960381507874
12.538131713867188,-0.20313572883605957,-0.689517080783844,0.5170900821685791,1.106088399887085,0.1203555315732956,-0.47817960381507874
12.558181285858154,-0.20275425910949707,-0.6898985505104065,0.5174715518951416,1.106088399887085,0.12073700875043869,-0.47817960381507874
12.578857660293579,-0.20237277448177338,-0.690280020236969,0.5174715518951416,1.106088399887085,0.1199740618467331,-0.47817960381507874
12.59896206855774,-0.20160982012748718,-0.690280020236969,0.5178530812263489,1.106088399887085,0.11959258466959,-0.47817960381507874
12.619018316268921,-0.20122835040092468,-0.690280020236969,0.5178530812263489,1.106088399887085,0.11959258466959,-0.47817960381507874
12.63909125328064,-0.20084688067436218,-0.691042959690094,0.5182345509529114,1.106088399887085,0.1199740618467331,-0.47817960381507874
12.659149646759033,-0.20084688067436218,-0.691042959690094,0.5182345509529114,1.106088399887085,0.12073700875043869,-0.47817960381507874
12.679285764694214,-0.2004653960466385,-0.691042959690094,0.5182345509529114,1.106088399887085,0.1199740618467331,-0.47817960381507874
12.699392557144165,-0.1989395022392273,-0.6914244294166565,0.5186160206794739,1.106088399887085,0.11959258466959,-0.47817960381507874
12.71943736076355,-0.1985580176115036,-0.691805899143219,0.5189974904060364,1.106088399887085,0.1192111074924469,-0.47817960381507874
12.739472150802612,-0.1985580176115036,-0.6921873688697815,0.5189974904060364,1.106088399887085,0.12111848592758179,-0.47817960381507874
12.759568214416504,-0.1985580176115036,-0.6921873688697815,0.5193789601325989,1.106088399887085,0.12111848592758179,-0.47817960381507874
12.77962350845337,-0.1981765478849411,-0.6921873688697815,0.5193789601325989,1.106088399887085,0.1199740618467331,-0.47817960381507874
12.799701690673828,-0.1966506391763687,-0.692568838596344,0.5193789601325989,1.106088399887085,0.1199740618467331,-0.47817960381507874
12.819771528244019,-0.1966506391763687,-0.6929503083229065,0.5193789601325989,1.106088399887085,0.1199740618467331,-0.47817960381507874
12.83982253074646,-0.1962691694498062,-0.6929503083229065,0.5197604298591614,1.106088399887085,0.11959258466959,-0.47817960381507874
12.859961748123169,-0.1962691694498062,-0.693331778049469,0.5197604298591614,1.106088399887085,0.1203555315732956,-0.47817960381507874
12.880095720291138,-0.1958876997232437,-0.693331778049469,0.5201418995857239,1.106088399887085,0.12073700875043869,-0.47817960381507874
12.900099992752075,-0.19550621509552002,-0.6940947771072388,0.5201418995857239,1.106088399887085,0.12073700875043869,-0.47817960381507874
12.920212268829346,-0.19550621509552002,-0.6940947771072388,0.5201418995857239,1.106088399887085,0.12073700875043869,-0.47817960381507874
12.940239906311035,-0.19474326074123383,-0.6944762468338013,0.5201418995857239,1.1064698696136475,0.11959258466959,-0.47817960381507874
12.960317134857178,-0.19436179101467133,-0.6944762468338013,0.5201418995857239,1.1064698696136475,0.1188296303153038,-0.47817960381507874
12.980441093444824,-0.19398032128810883,-0.6948577165603638,0.5209048390388489,1.1064698696136475,0.11959258466959,-0.47817960381507874
13.00058388710022,-0.19321736693382263,-0.6952391862869263,0.5212863087654114,1.106088399887085,0.1203555315732956,-0.47817960381507874
13.020756721496582,-0.19283588230609894,-0.6952391862869263,0.5212863087654114,1.106088399887085,0.12111848592758179,-0.47817960381507874
13.040749311447144,-0.19245441257953644,-0.6952391862869263,0.5212863087654114,1.1064698696136475,0.12073700875043869,-0.47817960381507874
13.060901641845703,-0.19207294285297394,-0.6952391862869263,0.5212863087654114,1.1064698696136475,0.12073700875043869,-0.47817960381507874
13.08103084564209,-0.19169145822525024,-0.6952391862869263,0.5216678380966187,1.106088399887085,0.1199740618467331,-0.47817960381507874
13.101105451583862,-0.19130998849868774,-0.6963835954666138,0.5216678380966187,1.1064698696136475,0.1192111074924469,-0.47817960381507874
13.121140480041504,-0.19130998849868774,-0.6967650651931763,0.5220493078231812,1.1064698696136475,0.1199740618467331,-0.47817960381507874
13.141223907470703,-0.19054703414440155,-0.6971465349197388,0.5220493078231812,1.106088399887085,0.1199740618467331,-0.47817960381507874
13.161365270614624,-0.18978407979011536,-0.6971465349197388,0.5220493078231812,1.1064698696136475,0.1199740618467331,-0.47817960381507874
13.181405067443848,-0.18940261006355286,-0.6971465349197388,0.5220493078231812,1.1064698696136475,0.1199740618467331,-0.47817960381507874
13.20148491859436,-0.18902114033699036,-0.6971465349197388,0.5224307775497437,1.1064698696136475,0.1199740618467331,-0.47817960381507874
13.221584796905518,-0.18902114033699036,-0.697528064250946,0.5231937170028687,1.1064698696136475,0.1199740618467331,-0.47779813408851624
13.241640090942383,-0.18902114033699036,-0.697528064250946,0.5235751867294312,1.1064698696136475,0.1199740618467331,-0.47817960381507874
13.261741876602173,-0.18863965570926666,-0.6979095339775085,0.5239566564559937,1.1064698696136475,0.1203555315732956,-0.47817960381507874
13.28186321258545,-0.18825818598270416,-0.698291003704071,0.5243381261825562,1.1064698696136475,0.1203555315732956,-0.47817960381507874
13.301896572113037,-0.18787670135498047,-0.6986724734306335,0.5243381261825562,1.1064698696136475,0.12073700875043869,-0.47817960381507874
13.321979522705078,-0.18749523162841797,-0.699053943157196,0.5243381261825562,1.1064698696136475,0.1199740618467331,-0.47817960381507874
13.34206509590149,-0.18673227727413177,-0.6994354128837585,0.5243381261825562,1.1064698696136475,0.11959258466959,-0.47779813408851624
13.362133264541626,-0.18596932291984558,-0.6994354128837585,0.5243381261825562,1.1064698696136475,0.11959258466959,-0.47817960381507874
13.382209062576294,-0.18596932291984558,-0.6994354128837585,0.5247195959091187,1.1064698696136475,0.1199740618467331,-0.47817960381507874
13.40227198600769,-0.18596932291984558,-0.6994354128837585,0.5251010656356812,1.1064698696136475,0.12073700875043869,-0.47817960381507874
13.422356128692627,-0.1848248988389969,-0.6994354128837585,0.5254825949668884,1.10685133934021,0.1199740618467331,-0.47817960381507874
13.442430973052979,-0.1840619444847107,-0.7001983523368835,0.5254825949668884,1.10685133934021,0.12073700875043869,-0.47779813408851624
13.462517976760864,-0.1840619444847107,-0.700579822063446,0.5254825949668884,1.10685133934021,0.12073700875043869,-0.47779813408851624
13.48255443572998,-0.1840619444847107,-0.700579822063446,0.5254825949668884,1.10685133934021,0.1203555315732956,-0.47779813408851624
13.503141164779663,-0.182917520403862,-0.7009612917900085,0.5258640646934509,1.10685133934021,0.11959258466959,-0.47779813408851624
13.523319959640503,-0.182154580950737,-0.7013428211212158,0.5262455344200134,1.10685133934021,0.1199740618467331,-0.47817960381507874
13.543375015258789,-0.182154580950737,-0.7013428211212158,0.5262455344200134,1.10685133934021,0.1199740618467331,-0.47779813408851624
13.56343388557434,-0.182154580950737,-0.7013428211212158,0.5262455344200134,1.10685133934021,0.1203555315732956,-0.47779813408851624
13.583577156066895,-0.182154580950737,-0.7013428211212158,0.5262455344200134,1.10685133934021,0.12073700875043869,-0.47779813408851624
13.603724956512451,-0.1813916265964508,-0.7017242908477783,0.5266270041465759,1.10685133934021,0.1203555315732956,-0.47779813408851624
13.623788595199585,-0.1810101419687271,-0.7017242908477783,0.5266270041465759,1.10685133934021,0.1199740618467331,-0.47779813408851624
13.643837690353394,-0.1810101419687271,-0.7024872303009033,0.5266270041465759,1.10685133934021,0.1203555315732956,-0.47779813408851624
13.663899421691895,-0.1802472025156021,-0.7024872303009033,0.5273899435997009,1.10685133934021,0.1199740618467331,-0.47779813408851624
13.684025049209595,-0.17986571788787842,-0.7024872303009033,0.5273899435997009,1.10685133934021,0.1199740618467331,-0.47779813408851624
13.704071283340454,-0.17948424816131592,-0.7028687000274658,0.5277714133262634,1.10685133934021,0.1203555315732956,-0.47779813408851624
13.724141120910645,-0.17910276353359222,-0.7028687000274658,0.5277714133262634,1.10685133934021,0.12073700875043869,-0.47779813408851624
13.74421215057373,-0.17910276353359222,-0.7028687000274658,0.5281528830528259,1.10685133934021,0.12073700875043869,-0.47779813408851624
13.764379501342773,-0.17872129380702972,-0.7036316394805908,0.5285343527793884,1.10685133934021,0.12073700875043869,-0.47779813408851624
13.784384489059448,-0.17833982408046722,-0.7036316394805908,0.5285343527793884,1.10685133934021,0.1203555315732956,-0.47779813408851624
13.804431676864624,-0.17795833945274353,-0.7036316394805908,0.5285343527793884,1.10685133934021,0.11959258466959,-0.47779813408851624
13.824506759643555,-0.17681391537189484,-0.7043945789337158,0.5285343527793884,1.10685133934021,0.11959258466959,-0.47779813408851624
13.844588994979858,-0.17681391537189484,-0.7047760486602783,0.5285343527793884,1.10685133934021,0.12111848592758179,-0.47779813408851624
13.864674806594849,-0.17643244564533234,-0.7047760486602783,0.5285343527793884,1.10685133934021,0.1203555315732956,-0.47779813408851624
13.884746074676514,-0.17566949129104614,-0.7047760486602783,0.5289158225059509,1.10685133934021,0.1203555315732956,-0.47779813408851624
13.90480923652649,-0.17490653693675995,-0.7051575779914856,0.5292973518371582,1.10685133934021,0.11959258466959,-0.47779813408851624
13.924861669540405,-0.17490653693675995,-0.7055390477180481,0.5296788215637207,1.10685133934021,0.12073700875043869,-0.47779813408851624
13.944967031478882,-0.17452506721019745,-0.7055390477180481,0.5300602912902832,1.10685133934021,0.12111848592758179,-0.47779813408851624
13.965022325515747,-0.17452506721019745,-0.7059205174446106,0.5300602912902832,1.10685133934021,0.12073700875043869,-0.47779813408851624
13.985101222991943,-0.17414358258247375,-0.7059205174446106,0.5304417610168457,1.10685133934021,0.1203555315732956,-0.47779813408851624
14.005321979522705,-0.17376211285591125,-0.7066834568977356,0.5304417610168457,1.10685133934021,0.12073700875043869,-0.47779813408851624
14.025419473648071,-0.17376211285591125,-0.7066834568977356,0.5304417610168457,1.10685133934021,0.12111848592758179,-0.47779813408851624
14.045533418655396,-0.17299915850162506,-0.7070649266242981,0.5304417610168457,1.1072328090667725,0.1199740618467331,-0.47779813408851624
14.06554365158081,-0.17261768877506256,-0.7070649266242981,0.5304417610168457,1.10685133934021,0.11959258466959,-0.47779813408851624
