liuyurong129/humanoid-gym/humanoid/data/actual_q_20250523-020115.csv
timestamp,joint_1,joint_2,joint_3,joint_4,joint_5,joint_6
0.00013184547424316406,-0.0013351644156500697,0.1680399775505066,-0.08487831056118011,0.008201723918318748,-0.002861066721379757,-0.004386968910694122
0.02019333839416504,-0.0020981156267225742,0.14629587531089783,-0.07648584991693497,0.0078202486038208,-0.002861066721379757,-0.004386968910694122
0.0402829647064209,-0.0024795911740511656,0.12455176562070847,-0.06580453366041183,0.007438773289322853,-0.0024795911740511656,-0.004386968910694122
0.06033825874328613,-0.0020981156267225742,0.10929274559020996,-0.06008239835500717,0.007438773289322853,-0.001716639962978661,-0.004386968910694122
0.08038973808288574,-0.0024795911740511656,0.1028076633810997,-0.056267641484737396,0.007057297509163618,-0.002861066721379757,-0.004386968910694122
0.10048484802246094,-0.0024795911740511656,0.10166323184967041,-0.056267641484737396,0.00667582219466567,-0.0024795911740511656,-0.004386968910694122
0.12058830261230469,-0.001716639962978661,0.10433356463909149,-0.0558861680328846,0.006294346414506435,-0.002861066721379757,-0.004386968910694122
0.14061236381530762,-0.0024795911740511656,0.10509651154279709,-0.0555046908557415,0.006294346414506435,-0.002861066721379757,-0.004386968910694122
0.1607067584991455,-0.0024795911740511656,0.10471503436565399,-0.0551232174038887,0.006294346414506435,-0.002861066721379757,-0.004386968910694122
0.18079018592834473,-0.0024795911740511656,0.10471503436565399,-0.0551232174038887,0.006294346414506435,-0.002861066721379757,-0.004386968910694122
0.20093441009521484,-0.0024795911740511656,0.10471503436565399,-0.0555046908557415,0.005912871100008488,-0.002861066721379757,-0.004386968910694122
0.22094154357910156,-0.0020981156267225742,0.1039520874619484,-0.0555046908557415,0.005912871100008488,-0.0024795911740511656,-0.004386968910694122
0.2410883903503418,-0.0024795911740511656,0.1031891331076622,-0.0555046908557415,0.005531395319849253,-0.002861066721379757,-0.004386968910694122
0.2611675262451172,-0.0020981156267225742,0.1035706102848053,-0.0555046908557415,0.005149920005351305,-0.0020981156267225742,-0.004386968910694122
0.2812654972076416,-0.0024795911740511656,0.1035706102848053,-0.0551232174038887,0.005149920005351305,-0.002861066721379757,-0.004386968910694122
0.3013498783111572,-0.0024795911740511656,0.1035706102848053,-0.0551232174038887,0.005149920005351305,-0.0024795911740511656,-0.004386968910694122
0.32144927978515625,-0.0020981156267225742,0.1035706102848053,-0.0551232174038887,0.005149920005351305,-0.0024795911740511656,-0.004386968910694122
0.34148287773132324,-0.0024795911740511656,0.1035706102848053,-0.0551232174038887,0.00476844422519207,-0.002861066721379757,-0.004386968910694122
0.3615837097167969,-0.0020981156267225742,0.1035706102848053,-0.0551232174038887,0.00476844422519207,-0.002861066721379757,-0.004386968910694122
0.3817331790924072,-0.0024795911740511656,0.1035706102848053,-0.0551232174038887,0.00476844422519207,-0.0024795911740511656,-0.004386968910694122
0.40201234817504883,-0.0024795911740511656,0.1035706102848053,-0.0551232174038887,0.00476844422519207,-0.002861066721379757,-0.004386968910694122
0.42209458351135254,-0.0024795911740511656,0.1035706102848053,-0.0551232174038887,0.00476844422519207,-0.0024795911740511656,-0.004386968910694122
0.4421675205230713,-0.0024795911740511656,0.1035706102848053,-0.0551232174038887,0.00476844422519207,-0.002861066721379757,-0.004386968910694122
0.4622347354888916,-0.0020981156267225742,0.1031891331076622,-0.0551232174038887,0.00476844422519207,-0.0024795911740511656,-0.004386968910694122
0.4823338985443115,-0.0024795911740511656,0.1028076633810997,-0.0551232174038887,0.00476844422519207,-0.0024795911740511656,-0.004386968910694122
0.5025591850280762,-0.0024795911740511656,0.1028076633810997,-0.0551232174038887,0.00476844422519207,-0.002861066721379757,-0.004386968910694122
0.5224785804748535,-0.0024795911740511656,0.1028076633810997,-0.0551232174038887,0.00476844422519207,-0.002861066721379757,-0.004386968910694122
0.5426030158996582,-0.0024795911740511656,0.1024261862039566,-0.054741740226745605,0.00476844422519207,-0.002861066721379757,-0.004386968910694122
0.5627825260162354,-0.0024795911740511656,0.1024261862039566,-0.054741740226745605,0.00476844422519207,-0.002861066721379757,-0.00476844422519207
0.5827877521514893,-0.0024795911740511656,0.1024261862039566,-0.054741740226745605,0.004386968910694122,-0.0024795911740511656,-0.004386968910694122
0.6028931140899658,-0.0024795911740511656,0.1024261862039566,-0.05397878959774971,0.004386968910694122,-0.0024795911740511656,-0.004386968910694122
0.6229286193847656,-0.0024795911740511656,0.10204470902681351,-0.05397878959774971,0.004386968910694122,-0.0024795911740511656,-0.00476844422519207
0.6430537700653076,-0.0024795911740511656,0.10166323184967041,-0.05397878959774971,0.004386968910694122,-0.0024795911740511656,-0.00476844422519207
0.6631600856781006,-0.0024795911740511656,0.10166323184967041,-0.05397878959774971,0.004386968910694122,-0.0024795911740511656,-0.00476844422519207
0.6831834316253662,-0.0024795911740511656,0.10128175467252731,-0.05397878959774971,0.004386968910694122,-0.002861066721379757,-0.00476844422519207
0.7033064365386963,-0.0024795911740511656,0.10128175467252731,-0.05397878959774971,0.004386968910694122,-0.002861066721379757,-0.00476844422519207
0.7233705520629883,-0.0024795911740511656,0.10128175467252731,-0.05397878959774971,0.004386968910694122,-0.002861066721379757,-0.00476844422519207
0.7435016632080078,-0.0024795911740511656,0.10128175467252731,-0.05359731614589691,0.004386968910694122,-0.002861066721379757,-0.00476844422519207
0.7635903358459473,-0.0024795911740511656,0.10090028494596481,-0.05359731614589691,0.004386968910694122,-0.002861066721379757,-0.00476844422519207
0.7836611270904541,-0.0024795911740511656,0.10051880776882172,-0.053215838968753815,0.004386968910694122,-0.0024795911740511656,-0.00476844422519207
0.8037481307983398,-0.0024795911740511656,0.10051880776882172,-0.053215838968753815,0.004386968910694122,-0.002861066721379757,-0.00476844422519207
0.8238482475280762,-0.0024795911740511656,0.10051880776882172,-0.053215838968753815,0.004005493130534887,-0.002861066721379757,-0.00476844422519207
0.8439164161682129,-0.0024795911740511656,0.10013733059167862,-0.053215838968753815,0.004005493130534887,-0.002861066721379757,-0.00476844422519207
0.864001989364624,-0.0024795911740511656,0.10013733059167862,-0.053215838968753815,0.004005493130534887,-0.002861066721379757,-0.00476844422519207
0.8841407299041748,-0.0024795911740511656,0.10013733059167862,-0.053215838968753815,0.004005493130534887,-0.002861066721379757,-0.005149920005351305
0.9043381214141846,-0.0024795911740511656,0.09937438368797302,-0.053215838968753815,0.004005493130534887,-0.002861066721379757,-0.00476844422519207
0.9244005680084229,-0.0024795911740511656,0.09937438368797302,-0.053215838968753815,0.004005493130534887,-0.002861066721379757,-0.005149920005351305
0.9446060657501221,-0.0024795911740511656,0.09937438368797302,-0.053215838968753815,0.004005493130534887,-0.002861066721379757,-0.005149920005351305
0.9646530151367188,-0.0024795911740511656,0.09937438368797302,-0.053215838968753815,0.004005493130534887,-0.002861066721379757,-0.005149920005351305
0.984642744064331,-0.0024795911740511656,0.09937438368797302,-0.05283436179161072,0.004005493130534887,-0.002861066721379757,-0.005149920005351305
1.004772663116455,-0.0024795911740511656,0.09899290651082993,-0.05283436179161072,0.004005493130534887,-0.002861066721379757,-0.005149920005351305
1.0248804092407227,-0.0024795911740511656,0.09899290651082993,-0.05283436179161072,0.0036240178160369396,-0.002861066721379757,-0.005149920005351305
1.0449094772338867,-0.0024795911740511656,0.09861142933368683,-0.05283436179161072,0.0036240178160369396,-0.002861066721379757,-0.005149920005351305
1.0650246143341064,-0.0024795911740511656,0.09822995215654373,-0.05283436179161072,0.0036240178160369396,-0.002861066721379757,-0.005149920005351305
1.0852715969085693,-0.0024795911740511656,0.09822995215654373,-0.05283436179161072,0.0036240178160369396,-0.002861066721379757,-0.005531395319849253
1.1052441596984863,-0.0024795911740511656,0.09822995215654373,-0.05283436179161072,0.0036240178160369396,-0.002861066721379757,-0.005531395319849253
1.1253950595855713,-0.0024795911740511656,0.09784847497940063,-0.05245288833975792,0.0036240178160369396,-0.002861066721379757,-0.005531395319849253
1.1455440521240234,-0.0024795911740511656,0.09708552807569504,-0.051689937710762024,0.0036240178160369396,-0.002861066721379757,-0.005531395319849253
1.1655070781707764,-0.0024795911740511656,0.09708552807569504,-0.051689937710762024,0.0032425422687083483,-0.002861066721379757,-0.005912871100008488
1.1858916282653809,-0.0024795911740511656,0.09708552807569504,-0.05130846053361893,0.0032425422687083483,-0.002861066721379757,-0.005531395319849253
1.206068754196167,-0.0024795911740511656,0.09670405089855194,-0.05130846053361893,0.0032425422687083483,-0.002861066721379757,-0.005912871100008488
1.2261905670166016,-0.0024795911740511656,0.09632257372140884,-0.05092698708176613,0.0032425422687083483,-0.002861066721379757,-0.005912871100008488
1.2463278770446777,-0.0024795911740511656,0.09632257372140884,-0.05092698708176613,0.002861066721379757,-0.002861066721379757,-0.005912871100008488
1.2663326263427734,-0.0024795911740511656,0.09632257372140884,-0.05092698708176613,0.002861066721379757,-0.002861066721379757,-0.006294346414506435
1.2864501476287842,-0.0024795911740511656,0.09594109654426575,-0.05092698708176613,0.002861066721379757,-0.002861066721379757,-0.00667582219466567
1.306640386581421,-0.0024795911740511656,0.09594109654426575,-0.05092698708176613,0.0024795911740511656,-0.002861066721379757,-0.007057297509163618
1.3267228603363037,-0.0024795911740511656,0.09594109654426575,-0.05092698708176613,0.0020981156267225742,-0.002861066721379757,-0.008201723918318748
1.3467960357666016,-0.0024795911740511656,0.09594109654426575,-0.05092698708176613,0.0013351644156500697,-0.002861066721379757,-0.008201723918318748
1.3668339252471924,-0.0024795911740511656,0.09517814964056015,-0.05092698708176613,0.0009536888683214784,-0.002861066721379757,-0.008201723918318748
1.3869476318359375,-0.0024795911740511656,0.09517814964056015,-0.05092698708176613,0.0009536888683214784,-0.002861066721379757,-0.008201723918318748
1.4070453643798828,-0.0024795911740511656,0.09479667246341705,-0.05092698708176613,0.0009536888683214784,-0.002861066721379757,-0.008201723918318748
1.427215576171875,-0.0024795911740511656,0.09479667246341705,-0.05092698708176613,0.0009536888683214784,-0.002861066721379757,-0.008201723918318748
1.4475138187408447,-0.0024795911740511656,0.09479667246341705,-0.05092698708176613,0.0009536888683214784,-0.002861066721379757,-0.008201723918318748
1.4675893783569336,-0.0024795911740511656,0.09441519528627396,-0.05054550990462303,0.0009536888683214784,-0.002861066721379757,-0.008201723918318748
1.4876594543457031,-0.0024795911740511656,0.09403372555971146,-0.050164032727479935,0.0009536888683214784,-0.002861066721379757,-0.008201723918318748
1.5077064037322998,-0.0024795911740511656,0.09403372555971146,-0.049782559275627136,0.0009536888683214784,-0.002861066721379757,-0.008201723918318748
1.5277938842773438,-0.0024795911740511656,0.09403372555971146,-0.049782559275627136,0.0009536888683214784,-0.002861066721379757,-0.00858320016413927
1.5478835105895996,-0.0024795911740511656,0.09403372555971146,-0.049782559275627136,0.000572213320992887,-0.002861066721379757,-0.00858320016413927
1.5679316520690918,-0.0024795911740511656,0.09403372555971146,-0.049782559275627136,0.000572213320992887,-0.002861066721379757,-0.00858320016413927
1.5880210399627686,-0.0024795911740511656,0.09365224838256836,-0.049782559275627136,0.000572213320992887,-0.002861066721379757,-0.00858320016413927
1.6080904006958008,-0.0024795911740511656,0.09327077120542526,-0.049782559275627136,0.000572213320992887,-0.002861066721379757,-0.00858320016413927
1.6281538009643555,-0.0024795911740511656,0.09288929402828217,-0.049782559275627136,0.000572213320992887,-0.002861066721379757,-0.00858320016413927
1.6482017040252686,-0.0024795911740511656,0.09288929402828217,-0.049782559275627136,0.000572213320992887,-0.002861066721379757,-0.00858320016413927
1.6682884693145752,-0.0024795911740511656,0.09250781685113907,-0.049782559275627136,0.000572213320992887,-0.002861066721379757,-0.00858320016413927
1.6883571147918701,-0.0024795911740511656,0.09212634712457657,-0.04940108209848404,0.000572213320992887,-0.002861066721379757,-0.00858320016413927
1.7084465026855469,-0.0024795911740511656,0.09212634712457657,-0.04940108209848404,0.000572213320992887,-0.002861066721379757,-0.00858320016413927
1.7286713123321533,-0.0024795911740511656,0.09212634712457657,-0.04940108209848404,0.000572213320992887,-0.002861066721379757,-0.008964675478637218
1.7486815452575684,-0.0024795911740511656,0.09174486994743347,-0.04901960864663124,0.000572213320992887,-0.002861066721379757,-0.008964675478637218
1.7687382698059082,-0.0024795911740511656,0.09174486994743347,-0.04901960864663124,0.000572213320992887,-0.002861066721379757,-0.008964675478637218
1.7888078689575195,-0.0024795911740511656,0.09136339277029037,-0.04901960864663124,0.000572213320992887,-0.002861066721379757,-0.008964675478637218
1.8088939189910889,-0.0024795911740511656,0.09098191559314728,-0.04901960864663124,0.000572213320992887,-0.002861066721379757,-0.008964675478637218
1.8289906978607178,-0.0024795911740511656,0.09098191559314728,-0.04901960864663124,0.000572213320992887,-0.002861066721379757,-0.008964675478637218
1.849039077758789,-0.0024795911740511656,0.09060044586658478,-0.04901960864663124,0.000572213320992887,-0.002861066721379757,-0.008964675478637218
1.86916184425354,-0.0024795911740511656,0.09060044586658478,-0.04901960864663124,0.000572213320992887,-0.002861066721379757,-0.009346150793135166
1.8892927169799805,-0.0024795911740511656,0.08983749151229858,-0.04901960864663124,0.000572213320992887,-0.002861066721379757,-0.009346150793135166
1.9092347621917725,-0.0024795911740511656,0.08983749151229858,-0.04901960864663124,0.000572213320992887,-0.002861066721379757,-0.009346150793135166
1.9293179512023926,-0.0024795911740511656,0.08983749151229858,-0.04901960864663124,0.000572213320992887,-0.002861066721379757,-0.009346150793135166
1.9494850635528564,-0.0024795911740511656,0.08945601433515549,-0.048638131469488144,0.000572213320992887,-0.002861066721379757,-0.009727626107633114
1.9695160388946533,-0.0024795911740511656,0.08945601433515549,-0.048638131469488144,0.000572213320992887,-0.002861066721379757,-0.009727626107633114
1.989581823348999,-0.0024795911740511656,0.08869306743144989,-0.048638131469488144,0.00019073777366429567,-0.002861066721379757,-0.010109102353453636
2.0096704959869385,-0.0024795911740511656,0.08869306743144989,-0.048638131469488144,0.00019073777366429567,-0.002861066721379757,-0.010490577667951584
2.0298266410827637,-0.0024795911740511656,0.08869306743144989,-0.048638131469488144,0.00019073777366429567,-0.002861066721379757,-0.01125352829694748
2.049914836883545,-0.0024795911740511656,0.08869306743144989,-0.048638131469488144,0.00019073777366429567,-0.002861066721379757,-0.011635004542768002
2.07002592086792,-0.0024795911740511656,0.0883115902543068,-0.04787518084049225,0.00019073777366429567,-0.002861066721379757,-0.011635004542768002
2.090181827545166,-0.0024795911740511656,0.0883115902543068,-0.04787518084049225,0.00019073777366429567,-0.002861066721379757,-0.011635004542768002
2.110182762145996,-0.0024795911740511656,0.0879301130771637,-0.04787518084049225,0.00019073777366429567,-0.002861066721379757,-0.011635004542768002
2.1302642822265625,-0.0024795911740511656,0.0879301130771637,-0.04787518084049225,0.00019073777366429567,-0.002861066721379757,-0.011635004542768002
2.1503543853759766,-0.0024795911740511656,0.0875486359000206,-0.04749370738863945,0.00019073777366429567,-0.002861066721379757,-0.011635004542768002
2.1704142093658447,-0.0024795911740511656,0.0875486359000206,-0.04787518084049225,0.00019073777366429567,-0.002861066721379757,-0.011635004542768002
2.190485954284668,-0.0024795911740511656,0.0875486359000206,-0.04787518084049225,0.00019073777366429567,-0.002861066721379757,-0.011635004542768002
2.210606098175049,-0.0024795911740511656,0.0875486359000206,-0.04749370738863945,0.00019073777366429567,-0.002861066721379757,-0.011635004542768002
2.230668067932129,-0.0024795911740511656,0.086785688996315,-0.04749370738863945,0.00019073777366429567,-0.002861066721379757,-0.01201647985726595
2.250777006149292,-0.0024795911740511656,0.086785688996315,-0.04749370738863945,0.00019073777366429567,-0.002861066721379757,-0.01201647985726595
2.270845651626587,-0.0024795911740511656,0.086785688996315,-0.04749370738863945,0.00019073777366429567,-0.0032425422687083483,-0.01201647985726595
2.2909228801727295,-0.0024795911740511656,0.0864042118191719,-0.04711223021149635,0.00019073777366429567,-0.0032425422687083483,-0.01201647985726595
2.3110287189483643,-0.0024795911740511656,0.0864042118191719,-0.04711223021149635,-0.00019073777366429567,-0.0032425422687083483,-0.01201647985726595
2.3310763835906982,-0.0024795911740511656,0.08602273464202881,-0.04711223021149635,0.00019073777366429567,-0.0032425422687083483,-0.01201647985726595
2.3511226177215576,-0.0024795911740511656,0.08564125746488571,-0.046730753034353256,0.00019073777366429567,-0.0032425422687083483,-0.01201647985726595
2.371216297149658,-0.0024795911740511656,0.08564125746488571,-0.046730753034353256,0.00019073777366429567,-0.0032425422687083483,-0.01201647985726595
2.3913042545318604,-0.0024795911740511656,0.08564125746488571,-0.046730753034353256,-0.00019073777366429567,-0.0032425422687083483,-0.01201647985726595
2.4113714694976807,-0.0024795911740511656,0.08525978773832321,-0.046730753034353256,0.00019073777366429567,-0.0032425422687083483,-0.01201647985726595
2.4314208030700684,-0.0024795911740511656,0.08487831056118011,-0.046730753034353256,-0.00019073777366429567,-0.0032425422687083483,-0.012397955171763897
2.4517390727996826,-0.0024795911740511656,0.08449683338403702,-0.046730753034353256,-0.00019073777366429567,-0.0032425422687083483,-0.012397955171763897
2.471964120864868,-0.0024795911740511656,0.08449683338403702,-0.046730753034353256,-0.00019073777366429567,-0.0032425422687083483,-0.012397955171763897
2.491962432861328,-0.0024795911740511656,0.08449683338403702,-0.046730753034353256,-0.00019073777366429567,-0.0032425422687083483,-0.012397955171763897
2.5120644569396973,-0.0024795911740511656,0.08449683338403702,-0.046730753034353256,-0.00019073777366429567,-0.0032425422687083483,-0.012397955171763897
2.5322020053863525,-0.0024795911740511656,0.08373387902975082,-0.046730753034353256,-0.00019073777366429567,-0.0032425422687083483,-0.012397955171763897
2.5522565841674805,-0.0024795911740511656,0.08373387902975082,-0.046730753034353256,-0.00019073777366429567,-0.0032425422687083483,-0.012397955171763897
2.572305679321289,-0.0024795911740511656,0.08373387902975082,-0.046730753034353256,-0.00019073777366429567,-0.0032425422687083483,-0.012397955171763897
2.5924322605133057,-0.0024795911740511656,0.08335240930318832,-0.046730753034353256,-0.000572213320992887,-0.0032425422687083483,-0.012397955171763897
2.612504243850708,-0.0024795911740511656,0.08335240930318832,-0.046730753034353256,-0.000572213320992887,-0.0032425422687083483,-0.012779430486261845
2.6325857639312744,-0.0024795911740511656,0.08335240930318832,-0.046730753034353256,-0.000572213320992887,-0.0032425422687083483,-0.012779430486261845
2.6529085636138916,-0.0024795911740511656,0.08258945494890213,-0.04634927958250046,-0.000572213320992887,-0.0032425422687083483,-0.012779430486261845
2.67301869392395,-0.0024795911740511656,0.08258945494890213,-0.04596780240535736,-0.000572213320992887,-0.0032425422687083483,-0.012779430486261845
2.6930816173553467,-0.0024795911740511656,0.08220797777175903,-0.04596780240535736,-0.000572213320992887,-0.0032425422687083483,-0.012779430486261845
2.713118314743042,-0.0024795911740511656,0.08220797777175903,-0.04596780240535736,-0.000572213320992887,-0.0032425422687083483,-0.013160906732082367
2.733189582824707,-0.0024795911740511656,0.08220797777175903,-0.04596780240535736,-0.000572213320992887,-0.0032425422687083483,-0.013160906732082367
2.753343343734741,-0.0024795911740511656,0.08144503086805344,-0.04596780240535736,-0.000572213320992887,-0.0032425422687083483,-0.013160906732082367
2.7734243869781494,-0.0024795911740511656,0.08144503086805344,-0.04596780240535736,-0.0009536888683214784,-0.0032425422687083483,-0.013160906732082367
2.7934460639953613,-0.0024795911740511656,0.08144503086805344,-0.04558632895350456,-0.0009536888683214784,-0.0032425422687083483,-0.013160906732082367
2.8136181831359863,-0.0024795911740511656,0.08144503086805344,-0.04596780240535736,-0.0009536888683214784,-0.0032425422687083483,-0.013542382046580315
2.8336777687072754,-0.0024795911740511656,0.08144503086805344,-0.04596780240535736,-0.0009536888683214784,-0.0032425422687083483,-0.013542382046580315
2.853732109069824,-0.0024795911740511656,0.08144503086805344,-0.04558632895350456,-0.0009536888683214784,-0.0032425422687083483,-0.013923857361078262
2.874110698699951,-0.0024795911740511656,0.08106355369091034,-0.04558632895350456,-0.0009536888683214784,-0.0032425422687083483,-0.01506828423589468
2.894207000732422,-0.0024795911740511656,0.08068207651376724,-0.04558632895350456,-0.0009536888683214784,-0.0032425422687083483,-0.015449759550392628
2.914306640625,-0.0024795911740511656,0.08030059933662415,-0.04558632895350456,-0.0013351644156500697,-0.0032425422687083483,-0.015449759550392628
2.9343385696411133,-0.0024795911740511656,0.08030059933662415,-0.04558632895350456,-0.0013351644156500697,-0.0032425422687083483,-0.015449759550392628
2.954437255859375,-0.0024795911740511656,0.07991912961006165,-0.04558632895350456,-0.0013351644156500697,-0.0032425422687083483,-0.015449759550392628
2.9745068550109863,-0.0024795911740511656,0.07953765243291855,-0.04558632895350456,-0.0013351644156500697,-0.0032425422687083483,-0.015449759550392628
2.994558572769165,-0.0024795911740511656,0.07953765243291855,-0.04558632895350456,-0.001716639962978661,-0.0032425422687083483,-0.015449759550392628
3.014652967453003,-0.0024795911740511656,0.07953765243291855,-0.04558632895350456,-0.001716639962978661,-0.0032425422687083483,-0.015449759550392628
3.0348641872406006,-0.0024795911740511656,0.07915617525577545,-0.04558632895350456,-0.001716639962978661,-0.0032425422687083483,-0.015449759550392628
3.0547943115234375,-0.0024795911740511656,0.07915617525577545,-0.04558632895350456,-0.0020981156267225742,-0.0032425422687083483,-0.015449759550392628
3.0748775005340576,-0.0024795911740511656,0.07915617525577545,-0.04558632895350456,-0.0020981156267225742,-0.0032425422687083483,-0.015449759550392628
3.094940662384033,-0.0024795911740511656,0.07839322835206985,-0.045204851776361465,-0.0020981156267225742,-0.0032425422687083483,-0.015449759550392628
3.115053653717041,-0.0024795911740511656,0.07839322835206985,-0.045204851776361465,-0.0020981156267225742,-0.0032425422687083483,-0.015449759550392628
3.1351282596588135,-0.0024795911740511656,0.07839322835206985,-0.04482337832450867,-0.0020981156267225742,-0.0032425422687083483,-0.01583123579621315
3.15519380569458,-0.0024795911740511656,0.07801175117492676,-0.04482337832450867,-0.0020981156267225742,-0.0032425422687083483,-0.01583123579621315
3.175276041030884,-0.0024795911740511656,0.07801175117492676,-0.04482337832450867,-0.0024795911740511656,-0.0032425422687083483,-0.01583123579621315
3.1953279972076416,-0.0024795911740511656,0.07763027399778366,-0.04482337832450867,-0.0024795911740511656,-0.0032425422687083483,-0.01583123579621315
3.2154107093811035,-0.0024795911740511656,0.07724879682064056,-0.04482337832450867,-0.0024795911740511656,-0.0032425422687083483,-0.01583123579621315
3.23549485206604,-0.0024795911740511656,0.07724879682064056,-0.04482337832450867,-0.0024795911740511656,-0.0036240178160369396,-0.01583123579621315
3.255577564239502,-0.0024795911740511656,0.07724879682064056,-0.04482337832450867,-0.0024795911740511656,-0.0032425422687083483,-0.01583123579621315
3.2756402492523193,-0.0024795911740511656,0.07686731964349747,-0.04444190114736557,-0.0024795911740511656,-0.0032425422687083483,-0.01583123579621315
3.29573130607605,-0.0024795911740511656,0.07686731964349747,-0.04444190114736557,-0.0024795911740511656,-0.0032425422687083483,-0.01583123579621315
3.3158040046691895,-0.0024795911740511656,0.07610437273979187,-0.04406042397022247,-0.0024795911740511656,-0.0036240178160369396,-0.01583123579621315
3.336050271987915,-0.0024795911740511656,0.07610437273979187,-0.043678950518369675,-0.0024795911740511656,-0.0032425422687083483,-0.016212711110711098
3.3562099933624268,-0.0024795911740511656,0.07610437273979187,-0.043678950518369675,-0.0024795911740511656,-0.0032425422687083483,-0.016212711110711098
3.3762712478637695,-0.0024795911740511656,0.07572289556264877,-0.043678950518369675,-0.0024795911740511656,-0.0032425422687083483,-0.016212711110711098
3.3963217735290527,-0.0024795911740511656,0.07534141838550568,-0.043678950518369675,-0.002861066721379757,-0.0036240178160369396,-0.016212711110711098
3.416553258895874,-0.0024795911740511656,0.07534141838550568,-0.043678950518369675,-0.002861066721379757,-0.0036240178160369396,-0.016212711110711098
3.436657667160034,-0.0024795911740511656,0.07534141838550568,-0.043678950518369675,-0.002861066721379757,-0.0032425422687083483,-0.016212711110711098
3.4567086696624756,-0.0024795911740511656,0.07495994865894318,-0.043678950518369675,-0.002861066721379757,-0.0036240178160369396,-0.016212711110711098
3.4768574237823486,-0.0024795911740511656,0.07495994865894318,-0.043678950518369675,-0.002861066721379757,-0.0036240178160369396,-0.016212711110711098
3.49699068069458,-0.0024795911740511656,0.07495994865894318,-0.043678950518369675,-0.002861066721379757,-0.0036240178160369396,-0.016594186425209045
3.5170371532440186,-0.0024795911740511656,0.07419699430465698,-0.043678950518369675,-0.002861066721379757,-0.0036240178160369396,-0.016594186425209045
3.5370993614196777,-0.0024795911740511656,0.07419699430465698,-0.043678950518369675,-0.002861066721379757,-0.0036240178160369396,-0.016594186425209045
3.5571727752685547,-0.0024795911740511656,0.07419699430465698,-0.043678950518369675,-0.002861066721379757,-0.0036240178160369396,-0.016594186425209045
3.577246904373169,-0.0024795911740511656,0.07419699430465698,-0.043678950518369675,-0.002861066721379757,-0.0036240178160369396,-0.016594186425209045
3.597308397293091,-0.0024795911740511656,0.07419699430465698,-0.043678950518369675,-0.002861066721379757,-0.0036240178160369396,-0.016975661739706993
3.61786150932312,-0.0024795911740511656,0.07419699430465698,-0.043678950518369675,-0.002861066721379757,-0.0036240178160369396,-0.016975661739706993
3.6379454135894775,-0.0024795911740511656,0.07381551712751389,-0.043678950518369675,-0.0032425422687083483,-0.0036240178160369396,-0.016975661739706993
3.6579949855804443,-0.0024795911740511656,0.07343403995037079,-0.043678950518369675,-0.0032425422687083483,-0.0036240178160369396,-0.016975661739706993
3.678070068359375,-0.0024795911740511656,0.07305257022380829,-0.04329747334122658,-0.0032425422687083483,-0.0036240178160369396,-0.01735713705420494
3.69816255569458,-0.0024795911740511656,0.07305257022380829,-0.043678950518369675,-0.0032425422687083483,-0.0036240178160369396,-0.01735713705420494
3.718233108520508,-0.0024795911740511656,0.07305257022380829,-0.04329747334122658,-0.0032425422687083483,-0.0036240178160369396,-0.01773861236870289
3.7382822036743164,-0.0024795911740511656,0.07305257022380829,-0.04329747334122658,-0.0032425422687083483,-0.0036240178160369396,-0.018501564860343933
3.7584335803985596,-0.0024795911740511656,0.07305257022380829,-0.04329747334122658,-0.0032425422687083483,-0.0036240178160369396,-0.01888304017484188
3.778618335723877,-0.0024795911740511656,0.0722896158695221,-0.04329747334122658,-0.0032425422687083483,-0.0036240178160369396,-0.01888304017484188
3.7986602783203125,-0.0024795911740511656,0.0722896158695221,-0.04329747334122658,-0.0032425422687083483,-0.0036240178160369396,-0.01926451548933983
3.818671703338623,-0.0024795911740511656,0.071908138692379,-0.04329747334122658,-0.0032425422687083483,-0.0036240178160369396,-0.01926451548933983
3.8387527465820312,-0.0024795911740511656,0.071908138692379,-0.04329747334122658,-0.0032425422687083483,-0.0036240178160369396,-0.01926451548933983
3.85884428024292,-0.0024795911740511656,0.071908138692379,-0.04291599988937378,-0.0032425422687083483,-0.0036240178160369396,-0.01926451548933983
3.878878116607666,-0.0024795911740511656,0.071908138692379,-0.04291599988937378,-0.0032425422687083483,-0.0036240178160369396,-0.01926451548933983
3.8989672660827637,-0.0024795911740511656,0.0711451917886734,-0.04291599988937378,-0.0032425422687083483,-0.0036240178160369396,-0.01926451548933983
3.9190261363983154,-0.0024795911740511656,0.0711451917886734,-0.04291599988937378,-0.0032425422687083483,-0.0036240178160369396,-0.01926451548933983
3.9390738010406494,-0.0024795911740511656,0.0711451917886734,-0.04291599988937378,-0.0032425422687083483,-0.0036240178160369396,-0.01926451548933983
3.9591455459594727,-0.0024795911740511656,0.0711451917886734,-0.04291599988937378,-0.0032425422687083483,-0.0036240178160369396,-0.01926451548933983
3.979231834411621,-0.0024795911740511656,0.0707637146115303,-0.04291599988937378,-0.0032425422687083483,-0.0036240178160369396,-0.01926451548933983
3.9993488788604736,-0.0024795911740511656,0.07038223743438721,-0.04291599988937378,-0.0032425422687083483,-0.0036240178160369396,-0.01926451548933983
4.019370794296265,-0.0024795911740511656,0.07000076025724411,-0.04291599988937378,-0.0032425422687083483,-0.0036240178160369396,-0.01926451548933983
4.039459705352783,-0.0024795911740511656,0.07000076025724411,-0.04291599988937378,-0.0032425422687083483,-0.0036240178160369396,-0.01926451548933983
4.059674978256226,-0.0024795911740511656,0.07000076025724411,-0.04291599988937378,-0.0032425422687083483,-0.0036240178160369396,-0.01926451548933983
4.079791307449341,-0.0024795911740511656,0.06923781335353851,-0.04291599988937378,-0.0032425422687083483,-0.0036240178160369396,-0.019645990803837776
4.099835157394409,-0.0024795911740511656,0.06923781335353851,-0.04253452271223068,-0.0032425422687083483,-0.0036240178160369396,-0.019645990803837776
4.1199562549591064,-0.0024795911740511656,0.06923781335353851,-0.04291599988937378,-0.0032425422687083483,-0.0036240178160369396,-0.01926451548933983
4.140074253082275,-0.0024795911740511656,0.06885633617639542,-0.04291599988937378,-0.0032425422687083483,-0.0036240178160369396,-0.019645990803837776
4.160077810287476,-0.0024795911740511656,0.06885633617639542,-0.04291599988937378,-0.0032425422687083483,-0.0036240178160369396,-0.019645990803837776
4.18016791343689,-0.0024795911740511656,0.06885633617639542,-0.04291599988937378,-0.0032425422687083483,-0.0036240178160369396,-0.019645990803837776
4.20024299621582,-0.0024795911740511656,0.06847485899925232,-0.04253452271223068,-0.0032425422687083483,-0.004005493130534887,-0.019645990803837776
4.220295190811157,-0.0024795911740511656,0.06809338182210922,-0.04253452271223068,-0.0032425422687083483,-0.0036240178160369396,-0.019645990803837776
4.240607023239136,-0.0024795911740511656,0.06809338182210922,-0.04253452271223068,-0.0032425422687083483,-0.004005493130534887,-0.019645990803837776
4.26074481010437,-0.0024795911740511656,0.06809338182210922,-0.04253452271223068,-0.0032425422687083483,-0.004005493130534887,-0.019645990803837776
4.2808544635772705,-0.0024795911740511656,0.06771191209554672,-0.04253452271223068,-0.0032425422687083483,-0.004005493130534887,-0.019645990803837776
4.300914525985718,-0.0024795911740511656,0.06771191209554672,-0.04253452271223068,-0.0036240178160369396,-0.004005493130534887,-0.020027466118335724
4.320947885513306,-0.0024795911740511656,0.06771191209554672,-0.04253452271223068,-0.0032425422687083483,-0.0036240178160369396,-0.019645990803837776
4.341205358505249,-0.0024795911740511656,0.06694895774126053,-0.04253452271223068,-0.0036240178160369396,-0.004005493130534887,-0.019645990803837776
4.361191272735596,-0.0024795911740511656,0.06694895774126053,-0.04253452271223068,-0.0036240178160369396,-0.0036240178160369396,-0.020027466118335724
4.381244659423828,-0.0024795911740511656,0.06694895774126053,-0.04253452271223068,-0.0036240178160369396,-0.0036240178160369396,-0.020027466118335724
4.4013166427612305,-0.0024795911740511656,0.06694895774126053,-0.04253452271223068,-0.0036240178160369396,-0.004005493130534887,-0.020027466118335724
4.4214043617248535,-0.0024795911740511656,0.06694895774126053,-0.04253452271223068,-0.0036240178160369396,-0.0036240178160369396,-0.020027466118335724
4.44149923324585,-0.0024795911740511656,0.06694895774126053,-0.04253452271223068,-0.0036240178160369396,-0.004005493130534887,-0.020027466118335724
4.46163272857666,-0.0024795911740511656,0.06656748056411743,-0.04253452271223068,-0.0036240178160369396,-0.0036240178160369396,-0.020027466118335724
4.48171067237854,-0.0024795911740511656,0.06618601083755493,-0.04253452271223068,-0.0036240178160369396,-0.0036240178160369396,-0.020027466118335724
4.501752138137817,-0.0024795911740511656,0.06580453366041183,-0.04253452271223068,-0.004005493130534887,-0.004005493130534887,-0.020027466118335724
4.521847248077393,-0.0024795911740511656,0.06580453366041183,-0.042153049260377884,-0.004005493130534887,-0.004005493130534887,-0.020027466118335724
4.541918516159058,-0.0024795911740511656,0.06580453366041183,-0.04253452271223068,-0.004005493130534887,-0.004005493130534887,-0.02040894143283367
4.56196403503418,-0.0024795911740511656,0.06580453366041183,-0.042153049260377884,-0.004005493130534887,-0.004005493130534887,-0.02040894143283367
4.582065105438232,-0.0024795911740511656,0.06580453366041183,-0.04177157208323479,-0.004005493130534887,-0.004005493130534887,-0.02040894143283367
4.602120876312256,-0.0024795911740511656,0.06504157930612564,-0.04177157208323479,-0.004005493130534887,-0.004005493130534887,-0.02040894143283367
4.622217416763306,-0.0024795911740511656,0.06504157930612564,-0.04177157208323479,-0.004005493130534887,-0.004005493130534887,-0.02040894143283367
4.642326354980469,-0.0024795911740511656,0.06504157930612564,-0.04177157208323479,-0.004005493130534887,-0.004005493130534887,-0.02040894143283367
4.662404537200928,-0.0024795911740511656,0.06466010212898254,-0.04177157208323479,-0.004005493130534887,-0.004005493130534887,-0.02040894143283367
4.682538270950317,-0.0024795911740511656,0.06466010212898254,-0.04177157208323479,-0.004005493130534887,-0.004005493130534887,-0.02040894143283367
4.702853441238403,-0.0024795911740511656,0.06427863240242004,-0.04177157208323479,-0.004005493130534887,-0.004005493130534887,-0.02040894143283367
4.722999811172485,-0.0024795911740511656,0.06389715522527695,-0.04177157208323479,-0.004386968910694122,-0.004005493130534887,-0.02079041674733162
4.743119716644287,-0.0024795911740511656,0.06389715522527695,-0.04177157208323479,-0.004386968910694122,-0.004005493130534887,-0.02040894143283367
4.7631402015686035,-0.0024795911740511656,0.06389715522527695,-0.04177157208323479,-0.004386968910694122,-0.004005493130534887,-0.02079041674733162
4.783204793930054,-0.0024795911740511656,0.06313420087099075,-0.04177157208323479,-0.004386968910694122,-0.004005493130534887,-0.02079041674733162
4.803311347961426,-0.0024795911740511656,0.06313420087099075,-0.04177157208323479,-0.004386968910694122,-0.004005493130534887,-0.02079041674733162
4.823363304138184,-0.0024795911740511656,0.06313420087099075,-0.04177157208323479,-0.004386968910694122,-0.004005493130534887,-0.02079041674733162
4.843491315841675,-0.0024795911740511656,0.06275273114442825,-0.04177157208323479,-0.004386968910694122,-0.004386968910694122,-0.021171892061829567
4.863541841506958,-0.0024795911740511656,0.06275273114442825,-0.04177157208323479,-0.00476844422519207,-0.004386968910694122,-0.021171892061829567
4.883618354797363,-0.0024795911740511656,0.06275273114442825,-0.04177157208323479,-0.00476844422519207,-0.004386968910694122,-0.021171892061829567
4.9037158489227295,-0.0024795911740511656,0.06275273114442825,-0.04139009863138199,-0.00476844422519207,-0.004386968910694122,-0.021171892061829567
4.923795223236084,-0.0024795911740511656,0.06237125024199486,-0.04139009863138199,-0.00476844422519207,-0.004386968910694122,-0.021553369238972664
4.943896532058716,-0.0024795911740511656,0.06198977679014206,-0.04139009863138199,-0.00476844422519207,-0.004386968910694122,-0.02231631986796856
4.964247941970825,-0.0024795911740511656,0.06198977679014206,-0.04139009863138199,-0.005149920005351305,-0.004386968910694122,-0.023079270496964455
4.984333038330078,-0.0024795911740511656,0.06160829961299896,-0.04139009863138199,-0.005912871100008488,-0.004386968910694122,-0.023079270496964455
5.004484176635742,-0.0024795911740511656,0.06160829961299896,-0.04139009863138199,-0.00667582219466567,-0.004386968910694122,-0.023079270496964455
5.024670839309692,-0.0024795911740511656,0.06160829961299896,-0.04139009863138199,-0.00667582219466567,-0.004386968910694122,-0.023079270496964455
5.044814825057983,-0.0024795911740511656,0.061226826161146164,-0.04139009863138199,-0.007057297509163618,-0.004386968910694122,-0.023079270496964455
5.064904451370239,-0.0024795911740511656,0.06084534898400307,-0.04139009863138199,-0.007057297509163618,-0.00476844422519207,-0.023079270496964455
5.085067987442017,-0.0024795911740511656,0.06084534898400307,-0.04139009863138199,-0.007057297509163618,-0.00476844422519207,-0.023079270496964455
5.105180740356445,-0.0024795911740511656,0.06084534898400307,-0.04139009863138199,-0.007057297509163618,-0.00476844422519207,-0.023079270496964455
5.125475168228149,-0.0024795911740511656,0.06084534898400307,-0.04139009863138199,-0.007057297509163618,-0.00476844422519207,-0.023079270496964455
5.145412445068359,-0.0024795911740511656,0.06084534898400307,-0.04139009863138199,-0.007057297509163618,-0.005149920005351305,-0.023079270496964455
5.16552209854126,-0.0024795911740511656,0.06008239835500717,-0.04139009863138199,-0.007057297509163618,-0.005149920005351305,-0.023079270496964455
5.1855785846710205,-0.0024795911740511656,0.05970092490315437,-0.04139009863138199,-0.007057297509163618,-0.005149920005351305,-0.023079270496964455
5.205645799636841,-0.0024795911740511656,0.05970092490315437,-0.04139009863138199,-0.007057297509163618,-0.005149920005351305,-0.023079270496964455
5.2257397174835205,-0.0024795911740511656,0.05970092490315437,-0.04139009863138199,-0.007057297509163618,-0.005531395319849253,-0.023079270496964455
5.245840549468994,-0.0024795911740511656,0.05970092490315437,-0.04139009863138199,-0.007057297509163618,-0.005531395319849253,-0.023079270496964455
5.265945196151733,-0.0024795911740511656,0.05970092490315437,-0.04100862145423889,-0.007057297509163618,-0.005531395319849253,-0.023460745811462402
5.2859673500061035,-0.0024795911740511656,0.05970092490315437,-0.04100862145423889,-0.007057297509163618,-0.005531395319849253,-0.023079270496964455
5.306132793426514,-0.0024795911740511656,0.059319447726011276,-0.04100862145423889,-0.007057297509163618,-0.005531395319849253,-0.023460745811462402
5.32622766494751,-0.0024795911740511656,0.05893797054886818,-0.04100862145423889,-0.007057297509163618,-0.005531395319849253,-0.023460745811462402
5.346347332000732,-0.0024795911740511656,0.05893797054886818,-0.04100862145423889,-0.007057297509163618,-0.005531395319849253,-0.023460745811462402
5.366430044174194,-0.0024795911740511656,0.05893797054886818,-0.04100862145423889,-0.007057297509163618,-0.005531395319849253,-0.023460745811462402
5.386497974395752,-0.0024795911740511656,0.05893797054886818,-0.04100862145423889,-0.007057297509163618,-0.005531395319849253,-0.023460745811462402
5.406559944152832,-0.0024795911740511656,0.05893797054886818,-0.04100862145423889,-0.007057297509163618,-0.005531395319849253,-0.023460745811462402
5.4266862869262695,-0.0024795911740511656,0.05855649709701538,-0.04100862145423889,-0.007057297509163618,-0.005912871100008488,-0.023460745811462402
5.446729898452759,-0.0024795911740511656,0.057793546468019485,-0.04100862145423889,-0.007057297509163618,-0.005912871100008488,-0.023460745811462402
5.466817378997803,-0.0024795911740511656,0.057793546468019485,-0.040627144277095795,-0.007057297509163618,-0.005531395319849253,-0.023460745811462402
5.48687219619751,-0.0024795911740511656,0.057793546468019485,-0.040627144277095795,-0.007057297509163618,-0.005912871100008488,-0.023460745811462402
5.506940126419067,-0.0024795911740511656,0.05741206929087639,-0.040627144277095795,-0.007057297509163618,-0.005912871100008488,-0.023460745811462402
5.527128458023071,-0.0024795911740511656,0.057793546468019485,-0.040627144277095795,-0.007438773289322853,-0.005912871100008488,-0.023460745811462402
5.54711389541626,-0.0024795911740511656,0.05741206929087639,-0.040627144277095795,-0.007057297509163618,-0.005912871100008488,-0.023460745811462402
5.567182540893555,-0.0024795911740511656,0.05703059583902359,-0.040627144277095795,-0.007438773289322853,-0.005912871100008488,-0.023460745811462402
5.587284564971924,-0.0024795911740511656,0.05664911866188049,-0.040627144277095795,-0.007438773289322853,-0.005912871100008488,-0.023460745811462402
5.6073157787323,-0.0024795911740511656,0.05703059583902359,-0.040627144277095795,-0.007057297509163618,-0.005912871100008488,-0.023460745811462402
5.627405881881714,-0.0024795911740511656,0.05664911866188049,-0.040627144277095795,-0.007438773289322853,-0.005912871100008488,-0.02384222112596035
5.647479057312012,-0.0024795911740511656,0.05664911866188049,-0.040627144277095795,-0.007438773289322853,-0.005912871100008488,-0.02384222112596035
5.667524576187134,-0.0024795911740511656,0.05664911866188049,-0.040627144277095795,-0.007438773289322853,-0.005912871100008488,-0.02384222112596035
5.687612533569336,-0.0024795911740511656,0.05664911866188049,-0.040627144277095795,-0.007438773289322853,-0.005912871100008488,-0.02384222112596035
5.707672834396362,-0.0024795911740511656,0.0558861680328846,-0.040627144277095795,-0.007438773289322853,-0.005912871100008488,-0.02384222112596035
5.733173847198486,-0.0024795911740511656,0.0555046908557415,-0.040627144277095795,-0.007438773289322853,-0.005912871100008488,-0.02384222112596035
5.753368854522705,-0.0024795911740511656,0.053215838968753815,-0.0394827201962471,-0.007438773289322853,-0.006294346414506435,-0.02384222112596035
5.773455381393433,-0.0024795911740511656,0.05245288833975792,-0.039101243019104004,-0.007438773289322853,-0.005912871100008488,-0.02384222112596035
5.7934653759002686,-0.0024795911740511656,0.05283436179161072,-0.039101243019104004,-0.007438773289322853,-0.005912871100008488,-0.024223696440458298
5.813563346862793,-0.0024795911740511656,0.05283436179161072,-0.0394827201962471,-0.007438773289322853,-0.006294346414506435,-0.024223696440458298
5.833619832992554,-0.0024795911740511656,0.05283436179161072,-0.0394827201962471,-0.007438773289322853,-0.005912871100008488,-0.024223696440458298
5.853692531585693,-0.0024795911740511656,0.05283436179161072,-0.039101243019104004,-0.0078202486038208,-0.005912871100008488,-0.024223696440458298
5.873783349990845,-0.0024795911740511656,0.05283436179161072,-0.039101243019104004,-0.007438773289322853,-0.006294346414506435,-0.024223696440458298
5.893873691558838,-0.0024795911740511656,0.05245288833975792,-0.039101243019104004,-0.0078202486038208,-0.006294346414506435,-0.024223696440458298
5.913940191268921,-0.0024795911740511656,0.05245288833975792,-0.039101243019104004,-0.007438773289322853,-0.006294346414506435,-0.024223696440458298
5.933993577957153,-0.0024795911740511656,0.05245288833975792,-0.039101243019104004,-0.007438773289322853,-0.006294346414506435,-0.024223696440458298
5.954073905944824,-0.0024795911740511656,0.05245288833975792,-0.039101243019104004,-0.0078202486038208,-0.006294346414506435,-0.024223696440458298
5.974272727966309,-0.0024795911740511656,0.05207141116261482,-0.039101243019104004,-0.0078202486038208,-0.006294346414506435,-0.024223696440458298
5.9943742752075195,-0.0024795911740511656,0.051689937710762024,-0.039101243019104004,-0.0078202486038208,-0.006294346414506435,-0.024605173617601395
6.014386415481567,-0.0024795911740511656,0.051689937710762024,-0.038719769567251205,-0.0078202486038208,-0.006294346414506435,-0.024605173617601395
6.034579277038574,-0.0024795911740511656,0.051689937710762024,-0.038719769567251205,-0.0078202486038208,-0.006294346414506435,-0.024605173617601395
6.05462908744812,-0.0024795911740511656,0.051689937710762024,-0.038719769567251205,-0.0078202486038208,-0.006294346414506435,-0.024605173617601395
6.0746941566467285,-0.0024795911740511656,0.051689937710762024,-0.038719769567251205,-0.0078202486038208,-0.006294346414506435,-0.024605173617601395
6.094867706298828,-0.0024795911740511656,0.051689937710762024,-0.038719769567251205,-0.0078202486038208,-0.006294346414506435,-0.024605173617601395
6.11490797996521,-0.0024795911740511656,0.05130846053361893,-0.038719769567251205,-0.0078202486038208,-0.006294346414506435,-0.024605173617601395
6.135033369064331,-0.0024795911740511656,0.05092698708176613,-0.038719769567251205,-0.0078202486038208,-0.006294346414506435,-0.024605173617601395
6.1551361083984375,-0.0024795911740511656,0.05054550990462303,-0.038719769567251205,-0.0078202486038208,-0.006294346414506435,-0.024605173617601395
6.175224304199219,-0.0024795911740511656,0.05054550990462303,-0.038719769567251205,-0.0078202486038208,-0.006294346414506435,-0.024986648932099342
6.195296049118042,-0.0024795911740511656,0.05054550990462303,-0.038719769567251205,-0.008201723918318748,-0.006294346414506435,-0.024986648932099342
6.215449810028076,-0.0024795911740511656,0.05054550990462303,-0.038719769567251205,-0.008201723918318748,-0.006294346414506435,-0.024986648932099342
6.235563516616821,-0.0024795911740511656,0.05054550990462303,-0.038719769567251205,-0.008201723918318748,-0.006294346414506435,-0.024986648932099342
6.255580425262451,-0.0024795911740511656,0.05054550990462303,-0.038719769567251205,-0.008201723918318748,-0.006294346414506435,-0.024986648932099342
6.275670289993286,-0.0024795911740511656,0.050164032727479935,-0.038719769567251205,-0.008201723918318748,-0.006294346414506435,-0.02536812424659729
6.295734643936157,-0.0024795911740511656,0.049782559275627136,-0.038719769567251205,-0.008201723918318748,-0.006294346414506435,-0.02536812424659729
6.3157899379730225,-0.0024795911740511656,0.049782559275627136,-0.038719769567251205,-0.008201723918318748,-0.006294346414506435,-0.02536812424659729
6.336071252822876,-0.0024795911740511656,0.04940108209848404,-0.038719769567251205,-0.008201723918318748,-0.006294346414506435,-0.02536812424659729
6.356075286865234,-0.0024795911740511656,0.04940108209848404,-0.038719769567251205,-0.00858320016413927,-0.006294346414506435,-0.02536812424659729
6.376116514205933,-0.0024795911740511656,0.04940108209848404,-0.038719769567251205,-0.00858320016413927,-0.006294346414506435,-0.02536812424659729
6.3966264724731445,-0.0024795911740511656,0.04901960864663124,-0.038719769567251205,-0.008964675478637218,-0.006294346414506435,-0.025749599561095238
6.416884183883667,-0.0024795911740511656,0.048638131469488144,-0.038719769567251205,-0.008964675478637218,-0.006294346414506435,-0.025749599561095238
6.437021255493164,-0.0024795911740511656,0.048638131469488144,-0.038719769567251205,-0.008964675478637218,-0.006294346414506435,-0.026131074875593185
6.456990957260132,-0.0024795911740511656,0.048638131469488144,-0.038719769567251205,-0.009346150793135166,-0.006294346414506435,-0.026131074875593185
6.477077484130859,-0.0024795911740511656,0.048256658017635345,-0.038719769567251205,-0.009727626107633114,-0.006294346414506435,-0.026512550190091133
6.497158765792847,-0.0024795911740511656,0.048256658017635345,-0.038719769567251205,-0.009727626107633114,-0.006294346414506435,-0.026512550190091133
6.517215967178345,-0.0024795911740511656,0.048256658017635345,-0.038719769567251205,-0.009727626107633114,-0.006294346414506435,-0.026512550190091133
6.537296772003174,-0.0024795911740511656,0.04749370738863945,-0.038719769567251205,-0.009727626107633114,-0.006294346414506435,-0.026512550190091133
6.557346820831299,-0.0024795911740511656,0.04749370738863945,-0.038719769567251205,-0.009727626107633114,-0.006294346414506435,-0.026512550190091133
6.577390193939209,-0.0024795911740511656,0.04749370738863945,-0.038719769567251205,-0.010109102353453636,-0.006294346414506435,-0.026512550190091133
6.5974836349487305,-0.0024795911740511656,0.04749370738863945,-0.038719769567251205,-0.010109102353453636,-0.006294346414506435,-0.026512550190091133
6.617602825164795,-0.0024795911740511656,0.04749370738863945,-0.038719769567251205,-0.010109102353453636,-0.006294346414506435,-0.026512550190091133
6.637622833251953,-0.0024795911740511656,0.04711223021149635,-0.038719769567251205,-0.010109102353453636,-0.006294346414506435,-0.026512550190091133
6.6577301025390625,-0.0024795911740511656,0.04711223021149635,-0.038719769567251205,-0.010109102353453636,-0.006294346414506435,-0.026512550190091133
6.677900552749634,-0.0024795911740511656,0.04634927958250046,-0.038719769567251205,-0.010109102353453636,-0.006294346414506435,-0.02689402550458908
6.697915315628052,-0.0024795911740511656,0.04634927958250046,-0.038719769567251205,-0.010109102353453636,-0.006294346414506435,-0.02689402550458908
6.7179999351501465,-0.0024795911740511656,0.04634927958250046,-0.038719769567251205,-0.010109102353453636,-0.006294346414506435,-0.02689402550458908
6.738072156906128,-0.0024795911740511656,0.04634927958250046,-0.038719769567251205,-0.010109102353453636,-0.006294346414506435,-0.02689402550458908
6.758117198944092,-0.0024795911740511656,0.04634927958250046,-0.038719769567251205,-0.010109102353453636,-0.006294346414506435,-0.02689402550458908
6.778210163116455,-0.0024795911740511656,0.04634927958250046,-0.038719769567251205,-0.010109102353453636,-0.006294346414506435,-0.02689402550458908
6.798280715942383,-0.0024795911740511656,0.04558632895350456,-0.038719769567251205,-0.010109102353453636,-0.006294346414506435,-0.02689402550458908
6.8183512687683105,-0.0024795911740511656,0.045204851776361465,-0.038719769567251205,-0.010109102353453636,-0.006294346414506435,-0.02689402550458908
6.838397741317749,-0.0024795911740511656,0.045204851776361465,-0.038719769567251205,-0.010109102353453636,-0.006294346414506435,-0.02689402550458908
6.858489036560059,-0.0024795911740511656,0.045204851776361465,-0.038719769567251205,-0.010109102353453636,-0.006294346414506435,-0.02689402550458908
6.878596544265747,-0.0024795911740511656,0.045204851776361465,-0.038719769567251205,-0.010109102353453636,-0.006294346414506435,-0.02689402550458908
6.89864444732666,-0.0024795911740511656,0.045204851776361465,-0.038719769567251205,-0.010109102353453636,-0.006294346414506435,-0.02689402550458908
6.918726444244385,-0.0024795911740511656,0.045204851776361465,-0.038719769567251205,-0.010109102353453636,-0.006294346414506435,-0.02689402550458908
6.93886137008667,-0.0024795911740511656,0.04444190114736557,-0.038719769567251205,-0.010109102353453636,-0.006294346414506435,-0.02727550081908703
6.958878517150879,-0.0024795911740511656,0.04444190114736557,-0.038719769567251205,-0.010109102353453636,-0.006294346414506435,-0.02727550081908703
6.9789910316467285,-0.0024795911740511656,0.04444190114736557,-0.038719769567251205,-0.010109102353453636,-0.006294346414506435,-0.02727550081908703
6.999063730239868,-0.0024795911740511656,0.04444190114736557,-0.038719769567251205,-0.010109102353453636,-0.006294346414506435,-0.02727550081908703
7.019113302230835,-0.0024795911740511656,0.04444190114736557,-0.03833829239010811,-0.010109102353453636,-0.006294346414506435,-0.02727550081908703
7.039268732070923,-0.0024795911740511656,0.04444190114736557,-0.038719769567251205,-0.010109102353453636,-0.006294346414506435,-0.02727550081908703
7.059467077255249,-0.0024795911740511656,0.04406042397022247,-0.038719769567251205,-0.010109102353453636,-0.006294346414506435,-0.02727550081908703
7.079457759857178,-0.0024795911740511656,0.04406042397022247,-0.038719769567251205,-0.010490577667951584,-0.006294346414506435,-0.02727550081908703
7.099525690078735,-0.0024795911740511656,0.04329747334122658,-0.038719769567251205,-0.010490577667951584,-0.006294346414506435,-0.02727550081908703
7.119692325592041,-0.0024795911740511656,0.04329747334122658,-0.03833829239010811,-0.010490577667951584,-0.006294346414506435,-0.02727550081908703
7.139782190322876,-0.0024795911740511656,0.04329747334122658,-0.038719769567251205,-0.010490577667951584,-0.006294346414506435,-0.02727550081908703
7.159773111343384,-0.0024795911740511656,0.04329747334122658,-0.03833829239010811,-0.010490577667951584,-0.006294346414506435,-0.02727550081908703
7.179995059967041,-0.0024795911740511656,0.04329747334122658,-0.038719769567251205,-0.010490577667951584,-0.006294346414506435,-0.02727550081908703
7.200088262557983,-0.0024795911740511656,0.04329747334122658,-0.038719769567251205,-0.010490577667951584,-0.006294346414506435,-0.02727550081908703
7.220154285430908,-0.0024795911740511656,0.04291599988937378,-0.038719769567251205,-0.010490577667951584,-0.006294346414506435,-0.02727550081908703
7.240224599838257,-0.0024795911740511656,0.04253452271223068,-0.038719769567251205,-0.010490577667951584,-0.006294346414506435,-0.02727550081908703
7.260379314422607,-0.0024795911740511656,0.04253452271223068,-0.038719769567251205,-0.010490577667951584,-0.006294346414506435,-0.02727550081908703
7.280470371246338,-0.0024795911740511656,0.042153049260377884,-0.038719769567251205,-0.010490577667951584,-0.006294346414506435,-0.027656977996230125
7.300508260726929,-0.0024795911740511656,0.042153049260377884,-0.03833829239010811,-0.010490577667951584,-0.006294346414506435,-0.027656977996230125
7.320576190948486,-0.0024795911740511656,0.042153049260377884,-0.03833829239010811,-0.010490577667951584,-0.006294346414506435,-0.027656977996230125
7.340654611587524,-0.0024795911740511656,0.042153049260377884,-0.038719769567251205,-0.010490577667951584,-0.006294346414506435,-0.027656977996230125
7.360723972320557,-0.0024795911740511656,0.042153049260377884,-0.038719769567251205,-0.010490577667951584,-0.006294346414506435,-0.027656977996230125
7.380974531173706,-0.0024795911740511656,0.04139009863138199,-0.03833829239010811,-0.010490577667951584,-0.00667582219466567,-0.027656977996230125
7.40108323097229,-0.0024795911740511656,0.04139009863138199,-0.03833829239010811,-0.010490577667951584,-0.006294346414506435,-0.027656977996230125
7.421195983886719,-0.0024795911740511656,0.04139009863138199,-0.038719769567251205,-0.010490577667951584,-0.006294346414506435,-0.027656977996230125
7.44130277633667,-0.0024795911740511656,0.04139009863138199,-0.03833829239010811,-0.010490577667951584,-0.00667582219466567,-0.027656977996230125
7.461630821228027,-0.0024795911740511656,0.04139009863138199,-0.03833829239010811,-0.010490577667951584,-0.006294346414506435,-0.027656977996230125
7.481773376464844,-0.0024795911740511656,0.04100862145423889,-0.03833829239010811,-0.010490577667951584,-0.00667582219466567,-0.027656977996230125
7.501788377761841,-0.0024795911740511656,0.04100862145423889,-0.03833829239010811,-0.010490577667951584,-0.006294346414506435,-0.027656977996230125
7.52193808555603,-0.0024795911740511656,0.040245670825242996,-0.03833829239010811,-0.010490577667951584,-0.006294346414506435,-0.028038453310728073
7.5421142578125,-0.0024795911740511656,0.040245670825242996,-0.03833829239010811,-0.010490577667951584,-0.00667582219466567,-0.028038453310728073
7.562227487564087,-0.0024795911740511656,0.040245670825242996,-0.03833829239010811,-0.010872052982449532,-0.006294346414506435,-0.028038453310728073
7.582263469696045,-0.0024795911740511656,0.040245670825242996,-0.03833829239010811,-0.010872052982449532,-0.00667582219466567,-0.028038453310728073
7.602608919143677,-0.0024795911740511656,0.040245670825242996,-0.03833829239010811,-0.010872052982449532,-0.00667582219466567,-0.028038453310728073
7.622687339782715,-0.0024795911740511656,0.0398641936480999,-0.03833829239010811,-0.010872052982449532,-0.00667582219466567,-0.028038453310728073
7.64277458190918,-0.0024795911740511656,0.0398641936480999,-0.03833829239010811,-0.010872052982449532,-0.00667582219466567,-0.028038453310728073
7.662806987762451,-0.0024795911740511656,0.0394827201962471,-0.03833829239010811,-0.010872052982449532,-0.00667582219466567,-0.028038453310728073
7.682915925979614,-0.0024795911740511656,0.039101243019104004,-0.03833829239010811,-0.010872052982449532,-0.00667582219466567,-0.028038453310728073
7.702982187271118,-0.0024795911740511656,0.039101243019104004,-0.03833829239010811,-0.010872052982449532,-0.00667582219466567,-0.028038453310728073
7.723059415817261,-0.0024795911740511656,0.039101243019104004,-0.03833829239010811,-0.010872052982449532,-0.00667582219466567,-0.028038453310728073
7.743163585662842,-0.0024795911740511656,0.039101243019104004,-0.03757534176111221,-0.010872052982449532,-0.00667582219466567,-0.028038453310728073
7.763206481933594,-0.0024795911740511656,0.038719769567251205,-0.037193864583969116,-0.010872052982449532,-0.00667582219466567,-0.02841992862522602
7.783262014389038,-0.0024795911740511656,0.03833829239010811,-0.037193864583969116,-0.010872052982449532,-0.00667582219466567,-0.02841992862522602
7.8034656047821045,-0.0024795911740511656,0.03833829239010811,-0.037193864583969116,-0.010872052982449532,-0.00667582219466567,-0.02841992862522602
7.823551416397095,-0.0024795911740511656,0.03833829239010811,-0.037193864583969116,-0.010872052982449532,-0.00667582219466567,-0.02841992862522602
7.843622446060181,-0.0024795911740511656,0.03795681521296501,-0.037193864583969116,-0.010872052982449532,-0.00667582219466567,-0.02841992862522602
7.863694429397583,-0.0024795911740511656,0.03795681521296501,-0.037193864583969116,-0.010872052982449532,-0.00667582219466567,-0.02841992862522602
7.883817434310913,-0.0024795911740511656,0.03795681521296501,-0.037193864583969116,-0.010872052982449532,-0.00667582219466567,-0.02841992862522602
7.903885364532471,-0.0024795911740511656,0.03795681521296501,-0.037193864583969116,-0.010872052982449532,-0.00667582219466567,-0.02841992862522602
7.9239795207977295,-0.0024795911740511656,0.03795681521296501,-0.037193864583969116,-0.01125352829694748,-0.00667582219466567,-0.02841992862522602
7.944055795669556,-0.0024795911740511656,0.037193864583969116,-0.037193864583969116,-0.01125352829694748,-0.00667582219466567,-0.02880140393972397
7.964094638824463,-0.0024795911740511656,0.037193864583969116,-0.037193864583969116,-0.01125352829694748,-0.00667582219466567,-0.02880140393972397
7.984161615371704,-0.0024795911740511656,0.037193864583969116,-0.037193864583969116,-0.01125352829694748,-0.00667582219466567,-0.02880140393972397
8.004230976104736,-0.0024795911740511656,0.037193864583969116,-0.037193864583969116,-0.01125352829694748,-0.00667582219466567,-0.029182879254221916
8.024595260620117,-0.0024795911740511656,0.037193864583969116,-0.037193864583969116,-0.01125352829694748,-0.00667582219466567,-0.02994582988321781
8.044718503952026,-0.0024795911740511656,0.037193864583969116,-0.037193864583969116,-0.01125352829694748,-0.00667582219466567,-0.030708782374858856
8.064809560775757,-0.0024795911740511656,0.03681239113211632,-0.037193864583969116,-0.01125352829694748,-0.00667582219466567,-0.030708782374858856
8.084880828857422,-0.0024795911740511656,0.03681239113211632,-0.037193864583969116,-0.01125352829694748,-0.00667582219466567,-0.030708782374858856
8.105021238327026,-0.0024795911740511656,0.03604944050312042,-0.037193864583969116,-0.01125352829694748,-0.00667582219466567,-0.030708782374858856
8.1250581741333,-0.0024795911740511656,0.03604944050312042,-0.037193864583969116,-0.01125352829694748,-0.00667582219466567,-0.030708782374858856
8.145123958587646,-0.0024795911740511656,0.03604944050312042,-0.037193864583969116,-0.01125352829694748,-0.00667582219466567,-0.030708782374858856
8.165361642837524,-0.0024795911740511656,0.03604944050312042,-0.037193864583969116,-0.011635004542768002,-0.00667582219466567,-0.031090257689356804
8.185389518737793,-0.0024795911740511656,0.03604944050312042,-0.03681239113211632,-0.01125352829694748,-0.00667582219466567,-0.031090257689356804
8.205610275268555,-0.0024795911740511656,0.035667963325977325,-0.03681239113211632,-0.011635004542768002,-0.00667582219466567,-0.031090257689356804
8.225736141204834,-0.0024795911740511656,0.035667963325977325,-0.03681239113211632,-0.011635004542768002,-0.00667582219466567,-0.031090257689356804
8.245867252349854,-0.0024795911740511656,0.03528648987412453,-0.03681239113211632,-0.011635004542768002,-0.00667582219466567,-0.031090257689356804
8.265871524810791,-0.0024795911740511656,0.03490501269698143,-0.03681239113211632,-0.011635004542768002,-0.00667582219466567,-0.031090257689356804
8.285969495773315,-0.0024795911740511656,0.03490501269698143,-0.03681239113211632,-0.011635004542768002,-0.00667582219466567,-0.031090257689356804
8.306031227111816,-0.0024795911740511656,0.03490501269698143,-0.03681239113211632,-0.011635004542768002,-0.00667582219466567,-0.031090257689356804
8.326094150543213,-0.0024795911740511656,0.03490501269698143,-0.03681239113211632,-0.011635004542768002,-0.00667582219466567,-0.031090257689356804
8.346147298812866,-0.0024795911740511656,0.03490501269698143,-0.03681239113211632,-0.011635004542768002,-0.00667582219466567,-0.031090257689356804
8.3662269115448,-0.0024795911740511656,0.03490501269698143,-0.03681239113211632,-0.011635004542768002,-0.00667582219466567,-0.031090257689356804
8.386303186416626,-0.0024795911740511656,0.03452353551983833,-0.03681239113211632,-0.011635004542768002,-0.00667582219466567,-0.031090257689356804
8.406431436538696,-0.0024795911740511656,0.034142062067985535,-0.03681239113211632,-0.011635004542768002,-0.00667582219466567,-0.031090257689356804
8.426541805267334,-0.0024795911740511656,0.034142062067985535,-0.03681239113211632,-0.011635004542768002,-0.00667582219466567,-0.03147173300385475
8.446633100509644,-0.0024795911740511656,0.034142062067985535,-0.03681239113211632,-0.011635004542768002,-0.00667582219466567,-0.03147173300385475
8.466764211654663,-0.0024795911740511656,0.03376058489084244,-0.03681239113211632,-0.01201647985726595,-0.00667582219466567,-0.03147173300385475
8.4868643283844,-0.0024795911740511656,0.03376058489084244,-0.03681239113211632,-0.01201647985726595,-0.00667582219466567,-0.03147173300385475
8.5069580078125,-0.0024795911740511656,0.03376058489084244,-0.03681239113211632,-0.01201647985726595,-0.00667582219466567,-0.03147173300385475
8.527001857757568,-0.0024795911740511656,0.03376058489084244,-0.03681239113211632,-0.01201647985726595,-0.00667582219466567,-0.03147173300385475
8.547131776809692,-0.0024795911740511656,0.03299763426184654,-0.03681239113211632,-0.01201647985726595,-0.00667582219466567,-0.03147173300385475
8.567230939865112,-0.0024795911740511656,0.03299763426184654,-0.03681239113211632,-0.012397955171763897,-0.00667582219466567,-0.03147173300385475
8.587300062179565,-0.0024795911740511656,0.032616160809993744,-0.03681239113211632,-0.012397955171763897,-0.00667582219466567,-0.03147173300385475
8.607347249984741,-0.0024795911740511656,0.032616160809993744,-0.03681239113211632,-0.012397955171763897,-0.00667582219466567,-0.03147173300385475
8.627432107925415,-0.0024795911740511656,0.03185320645570755,-0.03681239113211632,-0.012779430486261845,-0.00667582219466567,-0.03147173300385475
8.647497653961182,-0.0024795911740511656,0.03185320645570755,-0.03681239113211632,-0.013160906732082367,-0.00667582219466567,-0.03147173300385475
8.667543411254883,-0.0024795911740511656,0.03185320645570755,-0.03681239113211632,-0.013160906732082367,-0.00667582219466567,-0.03185320645570755
8.687638282775879,-0.0024795911740511656,0.03185320645570755,-0.03681239113211632,-0.013542382046580315,-0.00667582219466567,-0.03185320645570755
8.707741022109985,-0.0024795911740511656,0.03185320645570755,-0.03681239113211632,-0.013923857361078262,-0.00667582219466567,-0.03185320645570755
8.727770328521729,-0.0024795911740511656,0.03185320645570755,-0.03681239113211632,-0.013923857361078262,-0.00667582219466567,-0.03185320645570755
8.747864246368408,-0.0024795911740511656,0.03185320645570755,-0.03681239113211632,-0.013923857361078262,-0.00667582219466567,-0.03185320645570755
8.768036127090454,-0.0024795911740511656,0.031090257689356804,-0.03681239113211632,-0.013923857361078262,-0.00667582219466567,-0.03185320645570755
8.788044452667236,-0.0024795911740511656,0.030708782374858856,-0.03681239113211632,-0.013923857361078262,-0.00667582219466567,-0.03223468363285065
8.80814266204834,-0.0024795911740511656,0.030708782374858856,-0.03681239113211632,-0.013923857361078262,-0.00667582219466567,-0.03223468363285065
8.82830023765564,-0.0024795911740511656,0.030708782374858856,-0.03681239113211632,-0.013923857361078262,-0.007057297509163618,-0.03223468363285065
8.848320484161377,-0.0024795911740511656,0.030708782374858856,-0.03643091395497322,-0.01430533267557621,-0.007057297509163618,-0.03223468363285065
8.868367433547974,-0.0024795911740511656,0.030708782374858856,-0.03681239113211632,-0.01430533267557621,-0.00667582219466567,-0.03223468363285065
8.88847303390503,-0.0024795911740511656,0.030708782374858856,-0.03681239113211632,-0.01430533267557621,-0.007057297509163618,-0.03223468363285065
8.908496141433716,-0.0024795911740511656,0.03032730519771576,-0.03681239113211632,-0.01430533267557621,-0.00667582219466567,-0.032616160809993744
8.92854380607605,-0.0024795911740511656,0.02994582988321781,-0.03681239113211632,-0.01430533267557621,-0.00667582219466567,-0.032616160809993744
8.94880747795105,-0.0024795911740511656,0.02994582988321781,-0.03681239113211632,-0.01430533267557621,-0.00667582219466567,-0.032616160809993744
8.968892812728882,-0.0024795911740511656,0.02994582988321781,-0.03681239113211632,-0.01430533267557621,-0.00667582219466567,-0.03299763426184654
8.989072322845459,-0.0024795911740511656,0.02994582988321781,-0.03681239113211632,-0.01430533267557621,-0.007057297509163618,-0.03337911143898964
9.009061336517334,-0.0024795911740511656,0.02994582988321781,-0.03681239113211632,-0.01430533267557621,-0.00667582219466567,-0.03337911143898964
9.029155254364014,-0.0024795911740511656,0.029564354568719864,-0.03681239113211632,-0.01430533267557621,-0.007057297509163618,-0.03376058489084244
9.049278020858765,-0.0024795911740511656,0.029564354568719864,-0.03681239113211632,-0.01430533267557621,-0.00667582219466567,-0.03376058489084244
9.069356918334961,-0.0024795911740511656,0.029182879254221916,-0.03681239113211632,-0.01430533267557621,-0.007057297509163618,-0.034142062067985535
9.089442729949951,-0.0024795911740511656,0.02880140393972397,-0.03681239113211632,-0.01430533267557621,-0.007057297509163618,-0.034142062067985535
9.109514951705933,-0.0024795911740511656,0.02880140393972397,-0.03681239113211632,-0.01430533267557621,-0.007057297509163618,-0.034142062067985535
9.1295645236969,-0.0024795911740511656,0.02880140393972397,-0.03681239113211632,-0.01430533267557621,-0.007057297509163618,-0.034142062067985535
9.149664878845215,-0.0024795911740511656,0.02880140393972397,-0.03681239113211632,-0.014686808921396732,-0.007057297509163618,-0.034142062067985535
9.169769287109375,-0.0024795911740511656,0.02880140393972397,-0.03681239113211632,-0.01430533267557621,-0.007057297509163618,-0.034142062067985535
9.18978238105774,-0.0024795911740511656,0.02880140393972397,-0.03681239113211632,-0.014686808921396732,-0.007057297509163618,-0.034142062067985535
9.209965944290161,-0.0024795911740511656,0.02841992862522602,-0.03681239113211632,-0.014686808921396732,-0.007057297509163618,-0.034142062067985535
9.23005485534668,-0.0024795911740511656,0.028038453310728073,-0.03681239113211632,-0.014686808921396732,-0.007057297509163618,-0.034142062067985535
9.250133752822876,-0.0024795911740511656,0.027656977996230125,-0.03681239113211632,-0.014686808921396732,-0.007057297509163618,-0.034142062067985535
9.27017879486084,-0.0024795911740511656,0.027656977996230125,-0.03681239113211632,-0.014686808921396732,-0.007057297509163618,-0.034142062067985535
9.290264129638672,-0.0024795911740511656,0.027656977996230125,-0.03681239113211632,-0.014686808921396732,-0.007057297509163618,-0.03452353551983833
9.310418128967285,-0.0024795911740511656,0.027656977996230125,-0.03681239113211632,-0.014686808921396732,-0.007057297509163618,-0.03452353551983833
9.330507516860962,-0.0024795911740511656,0.027656977996230125,-0.03643091395497322,-0.014686808921396732,-0.007057297509163618,-0.03452353551983833
9.350830554962158,-0.0024795911740511656,0.02727550081908703,-0.03681239113211632,-0.014686808921396732,-0.007057297509163618,-0.03452353551983833
9.370921850204468,-0.0024795911740511656,0.026512550190091133,-0.03681239113211632,-0.014686808921396732,-0.007057297509163618,-0.03452353551983833
9.391010284423828,-0.0024795911740511656,0.026512550190091133,-0.03681239113211632,-0.014686808921396732,-0.007057297509163618,-0.03452353551983833
9.411761999130249,-0.0024795911740511656,0.026512550190091133,-0.03681239113211632,-0.014686808921396732,-0.007057297509163618,-0.03452353551983833
9.431839942932129,-0.0024795911740511656,0.026512550190091133,-0.03681239113211632,-0.014686808921396732,-0.007057297509163618,-0.03452353551983833
9.451924800872803,-0.0024795911740511656,0.026512550190091133,-0.03681239113211632,-0.014686808921396732,-0.007057297509163618,-0.03452353551983833
9.47206735610962,-0.0024795911740511656,0.026512550190091133,-0.03681239113211632,-0.014686808921396732,-0.007057297509163618,-0.03452353551983833
9.492149829864502,-0.0024795911740511656,0.026131074875593185,-0.03681239113211632,-0.014686808921396732,-0.007057297509163618,-0.03452353551983833
9.512169599533081,-0.0024795911740511656,0.025749599561095238,-0.03681239113211632,-0.014686808921396732,-0.007057297509163618,-0.03452353551983833
9.532259702682495,-0.0024795911740511656,0.025749599561095238,-0.03681239113211632,-0.014686808921396732,-0.007057297509163618,-0.03452353551983833
9.552401781082153,-0.0024795911740511656,0.025749599561095238,-0.03681239113211632,-0.014686808921396732,-0.007057297509163618,-0.03452353551983833
9.572449207305908,-0.0024795911740511656,0.025749599561095238,-0.03681239113211632,-0.014686808921396732,-0.007057297509163618,-0.03452353551983833
9.592555046081543,-0.0024795911740511656,0.025749599561095238,-0.03681239113211632,-0.014686808921396732,-0.007057297509163618,-0.03490501269698143
9.612682342529297,-0.0024795911740511656,0.02536812424659729,-0.03681239113211632,-0.014686808921396732,-0.007057297509163618,-0.03490501269698143
9.632839441299438,-0.0024795911740511656,0.02536812424659729,-0.03681239113211632,-0.014686808921396732,-0.007057297509163618,-0.03490501269698143
9.652830123901367,-0.0024795911740511656,0.024605173617601395,-0.03681239113211632,-0.01506828423589468,-0.007057297509163618,-0.03490501269698143
9.672911405563354,-0.0024795911740511656,0.024605173617601395,-0.03681239113211632,-0.014686808921396732,-0.007057297509163618,-0.03490501269698143
9.692972421646118,-0.0024795911740511656,0.024605173617601395,-0.03681239113211632,-0.014686808921396732,-0.007057297509163618,-0.03490501269698143
9.713074207305908,-0.0024795911740511656,0.024605173617601395,-0.03643091395497322,-0.01506828423589468,-0.007057297509163618,-0.03490501269698143
9.733163118362427,-0.0024795911740511656,0.024605173617601395,-0.03681239113211632,-0.01506828423589468,-0.007057297509163618,-0.03490501269698143
9.75327181816101,-0.0024795911740511656,0.024605173617601395,-0.03643091395497322,-0.01506828423589468,-0.007057297509163618,-0.03490501269698143
9.773399353027344,-0.0024795911740511656,0.024605173617601395,-0.03681239113211632,-0.01506828423589468,-0.007057297509163618,-0.03490501269698143
9.793568134307861,-0.0024795911740511656,0.024605173617601395,-0.03681239113211632,-0.01506828423589468,-0.007057297509163618,-0.03490501269698143
9.81356430053711,-0.0024795911740511656,0.024223696440458298,-0.03681239113211632,-0.01506828423589468,-0.007057297509163618,-0.03490501269698143
9.833666801452637,-0.0024795911740511656,0.02384222112596035,-0.03681239113211632,-0.01506828423589468,-0.007057297509163618,-0.03490501269698143
9.853725671768188,-0.0024795911740511656,0.02384222112596035,-0.03681239113211632,-0.01506828423589468,-0.007057297509163618,-0.03528648987412453
9.87378978729248,-0.0024795911740511656,0.023460745811462402,-0.03681239113211632,-0.01506828423589468,-0.007057297509163618,-0.03528648987412453
9.89400601387024,-0.0024795911740511656,0.023460745811462402,-0.03681239113211632,-0.01506828423589468,-0.007057297509163618,-0.03528648987412453
9.91403317451477,-0.0024795911740511656,0.023460745811462402,-0.03681239113211632,-0.01506828423589468,-0.007057297509163618,-0.03528648987412453
9.934216976165771,-0.0024795911740511656,0.023460745811462402,-0.03681239113211632,-0.01506828423589468,-0.007057297509163618,-0.03528648987412453
9.954295635223389,-0.0024795911740511656,0.023460745811462402,-0.03681239113211632,-0.01506828423589468,-0.007057297509163618,-0.03528648987412453
9.974345445632935,-0.0024795911740511656,0.023460745811462402,-0.03681239113211632,-0.01506828423589468,-0.007057297509163618,-0.03528648987412453
9.994474172592163,-0.0024795911740511656,0.023460745811462402,-0.03681239113211632,-0.01506828423589468,-0.007057297509163618,-0.03528648987412453
10.01460313796997,-0.0024795911740511656,0.022697795182466507,-0.03681239113211632,-0.01506828423589468,-0.007057297509163618,-0.03528648987412453
10.034648180007935,-0.0024795911740511656,0.022697795182466507,-0.03681239113211632,-0.01506828423589468,-0.007057297509163618,-0.035667963325977325
10.054719686508179,-0.0024795911740511656,0.022697795182466507,-0.03681239113211632,-0.015449759550392628,-0.007438773289322853,-0.03528648987412453
10.074784517288208,-0.0024795911740511656,0.02231631986796856,-0.03681239113211632,-0.01506828423589468,-0.007057297509163618,-0.035667963325977325
10.094833135604858,-0.0024795911740511656,0.02231631986796856,-0.03681239113211632,-0.015449759550392628,-0.007057297509163618,-0.035667963325977325
10.114964962005615,-0.0024795911740511656,0.02231631986796856,-0.03681239113211632,-0.015449759550392628,-0.007057297509163618,-0.035667963325977325
10.135030269622803,-0.0024795911740511656,0.02231631986796856,-0.03681239113211632,-0.015449759550392628,-0.007057297509163618,-0.035667963325977325
10.15511178970337,-0.0024795911740511656,0.021553369238972664,-0.03681239113211632,-0.015449759550392628,-0.007057297509163618,-0.035667963325977325
10.175188064575195,-0.0024795911740511656,0.021553369238972664,-0.03681239113211632,-0.015449759550392628,-0.007438773289322853,-0.035667963325977325
10.195318460464478,-0.0024795911740511656,0.021553369238972664,-0.03681239113211632,-0.01583123579621315,-0.007057297509163618,-0.035667963325977325
10.215430974960327,-0.0024795911740511656,0.021171892061829567,-0.03681239113211632,-0.01583123579621315,-0.007057297509163618,-0.035667963325977325
10.235527515411377,-0.0024795911740511656,0.021171892061829567,-0.03681239113211632,-0.01583123579621315,-0.007057297509163618,-0.035667963325977325
10.255613803863525,-0.0024795911740511656,0.021171892061829567,-0.03681239113211632,-0.01583123579621315,-0.007057297509163618,-0.035667963325977325
10.275686740875244,-0.0024795911740511656,0.021171892061829567,-0.03681239113211632,-0.01583123579621315,-0.007057297509163618,-0.03604944050312042
10.296026945114136,-0.0024795911740511656,0.02040894143283367,-0.03681239113211632,-0.01583123579621315,-0.007057297509163618,-0.03604944050312042
10.316119909286499,-0.0024795911740511656,0.02040894143283367,-0.03681239113211632,-0.016212711110711098,-0.007438773289322853,-0.03604944050312042
10.336207389831543,-0.0024795911740511656,0.02040894143283367,-0.03681239113211632,-0.016212711110711098,-0.007438773289322853,-0.03604944050312042
10.356318950653076,-0.0024795911740511656,0.02040894143283367,-0.03681239113211632,-0.016212711110711098,-0.007438773289322853,-0.03643091395497322
10.376508474349976,-0.0024795911740511656,0.02040894143283367,-0.03681239113211632,-0.016212711110711098,-0.007438773289322853,-0.03681239113211632
10.396522998809814,-0.0024795911740511656,0.020027466118335724,-0.03681239113211632,-0.016212711110711098,-0.007438773289322853,-0.03681239113211632
10.416587114334106,-0.0024795911740511656,0.019645990803837776,-0.03681239113211632,-0.016594186425209045,-0.007438773289322853,-0.03757534176111221
10.436716318130493,-0.0024795911740511656,0.01926451548933983,-0.03681239113211632,-0.016594186425209045,-0.007438773289322853,-0.03795681521296501
10.456757545471191,-0.0024795911740511656,0.01926451548933983,-0.03681239113211632,-0.016975661739706993,-0.007438773289322853,-0.03795681521296501
10.476837873458862,-0.0024795911740511656,0.01926451548933983,-0.03681239113211632,-0.01735713705420494,-0.007438773289322853,-0.03795681521296501
10.497010231018066,-0.0024795911740511656,0.01926451548933983,-0.03681239113211632,-0.01735713705420494,-0.007438773289322853,-0.03795681521296501
10.5171217918396,-0.0024795911740511656,0.01926451548933983,-0.03681239113211632,-0.01735713705420494,-0.007438773289322853,-0.03795681521296501
10.537175416946411,-0.0024795911740511656,0.01926451548933983,-0.03681239113211632,-0.01773861236870289,-0.007438773289322853,-0.03795681521296501
10.557506084442139,-0.0024795911740511656,0.01926451548933983,-0.03681239113211632,-0.01773861236870289,-0.007438773289322853,-0.03795681521296501
10.577565431594849,-0.0024795911740511656,0.01888304017484188,-0.03681239113211632,-0.01773861236870289,-0.007438773289322853,-0.03795681521296501
10.597598552703857,-0.0024795911740511656,0.018501564860343933,-0.03681239113211632,-0.01773861236870289,-0.007438773289322853,-0.03833829239010811
10.617668390274048,-0.0024795911740511656,0.018501564860343933,-0.03681239113211632,-0.01773861236870289,-0.007438773289322853,-0.03833829239010811
10.637746572494507,-0.0024795911740511656,0.018501564860343933,-0.03681239113211632,-0.01773861236870289,-0.007438773289322853,-0.03833829239010811
10.657843589782715,-0.0024795911740511656,0.018120087683200836,-0.03681239113211632,-0.01773861236870289,-0.007438773289322853,-0.03833829239010811
10.677978277206421,-0.0024795911740511656,0.018120087683200836,-0.03681239113211632,-0.01773861236870289,-0.007438773289322853,-0.03833829239010811
10.697993516921997,-0.0024795911740511656,0.018120087683200836,-0.03681239113211632,-0.01773861236870289,-0.007438773289322853,-0.03833829239010811
10.71805477142334,-0.0024795911740511656,0.018120087683200836,-0.03681239113211632,-0.01773861236870289,-0.007438773289322853,-0.03833829239010811
10.738098621368408,-0.0024795911740511656,0.01773861236870289,-0.03681239113211632,-0.01773861236870289,-0.007438773289322853,-0.03833829239010811
10.758193016052246,-0.0024795911740511656,0.01735713705420494,-0.03681239113211632,-0.01773861236870289,-0.007438773289322853,-0.03833829239010811
10.778265476226807,-0.0024795911740511656,0.01735713705420494,-0.03681239113211632,-0.01773861236870289,-0.007438773289322853,-0.03833829239010811
10.798335313796997,-0.0024795911740511656,0.01735713705420494,-0.03681239113211632,-0.01773861236870289,-0.007438773289322853,-0.03833829239010811
10.818543910980225,-0.0024795911740511656,0.01735713705420494,-0.03681239113211632,-0.01773861236870289,-0.007438773289322853,-0.03833829239010811
10.83863377571106,-0.0024795911740511656,0.016975661739706993,-0.03681239113211632,-0.01773861236870289,-0.007438773289322853,-0.03833829239010811
10.85870099067688,-0.0024795911740511656,0.016975661739706993,-0.03681239113211632,-0.01773861236870289,-0.007438773289322853,-0.03833829239010811
10.878854751586914,-0.0024795911740511656,0.016594186425209045,-0.03681239113211632,-0.01773861236870289,-0.007438773289322853,-0.03833829239010811
10.898943662643433,-0.0024795911740511656,0.016212711110711098,-0.03681239113211632,-0.018120087683200836,-0.007438773289322853,-0.03833829239010811
10.919018745422363,-0.0024795911740511656,0.016212711110711098,-0.03681239113211632,-0.01773861236870289,-0.007438773289322853,-0.03833829239010811
10.939268112182617,-0.0024795911740511656,0.016212711110711098,-0.03681239113211632,-0.018120087683200836,-0.007438773289322853,-0.03833829239010811
10.95937180519104,-0.0024795911740511656,0.016212711110711098,-0.03681239113211632,-0.018120087683200836,-0.007438773289322853,-0.038719769567251205
10.979461431503296,-0.0024795911740511656,0.016212711110711098,-0.03681239113211632,-0.018120087683200836,-0.007438773289322853,-0.038719769567251205
10.999484777450562,-0.0024795911740511656,0.01583123579621315,-0.03681239113211632,-0.018120087683200836,-0.007438773289322853,-0.038719769567251205
11.019579648971558,-0.0024795911740511656,0.01583123579621315,-0.03681239113211632,-0.018120087683200836,-0.007438773289322853,-0.038719769567251205
11.039690017700195,-0.0024795911740511656,0.015449759550392628,-0.03681239113211632,-0.018120087683200836,-0.007438773289322853,-0.038719769567251205
11.05970573425293,-0.0024795911740511656,0.01506828423589468,-0.03681239113211632,-0.018120087683200836,-0.007438773289322853,-0.038719769567251205
11.079823017120361,-0.0024795911740511656,0.01506828423589468,-0.03681239113211632,-0.018120087683200836,-0.007438773289322853,-0.038719769567251205
11.099891185760498,-0.0024795911740511656,0.01506828423589468,-0.03681239113211632,-0.018120087683200836,-0.007438773289322853,-0.038719769567251205
11.119988441467285,-0.0024795911740511656,0.01506828423589468,-0.03681239113211632,-0.018120087683200836,-0.007438773289322853,-0.038719769567251205
11.140146255493164,-0.0024795911740511656,0.01506828423589468,-0.03681239113211632,-0.018120087683200836,-0.007438773289322853,-0.038719769567251205
11.160247802734375,-0.0024795911740511656,0.014686808921396732,-0.03681239113211632,-0.018120087683200836,-0.007438773289322853,-0.038719769567251205
11.180352449417114,-0.0024795911740511656,0.01430533267557621,-0.03681239113211632,-0.018120087683200836,-0.007438773289322853,-0.038719769567251205
11.200769901275635,-0.0024795911740511656,0.013923857361078262,-0.03681239113211632,-0.018120087683200836,-0.007438773289322853,-0.038719769567251205
11.220857620239258,-0.0024795911740511656,0.013923857361078262,-0.03681239113211632,-0.018120087683200836,-0.0078202486038208,-0.038719769567251205
11.240927696228027,-0.0024795911740511656,0.013923857361078262,-0.03681239113211632,-0.018120087683200836,-0.0078202486038208,-0.039101243019104004
11.26098895072937,-0.0024795911740511656,0.013923857361078262,-0.03681239113211632,-0.018120087683200836,-0.007438773289322853,-0.039101243019104004
11.281093835830688,-0.0024795911740511656,0.013923857361078262,-0.03681239113211632,-0.018120087683200836,-0.007438773289322853,-0.039101243019104004
11.301310300827026,-0.0024795911740511656,0.013542382046580315,-0.03681239113211632,-0.018120087683200836,-0.007438773289322853,-0.039101243019104004
11.32124924659729,-0.0024795911740511656,0.013160906732082367,-0.03681239113211632,-0.018120087683200836,-0.007438773289322853,-0.039101243019104004
11.34139084815979,-0.0024795911740511656,0.013160906732082367,-0.03681239113211632,-0.018120087683200836,-0.007438773289322853,-0.039101243019104004
11.361549377441406,-0.0024795911740511656,0.013160906732082367,-0.03681239113211632,-0.018120087683200836,-0.007438773289322853,-0.039101243019104004
11.3815598487854,-0.0024795911740511656,0.013160906732082367,-0.03681239113211632,-0.018120087683200836,-0.0078202486038208,-0.039101243019104004
11.401664018630981,-0.0024795911740511656,0.013160906732082367,-0.03681239113211632,-0.018120087683200836,-0.007438773289322853,-0.039101243019104004
11.421810388565063,-0.0024795911740511656,0.012779430486261845,-0.03681239113211632,-0.018120087683200836,-0.0078202486038208,-0.0394827201962471
11.441860437393188,-0.0024795911740511656,0.012779430486261845,-0.03681239113211632,-0.018120087683200836,-0.007438773289322853,-0.039101243019104004
11.461930990219116,-0.0024795911740511656,0.01201647985726595,-0.03681239113211632,-0.018120087683200836,-0.0078202486038208,-0.0394827201962471
11.481984853744507,-0.0024795911740511656,0.01201647985726595,-0.03681239113211632,-0.018120087683200836,-0.0078202486038208,-0.0394827201962471
11.502044677734375,-0.0024795911740511656,0.01201647985726595,-0.03681239113211632,-0.018120087683200836,-0.0078202486038208,-0.0394827201962471
11.522275924682617,-0.0024795911740511656,0.01201647985726595,-0.03681239113211632,-0.018120087683200836,-0.0078202486038208,-0.0394827201962471
11.542377948760986,-0.0024795911740511656,0.01201647985726595,-0.03681239113211632,-0.018501564860343933,-0.0078202486038208,-0.0394827201962471
11.562386751174927,-0.0024795911740511656,0.01201647985726595,-0.03681239113211632,-0.018120087683200836,-0.0078202486038208,-0.0394827201962471
11.582536220550537,-0.0024795911740511656,0.011635004542768002,-0.03681239113211632,-0.018120087683200836,-0.0078202486038208,-0.0398641936480999
11.602614402770996,-0.0024795911740511656,0.011635004542768002,-0.03681239113211632,-0.018120087683200836,-0.0078202486038208,-0.0398641936480999
11.622640609741211,-0.0024795911740511656,0.01125352829694748,-0.03681239113211632,-0.018501564860343933,-0.0078202486038208,-0.0398641936480999
11.64285922050476,-0.0024795911740511656,0.010872052982449532,-0.03681239113211632,-0.018501564860343933,-0.0078202486038208,-0.0398641936480999
11.662917137145996,-0.0024795911740511656,0.010872052982449532,-0.03681239113211632,-0.018501564860343933,-0.0078202486038208,-0.040245670825242996
11.683040142059326,-0.0024795911740511656,0.010872052982449532,-0.03681239113211632,-0.018501564860343933,-0.0078202486038208,-0.040245670825242996
11.703515768051147,-0.0024795911740511656,0.010872052982449532,-0.03681239113211632,-0.018120087683200836,-0.0078202486038208,-0.040627144277095795
11.723623275756836,-0.0024795911740511656,0.010872052982449532,-0.03681239113211632,-0.018501564860343933,-0.0078202486038208,-0.04100862145423889
11.74367880821228,-0.0024795911740511656,0.010490577667951584,-0.03681239113211632,-0.018501564860343933,-0.0078202486038208,-0.04177157208323479
11.76373553276062,-0.0024795911740511656,0.010109102353453636,-0.03681239113211632,-0.018501564860343933,-0.0078202486038208,-0.04177157208323479
11.783939361572266,-0.0024795911740511656,0.010109102353453636,-0.03681239113211632,-0.018501564860343933,-0.0078202486038208,-0.04177157208323479
11.803959608078003,-0.0024795911740511656,0.010109102353453636,-0.03681239113211632,-0.018501564860343933,-0.0078202486038208,-0.04177157208323479
11.82410740852356,-0.0024795911740511656,0.009727626107633114,-0.03681239113211632,-0.018501564860343933,-0.0078202486038208,-0.04177157208323479
11.844170570373535,-0.0024795911740511656,0.009727626107633114,-0.03681239113211632,-0.018501564860343933,-0.0078202486038208,-0.04177157208323479
11.864272594451904,-0.0024795911740511656,0.009727626107633114,-0.03681239113211632,-0.018501564860343933,-0.0078202486038208,-0.04177157208323479
11.884404182434082,-0.0024795911740511656,0.009727626107633114,-0.03681239113211632,-0.018501564860343933,-0.0078202486038208,-0.04177157208323479
11.90446949005127,-0.0024795911740511656,0.009346150793135166,-0.03681239113211632,-0.018501564860343933,-0.0078202486038208,-0.04177157208323479
11.924507141113281,-0.0024795911740511656,0.008964675478637218,-0.03681239113211632,-0.018501564860343933,-0.0078202486038208,-0.04177157208323479
11.944668531417847,-0.0024795911740511656,0.008964675478637218,-0.03681239113211632,-0.018501564860343933,-0.0078202486038208,-0.04177157208323479
11.964777708053589,-0.0024795911740511656,0.008964675478637218,-0.03681239113211632,-0.018501564860343933,-0.0078202486038208,-0.04177157208323479
11.98478078842163,-0.0024795911740511656,0.008964675478637218,-0.03681239113211632,-0.018501564860343933,-0.0078202486038208,-0.04177157208323479
12.004972457885742,-0.0024795911740511656,0.008964675478637218,-0.03681239113211632,-0.018501564860343933,-0.0078202486038208,-0.04177157208323479
12.024971961975098,-0.0024795911740511656,0.008964675478637218,-0.03681239113211632,-0.018501564860343933,-0.0078202486038208,-0.04177157208323479
12.045059442520142,-0.0024795911740511656,0.00858320016413927,-0.03681239113211632,-0.018501564860343933,-0.008201723918318748,-0.04177157208323479
12.065176248550415,-0.0024795911740511656,0.00858320016413927,-0.03681239113211632,-0.018501564860343933,-0.0078202486038208,-0.04177157208323479
12.085249900817871,-0.0024795911740511656,0.00858320016413927,-0.03681239113211632,-0.018501564860343933,-0.008201723918318748,-0.04177157208323479
12.105847835540771,-0.0024795911740511656,0.00858320016413927,-0.03681239113211632,-0.018501564860343933,-0.008201723918318748,-0.04177157208323479
12.126004695892334,-0.0024795911740511656,0.008201723918318748,-0.03681239113211632,-0.018501564860343933,-0.008201723918318748,-0.042153049260377884
12.146023273468018,-0.0024795911740511656,0.0078202486038208,-0.03681239113211632,-0.018501564860343933,-0.008201723918318748,-0.042153049260377884
12.166100978851318,-0.0024795911740511656,0.0078202486038208,-0.03681239113211632,-0.01888304017484188,-0.008201723918318748,-0.04177157208323479
12.18621277809143,-0.0024795911740511656,0.0078202486038208,-0.03681239113211632,-0.018501564860343933,-0.008201723918318748,-0.042153049260377884
12.206251382827759,-0.0024795911740511656,0.0078202486038208,-0.03681239113211632,-0.01888304017484188,-0.00858320016413927,-0.042153049260377884
12.226326704025269,-0.0024795911740511656,0.0078202486038208,-0.03681239113211632,-0.018501564860343933,-0.008201723918318748,-0.042153049260377884
12.246705770492554,-0.0024795911740511656,0.0078202486038208,-0.03681239113211632,-0.01888304017484188,-0.008201723918318748,-0.042153049260377884
12.266824960708618,-0.0024795911740511656,0.007438773289322853,-0.03681239113211632,-0.01888304017484188,-0.008201723918318748,-0.042153049260377884
12.286927938461304,-0.0024795911740511656,0.007438773289322853,-0.03681239113211632,-0.01888304017484188,-0.008201723918318748,-0.042153049260377884
12.307016372680664,-0.0024795911740511656,0.00667582219466567,-0.03681239113211632,-0.01888304017484188,-0.00858320016413927,-0.042153049260377884
12.327165603637695,-0.0024795911740511656,0.00667582219466567,-0.03681239113211632,-0.01888304017484188,-0.00858320016413927,-0.042153049260377884
12.34721040725708,-0.0024795911740511656,0.00667582219466567,-0.03681239113211632,-0.01888304017484188,-0.00858320016413927,-0.042153049260377884
12.367332220077515,-0.0024795911740511656,0.00667582219466567,-0.03681239113211632,-0.01888304017484188,-0.00858320016413927,-0.042153049260377884
12.387721538543701,-0.0024795911740511656,0.00667582219466567,-0.03681239113211632,-0.01888304017484188,-0.00858320016413927,-0.042153049260377884
12.407891750335693,-0.0024795911740511656,0.00667582219466567,-0.03681239113211632,-0.01888304017484188,-0.00858320016413927,-0.042153049260377884
12.427935600280762,-0.0024795911740511656,0.00667582219466567,-0.03681239113211632,-0.01888304017484188,-0.00858320016413927,-0.042153049260377884
12.448009967803955,-0.0024795911740511656,0.006294346414506435,-0.03681239113211632,-0.01888304017484188,-0.00858320016413927,-0.042153049260377884
12.468060731887817,-0.0024795911740511656,0.005912871100008488,-0.03681239113211632,-0.01888304017484188,-0.00858320016413927,-0.042153049260377884
12.48823356628418,-0.0024795911740511656,0.005531395319849253,-0.03681239113211632,-0.01888304017484188,-0.00858320016413927,-0.04253452271223068
12.508216619491577,-0.0024795911740511656,0.005531395319849253,-0.03681239113211632,-0.01888304017484188,-0.008964675478637218,-0.04253452271223068
12.528343915939331,-0.0024795911740511656,0.005531395319849253,-0.03681239113211632,-0.01888304017484188,-0.008964675478637218,-0.04253452271223068
12.548458099365234,-0.0024795911740511656,0.00476844422519207,-0.03681239113211632,-0.01888304017484188,-0.008964675478637218,-0.04253452271223068
12.568477153778076,-0.0024795911740511656,0.00476844422519207,-0.03681239113211632,-0.01888304017484188,-0.008964675478637218,-0.04253452271223068
12.588563919067383,-0.002861066721379757,0.00476844422519207,-0.03681239113211632,-0.01888304017484188,-0.008964675478637218,-0.04253452271223068
12.608689546585083,-0.0024795911740511656,0.00476844422519207,-0.03681239113211632,-0.01888304017484188,-0.008964675478637218,-0.04253452271223068
12.628727912902832,-0.002861066721379757,0.00476844422519207,-0.03681239113211632,-0.01888304017484188,-0.008964675478637218,-0.04253452271223068
12.648815631866455,-0.0032425422687083483,0.00476844422519207,-0.03681239113211632,-0.01888304017484188,-0.008964675478637218,-0.04253452271223068
12.668884992599487,-0.0032425422687083483,0.004386968910694122,-0.03681239113211632,-0.01888304017484188,-0.009346150793135166,-0.04253452271223068
12.688978433609009,-0.0032425422687083483,0.004386968910694122,-0.03681239113211632,-0.01888304017484188,-0.009346150793135166,-0.04253452271223068
12.709052324295044,-0.0032425422687083483,0.004005493130534887,-0.03681239113211632,-0.01888304017484188,-0.009727626107633114,-0.04291599988937378
12.729103565216064,-0.0032425422687083483,0.0036240178160369396,-0.03681239113211632,-0.01888304017484188,-0.009727626107633114,-0.04253452271223068
12.749233484268188,-0.0032425422687083483,0.0036240178160369396,-0.03681239113211632,-0.01888304017484188,-0.009727626107633114,-0.04253452271223068
12.769302129745483,-0.0032425422687083483,0.0036240178160369396,-0.03681239113211632,-0.01888304017484188,-0.009727626107633114,-0.04253452271223068
12.789385080337524,-0.0032425422687083483,0.0036240178160369396,-0.03681239113211632,-0.01888304017484188,-0.009727626107633114,-0.04253452271223068
12.809566736221313,-0.0032425422687083483,0.0036240178160369396,-0.03681239113211632,-0.01888304017484188,-0.009727626107633114,-0.04253452271223068
12.829653024673462,-0.0032425422687083483,0.0032425422687083483,-0.03681239113211632,-0.01888304017484188,-0.009727626107633114,-0.04291599988937378
12.849766969680786,-0.0032425422687083483,0.002861066721379757,-0.03681239113211632,-0.01888304017484188,-0.009727626107633114,-0.04291599988937378
12.869846820831299,-0.0032425422687083483,0.0024795911740511656,-0.03681239113211632,-0.01888304017484188,-0.009727626107633114,-0.04253452271223068
12.890190601348877,-0.0032425422687083483,0.0024795911740511656,-0.03681239113211632,-0.01926451548933983,-0.009727626107633114,-0.04253452271223068
12.910331726074219,-0.0032425422687083483,0.0024795911740511656,-0.03681239113211632,-0.01926451548933983,-0.009727626107633114,-0.04291599988937378
12.930467128753662,-0.0032425422687083483,0.0024795911740511656,-0.03681239113211632,-0.01888304017484188,-0.009727626107633114,-0.04291599988937378
12.950544118881226,-0.0032425422687083483,0.0024795911740511656,-0.03681239113211632,-0.01926451548933983,-0.009727626107633114,-0.04291599988937378
12.970571041107178,-0.0032425422687083483,0.0024795911740511656,-0.03681239113211632,-0.01926451548933983,-0.009727626107633114,-0.04291599988937378
12.990659236907959,-0.0032425422687083483,0.0020981156267225742,-0.03681239113211632,-0.01926451548933983,-0.009727626107633114,-0.04291599988937378
13.010753393173218,-0.0032425422687083483,0.001716639962978661,-0.03681239113211632,-0.01926451548933983,-0.009727626107633114,-0.04291599988937378
13.030871391296387,-0.0032425422687083483,0.001716639962978661,-0.03681239113211632,-0.01926451548933983,-0.009727626107633114,-0.04291599988937378
13.050999164581299,-0.0032425422687083483,0.001716639962978661,-0.03681239113211632,-0.01926451548933983,-0.009727626107633114,-0.04291599988937378
13.071154356002808,-0.0032425422687083483,0.0013351644156500697,-0.03681239113211632,-0.01926451548933983,-0.009727626107633114,-0.04291599988937378
13.091193437576294,-0.0032425422687083483,0.0013351644156500697,-0.03681239113211632,-0.01926451548933983,-0.009727626107633114,-0.04291599988937378
13.111339092254639,-0.0032425422687083483,0.0013351644156500697,-0.03681239113211632,-0.01926451548933983,-0.009727626107633114,-0.04291599988937378
13.131407737731934,-0.0032425422687083483,0.0013351644156500697,-0.03681239113211632,-0.01926451548933983,-0.009727626107633114,-0.04291599988937378
13.151432037353516,-0.0032425422687083483,0.0013351644156500697,-0.03681239113211632,-0.01926451548933983,-0.009727626107633114,-0.04291599988937378
13.171511888504028,-0.0032425422687083483,0.0009536888683214784,-0.03681239113211632,-0.01926451548933983,-0.010109102353453636,-0.04291599988937378
13.191604614257812,-0.0032425422687083483,0.000572213320992887,-0.03681239113211632,-0.01926451548933983,-0.010109102353453636,-0.04291599988937378
13.2116858959198,-0.0032425422687083483,0.000572213320992887,-0.03681239113211632,-0.01926451548933983,-0.010109102353453636,-0.04329747334122658
13.23184084892273,-0.0032425422687083483,0.000572213320992887,-0.03681239113211632,-0.01926451548933983,-0.010109102353453636,-0.04329747334122658
13.252036571502686,-0.0032425422687083483,0.000572213320992887,-0.03681239113211632,-0.019645990803837776,-0.010109102353453636,-0.04329747334122658
13.272096633911133,-0.0032425422687083483,0.000572213320992887,-0.03681239113211632,-0.019645990803837776,-0.010109102353453636,-0.04329747334122658
13.292192220687866,-0.0032425422687083483,0.000572213320992887,-0.03681239113211632,-0.019645990803837776,-0.010109102353453636,-0.04329747334122658
13.31233263015747,-0.0032425422687083483,0.00019073777366429567,-0.03681239113211632,-0.019645990803837776,-0.010109102353453636,-0.04329747334122658
13.332379817962646,-0.0032425422687083483,-0.00019073777366429567,-0.03681239113211632,-0.019645990803837776,-0.010109102353453636,-0.04329747334122658
13.352521896362305,-0.0032425422687083483,-0.000572213320992887,-0.03681239113211632,-0.019645990803837776,-0.010109102353453636,-0.04329747334122658
13.372606992721558,-0.0032425422687083483,-0.000572213320992887,-0.03681239113211632,-0.019645990803837776,-0.010109102353453636,-0.04329747334122658
13.392646074295044,-0.0032425422687083483,-0.000572213320992887,-0.03681239113211632,-0.019645990803837776,-0.010109102353453636,-0.043678950518369675
13.412708282470703,-0.0032425422687083483,-0.000572213320992887,-0.03681239113211632,-0.019645990803837776,-0.010109102353453636,-0.043678950518369675
13.43297815322876,-0.0032425422687083483,-0.000572213320992887,-0.03681239113211632,-0.019645990803837776,-0.010109102353453636,-0.043678950518369675
13.453137159347534,-0.0032425422687083483,-0.0009536888683214784,-0.03681239113211632,-0.020027466118335724,-0.010109102353453636,-0.043678950518369675
