liuyurong129/humanoid-gym/humanoid/data/actual_q_20250523-024412.csv
timestamp,joint_1,joint_2,joint_3,joint_4,joint_5,joint_6
4.100799560546875e-05,-0.00019073777366429567,0.0024795911740511656,-0.001716639962978661,-0.00019073777366429567,0.000572213320992887,0.00019073777366429567
0.020151615142822266,-0.00019073777366429567,0.001716639962978661,-0.001716639962978661,-0.00019073777366429567,0.000572213320992887,0.00019073777366429567
0.04019331932067871,-0.00019073777366429567,0.001716639962978661,-0.0013351644156500697,-0.00019073777366429567,0.00019073777366429567,0.00019073777366429567
0.060240983963012695,-0.00019073777366429567,0.001716639962978661,-0.0009536888683214784,-0.00019073777366429567,0.000572213320992887,0.00019073777366429567
0.08033967018127441,-0.00019073777366429567,-0.000572213320992887,0.000572213320992887,-0.00019073777366429567,0.000572213320992887,0.00019073777366429567
0.10039615631103516,-0.00019073777366429567,-0.007438773289322853,0.004005493130534887,0.00019073777366429567,0.00019073777366429567,0.00019073777366429567
0.1204836368560791,-0.00019073777366429567,-0.01773861236870289,0.0078202486038208,0.00019073777366429567,0.0009536888683214784,0.00019073777366429567
0.14052557945251465,-0.00019073777366429567,-0.02727550081908703,0.010109102353453636,0.00019073777366429567,0.000572213320992887,0.00019073777366429567
0.16072988510131836,-0.00019073777366429567,-0.03757534176111221,0.011635004542768002,0.00019073777366429567,0.000572213320992887,0.00019073777366429567
0.18080782890319824,-0.00019073777366429567,-0.04634927958250046,0.012779430486261845,0.00019073777366429567,0.000572213320992887,0.00019073777366429567
0.2008955478668213,-0.00019073777366429567,-0.05436026677489281,0.013542382046580315,0.00019073777366429567,0.000572213320992887,0.000572213320992887
0.22091364860534668,-0.00019073777366429567,-0.06084534898400307,0.013923857361078262,0.00019073777366429567,0.000572213320992887,0.000572213320992887
0.2409977912902832,-0.00019073777366429567,-0.06961929053068161,0.014686808921396732,0.00019073777366429567,0.000572213320992887,0.000572213320992887
0.26109981536865234,-0.00019073777366429567,-0.08030059933662415,0.016594186425209045,0.00019073777366429567,0.000572213320992887,0.000572213320992887
0.2812032699584961,-0.00019073777366429567,-0.09288929402828217,0.018120087683200836,0.00019073777366429567,0.0009536888683214784,0.000572213320992887
0.30121827125549316,-0.00019073777366429567,-0.10585946589708328,0.020027466118335724,0.00019073777366429567,0.000572213320992887,0.0009536888683214784
0.32133054733276367,-0.00019073777366429567,-0.12073700875043869,0.023460745811462402,0.00019073777366429567,0.0009536888683214784,0.000572213320992887
0.34145641326904297,-0.00019073777366429567,-0.1337071806192398,0.02727550081908703,0.00019073777366429567,0.0009536888683214784,0.0009536888683214784
0.36153125762939453,-0.00019073777366429567,-0.14629587531089783,0.031090257689356804,0.00019073777366429567,0.0013351644156500697,0.0013351644156500697
0.3817009925842285,-0.00019073777366429567,-0.16193637251853943,0.03643091395497322,0.00019073777366429567,0.0013351644156500697,0.0020981156267225742
0.4018242359161377,-0.00019073777366429567,-0.1802472025156021,0.043678950518369675,0.000572213320992887,0.0013351644156500697,0.0024795911740511656
0.4218728542327881,-0.00019073777366429567,-0.1962691694498062,0.049782559275627136,0.000572213320992887,0.001716639962978661,0.0032425422687083483
0.44191694259643555,-0.000572213320992887,-0.20847637951374054,0.0551232174038887,0.000572213320992887,0.0024795911740511656,0.0036240178160369396
0.462080717086792,-0.00019073777366429567,-0.2161058932542801,0.061226826161146164,0.000572213320992887,0.0032425422687083483,0.0036240178160369396
0.4821207523345947,-0.00019073777366429567,-0.21915769577026367,0.06618601083755493,0.000572213320992887,0.004005493130534887,0.004005493130534887
0.5022501945495605,-0.00019073777366429567,-0.21915769577026367,0.06961929053068161,0.000572213320992887,0.004386968910694122,0.004386968910694122
0.5223660469055176,-0.00019073777366429567,-0.21915769577026367,0.071908138692379,0.000572213320992887,0.00476844422519207,0.004386968910694122
0.5424890518188477,-0.00019073777366429567,-0.21877622604370117,0.07419699430465698,0.0009536888683214784,0.005531395319849253,0.00476844422519207
0.5625462532043457,-0.00019073777366429567,-0.21801327168941498,0.07457847148180008,0.0009536888683214784,0.005912871100008488,0.005149920005351305
0.58260178565979,-0.00019073777366429567,-0.21648737788200378,0.07495994865894318,0.0009536888683214784,0.007438773289322853,0.005531395319849253
0.6027388572692871,-0.00019073777366429567,-0.2161058932542801,0.07495994865894318,0.0009536888683214784,0.008201723918318748,0.005912871100008488
0.6229724884033203,-0.00019073777366429567,-0.2161058932542801,0.07534141838550568,0.0009536888683214784,0.00858320016413927,0.00667582219466567
0.6430468559265137,-0.00019073777366429567,-0.2161058932542801,0.07572289556264877,0.0009536888683214784,0.008964675478637218,0.007057297509163618
0.663177490234375,-0.00019073777366429567,-0.2161058932542801,0.07610437273979187,0.0009536888683214784,0.009346150793135166,0.007057297509163618
0.6832668781280518,-0.000572213320992887,-0.2157244235277176,0.07724879682064056,0.0009536888683214784,0.009727626107633114,0.007057297509163618
0.7035202980041504,-0.000572213320992887,-0.2149614691734314,0.07763027399778366,0.0009536888683214784,0.010490577667951584,0.007438773289322853
0.7236175537109375,-0.0009536888683214784,-0.2141985148191452,0.07801175117492676,0.0009536888683214784,0.01125352829694748,0.007438773289322853
0.7436943054199219,-0.0013351644156500697,-0.2138170450925827,0.07839322835206985,0.0009536888683214784,0.011635004542768002,0.007438773289322853
0.7637503147125244,-0.0013351644156500697,-0.2138170450925827,0.07877469807863235,0.0009536888683214784,0.011635004542768002,0.007438773289322853
0.783839225769043,-0.0013351644156500697,-0.2138170450925827,0.07953765243291855,0.0009536888683214784,0.01201647985726595,0.0078202486038208
0.8039572238922119,-0.0013351644156500697,-0.2134355753660202,0.08030059933662415,0.0009536888683214784,0.012397955171763897,0.0078202486038208
0.8240008354187012,-0.0013351644156500697,-0.212672621011734,0.08030059933662415,0.0009536888683214784,0.012397955171763897,0.0078202486038208
0.8441386222839355,-0.001716639962978661,-0.21190966665744781,0.08106355369091034,0.0009536888683214784,0.012779430486261845,0.0078202486038208
0.8642301559448242,-0.001716639962978661,-0.21114671230316162,0.08182650804519653,0.0013351644156500697,0.012779430486261845,0.0078202486038208
0.8843286037445068,-0.0024795911740511656,-0.21076524257659912,0.08220797777175903,0.0009536888683214784,0.013542382046580315,0.008201723918318748
0.9043700695037842,-0.0032425422687083483,-0.21076524257659912,0.08220797777175903,0.0013351644156500697,0.013923857361078262,0.008201723918318748
0.924536943435669,-0.0032425422687083483,-0.21038375794887543,0.08220797777175903,0.0009536888683214784,0.01506828423589468,0.008201723918318748
0.9445738792419434,-0.0032425422687083483,-0.21000228822231293,0.08335240930318832,0.0013351644156500697,0.015449759550392628,0.008201723918318748
0.9646744728088379,-0.0032425422687083483,-0.20962081849575043,0.08373387902975082,0.0013351644156500697,0.01583123579621315,0.00858320016413927
0.9848554134368896,-0.0032425422687083483,-0.20962081849575043,0.08449683338403702,0.0013351644156500697,0.01583123579621315,0.00858320016413927
1.004915714263916,-0.0032425422687083483,-0.20847637951374054,0.08525978773832321,0.0013351644156500697,0.01583123579621315,0.008964675478637218
1.0249769687652588,-0.0032425422687083483,-0.20809490978717804,0.08602273464202881,0.0013351644156500697,0.016212711110711098,0.009346150793135166
1.0450701713562012,-0.0032425422687083483,-0.20771344006061554,0.0871671661734581,0.0013351644156500697,0.016212711110711098,0.010109102353453636
1.0651319026947021,-0.0036240178160369396,-0.20733195543289185,0.0879301130771637,0.0013351644156500697,0.016594186425209045,0.010872052982449532
1.0852038860321045,-0.0036240178160369396,-0.20656901597976685,0.0883115902543068,0.0013351644156500697,0.016975661739706993,0.01125352829694748
1.105262041091919,-0.0036240178160369396,-0.20580606162548065,0.0883115902543068,0.0013351644156500697,0.01735713705420494,0.01125352829694748
1.1253619194030762,-0.004005493130534887,-0.20542457699775696,0.08907453715801239,0.0013351644156500697,0.018501564860343933,0.01125352829694748
1.14542818069458,-0.004386968910694122,-0.20542457699775696,0.08983749151229858,0.0013351644156500697,0.01926451548933983,0.01125352829694748
1.1654794216156006,-0.004386968910694122,-0.20466163754463196,0.09021896868944168,0.0013351644156500697,0.01926451548933983,0.011635004542768002
1.185575008392334,-0.004386968910694122,-0.20428015291690826,0.09098191559314728,0.001716639962978661,0.01926451548933983,0.011635004542768002
1.205643892288208,-0.00476844422519207,-0.20389868319034576,0.09212634712457657,0.001716639962978661,0.01926451548933983,0.011635004542768002
1.2257156372070312,-0.00476844422519207,-0.20351719856262207,0.09250781685113907,0.001716639962978661,0.019645990803837776,0.011635004542768002
1.2458083629608154,-0.005149920005351305,-0.20313572883605957,0.09250781685113907,0.001716639962978661,0.019645990803837776,0.01201647985726595
1.2658631801605225,-0.005531395319849253,-0.20237277448177338,0.09288929402828217,0.001716639962978661,0.020027466118335724,0.01201647985726595
1.2859532833099365,-0.005531395319849253,-0.20199130475521088,0.09403372555971146,0.001716639962978661,0.020027466118335724,0.01201647985726595
1.306015968322754,-0.005531395319849253,-0.20160982012748718,0.09441519528627396,0.001716639962978661,0.020027466118335724,0.01201647985726595
1.3260703086853027,-0.005531395319849253,-0.20122835040092468,0.09479667246341705,0.001716639962978661,0.020027466118335724,0.012397955171763897
1.346158742904663,-0.005531395319849253,-0.2004653960466385,0.09594109654426575,0.001716639962978661,0.020027466118335724,0.012397955171763897
1.3662326335906982,-0.005912871100008488,-0.1993209719657898,0.09632257372140884,0.0020981156267225742,0.020027466118335724,0.012779430486261845
1.386368989944458,-0.005912871100008488,-0.1989395022392273,0.09670405089855194,0.0020981156267225742,0.020027466118335724,0.013160906732082367
1.4063687324523926,-0.00667582219466567,-0.1985580176115036,0.09670405089855194,0.0024795911740511656,0.02079041674733162,0.013923857361078262
1.426462173461914,-0.007438773289322853,-0.1985580176115036,0.09670405089855194,0.0024795911740511656,0.021171892061829567,0.014686808921396732
1.4465234279632568,-0.007438773289322853,-0.1981765478849411,0.09784847497940063,0.0024795911740511656,0.021171892061829567,0.014686808921396732
1.4666059017181396,-0.007438773289322853,-0.1981765478849411,0.09822995215654373,0.002861066721379757,0.021553369238972664,0.01506828423589468
1.486633539199829,-0.007438773289322853,-0.1974135935306549,0.09861142933368683,0.002861066721379757,0.021553369238972664,0.01506828423589468
1.5067179203033447,-0.007438773289322853,-0.1962691694498062,0.09899290651082993,0.0036240178160369396,0.021553369238972664,0.01506828423589468
1.5268595218658447,-0.007438773289322853,-0.19550621509552002,0.09975585341453552,0.0036240178160369396,0.02193484455347061,0.01506828423589468
1.5469529628753662,-0.007438773289322853,-0.19512474536895752,0.10013733059167862,0.0036240178160369396,0.02231631986796856,0.01506828423589468
1.56697678565979,-0.007438773289322853,-0.19436179101467133,0.10051880776882172,0.0036240178160369396,0.022697795182466507,0.01506828423589468
1.5870521068572998,-0.0078202486038208,-0.19436179101467133,0.10090028494596481,0.0036240178160369396,0.023079270496964455,0.01506828423589468
1.6071152687072754,-0.0078202486038208,-0.19436179101467133,0.10166323184967041,0.0036240178160369396,0.023460745811462402,0.01506828423589468
1.627166748046875,-0.0078202486038208,-0.19436179101467133,0.1028076633810997,0.004005493130534887,0.023460745811462402,0.015449759550392628
1.6472539901733398,-0.00858320016413927,-0.19359883666038513,0.1031891331076622,0.004005493130534887,0.023460745811462402,0.015449759550392628
1.667313814163208,-0.008964675478637218,-0.19283588230609894,0.1039520874619484,0.004005493130534887,0.024605173617601395,0.015449759550392628
1.6873648166656494,-0.00858320016413927,-0.19245441257953644,0.1039520874619484,0.004005493130534887,0.024986648932099342,0.015449759550392628
1.707432508468628,-0.008964675478637218,-0.19207294285297394,0.10471503436565399,0.004005493130534887,0.02536812424659729,0.01583123579621315
1.7275242805480957,-0.008964675478637218,-0.19130998849868774,0.10509651154279709,0.004005493130534887,0.025749599561095238,0.01583123579621315
1.747593879699707,-0.009346150793135166,-0.19092851877212524,0.10624094307422638,0.004005493130534887,0.026131074875593185,0.016212711110711098
1.7676427364349365,-0.009727626107633114,-0.19016556441783905,0.10662241280078888,0.004005493130534887,0.02689402550458908,0.016594186425209045
1.787783145904541,-0.009727626107633114,-0.18940261006355286,0.10700388997793198,0.004005493130534887,0.02689402550458908,0.016594186425209045
1.8078653812408447,-0.009727626107633114,-0.18863965570926666,0.10776684433221817,0.004005493130534887,0.02727550081908703,0.01773861236870289
1.8279402256011963,-0.009727626107633114,-0.18825818598270416,0.10852979123592377,0.004005493130534887,0.02727550081908703,0.01888304017484188
1.8479855060577393,-0.009727626107633114,-0.18787670135498047,0.10929274559020996,0.004386968910694122,0.027656977996230125,0.01888304017484188
1.8681156635284424,-0.010109102353453636,-0.18749523162841797,0.10929274559020996,0.004386968910694122,0.027656977996230125,0.01888304017484188
1.8882076740264893,-0.010490577667951584,-0.18711376190185547,0.11005569249391556,0.004386968910694122,0.027656977996230125,0.01888304017484188
1.9082772731781006,-0.010872052982449532,-0.18711376190185547,0.11081864684820175,0.004386968910694122,0.02841992862522602,0.01926451548933983
1.9283397197723389,-0.010872052982449532,-0.18635080754756927,0.11120012402534485,0.004386968910694122,0.02880140393972397,0.01926451548933983
1.9484169483184814,-0.010872052982449532,-0.18520638346672058,0.11120012402534485,0.004386968910694122,0.029182879254221916,0.01926451548933983
1.968498706817627,-0.010872052982449532,-0.1848248988389969,0.11196307092905045,0.004386968910694122,0.03032730519771576,0.01926451548933983
1.9885578155517578,-0.01125352829694748,-0.1844434291124344,0.11272602528333664,0.004386968910694122,0.030708782374858856,0.019645990803837776
2.008648157119751,-0.011635004542768002,-0.1840619444847107,0.11310750246047974,0.004386968910694122,0.031090257689356804,0.019645990803837776
2.0287692546844482,-0.01201647985726595,-0.1832990050315857,0.11348897218704224,0.004386968910694122,0.031090257689356804,0.020027466118335724
2.048875331878662,-0.01201647985726595,-0.182917520403862,0.11425192654132843,0.00476844422519207,0.03147173300385475,0.02040894143283367
2.0689215660095215,-0.01201647985726595,-0.182154580950737,0.11425192654132843,0.004386968910694122,0.03185320645570755,0.02079041674733162
2.0890004634857178,-0.012779430486261845,-0.1813916265964508,0.11425192654132843,0.004386968910694122,0.032616160809993744,0.021171892061829567
2.1091227531433105,-0.012779430486261845,-0.1810101419687271,0.11501488089561462,0.004386968910694122,0.034142062067985535,0.02231631986796856
2.129256248474121,-0.012779430486261845,-0.1806286722421646,0.11577782779932022,0.00476844422519207,0.03490501269698143,0.02231631986796856
2.149280309677124,-0.012779430486261845,-0.1802472025156021,0.11654078215360641,0.00476844422519207,0.03490501269698143,0.022697795182466507
2.169437885284424,-0.012779430486261845,-0.17948424816131592,0.11730372905731201,0.00476844422519207,0.03490501269698143,0.022697795182466507
2.1894800662994385,-0.013160906732082367,-0.17910276353359222,0.1180666834115982,0.00476844422519207,0.03528648987412453,0.022697795182466507
2.2095541954040527,-0.013542382046580315,-0.17872129380702972,0.1188296303153038,0.00476844422519207,0.03604944050312042,0.022697795182466507
2.2295916080474854,-0.013923857361078262,-0.17833982408046722,0.1192111074924469,0.005149920005351305,0.03757534176111221,0.022697795182466507
2.249683380126953,-0.013923857361078262,-0.17795833945274353,0.11959258466959,0.005149920005351305,0.03833829239010811,0.023079270496964455
2.2697579860687256,-0.01430533267557621,-0.17681391537189484,0.12073700875043869,0.005149920005351305,0.03833829239010811,0.023079270496964455
2.2898218631744385,-0.014686808921396732,-0.17681391537189484,0.12111848592758179,0.005149920005351305,0.038719769567251205,0.023079270496964455
2.3098974227905273,-0.01506828423589468,-0.17605096101760864,0.12149996310472488,0.005531395319849253,0.0398641936480999,0.023460745811462402
2.3299930095672607,-0.01506828423589468,-0.17452506721019745,0.12188144028186798,0.005531395319849253,0.0398641936480999,0.023460745811462402
2.3501014709472656,-0.01506828423589468,-0.17414358258247375,0.12302586436271667,0.005531395319849253,0.0398641936480999,0.02384222112596035
2.3702778816223145,-0.01506828423589468,-0.17376211285591125,0.12378881871700287,0.005531395319849253,0.040245670825242996,0.02384222112596035
2.3904032707214355,-0.01506828423589468,-0.17338064312934875,0.12455176562070847,0.005531395319849253,0.040245670825242996,0.024223696440458298
2.410545825958252,-0.015449759550392628,-0.17261768877506256,0.12569619715213776,0.005912871100008488,0.04139009863138199,0.02536812424659729
2.430767297744751,-0.01583123579621315,-0.17261768877506256,0.12607766687870026,0.00667582219466567,0.042153049260377884,0.026131074875593185
2.450732707977295,-0.01583123579621315,-0.17185473442077637,0.12569619715213776,0.00667582219466567,0.042153049260377884,0.026512550190091133
2.47088885307312,-0.01583123579621315,-0.17109178006649017,0.12607766687870026,0.00667582219466567,0.04253452271223068,0.026512550190091133
2.490902900695801,-0.016212711110711098,-0.17071031033992767,0.12684062123298645,0.00667582219466567,0.04253452271223068,0.026512550190091133
2.5110456943511963,-0.016212711110711098,-0.17032882571220398,0.12722209095954895,0.007057297509163618,0.04291599988937378,0.026512550190091133
2.5313894748687744,-0.016212711110711098,-0.16956588625907898,0.12798504531383514,0.00667582219466567,0.04329747334122658,0.026512550190091133
2.5515334606170654,-0.016594186425209045,-0.1684214472770691,0.12874799966812134,0.007057297509163618,0.04329747334122658,0.02689402550458908
2.5715842247009277,-0.016975661739706993,-0.1672770231962204,0.12912946939468384,0.007057297509163618,0.04406042397022247,0.02689402550458908
2.59163236618042,-0.018120087683200836,-0.1665140837430954,0.12989242374897003,0.007057297509163618,0.04444190114736557,0.02689402550458908
2.611694812774658,-0.018120087683200836,-0.1657511293888092,0.13027389347553253,0.007057297509163618,0.04482337832450867,0.02727550081908703
2.6317811012268066,-0.018120087683200836,-0.164988175034523,0.13103684782981873,0.007057297509163618,0.045204851776361465,0.02727550081908703
2.6518545150756836,-0.018120087683200836,-0.1646067053079605,0.13141833245754242,0.007057297509163618,0.045204851776361465,0.02727550081908703
2.6719682216644287,-0.018120087683200836,-0.16422522068023682,0.13179980218410492,0.007438773289322853,0.04558632895350456,0.027656977996230125
2.692150354385376,-0.018120087683200836,-0.16346226632595062,0.1325627565383911,0.007438773289322853,0.04558632895350456,0.027656977996230125
2.7122998237609863,-0.018501564860343933,-0.16193637251853943,0.1333257108926773,0.007438773289322853,0.04558632895350456,0.028038453310728073
2.732480049133301,-0.018501564860343933,-0.16231784224510193,0.1340886503458023,0.007438773289322853,0.04558632895350456,0.02841992862522602
2.752438545227051,-0.01926451548933983,-0.16155488789081573,0.1348516047000885,0.007438773289322853,0.04596780240535736,0.029182879254221916
2.7726783752441406,-0.019645990803837776,-0.16041046380996704,0.1359960287809372,0.007438773289322853,0.04634927958250046,0.029564354568719864
2.792677640914917,-0.019645990803837776,-0.16002899408340454,0.1363775134086609,0.0078202486038208,0.04634927958250046,0.02994582988321781
2.8127188682556152,-0.019645990803837776,-0.15888457000255585,0.1371404528617859,0.0078202486038208,0.046730753034353256,0.02994582988321781
2.8328256607055664,-0.020027466118335724,-0.15812161564826965,0.13790340721607208,0.0078202486038208,0.04711223021149635,0.03032730519771576
2.852921962738037,-0.020027466118335724,-0.15697719156742096,0.13866636157035828,0.0078202486038208,0.04711223021149635,0.03032730519771576
2.873023509979248,-0.020027466118335724,-0.15621423721313477,0.13904783129692078,0.0078202486038208,0.04787518084049225,0.030708782374858856
2.8930437564849854,-0.020027466118335724,-0.15506981313228607,0.13981078565120697,0.0078202486038208,0.04940108209848404,0.030708782374858856
2.913205146789551,-0.02040894143283367,-0.15392538905143738,0.14095520973205566,0.0078202486038208,0.04940108209848404,0.031090257689356804
2.9333226680755615,-0.02040894143283367,-0.15316243469715118,0.14171816408634186,0.0078202486038208,0.049782559275627136,0.03147173300385475
2.9533393383026123,-0.02040894143283367,-0.1520180106163025,0.14209964871406555,0.008201723918318748,0.050164032727479935,0.03147173300385475
2.9734129905700684,-0.021171892061829567,-0.1508735716342926,0.14248111844062805,0.008201723918318748,0.05054550990462303,0.03185320645570755
2.9934873580932617,-0.021553369238972664,-0.1501106321811676,0.14362554252147675,0.008201723918318748,0.05092698708176613,0.03299763426184654
3.0135281085968018,-0.021553369238972664,-0.1497291475534439,0.14438849687576294,0.008201723918318748,0.051689937710762024,0.034142062067985535
3.033613681793213,-0.02231631986796856,-0.1497291475534439,0.14629587531089783,0.008201723918318748,0.053215838968753815,0.03452353551983833
3.0537643432617188,-0.02231631986796856,-0.1504921019077301,0.1497291475534439,0.008201723918318748,0.05397878959774971,0.03490501269698143
3.073822259902954,-0.02231631986796856,-0.1512550562620163,0.15354390442371368,0.00858320016413927,0.054741740226745605,0.03643091395497322
3.0938949584960938,-0.02231631986796856,-0.15506981313228607,0.15888457000255585,0.008964675478637218,0.05664911866188049,0.03795681521296501
3.114021062850952,-0.02231631986796856,-0.16346226632595062,0.1665140837430954,0.009727626107633114,0.057793546468019485,0.0394827201962471
3.134150266647339,-0.022697795182466507,-0.17605096101760864,0.17605096101760864,0.010872052982449532,0.05970092490315437,0.04177157208323479
3.154169797897339,-0.023079270496964455,-0.19207294285297394,0.18520638346672058,0.01201647985726595,0.06160829961299896,0.043678950518369675
3.1744279861450195,-0.023460745811462402,-0.2130540907382965,0.1966506391763687,0.012779430486261845,0.06237125024199486,0.04596780240535736
3.1945297718048096,-0.023460745811462402,-0.23479819297790527,0.21114671230316162,0.013542382046580315,0.06427863240242004,0.046730753034353256
3.214595317840576,-0.02384222112596035,-0.25425344705581665,0.22449836134910583,0.013542382046580315,0.06618601083755493,0.04901960864663124
3.234670877456665,-0.024605173617601395,-0.27218279242515564,0.23746852576732635,0.013923857361078262,0.06809338182210922,0.049782559275627136
3.2548279762268066,-0.02536812424659729,-0.28629741072654724,0.2504386901855469,0.014686808921396732,0.06961929053068161,0.05054550990462303
3.2750742435455322,-0.02536812424659729,-0.2946898639202118,0.2611200213432312,0.01506828423589468,0.06961929053068161,0.05207141116261482
3.2951252460479736,-0.025749599561095238,-0.29888609051704407,0.2660791873931885,0.01583123579621315,0.06961929053068161,0.05283436179161072
3.315232276916504,-0.025749599561095238,-0.29926756024360657,0.26836803555488586,0.016212711110711098,0.06961929053068161,0.05283436179161072
3.3353395462036133,-0.026131074875593185,-0.29812315106391907,0.26913100481033325,0.016212711110711098,0.06961929053068161,0.053215838968753815
3.355408191680908,-0.026512550190091133,-0.2969787120819092,0.26913100481033325,0.016212711110711098,0.06923781335353851,0.053215838968753815
3.375480890274048,-0.026512550190091133,-0.2973601818084717,0.26913100481033325,0.01583123579621315,0.06923781335353851,0.053215838968753815
3.395534038543701,-0.026512550190091133,-0.2977416515350342,0.26913100481033325,0.01583123579621315,0.06961929053068161,0.053215838968753815
3.415663480758667,-0.026512550190091133,-0.2969787120819092,0.26913100481033325,0.01583123579621315,0.07000076025724411,0.053215838968753815
3.4357030391693115,-0.02689402550458908,-0.2962157726287842,0.26951247453689575,0.01583123579621315,0.0707637146115303,0.053215838968753815
3.4558870792388916,-0.02727550081908703,-0.2954528033733368,0.27027541399002075,0.01583123579621315,0.0715266615152359,0.05359731614589691
3.4773752689361572,-0.02727550081908703,-0.2939268946647644,0.27103838324546814,0.016212711110711098,0.071908138692379,0.05359731614589691
3.497537136077881,-0.027656977996230125,-0.2924010157585144,0.27141985297203064,0.016212711110711098,0.071908138692379,0.05359731614589691
3.5176167488098145,-0.027656977996230125,-0.2920195460319519,0.27141985297203064,0.01583123579621315,0.0722896158695221,0.05397878959774971
3.537618637084961,-0.027656977996230125,-0.2920195460319519,0.27141985297203064,0.01583123579621315,0.0722896158695221,0.05436026677489281
3.5583813190460205,-0.02841992862522602,-0.2920195460319519,0.27141985297203064,0.01583123579621315,0.07267109304666519,0.054741740226745605
3.5784709453582764,-0.02880140393972397,-0.2912565767765045,0.27218279242515564,0.01583123579621315,0.07305257022380829,0.0551232174038887
3.598567008972168,-0.02880140393972397,-0.2904936373233795,0.272945761680603,0.01583123579621315,0.07267109304666519,0.0558861680328846
3.618825912475586,-0.029564354568719864,-0.28973066806793213,0.2733272314071655,0.01583123579621315,0.07305257022380829,0.0558861680328846
3.638960838317871,-0.029564354568719864,-0.28858625888824463,0.2740901708602905,0.01583123579621315,0.07343403995037079,0.056267641484737396
3.659205913543701,-0.029564354568719864,-0.28782328963279724,0.2744716703891754,0.01583123579621315,0.07381551712751389,0.056267641484737396
3.679131031036377,-0.029564354568719864,-0.28706035017967224,0.2744716703891754,0.01583123579621315,0.07419699430465698,0.05664911866188049
3.699237823486328,-0.029564354568719864,-0.28591591119766235,0.2744716703891754,0.01583123579621315,0.07419699430465698,0.05664911866188049
3.719306230545044,-0.02994582988321781,-0.28515297174453735,0.2748531401157379,0.01583123579621315,0.07419699430465698,0.05664911866188049
3.739452362060547,-0.03032730519771576,-0.28477150201797485,0.2756160795688629,0.01583123579621315,0.07534141838550568,0.05703059583902359
3.760021924972534,-0.03032730519771576,-0.28400853276252747,0.2759975492954254,0.01583123579621315,0.07610437273979187,0.05703059583902359
3.780172348022461,-0.03032730519771576,-0.28286412358283997,0.2763790488243103,0.01583123579621315,0.07648584991693497,0.05741206929087639
3.8003249168395996,-0.030708782374858856,-0.2817196846008301,0.2771419882774353,0.01583123579621315,0.07686731964349747,0.057793546468019485
3.820297956466675,-0.030708782374858856,-0.2809567451477051,0.2771419882774353,0.01583123579621315,0.07763027399778366,0.058175019919872284
3.840615749359131,-0.030708782374858856,-0.2801937758922577,0.2775234580039978,0.01583123579621315,0.07839322835206985,0.05855649709701538
3.8607397079467773,-0.031090257689356804,-0.2790493667125702,0.2775234580039978,0.01583123579621315,0.07915617525577545,0.06008239835500717
3.8809316158294678,-0.03185320645570755,-0.2782863974571228,0.2782863974571228,0.016212711110711098,0.07953765243291855,0.06008239835500717
3.9009203910827637,-0.032616160809993744,-0.2775234580039978,0.2786678969860077,0.01583123579621315,0.07991912961006165,0.06008239835500717
3.9210050106048584,-0.032616160809993744,-0.2763790488243103,0.2794308364391327,0.01583123579621315,0.07991912961006165,0.06008239835500717
3.941100597381592,-0.032616160809993744,-0.2748531401157379,0.2805752754211426,0.016212711110711098,0.08030059933662415,0.06046387553215027
3.961160898208618,-0.032616160809993744,-0.2740901708602905,0.2809567451477051,0.016212711110711098,0.08068207651376724,0.06046387553215027
3.9812443256378174,-0.032616160809993744,-0.2733272314071655,0.2813382148742676,0.016594186425209045,0.08106355369091034,0.06084534898400307
4.001349687576294,-0.032616160809993744,-0.27218279242515564,0.2813382148742676,0.016594186425209045,0.08144503086805344,0.06084534898400307
4.021393060684204,-0.032616160809993744,-0.27141985297203064,0.2813382148742676,0.016212711110711098,0.08144503086805344,0.06084534898400307
4.041456699371338,-0.03299763426184654,-0.27065691351890564,0.2813382148742676,0.016212711110711098,0.08220797777175903,0.061226826161146164
4.061525106430054,-0.03337911143898964,-0.26951247453689575,0.2813382148742676,0.016212711110711098,0.08297093212604523,0.06160829961299896
4.08165168762207,-0.03376058489084244,-0.26798656582832336,0.2821011543273926,0.016212711110711098,0.08373387902975082,0.06237125024199486
4.101763963699341,-0.03376058489084244,-0.26684215664863586,0.28324559330940247,0.016212711110711098,0.08411535620689392,0.06351567804813385
4.121753215789795,-0.034142062067985535,-0.2660791873931885,0.28362706303596497,0.016594186425209045,0.08525978773832321,0.06389715522527695
4.141828775405884,-0.034142062067985535,-0.2653162479400635,0.28362706303596497,0.016594186425209045,0.08602273464202881,0.06389715522527695
4.162017107009888,-0.03452353551983833,-0.2641718089580536,0.28400853276252747,0.016594186425209045,0.0871671661734581,0.06389715522527695
4.182034730911255,-0.03452353551983833,-0.2630273997783661,0.28400853276252747,0.016594186425209045,0.0875486359000206,0.06427863240242004
4.202075719833374,-0.03452353551983833,-0.2615014910697937,0.28439003229141235,0.016594186425209045,0.0879301130771637,0.06427863240242004
4.222157001495361,-0.03452353551983833,-0.2603570520877838,0.28477150201797485,0.016594186425209045,0.0883115902543068,0.06466010212898254
4.242221832275391,-0.03490501269698143,-0.2592126429080963,0.28553444147109985,0.016975661739706993,0.08869306743144989,0.06466010212898254
4.262291431427002,-0.03490501269698143,-0.2580682039260864,0.28591591119766235,0.016975661739706993,0.09021896868944168,0.06504157930612564
4.282726526260376,-0.035667963325977325,-0.2569237947463989,0.28591591119766235,0.01735713705420494,0.09098191559314728,0.06580453366041183
4.30281925201416,-0.03643091395497322,-0.25577935576438904,0.28629741072654724,0.01735713705420494,0.09136339277029037,0.06694895774126053
4.322884798049927,-0.03643091395497322,-0.25463491678237915,0.28667888045310974,0.01735713705420494,0.09174486994743347,0.06771191209554672
4.342989206314087,-0.03643091395497322,-0.25387197732925415,0.28706035017967224,0.01735713705420494,0.09174486994743347,0.06771191209554672
4.363072872161865,-0.03643091395497322,-0.25272753834724426,0.28782328963279724,0.01735713705420494,0.09212634712457657,0.06809338182210922
4.383160829544067,-0.03681239113211632,-0.2508201599121094,0.28820478916168213,0.01773861236870289,0.09250781685113907,0.06809338182210922
4.403235673904419,-0.03681239113211632,-0.24929426610469818,0.28858625888824463,0.018120087683200836,0.09365224838256836,0.06847485899925232
4.4232776165008545,-0.037193864583969116,-0.247768372297287,0.28896772861480713,0.018120087683200836,0.09441519528627396,0.06847485899925232
4.443434953689575,-0.03757534176111221,-0.2454795092344284,0.28896772861480713,0.018120087683200836,0.09517814964056015,0.06885633617639542
4.46345853805542,-0.03795681521296501,-0.2439536154270172,0.28896772861480713,0.018120087683200836,0.09517814964056015,0.06923781335353851
4.483576059341431,-0.03795681521296501,-0.24280919134616852,0.28934919834136963,0.018120087683200836,0.09555962681770325,0.07000076025724411
4.5036773681640625,-0.03795681521296501,-0.24090181291103363,0.290875107049942,0.018120087683200836,0.09555962681770325,0.0707637146115303
4.523782968521118,-0.038719769567251205,-0.23899443447589874,0.291638046503067,0.018501564860343933,0.09632257372140884,0.0715266615152359
4.543798208236694,-0.039101243019104004,-0.23708705604076385,0.2920195460319519,0.018501564860343933,0.09708552807569504,0.0715266615152359
4.5639801025390625,-0.0394827201962471,-0.23517967760562897,0.2920195460319519,0.01888304017484188,0.09784847497940063,0.071908138692379
4.583979368209839,-0.0398641936480999,-0.23365376889705658,0.2920195460319519,0.01888304017484188,0.09822995215654373,0.071908138692379
4.604133605957031,-0.0398641936480999,-0.23250934481620789,0.2924010157585144,0.01888304017484188,0.09822995215654373,0.0722896158695221
4.624129295349121,-0.0398641936480999,-0.230601966381073,0.2924010157585144,0.01888304017484188,0.09861142933368683,0.07267109304666519
4.644239664077759,-0.0398641936480999,-0.2283131182193756,0.2931639552116394,0.01888304017484188,0.09899290651082993,0.07343403995037079
4.6643147468566895,-0.040245670825242996,-0.22640573978424072,0.2935454249382019,0.01888304017484188,0.09899290651082993,0.07457847148180008
4.68437933921814,-0.040627144277095795,-0.22449836134910583,0.2943083941936493,0.01926451548933983,0.09975585341453552,0.07534141838550568
4.704444408416748,-0.040627144277095795,-0.22259098291397095,0.2946898639202118,0.01926451548933983,0.10013733059167862,0.07534141838550568
4.72461199760437,-0.04100862145423889,-0.22068360447883606,0.2954528033733368,0.01926451548933983,0.10090028494596481,0.07534141838550568
4.744703531265259,-0.04100862145423889,-0.21801327168941498,0.2958342730998993,0.019645990803837776,0.10204470902681351,0.07572289556264877
4.764722108840942,-0.04139009863138199,-0.2161058932542801,0.2958342730998993,0.019645990803837776,0.1024261862039566,0.07572289556264877
4.784793853759766,-0.04177157208323479,-0.2130540907382965,0.2962157726287842,0.019645990803837776,0.1028076633810997,0.07610437273979187
4.804886102676392,-0.04177157208323479,-0.21114671230316162,0.2962157726287842,0.019645990803837776,0.1031891331076622,0.07686731964349747
4.824995994567871,-0.04177157208323479,-0.20962081849575043,0.2965972423553467,0.019645990803837776,0.1039520874619484,0.07839322835206985
4.845038890838623,-0.04177157208323479,-0.20847637951374054,0.2973601818084717,0.020027466118335724,0.10509651154279709,0.07915617525577545
4.86528754234314,-0.04253452271223068,-0.20656901597976685,0.29812315106391907,0.020027466118335724,0.10585946589708328,0.07915617525577545
4.885441541671753,-0.04291599988937378,-0.20351719856262207,0.29812315106391907,0.02040894143283367,0.10624094307422638,0.07953765243291855
4.9055116176605225,-0.04291599988937378,-0.20084688067436218,0.29850462079048157,0.02040894143283367,0.10662241280078888,0.07991912961006165
4.925565242767334,-0.043678950518369675,-0.1985580176115036,0.29926756024360657,0.02079041674733162,0.10700388997793198,0.08030059933662415
4.945647716522217,-0.04406042397022247,-0.19512474536895752,0.29926756024360657,0.021171892061829567,0.10814831405878067,0.08068207651376724
4.965750217437744,-0.04406042397022247,-0.19245441257953644,0.29964902997016907,0.021553369238972664,0.10891126841306686,0.08220797777175903
4.98579478263855,-0.04444190114736557,-0.18863965570926666,0.30003052949905396,0.02231631986796856,0.11005569249391556,0.08258945494890213
5.005942344665527,-0.04482337832450867,-0.1836804747581482,0.30041199922561646,0.022697795182466507,0.11120012402534485,0.08335240930318832
5.026134252548218,-0.045204851776361465,-0.17948424816131592,0.30155640840530396,0.023079270496964455,0.11310750246047974,0.08411535620689392
5.046144247055054,-0.04596780240535736,-0.17872129380702972,0.30384528636932373,0.02384222112596035,0.11425192654132843,0.0864042118191719
5.066202163696289,-0.046730753034353256,-0.17986571788787842,0.3057526648044586,0.024986648932099342,0.11692225188016891,0.0883115902543068
5.08639121055603,-0.046730753034353256,-0.1836804747581482,0.3076600432395935,0.02689402550458908,0.1180666834115982,0.09060044586658478
5.106486797332764,-0.046730753034353256,-0.19054703414440155,0.3103303611278534,0.027656977996230125,0.1188296303153038,0.09174486994743347
5.126555681228638,-0.046730753034353256,-0.1989395022392273,0.3130006790161133,0.028038453310728073,0.12149996310472488,0.09365224838256836
5.146617412567139,-0.046730753034353256,-0.21076524257659912,0.31490805745124817,0.028038453310728073,0.12226291000843048,0.09441519528627396
5.166672229766846,-0.046730753034353256,-0.22640573978424072,0.31681543588638306,0.027656977996230125,0.12340734153985977,0.09555962681770325
5.186760663986206,-0.046730753034353256,-0.2450980395078659,0.3217746317386627,0.027656977996230125,0.12493324279785156,0.09746700525283813
5.206830263137817,-0.046730753034353256,-0.26684215664863586,0.3282597064971924,0.02841992862522602,0.12569619715213776,0.09899290651082993
5.226874351501465,-0.046730753034353256,-0.28706035017967224,0.33474478125572205,0.02841992862522602,0.12531471252441406,0.10090028494596481
5.246964693069458,-0.04711223021149635,-0.30270084738731384,0.3416113555431366,0.02880140393972397,0.12531471252441406,0.1024261862039566
5.2670464515686035,-0.04749370738863945,-0.3122377395629883,0.34695202112197876,0.029182879254221916,0.12493324279785156,0.1039520874619484
5.287116765975952,-0.048256658017635345,-0.31414511799812317,0.34962233901023865,0.029564354568719864,0.12417028844356537,0.10509651154279709
5.307214260101318,-0.048638131469488144,-0.31376364827156067,0.35076677799224854,0.02994582988321781,0.12378881871700287,0.10547798871994019
5.327305555343628,-0.04901960864663124,-0.3110933005809784,0.35152971744537354,0.031090257689356804,0.12302586436271667,0.10547798871994019
5.347381353378296,-0.04901960864663124,-0.3091859221458435,0.35191118717193604,0.03147173300385475,0.12302586436271667,0.10547798871994019
5.367430925369263,-0.04901960864663124,-0.3065156042575836,0.35229265689849854,0.03147173300385475,0.12417028844356537,0.10585946589708328
5.387521982192993,-0.04901960864663124,-0.3057526648044586,0.35229265689849854,0.03147173300385475,0.12531471252441406,0.10585946589708328
5.407578945159912,-0.04901960864663124,-0.30460822582244873,0.35229265689849854,0.031090257689356804,0.12569619715213776,0.10624094307422638
5.4276487827301025,-0.04940108209848404,-0.30346378684043884,0.35229265689849854,0.031090257689356804,0.12798504531383514,0.10624094307422638
5.447702169418335,-0.050164032727479935,-0.30231937766075134,0.35229265689849854,0.031090257689356804,0.12912946939468384,0.10662241280078888
5.4678003787994385,-0.050164032727479935,-0.30041199922561646,0.3530556261539459,0.03147173300385475,0.13065537810325623,0.10738536715507507
5.48787784576416,-0.05054550990462303,-0.29812315106391907,0.3542000353336334,0.03147173300385475,0.13103684782981873,0.10814831405878067
5.507925033569336,-0.05092698708176613,-0.2965972423553467,0.3542000353336334,0.03147173300385475,0.13103684782981873,0.10852979123592377
5.528102397918701,-0.05092698708176613,-0.2950713336467743,0.3542000353336334,0.03147173300385475,0.13103684782981873,0.10891126841306686
5.548190116882324,-0.05092698708176613,-0.2927824854850769,0.3542000353336334,0.03147173300385475,0.13103684782981873,0.10891126841306686
5.568345785140991,-0.05092698708176613,-0.28973066806793213,0.3545815348625183,0.03147173300385475,0.13065537810325623,0.10929274559020996
5.5883471965789795,-0.05130846053361893,-0.28820478916168213,0.3545815348625183,0.03147173300385475,0.13065537810325623,0.10929274559020996
5.608397722244263,-0.05130846053361893,-0.28591591119766235,0.3549630045890808,0.03147173300385475,0.13103684782981873,0.10967422276735306
5.628575563430786,-0.05207141116261482,-0.28439003229141235,0.3561074137687683,0.03147173300385475,0.13141833245754242,0.10967422276735306
5.6485912799835205,-0.05207141116261482,-0.28248265385627747,0.3564889132976532,0.03185320645570755,0.13218127191066742,0.11005569249391556
5.668646335601807,-0.05207141116261482,-0.2809567451477051,0.3564889132976532,0.03185320645570755,0.13218127191066742,0.11120012402534485
5.688703536987305,-0.05207141116261482,-0.2782863974571228,0.3564889132976532,0.03185320645570755,0.1325627565383911,0.11234454810619354
5.7087931632995605,-0.05245288833975792,-0.2752346098423004,0.3568703830242157,0.03185320645570755,0.1333257108926773,0.11234454810619354
5.728924989700317,-0.053215838968753815,-0.273708701133728,0.3572518527507782,0.03185320645570755,0.1340886503458023,0.11272602528333664
5.748991966247559,-0.053215838968753815,-0.2725642919540405,0.3576333224773407,0.03185320645570755,0.135233074426651,0.11272602528333664
5.769067287445068,-0.05397878959774971,-0.26989394426345825,0.3580147922039032,0.03223468363285065,0.1356145590543747,0.11310750246047974
5.789206504821777,-0.05436026677489281,-0.26760509610176086,0.3583962619304657,0.03223468363285065,0.1359960287809372,0.11348897218704224
5.809292793273926,-0.05397878959774971,-0.264934778213501,0.3583962619304657,0.03223468363285065,0.1363775134086609,0.11348897218704224
5.829320907592773,-0.05436026677489281,-0.2622644305229187,0.3587777614593506,0.032616160809993744,0.1367589831352234,0.11387044936418533
5.8495776653289795,-0.05436026677489281,-0.2588311731815338,0.3587777614593506,0.03299763426184654,0.1371404528617859,0.11463340371847153
5.86962890625,-0.0551232174038887,-0.2569237947463989,0.3591592311859131,0.032616160809993744,0.13904783129692078,0.11539635062217712
5.889630079269409,-0.0555046908557415,-0.25463491678237915,0.3595407009124756,0.03299763426184654,0.14019227027893066,0.11615930497646332
5.909878492355347,-0.0555046908557415,-0.25158312916755676,0.3603036403656006,0.03299763426184654,0.14057374000549316,0.11692225188016891
5.92986798286438,-0.0555046908557415,-0.2473868876695633,0.3606851398944855,0.03337911143898964,0.14209964871406555,0.11692225188016891
5.949932098388672,-0.056267641484737396,-0.24319066107273102,0.3606851398944855,0.03337911143898964,0.14362554252147675,0.11768520623445511
5.970025300979614,-0.056267641484737396,-0.23861294984817505,0.3606851398944855,0.03337911143898964,0.14400701224803925,0.1188296303153038
5.990104675292969,-0.056267641484737396,-0.23441672325134277,0.361066609621048,0.03376058489084244,0.14438849687576294,0.1199740618467331
6.01021933555603,-0.05664911866188049,-0.2298390120267868,0.3614480793476105,0.03376058489084244,0.14515145123004913,0.1203555315732956
6.030447006225586,-0.05703059583902359,-0.22564278542995453,0.3614480793476105,0.03376058489084244,0.14667734503746033,0.12073700875043869
6.050563097000122,-0.05741206929087639,-0.21953918039798737,0.3614480793476105,0.034142062067985535,0.14782176911830902,0.12111848592758179
6.070728540420532,-0.057793546468019485,-0.2134355753660202,0.3614480793476105,0.034142062067985535,0.14782176911830902,0.12226291000843048
6.090838432312012,-0.058175019919872284,-0.20771344006061554,0.3614480793476105,0.034142062067985535,0.14820325374603271,0.12378881871700287
6.111271619796753,-0.05855649709701538,-0.20084688067436218,0.3614480793476105,0.03452353551983833,0.14858472347259521,0.12417028844356537
6.131360292434692,-0.059319447726011276,-0.19207294285297394,0.3614480793476105,0.03452353551983833,0.1497291475534439,0.12493324279785156
6.15144944190979,-0.06008239835500717,-0.1813916265964508,0.3614480793476105,0.03452353551983833,0.1508735716342926,0.12722209095954895
6.171481370925903,-0.06084534898400307,-0.17109178006649017,0.3614480793476105,0.03490501269698143,0.1520180106163025,0.12912946939468384
6.191540956497192,-0.061226826161146164,-0.1665140837430954,0.361829549074173,0.03681239113211632,0.15392538905143738,0.13141833245754242
6.211630344390869,-0.061226826161146164,-0.1661325991153717,0.36297398805618286,0.039101243019104004,0.15468832850456238,0.1325627565383911
6.231696844100952,-0.061226826161146164,-0.16880293190479279,0.36373692750930786,0.040627144277095795,0.15506981313228607,0.1337071806192398
6.251821517944336,-0.061226826161146164,-0.17147326469421387,0.36335545778274536,0.040627144277095795,0.15735866129398346,0.134470134973526
6.271940469741821,-0.061226826161146164,-0.17681391537189484,0.36297398805618286,0.03833829239010811,0.15850308537483215,0.1348516047000885
6.291947841644287,-0.061226826161146164,-0.182917520403862,0.3622110188007355,0.03757534176111221,0.15926603972911835,0.134470134973526
6.312028408050537,-0.061226826161146164,-0.18940261006355286,0.3622110188007355,0.03757534176111221,0.16002899408340454,0.1348516047000885
6.332163572311401,-0.061226826161146164,-0.19436179101467133,0.36259251832962036,0.03757534176111221,0.15964750945568085,0.1348516047000885
6.352243185043335,-0.061226826161146164,-0.1985580176115036,0.36297398805618286,0.03795681521296501,0.15850308537483215,0.135233074426651
6.3723464012146,-0.061226826161146164,-0.20199130475521088,0.36411839723587036,0.03833829239010811,0.15812161564826965,0.135233074426651
6.392808198928833,-0.061226826161146164,-0.20542457699775696,0.36411839723587036,0.038719769567251205,0.15774014592170715,0.1356145590543747
6.412888288497925,-0.061226826161146164,-0.21114671230316162,0.36449989676475525,0.03833829239010811,0.15697719156742096,0.1359960287809372
6.433044910430908,-0.061226826161146164,-0.21686884760856628,0.36488136649131775,0.038719769567251205,0.15659570693969727,0.1359960287809372
6.453290224075317,-0.061226826161146164,-0.22564278542995453,0.36449989676475525,0.038719769567251205,0.15735866129398346,0.1367589831352234
6.473511457443237,-0.061226826161146164,-0.23517967760562897,0.36564430594444275,0.03833829239010811,0.15735866129398346,0.13790340721607208
6.493617057800293,-0.061226826161146164,-0.2450980395078659,0.36640727519989014,0.038719769567251205,0.15735866129398346,0.13866636157035828
6.513632535934448,-0.061226826161146164,-0.2569237947463989,0.368314653635025,0.038719769567251205,0.15850308537483215,0.13942931592464447
6.533717632293701,-0.061226826161146164,-0.273708701133728,0.3721294105052948,0.039101243019104004,0.15888457000255585,0.14019227027893066
6.553795337677002,-0.061226826161146164,-0.2927824854850769,0.3774700462818146,0.0398641936480999,0.15888457000255585,0.14171816408634186
6.5739617347717285,-0.061226826161146164,-0.3126192092895508,0.38242924213409424,0.040245670825242996,0.15888457000255585,0.14362554252147675
6.5940022468566895,-0.06160829961299896,-0.3274967670440674,0.3873884081840515,0.040245670825242996,0.15850308537483215,0.14629587531089783
6.614099025726318,-0.06237125024199486,-0.33550775051116943,0.3908216953277588,0.04100862145423889,0.15850308537483215,0.14782176911830902
6.634203672409058,-0.06275273114442825,-0.3370336592197418,0.3919661343097687,0.04139009863138199,0.15774014592170715,0.14858472347259521
6.6542463302612305,-0.06275273114442825,-0.33550775051116943,0.3923476040363312,0.04139009863138199,0.15659570693969727,0.1497291475534439
6.67434549331665,-0.06313420087099075,-0.33321890234947205,0.3931105434894562,0.042153049260377884,0.15583276748657227,0.1497291475534439
6.6943981647491455,-0.06313420087099075,-0.33131152391433716,0.3934920132160187,0.04329747334122658,0.15659570693969727,0.1497291475534439
6.7144691944122314,-0.06313420087099075,-0.32978561520576477,0.39387351274490356,0.04444190114736557,0.15774014592170715,0.1501106321811676
6.7345194816589355,-0.06313420087099075,-0.3278782367706299,0.3934920132160187,0.04444190114736557,0.15926603972911835,0.1501106321811676
6.754642724990845,-0.06351567804813385,-0.3263523280620575,0.3934920132160187,0.04444190114736557,0.16002899408340454,0.1501106321811676
6.774754762649536,-0.06351567804813385,-0.3244449496269226,0.3934920132160187,0.043678950518369675,0.16155488789081573,0.1501106321811676
6.794795513153076,-0.06351567804813385,-0.3229190409183502,0.3934920132160187,0.04406042397022247,0.16231784224510193,0.1504921019077301
6.814894676208496,-0.06389715522527695,-0.32024872303009033,0.39387351274490356,0.04406042397022247,0.16269932687282562,0.1508735716342926
6.835032224655151,-0.06466010212898254,-0.31795987486839294,0.39425498247146606,0.04444190114736557,0.16422522068023682,0.1508735716342926
6.855099678039551,-0.06504157930612564,-0.31643396615982056,0.39501792192459106,0.04444190114736557,0.164988175034523,0.1516365259885788
6.875133275985718,-0.06542305648326874,-0.31376364827156067,0.39501792192459106,0.04444190114736557,0.1657511293888092,0.15316243469715118
6.895193815231323,-0.06542305648326874,-0.3110933005809784,0.39539939165115356,0.04444190114736557,0.1657511293888092,0.15392538905143738
6.9152631759643555,-0.06542305648326874,-0.309567391872406,0.39539939165115356,0.04444190114736557,0.1653696447610855,0.15392538905143738
6.935329437255859,-0.06542305648326874,-0.3072785437107086,0.39539939165115356,0.04444190114736557,0.1653696447610855,0.15392538905143738
6.9554712772369385,-0.06580453366041183,-0.30384528636932373,0.39578089118003845,0.04444190114736557,0.1657511293888092,0.15430685877799988
6.975642204284668,-0.06656748056411743,-0.30117493867874146,0.39578089118003845,0.04444190114736557,0.1661325991153717,0.15506981313228607
6.995629072189331,-0.06656748056411743,-0.2965972423553467,0.39578089118003845,0.04444190114736557,0.1668955534696579,0.15583276748657227
7.015691518783569,-0.06656748056411743,-0.2935454249382019,0.39616236090660095,0.04444190114736557,0.1672770231962204,0.15697719156742096
7.0357584953308105,-0.06694895774126053,-0.290112167596817,0.39692530035972595,0.04444190114736557,0.1684214472770691,0.15774014592170715
7.055803298950195,-0.06771191209554672,-0.28629741072654724,0.39692530035972595,0.04482337832450867,0.16956588625907898,0.15774014592170715
7.075908660888672,-0.06809338182210922,-0.28248265385627747,0.39692530035972595,0.04482337832450867,0.17032882571220398,0.15774014592170715
7.096032619476318,-0.06847485899925232,-0.2786678969860077,0.39730677008628845,0.04482337832450867,0.17071031033992767,0.15812161564826965
7.116047143936157,-0.06847485899925232,-0.2752346098423004,0.39768826961517334,0.04482337832450867,0.17109178006649017,0.15812161564826965
7.136195659637451,-0.06847485899925232,-0.27065691351890564,0.39768826961517334,0.04482337832450867,0.17185473442077637,0.15850308537483215
7.156278133392334,-0.06885633617639542,-0.2653162479400635,0.39768826961517334,0.04482337832450867,0.17223620414733887,0.15888457000255585
7.176342964172363,-0.06885633617639542,-0.2611200213432312,0.39768826961517334,0.04482337832450867,0.17261768877506256,0.15964750945568085
7.196384429931641,-0.06961929053068161,-0.25616082549095154,0.39768826961517334,0.045204851776361465,0.17376211285591125,0.16079194843769073
7.216483116149902,-0.06961929053068161,-0.24967575073242188,0.39768826961517334,0.045204851776361465,0.17490653693675995,0.16117341816425323
7.236562728881836,-0.07000076025724411,-0.24280919134616852,0.39768826961517334,0.045204851776361465,0.17566949129104614,0.16155488789081573
7.256625413894653,-0.07000076025724411,-0.23670557141304016,0.39768826961517334,0.045204851776361465,0.17681391537189484,0.16193637251853943
7.276699066162109,-0.07038223743438721,-0.2290760725736618,0.39768826961517334,0.045204851776361465,0.17719538509845734,0.16269932687282562
7.296773910522461,-0.0711451917886734,-0.21992065012454987,0.39768826961517334,0.045204851776361465,0.17795833945274353,0.16346226632595062
7.316953182220459,-0.071908138692379,-0.21038375794887543,0.39768826961517334,0.045204851776361465,0.17833982408046722,0.1646067053079605
7.336956024169922,-0.071908138692379,-0.2004653960466385,0.39730677008628845,0.04558632895350456,0.1802472025156021,0.1657511293888092
7.356998682022095,-0.07305257022380829,-0.18749523162841797,0.39692530035972595,0.04558632895350456,0.1817730963230133,0.1672770231962204
7.377087354660034,-0.07343403995037079,-0.17833982408046722,0.39692530035972595,0.046730753034353256,0.1832990050315857,0.16994735598564148
7.397157907485962,-0.07343403995037079,-0.17376211285591125,0.39730677008628845,0.04901960864663124,0.1848248988389969,0.17109178006649017
7.417241811752319,-0.07343403995037079,-0.17490653693675995,0.39806973934173584,0.05283436179161072,0.18596932291984558,0.17299915850162506
7.4372758865356445,-0.07343403995037079,-0.17833982408046722,0.39768826961517334,0.05359731614589691,0.18978407979011536,0.17376211285591125
7.45754861831665,-0.07343403995037079,-0.1817730963230133,0.39768826961517334,0.05245288833975792,0.19359883666038513,0.17605096101760864
7.477703094482422,-0.07343403995037079,-0.18596932291984558,0.39654383063316345,0.049782559275627136,0.19474326074123383,0.17605096101760864
7.497645854949951,-0.07343403995037079,-0.19130998849868774,0.39654383063316345,0.048256658017635345,0.1962691694498062,0.17605096101760864
7.517815828323364,-0.07343403995037079,-0.1974135935306549,0.39654383063316345,0.048638131469488144,0.1958876997232437,0.17643244564533234
7.537829637527466,-0.07343403995037079,-0.2004653960466385,0.39692530035972595,0.04901960864663124,0.19512474536895752,0.17643244564533234
7.557889699935913,-0.07343403995037079,-0.20199130475521088,0.39730677008628845,0.049782559275627136,0.19398032128810883,0.17643244564533234
7.578110933303833,-0.07343403995037079,-0.20466163754463196,0.39768826961517334,0.050164032727479935,0.19092851877212524,0.17643244564533234
7.598203420639038,-0.07343403995037079,-0.20695048570632935,0.39768826961517334,0.050164032727479935,0.19016556441783905,0.17643244564533234
7.618272542953491,-0.07343403995037079,-0.20923933386802673,0.39768826961517334,0.05054550990462303,0.18787670135498047,0.17643244564533234
7.638328790664673,-0.07343403995037079,-0.21229113638401031,0.39768826961517334,0.050164032727479935,0.18749523162841797,0.17643244564533234
7.658444404602051,-0.07381551712751389,-0.21686884760856628,0.39768826961517334,0.05054550990462303,0.18787670135498047,0.17681391537189484
7.678490161895752,-0.07343403995037079,-0.22068360447883606,0.39768826961517334,0.050164032727479935,0.18825818598270416,0.17681391537189484
7.698546886444092,-0.07343403995037079,-0.22487983107566833,0.39768826961517334,0.050164032727479935,0.18825818598270416,0.17719538509845734
7.718770742416382,-0.07343403995037079,-0.2302204966545105,0.39768826961517334,0.050164032727479935,0.18825818598270416,0.17757686972618103
7.738860368728638,-0.07343403995037079,-0.23556114733219147,0.39806973934173584,0.050164032727479935,0.18825818598270416,0.17833982408046722
7.758934736251831,-0.07343403995037079,-0.24052032828330994,0.39921414852142334,0.05054550990462303,0.18825818598270416,0.17948424816131592
7.779008626937866,-0.07343403995037079,-0.2462424635887146,0.3999771177768707,0.05054550990462303,0.18825818598270416,0.17986571788787842
7.799177408218384,-0.07343403995037079,-0.25234606862068176,0.4007400572299957,0.05130846053361893,0.18825818598270416,0.1802472025156021
7.819171905517578,-0.07343403995037079,-0.2622644305229187,0.4022659659385681,0.05207141116261482,0.18825818598270416,0.1806286722421646
7.83927583694458,-0.07343403995037079,-0.2767605185508728,0.4037918746471405,0.05245288833975792,0.18825818598270416,0.1813916265964508
7.859354734420776,-0.07343403995037079,-0.2969787120819092,0.4068436622619629,0.05283436179161072,0.18863965570926666,0.1836804747581482
7.879380702972412,-0.07381551712751389,-0.31567102670669556,0.41218432784080505,0.053215838968753815,0.18902114033699036,0.1848248988389969
7.899482727050781,-0.07343403995037079,-0.33093002438545227,0.4194323718547821,0.05245288833975792,0.18902114033699036,0.18749523162841797
7.919543027877808,-0.07381551712751389,-0.3404669165611267,0.4228656589984894,0.05207141116261482,0.18902114033699036,0.18825818598270416
7.939641237258911,-0.07381551712751389,-0.34962233901023865,0.42591744661331177,0.05207141116261482,0.18825818598270416,0.18902114033699036
7.959794282913208,-0.07381551712751389,-0.35191118717193604,0.42706188559532166,0.05283436179161072,0.18749523162841797,0.18978407979011536
7.980020999908447,-0.07419699430465698,-0.35038527846336365,0.42782482504844666,0.05359731614589691,0.18635080754756927,0.19092851877212524
8.000105857849121,-0.07495994865894318,-0.34809643030166626,0.42858776450157166,0.05359731614589691,0.18635080754756927,0.19130998849868774
8.02009630203247,-0.07572289556264877,-0.34618905186653137,0.42896926403045654,0.05397878959774971,0.18787670135498047,0.19130998849868774
8.040201902389526,-0.07572289556264877,-0.3435187339782715,0.42896926403045654,0.05397878959774971,0.19016556441783905,0.19169145822525024
8.06025218963623,-0.07572289556264877,-0.3404669165611267,0.42896926403045654,0.05397878959774971,0.19207294285297394,0.19169145822525024
8.08031678199768,-0.07572289556264877,-0.3385595381259918,0.42896926403045654,0.05397878959774971,0.19245441257953644,0.19207294285297394
8.100390434265137,-0.07572289556264877,-0.33665215969085693,0.42896926403045654,0.05397878959774971,0.19283588230609894,0.19207294285297394
8.120561122894287,-0.07610437273979187,-0.33360037207603455,0.42896926403045654,0.05397878959774971,0.19550621509552002,0.19245441257953644
8.140693426132202,-0.07610437273979187,-0.33093002438545227,0.42896926403045654,0.05397878959774971,0.1958876997232437,0.19321736693382263
8.160708665847778,-0.07610437273979187,-0.3286411762237549,0.42935073375701904,0.05436026677489281,0.1958876997232437,0.19398032128810883
8.180867671966553,-0.07648584991693497,-0.32520791888237,0.42935073375701904,0.05436026677489281,0.1958876997232437,0.19474326074123383
8.201099634170532,-0.07724879682064056,-0.3217746317386627,0.42973220348358154,0.05436026677489281,0.1958876997232437,0.19474326074123383
8.221065044403076,-0.07724879682064056,-0.31910428404808044,0.43011367321014404,0.05397878959774971,0.1958876997232437,0.19512474536895752
8.241140842437744,-0.07724879682064056,-0.31643396615982056,0.43011367321014404,0.05436026677489281,0.1962691694498062,0.19512474536895752
8.261213541030884,-0.07763027399778366,-0.3126192092895508,0.43011367321014404,0.05436026677489281,0.1958876997232437,0.19550621509552002
8.281317472457886,-0.07801175117492676,-0.309567391872406,0.43011367321014404,0.054741740226745605,0.1962691694498062,0.1958876997232437
8.301415920257568,-0.07801175117492676,-0.3057526648044586,0.43011367321014404,0.054741740226745605,0.1962691694498062,0.1962691694498062
8.321495532989502,-0.07801175117492676,-0.30231937766075134,0.43011367321014404,0.05436026677489281,0.1966506391763687,0.1974135935306549
8.341614246368408,-0.07839322835206985,-0.29812315106391907,0.43011367321014404,0.054741740226745605,0.1981765478849411,0.1985580176115036
8.361714363098145,-0.07915617525577545,-0.2939268946647644,0.43011367321014404,0.0551232174038887,0.1993209719657898,0.1989395022392273
8.381747722625732,-0.07915617525577545,-0.290112167596817,0.43011367321014404,0.054741740226745605,0.2004653960466385,0.1993209719657898
8.402207136154175,-0.07991912961006165,-0.28439003229141235,0.43011367321014404,0.0551232174038887,0.20122835040092468,0.1997024416923523
8.422377109527588,-0.08030059933662415,-0.2771419882774353,0.43011367321014404,0.0551232174038887,0.20275425910949707,0.20122835040092468
8.442408800125122,-0.08030059933662415,-0.27027541399002075,0.43011367321014404,0.0551232174038887,0.20275425910949707,0.20237277448177338
8.462525367736816,-0.08030059933662415,-0.2630273997783661,0.43011367321014404,0.056267641484737396,0.20313572883605957,0.20275425910949707
8.482629299163818,-0.08106355369091034,-0.25349050760269165,0.43011367321014404,0.05664911866188049,0.20351719856262207,0.20313572883605957
8.502657175064087,-0.08144503086805344,-0.24319066107273102,0.43011367321014404,0.05664911866188049,0.20428015291690826,0.20428015291690826
8.5228111743927,-0.08220797777175903,-0.23289081454277039,0.42973220348358154,0.05664911866188049,0.20466163754463196,0.20580606162548065
8.542829275131226,-0.08335240930318832,-0.21801327168941498,0.42935073375701904,0.05703059583902359,0.20656901597976685,0.20695048570632935
8.5629301071167,-0.08449683338403702,-0.20160982012748718,0.42744335532188416,0.05741206929087639,0.20809490978717804,0.20885786414146423
8.582980632781982,-0.08449683338403702,-0.19092851877212524,0.42591744661331177,0.058175019919872284,0.21038375794887543,0.21038375794887543
8.60307240486145,-0.08449683338403702,-0.1844434291124344,0.42668038606643677,0.05970092490315437,0.21229113638401031,0.21038375794887543
8.6236572265625,-0.08449683338403702,-0.1844434291124344,0.42820629477500916,0.06237125024199486,0.2149614691734314,0.21038375794887543
8.643792390823364,-0.08411535620689392,-0.18787670135498047,0.42858776450157166,0.06542305648326874,0.21992065012454987,0.21152819693088531
8.66383671760559,-0.08411535620689392,-0.19016556441783905,0.42858776450157166,0.06466010212898254,0.22220951318740845,0.2138170450925827
8.683925867080688,-0.08411535620689392,-0.19283588230609894,0.42629891633987427,0.06008239835500717,0.22373540699481964,0.2134355753660202
8.704089641571045,-0.08411535620689392,-0.1977950781583786,0.42591744661331177,0.058175019919872284,0.22487983107566833,0.212672621011734
8.724251747131348,-0.08411535620689392,-0.20351719856262207,0.42591744661331177,0.058175019919872284,0.22487983107566833,0.2134355753660202
8.74428677558899,-0.08411535620689392,-0.20618753135204315,0.42629891633987427,0.05855649709701538,0.22297245264053345,0.2134355753660202
8.764396667480469,-0.08449683338403702,-0.20580606162548065,0.42629891633987427,0.059319447726011276,0.22106507420539856,0.2134355753660202
8.78453779220581,-0.08411535620689392,-0.20656901597976685,0.42668038606643677,0.06008239835500717,0.21686884760856628,0.2134355753660202
8.804646968841553,-0.08449683338403702,-0.20809490978717804,0.42706188559532166,0.06084534898400307,0.2149614691734314,0.2134355753660202
8.8247230052948,-0.08449683338403702,-0.20923933386802673,0.42706188559532166,0.06084534898400307,0.2130540907382965,0.2134355753660202
8.844801902770996,-0.08449683338403702,-0.21114671230316162,0.42706188559532166,0.06084534898400307,0.2134355753660202,0.2134355753660202
8.864899158477783,-0.08449683338403702,-0.2141985148191452,0.42668038606643677,0.06046387553215027,0.2138170450925827,0.2134355753660202
8.884958505630493,-0.08449683338403702,-0.21763180196285248,0.42668038606643677,0.06046387553215027,0.2145799994468689,0.2134355753660202
8.905058860778809,-0.08449683338403702,-0.22182802855968475,0.42668038606643677,0.06008239835500717,0.2157244235277176,0.2134355753660202
8.925086259841919,-0.08449683338403702,-0.22487983107566833,0.42668038606643677,0.06008239835500717,0.21763180196285248,0.2134355753660202
8.94516897201538,-0.08449683338403702,-0.22793163359165192,0.42668038606643677,0.06008239835500717,0.21839475631713867,0.2134355753660202
8.965235233306885,-0.08449683338403702,-0.230601966381073,0.42706188559532166,0.06046387553215027,0.21839475631713867,0.2138170450925827
8.985326051712036,-0.08449683338403702,-0.23327229917049408,0.42744335532188416,0.06046387553215027,0.21839475631713867,0.2138170450925827
9.00549840927124,-0.08449683338403702,-0.23708705604076385,0.42820629477500916,0.06046387553215027,0.21801327168941498,0.2141985148191452
9.025601148605347,-0.08449683338403702,-0.24052032828330994,0.42858776450157166,0.06046387553215027,0.21801327168941498,0.2141985148191452
9.045715093612671,-0.08449683338403702,-0.2458609938621521,0.42896926403045654,0.06046387553215027,0.21801327168941498,0.2141985148191452
9.065811395645142,-0.08449683338403702,-0.2508201599121094,0.42896926403045654,0.06046387553215027,0.21801327168941498,0.2145799994468689
9.085877656936646,-0.08449683338403702,-0.25539788603782654,0.42896926403045654,0.06046387553215027,0.21801327168941498,0.2153429538011551
9.105965375900269,-0.08449683338403702,-0.2603570520877838,0.42896926403045654,0.06046387553215027,0.21763180196285248,0.21648737788200378
9.126106977462769,-0.08449683338403702,-0.2660791873931885,0.42935073375701904,0.06046387553215027,0.21763180196285248,0.21725031733512878
9.146131753921509,-0.08449683338403702,-0.2740901708602905,0.43049514293670654,0.06084534898400307,0.21763180196285248,0.21763180196285248
9.16629695892334,-0.08449683338403702,-0.28667888045310974,0.43240252137184143,0.06160829961299896,0.21763180196285248,0.21801327168941498
9.186391353607178,-0.08449683338403702,-0.30460822582244873,0.4358358085155487,0.06351567804813385,0.21839475631713867,0.21877622604370117
9.206493377685547,-0.08449683338403702,-0.33054855465888977,0.4404135048389435,0.06389715522527695,0.21877622604370117,0.22144655883312225
9.226519107818604,-0.08449683338403702,-0.35229265689849854,0.44575417041778564,0.06351567804813385,0.21992065012454987,0.22487983107566833
9.24660611152649,-0.08525978773832321,-0.36755168437957764,0.4510948359966278,0.06160829961299896,0.21992065012454987,0.22640573978424072
9.266671895980835,-0.08564125746488571,-0.3740367889404297,0.4518577754497528,0.06084534898400307,0.21877622604370117,0.2283131182193756
9.286741256713867,-0.08564125746488571,-0.3740367889404297,0.4522392749786377,0.06084534898400307,0.2138170450925827,0.2286945879459381
9.30681586265564,-0.08602273464202881,-0.3721294105052948,0.4533836841583252,0.061226826161146164,0.21229113638401031,0.2286945879459381
9.326918601989746,-0.086785688996315,-0.3694590628147125,0.4541466534137726,0.06389715522527695,0.21114671230316162,0.2283131182193756
9.347155809402466,-0.0883115902543068,-0.36640727519989014,0.4556725323200226,0.06580453366041183,0.21076524257659912,0.2286945879459381
9.367048263549805,-0.0883115902543068,-0.36411839723587036,0.4556725323200226,0.06694895774126053,0.2130540907382965,0.2290760725736618
9.387121438980103,-0.0883115902543068,-0.361829549074173,0.4556725323200226,0.06656748056411743,0.2141985148191452,0.2290760725736618
9.407190084457397,-0.0883115902543068,-0.3595407009124756,0.4556725323200226,0.06580453366041183,0.21648737788200378,0.2294575423002243
9.427243709564209,-0.0883115902543068,-0.3576333224773407,0.4556725323200226,0.06504157930612564,0.21877622604370117,0.2294575423002243
9.447303771972656,-0.0883115902543068,-0.3549630045890808,0.4552910625934601,0.06427863240242004,0.21992065012454987,0.2298390120267868
9.467387437820435,-0.0883115902543068,-0.35152971744537354,0.4556725323200226,0.06466010212898254,0.22182802855968475,0.2298390120267868
9.487456798553467,-0.0883115902543068,-0.34847790002822876,0.4556725323200226,0.06542305648326874,0.22220951318740845,0.2309834510087967
9.507547855377197,-0.0883115902543068,-0.34657052159309387,0.4560540020465851,0.06542305648326874,0.22259098291397095,0.23212787508964539
9.527573823928833,-0.0883115902543068,-0.343137264251709,0.4560540020465851,0.06580453366041183,0.22259098291397095,0.23212787508964539
9.547664642333984,-0.08869306743144989,-0.3393225073814392,0.4556725323200226,0.06542305648326874,0.22259098291397095,0.23250934481620789
9.567732810974121,-0.08869306743144989,-0.33474478125572205,0.4556725323200226,0.06504157930612564,0.22259098291397095,0.23289081454277039
9.587778091430664,-0.08907453715801239,-0.32978561520576477,0.4556725323200226,0.06466010212898254,0.22220951318740845,0.23289081454277039
9.607867002487183,-0.08983749151229858,-0.3248264193534851,0.4560540020465851,0.06504157930612564,0.22259098291397095,0.23365376889705658
9.628041505813599,-0.09021896868944168,-0.31948578357696533,0.4560540020465851,0.06580453366041183,0.22220951318740845,0.23403525352478027
9.648094892501831,-0.09060044586658478,-0.31490805745124817,0.4560540020465851,0.06656748056411743,0.22259098291397095,0.23479819297790527
9.668149948120117,-0.09060044586658478,-0.3103303611278534,0.4560540020465851,0.06618601083755493,0.22297245264053345,0.23632410168647766
9.688186168670654,-0.09060044586658478,-0.3057526648044586,0.4560540020465851,0.06618601083755493,0.22411687672138214,0.23632410168647766
9.70827054977417,-0.09060044586658478,-0.30003052949905396,0.4560540020465851,0.06580453366041183,0.22602425515651703,0.23670557141304016
9.728341817855835,-0.09098191559314728,-0.2927824854850769,0.4560540020465851,0.06580453366041183,0.22678720951080322,0.23670557141304016
9.748414278030396,-0.09098191559314728,-0.28591591119766235,0.4560540020465851,0.06618601083755493,0.2283131182193756,0.23708705604076385
9.768471717834473,-0.09174486994743347,-0.2782863974571228,0.4560540020465851,0.06656748056411743,0.2294575423002243,0.23785001039505005
9.788578987121582,-0.09250781685113907,-0.26798656582832336,0.4556725323200226,0.06656748056411743,0.2294575423002243,0.23899443447589874
9.808639526367188,-0.09288929402828217,-0.25616082549095154,0.4552910625934601,0.06618601083755493,0.2302204966545105,0.24013885855674744
9.828700065612793,-0.09288929402828217,-0.24242770671844482,0.4545281231403351,0.06618601083755493,0.230601966381073,0.24090181291103363
9.848804950714111,-0.09365224838256836,-0.22449836134910583,0.4526207447052002,0.06656748056411743,0.2309834510087967,0.24128328263759613
9.868869066238403,-0.09479667246341705,-0.20923933386802673,0.4495689272880554,0.06771191209554672,0.23289081454277039,0.2439536154270172
9.888929605484009,-0.09479667246341705,-0.1993209719657898,0.44804301857948303,0.06885633617639542,0.23365376889705658,0.2450980395078659
9.90908408164978,-0.09479667246341705,-0.1977950781583786,0.44804301857948303,0.071908138692379,0.23670557141304016,0.2454795092344284
9.929105758666992,-0.09479667246341705,-0.2004653960466385,0.4488059878349304,0.07495994865894318,0.23861294984817505,0.2473868876695633
9.949252605438232,-0.09479667246341705,-0.20351719856262207,0.4484245181083679,0.07610437273979187,0.24357213079929352,0.248531311750412
9.96929121017456,-0.09479667246341705,-0.20656901597976685,0.44766154885292053,0.0711451917886734,0.2458609938621521,0.2500572204589844
9.98947525024414,-0.09479667246341705,-0.21114671230316162,0.44613564014434814,0.06694895774126053,0.2470054179430008,0.24891279637813568
10.009523630142212,-0.09479667246341705,-0.2161058932542801,0.44651713967323303,0.06694895774126053,0.2473868876695633,0.248531311750412
10.029680252075195,-0.09479667246341705,-0.21877622604370117,0.44651713967323303,0.06733043491840363,0.2454795092344284,0.24929426610469818
10.049699544906616,-0.09479667246341705,-0.21915769577026367,0.44689860939979553,0.06809338182210922,0.24319066107273102,0.2500572204589844
10.069751262664795,-0.09479667246341705,-0.21915769577026367,0.44728007912635803,0.06923781335353851,0.23937590420246124,0.2500572204589844
10.089851140975952,-0.09479667246341705,-0.21953918039798737,0.44766154885292053,0.07000076025724411,0.23670557141304016,0.24967575073242188
10.109971523284912,-0.09479667246341705,-0.22068360447883606,0.44766154885292053,0.0711451917886734,0.23556114733219147,0.2500572204589844
10.130019664764404,-0.09479667246341705,-0.22259098291397095,0.44766154885292053,0.0711451917886734,0.23479819297790527,0.2500572204589844
10.150113582611084,-0.09479667246341705,-0.22373540699481964,0.44766154885292053,0.0707637146115303,0.23556114733219147,0.2500572204589844
10.170155763626099,-0.09479667246341705,-0.22716869413852692,0.44766154885292053,0.07038223743438721,0.23632410168647766,0.2500572204589844
10.190321207046509,-0.09479667246341705,-0.2309834510087967,0.44766154885292053,0.07000076025724411,0.23708705604076385,0.2500572204589844
10.21043062210083,-0.09479667246341705,-0.23365376889705658,0.44766154885292053,0.07000076025724411,0.23861294984817505,0.2500572204589844
10.230484008789062,-0.09479667246341705,-0.23517967760562897,0.44766154885292053,0.06961929053068161,0.23975738883018494,0.2504386901855469
10.250563859939575,-0.09479667246341705,-0.23708705604076385,0.44766154885292053,0.06961929053068161,0.24013885855674744,0.2504386901855469
10.27064037322998,-0.09479667246341705,-0.23861294984817505,0.44766154885292053,0.07038223743438721,0.23975738883018494,0.2508201599121094
10.290704488754272,-0.09479667246341705,-0.24052032828330994,0.44766154885292053,0.07038223743438721,0.23975738883018494,0.25120165944099426
10.31080150604248,-0.09479667246341705,-0.24319066107273102,0.44766154885292053,0.07038223743438721,0.23975738883018494,0.25120165944099426
10.331029176712036,-0.09479667246341705,-0.2462424635887146,0.44766154885292053,0.07038223743438721,0.23937590420246124,0.25120165944099426
10.351178646087646,-0.09479667246341705,-0.2500572204589844,0.44804301857948303,0.0707637146115303,0.23937590420246124,0.25120165944099426
10.371214389801025,-0.09479667246341705,-0.25310903787612915,0.44804301857948303,0.07038223743438721,0.23937590420246124,0.25158312916755676
10.391305446624756,-0.09479667246341705,-0.25616082549095154,0.44804301857948303,0.07038223743438721,0.23861294984817505,0.25158312916755676
10.411342144012451,-0.09479667246341705,-0.2607385218143463,0.44804301857948303,0.07000076025724411,0.23823148012161255,0.25158312916755676
10.431432962417603,-0.09479667246341705,-0.266460657119751,0.4488059878349304,0.07038223743438721,0.23823148012161255,0.25158312916755676
10.451485395431519,-0.09479667246341705,-0.27141985297203064,0.4488059878349304,0.0707637146115303,0.23785001039505005,0.25196459889411926
10.471547842025757,-0.09479667246341705,-0.2775234580039978,0.4491874575614929,0.0707637146115303,0.23746852576732635,0.25234606862068176
10.491608619689941,-0.09479667246341705,-0.28515297174453735,0.4491874575614929,0.0707637146115303,0.23708705604076385,0.25272753834724426
10.511775255203247,-0.09479667246341705,-0.2958342730998993,0.4507133662700653,0.0707637146115303,0.23708705604076385,0.25387197732925415
10.531835079193115,-0.09479667246341705,-0.308804452419281,0.4533836841583252,0.071908138692379,0.23708705604076385,0.25539788603782654
10.551928043365479,-0.09479667246341705,-0.3236820101737976,0.45719844102859497,0.07343403995037079,0.23708705604076385,0.2569237947463989
10.571993589401245,-0.09479667246341705,-0.3435187339782715,0.46368351578712463,0.07419699430465698,0.23708705604076385,0.2595941126346588
10.592174530029297,-0.09479667246341705,-0.361829549074173,0.4713130295276642,0.07457847148180008,0.23746852576732635,0.2630273997783661
10.612204313278198,-0.09479667246341705,-0.3725108802318573,0.47550925612449646,0.07457847148180008,0.23708705604076385,0.2641718089580536
10.632254362106323,-0.09479667246341705,-0.3763256371021271,0.47779813408851624,0.07267109304666519,0.23632410168647766,0.2660791873931885
10.652409791946411,-0.09555962681770325,-0.3759441375732422,0.47932401299476624,0.0722896158695221,0.23365376889705658,0.266460657119751
10.672495603561401,-0.09632257372140884,-0.3728923499584198,0.4808499217033386,0.07381551712751389,0.23327229917049408,0.2660791873931885
10.692664861679077,-0.09708552807569504,-0.3694590628147125,0.481612890958786,0.07801175117492676,0.23327229917049408,0.26684215664863586
10.712698698043823,-0.09708552807569504,-0.36564430594444275,0.4819943606853485,0.07915617525577545,0.23327229917049408,0.26760509610176086
10.732738733291626,-0.09708552807569504,-0.3614480793476105,0.4819943606853485,0.07877469807863235,0.23479819297790527,0.26760509610176086
10.752873659133911,-0.09708552807569504,-0.3583962619304657,0.4819943606853485,0.07763027399778366,0.23708705604076385,0.26722362637519836
10.773036241531372,-0.09708552807569504,-0.3564889132976532,0.481612890958786,0.07724879682064056,0.23785001039505005,0.26760509610176086
10.793070793151855,-0.09708552807569504,-0.3542000353336334,0.481612890958786,0.07610437273979187,0.24052032828330994,0.26760509610176086
10.813089370727539,-0.09708552807569504,-0.35114824771881104,0.481612890958786,0.07610437273979187,0.24166475236415863,0.26798656582832336
10.83316683769226,-0.09746700525283813,-0.34657052159309387,0.481612890958786,0.07648584991693497,0.24280919134616852,0.26798656582832336
10.85323166847229,-0.09784847497940063,-0.3419928252696991,0.4819943606853485,0.07724879682064056,0.2443350851535797,0.26913100481033325
10.873435497283936,-0.09784847497940063,-0.3381780683994293,0.4819943606853485,0.07724879682064056,0.2443350851535797,0.26989394426345825
10.893420457839966,-0.09822995215654373,-0.33283740282058716,0.481612890958786,0.07724879682064056,0.2443350851535797,0.26989394426345825
10.913522720336914,-0.09822995215654373,-0.325970858335495,0.4812313914299011,0.07686731964349747,0.2439536154270172,0.26989394426345825
10.933630466461182,-0.09899290651082993,-0.31757840514183044,0.4804684519767761,0.07686731964349747,0.24357213079929352,0.27027541399002075
10.953724384307861,-0.09899290651082993,-0.3084229826927185,0.4808499217033386,0.07686731964349747,0.24357213079929352,0.27103838324546814
10.973886489868164,-0.09899290651082993,-0.2973601818084717,0.4808499217033386,0.07724879682064056,0.2439536154270172,0.27103838324546814
10.993916273117065,-0.09899290651082993,-0.28744181990623474,0.4804684519767761,0.07763027399778366,0.2443350851535797,0.27218279242515564
11.013960599899292,-0.09937438368797302,-0.2767605185508728,0.4797055125236511,0.07724879682064056,0.2447165697813034,0.273708701133728
11.034016847610474,-0.10013733059167862,-0.2603570520877838,0.47856107354164124,0.07724879682064056,0.2470054179430008,0.2744716703891754
11.054102420806885,-0.10090028494596481,-0.23975738883018494,0.47512778639793396,0.07724879682064056,0.24929426610469818,0.2756160795688629
11.074191093444824,-0.10166323184967041,-0.22220951318740845,0.4720759987831116,0.07724879682064056,0.2508201599121094,0.2779049277305603
11.094247102737427,-0.10204470902681351,-0.21152819693088531,0.4716945290565491,0.07877469807863235,0.25349050760269165,0.2782863974571228
11.114346027374268,-0.10204470902681351,-0.20885786414146423,0.4728389382362366,0.08182650804519653,0.25577935576438904,0.2782863974571228
11.134555578231812,-0.10204470902681351,-0.21114671230316162,0.4728389382362366,0.08525978773832321,0.2607385218143463,0.2790493667125702
11.154714584350586,-0.10204470902681351,-0.2138170450925827,0.4728389382362366,0.08869306743144989,0.2630273997783661,0.2817196846008301
11.17479419708252,-0.10204470902681351,-0.2161058932542801,0.4724574685096741,0.08487831056118011,0.2645532786846161,0.28591591119766235
11.194852352142334,-0.10204470902681351,-0.21877622604370117,0.4701686203479767,0.07648584991693497,0.2641718089580536,0.28362706303596497
11.215014219284058,-0.10204470902681351,-0.22526131570339203,0.4697871506214142,0.07534141838550568,0.2630273997783661,0.2817196846008301
11.235031366348267,-0.10204470902681351,-0.2294575423002243,0.4697871506214142,0.07610437273979187,0.2603570520877838,0.28248265385627747
11.255035161972046,-0.10204470902681351,-0.2313649207353592,0.4697871506214142,0.07724879682064056,0.2573052644729614,0.28286412358283997
11.275124311447144,-0.10204470902681351,-0.2317463904619217,0.4701686203479767,0.07915617525577545,0.25234606862068176,0.28324559330940247
11.295194149017334,-0.10204470902681351,-0.23212787508964539,0.4705500900745392,0.07953765243291855,0.25158312916755676,0.28324559330940247
11.315290212631226,-0.10204470902681351,-0.23289081454277039,0.4705500900745392,0.07991912961006165,0.2508201599121094,0.28324559330940247
11.335307836532593,-0.10204470902681351,-0.23441672325134277,0.4705500900745392,0.07991912961006165,0.25120165944099426,0.28286412358283997
11.355406284332275,-0.10204470902681351,-0.23670557141304016,0.4705500900745392,0.07991912961006165,0.25310903787612915,0.28286412358283997
11.375461339950562,-0.10204470902681351,-0.23899443447589874,0.4705500900745392,0.07953765243291855,0.25501641631126404,0.28324559330940247
11.395509481430054,-0.10204470902681351,-0.24204623699188232,0.4705500900745392,0.07915617525577545,0.2584496736526489,0.28324559330940247
11.415666580200195,-0.10204470902681351,-0.2454795092344284,0.4705500900745392,0.07915617525577545,0.2599755823612213,0.28362706303596497
11.43571925163269,-0.10204470902681351,-0.248531311750412,0.4705500900745392,0.07877469807863235,0.2599755823612213,0.28400853276252747
11.455772638320923,-0.10204470902681351,-0.2500572204589844,0.4705500900745392,0.07915617525577545,0.2599755823612213,0.28439003229141235
11.475859880447388,-0.10204470902681351,-0.25234606862068176,0.4705500900745392,0.07915617525577545,0.2576867341995239,0.28439003229141235
11.4959135055542,-0.10204470902681351,-0.25387197732925415,0.4705500900745392,0.07915617525577545,0.2569237947463989,0.28439003229141235
11.515981912612915,-0.10204470902681351,-0.25577935576438904,0.4705500900745392,0.07953765243291855,0.25463491678237915,0.28477150201797485
11.53603196144104,-0.10204470902681351,-0.2584496736526489,0.4705500900745392,0.07915617525577545,0.25387197732925415,0.28477150201797485
11.556113958358765,-0.10204470902681351,-0.2611200213432312,0.4705500900745392,0.07915617525577545,0.25272753834724426,0.28477150201797485
11.576203107833862,-0.10204470902681351,-0.265697717666626,0.4705500900745392,0.07953765243291855,0.25272753834724426,0.28477150201797485
11.596277475357056,-0.10204470902681351,-0.27103838324546814,0.4705500900745392,0.07915617525577545,0.25349050760269165,0.28477150201797485
11.61632776260376,-0.10204470902681351,-0.2786678969860077,0.4705500900745392,0.07915617525577545,0.25425344705581665,0.28515297174453735
11.636412858963013,-0.10204470902681351,-0.28629741072654724,0.4716945290565491,0.07953765243291855,0.25425344705581665,0.28515297174453735
11.656505584716797,-0.10204470902681351,-0.2939268946647644,0.4728389382362366,0.07953765243291855,0.25501641631126404,0.28553444147109985
11.676568746566772,-0.10204470902681351,-0.30155640840530396,0.47398337721824646,0.07991912961006165,0.25501641631126404,0.28591591119766235
11.696634531021118,-0.10204470902681351,-0.31528952717781067,0.47589075565338135,0.08030059933662415,0.25539788603782654,0.28667888045310974
11.716710567474365,-0.10204470902681351,-0.3389410376548767,0.4800869822502136,0.08297093212604523,0.25654229521751404,0.28782328963279724
11.736754655838013,-0.10204470902681351,-0.3542000353336334,0.4804684519767761,0.08525978773832321,0.2573052644729614,0.28973066806793213
11.756845474243164,-0.10204470902681351,-0.3583962619304657,0.47932401299476624,0.08335240930318832,0.25577935576438904,0.2931639552116394
11.776912212371826,-0.10204470902681351,-0.3576333224773407,0.47627222537994385,0.07381551712751389,0.2504386901855469,0.291638046503067
11.796974658966064,-0.1024261862039566,-0.3580147922039032,0.47703516483306885,0.07267109304666519,0.248531311750412,0.28858625888824463
11.817089796066284,-0.10204470902681351,-0.3580147922039032,0.47856107354164124,0.07953765243291855,0.2473868876695633,0.28973066806793213
11.837180137634277,-0.10204470902681351,-0.3572518527507782,0.4804684519767761,0.08449683338403702,0.248531311750412,0.2920195460319519
11.85733699798584,-0.10204470902681351,-0.3549630045890808,0.4808499217033386,0.0864042118191719,0.248531311750412,0.2920195460319519
11.877339363098145,-0.10204470902681351,-0.3545815348625183,0.4808499217033386,0.08602273464202881,0.2508201599121094,0.2920195460319519
11.89740538597107,-0.10204470902681351,-0.3553444743156433,0.4804684519767761,0.08449683338403702,0.25310903787612915,0.291638046503067
11.917565822601318,-0.10204470902681351,-0.3576333224773407,0.4797055125236511,0.08220797777175903,0.25501641631126404,0.291638046503067
11.937605142593384,-0.10204470902681351,-0.361066609621048,0.47932401299476624,0.07991912961006165,0.25616082549095154,0.291638046503067
11.957677125930786,-0.10204470902681351,-0.361829549074173,0.47856107354164124,0.07839322835206985,0.25654229521751404,0.291638046503067
11.977867126464844,-0.10204470902681351,-0.361829549074173,0.47894254326820374,0.07877469807863235,0.25577935576438904,0.291638046503067
11.997875452041626,-0.10204470902681351,-0.361829549074173,0.4797055125236511,0.08106355369091034,0.25463491678237915,0.291638046503067
12.017969131469727,-0.10204470902681351,-0.361829549074173,0.4800869822502136,0.08297093212604523,0.25272753834724426,0.291638046503067
12.038047790527344,-0.10204470902681351,-0.361829549074173,0.4800869822502136,0.08373387902975082,0.25120165944099426,0.291638046503067
12.058224439620972,-0.10204470902681351,-0.361829549074173,0.4800869822502136,0.08258945494890213,0.24929426610469818,0.291638046503067
12.078279733657837,-0.10204470902681351,-0.3622110188007355,0.4800869822502136,0.08182650804519653,0.24891279637813568,0.291638046503067
12.098299264907837,-0.10204470902681351,-0.36411839723587036,0.4797055125236511,0.08068207651376724,0.24929426610469818,0.291638046503067
12.118388652801514,-0.10204470902681351,-0.36488136649131775,0.4797055125236511,0.08068207651376724,0.2504386901855469,0.291638046503067
12.13849401473999,-0.10204470902681351,-0.36526283621788025,0.4797055125236511,0.08106355369091034,0.25196459889411926,0.291638046503067
12.15860366821289,-0.10204470902681351,-0.36488136649131775,0.4800869822502136,0.08144503086805344,0.25196459889411926,0.291638046503067
12.178654670715332,-0.10204470902681351,-0.36488136649131775,0.4800869822502136,0.08182650804519653,0.25196459889411926,0.291638046503067
12.198790073394775,-0.10204470902681351,-0.36526283621788025,0.4800869822502136,0.08182650804519653,0.25196459889411926,0.291638046503067
12.218824863433838,-0.10204470902681351,-0.36526283621788025,0.4800869822502136,0.08182650804519653,0.25196459889411926,0.291638046503067
12.238869190216064,-0.10204470902681351,-0.36640727519989014,0.4800869822502136,0.08144503086805344,0.25196459889411926,0.291638046503067
12.259322166442871,-0.10204470902681351,-0.36717021465301514,0.4800869822502136,0.08144503086805344,0.25196459889411926,0.291638046503067
12.279485940933228,-0.10204470902681351,-0.36907759308815,0.4800869822502136,0.08144503086805344,0.25120165944099426,0.291638046503067
12.299606561660767,-0.10204470902681351,-0.36907759308815,0.4797055125236511,0.08144503086805344,0.2508201599121094,0.291638046503067
12.319580316543579,-0.10204470902681351,-0.36907759308815,0.4797055125236511,0.08106355369091034,0.2508201599121094,0.291638046503067
12.33974838256836,-0.10204470902681351,-0.36907759308815,0.4797055125236511,0.08106355369091034,0.2508201599121094,0.291638046503067
12.359852075576782,-0.10204470902681351,-0.36907759308815,0.4800869822502136,0.08144503086805344,0.25120165944099426,0.291638046503067
12.379912376403809,-0.10204470902681351,-0.3694590628147125,0.4800869822502136,0.08144503086805344,0.25158312916755676,0.291638046503067
12.400012016296387,-0.10204470902681351,-0.3702220320701599,0.4800869822502136,0.08144503086805344,0.25158312916755676,0.291638046503067
12.420061111450195,-0.10204470902681351,-0.3713664412498474,0.4800869822502136,0.08144503086805344,0.25196459889411926,0.291638046503067
12.440128326416016,-0.10204470902681351,-0.3725108802318573,0.4800869822502136,0.08106355369091034,0.25158312916755676,0.291638046503067
12.460193872451782,-0.10204470902681351,-0.3732738196849823,0.4800869822502136,0.08106355369091034,0.25120165944099426,0.291638046503067
12.480288982391357,-0.10204470902681351,-0.3747997283935547,0.4800869822502136,0.08106355369091034,0.25120165944099426,0.291638046503067
12.500422239303589,-0.10204470902681351,-0.3751811981201172,0.4800869822502136,0.08106355369091034,0.2508201599121094,0.291638046503067
12.52048110961914,-0.10204470902681351,-0.3763256371021271,0.4800869822502136,0.08106355369091034,0.2504386901855469,0.291638046503067
12.540541887283325,-0.10204470902681351,-0.3763256371021271,0.4800869822502136,0.08106355369091034,0.2504386901855469,0.291638046503067
12.56097149848938,-0.10204470902681351,-0.3763256371021271,0.4800869822502136,0.08106355369091034,0.2504386901855469,0.291638046503067
12.581091165542603,-0.10204470902681351,-0.3763256371021271,0.4800869822502136,0.08106355369091034,0.2508201599121094,0.291638046503067
12.601241827011108,-0.10204470902681351,-0.3763256371021271,0.4800869822502136,0.08106355369091034,0.2508201599121094,0.291638046503067
12.62133502960205,-0.10204470902681351,-0.3763256371021271,0.4800869822502136,0.08106355369091034,0.25120165944099426,0.291638046503067
12.641407489776611,-0.10204470902681351,-0.3770885765552521,0.4800869822502136,0.08106355369091034,0.25120165944099426,0.291638046503067
12.66153860092163,-0.10204470902681351,-0.3770885765552521,0.4800869822502136,0.08106355369091034,0.2508201599121094,0.291638046503067
12.68161654472351,-0.10204470902681351,-0.3774700462818146,0.4800869822502136,0.08106355369091034,0.2508201599121094,0.291638046503067
12.701652765274048,-0.10204470902681351,-0.37823301553726196,0.4800869822502136,0.08106355369091034,0.2508201599121094,0.291638046503067
12.721729278564453,-0.10204470902681351,-0.37861448526382446,0.4800869822502136,0.08106355369091034,0.2504386901855469,0.291638046503067
12.74185299873352,-0.10204470902681351,-0.37937742471694946,0.4800869822502136,0.08068207651376724,0.2504386901855469,0.291638046503067
12.761889457702637,-0.10204470902681351,-0.37975889444351196,0.4800869822502136,0.08068207651376724,0.2508201599121094,0.291638046503067
12.781935930252075,-0.10204470902681351,-0.38052186369895935,0.4800869822502136,0.08068207651376724,0.2508201599121094,0.291638046503067
12.802024364471436,-0.10204470902681351,-0.38166627287864685,0.4800869822502136,0.08068207651376724,0.2508201599121094,0.291638046503067
12.822169542312622,-0.10204470902681351,-0.38281071186065674,0.4800869822502136,0.08068207651376724,0.2508201599121094,0.291638046503067
12.842207908630371,-0.10204470902681351,-0.38357365131378174,0.4800869822502136,0.08068207651376724,0.2504386901855469,0.291638046503067
12.862281322479248,-0.10204470902681351,-0.3843366205692291,0.4800869822502136,0.08030059933662415,0.2504386901855469,0.291638046503067
12.882422685623169,-0.10204470902681351,-0.3847180902957916,0.4800869822502136,0.07991912961006165,0.2500572204589844,0.291638046503067
12.902508974075317,-0.10204470902681351,-0.3850995600223541,0.4800869822502136,0.07991912961006165,0.24967575073242188,0.291638046503067
12.922597646713257,-0.10204470902681351,-0.3854810297489166,0.4800869822502136,0.07991912961006165,0.24967575073242188,0.291638046503067
12.94275712966919,-0.10204470902681351,-0.3854810297489166,0.4800869822502136,0.08030059933662415,0.2500572204589844,0.291638046503067
12.962761402130127,-0.10204470902681351,-0.3866254687309265,0.4800869822502136,0.08030059933662415,0.24967575073242188,0.291638046503067
12.983041524887085,-0.10204470902681351,-0.3877699077129364,0.4800869822502136,0.07991912961006165,0.2500572204589844,0.291638046503067
13.003053903579712,-0.10204470902681351,-0.3889143168926239,0.4804684519767761,0.07991912961006165,0.24967575073242188,0.291638046503067
13.023147344589233,-0.10204470902681351,-0.3908216953277588,0.4804684519767761,0.07991912961006165,0.2500572204589844,0.291638046503067
13.043320417404175,-0.10204470902681351,-0.3915846347808838,0.4800869822502136,0.07953765243291855,0.24967575073242188,0.291638046503067
13.06335973739624,-0.10204470902681351,-0.3915846347808838,0.4800869822502136,0.07915617525577545,0.24891279637813568,0.291638046503067
13.083400964736938,-0.10204470902681351,-0.3915846347808838,0.4800869822502136,0.07953765243291855,0.2481498420238495,0.291638046503067
13.103486776351929,-0.10204470902681351,-0.3915846347808838,0.4804684519767761,0.07953765243291855,0.247768372297287,0.291638046503067
13.12354326248169,-0.10204470902681351,-0.3915846347808838,0.4804684519767761,0.07953765243291855,0.247768372297287,0.291638046503067
13.143733501434326,-0.10204470902681351,-0.3915846347808838,0.4804684519767761,0.07953765243291855,0.247768372297287,0.291638046503067
13.163724660873413,-0.10204470902681351,-0.3919661343097687,0.4808499217033386,0.07953765243291855,0.247768372297287,0.291638046503067
13.183852672576904,-0.10204470902681351,-0.3927290737628937,0.4808499217033386,0.07953765243291855,0.247768372297287,0.291638046503067
13.20390248298645,-0.10204470902681351,-0.39387351274490356,0.4808499217033386,0.07953765243291855,0.247768372297287,0.291638046503067
13.223991870880127,-0.10204470902681351,-0.39387351274490356,0.4804684519767761,0.07953765243291855,0.247768372297287,0.291638046503067
13.244018793106079,-0.10204470902681351,-0.39425498247146606,0.4804684519767761,0.07953765243291855,0.247768372297287,0.291638046503067
13.264098882675171,-0.10204470902681351,-0.39501792192459106,0.4804684519767761,0.07953765243291855,0.247768372297287,0.291638046503067
13.284164190292358,-0.10204470902681351,-0.39501792192459106,0.4808499217033386,0.07953765243291855,0.2473868876695633,0.291638046503067
13.304223537445068,-0.10204470902681351,-0.39578089118003845,0.4808499217033386,0.07953765243291855,0.2473868876695633,0.291638046503067
13.324323654174805,-0.10204470902681351,-0.39768826961517334,0.4808499217033386,0.07953765243291855,0.2473868876695633,0.291638046503067
13.344379186630249,-0.10204470902681351,-0.39845120906829834,0.4808499217033386,0.07953765243291855,0.247768372297287,0.291638046503067
13.364521265029907,-0.10204470902681351,-0.3999771177768707,0.4808499217033386,0.07915617525577545,0.247768372297287,0.291638046503067
13.384914875030518,-0.10204470902681351,-0.3999771177768707,0.4804684519767761,0.07915617525577545,0.2473868876695633,0.291638046503067
13.405003547668457,-0.10204470902681351,-0.4003585875034332,0.4808499217033386,0.07915617525577545,0.2473868876695633,0.291638046503067
13.425137758255005,-0.10204470902681351,-0.4003585875034332,0.4808499217033386,0.07915617525577545,0.2473868876695633,0.291638046503067
13.445201873779297,-0.10204470902681351,-0.4011215269565582,0.4808499217033386,0.07953765243291855,0.2473868876695633,0.291638046503067
13.465278625488281,-0.10204470902681351,-0.4011215269565582,0.4808499217033386,0.07953765243291855,0.2473868876695633,0.291638046503067
13.485342979431152,-0.10204470902681351,-0.4015030264854431,0.4808499217033386,0.07915617525577545,0.2473868876695633,0.291638046503067
13.505496263504028,-0.10204470902681351,-0.4026474356651306,0.4808499217033386,0.07915617525577545,0.2473868876695633,0.291638046503067
13.525525331497192,-0.10204470902681351,-0.4053177833557129,0.4808499217033386,0.07915617525577545,0.2473868876695633,0.291638046503067
13.545619487762451,-0.10204470902681351,-0.4060807228088379,0.4808499217033386,0.07915617525577545,0.2473868876695633,0.291638046503067
13.565738677978516,-0.10204470902681351,-0.4064621925354004,0.4808499217033386,0.07877469807863235,0.2470054179430008,0.291638046503067
13.585748195648193,-0.10204470902681351,-0.4064621925354004,0.4808499217033386,0.07839322835206985,0.2466239482164383,0.291638046503067
13.605948209762573,-0.10204470902681351,-0.4064621925354004,0.4808499217033386,0.07915617525577545,0.2462424635887146,0.291638046503067
13.626051187515259,-0.10204470902681351,-0.4064621925354004,0.4808499217033386,0.07915617525577545,0.2462424635887146,0.291638046503067
13.64610767364502,-0.10204470902681351,-0.4064621925354004,0.4808499217033386,0.07915617525577545,0.2458609938621521,0.291638046503067
13.666157245635986,-0.10204470902681351,-0.4064621925354004,0.4808499217033386,0.07915617525577545,0.2462424635887146,0.291638046503067
13.686262845993042,-0.10204470902681351,-0.4076066315174103,0.4808499217033386,0.07877469807863235,0.2462424635887146,0.291638046503067
13.706322431564331,-0.10204470902681351,-0.40951400995254517,0.4808499217033386,0.07915617525577545,0.2466239482164383,0.291638046503067
13.726421117782593,-0.10204470902681351,-0.41027694940567017,0.4808499217033386,0.07915617525577545,0.2466239482164383,0.291638046503067
13.74645447731018,-0.10204470902681351,-0.41065841913223267,0.4808499217033386,0.07877469807863235,0.2462424635887146,0.291638046503067
13.766542911529541,-0.10204470902681351,-0.41065841913223267,0.4808499217033386,0.07839322835206985,0.2454795092344284,0.291638046503067
13.786606073379517,-0.10204470902681351,-0.41065841913223267,0.4808499217033386,0.07877469807863235,0.2450980395078659,0.291638046503067
13.806679248809814,-0.10204470902681351,-0.41065841913223267,0.4808499217033386,0.07877469807863235,0.2447165697813034,0.291638046503067
13.82679557800293,-0.10204470902681351,-0.41065841913223267,0.4808499217033386,0.07915617525577545,0.2447165697813034,0.291638046503067
13.846880197525024,-0.10204470902681351,-0.41142138838768005,0.4808499217033386,0.07877469807863235,0.2443350851535797,0.291638046503067
13.866954565048218,-0.10204470902681351,-0.41256579756736755,0.4808499217033386,0.07877469807863235,0.2443350851535797,0.291638046503067
13.887030363082886,-0.10204470902681351,-0.41332876682281494,0.4808499217033386,0.07877469807863235,0.2443350851535797,0.291638046503067
13.907055616378784,-0.10204470902681351,-0.41485464572906494,0.4808499217033386,0.07877469807863235,0.2443350851535797,0.291638046503067
13.927123308181763,-0.10204470902681351,-0.41523614525794983,0.4808499217033386,0.07877469807863235,0.2443350851535797,0.291638046503067
13.947194337844849,-0.10204470902681351,-0.41599908471107483,0.4808499217033386,0.07877469807863235,0.2443350851535797,0.291638046503067
13.967359066009521,-0.10204470902681351,-0.41676202416419983,0.4808499217033386,0.07877469807863235,0.2439536154270172,0.291638046503067
13.987449407577515,-0.10204470902681351,-0.41676202416419983,0.4808499217033386,0.07877469807863235,0.2439536154270172,0.291638046503067
14.007527828216553,-0.10204470902681351,-0.4171435236930847,0.4808499217033386,0.07877469807863235,0.2439536154270172,0.291638046503067
14.0275719165802,-0.10204470902681351,-0.4175249934196472,0.4808499217033386,0.07877469807863235,0.2439536154270172,0.291638046503067
14.047651767730713,-0.10204470902681351,-0.4182879328727722,0.4808499217033386,0.07877469807863235,0.2439536154270172,0.291638046503067
14.06771445274353,-0.10204470902681351,-0.4201953113079071,0.4808499217033386,0.07915617525577545,0.2439536154270172,0.291638046503067
14.087831974029541,-0.10204470902681351,-0.4209582805633545,0.4808499217033386,0.07877469807863235,0.2439536154270172,0.291638046503067
14.10784649848938,-0.10204470902681351,-0.421339750289917,0.4808499217033386,0.07839322835206985,0.24357213079929352,0.291638046503067
14.127937078475952,-0.10204470902681351,-0.4224841594696045,0.4808499217033386,0.07801175117492676,0.24357213079929352,0.291638046503067
14.148022651672363,-0.10204470902681351,-0.4232471287250519,0.4808499217033386,0.07839322835206985,0.24357213079929352,0.291638046503067
14.168083429336548,-0.10204470902681351,-0.4232471287250519,0.4808499217033386,0.07877469807863235,0.24357213079929352,0.291638046503067
14.1881263256073,-0.10204470902681351,-0.4232471287250519,0.4808499217033386,0.07877469807863235,0.24357213079929352,0.291638046503067
14.208219766616821,-0.10204470902681351,-0.4232471287250519,0.4808499217033386,0.07839322835206985,0.24357213079929352,0.291638046503067
14.228291749954224,-0.10204470902681351,-0.4247730076313019,0.4808499217033386,0.07839322835206985,0.24357213079929352,0.291638046503067
14.248359680175781,-0.10204470902681351,-0.42515450716018677,0.4808499217033386,0.07877469807863235,0.24357213079929352,0.291638046503067
