liuyurong129/humanoid-gym/humanoid/data/actual_q_20250522-040447.csv
timestamp,joint_1,joint_2,joint_3,joint_4,joint_5,joint_6
6.151199340820312e-05,-0.00019073777366429567,0.002861066721379757,-0.0013351644156500697,-0.00019073777366429567,0.00019073777366429567,-0.00019073777366429567
0.020135164260864258,-0.00019073777366429567,0.0020981156267225742,-0.0013351644156500697,-0.00019073777366429567,0.00019073777366429567,-0.00019073777366429567
0.04024815559387207,-0.00019073777366429567,0.001716639962978661,-0.0013351644156500697,-0.00019073777366429567,0.00019073777366429567,-0.00019073777366429567
0.06032562255859375,-0.00019073777366429567,0.001716639962978661,-0.0013351644156500697,-0.00019073777366429567,0.00019073777366429567,-0.00019073777366429567
0.08042097091674805,-0.00019073777366429567,0.001716639962978661,-0.0013351644156500697,-0.00019073777366429567,-0.00019073777366429567,-0.00019073777366429567
0.10048627853393555,-0.00019073777366429567,0.0009536888683214784,-0.0009536888683214784,-0.00019073777366429567,-0.00019073777366429567,-0.00019073777366429567
0.12059640884399414,0.000572213320992887,-0.01125352829694748,0.007057297509163618,-0.00019073777366429567,-0.00019073777366429567,-0.00019073777366429567
0.14071893692016602,0.0024795911740511656,-0.029182879254221916,0.019645990803837776,0.00019073777366429567,-0.0013351644156500697,-0.000572213320992887
0.16085076332092285,0.004005493130534887,-0.051689937710762024,0.03528648987412453,0.0009536888683214784,-0.0013351644156500697,-0.0013351644156500697
0.18098020553588867,0.00476844422519207,-0.07457847148180008,0.05054550990462303,0.0024795911740511656,-0.001716639962978661,-0.0024795911740511656
0.20109343528747559,0.005531395319849253,-0.09899290651082993,0.071908138692379,0.004386968910694122,-0.0024795911740511656,-0.0032425422687083483
0.22117400169372559,0.007057297509163618,-0.12417028844356537,0.09021896868944168,0.00667582219466567,-0.004005493130534887,-0.0036240178160369396
0.2412586212158203,0.008201723918318748,-0.15506981313228607,0.11501488089561462,0.009346150793135166,-0.005531395319849253,-0.004386968910694122
0.261333703994751,0.009346150793135166,-0.1844434291124344,0.14057374000549316,0.012779430486261845,-0.008964675478637218,-0.005912871100008488
0.28139591217041016,0.010490577667951584,-0.2157244235277176,0.1684214472770691,0.016975661739706993,-0.01125352829694748,-0.006294346414506435
0.3014800548553467,0.01201647985726595,-0.24891279637813568,0.20313572883605957,0.021171892061829567,-0.01430533267557621,-0.00667582219466567
0.321549654006958,0.013923857361078262,-0.2809567451477051,0.23479819297790527,0.02536812424659729,-0.01926451548933983,-0.007057297509163618
0.3418118953704834,0.01506828423589468,-0.31376364827156067,0.26989394426345825,0.02841992862522602,-0.02193484455347061,-0.007438773289322853
0.3619234561920166,0.016975661739706993,-0.34580758213996887,0.30308231711387634,0.03452353551983833,-0.02536812424659729,-0.008201723918318748
0.38200926780700684,0.018501564860343933,-0.3770885765552521,0.3377965986728668,0.038719769567251205,-0.029564354568719864,-0.00858320016413927
0.402097225189209,0.02079041674733162,-0.41065841913223267,0.3755626678466797,0.04444190114736557,-0.03185320645570755,-0.010109102353453636
0.4222393035888672,0.022697795182466507,-0.44575417041778564,0.41218432784080505,0.049782559275627136,-0.035667963325977325,-0.011635004542768002
0.44291019439697266,0.024605173617601395,-0.483138769865036,0.4537651538848877,0.05436026677489281,-0.039101243019104004,-0.012779430486261845
0.46300506591796875,0.02689402550458908,-0.5189974904060364,0.49496451020240784,0.061226826161146164,-0.04444190114736557,-0.013923857361078262
0.4830598831176758,0.029182879254221916,-0.5567635893821716,0.5331120491027832,0.06427863240242004,-0.04634927958250046,-0.01430533267557621
0.5031406879425049,0.03147173300385475,-0.5956740379333496,0.578507661819458,0.0711451917886734,-0.048638131469488144,-0.01506828423589468
0.5232353210449219,0.03376058489084244,-0.6338216066360474,0.619325578212738,0.07534141838550568,-0.05207141116261482,-0.016212711110711098
0.5433416366577148,0.03490501269698143,-0.6704432964324951,0.6582360863685608,0.08373387902975082,-0.0551232174038887,-0.016975661739706993
0.5634629726409912,0.03643091395497322,-0.7082093358039856,0.6979095339775085,0.08945601433515549,-0.058175019919872284,-0.018501564860343933
0.5835380554199219,0.03757534176111221,-0.7467383742332458,0.7322422862052917,0.09594109654426575,-0.06084534898400307,-0.02040894143283367
0.6036062240600586,0.039101243019104004,-0.7829785346984863,0.7673380374908447,0.1024261862039566,-0.06046387553215027,-0.02193484455347061
0.6237390041351318,0.0398641936480999,-0.8150225281715393,0.7986190319061279,0.10700388997793198,-0.06160829961299896,-0.023079270496964455
0.6438264846801758,0.040245670825242996,-0.8470664620399475,0.8245593905448914,0.11272602528333664,-0.06580453366041183,-0.02384222112596035
0.6638715267181396,0.04139009863138199,-0.8802548050880432,0.8508812189102173,0.11730372905731201,-0.06923781335353851,-0.025749599561095238
0.6839709281921387,0.042153049260377884,-0.9088655114173889,0.8695735335350037,0.12302586436271667,-0.06961929053068161,-0.02689402550458908
0.7040824890136719,0.04329747334122658,-0.9363317489624023,0.8855955004692078,0.12989242374897003,-0.0722896158695221,-0.02994582988321781
0.7242181301116943,0.04406042397022247,-0.9618905782699585,0.8962767720222473,0.1371404528617859,-0.07724879682064056,-0.030708782374858856
0.744286298751831,0.04444190114736557,-0.9809643626213074,0.8993285894393921,0.14362554252147675,-0.07839322835206985,-0.03299763426184654
0.7643570899963379,0.04558632895350456,-1.0000381469726562,0.8981841802597046,0.152399480342865,-0.08144503086805344,-0.034142062067985535
0.7844822406768799,0.04711223021149635,-1.0145342350006104,0.8943694233894348,0.16193637251853943,-0.08564125746488571,-0.03643091395497322
0.8045914173126221,0.04901960864663124,-1.0210193395614624,0.8894102573394775,0.17376211285591125,-0.09136339277029037,-0.0394827201962471
0.8246316909790039,0.05130846053361893,-1.02216374874115,0.881780743598938,0.18902114033699036,-0.1031891331076622,-0.04177157208323479
0.8447091579437256,0.05436026677489281,-1.0183489322662354,0.8756771087646484,0.20466163754463196,-0.10929274559020996,-0.04558632895350456
0.864797830581665,0.058175019919872284,-1.0076676607131958,0.8722438216209412,0.22220951318740845,-0.11615930497646332,-0.05054550990462303
0.8848972320556641,0.061226826161146164,-0.9908827543258667,0.8691920638084412,0.23899443447589874,-0.12226291000843048,-0.054741740226745605
0.904982328414917,0.06389715522527695,-0.9737163186073303,0.8676661252975464,0.25501641631126404,-0.1329442262649536,-0.06046387553215027
0.9256246089935303,0.06656748056411743,-0.9546425342559814,0.8676661252975464,0.2756160795688629,-0.14324407279491425,-0.06694895774126053
0.945765495300293,0.06847485899925232,-0.9378576278686523,0.8672846555709839,0.28973066806793213,-0.15316243469715118,-0.07305257022380829
0.9658102989196777,0.07038223743438721,-0.927176296710968,0.8669031858444214,0.30308231711387634,-0.15774014592170715,-0.07991912961006165
0.9861218929290771,0.0707637146115303,-0.9206912517547607,0.8657587766647339,0.31719690561294556,-0.1665140837430954,-0.0875486359000206
1.0062141418457031,0.0707637146115303,-0.9157320261001587,0.8634698987007141,0.33283740282058716,-0.17605096101760864,-0.09479667246341705
1.0262596607208252,0.0707637146115303,-0.9149690866470337,0.8611810207366943,0.34695202112197876,-0.18787670135498047,-0.10166323184967041
1.0463547706604004,0.0707637146115303,-0.9149690866470337,0.8585107326507568,0.3622110188007355,-0.20275425910949707,-0.10852979123592377
1.0664455890655518,0.0707637146115303,-0.9142061471939087,0.8554589152336121,0.3767071068286896,-0.21725031733512878,-0.11425192654132843
1.0864882469177246,0.07038223743438721,-0.9126802682876587,0.8535515666007996,0.3877699077129364,-0.2294575423002243,-0.1199740618467331
1.1065731048583984,0.07038223743438721,-0.9100099205970764,0.8543145060539246,0.39463645219802856,-0.23594263195991516,-0.12531471252441406
1.1267175674438477,0.07038223743438721,-0.9061951637268066,0.8566033244132996,0.39806973934173584,-0.23556114733219147,-0.13141833245754242
1.14683198928833,0.0707637146115303,-0.9027618765830994,0.8596551418304443,0.4022659659385681,-0.23556114733219147,-0.13752193748950958
1.1669206619262695,0.0707637146115303,-0.9004730582237244,0.8611810207366943,0.4053177833557129,-0.23479819297790527,-0.14324407279491425
1.1869819164276123,0.0722896158695221,-0.8997100591659546,0.8607995510101318,0.41065841913223267,-0.23517967760562897,-0.14820325374603271
1.207308292388916,0.07305257022380829,-0.9000915288925171,0.8607995510101318,0.4182879328727722,-0.23823148012161255,-0.1527809500694275
1.2275128364562988,0.07343403995037079,-0.9008545279502869,0.8607995510101318,0.4243915379047394,-0.24090181291103363,-0.15659570693969727
1.2475550174713135,0.07343403995037079,-0.9012359976768494,0.8607995510101318,0.42935073375701904,-0.2473868876695633,-0.16117341816425323
1.2676832675933838,0.07343403995037079,-0.9008545279502869,0.8611810207366943,0.4339284300804138,-0.25272753834724426,-0.1657511293888092
1.287735939025879,0.07343403995037079,-0.9004730582237244,0.8630884289741516,0.4362172782421112,-0.2569237947463989,-0.16918440163135529
1.307807445526123,0.07267109304666519,-0.9000915288925171,0.8646143078804016,0.4381246566772461,-0.2584496736526489,-0.17299915850162506
1.3278870582580566,0.07267109304666519,-0.8997100591659546,0.8661402463912964,0.44079500436782837,-0.2588311731815338,-0.17490653693675995
1.3480141162872314,0.07267109304666519,-0.8997100591659546,0.8665217161178589,0.44308385252952576,-0.2588311731815338,-0.17910276353359222
1.3680922985076904,0.07267109304666519,-0.9000915288925171,0.8669031858444214,0.44537270069122314,-0.2592126429080963,-0.182917520403862
1.3882725238800049,0.07343403995037079,-0.9000915288925171,0.8676661252975464,0.4484245181083679,-0.2588311731815338,-0.18596932291984558
1.4083528518676758,0.07343403995037079,-0.9004730582237244,0.8684290647506714,0.4499503970146179,-0.2588311731815338,-0.18902114033699036
1.4287400245666504,0.07381551712751389,-0.9004730582237244,0.8691920638084412,0.4503318965435028,-0.2584496736526489,-0.19130998849868774
1.4488191604614258,0.07381551712751389,-0.9004730582237244,0.8703364729881287,0.4522392749786377,-0.2588311731815338,-0.19245441257953644
1.4688897132873535,0.07343403995037079,-0.9000915288925171,0.8703364729881287,0.4522392749786377,-0.2584496736526489,-0.19321736693382263
1.4889979362487793,0.07381551712751389,-0.9004730582237244,0.8710994124412537,0.4530022144317627,-0.2595941126346588,-0.19550621509552002
1.509108304977417,0.07381551712751389,-0.9012359976768494,0.8726252913475037,0.4560540020465851,-0.2607385218143463,-0.1981765478849411
1.5297572612762451,0.07495994865894318,-0.9023804068565369,0.8741512298583984,0.45796138048171997,-0.2607385218143463,-0.200083926320076
1.5499000549316406,0.07534141838550568,-0.9023804068565369,0.8752956390380859,0.46139466762542725,-0.2595941126346588,-0.20351719856262207
1.5699207782745361,0.07572289556264877,-0.9023804068565369,0.8764400482177734,0.46330204606056213,-0.2584496736526489,-0.20733195543289185
1.5900094509124756,0.07572289556264877,-0.9023804068565369,0.8775845170021057,0.4648279547691345,-0.2584496736526489,-0.21000228822231293
1.610215187072754,0.07572289556264877,-0.9023804068565369,0.8783474564552307,0.4655908942222595,-0.2569237947463989,-0.21229113638401031
1.6302835941314697,0.07572289556264877,-0.9023804068565369,0.8794918656349182,0.4690241813659668,-0.2580682039260864,-0.2161058932542801
1.650503396987915,0.07572289556264877,-0.9031433463096619,0.8798733353614807,0.4705500900745392,-0.2580682039260864,-0.21763180196285248
1.6707658767700195,0.07572289556264877,-0.9031433463096619,0.8806362748146057,0.4720759987831116,-0.2580682039260864,-0.22068360447883606
1.690885066986084,0.07572289556264877,-0.9035248160362244,0.881017804145813,0.4728389382362366,-0.2580682039260864,-0.22411687672138214
1.7109301090240479,0.07572289556264877,-0.9035248160362244,0.8813992738723755,0.47474631667137146,-0.2573052644729614,-0.22602425515651703
1.7310597896575928,0.07572289556264877,-0.9035248160362244,0.8821622133255005,0.47627222537994385,-0.25654229521751404,-0.230601966381073
1.7511632442474365,0.07572289556264877,-0.9042877554893494,0.8829251527786255,0.47817960381507874,-0.25577935576438904,-0.23441672325134277
1.771195888519287,0.07572289556264877,-0.9046692848205566,0.883306622505188,0.47894254326820374,-0.25425344705581665,-0.23556114733219147
1.7912838459014893,0.07572289556264877,-0.9046692848205566,0.8836880922317505,0.4800869822502136,-0.25501641631126404,-0.23785001039505005
1.81136155128479,0.07572289556264877,-0.9054322242736816,0.8836880922317505,0.4819943606853485,-0.25501641631126404,-0.24013885855674744
1.8318202495574951,0.07572289556264877,-0.9058136940002441,0.8836880922317505,0.483138769865036,-0.25463491678237915,-0.24166475236415863
1.8519067764282227,0.07610437273979187,-0.9061951637268066,0.8844510316848755,0.4854276478290558,-0.25463491678237915,-0.2439536154270172
1.871976613998413,0.07724879682064056,-0.9065766334533691,0.8852140307426453,0.4873350262641907,-0.25463491678237915,-0.2450980395078659
1.8923430442810059,0.07763027399778366,-0.9061951637268066,0.8859769701957703,0.4892423748970032,-0.25425344705581665,-0.247768372297287
1.9124670028686523,0.07763027399778366,-0.9061951637268066,0.8863584399223328,0.49000534415245056,-0.25234606862068176,-0.2500572204589844
1.932523250579834,0.07763027399778366,-0.9061951637268066,0.8871213793754578,0.49038681387901306,-0.2508201599121094,-0.25158312916755676
1.952620506286621,0.07763027399778366,-0.9061951637268066,0.8875028491020203,0.49191272258758545,-0.2504386901855469,-0.25387197732925415
1.9727072715759277,0.07763027399778366,-0.9061951637268066,0.8878843188285828,0.49458304047584534,-0.2504386901855469,-0.2573052644729614
1.992812156677246,0.07763027399778366,-0.9061951637268066,0.8878843188285828,0.4953460097312927,-0.2504386901855469,-0.2595941126346588
2.0130364894866943,0.07763027399778366,-0.9065766334533691,0.8878843188285828,0.4972533881664276,-0.2504386901855469,-0.2618829607963562
2.03309965133667,0.07763027399778366,-0.9061951637268066,0.8878843188285828,0.4983977973461151,-0.24967575073242188,-0.2637903392314911
2.053104877471924,0.07763027399778366,-0.9065766334533691,0.8878843188285828,0.4991607666015625,-0.24891279637813568,-0.2660791873931885
2.0731801986694336,0.07763027399778366,-0.9065766334533691,0.8878843188285828,0.5006866455078125,-0.2470054179430008,-0.26836803555488586
2.0932416915893555,0.07763027399778366,-0.9065766334533691,0.8878843188285828,0.5022125840187073,-0.2454795092344284,-0.27065691351890564
2.1133694648742676,0.07763027399778366,-0.9065766334533691,0.8882657885551453,0.5037384629249573,-0.24357213079929352,-0.27218279242515564
2.1334691047668457,0.07763027399778366,-0.9065766334533691,0.8886472582817078,0.5048828721046448,-0.24319066107273102,-0.2740901708602905
2.153498888015747,0.07763027399778366,-0.9065766334533691,0.889028787612915,0.5064088106155396,-0.24319066107273102,-0.2759975492954254
2.17360520362854,0.07763027399778366,-0.9065766334533691,0.889028787612915,0.507553219795227,-0.24242770671844482,-0.2779049277305603
2.193647861480713,0.07763027399778366,-0.9065766334533691,0.889028787612915,0.509079098701477,-0.24242770671844482,-0.2794308364391327
2.2137370109558105,0.07763027399778366,-0.9065766334533691,0.889028787612915,0.5106050372123718,-0.24242770671844482,-0.2821011543273926
2.2337965965270996,0.07763027399778366,-0.9073395729064941,0.889028787612915,0.5132753252983093,-0.24128328263759613,-0.28553444147109985
2.2538888454437256,0.07763027399778366,-0.9073395729064941,0.889028787612915,0.5159456729888916,-0.23937590420246124,-0.28744181990623474
2.273996114730835,0.07763027399778366,-0.9077210426330566,0.889028787612915,0.5170900821685791,-0.23823148012161255,-0.28973066806793213
2.2940471172332764,0.07763027399778366,-0.9077210426330566,0.889028787612915,0.5186160206794739,-0.23708705604076385,-0.2924010157585144
2.3141870498657227,0.07763027399778366,-0.9077210426330566,0.889028787612915,0.5205233693122864,-0.23556114733219147,-0.2946898639202118
2.3342432975769043,0.07763027399778366,-0.9073395729064941,0.889028787612915,0.5205233693122864,-0.23517967760562897,-0.2962157726287842
2.3543736934661865,0.07763027399778366,-0.9073395729064941,0.889028787612915,0.5220493078231812,-0.23517967760562897,-0.2969787120819092
2.3744587898254395,0.07763027399778366,-0.9073395729064941,0.889028787612915,0.5239566564559937,-0.23556114733219147,-0.29926756024360657
2.3945298194885254,0.07724879682064056,-0.9073395729064941,0.889028787612915,0.5251010656356812,-0.23556114733219147,-0.30155640840530396
2.4146149158477783,0.07686731964349747,-0.9073395729064941,0.889028787612915,0.5258640646934509,-0.23517967760562897,-0.30346378684043884
2.434715509414673,0.07648584991693497,-0.9073395729064941,0.889028787612915,0.5277714133262634,-0.23441672325134277,-0.30498969554901123
2.4549849033355713,0.07648584991693497,-0.9073395729064941,0.889028787612915,0.5296788215637207,-0.23327229917049408,-0.3072785437107086
2.475085735321045,0.07534141838550568,-0.9073395729064941,0.889028787612915,0.5315861701965332,-0.2313649207353592,-0.3107118308544159
2.4951629638671875,0.07534141838550568,-0.9073395729064941,0.889028787612915,0.5323491096496582,-0.230601966381073,-0.3126192092895508
2.5152742862701416,0.07534141838550568,-0.9073395729064941,0.889028787612915,0.5331120491027832,-0.2298390120267868,-0.31376364827156067
2.5353646278381348,0.07534141838550568,-0.9073395729064941,0.889028787612915,0.534637987613678,-0.2286945879459381,-0.31567102670669556
2.555420160293579,0.07534141838550568,-0.9073395729064941,0.889028787612915,0.535400927066803,-0.22793163359165192,-0.31643396615982056
2.5755109786987305,0.07534141838550568,-0.9073395729064941,0.8886472582817078,0.536926805973053,-0.22716869413852692,-0.31986725330352783
2.595602512359619,0.07534141838550568,-0.9073395729064941,0.8882657885551453,0.5388342142105103,-0.22602425515651703,-0.3221561014652252
2.615654230117798,0.07534141838550568,-0.9073395729064941,0.8878843188285828,0.5407415628433228,-0.22449836134910583,-0.3233005404472351
2.635770320892334,0.07495994865894318,-0.9073395729064941,0.8875028491020203,0.543411910533905,-0.22449836134910583,-0.3263523280620575
2.655858278274536,0.07457847148180008,-0.9073395729064941,0.8871213793754578,0.5460822582244873,-0.22335393726825714,-0.3290226459503174
2.6759424209594727,0.07419699430465698,-0.9073395729064941,0.8867399096488953,0.5479896068572998,-0.22220951318740845,-0.33093002438545227
2.6960372924804688,0.07343403995037079,-0.9073395729064941,0.8867399096488953,0.5502784848213196,-0.22068360447883606,-0.33360037207603455
2.716456174850464,0.07343403995037079,-0.9073395729064941,0.8867399096488953,0.5510414242744446,-0.21915769577026367,-0.33665215969085693
2.7366158962249756,0.07343403995037079,-0.9073395729064941,0.8867399096488953,0.5521858334541321,-0.21801327168941498,-0.3385595381259918
2.7566792964935303,0.07343403995037079,-0.9073395729064941,0.8867399096488953,0.5540932416915894,-0.21648737788200378,-0.3408484160900116
2.7767534255981445,0.07343403995037079,-0.9073395729064941,0.8855955004692078,0.5548561811447144,-0.2153429538011551,-0.3427557647228241
2.7968392372131348,0.07343403995037079,-0.9069581031799316,0.8848325610160828,0.5563820600509644,-0.2134355753660202,-0.34542611241340637
2.816892623901367,0.07343403995037079,-0.9069581031799316,0.8848325610160828,0.5582894682884216,-0.2134355753660202,-0.34657052159309387
2.837001085281372,0.07343403995037079,-0.9069581031799316,0.8848325610160828,0.5594338774681091,-0.2130540907382965,-0.34809643030166626
2.857088327407837,0.07343403995037079,-0.9069581031799316,0.8848325610160828,0.5609598159790039,-0.21229113638401031,-0.34885939955711365
2.877127170562744,0.07343403995037079,-0.9069581031799316,0.8848325610160828,0.5613412857055664,-0.21152819693088531,-0.34962233901023865
2.897214412689209,0.07343403995037079,-0.9065766334533691,0.8844510316848755,0.5621042251586914,-0.21038375794887543,-0.35152971744537354
2.9172909259796143,0.07305257022380829,-0.9065766334533691,0.8844510316848755,0.5624856948852539,-0.20962081849575043,-0.3530556261539459
2.937704563140869,0.07305257022380829,-0.9065766334533691,0.8836880922317505,0.5655375123023987,-0.20847637951374054,-0.3553444743156433
2.957796573638916,0.07267109304666519,-0.9065766334533691,0.882543683052063,0.5666819214820862,-0.20656901597976685,-0.3568703830242157
2.977907180786133,0.07267109304666519,-0.9065766334533691,0.8813992738723755,0.568970799446106,-0.20580606162548065,-0.3591592311859131
2.998116970062256,0.07267109304666519,-0.9065766334533691,0.8802548050880432,0.5701152086257935,-0.20542457699775696,-0.361829549074173
3.01822566986084,0.0722896158695221,-0.9065766334533691,0.8802548050880432,0.5731670260429382,-0.20580606162548065,-0.36449989676475525
3.0382628440856934,0.0722896158695221,-0.9065766334533691,0.8794918656349182,0.5754558444023132,-0.20504310727119446,-0.36678874492645264
3.0583529472351074,0.0722896158695221,-0.9061951637268066,0.8794918656349182,0.5766003131866455,-0.20504310727119446,-0.368314653635025
3.078432321548462,0.071908138692379,-0.9065766334533691,0.8794918656349182,0.5773632526397705,-0.20351719856262207,-0.3713664412498474
3.0985207557678223,0.0715266615152359,-0.9065766334533691,0.8794918656349182,0.577744722366333,-0.20122835040092468,-0.3740367889404297
3.1186208724975586,0.0711451917886734,-0.9061951637268066,0.8794918656349182,0.579270601272583,-0.2004653960466385,-0.3747997283935547
3.1387009620666504,0.0707637146115303,-0.9061951637268066,0.8794918656349182,0.5807965397834778,-0.1993209719657898,-0.3751811981201172
3.1588642597198486,0.07038223743438721,-0.9061951637268066,0.8794918656349182,0.5827038884162903,-0.1981765478849411,-0.3767071068286896
3.179013729095459,0.07038223743438721,-0.9061951637268066,0.8794918656349182,0.5842298269271851,-0.1974135935306549,-0.37861448526382446
3.198983669281006,0.07038223743438721,-0.9061951637268066,0.8791103959083557,0.5849927663803101,-0.1966506391763687,-0.38014039397239685
3.2190699577331543,0.07038223743438721,-0.9061951637268066,0.8791103959083557,0.5861371755599976,-0.19474326074123383,-0.38204777240753174
3.239169120788574,0.07038223743438721,-0.9061951637268066,0.8783474564552307,0.5880445837974548,-0.19130998849868774,-0.38281071186065674
3.259248733520508,0.07038223743438721,-0.9061951637268066,0.8783474564552307,0.5895704627037048,-0.18978407979011536,-0.3843366205692291
3.279339075088501,0.07038223743438721,-0.9061951637268066,0.8775845170021057,0.5914778113365173,-0.18749523162841797,-0.386243999004364
3.2995376586914062,0.07000076025724411,-0.9061951637268066,0.8772030472755432,0.5918593406677246,-0.18558785319328308,-0.386243999004364
3.3195688724517822,0.06961929053068161,-0.9061951637268066,0.8772030472755432,0.5926222801208496,-0.1848248988389969,-0.3873884081840515
3.3397443294525146,0.06885633617639542,-0.9061951637268066,0.8764400482177734,0.5945296287536621,-0.1832990050315857,-0.3900587558746338
3.3597633838653564,0.06809338182210922,-0.9061951637268066,0.8764400482177734,0.5960555672645569,-0.1832990050315857,-0.3904402256011963
3.380091905593872,0.06809338182210922,-0.9061951637268066,0.8760585784912109,0.5975814461708069,-0.182917520403862,-0.3923476040363312
3.4002044200897217,0.06733043491840363,-0.9061951637268066,0.8752956390380859,0.5991073250770569,-0.1825360506772995,-0.3934920132160187
3.4202582836151123,0.06694895774126053,-0.9061951637268066,0.8745326995849609,0.6006332635879517,-0.182154580950737,-0.39501792192459106
3.440568447113037,0.06694895774126053,-0.9061951637268066,0.8741512298583984,0.6025406122207642,-0.1817730963230133,-0.39768826961517334
3.460723638534546,0.06694895774126053,-0.9061951637268066,0.8741512298583984,0.6036850810050964,-0.1806286722421646,-0.39845120906829834
3.4808390140533447,0.06694895774126053,-0.9058136940002441,0.8741512298583984,0.6052109599113464,-0.17757686972618103,-0.4007400572299957
3.5008606910705566,0.06694895774126053,-0.9054322242736816,0.8737697601318359,0.6067368388175964,-0.17490653693675995,-0.4018844962120056
3.5210115909576416,0.06656748056411743,-0.9046692848205566,0.8733882904052734,0.6067368388175964,-0.17376211285591125,-0.4030289053916931
3.541316270828247,0.06618601083755493,-0.9042877554893494,0.8730067610740662,0.6067368388175964,-0.17185473442077637,-0.404936283826828
3.5615813732147217,0.06580453366041183,-0.9042877554893494,0.8730067610740662,0.6071183085441589,-0.17185473442077637,-0.404936283826828
3.5818822383880615,0.06580453366041183,-0.9042877554893494,0.8730067610740662,0.6074998378753662,-0.17185473442077637,-0.4053177833557129
3.601970672607422,0.06542305648326874,-0.9042877554893494,0.8722438216209412,0.6086442470550537,-0.17185473442077637,-0.4056992530822754
3.622040271759033,0.06504157930612564,-0.9042877554893494,0.8722438216209412,0.6101701259613037,-0.17185473442077637,-0.4076066315174103
3.6421709060668945,0.06504157930612564,-0.9042877554893494,0.8718623518943787,0.6105515956878662,-0.17109178006649017,-0.4087510406970978
3.6622157096862793,0.06504157930612564,-0.9042877554893494,0.8710994124412537,0.6113145351409912,-0.16918440163135529,-0.41027694940567017
3.6823225021362305,0.06504157930612564,-0.9042877554893494,0.8703364729881287,0.613603413105011,-0.1661325991153717,-0.41256579756736755
3.7025630474090576,0.06504157930612564,-0.9042877554893494,0.8699550032615662,0.6155108213424683,-0.1653696447610855,-0.41371023654937744
3.722694158554077,0.06504157930612564,-0.9042877554893494,0.8699550032615662,0.6181811094284058,-0.16422522068023682,-0.41561761498451233
3.744187831878662,0.06504157930612564,-0.9042877554893494,0.8699550032615662,0.6189440488815308,-0.16384375095367432,-0.41599908471107483
3.764263153076172,0.06427863240242004,-0.9042877554893494,0.8695735335350037,0.6212329268455505,-0.16155488789081573,-0.4175249934196472
3.784400701522827,0.06313420087099075,-0.9042877554893494,0.8688105344772339,0.6219958662986755,-0.15926603972911835,-0.4190509021282196
3.8045918941497803,0.06237125024199486,-0.9042877554893494,0.8684290647506714,0.6227588057518005,-0.15926603972911835,-0.4198138415813446
3.8246755599975586,0.06198977679014206,-0.9046692848205566,0.8680475950241089,0.6250476837158203,-0.15888457000255585,-0.4205767810344696
3.8447489738464355,0.06160829961299896,-0.9046692848205566,0.8676661252975464,0.6277180314064026,-0.15850308537483215,-0.4228656589984894
3.864837169647217,0.06084534898400307,-0.9054322242736816,0.8672846555709839,0.6288624405860901,-0.15659570693969727,-0.4247730076313019
3.8849077224731445,0.06084534898400307,-0.9058136940002441,0.8661402463912964,0.6288624405860901,-0.15430685877799988,-0.42744335532188416
3.904994249343872,0.06084534898400307,-0.9058136940002441,0.8661402463912964,0.6303883194923401,-0.15354390442371368,-0.42820629477500916
3.9251492023468018,0.06084534898400307,-0.9065766334533691,0.8657587766647339,0.6322957277297974,-0.152399480342865,-0.43049514293670654
3.945197582244873,0.06084534898400307,-0.9065766334533691,0.8649957776069641,0.6330586671829224,-0.1504921019077301,-0.43240252137184143
3.965381383895874,0.06084534898400307,-0.9065766334533691,0.8646143078804016,0.6353475451469421,-0.1504921019077301,-0.4346913993358612
3.9854683876037598,0.06046387553215027,-0.9065766334533691,0.8646143078804016,0.6376363635063171,-0.14858472347259521,-0.4346913993358612
4.005533695220947,0.06008239835500717,-0.9065766334533691,0.8649957776069641,0.6383993029594421,-0.14591439068317413,-0.4358358085155487
4.025615453720093,0.05970092490315437,-0.9065766334533691,0.8646143078804016,0.6399252414703369,-0.14515145123004913,-0.4373617172241211
4.045691013336182,0.05855649709701538,-0.9061951637268066,0.8646143078804016,0.6406881809234619,-0.14324407279491425,-0.439269095659256
4.065763711929321,0.057793546468019485,-0.9065766334533691,0.8642328381538391,0.6422140598297119,-0.14171816408634186,-0.44117647409439087
4.085852861404419,0.057793546468019485,-0.9065766334533691,0.8638513684272766,0.6441214680671692,-0.14133669435977936,-0.44193941354751587
4.1059205532073975,0.057793546468019485,-0.9065766334533691,0.8634698987007141,0.6456473469734192,-0.14057374000549316,-0.44308385252952576
4.125973701477051,0.057793546468019485,-0.9061951637268066,0.8623254895210266,0.6475547552108765,-0.13866636157035828,-0.44422826170921326
4.146090507507324,0.057793546468019485,-0.9065766334533691,0.8619440197944641,0.6483176946640015,-0.13752193748950958,-0.44537270069122314
4.166128873825073,0.057793546468019485,-0.9065766334533691,0.8607995510101318,0.6498435735702515,-0.1371404528617859,-0.44689860939979553
4.186457395553589,0.057793546468019485,-0.9065766334533691,0.8604180812835693,0.6521324515342712,-0.1356145590543747,-0.4495689272880554
4.2065935134887695,0.057793546468019485,-0.9065766334533691,0.8604180812835693,0.6528953909873962,-0.135233074426651,-0.4503318965435028
4.226848363876343,0.05741206929087639,-0.9065766334533691,0.8604180812835693,0.654421329498291,-0.1340886503458023,-0.4526207447052002
4.246990203857422,0.05664911866188049,-0.9065766334533691,0.8604180812835693,0.655184268951416,-0.13179980218410492,-0.4526207447052002
4.2670392990112305,0.0558861680328846,-0.9065766334533691,0.8604180812835693,0.655184268951416,-0.12951095402240753,-0.4533836841583252
4.287098169326782,0.0558861680328846,-0.9065766334533691,0.8604180812835693,0.655947208404541,-0.12912946939468384,-0.4541466534137726
4.307189702987671,0.0558861680328846,-0.9065766334533691,0.8604180812835693,0.6586175560951233,-0.12912946939468384,-0.4552910625934601
4.327252149581909,0.0558861680328846,-0.9065766334533691,0.8600366115570068,0.6605249047279358,-0.12798504531383514,-0.45681697130203247
4.347340822219849,0.0558861680328846,-0.9065766334533691,0.8592736721038818,0.6628137826919556,-0.12569619715213776,-0.45796138048171997
4.3674232959747314,0.0555046908557415,-0.9065766334533691,0.8585107326507568,0.6643396615982056,-0.12264438718557358,-0.45948728919029236
4.387481451034546,0.054741740226745605,-0.9065766334533691,0.8585107326507568,0.6658655405044556,-0.12188144028186798,-0.46063172817230225
4.407573461532593,0.054741740226745605,-0.9065766334533691,0.8585107326507568,0.6673914790153503,-0.1203555315732956,-0.46101319789886475
4.427714824676514,0.05397878959774971,-0.9065766334533691,0.8585107326507568,0.6689173579216003,-0.1199740618467331,-0.46215763688087463
4.447746276855469,0.053215838968753815,-0.9065766334533691,0.8585107326507568,0.6708247661590576,-0.1188296303153038,-0.46292057633399963
4.467849493026733,0.05245288833975792,-0.9065766334533691,0.8585107326507568,0.6723506450653076,-0.11730372905731201,-0.464446485042572
4.487948656082153,0.051689937710762024,-0.9065766334533691,0.8581292629241943,0.6738765835762024,-0.11539635062217712,-0.465209424495697
4.508098363876343,0.051689937710762024,-0.9065766334533691,0.8577477931976318,0.6746395230293274,-0.11463340371847153,-0.4674982726573944
4.528120279312134,0.051689937710762024,-0.9069581031799316,0.8573662638664246,0.6754024624824524,-0.11425192654132843,-0.4682612419128418
4.548385143280029,0.051689937710762024,-0.9077210426330566,0.8573662638664246,0.6776912808418274,-0.11120012402534485,-0.4686427116394043
4.568480491638184,0.051689937710762024,-0.9084840416908264,0.8573662638664246,0.6780728101730347,-0.10929274559020996,-0.4697871506214142
4.588568687438965,0.051689937710762024,-0.9084840416908264,0.8566033244132996,0.6788357496261597,-0.10700388997793198,-0.4716945290565491
4.6087236404418945,0.05130846053361893,-0.9084840416908264,0.8550774455070496,0.6803616285324097,-0.10547798871994019,-0.4720759987831116
4.628847599029541,0.05054550990462303,-0.9084840416908264,0.8535515666007996,0.6811245679855347,-0.1039520874619484,-0.4736018776893616
4.648905992507935,0.05054550990462303,-0.9084840416908264,0.8535515666007996,0.6815060377120972,-0.10433356463909149,-0.47550925612449646
4.669047117233276,0.05054550990462303,-0.9084840416908264,0.8535515666007996,0.6822690367698669,-0.10471503436565399,-0.47627222537994385
4.689199209213257,0.050164032727479935,-0.9084840416908264,0.8535515666007996,0.6834134459495544,-0.1039520874619484,-0.47703516483306885
4.7091803550720215,0.049782559275627136,-0.9084840416908264,0.8535515666007996,0.6853207945823669,-0.1024261862039566,-0.47817960381507874
4.72927188873291,0.048638131469488144,-0.9084840416908264,0.8535515666007996,0.6860837936401367,-0.10013733059167862,-0.47894254326820374
4.749362468719482,0.048256658017635345,-0.9084840416908264,0.8535515666007996,0.6883726119995117,-0.09899290651082993,-0.47932401299476624
4.76946759223938,0.04787518084049225,-0.9084840416908264,0.8535515666007996,0.689517080783844,-0.09861142933368683,-0.4797055125236511
4.789679050445557,0.04711223021149635,-0.9084840416908264,0.8535515666007996,0.690280020236969,-0.09822995215654373,-0.4800869822502136
4.809676647186279,0.04711223021149635,-0.9084840416908264,0.8535515666007996,0.6921873688697815,-0.09746700525283813,-0.4812313914299011
4.829758405685425,0.04596780240535736,-0.9084840416908264,0.8535515666007996,0.692568838596344,-0.09594109654426575,-0.482375830411911
4.849889039993286,0.04596780240535736,-0.9084840416908264,0.8535515666007996,0.6929503083229065,-0.09555962681770325,-0.483138769865036
4.8699951171875,0.04558632895350456,-0.9088655114173889,0.8531700372695923,0.6940947771072388,-0.09365224838256836,-0.4842832088470459
4.890044689178467,0.04558632895350456,-0.9092469811439514,0.8531700372695923,0.6967650651931763,-0.09288929402828217,-0.4854276478290558
4.910157918930054,0.045204851776361465,-0.9096284508705139,0.8527885675430298,0.697528064250946,-0.09250781685113907,-0.4861905872821808
4.930216550827026,0.045204851776361465,-0.9096284508705139,0.8516441583633423,0.699816882610321,-0.09098191559314728,-0.4869535267353058
4.9502949714660645,0.04482337832450867,-0.9096284508705139,0.8512626886367798,0.7013428211212158,-0.09098191559314728,-0.4873350262641907
4.970458745956421,0.04444190114736557,-0.9100099205970764,0.8512626886367798,0.7036316394805908,-0.09060044586658478,-0.4884794354438782
4.990633249282837,0.04406042397022247,-0.9107728600502014,0.8512626886367798,0.7043945789337158,-0.086785688996315,-0.48962387442588806
5.010788440704346,0.04329747334122658,-0.9107728600502014,0.8512626886367798,0.7043945789337158,-0.08487831056118011,-0.49114975333213806
5.030881881713867,0.04329747334122658,-0.9103913903236389,0.8512626886367798,0.7063019871711731,-0.08411535620689392,-0.49229419231414795
5.05115270614624,0.04329747334122658,-0.9103913903236389,0.8512626886367798,0.7074463963508606,-0.08182650804519653,-0.49382010102272034
5.071260929107666,0.04329747334122658,-0.9103913903236389,0.8512626886367798,0.7078278660774231,-0.07953765243291855,-0.49458304047584534
5.091368913650513,0.04329747334122658,-0.9103913903236389,0.8508812189102173,0.7089722752571106,-0.07763027399778366,-0.49496451020240784
5.1114661693573,0.04291599988937378,-0.9103913903236389,0.8501182794570923,0.7108796834945679,-0.07648584991693497,-0.4968718886375427
5.131568431854248,0.042153049260377884,-0.9107728600502014,0.8501182794570923,0.7120240926742554,-0.07572289556264877,-0.4972533881664276
5.1516478061676025,0.04177157208323479,-0.9107728600502014,0.8493552803993225,0.7139315009117126,-0.07419699430465698,-0.4983977973461151
5.171719074249268,0.04100862145423889,-0.9111543297767639,0.8493552803993225,0.7150759100914001,-0.07305257022380829,-0.4987792670726776
5.191930055618286,0.0398641936480999,-0.9115357995033264,0.8493552803993225,0.7154573798179626,-0.07305257022380829,-0.50030517578125
5.211971759796143,0.039101243019104004,-0.9115357995033264,0.84897381067276,0.7162203192710876,-0.07305257022380829,-0.5018310546875
5.232038736343384,0.038719769567251205,-0.9115357995033264,0.848210871219635,0.7177462577819824,-0.0707637146115303,-0.5025940537452698
5.252270221710205,0.03833829239010811,-0.9119172692298889,0.848210871219635,0.7188906669616699,-0.07038223743438721,-0.5033569931983948
5.272555351257324,0.03795681521296501,-0.9126802682876587,0.848210871219635,0.7192721366882324,-0.06923781335353851,-0.5045014023780823
5.292678594589233,0.03795681521296501,-0.9126802682876587,0.848210871219635,0.7207980751991272,-0.06771191209554672,-0.5048828721046448
5.312761068344116,0.03795681521296501,-0.9134432077407837,0.848210871219635,0.7227054238319397,-0.06656748056411743,-0.5048828721046448
5.33290958404541,0.03795681521296501,-0.9134432077407837,0.848210871219635,0.7242313027381897,-0.06618601083755493,-0.5052643418312073
5.3529887199401855,0.03795681521296501,-0.9138246774673462,0.8478294014930725,0.7265201807022095,-0.06427863240242004,-0.5052643418312073
5.37310004234314,0.03795681521296501,-0.9138246774673462,0.8478294014930725,0.727664589881897,-0.06313420087099075,-0.506027340888977
5.393208742141724,0.03757534176111221,-0.9138246774673462,0.84744793176651,0.7291905283927917,-0.06084534898400307,-0.5064088106155396
5.413313865661621,0.03681239113211632,-0.9138246774673462,0.8470664620399475,0.7303349375724792,-0.05855649709701538,-0.506790280342102
5.43339204788208,0.03604944050312042,-0.9138246774673462,0.8470664620399475,0.7307164072990417,-0.05741206929087639,-0.508316159248352
5.453526496887207,0.03604944050312042,-0.9145876169204712,0.8470664620399475,0.732623815536499,-0.05664911866188049,-0.509079098701477
5.473643779754639,0.03604944050312042,-0.9149690866470337,0.8470664620399475,0.733386754989624,-0.0555046908557415,-0.5094605684280396
5.493809938430786,0.035667963325977325,-0.9153505563735962,0.846684992313385,0.7337682247161865,-0.0551232174038887,-0.5106050372123718
5.513843774795532,0.035667963325977325,-0.9153505563735962,0.84592205286026,0.7345311641693115,-0.05436026677489281,-0.5121309161186218
5.533945083618164,0.035667963325977325,-0.9157320261001587,0.8455405235290527,0.735675573348999,-0.05283436179161072,-0.5128938555717468
5.554013729095459,0.03528648987412453,-0.9157320261001587,0.8455405235290527,0.7372015118598938,-0.05130846053361893,-0.5132753252983093
5.574061393737793,0.03490501269698143,-0.9157320261001587,0.8455405235290527,0.7375829815864563,-0.049782559275627136,-0.5140383243560791
5.594230651855469,0.034142062067985535,-0.9157320261001587,0.8455405235290527,0.7379644513130188,-0.04901960864663124,-0.5144197940826416
5.614329099655151,0.03299763426184654,-0.9157320261001587,0.8455405235290527,0.7383459210395813,-0.048256658017635345,-0.5155642032623291
5.634386777877808,0.032616160809993744,-0.9157320261001587,0.8455405235290527,0.7394903302192688,-0.048256658017635345,-0.5163271427154541
5.654515027999878,0.03147173300385475,-0.9157320261001587,0.8455405235290527,0.7410162687301636,-0.04787518084049225,-0.5163271427154541
5.674681663513184,0.031090257689356804,-0.9164950251579285,0.8451590538024902,0.7413977384567261,-0.04711223021149635,-0.5170900821685791
5.694793462753296,0.031090257689356804,-0.916876494884491,0.8451590538024902,0.7429236173629761,-0.045204851776361465,-0.5182345509529114
5.714874505996704,0.031090257689356804,-0.916876494884491,0.8451590538024902,0.7444495558738708,-0.04406042397022247,-0.5197604298591614
5.735055923461914,0.031090257689356804,-0.916876494884491,0.8451590538024902,0.7452124953269958,-0.04291599988937378,-0.5197604298591614
5.75507926940918,0.031090257689356804,-0.916876494884491,0.8451590538024902,0.7463569045066833,-0.0398641936480999,-0.5205233693122864
5.775793790817261,0.031090257689356804,-0.916876494884491,0.8451590538024902,0.7482643127441406,-0.03795681521296501,-0.5209048390388489
5.795889139175415,0.031090257689356804,-0.916876494884491,0.8451590538024902,0.7497901916503906,-0.03604944050312042,-0.5212863087654114
5.816035509109497,0.030708782374858856,-0.917639434337616,0.8447775840759277,0.7516975402832031,-0.034142062067985535,-0.5224307775497437
5.836094379425049,0.03032730519771576,-0.918402373790741,0.8447775840759277,0.7528420090675354,-0.03299763426184654,-0.5231937170028687
5.856158971786499,0.029564354568719864,-0.9187838435173035,0.8447775840759277,0.7536049485206604,-0.03299763426184654,-0.5235751867294312
5.876230239868164,0.02880140393972397,-0.9187838435173035,0.8440146446228027,0.7555122971534729,-0.03185320645570755,-0.5243381261825562
5.896358966827393,0.02841992862522602,-0.9187838435173035,0.8440146446228027,0.7562752962112427,-0.03223468363285065,-0.5243381261825562
5.916427373886108,0.02841992862522602,-0.9187838435173035,0.8440146446228027,0.7574197053909302,-0.03147173300385475,-0.5254825949668884
5.936825275421143,0.02727550081908703,-0.919165313243866,0.8440146446228027,0.7589455842971802,-0.03032730519771576,-0.5273899435997009
5.95696234703064,0.026512550190091133,-0.919165313243866,0.8440146446228027,0.7593270540237427,-0.027656977996230125,-0.5281528830528259
5.9770073890686035,0.026512550190091133,-0.9195467829704285,0.8440146446228027,0.7597085237503052,-0.025749599561095238,-0.5285343527793884
5.997168779373169,0.026512550190091133,-0.9195467829704285,0.8440146446228027,0.7600900530815125,-0.024605173617601395,-0.5292973518371582
6.017267465591431,0.026512550190091133,-0.9199283123016357,0.8436331748962402,0.760471522808075,-0.024605173617601395,-0.5300602912902832
6.037338495254517,0.026131074875593185,-0.9199283123016357,0.8436331748962402,0.7616159319877625,-0.024223696440458298,-0.5308232307434082
6.057671308517456,0.02536812424659729,-0.9206912517547607,0.8436331748962402,0.76276034116745,-0.023460745811462402,-0.5308232307434082
6.077837705612183,0.024223696440458298,-0.9210727214813232,0.8436331748962402,0.763523280620575,-0.02193484455347061,-0.5312047004699707
6.0978991985321045,0.023460745811462402,-0.9214541912078857,0.8432517051696777,0.7646677494049072,-0.02040894143283367,-0.5312047004699707
6.118060827255249,0.02231631986796856,-0.9218356609344482,0.8428702354431152,0.7665750980377197,-0.01926451548933983,-0.5315861701965332
6.138068675994873,0.021553369238972664,-0.9225986003875732,0.8428702354431152,0.7669565677642822,-0.01888304017484188,-0.5319676399230957
6.158312797546387,0.021171892061829567,-0.9229800701141357,0.8428702354431152,0.7673380374908447,-0.018120087683200836,-0.5323491096496582
6.178411245346069,0.021171892061829567,-0.9229800701141357,0.8428702354431152,0.7681010365486145,-0.01773861236870289,-0.5331120491027832
6.1984782218933105,0.021171892061829567,-0.9229800701141357,0.8428702354431152,0.769245445728302,-0.01735713705420494,-0.5342565178871155
6.218629837036133,0.021171892061829567,-0.9229800701141357,0.8428702354431152,0.770771324634552,-0.01506828423589468,-0.5350194573402405
6.238666296005249,0.021171892061829567,-0.9229800701141357,0.8428702354431152,0.7722972631454468,-0.012779430486261845,-0.5357823967933655
6.258743524551392,0.021171892061829567,-0.9229800701141357,0.8428702354431152,0.7742046117782593,-0.010872052982449532,-0.5365453362464905
6.278859376907349,0.021171892061829567,-0.9237430095672607,0.8428702354431152,0.7749675512313843,-0.008964675478637218,-0.5373083353042603
6.2989113330841064,0.021171892061829567,-0.924124538898468,0.8428702354431152,0.7761120200157166,-0.00667582219466567,-0.5384527444839478
6.318995714187622,0.021171892061829567,-0.924887478351593,0.8424887657165527,0.778019368648529,-0.005912871100008488,-0.5384527444839478
6.339086294174194,0.021171892061829567,-0.925650417804718,0.8421072959899902,0.778782308101654,-0.004386968910694122,-0.5384527444839478
6.359218120574951,0.021171892061829567,-0.925650417804718,0.841725766658783,0.7799267768859863,-0.0032425422687083483,-0.5388342142105103
6.379268169403076,0.021171892061829567,-0.9260318875312805,0.840962827205658,0.7814526557922363,-0.002861066721379757,-0.5392156839370728
6.399403095245361,0.02040894143283367,-0.9260318875312805,0.840962827205658,0.7822155952453613,-0.0032425422687083483,-0.5392156839370728
6.419457197189331,0.02040894143283367,-0.9260318875312805,0.840962827205658,0.7825970649719238,-0.001716639962978661,-0.5399786233901978
6.439577341079712,0.020027466118335724,-0.9260318875312805,0.8413442969322205,0.7833600640296936,-0.00019073777366429567,-0.54112309217453
6.459606647491455,0.01926451548933983,-0.9260318875312805,0.8413442969322205,0.7845044732093811,0.0009536888683214784,-0.5422675013542175
6.479779243469238,0.01888304017484188,-0.9260318875312805,0.841725766658783,0.7852674126625061,0.001716639962978661,-0.5430304408073425
6.4999401569366455,0.018120087683200836,-0.927176296710968,0.8421072959899902,0.7856488823890686,0.0032425422687083483,-0.543411910533905
6.519976615905762,0.018120087683200836,-0.9275577664375305,0.8421072959899902,0.7860303521156311,0.004386968910694122,-0.5445563197135925
6.540323495864868,0.01735713705420494,-0.9279392957687378,0.841725766658783,0.7867932915687561,0.004005493130534887,-0.5457007884979248
6.560436010360718,0.016975661739706993,-0.9279392957687378,0.841725766658783,0.7883192300796509,0.004005493130534887,-0.5460822582244873
6.580546617507935,0.016594186425209045,-0.9279392957687378,0.8421072959899902,0.7898451089859009,0.005149920005351305,-0.5460822582244873
6.600623607635498,0.01583123579621315,-0.9279392957687378,0.8421072959899902,0.7902265787124634,0.006294346414506435,-0.5464637279510498
6.639765501022339,0.01430533267557621,-0.9279392957687378,0.8421072959899902,0.7921339869499207,0.008964675478637218,-0.5464637279510498
6.659847259521484,0.01430533267557621,-0.9279392957687378,0.841725766658783,0.7921339869499207,0.008964675478637218,-0.5464637279510498
6.67991304397583,0.01430533267557621,-0.9283207654953003,0.841725766658783,0.7921339869499207,0.00858320016413927,-0.5468451976776123
6.700109004974365,0.01430533267557621,-0.9290837049484253,0.841725766658783,0.7925154566764832,0.008964675478637218,-0.5468451976776123
6.720200061798096,0.01430533267557621,-0.9290837049484253,0.841725766658783,0.7925154566764832,0.009346150793135166,-0.5468451976776123
6.740279912948608,0.01430533267557621,-0.9298466444015503,0.841725766658783,0.7925154566764832,0.009346150793135166,-0.5468451976776123
6.760369539260864,0.01430533267557621,-0.9302281141281128,0.841725766658783,0.7928969264030457,0.009727626107633114,-0.5472266674041748
6.780439853668213,0.01430533267557621,-0.9302281141281128,0.841725766658783,0.7936598658561707,0.01125352829694748,-0.5476081371307373
6.800567626953125,0.01430533267557621,-0.9302281141281128,0.841725766658783,0.7948042750358582,0.011635004542768002,-0.5483710765838623
6.82062292098999,0.013923857361078262,-0.9302281141281128,0.841725766658783,0.7967116832733154,0.013542382046580315,-0.5495155453681946
6.840753793716431,0.013923857361078262,-0.9309910535812378,0.841725766658783,0.7974746227264404,0.016212711110711098,-0.5498970150947571
6.860825300216675,0.013160906732082367,-0.9313725233078003,0.841725766658783,0.7986190319061279,0.01888304017484188,-0.5502784848213196
6.881018877029419,0.012779430486261845,-0.9321355223655701,0.841725766658783,0.8005264401435852,0.019645990803837776,-0.5502784848213196
6.9010021686553955,0.01201647985726595,-0.9321355223655701,0.841725766658783,0.8012893795967102,0.019645990803837776,-0.5506599545478821
6.921193599700928,0.01201647985726595,-0.9325169920921326,0.841725766658783,0.8024337887763977,0.020027466118335724,-0.5510414242744446
6.941357851028442,0.011635004542768002,-0.9325169920921326,0.841725766658783,0.8039597272872925,0.020027466118335724,-0.5514228940010071
6.961412668228149,0.010490577667951584,-0.9328984618186951,0.841725766658783,0.804341197013855,0.021171892061829567,-0.5514228940010071
6.981523036956787,0.00858320016413927,-0.9336614012718201,0.841725766658783,0.8047226667404175,0.024223696440458298,-0.5521858334541321
7.001594305038452,0.007057297509163618,-0.9344243407249451,0.841725766658783,0.80510413646698,0.026131074875593185,-0.5533303022384644
7.021653175354004,0.00667582219466567,-0.9348058104515076,0.841725766658783,0.8062485456466675,0.026131074875593185,-0.5540932416915894
7.041790246963501,0.00667582219466567,-0.9351872801780701,0.841725766658783,0.8077744841575623,0.026512550190091133,-0.5544747114181519
7.061929941177368,0.00667582219466567,-0.9351872801780701,0.841725766658783,0.8089188933372498,0.02727550081908703,-0.5548561811447144
7.0821754932403564,0.00667582219466567,-0.9351872801780701,0.841725766658783,0.8104447722434998,0.02727550081908703,-0.5552376508712769
7.102266788482666,0.00667582219466567,-0.9355688095092773,0.841725766658783,0.8112077713012695,0.028038453310728073,-0.5560005903244019
7.122358798980713,0.00667582219466567,-0.9359502792358398,0.841725766658783,0.8119707107543945,0.030708782374858856,-0.5571450591087341
7.142455339431763,0.00667582219466567,-0.9363317489624023,0.841725766658783,0.812352180480957,0.03337911143898964,-0.5575265288352966
7.162543058395386,0.00667582219466567,-0.9367132186889648,0.841725766658783,0.813115119934082,0.03452353551983833,-0.5579079985618591
7.183034896850586,0.006294346414506435,-0.9370946884155273,0.841725766658783,0.8150225281715393,0.03490501269698143,-0.5579079985618591
7.203113317489624,0.005912871100008488,-0.9374761581420898,0.841725766658783,0.8161669373512268,0.035667963325977325,-0.5579079985618591
7.2235589027404785,0.005531395319849253,-0.9374761581420898,0.841725766658783,0.8176928162574768,0.03604944050312042,-0.5582894682884216
7.243649244308472,0.005531395319849253,-0.9374761581420898,0.8421072959899902,0.8188372850418091,0.03757534176111221,-0.5586709380149841
7.263701677322388,0.00476844422519207,-0.9374761581420898,0.8421072959899902,0.8192187547683716,0.040627144277095795,-0.5586709380149841
7.284703969955444,0.00476844422519207,-0.9378576278686523,0.8421072959899902,0.8199816942214966,0.042153049260377884,-0.5590524077415466
7.3047873973846436,0.004386968910694122,-0.9382390975952148,0.8421072959899902,0.8203631639480591,0.04444190114736557,-0.5598153471946716
7.3248419761657715,0.004386968910694122,-0.9390020370483398,0.8421072959899902,0.8218890428543091,0.045204851776361465,-0.5613412857055664
7.344935894012451,0.004386968910694122,-0.9393835067749023,0.8421072959899902,0.8230335116386414,0.04596780240535736,-0.5617227554321289
7.365036725997925,0.0036240178160369396,-0.9401465058326721,0.8421072959899902,0.8234149813652039,0.046730753034353256,-0.5621042251586914
7.3851587772369385,0.0032425422687083483,-0.9401465058326721,0.8421072959899902,0.8249408602714539,0.04711223021149635,-0.5624856948852539
7.405273199081421,0.0020981156267225742,-0.9405279755592346,0.8421072959899902,0.8264667987823486,0.048256658017635345,-0.5628671646118164
7.425359725952148,0.001716639962978661,-0.9405279755592346,0.8424887657165527,0.8272297382354736,0.04901960864663124,-0.5632486343383789
7.445438385009766,0.0013351644156500697,-0.9405279755592346,0.8428702354431152,0.8276112079620361,0.04901960864663124,-0.5640115737915039
7.4655327796936035,-0.000572213320992887,-0.9409094452857971,0.8432517051696777,0.8283741474151611,0.049782559275627136,-0.5643930435180664
7.485633850097656,-0.00019073777366429567,-0.9412909150123596,0.8432517051696777,0.8287556171417236,0.05092698708176613,-0.5651560425758362
7.505700349807739,-0.00019073777366429567,-0.9424353241920471,0.8432517051696777,0.8302815556526184,0.05245288833975792,-0.5651560425758362
7.525779485702515,-0.00019073777366429567,-0.9424353241920471,0.8432517051696777,0.8306630253791809,0.05245288833975792,-0.5651560425758362
7.545853614807129,-0.00019073777366429567,-0.9428167939186096,0.8428702354431152,0.8310444951057434,0.05245288833975792,-0.5655375123023987
7.566546440124512,-0.00019073777366429567,-0.9428167939186096,0.8432517051696777,0.8318074345588684,0.053215838968753815,-0.5655375123023987
7.5866570472717285,-0.00019073777366429567,-0.9435797929763794,0.8432517051696777,0.8337147831916809,0.0558861680328846,-0.5659189820289612
7.606729745864868,-0.000572213320992887,-0.9443427324295044,0.8432517051696777,0.8344777822494507,0.05741206929087639,-0.5659189820289612
7.6268393993377686,-0.000572213320992887,-0.9443427324295044,0.8432517051696777,0.8352407217025757,0.05703059583902359,-0.5659189820289612
7.6469197273254395,-0.000572213320992887,-0.9447242021560669,0.8432517051696777,0.8356221914291382,0.05664911866188049,-0.5659189820289612
7.666973114013672,-0.000572213320992887,-0.9454871416091919,0.8432517051696777,0.8367666006088257,0.05703059583902359,-0.5663004517555237
7.68714451789856,-0.000572213320992887,-0.9458686113357544,0.8432517051696777,0.8375295400619507,0.058175019919872284,-0.5666819214820862
7.707204818725586,-0.0009536888683214784,-0.9458686113357544,0.8432517051696777,0.8382925391197205,0.059319447726011276,-0.5674448609352112
7.727253198623657,-0.001716639962978661,-0.9458686113357544,0.8436331748962402,0.838674008846283,0.06084534898400307,-0.5682078003883362
7.747345447540283,-0.0024795911740511656,-0.9466315507888794,0.8436331748962402,0.8398184180259705,0.06275273114442825,-0.5685893297195435
7.767503023147583,-0.002861066721379757,-0.9466315507888794,0.8440146446228027,0.8413442969322205,0.06466010212898254,-0.568970799446106
7.788193225860596,-0.0036240178160369396,-0.9470130205154419,0.8440146446228027,0.841725766658783,0.06504157930612564,-0.568970799446106
7.808367967605591,-0.0036240178160369396,-0.9473945498466492,0.8440146446228027,0.8424887657165527,0.06580453366041183,-0.5693522691726685
7.828367471694946,-0.004005493130534887,-0.9481574892997742,0.8440146446228027,0.8436331748962402,0.06771191209554672,-0.5693522691726685
7.8487467765808105,-0.00476844422519207,-0.9489204287528992,0.8440146446228027,0.8447775840759277,0.07038223743438721,-0.569733738899231
7.868853807449341,-0.00476844422519207,-0.9493018984794617,0.8440146446228027,0.8451590538024902,0.0707637146115303,-0.5701152086257935
7.888912200927734,-0.00476844422519207,-0.9496833682060242,0.8440146446228027,0.8455405235290527,0.0711451917886734,-0.5708781480789185
7.909226894378662,-0.00476844422519207,-0.9496833682060242,0.8440146446228027,0.84592205286026,0.0722896158695221,-0.5716410875320435
7.929316997528076,-0.00476844422519207,-0.9496833682060242,0.8440146446228027,0.846684992313385,0.0722896158695221,-0.5724040865898132
7.949412822723389,-0.00476844422519207,-0.9500648379325867,0.8440146446228027,0.84744793176651,0.07305257022380829,-0.5724040865898132
7.969470024108887,-0.00476844422519207,-0.9500648379325867,0.8440146446228027,0.848210871219635,0.07381551712751389,-0.5724040865898132
7.989556550979614,-0.005531395319849253,-0.9504463076591492,0.8440146446228027,0.84897381067276,0.07457847148180008,-0.5724040865898132
8.009666681289673,-0.005912871100008488,-0.9508277773857117,0.8440146446228027,0.8493552803993225,0.07648584991693497,-0.5727855563163757
8.029724359512329,-0.006294346414506435,-0.951209306716919,0.8440146446228027,0.8493552803993225,0.07724879682064056,-0.5727855563163757
8.049867630004883,-0.00667582219466567,-0.9515907764434814,0.8440146446228027,0.8493552803993225,0.07724879682064056,-0.5727855563163757
8.069934368133545,-0.007438773289322853,-0.951972246170044,0.8443961143493652,0.8497368097305298,0.07839322835206985,-0.5727855563163757
8.090005159378052,-0.0078202486038208,-0.9523537158966064,0.8443961143493652,0.8504997491836548,0.07877469807863235,-0.5731670260429382
8.11011552810669,-0.0078202486038208,-0.952735185623169,0.8443961143493652,0.8520256280899048,0.07915617525577545,-0.5731670260429382
8.130424499511719,-0.0078202486038208,-0.952735185623169,0.8451590538024902,0.8535515666007996,0.07953765243291855,-0.5731670260429382
8.150522708892822,-0.0078202486038208,-0.9531166553497314,0.8455405235290527,0.8539330363273621,0.07991912961006165,-0.5735484957695007
8.170634031295776,-0.008201723918318748,-0.9531166553497314,0.84592205286026,0.8554589152336121,0.08106355369091034,-0.5735484957695007
8.191538572311401,-0.00858320016413927,-0.953498125076294,0.84592205286026,0.8562218546867371,0.08449683338403702,-0.5739299654960632
8.2116379737854,-0.00858320016413927,-0.9538795948028564,0.8463035225868225,0.8566033244132996,0.0864042118191719,-0.5743114352226257
8.231861591339111,-0.009727626107633114,-0.955024003982544,0.8463035225868225,0.8569847941398621,0.0871671661734581,-0.5746929049491882
8.251969814300537,-0.009727626107633114,-0.9554055333137512,0.84592205286026,0.8577477931976318,0.0871671661734581,-0.5754558444023132
8.272093772888184,-0.009727626107633114,-0.9561684727668762,0.84592205286026,0.8592736721038818,0.086785688996315,-0.5754558444023132
8.292128801345825,-0.009727626107633114,-0.9569314122200012,0.84592205286026,0.8607995510101318,0.086785688996315,-0.5754558444023132
8.312204599380493,-0.009727626107633114,-0.9569314122200012,0.84592205286026,0.8615625500679016,0.086785688996315,-0.5754558444023132
8.332281589508057,-0.009727626107633114,-0.9569314122200012,0.84592205286026,0.8623254895210266,0.0871671661734581,-0.5754558444023132
8.352856397628784,-0.010109102353453636,-0.9569314122200012,0.8463035225868225,0.8630884289741516,0.08945601433515549,-0.5758373141288757
8.372998714447021,-0.010109102353453636,-0.9569314122200012,0.8463035225868225,0.8638513684272766,0.09098191559314728,-0.576218843460083
8.393071413040161,-0.010872052982449532,-0.9569314122200012,0.8463035225868225,0.8638513684272766,0.09174486994743347,-0.576218843460083
8.413118839263916,-0.010872052982449532,-0.9573128819465637,0.8463035225868225,0.8642328381538391,0.09288929402828217,-0.576218843460083
8.433224439620972,-0.01201647985726595,-0.9580758213996887,0.8463035225868225,0.8646143078804016,0.09365224838256836,-0.576218843460083
8.453311443328857,-0.01201647985726595,-0.9584572911262512,0.846684992313385,0.8649957776069641,0.09441519528627396,-0.5766003131866455
8.473389625549316,-0.012397955171763897,-0.9588387608528137,0.846684992313385,0.8665217161178589,0.09441519528627396,-0.5766003131866455
8.493477821350098,-0.012779430486261845,-0.959220290184021,0.84744793176651,0.8676661252975464,0.09517814964056015,-0.5766003131866455
8.513528823852539,-0.012779430486261845,-0.959983229637146,0.84744793176651,0.8680475950241089,0.09670405089855194,-0.576981782913208
8.533681631088257,-0.012779430486261845,-0.9603646993637085,0.84744793176651,0.8691920638084412,0.09937438368797302,-0.5773632526397705
8.553708553314209,-0.012779430486261845,-0.960746169090271,0.8478294014930725,0.8707179427146912,0.10128175467252731,-0.577744722366333
8.573767900466919,-0.013160906732082367,-0.9611276388168335,0.848210871219635,0.8710994124412537,0.10166323184967041,-0.578507661819458
8.593883752822876,-0.013542382046580315,-0.9611276388168335,0.848210871219635,0.8714808821678162,0.1031891331076622,-0.5796520709991455
8.614115238189697,-0.013923857361078262,-0.9611276388168335,0.848210871219635,0.8714808821678162,0.1039520874619484,-0.5804150700569153
8.634602546691895,-0.014686808921396732,-0.9611276388168335,0.848210871219635,0.8718623518943787,0.1039520874619484,-0.580033540725708
8.654740571975708,-0.014686808921396732,-0.961509108543396,0.848210871219635,0.8722438216209412,0.1039520874619484,-0.5804150700569153
8.674795866012573,-0.01506828423589468,-0.961509108543396,0.848210871219635,0.8730067610740662,0.10433356463909149,-0.5804150700569153
8.695000648498535,-0.01506828423589468,-0.962272047996521,0.848210871219635,0.8737697601318359,0.10509651154279709,-0.5804150700569153
8.715123891830444,-0.01506828423589468,-0.9630350470542908,0.848210871219635,0.8749141693115234,0.10624094307422638,-0.5804150700569153
8.735282182693481,-0.01506828423589468,-0.9641794562339783,0.848210871219635,0.8756771087646484,0.10662241280078888,-0.5807965397834778
8.755335330963135,-0.01506828423589468,-0.9653238654136658,0.848210871219635,0.8756771087646484,0.10814831405878067,-0.5811780095100403
8.775394439697266,-0.015449759550392628,-0.9653238654136658,0.848210871219635,0.8764400482177734,0.10814831405878067,-0.5811780095100403
8.795483112335205,-0.016975661739706993,-0.9657053351402283,0.848210871219635,0.8772030472755432,0.10814831405878067,-0.5815594792366028
8.815591812133789,-0.01888304017484188,-0.9660868048667908,0.848210871219635,0.8783474564552307,0.10852979123592377,-0.5823224186897278
8.83568263053894,-0.02040894143283367,-0.9664682745933533,0.8485923409461975,0.8787289261817932,0.11005569249391556,-0.5830853581428528
8.855949640274048,-0.02231631986796856,-0.9668498039245605,0.8485923409461975,0.8794918656349182,0.11120012402534485,-0.5834668278694153
8.876061201095581,-0.022697795182466507,-0.9676127433776855,0.84897381067276,0.8798733353614807,0.11081864684820175,-0.5834668278694153
8.896158933639526,-0.023079270496964455,-0.967994213104248,0.8497368097305298,0.8806362748146057,0.11005569249391556,-0.5834668278694153
8.916399717330933,-0.023079270496964455,-0.9683756828308105,0.8497368097305298,0.881780743598938,0.11158160120248795,-0.5834668278694153
8.936518430709839,-0.02231631986796856,-0.9683756828308105,0.8501182794570923,0.8829251527786255,0.11348897218704224,-0.5834668278694153
8.956570625305176,-0.02193484455347061,-0.9683756828308105,0.8504997491836548,0.8829251527786255,0.11577782779932022,-0.5834668278694153
8.976659774780273,-0.02193484455347061,-0.9683756828308105,0.8504997491836548,0.8836880922317505,0.11768520623445511,-0.5834668278694153
8.996729850769043,-0.021553369238972664,-0.9683756828308105,0.8504997491836548,0.884069561958313,0.12073700875043869,-0.5834668278694153
9.016793251037598,-0.021553369238972664,-0.9683756828308105,0.8504997491836548,0.8855955004692078,0.12226291000843048,-0.5834668278694153
9.037004232406616,-0.021553369238972664,-0.9683756828308105,0.8504997491836548,0.8863584399223328,0.12264438718557358,-0.5834668278694153
9.057084321975708,-0.02193484455347061,-0.968757152557373,0.8504997491836548,0.8867399096488953,0.12302586436271667,-0.5834668278694153
9.077162027359009,-0.021553369238972664,-0.968757152557373,0.8508812189102173,0.8875028491020203,0.12302586436271667,-0.5834668278694153
9.097255229949951,-0.021553369238972664,-0.968757152557373,0.8512626886367798,0.8878843188285828,0.12302586436271667,-0.5834668278694153
9.117349863052368,-0.021171892061829567,-0.969520092010498,0.8516441583633423,0.889028787612915,0.12417028844356537,-0.5838482975959778
9.137431621551514,-0.02079041674733162,-0.969520092010498,0.8516441583633423,0.88979172706604,0.12531471252441406,-0.5838482975959778
9.157492876052856,-0.02079041674733162,-0.969520092010498,0.8516441583633423,0.88979172706604,0.12569619715213776,-0.5838482975959778
9.177581071853638,-0.02079041674733162,-0.969520092010498,0.8516441583633423,0.88979172706604,0.12531471252441406,-0.5838482975959778
9.197675228118896,-0.021171892061829567,-0.970283031463623,0.8516441583633423,0.890554666519165,0.12569619715213776,-0.5838482975959778
9.217745542526245,-0.021171892061829567,-0.9710460305213928,0.8516441583633423,0.8909361362457275,0.12684062123298645,-0.5838482975959778
9.237871885299683,-0.021171892061829567,-0.9714275002479553,0.8516441583633423,0.8916990756988525,0.12722209095954895,-0.5838482975959778
9.25790548324585,-0.021171892061829567,-0.9714275002479553,0.8520256280899048,0.8928435444831848,0.12760357558727264,-0.5838482975959778
9.278000593185425,-0.021171892061829567,-0.9714275002479553,0.8520256280899048,0.8932250142097473,0.12874799966812134,-0.5838482975959778
9.29808259010315,-0.021171892061829567,-0.9718089699745178,0.8524070978164673,0.8936064839363098,0.13065537810325623,-0.5838482975959778
9.318194389343262,-0.021171892061829567,-0.9718089699745178,0.8524070978164673,0.8939879536628723,0.13141833245754242,-0.5842298269271851
9.338313579559326,-0.021171892061829567,-0.9718089699745178,0.8524070978164673,0.8943694233894348,0.13179980218410492,-0.5842298269271851
9.358344793319702,-0.021171892061829567,-0.9725719094276428,0.8524070978164673,0.8947508931159973,0.13179980218410492,-0.5842298269271851
9.378452777862549,-0.021171892061829567,-0.9733348488807678,0.8527885675430298,0.8955138325691223,0.13218127191066742,-0.5846112966537476
9.39851999282837,-0.021171892061829567,-0.9744792580604553,0.8527885675430298,0.8962767720222473,0.13179980218410492,-0.5846112966537476
9.418643951416016,-0.021171892061829567,-0.9752422571182251,0.8527885675430298,0.8974212408065796,0.13179980218410492,-0.5846112966537476
9.438699960708618,-0.021553369238972664,-0.9760051965713501,0.8531700372695923,0.8978027105331421,0.13141833245754242,-0.5846112966537476
9.458771228790283,-0.021553369238972664,-0.9760051965713501,0.8531700372695923,0.8981841802597046,0.13218127191066742,-0.5849927663803101
9.478938102722168,-0.02193484455347061,-0.9760051965713501,0.8535515666007996,0.8985656499862671,0.1337071806192398,-0.5853742361068726
9.498933792114258,-0.02231631986796856,-0.9760051965713501,0.8535515666007996,0.8989471197128296,0.1356145590543747,-0.5861371755599976
9.519066572189331,-0.02231631986796856,-0.9767681360244751,0.8535515666007996,0.8993285894393921,0.1363775134086609,-0.5869001150131226
9.539161682128906,-0.02231631986796856,-0.9775310754776001,0.8535515666007996,0.9004730582237244,0.13790340721607208,-0.5876630544662476
9.559491872787476,-0.022697795182466507,-0.9782940149307251,0.8535515666007996,0.9008545279502869,0.13828489184379578,-0.5876630544662476
9.579596996307373,-0.023460745811462402,-0.9794384837150574,0.8535515666007996,0.9012359976768494,0.13866636157035828,-0.5880445837974548
9.600379228591919,-0.024223696440458298,-0.9802014231681824,0.8535515666007996,0.9008545279502869,0.13866636157035828,-0.5880445837974548
9.620542287826538,-0.024223696440458298,-0.9802014231681824,0.8535515666007996,0.9012359976768494,0.13866636157035828,-0.5880445837974548
9.640618801116943,-0.024605173617601395,-0.9802014231681824,0.8539330363273621,0.9019989371299744,0.13866636157035828,-0.5880445837974548
9.660809516906738,-0.024605173617601395,-0.9802014231681824,0.8543145060539246,0.9027618765830994,0.13904783129692078,-0.5880445837974548
9.680939435958862,-0.024986648932099342,-0.9802014231681824,0.8546959757804871,0.9039062857627869,0.14095520973205566,-0.5880445837974548
9.700998306274414,-0.02536812424659729,-0.9802014231681824,0.8550774455070496,0.9050507545471191,0.14248111844062805,-0.5880445837974548
9.721071481704712,-0.02536812424659729,-0.9802014231681824,0.8554589152336121,0.9054322242736816,0.14286258816719055,-0.5880445837974548
9.741151571273804,-0.025749599561095238,-0.9802014231681824,0.8554589152336121,0.9058136940002441,0.14400701224803925,-0.5880445837974548
9.761278629302979,-0.026512550190091133,-0.9802014231681824,0.8558403849601746,0.9061951637268066,0.14591439068317413,-0.5880445837974548
9.781356811523438,-0.026512550190091133,-0.9802014231681824,0.8558403849601746,0.9081025123596191,0.14667734503746033,-0.5880445837974548
9.80151104927063,-0.026512550190091133,-0.9802014231681824,0.8562218546867371,0.9084840416908264,0.14667734503746033,-0.5880445837974548
9.821619749069214,-0.026512550190091133,-0.9805828928947449,0.8562218546867371,0.9088655114173889,0.14667734503746033,-0.5880445837974548
9.841729402542114,-0.02689402550458908,-0.9809643626213074,0.8562218546867371,0.9092469811439514,0.14782176911830902,-0.5880445837974548
9.86176872253418,-0.02727550081908703,-0.9813458323478699,0.8562218546867371,0.9092469811439514,0.14820325374603271,-0.5880445837974548
9.881871461868286,-0.02727550081908703,-0.9817273020744324,0.8562218546867371,0.9092469811439514,0.14858472347259521,-0.5880445837974548
9.9019136428833,-0.02727550081908703,-0.9821087718009949,0.8562218546867371,0.9096284508705139,0.1497291475534439,-0.5880445837974548
9.92201018333435,-0.027656977996230125,-0.9821087718009949,0.8566033244132996,0.9103913903236389,0.1504921019077301,-0.5880445837974548
9.942123174667358,-0.02841992862522602,-0.9821087718009949,0.8566033244132996,0.9115357995033264,0.1512550562620163,-0.5880445837974548
9.96226167678833,-0.02880140393972397,-0.9821087718009949,0.8569847941398621,0.9122987985610962,0.15354390442371368,-0.5880445837974548
9.982340335845947,-0.02880140393972397,-0.9824903011322021,0.8573662638664246,0.9126802682876587,0.15354390442371368,-0.5880445837974548
10.002470016479492,-0.02880140393972397,-0.9832532405853271,0.8577477931976318,0.9130617380142212,0.15430685877799988,-0.5880445837974548
10.023133277893066,-0.02880140393972397,-0.9840161800384521,0.8577477931976318,0.9134432077407837,0.15506981313228607,-0.5880445837974548
10.043181896209717,-0.02880140393972397,-0.9843976497650146,0.8577477931976318,0.9134432077407837,0.15621423721313477,-0.5880445837974548
10.063300132751465,-0.029182879254221916,-0.9855420589447021,0.8577477931976318,0.9138246774673462,0.15812161564826965,-0.5880445837974548
10.08339238166809,-0.029182879254221916,-0.9863049983978271,0.8577477931976318,0.9145876169204712,0.16002899408340454,-0.5884260535240173
10.103440999984741,-0.029182879254221916,-0.9863049983978271,0.8577477931976318,0.9149690866470337,0.16002899408340454,-0.5884260535240173
10.123584508895874,-0.029182879254221916,-0.9874494671821594,0.8577477931976318,0.9153505563735962,0.16041046380996704,-0.5884260535240173
10.143630981445312,-0.029564354568719864,-0.9878309369087219,0.8577477931976318,0.9157320261001587,0.16193637251853943,-0.5884260535240173
10.163723707199097,-0.029564354568719864,-0.9882124066352844,0.8577477931976318,0.9157320261001587,0.16155488789081573,-0.5884260535240173
10.18381142616272,-0.029564354568719864,-0.9882124066352844,0.8577477931976318,0.9157320261001587,0.16117341816425323,-0.5884260535240173
10.203936338424683,-0.029564354568719864,-0.9882124066352844,0.8577477931976318,0.9157320261001587,0.16155488789081573,-0.5884260535240173
10.223995208740234,-0.029564354568719864,-0.9882124066352844,0.8577477931976318,0.9157320261001587,0.16269932687282562,-0.5888075232505798
10.244082927703857,-0.029564354568719864,-0.9882124066352844,0.8577477931976318,0.9157320261001587,0.16422522068023682,-0.5888075232505798
10.264227151870728,-0.03032730519771576,-0.9882124066352844,0.8577477931976318,0.9157320261001587,0.1661325991153717,-0.5895704627037048
10.28429365158081,-0.03147173300385475,-0.9882124066352844,0.8577477931976318,0.916113555431366,0.1672770231962204,-0.5895704627037048
10.304616689682007,-0.03185320645570755,-0.9885938763618469,0.8577477931976318,0.916113555431366,0.1672770231962204,-0.5899519324302673
10.324662923812866,-0.03185320645570755,-0.9889753460884094,0.8577477931976318,0.9164950251579285,0.1672770231962204,-0.5899519324302673
10.34475326538086,-0.03299763426184654,-0.9893568158149719,0.8577477931976318,0.9164950251579285,0.1676585078239441,-0.5899519324302673
10.364834070205688,-0.03299763426184654,-0.9897382855415344,0.8585107326507568,0.916876494884491,0.1672770231962204,-0.5899519324302673
10.385040521621704,-0.03299763426184654,-0.9901197552680969,0.8585107326507568,0.917639434337616,0.1676585078239441,-0.5899519324302673
10.405145645141602,-0.03376058489084244,-0.9905012845993042,0.8585107326507568,0.918402373790741,0.1680399775505066,-0.5899519324302673
10.425232410430908,-0.03376058489084244,-0.9905012845993042,0.8588922023773193,0.9195467829704285,0.1680399775505066,-0.5903334021568298
10.44526720046997,-0.03376058489084244,-0.9905012845993042,0.8588922023773193,0.9206912517547607,0.1680399775505066,-0.5903334021568298
10.465334177017212,-0.03376058489084244,-0.9905012845993042,0.8592736721038818,0.9222171306610107,0.1680399775505066,-0.5903334021568298
10.48538589477539,-0.03376058489084244,-0.9908827543258667,0.8600366115570068,0.9229800701141357,0.1680399775505066,-0.5899519324302673
10.505488872528076,-0.03376058489084244,-0.9912642240524292,0.8607995510101318,0.9237430095672607,0.16880293190479279,-0.5899519324302673
10.525568962097168,-0.03376058489084244,-0.9916456937789917,0.8607995510101318,0.9237430095672607,0.16918440163135529,-0.5899519324302673
10.545908212661743,-0.03376058489084244,-0.9916456937789917,0.8607995510101318,0.924124538898468,0.16918440163135529,-0.5899519324302673
10.566052913665771,-0.03376058489084244,-0.9920271635055542,0.8607995510101318,0.924124538898468,0.16994735598564148,-0.5899519324302673
10.586089849472046,-0.03452353551983833,-0.9927901029586792,0.8607995510101318,0.9245060086250305,0.17109178006649017,-0.5899519324302673
10.606168031692505,-0.03452353551983833,-0.9931715726852417,0.8611810207366943,0.924887478351593,0.17185473442077637,-0.5899519324302673
10.6262366771698,-0.03452353551983833,-0.9939345121383667,0.8611810207366943,0.9260318875312805,0.17223620414733887,-0.5899519324302673
10.646294832229614,-0.03490501269698143,-0.994316041469574,0.8619440197944641,0.927176296710968,0.17223620414733887,-0.5899519324302673
10.666400909423828,-0.03490501269698143,-0.9946975111961365,0.8619440197944641,0.9275577664375305,0.17299915850162506,-0.5899519324302673
10.686460256576538,-0.03490501269698143,-0.9946975111961365,0.8623254895210266,0.9279392957687378,0.17338064312934875,-0.5899519324302673
10.706584930419922,-0.03490501269698143,-0.995078980922699,0.8627069592475891,0.9287022352218628,0.17528800666332245,-0.5899519324302673
10.726668119430542,-0.03490501269698143,-0.9954604506492615,0.8630884289741516,0.9298466444015503,0.17757686972618103,-0.5899519324302673
10.746735572814941,-0.03528648987412453,-0.9954604506492615,0.8630884289741516,0.9306095838546753,0.17757686972618103,-0.5899519324302673
10.766822099685669,-0.035667963325977325,-0.995841920375824,0.8630884289741516,0.9309910535812378,0.17757686972618103,-0.5899519324302673
10.787000894546509,-0.035667963325977325,-0.995841920375824,0.8630884289741516,0.9309910535812378,0.17757686972618103,-0.5899519324302673
10.806997299194336,-0.035667963325977325,-0.996604859828949,0.8634698987007141,0.9313725233078003,0.17757686972618103,-0.5899519324302673
10.827183246612549,-0.03604944050312042,-0.996604859828949,0.8638513684272766,0.9317540526390076,0.17719538509845734,-0.5899519324302673
10.847207307815552,-0.03681239113211632,-0.996604859828949,0.8642328381538391,0.9317540526390076,0.17757686972618103,-0.5899519324302673
10.867676496505737,-0.03681239113211632,-0.9969863295555115,0.8642328381538391,0.9321355223655701,0.17795833945274353,-0.5899519324302673
10.88777208328247,-0.03681239113211632,-0.9977492690086365,0.8646143078804016,0.9321355223655701,0.17872129380702972,-0.5899519324302673
10.907846450805664,-0.03681239113211632,-0.9977492690086365,0.8649957776069641,0.9325169920921326,0.1810101419687271,-0.5899519324302673
10.927906274795532,-0.03681239113211632,-0.9977492690086365,0.8649957776069641,0.9325169920921326,0.1806286722421646,-0.5899519324302673
10.947999000549316,-0.03681239113211632,-0.9981307983398438,0.8649957776069641,0.9328984618186951,0.1802472025156021,-0.5899519324302673
10.968048334121704,-0.03681239113211632,-0.9985122680664062,0.8649957776069641,0.9340428709983826,0.182154580950737,-0.5899519324302673
10.989108562469482,-0.03681239113211632,-0.9985122680664062,0.8649957776069641,0.9348058104515076,0.182917520403862,-0.5899519324302673
11.009225845336914,-0.03681239113211632,-0.9988937377929688,0.8649957776069641,0.9355688095092773,0.182917520403862,-0.5899519324302673
11.029267072677612,-0.037193864583969116,-0.9996566772460938,0.8649957776069641,0.9359502792358398,0.1832990050315857,-0.5899519324302673
11.049328327178955,-0.03757534176111221,-1.0004196166992188,0.8649957776069641,0.9370946884155273,0.1844434291124344,-0.5903334021568298
11.069440364837646,-0.03795681521296501,-1.0004196166992188,0.8649957776069641,0.9374761581420898,0.1836804747581482,-0.5899519324302673
11.089920997619629,-0.03795681521296501,-1.0008010864257812,0.8649957776069641,0.9378576278686523,0.1832990050315857,-0.5903334021568298
11.110054016113281,-0.038719769567251205,-1.0008010864257812,0.8653773069381714,0.9382390975952148,0.1840619444847107,-0.5899519324302673
11.130306720733643,-0.038719769567251205,-1.0008010864257812,0.8661402463912964,0.9386205673217773,0.1844434291124344,-0.5903334021568298
11.150461435317993,-0.038719769567251205,-1.0008010864257812,0.8661402463912964,0.9390020370483398,0.18596932291984558,-0.5903334021568298
11.170481204986572,-0.038719769567251205,-1.0008010864257812,0.8661402463912964,0.9393835067749023,0.18749523162841797,-0.5903334021568298
11.190571069717407,-0.038719769567251205,-1.0015640258789062,0.8661402463912964,0.9393835067749023,0.18825818598270416,-0.5903334021568298
11.210654497146606,-0.038719769567251205,-1.0019454956054688,0.8665217161178589,0.9397650361061096,0.19016556441783905,-0.5903334021568298
11.231178760528564,-0.038719769567251205,-1.0023269653320312,0.8665217161178589,0.9397650361061096,0.19016556441783905,-0.5903334021568298
11.251345872879028,-0.038719769567251205,-1.0027084350585938,0.8665217161178589,0.9401465058326721,0.19016556441783905,-0.5903334021568298
11.271371841430664,-0.038719769567251205,-1.0027084350585938,0.8669031858444214,0.9405279755592346,0.19016556441783905,-0.5903334021568298
11.291454315185547,-0.039101243019104004,-1.0027084350585938,0.8672846555709839,0.9416723847389221,0.19054703414440155,-0.5903334021568298
11.311582088470459,-0.039101243019104004,-1.0027084350585938,0.8672846555709839,0.9424353241920471,0.19092851877212524,-0.5903334021568298
11.331619262695312,-0.0394827201962471,-1.0027084350585938,0.8672846555709839,0.9431982636451721,0.19092851877212524,-0.5903334021568298
11.351710081100464,-0.0398641936480999,-1.0030899047851562,0.8672846555709839,0.9435797929763794,0.19092851877212524,-0.5903334021568298
11.371826648712158,-0.0398641936480999,-1.0038528442382812,0.8672846555709839,0.9439612627029419,0.19130998849868774,-0.5907148718833923
11.392012357711792,-0.0398641936480999,-1.0046159029006958,0.8672846555709839,0.9443427324295044,0.19130998849868774,-0.5907148718833923
11.412126064300537,-0.040245670825242996,-1.0049973726272583,0.8676661252975464,0.9447242021560669,0.19130998849868774,-0.5907148718833923
11.43223786354065,-0.04100862145423889,-1.0053788423538208,0.8680475950241089,0.9451056718826294,0.19130998849868774,-0.5907148718833923
11.452393770217896,-0.04100862145423889,-1.0057603120803833,0.8680475950241089,0.9458686113357544,0.19207294285297394,-0.5907148718833923
11.472446203231812,-0.04100862145423889,-1.0057603120803833,0.8684290647506714,0.9458686113357544,0.19169145822525024,-0.5907148718833923
11.492536544799805,-0.04100862145423889,-1.0057603120803833,0.8684290647506714,0.9462500810623169,0.19245441257953644,-0.5907148718833923
11.512645959854126,-0.04100862145423889,-1.0057603120803833,0.8684290647506714,0.9462500810623169,0.19283588230609894,-0.5907148718833923
11.532743692398071,-0.04100862145423889,-1.0057603120803833,0.8684290647506714,0.9462500810623169,0.19359883666038513,-0.5907148718833923
11.552947998046875,-0.04100862145423889,-1.0061417818069458,0.8688105344772339,0.9462500810623169,0.19474326074123383,-0.5907148718833923
11.573020696640015,-0.04100862145423889,-1.0065232515335083,0.8688105344772339,0.9462500810623169,0.19512474536895752,-0.5910963416099548
11.593105792999268,-0.04100862145423889,-1.0069047212600708,0.8691920638084412,0.9466315507888794,0.1966506391763687,-0.5910963416099548
11.61319875717163,-0.04100862145423889,-1.0069047212600708,0.8691920638084412,0.9466315507888794,0.1974135935306549,-0.5910963416099548
11.633264780044556,-0.04100862145423889,-1.0069047212600708,0.8691920638084412,0.9470130205154419,0.1974135935306549,-0.5910963416099548
11.653358697891235,-0.04100862145423889,-1.0076676607131958,0.8691920638084412,0.9470130205154419,0.1977950781583786,-0.5910963416099548
11.673484086990356,-0.04100862145423889,-1.0080491304397583,0.8691920638084412,0.9470130205154419,0.1989395022392273,-0.5910963416099548
11.693542718887329,-0.04100862145423889,-1.0080491304397583,0.8695735335350037,0.9473945498466492,0.1985580176115036,-0.5910963416099548
11.713862419128418,-0.04139009863138199,-1.0084306001663208,0.8699550032615662,0.9477760195732117,0.1985580176115036,-0.5910963416099548
11.733970165252686,-0.04139009863138199,-1.0088120698928833,0.8703364729881287,0.9493018984794617,0.200083926320076,-0.5910963416099548
11.754067182540894,-0.04177157208323479,-1.0088120698928833,0.8703364729881287,0.9500648379325867,0.20199130475521088,-0.5910963416099548
11.774177074432373,-0.04177157208323479,-1.0091935396194458,0.8703364729881287,0.9504463076591492,0.20160982012748718,-0.5910963416099548
11.794313430786133,-0.042153049260377884,-1.0099564790725708,0.8703364729881287,0.9504463076591492,0.20160982012748718,-0.5910963416099548
11.814377069473267,-0.042153049260377884,-1.0103379487991333,0.8707179427146912,0.9504463076591492,0.20160982012748718,-0.5910963416099548
11.834430932998657,-0.042153049260377884,-1.0107194185256958,0.8707179427146912,0.9504463076591492,0.20160982012748718,-0.5910963416099548
11.85458755493164,-0.042153049260377884,-1.0111008882522583,0.8710994124412537,0.9504463076591492,0.20199130475521088,-0.5910963416099548
11.874634504318237,-0.042153049260377884,-1.0111008882522583,0.8710994124412537,0.9504463076591492,0.20199130475521088,-0.5910963416099548
11.89474368095398,-0.04291599988937378,-1.0107194185256958,0.8714808821678162,0.9508277773857117,0.20237277448177338,-0.5914778113365173
11.91480541229248,-0.04329747334122658,-1.0111008882522583,0.8726252913475037,0.951209306716919,0.20275425910949707,-0.5914778113365173
11.934962034225464,-0.04329747334122658,-1.0111008882522583,0.8730067610740662,0.951972246170044,0.20275425910949707,-0.5914778113365173
11.955043315887451,-0.04406042397022247,-1.0111008882522583,0.8733882904052734,0.952735185623169,0.20313572883605957,-0.5914778113365173
11.975131750106812,-0.04406042397022247,-1.0111008882522583,0.8733882904052734,0.952735185623169,0.20275425910949707,-0.5918593406677246
11.99521279335022,-0.04406042397022247,-1.0114823579788208,0.8737697601318359,0.9531166553497314,0.20313572883605957,-0.5918593406677246
12.01537537574768,-0.04406042397022247,-1.0118639469146729,0.8733882904052734,0.953498125076294,0.20351719856262207,-0.5918593406677246
12.035404205322266,-0.04406042397022247,-1.0126268863677979,0.8733882904052734,0.953498125076294,0.20351719856262207,-0.5918593406677246
12.055490493774414,-0.04406042397022247,-1.0130083560943604,0.8733882904052734,0.953498125076294,0.20313572883605957,-0.5918593406677246
12.075569868087769,-0.04406042397022247,-1.0130083560943604,0.8733882904052734,0.9538795948028564,0.20351719856262207,-0.5918593406677246
12.09592056274414,-0.04406042397022247,-1.0130083560943604,0.8733882904052734,0.9538795948028564,0.20428015291690826,-0.5918593406677246
12.116018533706665,-0.04406042397022247,-1.0130083560943604,0.8733882904052734,0.954261064529419,0.20580606162548065,-0.5918593406677246
12.13614797592163,-0.04406042397022247,-1.0130083560943604,0.8733882904052734,0.954261064529419,0.20733195543289185,-0.5918593406677246
12.156224012374878,-0.04406042397022247,-1.0130083560943604,0.8733882904052734,0.9546425342559814,0.20809490978717804,-0.5918593406677246
12.17632269859314,-0.04406042397022247,-1.0137712955474854,0.8733882904052734,0.9546425342559814,0.20885786414146423,-0.5918593406677246
12.19642424583435,-0.04406042397022247,-1.0141527652740479,0.8733882904052734,0.955024003982544,0.21000228822231293,-0.5918593406677246
12.216638803482056,-0.04406042397022247,-1.0141527652740479,0.8733882904052734,0.9554055333137512,0.21000228822231293,-0.5918593406677246
12.236717939376831,-0.04406042397022247,-1.0141527652740479,0.8733882904052734,0.9565499424934387,0.20962081849575043,-0.5914778113365173
12.25718641281128,-0.04406042397022247,-1.0145342350006104,0.8733882904052734,0.9573128819465637,0.20962081849575043,-0.5918593406677246
12.277281522750854,-0.04444190114736557,-1.0145342350006104,0.8733882904052734,0.9576943516731262,0.21000228822231293,-0.5918593406677246
12.297353029251099,-0.04444190114736557,-1.0149157047271729,0.8733882904052734,0.9580758213996887,0.21000228822231293,-0.5918593406677246
12.317418575286865,-0.045204851776361465,-1.0149157047271729,0.8733882904052734,0.9576943516731262,0.21000228822231293,-0.5918593406677246
12.337620258331299,-0.045204851776361465,-1.0149157047271729,0.8733882904052734,0.9580758213996887,0.20962081849575043,-0.5918593406677246
12.357606649398804,-0.045204851776361465,-1.0149157047271729,0.8733882904052734,0.9580758213996887,0.20962081849575043,-0.5918593406677246
12.377746820449829,-0.04596780240535736,-1.0152971744537354,0.8733882904052734,0.9580758213996887,0.21000228822231293,-0.5918593406677246
12.39780068397522,-0.04634927958250046,-1.0152971744537354,0.8733882904052734,0.9584572911262512,0.21038375794887543,-0.5918593406677246
12.418252229690552,-0.04634927958250046,-1.0152971744537354,0.8737697601318359,0.9588387608528137,0.21076524257659912,-0.5918593406677246
12.438405990600586,-0.04634927958250046,-1.0164415836334229,0.8737697601318359,0.9588387608528137,0.21076524257659912,-0.5918593406677246
12.45842719078064,-0.04634927958250046,-1.0175859928131104,0.8745326995849609,0.959220290184021,0.21152819693088531,-0.5918593406677246
12.478662490844727,-0.04634927958250046,-1.0183489322662354,0.8745326995849609,0.959220290184021,0.21229113638401031,-0.5918593406677246
12.49867296218872,-0.04634927958250046,-1.0183489322662354,0.8745326995849609,0.9596017599105835,0.21190966665744781,-0.5918593406677246
12.518731832504272,-0.04634927958250046,-1.0183489322662354,0.8745326995849609,0.959983229637146,0.21229113638401031,-0.5918593406677246
12.538809776306152,-0.04634927958250046,-1.0183489322662354,0.8752956390380859,0.960746169090271,0.2130540907382965,-0.5918593406677246
12.558907270431519,-0.04634927958250046,-1.0183489322662354,0.8756771087646484,0.9611276388168335,0.2141985148191452,-0.5918593406677246
12.57899808883667,-0.04634927958250046,-1.0183489322662354,0.8756771087646484,0.961509108543396,0.2153429538011551,-0.5918593406677246
12.599089622497559,-0.04634927958250046,-1.0183489322662354,0.8760585784912109,0.961509108543396,0.2157244235277176,-0.5918593406677246
12.619155406951904,-0.04634927958250046,-1.0187304019927979,0.8760585784912109,0.961509108543396,0.2157244235277176,-0.5918593406677246
12.639317989349365,-0.04634927958250046,-1.0191118717193604,0.8764400482177734,0.961509108543396,0.21648737788200378,-0.5918593406677246
12.659534215927124,-0.04634927958250046,-1.0191118717193604,0.8768215179443359,0.9618905782699585,0.21763180196285248,-0.5918593406677246
12.679877758026123,-0.04634927958250046,-1.0191118717193604,0.8768215179443359,0.9618905782699585,0.21763180196285248,-0.5918593406677246
12.700072050094604,-0.04634927958250046,-1.0191118717193604,0.8772030472755432,0.9626535177230835,0.21801327168941498,-0.5918593406677246
12.720139980316162,-0.04634927958250046,-1.0191118717193604,0.8775845170021057,0.9630350470542908,0.21877622604370117,-0.5918593406677246
12.740264654159546,-0.046730753034353256,-1.0191118717193604,0.8775845170021057,0.9641794562339783,0.21915769577026367,-0.5914778113365173
12.760291814804077,-0.04711223021149635,-1.0194933414459229,0.8775845170021057,0.9645609259605408,0.22030213475227356,-0.5914778113365173
12.78058648109436,-0.04711223021149635,-1.0194933414459229,0.8772030472755432,0.9657053351402283,0.22068360447883606,-0.5914778113365173
12.800724506378174,-0.04711223021149635,-1.0202564001083374,0.8775845170021057,0.9660868048667908,0.22144655883312225,-0.5914778113365173
12.820831060409546,-0.04749370738863945,-1.0202564001083374,0.8775845170021057,0.967231273651123,0.22106507420539856,-0.5914778113365173
12.840965032577515,-0.04749370738863945,-1.0206378698349,0.8772030472755432,0.9676127433776855,0.22068360447883606,-0.5914778113365173
12.861135244369507,-0.04749370738863945,-1.0210193395614624,0.8775845170021057,0.9676127433776855,0.22106507420539856,-0.5914778113365173
12.881159782409668,-0.04749370738863945,-1.0210193395614624,0.8775845170021057,0.967994213104248,0.22182802855968475,-0.5914778113365173
12.901243925094604,-0.04749370738863945,-1.0210193395614624,0.8775845170021057,0.967994213104248,0.22220951318740845,-0.5914778113365173
12.921359062194824,-0.04749370738863945,-1.021400809288025,0.8779659867286682,0.967994213104248,0.22259098291397095,-0.5914778113365173
12.941475868225098,-0.048256658017635345,-1.021400809288025,0.8783474564552307,0.9683756828308105,0.22373540699481964,-0.5914778113365173
12.96156644821167,-0.048256658017635345,-1.02216374874115,0.8787289261817932,0.9683756828308105,0.22487983107566833,-0.5914778113365173
12.981664180755615,-0.048256658017635345,-1.02216374874115,0.8787289261817932,0.968757152557373,0.22716869413852692,-0.5914778113365173
13.00182294845581,-0.048256658017635345,-1.02216374874115,0.8787289261817932,0.968757152557373,0.22755016386508942,-0.5914778113365173
13.021978378295898,-0.048256658017635345,-1.0225452184677124,0.8787289261817932,0.968757152557373,0.22716869413852692,-0.5914778113365173
13.04204273223877,-0.048256658017635345,-1.0225452184677124,0.8787289261817932,0.968757152557373,0.22755016386508942,-0.5914778113365173
13.062201261520386,-0.048256658017635345,-1.022926688194275,0.8787289261817932,0.968757152557373,0.22793163359165192,-0.5914778113365173
13.082239151000977,-0.048256658017635345,-1.0233081579208374,0.8791103959083557,0.968757152557373,0.2283131182193756,-0.5914778113365173
13.102290868759155,-0.048256658017635345,-1.0233081579208374,0.8791103959083557,0.9691386222839355,0.22793163359165192,-0.5914778113365173
13.122415781021118,-0.048638131469488144,-1.0233081579208374,0.8791103959083557,0.968757152557373,0.22755016386508942,-0.5914778113365173
13.142503499984741,-0.04940108209848404,-1.0236896276474,0.8794918656349182,0.968757152557373,0.22793163359165192,-0.5914778113365173
13.16262674331665,-0.04940108209848404,-1.0236896276474,0.8794918656349182,0.9691386222839355,0.22793163359165192,-0.5914778113365173
13.182781219482422,-0.04940108209848404,-1.024452567100525,0.8794918656349182,0.969520092010498,0.2283131182193756,-0.5910963416099548
13.202842235565186,-0.04940108209848404,-1.024452567100525,0.8794918656349182,0.970283031463623,0.2283131182193756,-0.5910963416099548
13.222948551177979,-0.04940108209848404,-1.024452567100525,0.8794918656349182,0.970283031463623,0.22755016386508942,-0.5910963416099548
13.243093252182007,-0.04940108209848404,-1.02521550655365,0.8794918656349182,0.970283031463623,0.22755016386508942,-0.5910963416099548
13.263355255126953,-0.04940108209848404,-1.0255969762802124,0.8794918656349182,0.9710460305213928,0.2286945879459381,-0.5914778113365173
13.283435583114624,-0.04940108209848404,-1.0255969762802124,0.8794918656349182,0.9718089699745178,0.2286945879459381,-0.5914778113365173
13.303532600402832,-0.04940108209848404,-1.025978446006775,0.8798733353614807,0.9718089699745178,0.2286945879459381,-0.5910963416099548
13.323795795440674,-0.04940108209848404,-1.0263599157333374,0.8798733353614807,0.9721904397010803,0.2286945879459381,-0.5910963416099548
13.343882322311401,-0.04940108209848404,-1.0267413854599,0.8806362748146057,0.9721904397010803,0.2283131182193756,-0.5910963416099548
13.363938808441162,-0.04940108209848404,-1.0267413854599,0.8806362748146057,0.9725719094276428,0.2286945879459381,-0.5910963416099548
13.384049415588379,-0.04940108209848404,-1.0267413854599,0.881017804145813,0.9725719094276428,0.2294575423002243,-0.5910963416099548
13.40416955947876,-0.04940108209848404,-1.0263599157333374,0.881017804145813,0.9729533791542053,0.2309834510087967,-0.5910963416099548
13.424220323562622,-0.04940108209848404,-1.0267413854599,0.8813992738723755,0.9729533791542053,0.23212787508964539,-0.5910963416099548
13.444367408752441,-0.04940108209848404,-1.0267413854599,0.8813992738723755,0.9729533791542053,0.23289081454277039,-0.5910963416099548
13.464405059814453,-0.04940108209848404,-1.0267413854599,0.8813992738723755,0.9729533791542053,0.23327229917049408,-0.5910963416099548
13.484480857849121,-0.04940108209848404,-1.0271228551864624,0.8813992738723755,0.9729533791542053,0.23441672325134277,-0.5910963416099548
13.504553079605103,-0.049782559275627136,-1.0275044441223145,0.8813992738723755,0.9729533791542053,0.23556114733219147,-0.5910963416099548
13.524607181549072,-0.050164032727479935,-1.0275044441223145,0.8813992738723755,0.9729533791542053,0.23556114733219147,-0.5910963416099548
13.544725179672241,-0.050164032727479935,-1.0275044441223145,0.881780743598938,0.9733348488807678,0.23517967760562897,-0.5910963416099548
13.564842462539673,-0.050164032727479935,-1.0275044441223145,0.881780743598938,0.9740977883338928,0.23517967760562897,-0.5910963416099548
13.585132837295532,-0.05054550990462303,-1.0275044441223145,0.881780743598938,0.9752422571182251,0.23517967760562897,-0.5910963416099548
13.605219841003418,-0.050164032727479935,-1.027885913848877,0.882543683052063,0.9752422571182251,0.23517967760562897,-0.5910963416099548
13.625286340713501,-0.050164032727479935,-1.0282673835754395,0.8829251527786255,0.9752422571182251,0.23594263195991516,-0.5910963416099548
13.645543336868286,-0.050164032727479935,-1.028648853302002,0.8829251527786255,0.9756237268447876,0.23670557141304016,-0.5910963416099548
13.665634393692017,-0.050164032727479935,-1.028648853302002,0.8829251527786255,0.9756237268447876,0.23594263195991516,-0.5910963416099548
13.685705184936523,-0.050164032727479935,-1.0290303230285645,0.8829251527786255,0.9760051965713501,0.23556114733219147,-0.5907148718833923
13.70578646659851,-0.05054550990462303,-1.029411792755127,0.8829251527786255,0.9760051965713501,0.23594263195991516,-0.5910963416099548
13.725857496261597,-0.05054550990462303,-1.029411792755127,0.883306622505188,0.9760051965713501,0.23594263195991516,-0.5907148718833923
13.746013641357422,-0.05054550990462303,-1.029411792755127,0.883306622505188,0.9763866662979126,0.23594263195991516,-0.5907148718833923
13.766032457351685,-0.05054550990462303,-1.029411792755127,0.8836880922317505,0.9763866662979126,0.23632410168647766,-0.5907148718833923
13.786112070083618,-0.05054550990462303,-1.029411792755127,0.8836880922317505,0.9763866662979126,0.23632410168647766,-0.5907148718833923
13.806289911270142,-0.05054550990462303,-1.029411792755127,0.8836880922317505,0.9763866662979126,0.23632410168647766,-0.5907148718833923
13.82637643814087,-0.05130846053361893,-1.029411792755127,0.8836880922317505,0.9763866662979126,0.23670557141304016,-0.5907148718833923
13.846527338027954,-0.05130846053361893,-1.0297932624816895,0.8836880922317505,0.9763866662979126,0.23670557141304016,-0.5907148718833923
13.867233276367188,-0.05130846053361893,-1.0297932624816895,0.8836880922317505,0.9763866662979126,0.23632410168647766,-0.5907148718833923
13.887329578399658,-0.05130846053361893,-1.0297932624816895,0.8836880922317505,0.9767681360244751,0.23632410168647766,-0.5907148718833923
13.907396793365479,-0.05130846053361893,-1.030174732208252,0.8836880922317505,0.9767681360244751,0.23670557141304016,-0.5907148718833923
13.92745304107666,-0.05130846053361893,-1.030937671661377,0.8836880922317505,0.9767681360244751,0.23746852576732635,-0.5907148718833923
13.947537660598755,-0.05130846053361893,-1.031700611114502,0.884069561958313,0.9767681360244751,0.23823148012161255,-0.5907148718833923
13.967592000961304,-0.05130846053361893,-1.0320820808410645,0.884069561958313,0.9767681360244751,0.23746852576732635,-0.5907148718833923
13.98768401145935,-0.05130846053361893,-1.0328450202941895,0.884069561958313,0.9767681360244751,0.23746852576732635,-0.5907148718833923
14.0077645778656,-0.05130846053361893,-1.0328450202941895,0.884069561958313,0.9771496057510376,0.23746852576732635,-0.5907148718833923
14.027827501296997,-0.05130846053361893,-1.0328450202941895,0.8848325610160828,0.9771496057510376,0.23670557141304016,-0.5907148718833923
14.04791808128357,-0.05130846053361893,-1.0328450202941895,0.8852140307426453,0.9779125452041626,0.23785001039505005,-0.5907148718833923
14.06800103187561,-0.05130846053361893,-1.0328450202941895,0.8852140307426453,0.9786755442619324,0.23899443447589874,-0.5907148718833923
14.088080406188965,-0.051689937710762024,-1.0328450202941895,0.8855955004692078,0.9790570139884949,0.23975738883018494,-0.5907148718833923
14.108150243759155,-0.05130846053361893,-1.0328450202941895,0.8855955004692078,0.9794384837150574,0.23975738883018494,-0.5907148718833923
14.128322839736938,-0.051689937710762024,-1.0328450202941895,0.8855955004692078,0.9794384837150574,0.23975738883018494,-0.5907148718833923
14.148316621780396,-0.051689937710762024,-1.033226490020752,0.8855955004692078,0.9794384837150574,0.24013885855674744,-0.5907148718833923
14.168397903442383,-0.051689937710762024,-1.0336079597473145,0.8855955004692078,0.9798199534416199,0.24128328263759613,-0.5907148718833923
14.188547134399414,-0.05207141116261482,-1.0336079597473145,0.8855955004692078,0.9802014231681824,0.24128328263759613,-0.5907148718833923
14.20856237411499,-0.05207141116261482,-1.0336079597473145,0.8855955004692078,0.9802014231681824,0.24128328263759613,-0.5907148718833923
14.228803396224976,-0.05207141116261482,-1.0336079597473145,0.8855955004692078,0.9805828928947449,0.24166475236415863,-0.5903334021568298
14.248804807662964,-0.05245288833975792,-1.0336079597473145,0.8859769701957703,0.9805828928947449,0.24204623699188232,-0.5903334021568298
14.268874168395996,-0.05245288833975792,-1.0336079597473145,0.8859769701957703,0.9809643626213074,0.24280919134616852,-0.5903334021568298
14.289047718048096,-0.05245288833975792,-1.0336079597473145,0.8859769701957703,0.9809643626213074,0.24319066107273102,-0.5903334021568298
14.310201406478882,-0.05245288833975792,-1.0336079597473145,0.8859769701957703,0.9809643626213074,0.24357213079929352,-0.5903334021568298
14.330325365066528,-0.05245288833975792,-1.033989429473877,0.8859769701957703,0.9809643626213074,0.24319066107273102,-0.5903334021568298
14.350382566452026,-0.05245288833975792,-1.033989429473877,0.8863584399223328,0.9813458323478699,0.24319066107273102,-0.5903334021568298
14.370490550994873,-0.05245288833975792,-1.033989429473877,0.8867399096488953,0.9821087718009949,0.24319066107273102,-0.5903334021568298
14.390687704086304,-0.05245288833975792,-1.033989429473877,0.8871213793754578,0.9828717708587646,0.24357213079929352,-0.5903334021568298
14.410912275314331,-0.053215838968753815,-1.034752368927002,0.8871213793754578,0.9832532405853271,0.2443350851535797,-0.5899519324302673
14.431090593338013,-0.05359731614589691,-1.0351338386535645,0.8875028491020203,0.9836347103118896,0.2450980395078659,-0.5899519324302673
14.451194286346436,-0.05359731614589691,-1.035896897315979,0.8875028491020203,0.9836347103118896,0.2450980395078659,-0.5895704627037048
14.471407175064087,-0.05359731614589691,-1.035896897315979,0.8875028491020203,0.9836347103118896,0.2447165697813034,-0.5895704627037048
14.491560935974121,-0.05359731614589691,-1.0362783670425415,0.8875028491020203,0.9836347103118896,0.2443350851535797,-0.5888075232505798
