liuyurong129/humanoid-gym/humanoid/data/actual_q_20250522-053855.csv
timestamp,joint_1,joint_2,joint_3,joint_4,joint_5,joint_6
0.0001678466796875,0.00019073777366429567,0.15583276748657227,-0.07953765243291855,-0.00019073777366429567,0.000572213320992887,-0.00019073777366429567
0.020237445831298828,0.00019073777366429567,0.13218127191066742,-0.06847485899925232,-0.00019073777366429567,0.0009536888683214784,-0.00019073777366429567
0.04032444953918457,-0.00019073777366429567,0.11348897218704224,-0.06084534898400307,-0.00019073777366429567,0.0024795911740511656,-0.00019073777366429567
0.060418128967285156,-0.00019073777366429567,0.1024261862039566,-0.054741740226745605,-0.00019073777366429567,0.000572213320992887,-0.00019073777366429567
0.08048534393310547,-0.00019073777366429567,0.09136339277029037,-0.04749370738863945,-0.00019073777366429567,0.00019073777366429567,-0.00019073777366429567
0.1005561351776123,0.00019073777366429567,0.08258945494890213,-0.04253452271223068,-0.00019073777366429567,0.000572213320992887,-0.00019073777366429567
0.12075614929199219,0.0020981156267225742,0.07381551712751389,-0.03490501269698143,-0.00019073777366429567,-0.00019073777366429567,-0.00019073777366429567
0.14083480834960938,0.0036240178160369396,0.06809338182210922,-0.032616160809993744,-0.00019073777366429567,-0.00019073777366429567,-0.000572213320992887
0.1613140106201172,0.00476844422519207,0.06008239835500717,-0.03032730519771576,-0.00019073777366429567,-0.00019073777366429567,-0.000572213320992887
0.18140459060668945,0.007057297509163618,0.05359731614589691,-0.027656977996230125,-0.00019073777366429567,0.00019073777366429567,-0.0009536888683214784
0.20149636268615723,0.00858320016413927,0.048256658017635345,-0.024986648932099342,-0.00019073777366429567,0.0009536888683214784,-0.0009536888683214784
0.2216331958770752,0.009346150793135166,0.043678950518369675,-0.02231631986796856,-0.00019073777366429567,0.0009536888683214784,-0.001716639962978661
0.24168086051940918,0.010490577667951584,0.0398641936480999,-0.018501564860343933,-0.00019073777366429567,0.0009536888683214784,-0.0024795911740511656
0.2617950439453125,0.011635004542768002,0.03643091395497322,-0.016212711110711098,-0.00019073777366429567,0.000572213320992887,-0.002861066721379757
0.2818632125854492,0.012397955171763897,0.03223468363285065,-0.013542382046580315,-0.00019073777366429567,0.00019073777366429567,-0.0032425422687083483
0.30196380615234375,0.01430533267557621,0.026131074875593185,-0.009727626107633114,-0.00019073777366429567,0.00019073777366429567,-0.0032425422687083483
0.3220102787017822,0.015449759550392628,0.019645990803837776,-0.006294346414506435,0.00019073777366429567,0.00019073777366429567,-0.0036240178160369396
0.3421671390533447,0.016594186425209045,0.01506828423589468,-0.0036240178160369396,0.00019073777366429567,0.00019073777366429567,-0.004005493130534887
0.36221861839294434,0.01735713705420494,0.009727626107633114,-0.00019073777366429567,0.00019073777366429567,0.00019073777366429567,-0.004386968910694122
0.38236021995544434,0.01926451548933983,0.00476844422519207,0.004005493130534887,0.00019073777366429567,0.00019073777366429567,-0.00476844422519207
0.40244126319885254,0.021171892061829567,-0.00019073777366429567,0.007057297509163618,0.00019073777366429567,0.00019073777366429567,-0.005912871100008488
0.42263317108154297,0.02193484455347061,-0.00476844422519207,0.010109102353453636,0.00019073777366429567,0.000572213320992887,-0.006294346414506435
0.4427335262298584,0.022697795182466507,-0.011635004542768002,0.013160906732082367,0.000572213320992887,0.000572213320992887,-0.006294346414506435
0.4628586769104004,0.02384222112596035,-0.01735713705420494,0.016594186425209045,0.000572213320992887,0.00019073777366429567,-0.00667582219466567
0.4829568862915039,0.02536812424659729,-0.024223696440458298,0.019645990803837776,0.000572213320992887,0.000572213320992887,-0.00667582219466567
0.5030813217163086,0.02689402550458908,-0.03032730519771576,0.02231631986796856,0.0009536888683214784,0.000572213320992887,-0.00667582219466567
0.5231311321258545,0.027656977996230125,-0.035667963325977325,0.02536812424659729,0.0013351644156500697,0.0009536888683214784,-0.007057297509163618
0.543255090713501,0.02880140393972397,-0.0398641936480999,0.028038453310728073,0.001716639962978661,0.000572213320992887,-0.007438773289322853
0.5633082389831543,0.02994582988321781,-0.04482337832450867,0.030708782374858856,0.0020981156267225742,0.000572213320992887,-0.007438773289322853
0.583528995513916,0.03032730519771576,-0.051689937710762024,0.03490501269698143,0.002861066721379757,0.00019073777366429567,-0.0078202486038208
0.6036109924316406,0.03185320645570755,-0.057793546468019485,0.03833829239010811,0.0032425422687083483,0.00019073777366429567,-0.008201723918318748
0.6238350868225098,0.03223468363285065,-0.06313420087099075,0.04100862145423889,0.0032425422687083483,0.00019073777366429567,-0.008964675478637218
0.6438624858856201,0.034142062067985535,-0.07038223743438721,0.04444190114736557,0.0036240178160369396,0.00019073777366429567,-0.009727626107633114
0.6640138626098633,0.03604944050312042,-0.07801175117492676,0.04901960864663124,0.0036240178160369396,0.00019073777366429567,-0.010872052982449532
0.6842014789581299,0.03681239113211632,-0.08335240930318832,0.05245288833975792,0.004005493130534887,0.000572213320992887,-0.010872052982449532
0.7041971683502197,0.037193864583969116,-0.0879301130771637,0.0551232174038887,0.004005493130534887,0.00019073777366429567,-0.01125352829694748
0.7243585586547852,0.03795681521296501,-0.09594109654426575,0.05893797054886818,0.004005493130534887,0.00019073777366429567,-0.011635004542768002
0.7444801330566406,0.039101243019104004,-0.10433356463909149,0.06237125024199486,0.004386968910694122,0.00019073777366429567,-0.012397955171763897
0.7644574642181396,0.040245670825242996,-0.11425192654132843,0.06618601083755493,0.004386968910694122,0.00019073777366429567,-0.013160906732082367
0.7845458984375,0.042153049260377884,-0.12188144028186798,0.0707637146115303,0.005149920005351305,0.00019073777366429567,-0.013542382046580315
0.8047401905059814,0.04406042397022247,-0.12684062123298645,0.07419699430465698,0.005531395319849253,0.00019073777366429567,-0.013923857361078262
0.8248517513275146,0.04596780240535736,-0.135233074426651,0.07839322835206985,0.00667582219466567,0.00019073777366429567,-0.01430533267557621
0.8449249267578125,0.046730753034353256,-0.14820325374603271,0.08335240930318832,0.007057297509163618,-0.00019073777366429567,-0.014686808921396732
0.865013837814331,0.048638131469488144,-0.16002899408340454,0.0883115902543068,0.007438773289322853,0.00019073777366429567,-0.014686808921396732
0.8850893974304199,0.05054550990462303,-0.1653696447610855,0.09098191559314728,0.007438773289322853,0.00019073777366429567,-0.01506828423589468
0.9051806926727295,0.05283436179161072,-0.17261768877506256,0.09403372555971146,0.007438773289322853,0.00019073777366429567,-0.01506828423589468
0.9252614974975586,0.05359731614589691,-0.18520638346672058,0.09861142933368683,0.0078202486038208,0.00019073777366429567,-0.01583123579621315
0.9453411102294922,0.05397878959774971,-0.1970321238040924,0.1024261862039566,0.0078202486038208,0.000572213320992887,-0.016594186425209045
0.9653835296630859,0.0551232174038887,-0.20771344006061554,0.10624094307422638,0.0078202486038208,0.00019073777366429567,-0.01773861236870289
0.9854800701141357,0.05664911866188049,-0.2157244235277176,0.11005569249391556,0.008201723918318748,0.00019073777366429567,-0.018501564860343933
1.0055468082427979,0.058175019919872284,-0.22182802855968475,0.11310750246047974,0.00858320016413927,0.00019073777366429567,-0.01888304017484188
1.0256023406982422,0.05855649709701538,-0.2286945879459381,0.11654078215360641,0.008964675478637218,0.00019073777366429567,-0.01926451548933983
1.0456807613372803,0.059319447726011276,-0.23899443447589874,0.12149996310472488,0.009346150793135166,0.00019073777366429567,-0.02079041674733162
1.0658748149871826,0.06008239835500717,-0.248531311750412,0.12531471252441406,0.010109102353453636,0.00019073777366429567,-0.02193484455347061
1.0858592987060547,0.061226826161146164,-0.2592126429080963,0.12874799966812134,0.010490577667951584,0.00019073777366429567,-0.02193484455347061
1.1059367656707764,0.06275273114442825,-0.266460657119751,0.1333257108926773,0.010872052982449532,0.00019073777366429567,-0.02231631986796856
1.126028060913086,0.06351567804813385,-0.27180132269859314,0.1367589831352234,0.010872052982449532,-0.00019073777366429567,-0.02231631986796856
1.1460585594177246,0.06466010212898254,-0.2782863974571228,0.14171816408634186,0.01125352829694748,-0.00019073777366429567,-0.022697795182466507
1.1661720275878906,0.06580453366041183,-0.28629741072654724,0.14782176911830902,0.01125352829694748,0.00019073777366429567,-0.023079270496964455
1.186218023300171,0.06656748056411743,-0.2950713336467743,0.152399480342865,0.011635004542768002,-0.00019073777366429567,-0.02384222112596035
1.2062819004058838,0.06771191209554672,-0.30422675609588623,0.15583276748657227,0.011635004542768002,-0.00019073777366429567,-0.024605173617601395
1.2263295650482178,0.06923781335353851,-0.3130006790161133,0.16002899408340454,0.01201647985726595,-0.00019073777366429567,-0.02536812424659729
1.2464017868041992,0.07038223743438721,-0.31986725330352783,0.164988175034523,0.01201647985726595,0.00019073777366429567,-0.025749599561095238
1.2666325569152832,0.0711451917886734,-0.32520791888237,0.1680399775505066,0.012397955171763897,-0.00019073777366429567,-0.026131074875593185
1.2866060733795166,0.07267109304666519,-0.33207446336746216,0.17185473442077637,0.012779430486261845,-0.000572213320992887,-0.026131074875593185
1.3067121505737305,0.07381551712751389,-0.3400854468345642,0.17681391537189484,0.013923857361078262,-0.00019073777366429567,-0.02689402550458908
1.3267698287963867,0.07381551712751389,-0.34809643030166626,0.1817730963230133,0.014686808921396732,-0.00019073777366429567,-0.027656977996230125
1.346832275390625,0.07457847148180008,-0.3572518527507782,0.18520638346672058,0.014686808921396732,-0.00019073777366429567,-0.02880140393972397
1.366929054260254,0.07572289556264877,-0.36564430594444275,0.18863965570926666,0.014686808921396732,-0.00019073777366429567,-0.02994582988321781
1.3870604038238525,0.07648584991693497,-0.3725108802318573,0.19398032128810883,0.01506828423589468,0.00019073777366429567,-0.02994582988321781
1.4071033000946045,0.07801175117492676,-0.37899595499038696,0.1977950781583786,0.015449759550392628,-0.0009536888683214784,-0.03032730519771576
1.4271461963653564,0.07991912961006165,-0.3881513774394989,0.20237277448177338,0.015449759550392628,-0.001716639962978661,-0.030708782374858856
1.447232723236084,0.08030059933662415,-0.39768826961517334,0.20847637951374054,0.01583123579621315,-0.0009536888683214784,-0.030708782374858856
1.4673094749450684,0.08106355369091034,-0.4064621925354004,0.2130540907382965,0.016212711110711098,-0.000572213320992887,-0.03185320645570755
1.4873700141906738,0.08182650804519653,-0.41409170627593994,0.21686884760856628,0.016594186425209045,-0.000572213320992887,-0.03299763426184654
1.5075526237487793,0.08297093212604523,-0.4209582805633545,0.22220951318740845,0.01735713705420494,-0.000572213320992887,-0.03299763426184654
1.527616262435913,0.08411535620689392,-0.42668038606643677,0.2283131182193756,0.018120087683200836,-0.0009536888683214784,-0.03337911143898964
1.547807216644287,0.08564125746488571,-0.43202105164527893,0.23327229917049408,0.018501564860343933,-0.0013351644156500697,-0.03337911143898964
1.56778883934021,0.0871671661734581,-0.4381246566772461,0.23975738883018494,0.01888304017484188,-0.0009536888683214784,-0.03337911143898964
1.5880541801452637,0.0883115902543068,-0.44422826170921326,0.2458609938621521,0.01926451548933983,-0.0009536888683214784,-0.03376058489084244
1.6081387996673584,0.08907453715801239,-0.4503318965435028,0.2500572204589844,0.01926451548933983,-0.000572213320992887,-0.034142062067985535
1.6281788349151611,0.09021896868944168,-0.45719844102859497,0.25539788603782654,0.019645990803837776,-0.0009536888683214784,-0.03452353551983833
1.6483509540557861,0.09136339277029037,-0.4640650153160095,0.2618829607963562,0.020027466118335724,-0.000572213320992887,-0.03490501269698143
1.6684231758117676,0.09288929402828217,-0.4697871506214142,0.26722362637519836,0.02040894143283367,-0.0009536888683214784,-0.035667963325977325
1.688429594039917,0.09441519528627396,-0.47665369510650635,0.27218279242515564,0.021553369238972664,-0.002861066721379757,-0.03643091395497322
1.7085509300231934,0.09517814964056015,-0.4842832088470459,0.2794308364391327,0.02231631986796856,-0.002861066721379757,-0.037193864583969116
1.7286431789398193,0.09594109654426575,-0.49153125286102295,0.28477150201797485,0.02231631986796856,-0.001716639962978661,-0.03757534176111221
1.7487101554870605,0.09708552807569504,-0.4972533881664276,0.28934919834136963,0.022697795182466507,-0.001716639962978661,-0.03795681521296501
1.7687902450561523,0.09822995215654373,-0.5041199326515198,0.2939268946647644,0.022697795182466507,-0.0020981156267225742,-0.038719769567251205
1.7888617515563965,0.09975585341453552,-0.5117494463920593,0.30117493867874146,0.023460745811462402,-0.0020981156267225742,-0.0394827201962471
1.808936595916748,0.10128175467252731,-0.5197604298591614,0.3065156042575836,0.02384222112596035,-0.004005493130534887,-0.040245670825242996
1.8290412425994873,0.10166323184967041,-0.5273899435997009,0.31452658772468567,0.024223696440458298,-0.0032425422687083483,-0.04100862145423889
1.8490889072418213,0.1024261862039566,-0.5357823967933655,0.3229190409183502,0.02536812424659729,-0.002861066721379757,-0.04100862145423889
1.8691787719726562,0.1039520874619484,-0.5430304408073425,0.33207446336746216,0.025749599561095238,-0.0032425422687083483,-0.04139009863138199
1.889284372329712,0.10509651154279709,-0.5498970150947571,0.3381780683994293,0.026131074875593185,-0.0036240178160369396,-0.04139009863138199
1.9093005657196045,0.10700388997793198,-0.5579079985618591,0.344663143157959,0.026131074875593185,-0.00476844422519207,-0.042153049260377884
1.9294157028198242,0.10891126841306686,-0.5659189820289612,0.35229265689849854,0.026512550190091133,-0.005531395319849253,-0.04291599988937378
1.949514389038086,0.10929274559020996,-0.5735484957695007,0.3595407009124756,0.02689402550458908,-0.00476844422519207,-0.04406042397022247
1.9695682525634766,0.11081864684820175,-0.5823224186897278,0.36640727519989014,0.02689402550458908,-0.00476844422519207,-0.045204851776361465
1.9901823997497559,0.11234454810619354,-0.5910963416099548,0.3740367889404297,0.02727550081908703,-0.004386968910694122,-0.04558632895350456
2.0102694034576416,0.11387044936418533,-0.5994887948036194,0.38242924213409424,0.02841992862522602,-0.005531395319849253,-0.04634927958250046
2.0303282737731934,0.11615930497646332,-0.6071183085441589,0.3889143168926239,0.029564354568719864,-0.004005493130534887,-0.048256658017635345
2.05041766166687,0.11730372905731201,-0.6158922910690308,0.39654383063316345,0.02994582988321781,-0.005149920005351305,-0.048638131469488144
2.0706627368927,0.1184481605887413,-0.6246662139892578,0.404936283826828,0.03032730519771576,-0.005149920005351305,-0.048638131469488144
2.090630531311035,0.1192111074924469,-0.6326771974563599,0.41218432784080505,0.030708782374858856,-0.005531395319849253,-0.04901960864663124
2.110694646835327,0.12111848592758179,-0.6399252414703369,0.4198138415813446,0.031090257689356804,-0.00667582219466567,-0.049782559275627136
2.1308398246765137,0.12264438718557358,-0.648699164390564,0.43011367321014404,0.03185320645570755,-0.007438773289322853,-0.05054550990462303
2.1508946418762207,0.12378881871700287,-0.656710147857666,0.4369802474975586,0.03337911143898964,-0.007438773289322853,-0.05130846053361893
2.1709563732147217,0.12455176562070847,-0.6647211313247681,0.44499123096466064,0.03337911143898964,-0.007057297509163618,-0.05207141116261482
2.1910438537597656,0.12645913660526276,-0.6738765835762024,0.4552910625934601,0.03376058489084244,-0.0078202486038208,-0.05245288833975792
2.2111704349517822,0.12760357558727264,-0.6845578551292419,0.4667353332042694,0.034142062067985535,-0.0078202486038208,-0.05283436179161072
2.2312586307525635,0.12951095402240753,-0.6940947771072388,0.47665369510650635,0.034142062067985535,-0.007438773289322853,-0.053215838968753815
2.2513296604156494,0.13103684782981873,-0.7040131092071533,0.4873350262641907,0.03452353551983833,-0.0078202486038208,-0.05436026677489281
2.2714121341705322,0.13218127191066742,-0.7139315009117126,0.4991607666015625,0.03490501269698143,-0.007057297509163618,-0.056267641484737396
2.29158353805542,0.1337071806192398,-0.7238498330116272,0.5086976289749146,0.03490501269698143,-0.008201723918318748,-0.05664911866188049
2.3119089603424072,0.1363775134086609,-0.7352941036224365,0.5201418995857239,0.03604944050312042,-0.007057297509163618,-0.05703059583902359
2.3320093154907227,0.13904783129692078,-0.7486457824707031,0.5331120491027832,0.037193864583969116,-0.00858320016413927,-0.058175019919872284
2.352128505706787,0.13942931592464447,-0.76276034116745,0.5453193187713623,0.03757534176111221,-0.008201723918318748,-0.05893797054886818
2.3721461296081543,0.14133669435977936,-0.7784008383750916,0.5594338774681091,0.03795681521296501,-0.007438773289322853,-0.059319447726011276
2.3922903537750244,0.14400701224803925,-0.7909895181655884,0.5735484957695007,0.03833829239010811,-0.0078202486038208,-0.06008239835500717
2.4123895168304443,0.14591439068317413,-0.8039597272872925,0.5861371755599976,0.039101243019104004,-0.007438773289322853,-0.06008239835500717
2.4324517250061035,0.1489662081003189,-0.8161669373512268,0.5998703241348267,0.040627144277095795,-0.0078202486038208,-0.06046387553215027
2.452967405319214,0.1520180106163025,-0.8306630253791809,0.6158922910690308,0.04139009863138199,-0.008964675478637218,-0.06084534898400307
2.4731316566467285,0.15468832850456238,-0.8440146446228027,0.6303883194923401,0.042153049260377884,-0.010490577667951584,-0.06198977679014206
2.493216037750244,0.15697719156742096,-0.8573662638664246,0.6441214680671692,0.04253452271223068,-0.011635004542768002,-0.06351567804813385
2.5132710933685303,0.16002899408340454,-0.8730067610740662,0.6612878441810608,0.04406042397022247,-0.01430533267557621,-0.06466010212898254
2.533356189727783,0.16308079659938812,-0.8909361362457275,0.6815060377120972,0.045204851776361465,-0.013542382046580315,-0.06542305648326874
2.5535361766815186,0.1676585078239441,-0.9061951637268066,0.6986724734306335,0.046730753034353256,-0.013542382046580315,-0.06694895774126053
2.573594331741333,0.17299915850162506,-0.9252689480781555,0.7192721366882324,0.04787518084049225,-0.013542382046580315,-0.06771191209554672
2.5937798023223877,0.17872129380702972,-0.9431982636451721,0.7406347990036011,0.04940108209848404,-0.013923857361078262,-0.06809338182210922
2.6137783527374268,0.182154580950737,-0.961509108543396,0.7608529925346375,0.050164032727479935,-0.015449759550392628,-0.07000076025724411
2.6339433193206787,0.18825818598270416,-0.9859235286712646,0.7894636392593384,0.05207141116261482,-0.01583123579621315,-0.0722896158695221
2.6545157432556152,0.19245441257953644,-1.0095750093460083,0.811589241027832,0.05283436179161072,-0.014686808921396732,-0.07419699430465698
2.674589157104492,0.1993209719657898,-1.033226490020752,0.8348592519760132,0.05359731614589691,-0.015449759550392628,-0.07534141838550568
2.694655656814575,0.20962081849575043,-1.058022379875183,0.8581292629241943,0.056267641484737396,-0.016212711110711098,-0.07648584991693497
2.714794874191284,0.22373540699481964,-1.0851072072982788,0.8882657885551453,0.058175019919872284,-0.01506828423589468,-0.07801175117492676
2.734863758087158,0.23632410168647766,-1.117151141166687,0.9237430095672607,0.06084534898400307,-0.014686808921396732,-0.08144503086805344
2.7549660205841064,0.2473868876695633,-1.1480506658554077,0.9576943516731262,0.06198977679014206,-0.018501564860343933,-0.08449683338403702
2.775048017501831,0.2615014910697937,-1.1820019483566284,0.9962233901023865,0.06427863240242004,-0.02231631986796856,-0.0875486359000206
2.7951343059539795,0.2821011543273926,-1.2201495170593262,1.039711594581604,0.06961929053068161,-0.018120087683200836,-0.09021896868944168
2.8151912689208984,0.3076600432395935,-1.2628748416900635,1.0881589651107788,0.07686731964349747,-0.013923857361078262,-0.09517814964056015
2.835271120071411,0.33169299364089966,-1.3117036819458008,1.1430914402008057,0.08373387902975082,-0.012779430486261845,-0.1028076633810997
2.8553669452667236,0.34657052159309387,-1.3635843992233276,1.199549913406372,0.09479667246341705,-0.009727626107633114,-0.11577782779932022
2.875417947769165,0.3545815348625183,-1.4002059698104858,1.2373158931732178,0.10814831405878067,-0.00476844422519207,-0.13218127191066742
2.895462989807129,0.3568703830242157,-1.424238920211792,1.2628748416900635,0.1184481605887413,0.000572213320992887,-0.1504921019077301
2.915601968765259,0.3595407009124756,-1.4467459917068481,1.2880522012710571,0.13218127191066742,0.0020981156267225742,-0.1680399775505066
2.9357352256774902,0.36297398805618286,-1.4612420797348022,1.3071259260177612,0.14209964871406555,0.002861066721379757,-0.1836804747581482
2.9557855129241943,0.361829549074173,-1.4654383659362793,1.3200961351394653,0.152399480342865,-0.002861066721379757,-0.1981765478849411
2.9758682250976562,0.3583962619304657,-1.4654383659362793,1.3315403461456299,0.16002899408340454,-0.02040894143283367,-0.20847637951374054
2.9959073066711426,0.3557259440422058,-1.4631494283676147,1.340695858001709,0.1684214472770691,-0.035667963325977325,-0.2161058932542801
3.0160562992095947,0.35114824771881104,-1.4597162008285522,1.349469780921936,0.17528800666332245,-0.053215838968753815,-0.22373540699481964
3.036200761795044,0.34733349084854126,-1.4543755054473877,1.356717824935913,0.1836804747581482,-0.07038223743438721,-0.2313649207353592
3.0562686920166016,0.3442816734313965,-1.4501793384552002,1.3593881130218506,0.19130998849868774,-0.08411535620689392,-0.23899443447589874
3.076284646987915,0.3435187339782715,-1.4482718706130981,1.361295461654663,0.1966506391763687,-0.09670405089855194,-0.247768372297287
3.09637188911438,0.3435187339782715,-1.4467459917068481,1.3632028102874756,0.20351719856262207,-0.10624094307422638,-0.25577935576438904
3.116543769836426,0.343900203704834,-1.4459830522537231,1.3651102781295776,0.21038375794887543,-0.10967422276735306,-0.2637903392314911
3.13657808303833,0.344663143157959,-1.4452201128005981,1.3662546873092651,0.2153429538011551,-0.11005569249391556,-0.27180132269859314
3.1567890644073486,0.34695202112197876,-1.4433127641677856,1.3677805662155151,0.21801327168941498,-0.10814831405878067,-0.2782863974571228
3.1769304275512695,0.34924086928367615,-1.4398794174194336,1.3712139129638672,0.21953918039798737,-0.10585946589708328,-0.28515297174453735
3.1969401836395264,0.35038527846336365,-1.4360647201538086,1.3746471405029297,0.21992065012454987,-0.10471503436565399,-0.2904936373233795
3.2177984714508057,0.35076677799224854,-1.4326313734054565,1.3773174285888672,0.22030213475227356,-0.1039520874619484,-0.2969787120819092
3.2380423545837402,0.35038527846336365,-1.429961085319519,1.3796063661575317,0.22030213475227356,-0.1028076633810997,-0.30155640840530396
3.2580320835113525,0.34924086928367615,-1.4272907972335815,1.3815137147903442,0.22030213475227356,-0.1039520874619484,-0.30498969554901123
3.278110980987549,0.34809643030166626,-1.426146388053894,1.3826581239700317,0.22106507420539856,-0.10891126841306686,-0.3084229826927185
3.2981679439544678,0.34657052159309387,-1.425764799118042,1.3830395936965942,0.22220951318740845,-0.11425192654132843,-0.3122377395629883
3.318249464035034,0.34504464268684387,-1.4246203899383545,1.3834210634231567,0.22526131570339203,-0.12760357558727264,-0.31567102670669556
3.338334083557129,0.3427557647228241,-1.4223315715789795,1.3838025331497192,0.22678720951080322,-0.1356145590543747,-0.31834134459495544
3.3583998680114746,0.3412298858165741,-1.420424222946167,1.3845654726028442,0.22793163359165192,-0.1371404528617859,-0.32101166248321533
3.3785452842712402,0.3412298858165741,-1.41775381565094,1.3857098817825317,0.22793163359165192,-0.13981078565120697,-0.3229190409183502
3.3986172676086426,0.3412298858165741,-1.4143205881118774,1.3868544101715088,0.22793163359165192,-0.14019227027893066,-0.3244449496269226
3.4187190532684326,0.3412298858165741,-1.4112688302993774,1.3879988193511963,0.22716869413852692,-0.13942931592464447,-0.3286411762237549
3.4389073848724365,0.3416113555431366,-1.4093613624572754,1.3887617588043213,0.22602425515651703,-0.1371404528617859,-0.33093002438545227
3.4589908123016357,0.3419928252696991,-1.407454013824463,1.3883802890777588,0.22487983107566833,-0.1337071806192398,-0.33436331152915955
3.4790546894073486,0.3435187339782715,-1.405928134918213,1.3883802890777588,0.22449836134910583,-0.1325627565383911,-0.3389410376548767
3.4990992546081543,0.3435187339782715,-1.4047837257385254,1.3883802890777588,0.22373540699481964,-0.1340886503458023,-0.3419928252696991
3.519184112548828,0.3435187339782715,-1.4024949073791504,1.3879988193511963,0.22373540699481964,-0.134470134973526,-0.34542611241340637
3.539273738861084,0.343137264251709,-1.4005874395370483,1.3879988193511963,0.22297245264053345,-0.1371404528617859,-0.34771496057510376
3.5593485832214355,0.3423742949962616,-1.3979171514511108,1.3876173496246338,0.22068360447883606,-0.14019227027893066,-0.34847790002822876
3.579401731491089,0.3412298858165741,-1.3956283330917358,1.3872358798980713,0.21953918039798737,-0.14171816408634186,-0.34962233901023865
3.5995500087738037,0.3412298858165741,-1.3941023349761963,1.3868544101715088,0.21801327168941498,-0.14438849687576294,-0.35229265689849854
3.619657278060913,0.3412298858165741,-1.3921949863433838,1.3860913515090942,0.21686884760856628,-0.14705882966518402,-0.3542000353336334
3.6396706104278564,0.3408484160900116,-1.3902876377105713,1.3853284120559692,0.21648737788200378,-0.14705882966518402,-0.3564889132976532
3.6597516536712646,0.3408484160900116,-1.3887617588043213,1.3841840028762817,0.2161058932542801,-0.14591439068317413,-0.3591592311859131
3.679877281188965,0.3404669165611267,-1.3872358798980713,1.3834210634231567,0.2157244235277176,-0.14553292095661163,-0.36297398805618286
3.6999189853668213,0.3404669165611267,-1.3849469423294067,1.3818951845169067,0.2141985148191452,-0.14515145123004913,-0.36602577567100525
3.7202322483062744,0.3400854468345642,-1.3822766542434692,1.3811322450637817,0.212672621011734,-0.14515145123004913,-0.368314653635025
3.7403788566589355,0.3393225073814392,-1.3803693056106567,1.3799878358840942,0.21190966665744781,-0.14515145123004913,-0.3709849715232849
3.760418176651001,0.3393225073814392,-1.3784618377685547,1.3792248964309692,0.20962081849575043,-0.14553292095661163,-0.3728923499584198
3.7805325984954834,0.3389410376548767,-1.3757915496826172,1.3780803680419922,0.20923933386802673,-0.14705882966518402,-0.3747997283935547
3.800668478012085,0.3389410376548767,-1.3742656707763672,1.3769359588623047,0.20885786414146423,-0.14705882966518402,-0.3755626678466797
3.8207008838653564,0.3389410376548767,-1.3731212615966797,1.3754100799560547,0.20885786414146423,-0.14705882966518402,-0.37823301553726196
3.8409042358398438,0.3389410376548767,-1.3708323240280151,1.3723583221435547,0.20771344006061554,-0.14591439068317413,-0.38090333342552185
3.8609750270843506,0.3389410376548767,-1.3681620359420776,1.3696879148483276,0.20733195543289185,-0.14629587531089783,-0.38357365131378174
3.8809893131256104,0.3389410376548767,-1.3670176267623901,1.3681620359420776,0.20656901597976685,-0.14591439068317413,-0.386243999004364
3.9011905193328857,0.3389410376548767,-1.3658732175827026,1.3673990964889526,0.20504310727119446,-0.14476996660232544,-0.3896772861480713
3.9212353229522705,0.3381780683994293,-1.3635843992233276,1.3666361570358276,0.20313572883605957,-0.14515145123004913,-0.3919661343097687
3.9413578510284424,0.3381780683994293,-1.362821340560913,1.3654917478561401,0.20275425910949707,-0.14591439068317413,-0.39387351274490356
3.9613513946533203,0.3377965986728668,-1.3616769313812256,1.3643473386764526,0.20122835040092468,-0.14553292095661163,-0.39539939165115356
3.9814963340759277,0.3377965986728668,-1.360532522201538,1.3632028102874756,0.20160982012748718,-0.14591439068317413,-0.39806973934173584
4.001553535461426,0.3370336592197418,-1.359006643295288,1.362058401107788,0.20122835040092468,-0.14591439068317413,-0.3999771177768707
4.021700382232666,0.3370336592197418,-1.357480764389038,1.3609139919281006,0.20122835040092468,-0.14553292095661163,-0.4011215269565582
4.041790962219238,0.3370336592197418,-1.3563363552093506,1.359769582748413,0.20084688067436218,-0.14553292095661163,-0.4018844962120056
4.0619096755981445,0.3370336592197418,-1.3536659479141235,1.3578622341156006,0.2004653960466385,-0.14515145123004913,-0.404173344373703
4.081937789916992,0.3370336592197418,-1.352521538734436,1.3563363552093506,0.200083926320076,-0.14515145123004913,-0.4060807228088379
4.102041244506836,0.3370336592197418,-1.3513771295547485,1.3551918268203735,0.1989395022392273,-0.14515145123004913,-0.4083695709705353
4.122230768203735,0.3370336592197418,-1.350232720375061,1.354047417640686,0.1981765478849411,-0.14438849687576294,-0.41027694940567017
4.142322778701782,0.3370336592197418,-1.3490883111953735,1.3521400690078735,0.1977950781583786,-0.14438849687576294,-0.41256579756736755
4.162493705749512,0.3370336592197418,-1.3483253717422485,1.350995659828186,0.1977950781583786,-0.14476996660232544,-0.41561761498451233
4.182584285736084,0.3370336592197418,-1.347562313079834,1.3498512506484985,0.1970321238040924,-0.14362554252147675,-0.41676202416419983
4.202607870101929,0.3370336592197418,-1.3464179039001465,1.347562313079834,0.1970321238040924,-0.14286258816719055,-0.4182879328727722
4.2226502895355225,0.3370336592197418,-1.3448920249938965,1.3456549644470215,0.1966506391763687,-0.14324407279491425,-0.4201953113079071
4.242739200592041,0.3370336592197418,-1.3433661460876465,1.344510555267334,0.1962691694498062,-0.14324407279491425,-0.421339750289917
4.262798309326172,0.3370336592197418,-1.341458797454834,1.3426032066345215,0.19512474536895752,-0.14286258816719055,-0.4247730076313019
4.282909870147705,0.3374151289463043,-1.339551329612732,1.340695858001709,0.19436179101467133,-0.14286258816719055,-0.42744335532188416
4.302992343902588,0.3374151289463043,-1.338025450706482,1.339551329612732,0.19398032128810883,-0.14286258816719055,-0.42782482504844666
4.32306981086731,0.3374151289463043,-1.3361181020736694,1.3384069204330444,0.19359883666038513,-0.14248111844062805,-0.43011367321014404
4.3431315422058105,0.3374151289463043,-1.3353551626205444,1.336499571800232,0.19359883666038513,-0.14286258816719055,-0.43202105164527893
4.36320948600769,0.3374151289463043,-1.334210753440857,1.334973692893982,0.19359883666038513,-0.14248111844062805,-0.4343098998069763
4.383368015289307,0.3377965986728668,-1.3338292837142944,1.3330663442611694,0.19321736693382263,-0.14248111844062805,-0.4350728690624237
4.403440237045288,0.3389410376548767,-1.3330663442611694,1.3311588764190674,0.19321736693382263,-0.14248111844062805,-0.4365987777709961
4.423584938049316,0.3393225073814392,-1.3323034048080444,1.3292515277862549,0.19321736693382263,-0.14248111844062805,-0.4388876259326935
4.443928480148315,0.3393225073814392,-1.3319218158721924,1.3281071186065674,0.19321736693382263,-0.14209964871406555,-0.44079500436782837
4.463966131210327,0.3393225073814392,-1.3307774066925049,1.3261997699737549,0.19283588230609894,-0.14019227027893066,-0.44308385252952576
4.484041690826416,0.3393225073814392,-1.3288700580596924,1.3239108324050903,0.19245441257953644,-0.13904783129692078,-0.44537270069122314
4.504186391830444,0.3393225073814392,-1.3265812397003174,1.3212405443191528,0.19169145822525024,-0.13904783129692078,-0.44689860939979553
4.524365663528442,0.3393225073814392,-1.3254368305206299,1.3189517259597778,0.19130998849868774,-0.13942931592464447,-0.4503318965435028
4.544488191604614,0.3393225073814392,-1.3239108324050903,1.3170443773269653,0.19054703414440155,-0.13942931592464447,-0.4526207447052002
4.56478476524353,0.3393225073814392,-1.3235293626785278,1.3155183792114258,0.18978407979011536,-0.13904783129692078,-0.4530022144317627
4.5849690437316895,0.3393225073814392,-1.3223849534988403,1.3147554397583008,0.18978407979011536,-0.13942931592464447,-0.4537651538848877
4.605117321014404,0.3393225073814392,-1.3216220140457153,1.3136110305786133,0.18978407979011536,-0.13904783129692078,-0.4552910625934601
4.625221014022827,0.3393225073814392,-1.3204776048660278,1.3124666213989258,0.18978407979011536,-0.13904783129692078,-0.45757991075515747
4.645268201828003,0.3393225073814392,-1.3200961351394653,1.3113222122192383,0.18978407979011536,-0.13866636157035828,-0.45986875891685486
4.665467023849487,0.3393225073814392,-1.3197146654129028,1.3105592727661133,0.18978407979011536,-0.13904783129692078,-0.46101319789886475
4.685571193695068,0.3393225073814392,-1.3193331956863403,1.3094148635864258,0.18978407979011536,-0.13866636157035828,-0.46139466762542725
4.705673694610596,0.3393225073814392,-1.3181887865066528,1.3082703351974487,0.18940261006355286,-0.13866636157035828,-0.46253910660743713
4.7257843017578125,0.3393225073814392,-1.3181887865066528,1.3075073957443237,0.18940261006355286,-0.13904783129692078,-0.4640650153160095
4.745877265930176,0.3393225073814392,-1.3178073167800903,1.3063629865646362,0.18940261006355286,-0.13866636157035828,-0.4648279547691345
4.76591944694519,0.3393225073814392,-1.3170443773269653,1.3044556379318237,0.18902114033699036,-0.13866636157035828,-0.4671168029308319
4.786017417907715,0.3393225073814392,-1.3155183792114258,1.3025482892990112,0.18825818598270416,-0.13828489184379578,-0.4686427116394043
4.80611515045166,0.3397039771080017,-1.3143739700317383,1.3006408214569092,0.18825818598270416,-0.13828489184379578,-0.4701686203479767
4.8261778354644775,0.3397039771080017,-1.3136110305786133,1.2991149425506592,0.18787670135498047,-0.13866636157035828,-0.4720759987831116
4.846229314804077,0.3397039771080017,-1.3128480911254883,1.2983520030975342,0.18787670135498047,-0.13828489184379578,-0.4736018776893616
4.866318225860596,0.3404669165611267,-1.3117036819458008,1.2975890636444092,0.18749523162841797,-0.13866636157035828,-0.47703516483306885
4.886406183242798,0.3412298858165741,-1.3101778030395508,1.2956817150115967,0.18749523162841797,-0.13828489184379578,-0.47856107354164124
4.906464576721191,0.3412298858165741,-1.3090333938598633,1.2941558361053467,0.18787670135498047,-0.13790340721607208,-0.47894254326820374
4.926601886749268,0.3416113555431366,-1.3078888654708862,1.2922483682632446,0.18787670135498047,-0.1367589831352234,-0.4797055125236511
4.946688413619995,0.3416113555431366,-1.3071259260177612,1.2907224893569946,0.18787670135498047,-0.134470134973526,-0.4808499217033386
4.966770648956299,0.3416113555431366,-1.3067444562911987,1.2899595499038696,0.18787670135498047,-0.1329442262649536,-0.4827573001384735
4.986816883087158,0.3416113555431366,-1.3056000471115112,1.2884336709976196,0.18787670135498047,-0.13218127191066742,-0.4846646785736084
5.006944179534912,0.3416113555431366,-1.3048371076583862,1.2865263223648071,0.18787670135498047,-0.13218127191066742,-0.4861905872821808
5.027003526687622,0.3416113555431366,-1.3044556379318237,1.284618854522705,0.18787670135498047,-0.13218127191066742,-0.4869535267353058
5.0470757484436035,0.3416113555431366,-1.3036926984786987,1.28385591506958,0.18787670135498047,-0.13218127191066742,-0.4877164959907532
5.067123174667358,0.3416113555431366,-1.3033112287521362,1.28233003616333,0.18825818598270416,-0.13218127191066742,-0.4888609051704407
5.087207794189453,0.3416113555431366,-1.3029297590255737,1.2811856269836426,0.18825818598270416,-0.13179980218410492,-0.49114975333213806
5.107278347015381,0.3416113555431366,-1.3025482892990112,1.280041217803955,0.18825818598270416,-0.13141833245754242,-0.49343863129615784
5.12733268737793,0.3416113555431366,-1.3014038801193237,1.2788968086242676,0.18825818598270416,-0.13103684782981873,-0.4953460097312927
5.147426605224609,0.3416113555431366,-1.3006408214569092,1.2769893407821655,0.18825818598270416,-0.13103684782981873,-0.4972533881664276
5.167525768280029,0.3416113555431366,-1.2998778820037842,1.2754634618759155,0.18825818598270416,-0.13141833245754242,-0.4991607666015625
5.187548398971558,0.3416113555431366,-1.2994964122772217,1.275081992149353,0.18902114033699036,-0.13141833245754242,-0.501068115234375
5.207638263702393,0.3416113555431366,-1.2991149425506592,1.2739375829696655,0.18902114033699036,-0.13103684782981873,-0.5029755234718323
5.2277069091796875,0.3416113555431366,-1.2983520030975342,1.272030234336853,0.18902114033699036,-0.13065537810325623,-0.5041199326515198
5.24776029586792,0.3416113555431366,-1.2975890636444092,1.2701228857040405,0.18902114033699036,-0.13065537810325623,-0.5048828721046448
5.267866849899292,0.3416113555431366,-1.2968261241912842,1.267833948135376,0.18978407979011536,-0.13027389347553253,-0.5056458115577698
5.287967920303345,0.3416113555431366,-1.2964446544647217,1.266308069229126,0.19016556441783905,-0.12989242374897003,-0.506790280342102
5.30821681022644,0.3416113555431366,-1.2964446544647217,1.265545129776001,0.19016556441783905,-0.12989242374897003,-0.5079346895217896
5.3283491134643555,0.3416113555431366,-1.2964446544647217,1.264782190322876,0.19016556441783905,-0.12989242374897003,-0.509079098701477
5.348391056060791,0.3416113555431366,-1.2953002452850342,1.2644007205963135,0.19016556441783905,-0.12989242374897003,-0.509079098701477
5.368593454360962,0.3416113555431366,-1.2945373058319092,1.2628748416900635,0.19016556441783905,-0.12951095402240753,-0.5094605684280396
5.388603687286377,0.3416113555431366,-1.2930114269256592,1.2609673738479614,0.19016556441783905,-0.12951095402240753,-0.5106050372123718
5.408925294876099,0.3416113555431366,-1.2914854288101196,1.2594414949417114,0.19016556441783905,-0.12912946939468384,-0.5125123858451843
5.429170846939087,0.3416113555431366,-1.2907224893569946,1.2579156160354614,0.19016556441783905,-0.12798504531383514,-0.5132753252983093
5.449258089065552,0.3416113555431366,-1.2903410196304321,1.256771206855774,0.19016556441783905,-0.12684062123298645,-0.5148012638092041
5.469388961791992,0.3416113555431366,-1.2899595499038696,1.2556267976760864,0.19054703414440155,-0.12607766687870026,-0.5174715518951416
5.489425897598267,0.3416113555431366,-1.2895780801773071,1.255245327949524,0.19054703414440155,-0.12455176562070847,-0.5201418995857239
5.509603500366211,0.3416113555431366,-1.2888151407241821,1.2537193298339844,0.19054703414440155,-0.12302586436271667,-0.5216678380966187
5.529779434204102,0.3416113555431366,-1.2880522012710571,1.2529563903808594,0.19092851877212524,-0.12340734153985977,-0.5228122472763062
5.549846172332764,0.3416113555431366,-1.2872892618179321,1.2518119812011719,0.19054703414440155,-0.12226291000843048,-0.5239566564559937
5.5699379444122314,0.3416113555431366,-1.2861448526382446,1.2499046325683594,0.19092851877212524,-0.12188144028186798,-0.5243381261825562
5.58997654914856,0.3416113555431366,-1.2861448526382446,1.2491416931152344,0.19169145822525024,-0.12188144028186798,-0.5254825949668884
5.610119342803955,0.3416113555431366,-1.2861448526382446,1.2479972839355469,0.19130998849868774,-0.1203555315732956,-0.5277714133262634
5.630119323730469,0.3416113555431366,-1.2853819131851196,1.2464714050292969,0.19245441257953644,-0.1199740618467331,-0.5296788215637207
5.650376081466675,0.3416113555431366,-1.2850003242492676,1.2445639371871948,0.19283588230609894,-0.11959258466959,-0.5315861701965332
5.670338869094849,0.3416113555431366,-1.2842373847961426,1.2430380582809448,0.19398032128810883,-0.1188296303153038,-0.5315861701965332
5.690959215164185,0.3416113555431366,-1.2842373847961426,1.2422751188278198,0.19436179101467133,-0.1184481605887413,-0.5334935784339905
5.711090087890625,0.3416113555431366,-1.2842373847961426,1.2415121793746948,0.19436179101467133,-0.11768520623445511,-0.535400927066803
5.731229305267334,0.3416113555431366,-1.28385591506958,1.2399863004684448,0.19474326074123383,-0.11501488089561462,-0.5365453362464905
5.7513298988342285,0.3416113555431366,-1.2827115058898926,1.2384604215621948,0.19474326074123383,-0.11463340371847153,-0.5384527444839478
5.771385669708252,0.3416113555431366,-1.28233003616333,1.2373158931732178,0.19512474536895752,-0.11463340371847153,-0.5392156839370728
5.7914721965789795,0.3416113555431366,-1.2819485664367676,1.2357900142669678,0.19512474536895752,-0.11310750246047974,-0.5399786233901978
5.811567783355713,0.3416113555431366,-1.281567096710205,1.2342641353607178,0.1958876997232437,-0.11348897218704224,-0.5430304408073425
5.831654787063599,0.3416113555431366,-1.2811856269836426,1.2335011959075928,0.1962691694498062,-0.11348897218704224,-0.5453193187713623
5.851725339889526,0.3416113555431366,-1.28080415725708,1.2323567867279053,0.1977950781583786,-0.11272602528333664,-0.5472266674041748
5.871864080429077,0.3416113555431366,-1.280041217803955,1.2315938472747803,0.1981765478849411,-0.11272602528333664,-0.5472266674041748
5.891953229904175,0.3412298858165741,-1.27927827835083,1.2304493188858032,0.1985580176115036,-0.11234454810619354,-0.5472266674041748
5.9121928215026855,0.3412298858165741,-1.2788968086242676,1.2293049097061157,0.1985580176115036,-0.11196307092905045,-0.5476081371307373
5.932328939437866,0.3412298858165741,-1.2781338691711426,1.2273975610733032,0.1997024416923523,-0.11120012402534485,-0.5491340756416321
5.952446937561035,0.3412298858165741,-1.2781338691711426,1.2262531518936157,0.20122835040092468,-0.11043716967105865,-0.5502784848213196
5.972451448440552,0.3412298858165741,-1.27775239944458,1.2247272729873657,0.20199130475521088,-0.10852979123592377,-0.5502784848213196
5.992513179779053,0.3412298858165741,-1.2769893407821655,1.2232013940811157,0.20237277448177338,-0.10776684433221817,-0.5510414242744446
6.0126729011535645,0.3412298858165741,-1.2769893407821655,1.2228199243545532,0.20389868319034576,-0.10776684433221817,-0.5529488325119019
6.032700300216675,0.3412298858165741,-1.276607871055603,1.2224383354187012,0.20504310727119446,-0.10662241280078888,-0.5544747114181519
6.0528223514556885,0.3408484160900116,-1.275844931602478,1.2216753959655762,0.20542457699775696,-0.10547798871994019,-0.5544747114181519
6.072884559631348,0.3404669165611267,-1.2747005224227905,1.2212939262390137,0.20542457699775696,-0.10471503436565399,-0.5552376508712769
6.092981576919556,0.3400854468345642,-1.2739375829696655,1.2197680473327637,0.20580606162548065,-0.10433356463909149,-0.5567635893821716
6.113048553466797,0.3397039771080017,-1.2731746435165405,1.2186236381530762,0.20542457699775696,-0.10433356463909149,-0.5575265288352966
6.133069753646851,0.3393225073814392,-1.272793173789978,1.2170977592468262,0.20580606162548065,-0.1035706102848053,-0.5575265288352966
6.153131484985352,0.3393225073814392,-1.272793173789978,1.2163348197937012,0.20618753135204315,-0.10471503436565399,-0.5582894682884216
6.173202037811279,0.3393225073814392,-1.272793173789978,1.2148088216781616,0.20618753135204315,-0.1039520874619484,-0.5582894682884216
6.193289041519165,0.3389410376548767,-1.272793173789978,1.2136644124984741,0.20656901597976685,-0.1039520874619484,-0.5582894682884216
6.213354110717773,0.3389410376548767,-1.272793173789978,1.2125200033187866,0.20656901597976685,-0.1035706102848053,-0.5590524077415466
6.233409643173218,0.3389410376548767,-1.2724117040634155,1.2117570638656616,0.20656901597976685,-0.1024261862039566,-0.5598153471946716
6.253489971160889,0.3389410376548767,-1.272030234336853,1.2113755941390991,0.20733195543289185,-0.10204470902681351,-0.5628671646118164
6.2736828327178955,0.3389410376548767,-1.2716487646102905,1.2106126546859741,0.20923933386802673,-0.10090028494596481,-0.5647745728492737
6.293708324432373,0.3389410376548767,-1.271267294883728,1.2094682455062866,0.20923933386802673,-0.09975585341453552,-0.5655375123023987
6.3137829303741455,0.3389410376548767,-1.270504355430603,1.2087053060531616,0.20962081849575043,-0.09937438368797302,-0.5666819214820862
6.333871841430664,0.3389410376548767,-1.269741415977478,1.2075608968734741,0.21000228822231293,-0.09899290651082993,-0.5682078003883362
6.353902339935303,0.3385595381259918,-1.269741415977478,1.2067978382110596,0.21000228822231293,-0.09822995215654373,-0.569733738899231
6.373971939086914,0.3381780683994293,-1.269741415977478,1.2060348987579346,0.21114671230316162,-0.09784847497940063,-0.571259617805481
6.394063949584961,0.3381780683994293,-1.269741415977478,1.204890489578247,0.212672621011734,-0.09670405089855194,-0.5731670260429382
6.414178848266602,0.3377965986728668,-1.269359827041626,1.2029831409454346,0.2138170450925827,-0.09632257372140884,-0.5735484957695007
6.434438705444336,0.3374151289463043,-1.268596887588501,1.2022202014923096,0.2153429538011551,-0.09555962681770325,-0.576218843460083
6.454657554626465,0.3374151289463043,-1.268596887588501,1.2014572620391846,0.21686884760856628,-0.09479667246341705,-0.576981782913208
6.474774122238159,0.3370336592197418,-1.268596887588501,1.200312852859497,0.21686884760856628,-0.09365224838256836,-0.577744722366333
6.494772911071777,0.3370336592197418,-1.2682154178619385,1.1999313831329346,0.21725031733512878,-0.09365224838256836,-0.5796520709991455
6.5148606300354,0.3370336592197418,-1.267833948135376,1.19916832447052,0.21725031733512878,-0.09327077120542526,-0.5811780095100403
6.534956455230713,0.3370336592197418,-1.267833948135376,1.198405385017395,0.21763180196285248,-0.09327077120542526,-0.5823224186897278
6.554990768432617,0.3370336592197418,-1.2674524784088135,1.1972609758377075,0.21763180196285248,-0.09250781685113907,-0.5838482975959778
6.575102806091309,0.3370336592197418,-1.267071008682251,1.1964980363845825,0.21801327168941498,-0.09136339277029037,-0.5838482975959778
6.595234394073486,0.3370336592197418,-1.2666895389556885,1.195353627204895,0.21839475631713867,-0.09060044586658478,-0.5842298269271851
6.615275859832764,0.3370336592197418,-1.2666895389556885,1.1949721574783325,0.21877622604370117,-0.08983749151229858,-0.5842298269271851
6.635325908660889,0.3370336592197418,-1.266308069229126,1.1949721574783325,0.21992065012454987,-0.08869306743144989,-0.5846112966537476
6.6554951667785645,0.3370336592197418,-1.266308069229126,1.19459068775177,0.22068360447883606,-0.0879301130771637,-0.5846112966537476
6.675548791885376,0.3370336592197418,-1.2659265995025635,1.1942092180252075,0.22106507420539856,-0.0864042118191719,-0.5849927663803101
6.695570945739746,0.33665215969085693,-1.265545129776001,1.19306480884552,0.22182802855968475,-0.08602273464202881,-0.5853742361068726
6.715661525726318,0.33665215969085693,-1.265545129776001,1.1926833391189575,0.22297245264053345,-0.08564125746488571,-0.5869001150131226
6.735747575759888,0.33627068996429443,-1.265545129776001,1.192301869392395,0.22449836134910583,-0.08525978773832321,-0.5884260535240173
6.7558674812316895,0.33627068996429443,-1.265545129776001,1.19153892993927,0.22449836134910583,-0.08525978773832321,-0.5884260535240173
6.775960445404053,0.33627068996429443,-1.2644007205963135,1.1900129318237305,0.22487983107566833,-0.08487831056118011,-0.5895704627037048
6.796055555343628,0.33627068996429443,-1.264019250869751,1.189631462097168,0.22526131570339203,-0.08525978773832321,-0.5910963416099548
6.8161540031433105,0.33627068996429443,-1.2636377811431885,1.188868522644043,0.22564278542995453,-0.08411535620689392,-0.5910963416099548
6.836233854293823,0.33588922023773193,-1.2636377811431885,1.1884870529174805,0.22640573978424072,-0.08297093212604523,-0.5914778113365173
6.856299638748169,0.33512628078460693,-1.263256311416626,1.1877241134643555,0.22755016386508942,-0.08030059933662415,-0.5914778113365173
6.876411199569702,0.33436331152915955,-1.263256311416626,1.1869611740112305,0.22793163359165192,-0.07801175117492676,-0.5922408103942871
6.896440029144287,0.33436331152915955,-1.2628748416900635,1.185816764831543,0.2283131182193756,-0.07877469807863235,-0.5930037498474121
6.916520357131958,0.33436331152915955,-1.262493371963501,1.1854352951049805,0.2286945879459381,-0.07953765243291855,-0.5952925682067871
6.936583042144775,0.33436331152915955,-1.262493371963501,1.1846723556518555,0.2286945879459381,-0.07915617525577545,-0.5960555672645569
6.956664800643921,0.33436331152915955,-1.2621119022369385,1.184290885925293,0.2298390120267868,-0.07915617525577545,-0.5987258553504944
6.97674560546875,0.33436331152915955,-1.261730432510376,1.184290885925293,0.2302204966545105,-0.07915617525577545,-0.5994887948036194
6.996812105178833,0.33436331152915955,-1.261730432510376,1.183146357536316,0.2309834510087967,-0.07839322835206985,-0.5998703241348267
7.016901731491089,0.33436331152915955,-1.261348843574524,1.1820019483566284,0.23212787508964539,-0.07839322835206985,-0.5998703241348267
7.036985874176025,0.33436331152915955,-1.261730432510376,1.1812390089035034,0.23212787508964539,-0.07839322835206985,-0.6006332635879517
7.057050466537476,0.33436331152915955,-1.261730432510376,1.1804760694503784,0.23250934481620789,-0.07839322835206985,-0.6010147333145142
7.077232599258423,0.33436331152915955,-1.261730432510376,1.180094599723816,0.23250934481620789,-0.07839322835206985,-0.6025406122207642
7.097222566604614,0.33398184180259705,-1.261348843574524,1.179331660270691,0.23327229917049408,-0.07801175117492676,-0.6025406122207642
7.117445945739746,0.33398184180259705,-1.261348843574524,1.1789501905441284,0.23479819297790527,-0.07801175117492676,-0.6029220819473267
7.137409925460815,0.33398184180259705,-1.260585904121399,1.1781872510910034,0.23594263195991516,-0.07801175117492676,-0.6029220819473267
7.1574859619140625,0.33398184180259705,-1.2602044343948364,1.1774243116378784,0.23594263195991516,-0.07724879682064056,-0.6052109599113464
7.177720546722412,0.33321890234947205,-1.2602044343948364,1.1766613721847534,0.23594263195991516,-0.07572289556264877,-0.6078813076019287
7.197649002075195,0.33283740282058716,-1.259822964668274,1.1758984327316284,0.23594263195991516,-0.07343403995037079,-0.6097886562347412
7.217702865600586,0.33207446336746216,-1.259822964668274,1.1747539043426514,0.23670557141304016,-0.07305257022380829,-0.6101701259613037
7.237899541854858,0.33207446336746216,-1.2594414949417114,1.1739909648895264,0.23670557141304016,-0.0715266615152359,-0.6105515956878662
7.257873773574829,0.33207446336746216,-1.2594414949417114,1.1732280254364014,0.23785001039505005,-0.0711451917886734,-0.6109330654144287
7.2779295444488525,0.33207446336746216,-1.2594414949417114,1.1732280254364014,0.23975738883018494,-0.0707637146115303,-0.6116960644721985
7.298009395599365,0.33207446336746216,-1.2594414949417114,1.1720836162567139,0.23975738883018494,-0.06961929053068161,-0.612077534198761
7.318089485168457,0.33207446336746216,-1.2594414949417114,1.1709392070770264,0.24013885855674744,-0.06847485899925232,-0.6132219433784485
7.338126182556152,0.33169299364089966,-1.259060025215149,1.1697947978973389,0.24052032828330994,-0.06694895774126053,-0.614366352558136
7.358251333236694,0.33131152391433716,-1.2594414949417114,1.1690318584442139,0.24128328263759613,-0.06656748056411743,-0.615129292011261
7.3783791065216064,0.33093002438545227,-1.2594414949417114,1.1678873300552368,0.24280919134616852,-0.06542305648326874,-0.6158922910690308
7.398374795913696,0.33054855465888977,-1.259060025215149,1.1682689189910889,0.24319066107273102,-0.06580453366041183,-0.6170367002487183
7.418535232543945,0.32978561520576477,-1.258297085762024,1.1678873300552368,0.24319066107273102,-0.06504157930612564,-0.6170367002487183
7.43864369392395,0.3286411762237549,-1.257534146308899,1.1678873300552368,0.24357213079929352,-0.06504157930612564,-0.6174181699752808
7.458625078201294,0.3278782367706299,-1.2571526765823364,1.1678873300552368,0.2439536154270172,-0.06389715522527695,-0.6174181699752808
7.478803634643555,0.32673379778862,-1.2571526765823364,1.1675058603286743,0.2447165697813034,-0.06237125024199486,-0.6177996397018433
7.498814821243286,0.32673379778862,-1.2571526765823364,1.1667429208755493,0.2454795092344284,-0.06160829961299896,-0.6177996397018433
7.5189149379730225,0.32673379778862,-1.2571526765823364,1.1648355722427368,0.2470054179430008,-0.06084534898400307,-0.6181811094284058
7.538950443267822,0.32673379778862,-1.2571526765823364,1.1640726327896118,0.247768372297287,-0.06008239835500717,-0.6189440488815308
7.5590550899505615,0.3271152675151825,-1.257534146308899,1.1629282236099243,0.248531311750412,-0.05855649709701538,-0.6204699873924255
7.57909893989563,0.3271152675151825,-1.2571526765823364,1.1621652841567993,0.2500572204589844,-0.05703059583902359,-0.622377336025238
7.599210977554321,0.3271152675151825,-1.2571526765823364,1.1621652841567993,0.2508201599121094,-0.056267641484737396,-0.622377336025238
7.6192710399627686,0.3271152675151825,-1.2571526765823364,1.1621652841567993,0.2508201599121094,-0.0551232174038887,-0.6231403350830078
7.639322280883789,0.3271152675151825,-1.2571526765823364,1.1621652841567993,0.25120165944099426,-0.054741740226745605,-0.6250476837158203
7.6594462394714355,0.3271152675151825,-1.2563897371292114,1.1617838144302368,0.25158312916755676,-0.054741740226745605,-0.6254291534423828
7.679553508758545,0.3271152675151825,-1.2563897371292114,1.1614023447036743,0.25310903787612915,-0.05397878959774971,-0.6254291534423828
7.699576377868652,0.3271152675151825,-1.2563897371292114,1.1610208749771118,0.25425344705581665,-0.053215838968753815,-0.6258106231689453
7.719656467437744,0.3271152675151825,-1.256008267402649,1.1610208749771118,0.25463491678237915,-0.05207141116261482,-0.6261920928955078
7.739819049835205,0.3271152675151825,-1.256008267402649,1.1610208749771118,0.25501641631126404,-0.051689937710762024,-0.6273365616798401
7.7598350048065186,0.3271152675151825,-1.2556267976760864,1.1606394052505493,0.25577935576438904,-0.05092698708176613,-0.6288624405860901
7.779935598373413,0.3271152675151825,-1.255245327949524,1.1598763465881348,0.2573052644729614,-0.049782559275627136,-0.6292439103126526
7.800102949142456,0.3271152675151825,-1.255245327949524,1.1598763465881348,0.2580682039260864,-0.049782559275627136,-0.6303883194923401
7.8201072216033936,0.32673379778862,-1.255245327949524,1.1594948768615723,0.2584496736526489,-0.04940108209848404,-0.6326771974563599
7.840216159820557,0.32673379778862,-1.255245327949524,1.1591134071350098,0.2584496736526489,-0.04940108209848404,-0.6334401369094849
7.860232830047607,0.32673379778862,-1.255245327949524,1.1587319374084473,0.2584496736526489,-0.04940108209848404,-0.6334401369094849
7.8803558349609375,0.32673379778862,-1.255245327949524,1.1587319374084473,0.2588311731815338,-0.048638131469488144,-0.6338216066360474
7.9004716873168945,0.32673379778862,-1.255245327949524,1.1583504676818848,0.2588311731815338,-0.048638131469488144,-0.6342030763626099
7.920558452606201,0.3263523280620575,-1.255245327949524,1.1572060585021973,0.2588311731815338,-0.04787518084049225,-0.6345845460891724
7.94063663482666,0.3255893886089325,-1.255245327949524,1.1568245887756348,0.2595941126346588,-0.04749370738863945,-0.6349660754203796
7.96079683303833,0.3248264193534851,-1.255245327949524,1.1560616493225098,0.2607385218143463,-0.04711223021149635,-0.6357290148735046
7.980870246887207,0.3248264193534851,-1.255245327949524,1.1549172401428223,0.2622644305229187,-0.04634927958250046,-0.6361104846000671
8.000925779342651,0.3244449496269226,-1.255245327949524,1.1541543006896973,0.2626459002494812,-0.04596780240535736,-0.6361104846000671
8.021035194396973,0.3236820101737976,-1.255245327949524,1.1537728309631348,0.2630273997783661,-0.04444190114736557,-0.6361104846000671
8.04106330871582,0.3233005404472351,-1.255245327949524,1.1533913612365723,0.2645532786846161,-0.04329747334122658,-0.6364919543266296
8.061113119125366,0.3225375711917877,-1.255245327949524,1.1530098915100098,0.265697717666626,-0.04139009863138199,-0.6364919543266296
8.081243515014648,0.3225375711917877,-1.2548638582229614,1.1526284217834473,0.2660791873931885,-0.040245670825242996,-0.6364919543266296
8.10136342048645,0.3221561014652252,-1.2548638582229614,1.1522468328475952,0.26684215664863586,-0.0398641936480999,-0.6368734240531921
8.121389150619507,0.3217746317386627,-1.254482388496399,1.1518653631210327,0.26798656582832336,-0.03795681521296501,-0.6372548937797546
8.141456127166748,0.3217746317386627,-1.2541009187698364,1.1514838933944702,0.26989394426345825,-0.03757534176111221,-0.6376363635063171
8.161615133285522,0.3213931620121002,-1.2541009187698364,1.1514838933944702,0.26989394426345825,-0.03643091395497322,-0.6383993029594421
8.181649446487427,0.32101166248321533,-1.2541009187698364,1.1507209539413452,0.27065691351890564,-0.03528648987412453,-0.6395437717437744
8.20171070098877,0.32024872303009033,-1.2541009187698364,1.1507209539413452,0.27180132269859314,-0.032616160809993744,-0.6410696506500244
8.221864938735962,0.32024872303009033,-1.2541009187698364,1.1507209539413452,0.2725642919540405,-0.03185320645570755,-0.6422140598297119
8.241925716400146,0.32024872303009033,-1.2541009187698364,1.1503394842147827,0.2733272314071655,-0.03147173300385475,-0.6433585286140442
8.261994361877441,0.32024872303009033,-1.2541009187698364,1.1495765447616577,0.273708701133728,-0.030708782374858856,-0.6437399983406067
8.28208875656128,0.31986725330352783,-1.2541009187698364,1.1491950750350952,0.2740901708602905,-0.030708782374858856,-0.6441214680671692
8.30215859413147,0.31986725330352783,-1.2541009187698364,1.1488136053085327,0.2752346098423004,-0.03032730519771576,-0.6445029377937317
8.322219848632812,0.31986725330352783,-1.2541009187698364,1.1484321355819702,0.2771419882774353,-0.02994582988321781,-0.6445029377937317
8.342466354370117,0.31986725330352783,-1.2541009187698364,1.1484321355819702,0.2775234580039978,-0.029182879254221916,-0.6448844075202942
8.362709522247314,0.31986725330352783,-1.2541009187698364,1.1484321355819702,0.2786678969860077,-0.028038453310728073,-0.6456473469734192
8.382660627365112,0.31948578357696533,-1.2533378601074219,1.1476691961288452,0.2801937758922577,-0.025749599561095238,-0.6467918157577515
8.402863264083862,0.31948578357696533,-1.2533378601074219,1.1472877264022827,0.2809567451477051,-0.024986648932099342,-0.647173285484314
8.422947406768799,0.31910428404808044,-1.2529563903808594,1.1469062566757202,0.2813382148742676,-0.024605173617601395,-0.647936224937439
8.443045854568481,0.31834134459495544,-1.2529563903808594,1.1465247869491577,0.2821011543273926,-0.023460745811462402,-0.648699164390564
8.463130235671997,0.31757840514183044,-1.2533378601074219,1.1465247869491577,0.28400853276252747,-0.023079270496964455,-0.6509880423545837
8.483196496963501,0.31719690561294556,-1.2533378601074219,1.1461433172225952,0.28400853276252747,-0.023079270496964455,-0.6513695120811462
8.50326919555664,0.31605249643325806,-1.2533378601074219,1.1461433172225952,0.28400853276252747,-0.023079270496964455,-0.6513695120811462
8.523374319076538,0.31414511799812317,-1.2533378601074219,1.1453803777694702,0.28439003229141235,-0.021553369238972664,-0.6517509818077087
8.544069528579712,0.3130006790161133,-1.2533378601074219,1.1449989080429077,0.28439003229141235,-0.021171892061829567,-0.6517509818077087
8.564201593399048,0.3130006790161133,-1.2533378601074219,1.1446174383163452,0.28477150201797485,-0.02079041674733162,-0.6517509818077087
8.58423137664795,0.3122377395629883,-1.2533378601074219,1.1442358493804932,0.28515297174453735,-0.02079041674733162,-0.6521324515342712
8.604309558868408,0.3122377395629883,-1.2537193298339844,1.1434729099273682,0.28629741072654724,-0.02040894143283367,-0.6525139212608337
8.62437129020691,0.3122377395629883,-1.2533378601074219,1.1430914402008057,0.28744181990623474,-0.01888304017484188,-0.6532768607139587
8.644474506378174,0.3122377395629883,-1.2533378601074219,1.1427099704742432,0.28820478916168213,-0.016975661739706993,-0.654421329498291
8.664545774459839,0.3122377395629883,-1.2533378601074219,1.1427099704742432,0.28820478916168213,-0.015449759550392628,-0.655184268951416
8.68464732170105,0.3122377395629883,-1.2533378601074219,1.1423285007476807,0.28896772861480713,-0.01430533267557621,-0.655184268951416
8.704732179641724,0.3122377395629883,-1.2533378601074219,1.1423285007476807,0.290112167596817,-0.013542382046580315,-0.655947208404541
8.724976539611816,0.3122377395629883,-1.2533378601074219,1.1419470310211182,0.291638046503067,-0.012779430486261845,-0.656710147857666
8.745142936706543,0.3122377395629883,-1.2533378601074219,1.1411840915679932,0.2927824854850769,-0.011635004542768002,-0.6570916175842285
8.765187978744507,0.3122377395629883,-1.2533378601074219,1.1411840915679932,0.2943083941936493,-0.010872052982449532,-0.6589990258216858
8.78522539138794,0.3122377395629883,-1.2533378601074219,1.1404211521148682,0.2950713336467743,-0.010109102353453636,-0.6589990258216858
8.805302858352661,0.3122377395629883,-1.2533378601074219,1.1404211521148682,0.2954528033733368,-0.00858320016413927,-0.6589990258216858
8.825366735458374,0.3122377395629883,-1.2533378601074219,1.1400396823883057,0.2958342730998993,-0.007057297509163618,-0.6593804955482483
8.84551215171814,0.3122377395629883,-1.2533378601074219,1.1392767429351807,0.2965972423553467,-0.00476844422519207,-0.6597619652748108
8.865559339523315,0.3122377395629883,-1.2533378601074219,1.1388952732086182,0.2973601818084717,-0.0024795911740511656,-0.6601434350013733
8.885697364807129,0.3122377395629883,-1.2533378601074219,1.1381323337554932,0.29926756024360657,-0.0013351644156500697,-0.6612878441810608
8.90581226348877,0.3122377395629883,-1.2533378601074219,1.1381323337554932,0.29964902997016907,-0.0013351644156500697,-0.6616693139076233
8.92593765258789,0.3122377395629883,-1.2533378601074219,1.1381323337554932,0.30003052949905396,-0.001716639962978661,-0.6620507836341858
8.946057796478271,0.3118562698364258,-1.2533378601074219,1.1381323337554932,0.30117493867874146,-0.000572213320992887,-0.6620507836341858
8.966222047805786,0.3107118308544159,-1.2533378601074219,1.1377508640289307,0.30231937766075134,0.00019073777366429567,-0.6620507836341858
8.986319541931152,0.3099488914012909,-1.2533378601074219,1.1377508640289307,0.30308231711387634,0.0009536888683214784,-0.6624323129653931
9.006454706192017,0.309567391872406,-1.2533378601074219,1.1373693943023682,0.30384528636932373,0.000572213320992887,-0.6624323129653931
9.026415586471558,0.3091859221458435,-1.2533378601074219,1.1373693943023682,0.30498969554901123,0.000572213320992887,-0.6624323129653931
9.046497106552124,0.3091859221458435,-1.2533378601074219,1.1373693943023682,0.3065156042575836,0.000572213320992887,-0.6624323129653931
9.0665864944458,0.308804452419281,-1.2533378601074219,1.1373693943023682,0.3068970739841461,0.000572213320992887,-0.6624323129653931
9.086673259735107,0.308041512966156,-1.2533378601074219,1.1373693943023682,0.3076600432395935,0.001716639962978661,-0.6628137826919556
9.10678482055664,0.308041512966156,-1.2533378601074219,1.1373693943023682,0.308041512966156,0.0032425422687083483,-0.6628137826919556
9.12696361541748,0.3076600432395935,-1.2533378601074219,1.1373693943023682,0.3091859221458435,0.0036240178160369396,-0.6631952524185181
9.147031545639038,0.3072785437107086,-1.2533378601074219,1.1369879245758057,0.3099488914012909,0.004386968910694122,-0.6635767221450806
9.167155742645264,0.3068970739841461,-1.2533378601074219,1.1369879245758057,0.3103303611278534,0.005531395319849253,-0.6639581918716431
9.187273025512695,0.3057526648044586,-1.2533378601074219,1.1369879245758057,0.3103303611278534,0.00667582219466567,-0.6647211313247681
9.207306623458862,0.3057526648044586,-1.2533378601074219,1.1369879245758057,0.3114747703075409,0.007057297509163618,-0.6658655405044556
9.227396726608276,0.30498969554901123,-1.2533378601074219,1.1369879245758057,0.3122377395629883,0.007438773289322853,-0.6662470698356628
9.24746322631836,0.30498969554901123,-1.2533378601074219,1.1366063356399536,0.31376364827156067,0.008201723918318748,-0.6666285395622253
9.267656326293945,0.30498969554901123,-1.2533378601074219,1.1362248659133911,0.31452658772468567,0.00858320016413927,-0.6666285395622253
9.287746667861938,0.30498969554901123,-1.2533378601074219,1.1358433961868286,0.31490805745124817,0.010109102353453636,-0.6670100092887878
9.307814121246338,0.30498969554901123,-1.2537193298339844,1.1350804567337036,0.31528952717781067,0.011635004542768002,-0.6673914790153503
9.327862739562988,0.30498969554901123,-1.2537193298339844,1.1350804567337036,0.31643396615982056,0.01201647985726595,-0.6685358881950378
9.34797215461731,0.30498969554901123,-1.2537193298339844,1.1350804567337036,0.31757840514183044,0.012397955171763897,-0.6692988276481628
9.368108749389648,0.30460822582244873,-1.2537193298339844,1.1350804567337036,0.31834134459495544,0.013160906732082367,-0.6696802973747253
9.388107299804688,0.30384528636932373,-1.2537193298339844,1.1350804567337036,0.31872281432151794,0.013923857361078262,-0.6696802973747253
9.408183336257935,0.30270084738731384,-1.2537193298339844,1.1346989870071411,0.31986725330352783,0.016212711110711098,-0.6696802973747253
9.428300142288208,0.30193790793418884,-1.2537193298339844,1.1346989870071411,0.3217746317386627,0.018501564860343933,-0.6700618267059326
9.44835376739502,0.30155640840530396,-1.2541009187698364,1.1346989870071411,0.3217746317386627,0.019645990803837776,-0.6700618267059326
9.468532085418701,0.30155640840530396,-1.2541009187698364,1.1343175172805786,0.3221561014652252,0.019645990803837776,-0.6700618267059326
9.488613843917847,0.30155640840530396,-1.2541009187698364,1.1343175172805786,0.3233005404472351,0.020027466118335724,-0.6704432964324951
9.508635759353638,0.30155640840530396,-1.254482388496399,1.1339360475540161,0.3244449496269226,0.020027466118335724,-0.6708247661590576
9.528735160827637,0.30155640840530396,-1.254482388496399,1.1339360475540161,0.3255893886089325,0.021171892061829567,-0.6715877056121826
9.548824787139893,0.30079346895217896,-1.254482388496399,1.1339360475540161,0.3263523280620575,0.02231631986796856,-0.6734950542449951
9.568881750106812,0.30079346895217896,-1.254482388496399,1.1339360475540161,0.32673379778862,0.023460745811462402,-0.6742580533027649
9.589002132415771,0.30041199922561646,-1.254482388496399,1.1339360475540161,0.3282597064971924,0.02384222112596035,-0.6742580533027649
9.60908317565918,0.29964902997016907,-1.254482388496399,1.1339360475540161,0.3290226459503174,0.024986648932099342,-0.6746395230293274
9.62916898727417,0.29926756024360657,-1.254482388496399,1.1331731081008911,0.32978561520576477,0.026512550190091133,-0.6750209927558899
9.649241924285889,0.29850462079048157,-1.254482388496399,1.1327916383743286,0.33054855465888977,0.026512550190091133,-0.6765468716621399
9.669373273849487,0.29850462079048157,-1.254482388496399,1.1320286989212036,0.33131152391433716,0.02689402550458908,-0.6773098111152649
9.689428329467773,0.29850462079048157,-1.254482388496399,1.1320286989212036,0.33245593309402466,0.026512550190091133,-0.6773098111152649
9.709660291671753,0.2977416515350342,-1.254482388496399,1.1320286989212036,0.33283740282058716,0.02727550081908703,-0.6773098111152649
9.729811429977417,0.2977416515350342,-1.254482388496399,1.1320286989212036,0.33283740282058716,0.02689402550458908,-0.6773098111152649
9.749786138534546,0.2977416515350342,-1.254482388496399,1.1316472291946411,0.33321890234947205,0.02689402550458908,-0.6773098111152649
9.769903898239136,0.2977416515350342,-1.254482388496399,1.1316472291946411,0.33360037207603455,0.02689402550458908,-0.6776912808418274
9.789986371994019,0.2977416515350342,-1.2548638582229614,1.1312657594680786,0.33398184180259705,0.02727550081908703,-0.6776912808418274
9.81004023551941,0.2977416515350342,-1.255245327949524,1.1305028200149536,0.33512628078460693,0.027656977996230125,-0.6776912808418274
9.830129146575928,0.2973601818084717,-1.2556267976760864,1.1301213502883911,0.33627068996429443,0.027656977996230125,-0.6776912808418274
9.85027527809143,0.2965972423553467,-1.2556267976760864,1.1297398805618286,0.33665215969085693,0.027656977996230125,-0.6780728101730347
9.870305299758911,0.2965972423553467,-1.256008267402649,1.1297398805618286,0.3374151289463043,0.02880140393972397,-0.6784542798995972
9.890397071838379,0.2954528033733368,-1.2556267976760864,1.1301213502883911,0.3385595381259918,0.030708782374858856,-0.6784542798995972
9.910560846328735,0.2950713336467743,-1.2556267976760864,1.1301213502883911,0.3397039771080017,0.032616160809993744,-0.6788357496261597
9.930558204650879,0.2943083941936493,-1.2556267976760864,1.1301213502883911,0.3404669165611267,0.03376058489084244,-0.6792172193527222
9.950638055801392,0.2943083941936493,-1.2556267976760864,1.1301213502883911,0.3408484160900116,0.03452353551983833,-0.6795986890792847
9.970701694488525,0.2943083941936493,-1.2556267976760864,1.1301213502883911,0.3408484160900116,0.03528648987412453,-0.6811245679855347
9.99083137512207,0.2939268946647644,-1.2556267976760864,1.1301213502883911,0.3412298858165741,0.03604944050312042,-0.6811245679855347
10.011070966720581,0.2935454249382019,-1.2556267976760864,1.1301213502883911,0.3416113555431366,0.03833829239010811,-0.6818875670433044
10.031097650527954,0.2931639552116394,-1.255245327949524,1.1301213502883911,0.343137264251709,0.040245670825242996,-0.6818875670433044
10.051388502120972,0.2927824854850769,-1.255245327949524,1.1301213502883911,0.344663143157959,0.04177157208323479,-0.6818875670433044
10.071535110473633,0.2924010157585144,-1.255245327949524,1.1301213502883911,0.34657052159309387,0.04329747334122658,-0.6818875670433044
10.091562747955322,0.2924010157585144,-1.255245327949524,1.1301213502883911,0.34771496057510376,0.04291599988937378,-0.6818875670433044
10.11166000366211,0.2924010157585144,-1.2556267976760864,1.1301213502883911,0.34771496057510376,0.04329747334122658,-0.6822690367698669
10.131775617599487,0.291638046503067,-1.2556267976760864,1.1301213502883911,0.34809643030166626,0.043678950518369675,-0.6837949156761169
10.151806116104126,0.290875107049942,-1.2556267976760864,1.1301213502883911,0.34809643030166626,0.04558632895350456,-0.6853207945823669
10.17190670967102,0.2904936373233795,-1.2556267976760864,1.1301213502883911,0.34885939955711365,0.048256658017635345,-0.6857023239135742
10.19198727607727,0.290112167596817,-1.2556267976760864,1.1301213502883911,0.35038527846336365,0.04901960864663124,-0.6857023239135742
10.212037324905396,0.290112167596817,-1.2556267976760864,1.1301213502883911,0.35191118717193604,0.04901960864663124,-0.6857023239135742
10.232321500778198,0.28934919834136963,-1.2556267976760864,1.1301213502883911,0.35229265689849854,0.049782559275627136,-0.6857023239135742
10.252506494522095,0.28896772861480713,-1.2556267976760864,1.1301213502883911,0.35229265689849854,0.05054550990462303,-0.6857023239135742
10.272525548934937,0.28820478916168213,-1.2556267976760864,1.1301213502883911,0.3534370958805084,0.05207141116261482,-0.6860837936401367
10.292625665664673,0.28820478916168213,-1.2556267976760864,1.1297398805618286,0.3549630045890808,0.053215838968753815,-0.6864652633666992
10.312730073928833,0.28820478916168213,-1.2556267976760864,1.1301213502883911,0.3557259440422058,0.05397878959774971,-0.6864652633666992
10.33279824256897,0.28782328963279724,-1.2556267976760864,1.1297398805618286,0.3561074137687683,0.05436026677489281,-0.6868467330932617
10.352970361709595,0.28706035017967224,-1.2556267976760864,1.1297398805618286,0.3561074137687683,0.054741740226745605,-0.6879911422729492
10.373087644577026,0.28629741072654724,-1.2556267976760864,1.1297398805618286,0.3564889132976532,0.056267641484737396,-0.6883726119995117
10.393264770507812,0.28629741072654724,-1.2556267976760864,1.1289769411087036,0.3576333224773407,0.056267641484737396,-0.6879911422729492
10.413285970687866,0.28591591119766235,-1.2556267976760864,1.1285953521728516,0.3591592311859131,0.056267641484737396,-0.6879911422729492
10.433388471603394,0.28477150201797485,-1.256008267402649,1.128213882446289,0.3595407009124756,0.05703059583902359,-0.6883726119995117
10.453481197357178,0.28400853276252747,-1.256008267402649,1.128213882446289,0.3606851398944855,0.058175019919872284,-0.6883726119995117
10.473510026931763,0.28400853276252747,-1.2563897371292114,1.1278324127197266,0.3622110188007355,0.059319447726011276,-0.6883726119995117
10.493692636489868,0.28400853276252747,-1.2563897371292114,1.1278324127197266,0.36297398805618286,0.06008239835500717,-0.6887540817260742
10.513872623443604,0.28286412358283997,-1.2563897371292114,1.1278324127197266,0.36335545778274536,0.06160829961299896,-0.6887540817260742
10.533862352371216,0.28324559330940247,-1.2563897371292114,1.1278324127197266,0.36373692750930786,0.06275273114442825,-0.6887540817260742
10.55397629737854,0.28324559330940247,-1.2563897371292114,1.1278324127197266,0.36488136649131775,0.06389715522527695,-0.6891355514526367
10.574130058288574,0.28286412358283997,-1.2563897371292114,1.1278324127197266,0.36640727519989014,0.06427863240242004,-0.6887540817260742
10.594301462173462,0.28286412358283997,-1.2563897371292114,1.1278324127197266,0.36678874492645264,0.06466010212898254,-0.6891355514526367
10.614429235458374,0.28286412358283997,-1.2563897371292114,1.1278324127197266,0.36717021465301514,0.06542305648326874,-0.6891355514526367
10.634421348571777,0.28286412358283997,-1.256771206855774,1.1278324127197266,0.36793315410614014,0.06694895774126053,-0.689517080783844
10.654464483261108,0.2821011543273926,-1.256771206855774,1.1278324127197266,0.3694590628147125,0.06847485899925232,-0.689517080783844
10.674554109573364,0.2817196846008301,-1.256771206855774,1.1278324127197266,0.369840532541275,0.07000076025724411,-0.689517080783844
10.694626808166504,0.2809567451477051,-1.256771206855774,1.1278324127197266,0.3702220320701599,0.071908138692379,-0.6898985505104065
10.714681625366211,0.2801937758922577,-1.256771206855774,1.1278324127197266,0.3706035017967224,0.0722896158695221,-0.6906614899635315
10.734815835952759,0.2798123061656952,-1.257534146308899,1.1278324127197266,0.3709849715232849,0.0722896158695221,-0.6914244294166565
10.75491189956665,0.2786678969860077,-1.257534146308899,1.127450942993164,0.3721294105052948,0.07267109304666519,-0.691805899143219
10.775010108947754,0.2779049277305603,-1.257534146308899,1.1270694732666016,0.3728923499584198,0.07343403995037079,-0.692568838596344
10.795224666595459,0.2767605185508728,-1.257534146308899,1.1263065338134766,0.3740367889404297,0.07419699430465698,-0.6929503083229065
10.81534743309021,0.2763790488243103,-1.257534146308899,1.125925064086914,0.3747997283935547,0.07534141838550568,-0.693331778049469
10.83549952507019,0.2759975492954254,-1.257534146308899,1.1255435943603516,0.3759441375732422,0.07610437273979187,-0.6937133073806763
10.855507612228394,0.2759975492954254,-1.2579156160354614,1.125925064086914,0.3770885765552521,0.07686731964349747,-0.6948577165603638
10.87558102607727,0.2759975492954254,-1.2579156160354614,1.1255435943603516,0.3774700462818146,0.07839322835206985,-0.6960021257400513
10.895823001861572,0.2759975492954254,-1.2579156160354614,1.1255435943603516,0.37823301553726196,0.07953765243291855,-0.6960021257400513
10.915785074234009,0.2759975492954254,-1.258297085762024,1.125925064086914,0.37899595499038696,0.08106355369091034,-0.6963835954666138
10.93584942817688,0.2759975492954254,-1.258297085762024,1.125925064086914,0.38052186369895935,0.08258945494890213,-0.6963835954666138
10.955944538116455,0.2759975492954254,-1.258297085762024,1.125925064086914,0.38166627287864685,0.08335240930318832,-0.6963835954666138
10.975997924804688,0.2759975492954254,-1.2586785554885864,1.125925064086914,0.38242924213409424,0.08373387902975082,-0.6963835954666138
10.996061563491821,0.2756160795688629,-1.258297085762024,1.125925064086914,0.38357365131378174,0.08449683338403702,-0.6963835954666138
11.016212224960327,0.2756160795688629,-1.258297085762024,1.125925064086914,0.3847180902957916,0.08487831056118011,-0.6963835954666138
11.036328792572021,0.2752346098423004,-1.258297085762024,1.125925064086914,0.3850995600223541,0.0864042118191719,-0.6963835954666138
11.056488275527954,0.2744716703891754,-1.258297085762024,1.125925064086914,0.3858625292778015,0.0875486359000206,-0.6963835954666138
11.076553106307983,0.2740901708602905,-1.2586785554885864,1.125925064086914,0.386243999004364,0.08907453715801239,-0.6963835954666138
11.09660029411316,0.2733272314071655,-1.2586785554885864,1.125925064086914,0.3866254687309265,0.08983749151229858,-0.6963835954666138
11.116682529449463,0.2725642919540405,-1.2586785554885864,1.125925064086914,0.387006938457489,0.09060044586658478,-0.6963835954666138
11.136801958084106,0.27141985297203064,-1.2586785554885864,1.125925064086914,0.3877699077129364,0.09098191559314728,-0.6967650651931763
11.156859636306763,0.27103838324546814,-1.2586785554885864,1.125925064086914,0.3885328471660614,0.09060044586658478,-0.6967650651931763
11.17689847946167,0.27027541399002075,-1.2594414949417114,1.125925064086914,0.3892957866191864,0.09098191559314728,-0.6967650651931763
11.196982860565186,0.26951247453689575,-1.259822964668274,1.125925064086914,0.3900587558746338,0.09212634712457657,-0.6971465349197388
11.217060089111328,0.26951247453689575,-1.259822964668274,1.125925064086914,0.3912031650543213,0.09250781685113907,-0.697528064250946
11.237112283706665,0.26951247453689575,-1.2602044343948364,1.125925064086914,0.3919661343097687,0.09365224838256836,-0.698291003704071
11.257241249084473,0.26951247453689575,-1.2602044343948364,1.125925064086914,0.3927290737628937,0.09555962681770325,-0.699053943157196
11.277283191680908,0.26951247453689575,-1.2602044343948364,1.125925064086914,0.3931105434894562,0.09861142933368683,-0.699816882610321
11.297342300415039,0.26951247453689575,-1.2602044343948364,1.125925064086914,0.3931105434894562,0.10013733059167862,-0.7001983523368835
11.317451000213623,0.26951247453689575,-1.2602044343948364,1.125925064086914,0.39387351274490356,0.10166323184967041,-0.700579822063446
11.337515592575073,0.26951247453689575,-1.260585904121399,1.125925064086914,0.39425498247146606,0.10166323184967041,-0.7009612917900085
11.357643127441406,0.26913100481033325,-1.260585904121399,1.125925064086914,0.39539939165115356,0.10204470902681351,-0.7013428211212158
11.377677917480469,0.26874953508377075,-1.260585904121399,1.125925064086914,0.39654383063316345,0.1028076633810997,-0.7017242908477783
11.397749900817871,0.26836803555488586,-1.260585904121399,1.125925064086914,0.39730677008628845,0.1039520874619484,-0.7032501697540283
11.417791366577148,0.26760509610176086,-1.260585904121399,1.125925064086914,0.39921414852142334,0.10433356463909149,-0.7032501697540283
11.437896251678467,0.266460657119751,-1.260585904121399,1.125925064086914,0.4003585875034332,0.10509651154279709,-0.7032501697540283
11.458073377609253,0.266460657119751,-1.260585904121399,1.125925064086914,0.4007400572299957,0.10547798871994019,-0.7032501697540283
11.478055715560913,0.266460657119751,-1.260585904121399,1.125925064086914,0.4007400572299957,0.10509651154279709,-0.7032501697540283
11.498672246932983,0.2660791873931885,-1.260585904121399,1.125925064086914,0.4015030264854431,0.10547798871994019,-0.7032501697540283
11.518730640411377,0.265697717666626,-1.260585904121399,1.125925064086914,0.4026474356651306,0.10662241280078888,-0.7032501697540283
11.538856506347656,0.2653162479400635,-1.260585904121399,1.125925064086914,0.4037918746471405,0.10852979123592377,-0.7032501697540283
11.558974981307983,0.2653162479400635,-1.260585904121399,1.125925064086914,0.4045548141002655,0.10891126841306686,-0.7032501697540283
11.579139471054077,0.2645532786846161,-1.260585904121399,1.125925064086914,0.4056992530822754,0.11043716967105865,-0.7036316394805908
11.599196672439575,0.2634088695049286,-1.2609673738479614,1.125925064086914,0.4072251319885254,0.11196307092905045,-0.7036316394805908
11.619232177734375,0.2634088695049286,-1.261348843574524,1.125925064086914,0.4079881012439728,0.11272602528333664,-0.7036316394805908
11.639348030090332,0.2626459002494812,-1.261730432510376,1.125925064086914,0.4087510406970978,0.11234454810619354,-0.7036316394805908
11.659381866455078,0.2622644305229187,-1.261730432510376,1.125925064086914,0.4091325104236603,0.11272602528333664,-0.7036316394805908
11.679518222808838,0.2622644305229187,-1.261730432510376,1.125925064086914,0.41065841913223267,0.11272602528333664,-0.7036316394805908
11.69968318939209,0.2622644305229187,-1.261730432510376,1.125925064086914,0.41180285811424255,0.11425192654132843,-0.7036316394805908
11.719688653945923,0.2622644305229187,-1.261730432510376,1.125925064086914,0.41180285811424255,0.11615930497646332,-0.7036316394805908
11.73977279663086,0.2622644305229187,-1.261730432510376,1.125925064086914,0.41256579756736755,0.11730372905731201,-0.7036316394805908
11.759795427322388,0.2622644305229187,-1.261730432510376,1.125925064086914,0.41256579756736755,0.1184481605887413,-0.7040131092071533
11.779853820800781,0.2615014910697937,-1.2621119022369385,1.125925064086914,0.41332876682281494,0.1199740618467331,-0.7040131092071533
11.799962520599365,0.2611200213432312,-1.2621119022369385,1.125925064086914,0.41485464572906494,0.12149996310472488,-0.7040131092071533
11.820094585418701,0.2607385218143463,-1.262493371963501,1.125925064086914,0.41523614525794983,0.12226291000843048,-0.7040131092071533
11.840336799621582,0.2599755823612213,-1.262493371963501,1.125925064086914,0.41523614525794983,0.12264438718557358,-0.7040131092071533
11.860455989837646,0.2592126429080963,-1.262493371963501,1.125925064086914,0.41561761498451233,0.12340734153985977,-0.7040131092071533
11.880496501922607,0.2580682039260864,-1.2628748416900635,1.125925064086914,0.41561761498451233,0.12378881871700287,-0.7043945789337158
11.900612592697144,0.2580682039260864,-1.2628748416900635,1.125925064086914,0.41599908471107483,0.12378881871700287,-0.7043945789337158
11.920757532119751,0.2573052644729614,-1.2628748416900635,1.125925064086914,0.4171435236930847,0.12417028844356537,-0.7047760486602783
11.940910816192627,0.25616082549095154,-1.2628748416900635,1.125925064086914,0.4182879328727722,0.12493324279785156,-0.7051575779914856
11.960896492004395,0.25616082549095154,-1.2628748416900635,1.125925064086914,0.4190509021282196,0.12531471252441406,-0.7059205174446106
11.981006145477295,0.25616082549095154,-1.2628748416900635,1.125925064086914,0.4194323718547821,0.12569619715213776,-0.7063019871711731
12.001240968704224,0.25616082549095154,-1.2628748416900635,1.125925064086914,0.4201953113079071,0.12645913660526276,-0.7066834568977356
12.021234512329102,0.25616082549095154,-1.2636377811431885,1.125925064086914,0.422102689743042,0.12836651504039764,-0.7070649266242981
12.04130744934082,0.25577935576438904,-1.2644007205963135,1.125925064086914,0.4228656589984894,0.13103684782981873,-0.7070649266242981
12.061366319656372,0.25310903787612915,-1.2644007205963135,1.1255435943603516,0.4232471287250519,0.1333257108926773,-0.7074463963508606
12.081474542617798,0.24929426610469818,-1.2644007205963135,1.125162124633789,0.4232471287250519,0.13752193748950958,-0.7082093358039856
12.101660251617432,0.24280919134616852,-1.2636377811431885,1.124399185180664,0.4228656589984894,0.13866636157035828,-0.7082093358039856
12.121718406677246,0.23479819297790527,-1.263256311416626,1.123636245727539,0.4228656589984894,0.14019227027893066,-0.7085908055305481
12.141775846481323,0.22411687672138214,-1.262493371963501,1.123636245727539,0.4228656589984894,0.14019227027893066,-0.7089722752571106
12.16193962097168,0.21000228822231293,-1.261730432510376,1.1232547760009766,0.4228656589984894,0.13828489184379578,-0.7093538045883179
12.182038307189941,0.19474326074123383,-1.261348843574524,1.122110366821289,0.4224841594696045,0.1363775134086609,-0.7108796834945679
12.202040672302246,0.17833982408046722,-1.260585904121399,1.1217288970947266,0.4224841594696045,0.13179980218410492,-0.7112611532211304
12.222148418426514,0.15964750945568085,-1.2594414949417114,1.1205843687057495,0.421339750289917,0.12798504531383514,-0.7112611532211304
12.242201328277588,0.14057374000549316,-1.2586785554885864,1.1190584897994995,0.4209582805633545,0.12340734153985977,-0.7108796834945679
12.262330770492554,0.12340734153985977,-1.2571526765823364,1.117914080619812,0.4186694025993347,0.11501488089561462,-0.7112611532211304
12.282409906387329,0.10547798871994019,-1.255245327949524,1.1160067319869995,0.4179064631462097,0.10852979123592377,-0.7112611532211304
12.302554368972778,0.09060044586658478,-1.2525749206542969,1.113336443901062,0.41599908471107483,0.1039520874619484,-0.7108796834945679
12.322611570358276,0.08182650804519653,-1.2510490417480469,1.11142897605896,0.41371023654937744,0.09937438368797302,-0.7108796834945679
12.342796802520752,0.0715266615152359,-1.2499046325683594,1.1095216274261475,0.41180285811424255,0.09708552807569504,-0.7104982137680054
12.362932443618774,0.061226826161146164,-1.2483787536621094,1.106088399887085,0.4079881012439728,0.09670405089855194,-0.7104982137680054
12.382970333099365,0.05207141116261482,-1.2468528747558594,1.102655053138733,0.4015030264854431,0.09937438368797302,-0.7104982137680054
12.403384923934937,0.04253452271223068,-1.2460898160934448,1.0999847650527954,0.39578089118003845,0.10471503436565399,-0.7108796834945679
12.423465013504028,0.030708782374858856,-1.2449454069137573,1.0969328880310059,0.3889143168926239,0.10852979123592377,-0.7112611532211304
12.44355320930481,0.01926451548933983,-1.2441824674606323,1.0938811302185059,0.3843366205692291,0.11425192654132843,-0.7108796834945679
12.463638544082642,0.005531395319849253,-1.2430380582809448,1.0919737815856934,0.37975889444351196,0.11539635062217712,-0.7108796834945679
12.483705520629883,-0.009346150793135166,-1.2407492399215698,1.0885404348373413,0.3747997283935547,0.11348897218704224,-0.7108796834945679
12.503838300704956,-0.022697795182466507,-1.2392233610153198,1.0858701467514038,0.3713664412498474,0.11196307092905045,-0.7112611532211304
12.523913145065308,-0.03604944050312042,-1.2373158931732178,1.0824369192123413,0.368314653635025,0.10891126841306686,-0.7104982137680054
12.54398775100708,-0.04634927958250046,-1.2365529537200928,1.0801479816436768,0.36602577567100525,0.1024261862039566,-0.7101167440414429
12.564252376556396,-0.056267641484737396,-1.2357900142669678,1.0767147541046143,0.36488136649131775,0.09632257372140884,-0.7101167440414429
12.584472179412842,-0.06389715522527695,-1.2354085445404053,1.0736628770828247,0.3622110188007355,0.09098191559314728,-0.7097352743148804
12.604909181594849,-0.0722896158695221,-1.2342641353607178,1.0698481798171997,0.3595407009124756,0.08602273464202881,-0.7097352743148804
12.62489938735962,-0.07801175117492676,-1.2335011959075928,1.0664149522781372,0.3557259440422058,0.0864042118191719,-0.7093538045883179
12.645047664642334,-0.08449683338403702,-1.2323567867279053,1.0637445449829102,0.35076677799224854,0.08869306743144989,-0.7093538045883179
12.665131092071533,-0.09098191559314728,-1.2312123775482178,1.0614557266235352,0.343900203704834,0.09365224838256836,-0.7097352743148804
12.685286283493042,-0.09937438368797302,-1.2300678491592407,1.0587854385375977,0.3397039771080017,0.10128175467252731,-0.7093538045883179
12.705351829528809,-0.10662241280078888,-1.2289234399795532,1.056496500968933,0.33588922023773193,0.10624094307422638,-0.7097352743148804
12.725404024124146,-0.11577782779932022,-1.2277790307998657,1.0538262128829956,0.33283740282058716,0.10814831405878067,-0.7097352743148804
12.745458841323853,-0.12493324279785156,-1.2270160913467407,1.050774335861206,0.33016708493232727,0.10776684433221817,-0.7097352743148804
12.765564203262329,-0.1337071806192398,-1.2266346216201782,1.0481040477752686,0.3274967670440674,0.10509651154279709,-0.7101167440414429
12.78564977645874,-0.14209964871406555,-1.2262531518936157,1.045433759689331,0.3244449496269226,0.10013733059167862,-0.7093538045883179
12.805711269378662,-0.1501106321811676,-1.2258716821670532,1.042000412940979,0.3217746317386627,0.09441519528627396,-0.7093538045883179
12.825750589370728,-0.15545128285884857,-1.2258716821670532,1.039711594581604,0.32024872303009033,0.08945601433515549,-0.7093538045883179
12.845965385437012,-0.16231784224510193,-1.2251087427139282,1.0370413064956665,0.31910428404808044,0.08602273464202881,-0.7093538045883179
12.8660888671875,-0.16880293190479279,-1.2247272729873657,1.0343708992004395,0.31528952717781067,0.086785688996315,-0.7093538045883179
12.886138200759888,-0.17261768877506256,-1.2239643335342407,1.0313191413879395,0.3118562698364258,0.0871671661734581,-0.7101167440414429
12.906322717666626,-0.17719538509845734,-1.2239643335342407,1.0297932624816895,0.3091859221458435,0.08907453715801239,-0.7101167440414429
12.926397323608398,-0.182917520403862,-1.2235828638076782,1.0275044441223145,0.3061341345310211,0.09288929402828217,-0.7101167440414429
12.946467638015747,-0.18940261006355286,-1.2232013940811157,1.0248340368270874,0.30270084738731384,0.09594109654426575,-0.7104982137680054
12.966810464859009,-0.19474326074123383,-1.2228199243545532,1.0225452184677124,0.30003052949905396,0.09594109654426575,-0.7108796834945679
12.98689889907837,-0.20084688067436218,-1.2224383354187012,1.0202564001083374,0.2969787120819092,0.09441519528627396,-0.7108796834945679
13.006970167160034,-0.20656901597976685,-1.2228199243545532,1.0179674625396729,0.2946898639202118,0.09136339277029037,-0.7108796834945679
13.027023792266846,-0.21229113638401031,-1.2228199243545532,1.0160601139068604,0.2943083941936493,0.0871671661734581,-0.7104982137680054
13.047112226486206,-0.21763180196285248,-1.2228199243545532,1.0137712955474854,0.291638046503067,0.08525978773832321,-0.7108796834945679
13.067185163497925,-0.22106507420539856,-1.2228199243545532,1.0114823579788208,0.28896772861480713,0.08487831056118011,-0.7108796834945679
13.0872323513031,-0.22602425515651703,-1.2228199243545532,1.0095750093460083,0.28667888045310974,0.08525978773832321,-0.7112611532211304
13.107325792312622,-0.2294575423002243,-1.2228199243545532,1.0072861909866333,0.28515297174453735,0.086785688996315,-0.7112611532211304
13.127393007278442,-0.23327229917049408,-1.2228199243545532,1.0049973726272583,0.2817196846008301,0.0871671661734581,-0.7116426229476929
13.147524118423462,-0.23708705604076385,-1.2228199243545532,1.0023269653320312,0.2779049277305603,0.08945601433515549,-0.7124055624008179
13.167571306228638,-0.24166475236415863,-1.2228199243545532,1.0008010864257812,0.2744716703891754,0.09060044586658478,-0.7143129706382751
13.187630414962769,-0.2462424635887146,-1.2228199243545532,0.9988937377929688,0.27103838324546814,0.08983749151229858,-0.7154573798179626
13.207693576812744,-0.2508201599121094,-1.2232013940811157,0.997367799282074,0.26951247453689575,0.08869306743144989,-0.7150759100914001
13.22805905342102,-0.25577935576438904,-1.2232013940811157,0.9954604506492615,0.26798656582832336,0.08869306743144989,-0.7154573798179626
13.248139142990112,-0.2603570520877838,-1.2232013940811157,0.9935530424118042,0.26798656582832336,0.0883115902543068,-0.7154573798179626
13.268247127532959,-0.2637903392314911,-1.2239643335342407,0.9908827543258667,0.26722362637519836,0.08869306743144989,-0.7158388495445251
13.288336515426636,-0.26722362637519836,-1.2251087427139282,0.9885938763618469,0.2645532786846161,0.08869306743144989,-0.7169833183288574
13.308643817901611,-0.26951247453689575,-1.2258716821670532,0.9866865277290344,0.2607385218143463,0.0875486359000206,-0.7192721366882324
13.328561544418335,-0.27218279242515564,-1.2262531518936157,0.9847791194915771,0.2595941126346588,0.0871671661734581,-0.7211795449256897
13.348604679107666,-0.2748531401157379,-1.2266346216201782,0.9836347103118896,0.2573052644729614,0.08945601433515549,-0.7223239541053772
13.368703126907349,-0.2771419882774353,-1.2266346216201782,0.9824903011322021,0.25463491678237915,0.09212634712457657,-0.7227054238319397
13.388866662979126,-0.2801937758922577,-1.2270160913467407,0.9817273020744324,0.25272753834724426,0.09327077120542526,-0.7230868935585022
13.408895492553711,-0.28324559330940247,-1.2270160913467407,0.9802014231681824,0.25272753834724426,0.09365224838256836,-0.7230868935585022
13.429043292999268,-0.28591591119766235,-1.2273975610733032,0.9790570139884949,0.2508201599121094,0.09327077120542526,-0.7230868935585022
13.449153423309326,-0.28973066806793213,-1.2285419702529907,0.9779125452041626,0.248531311750412,0.09327077120542526,-0.7242313027381897
13.469216585159302,-0.291638046503067,-1.2293049097061157,0.9760051965713501,0.2462424635887146,0.09327077120542526,-0.726138710975647
13.489366054534912,-0.2946898639202118,-1.2304493188858032,0.9740977883338928,0.2439536154270172,0.09174486994743347,-0.7265201807022095
13.509453535079956,-0.2977416515350342,-1.2312123775482178,0.9725719094276428,0.24204623699188232,0.09212634712457657,-0.7280460596084595
13.529523611068726,-0.29888609051704407,-1.2315938472747803,0.9718089699745178,0.24090181291103363,0.09174486994743347,-0.7299534678459167
13.549927711486816,-0.30079346895217896,-1.2323567867279053,0.9714275002479553,0.23823148012161255,0.08983749151229858,-0.7299534678459167
13.570054531097412,-0.30384528636932373,-1.2323567867279053,0.9710460305213928,0.23823148012161255,0.09365224838256836,-0.7307164072990417
13.590102434158325,-0.3057526648044586,-1.2327382564544678,0.970283031463623,0.23785001039505005,0.09822995215654373,-0.7307164072990417
13.610188245773315,-0.3068970739841461,-1.2327382564544678,0.9699015617370605,0.23594263195991516,0.09708552807569504,-0.7310978770256042
13.630267143249512,-0.3084229826927185,-1.2335011959075928,0.968757152557373,0.23403525352478027,0.09708552807569504,-0.7330052852630615
13.650355100631714,-0.3110933005809784,-1.2338826656341553,0.967994213104248,0.23365376889705658,0.09708552807569504,-0.733386754989624
13.67080020904541,-0.3126192092895508,-1.2346456050872803,0.9668498039245605,0.2317463904619217,0.09708552807569504,-0.7337682247161865
13.690885543823242,-0.31376364827156067,-1.2350270748138428,0.9664682745933533,0.2302204966545105,0.09708552807569504,-0.7345311641693115
13.711016416549683,-0.31567102670669556,-1.2354085445404053,0.9657053351402283,0.2294575423002243,0.09708552807569504,-0.734912633895874
13.731512308120728,-0.31719690561294556,-1.2357900142669678,0.9645609259605408,0.22678720951080322,0.09746700525283813,-0.7352941036224365
13.751593589782715,-0.31910428404808044,-1.2357900142669678,0.9634165167808533,0.22602425515651703,0.09899290651082993,-0.7383459210395813
13.771721839904785,-0.32101166248321533,-1.2365529537200928,0.9626535177230835,0.22220951318740845,0.10051880776882172,-0.7383459210395813
13.791724681854248,-0.3225375711917877,-1.2373158931732178,0.9618905782699585,0.22030213475227356,0.10128175467252731,-0.7398717999458313
13.811832189559937,-0.3236820101737976,-1.2376973628997803,0.961509108543396,0.21915769577026367,0.10128175467252731,-0.7406347990036011
13.83199667930603,-0.32520791888237,-1.2384604215621948,0.9603646993637085,0.21763180196285248,0.10090028494596481,-0.7410162687301636
13.852020978927612,-0.3255893886089325,-1.2388418912887573,0.9596017599105835,0.2161058932542801,0.10128175467252731,-0.7410162687301636
13.872098445892334,-0.32673379778862,-1.2388418912887573,0.959220290184021,0.2161058932542801,0.10051880776882172,-0.7410162687301636
13.892234325408936,-0.3271152675151825,-1.2392233610153198,0.9588387608528137,0.2157244235277176,0.10128175467252731,-0.7413977384567261
13.912271738052368,-0.3278782367706299,-1.2396048307418823,0.9576943516731262,0.2157244235277176,0.10166323184967041,-0.7413977384567261
13.932358503341675,-0.3286411762237549,-1.2396048307418823,0.9573128819465637,0.2153429538011551,0.1028076633810997,-0.7413977384567261
13.952607870101929,-0.33016708493232727,-1.2399863004684448,0.9569314122200012,0.2138170450925827,0.10433356463909149,-0.7417792081832886
13.972586870193481,-0.33169299364089966,-1.2411307096481323,0.9561684727668762,0.21190966665744781,0.10509651154279709,-0.7425421476364136
13.9926598072052,-0.33321890234947205,-1.2415121793746948,0.9554055333137512,0.21152819693088531,0.10585946589708328,-0.7433050870895386
14.01276159286499,-0.33512628078460693,-1.2418936491012573,0.955024003982544,0.20847637951374054,0.10547798871994019,-0.7448310256004333
14.032950162887573,-0.33550775051116943,-1.2430380582809448,0.9546425342559814,0.20847637951374054,0.10471503436565399,-0.7463569045066833
14.052985668182373,-0.3374151289463043,-1.2438009977340698,0.9538795948028564,0.20809490978717804,0.10471503436565399,-0.7467383742332458
14.07305908203125,-0.3377965986728668,-1.2441824674606323,0.953498125076294,0.20771344006061554,0.10471503436565399,-0.7478827834129333
14.093135833740234,-0.3389410376548767,-1.2441824674606323,0.953498125076294,0.20656901597976685,0.10509651154279709,-0.7478827834129333
14.113820314407349,-0.3393225073814392,-1.2449454069137573,0.953498125076294,0.20542457699775696,0.10624094307422638,-0.7482643127441406
14.13398814201355,-0.3393225073814392,-1.2449454069137573,0.953498125076294,0.20466163754463196,0.10738536715507507,-0.7482643127441406
14.153985500335693,-0.3397039771080017,-1.2449454069137573,0.9531166553497314,0.20428015291690826,0.10814831405878067,-0.7482643127441406
14.174041271209717,-0.3404669165611267,-1.2453268766403198,0.9531166553497314,0.20313572883605957,0.10852979123592377,-0.7482643127441406
14.19412350654602,-0.3412298858165741,-1.2457083463668823,0.9523537158966064,0.20160982012748718,0.10929274559020996,-0.7486457824707031
14.21426010131836,-0.3423742949962616,-1.2460898160934448,0.951972246170044,0.2004653960466385,0.11043716967105865,-0.7490272521972656
14.23429799079895,-0.3427557647228241,-1.2468528747558594,0.951209306716919,0.1993209719657898,0.11043716967105865,-0.7494087219238281
14.254458904266357,-0.3442816734313965,-1.2479972839355469,0.9508277773857117,0.1974135935306549,0.11120012402534485,-0.7497901916503906
14.274877786636353,-0.34618905186653137,-1.2483787536621094,0.9500648379325867,0.1962691694498062,0.11272602528333664,-0.7509346008300781
14.294786930084229,-0.34733349084854126,-1.2487602233886719,0.9489204287528992,0.19474326074123383,0.11425192654132843,-0.7524605393409729
14.314937353134155,-0.34847790002822876,-1.2491416931152344,0.9489204287528992,0.19283588230609894,0.11539635062217712,-0.7536049485206604
14.334939956665039,-0.34885939955711365,-1.2499046325683594,0.9489204287528992,0.19283588230609894,0.11501488089561462,-0.7551308274269104
14.354998350143433,-0.34962233901023865,-1.2502861022949219,0.9489204287528992,0.19207294285297394,0.11539635062217712,-0.7562752962112427
14.375065326690674,-0.34962233901023865,-1.2506675720214844,0.9489204287528992,0.19054703414440155,0.11501488089561462,-0.7562752962112427
14.395115852355957,-0.34962233901023865,-1.2514305114746094,0.9489204287528992,0.18978407979011536,0.11577782779932022,-0.7562752962112427
14.415226936340332,-0.34962233901023865,-1.2514305114746094,0.9481574892997742,0.18978407979011536,0.11654078215360641,-0.7566567659378052
14.435277700424194,-0.34962233901023865,-1.2521934509277344,0.9481574892997742,0.18940261006355286,0.1184481605887413,-0.7570382356643677
