liuyurong129/humanoid-gym/humanoid/data/actual_q_20250523-001924.csv
timestamp,joint_1,joint_2,joint_3,joint_4,joint_5,joint_6
5.555152893066406e-05,-0.00019073777366429567,0.002861066721379757,-0.0013351644156500697,-0.00019073777366429567,0.00019073777366429567,0.00019073777366429567
0.020262479782104492,-0.00019073777366429567,0.001716639962978661,-0.0013351644156500697,-0.00019073777366429567,0.00019073777366429567,0.00019073777366429567
0.04035329818725586,-0.00019073777366429567,0.001716639962978661,-0.0013351644156500697,-0.00019073777366429567,0.00019073777366429567,0.00019073777366429567
0.06044316291809082,-0.00019073777366429567,0.001716639962978661,-0.0013351644156500697,-0.00019073777366429567,0.00019073777366429567,0.00019073777366429567
0.08053898811340332,-0.00019073777366429567,0.0009536888683214784,0.00019073777366429567,-0.00019073777366429567,0.00019073777366429567,0.00019073777366429567
0.10059094429016113,-0.0009536888683214784,-0.0020981156267225742,0.0032425422687083483,-0.00019073777366429567,0.00019073777366429567,0.000572213320992887
0.12068533897399902,-0.00476844422519207,-0.009346150793135166,0.010490577667951584,-0.000572213320992887,0.000572213320992887,0.0020981156267225742
0.14081335067749023,-0.008201723918318748,-0.014686808921396732,0.015449759550392628,-0.00019073777366429567,0.0009536888683214784,0.00476844422519207
0.16085195541381836,-0.013160906732082367,-0.021171892061829567,0.022697795182466507,-0.000572213320992887,0.000572213320992887,0.009346150793135166
0.18096256256103516,-0.019645990803837776,-0.03032730519771576,0.032616160809993744,-0.00019073777366429567,-0.000572213320992887,0.012779430486261845
0.20102190971374512,-0.026512550190091133,-0.040627144277095795,0.04100862145423889,-0.000572213320992887,-0.00019073777366429567,0.01773861236870289
0.22113990783691406,-0.03337911143898964,-0.05397878959774971,0.05092698708176613,-0.000572213320992887,-0.0013351644156500697,0.02079041674733162
0.24118328094482422,-0.04177157208323479,-0.06809338182210922,0.06389715522527695,-0.000572213320992887,-0.0024795911740511656,0.025749599561095238
0.2612648010253906,-0.04940108209848404,-0.08068207651376724,0.07724879682064056,-0.00019073777366429567,-0.002861066721379757,0.02994582988321781
0.28132128715515137,-0.05703059583902359,-0.09174486994743347,0.08869306743144989,-0.000572213320992887,-0.0032425422687083483,0.034142062067985535
0.30137181282043457,-0.06504157930612564,-0.10585946589708328,0.1028076633810997,-0.000572213320992887,-0.004005493130534887,0.038719769567251205
0.3215196132659912,-0.0722896158695221,-0.12455176562070847,0.1184481605887413,-0.000572213320992887,-0.004005493130534887,0.04253452271223068
0.3415567874908447,-0.07877469807863235,-0.14515145123004913,0.1348516047000885,-0.000572213320992887,-0.004386968910694122,0.04634927958250046
0.3616604804992676,-0.08449683338403702,-0.1661325991153717,0.1508735716342926,-0.000572213320992887,-0.005912871100008488,0.05092698708176613
0.38172221183776855,-0.08907453715801239,-0.1832990050315857,0.1668955534696579,-0.000572213320992887,-0.00667582219466567,0.0551232174038887
0.4018573760986328,-0.09517814964056015,-0.1993209719657898,0.1836804747581482,-0.00019073777366429567,-0.00667582219466567,0.05855649709701538
0.4219369888305664,-0.1028076633810997,-0.2153429538011551,0.1989395022392273,-0.000572213320992887,-0.00667582219466567,0.06237125024199486
0.44200849533081055,-0.11234454810619354,-0.23479819297790527,0.21648737788200378,-0.000572213320992887,-0.007438773289322853,0.06580453366041183
0.462083101272583,-0.12073700875043869,-0.25349050760269165,0.23556114733219147,-0.000572213320992887,-0.0078202486038208,0.0711451917886734
0.4821639060974121,-0.12760357558727264,-0.27065691351890564,0.25196459889411926,-0.0009536888683214784,-0.0078202486038208,0.07572289556264877
0.5022487640380859,-0.135233074426651,-0.2931639552116394,0.2756160795688629,-0.0009536888683214784,-0.0078202486038208,0.08220797777175903
0.522350549697876,-0.14095520973205566,-0.31643396615982056,0.30003052949905396,-0.0009536888683214784,-0.007438773289322853,0.08869306743144989
0.5424718856811523,-0.14591439068317413,-0.3408484160900116,0.3240634799003601,-0.0009536888683214784,-0.009346150793135166,0.09632257372140884
0.5626084804534912,-0.1497291475534439,-0.36602577567100525,0.35076677799224854,-0.0009536888683214784,-0.01125352829694748,0.10471503436565399
0.5827538967132568,-0.1527809500694275,-0.3908216953277588,0.37937742471694946,-0.0009536888683214784,-0.012779430486261845,0.11234454810619354
0.6028459072113037,-0.15545128285884857,-0.41523614525794983,0.4083695709705353,-0.0009536888683214784,-0.014686808921396732,0.12073700875043869
0.6230440139770508,-0.15812161564826965,-0.440032035112381,0.4358358085155487,-0.0013351644156500697,-0.014686808921396732,0.12836651504039764
0.6430296897888184,-0.16041046380996704,-0.4648279547691345,0.4648279547691345,-0.0013351644156500697,-0.01506828423589468,0.1359960287809372
0.663306474685669,-0.16041046380996704,-0.49114975333213806,0.4991607666015625,-0.0020981156267225742,-0.015449759550392628,0.14553292095661163
0.6834592819213867,-0.16041046380996704,-0.5167086124420166,0.5315861701965332,-0.0020981156267225742,-0.01506828423589468,0.15354390442371368
0.7035672664642334,-0.16041046380996704,-0.5422675013542175,0.5628671646118164,-0.002861066721379757,-0.01506828423589468,0.16155488789081573
0.7235972881317139,-0.16041046380996704,-0.5685893297195435,0.5975814461708069,-0.0036240178160369396,-0.01430533267557621,0.17071031033992767
0.7436861991882324,-0.16041046380996704,-0.5926222801208496,0.6284809708595276,-0.0036240178160369396,-0.013923857361078262,0.17910276353359222
0.763746976852417,-0.16041046380996704,-0.6166552305221558,0.657473087310791,-0.004386968910694122,-0.013542382046580315,0.18825818598270416
0.7838859558105469,-0.16041046380996704,-0.6425955891609192,0.6860837936401367,-0.005149920005351305,-0.013542382046580315,0.1977950781583786
0.8042051792144775,-0.16041046380996704,-0.6723506450653076,0.7188906669616699,-0.006294346414506435,-0.012779430486261845,0.20885786414146423
0.8243019580841064,-0.16041046380996704,-0.7001983523368835,0.7482643127441406,-0.007438773289322853,-0.010872052982449532,0.21877622604370117
0.8444123268127441,-0.16041046380996704,-0.7242313027381897,0.7711527943611145,-0.008201723918318748,-0.010490577667951584,0.230601966381073
0.8644359111785889,-0.16041046380996704,-0.7558938264846802,0.8009079098701477,-0.010109102353453636,-0.010872052982449532,0.2458609938621521
0.8845124244689941,-0.16041046380996704,-0.7852674126625061,0.8272297382354736,-0.01201647985726595,-0.010490577667951584,0.2603570520877838
0.9045939445495605,-0.16041046380996704,-0.8127336502075195,0.8531700372695923,-0.014686808921396732,-0.010490577667951584,0.2756160795688629
0.9246654510498047,-0.16002899408340454,-0.8363851308822632,0.8726252913475037,-0.01583123579621315,-0.010490577667951584,0.2904936373233795
0.9447362422943115,-0.16002899408340454,-0.8619440197944641,0.8974212408065796,-0.01888304017484188,-0.010490577667951584,0.3076600432395935
0.9648373126983643,-0.15850308537483215,-0.8871213793754578,0.9206912517547607,-0.02079041674733162,-0.010872052982449532,0.325970858335495
0.9850151538848877,-0.15583276748657227,-0.9092469811439514,0.9401465058326721,-0.024986648932099342,-0.01201647985726595,0.34924086928367615
1.0050177574157715,-0.1527809500694275,-0.9275577664375305,0.953498125076294,-0.02880140393972397,-0.01583123579621315,0.3728923499584198
1.0250914096832275,-0.1493476778268814,-0.9443427324295044,0.9634165167808533,-0.03376058489084244,-0.018501564860343933,0.39883267879486084
1.0451545715332031,-0.14515145123004913,-0.959220290184021,0.9714275002479553,-0.040245670825242996,-0.021171892061829567,0.42591744661331177
1.0652203559875488,-0.14133669435977936,-0.969520092010498,0.9737163186073303,-0.04634927958250046,-0.02193484455347061,0.4549095928668976
1.085353136062622,-0.1367589831352234,-0.9779125452041626,0.9744792580604553,-0.05436026677489281,-0.022697795182466507,0.4850461483001709
1.1054651737213135,-0.13218127191066742,-0.9855420589447021,0.9752422571182251,-0.06351567804813385,-0.02193484455347061,0.5144197940826416
1.1255488395690918,-0.12951095402240753,-0.9897382855415344,0.9752422571182251,-0.07381551712751389,-0.023079270496964455,0.5460822582244873
1.1456334590911865,-0.12531471252441406,-0.9920271635055542,0.9748607873916626,-0.0871671661734581,-0.023460745811462402,0.5842298269271851
1.1657888889312744,-0.12302586436271667,-0.994316041469574,0.9740977883338928,-0.09975585341453552,-0.02536812424659729,0.6212329268455505
1.1859276294708252,-0.12111848592758179,-0.997367799282074,0.9721904397010803,-0.11654078215360641,-0.027656977996230125,0.6589990258216858
1.205976963043213,-0.1188296303153038,-1.0011825561523438,0.9699015617370605,-0.13103684782981873,-0.03299763426184654,0.697528064250946
1.2261691093444824,-0.11768520623445511,-1.0053788423538208,0.9676127433776855,-0.15545128285884857,-0.0398641936480999,0.7379644513130188
1.246325969696045,-0.11615930497646332,-1.0088120698928833,0.9653238654136658,-0.17719538509845734,-0.046730753034353256,0.778019368648529
1.266422986984253,-0.11387044936418533,-1.0137712955474854,0.959220290184021,-0.200083926320076,-0.05245288833975792,0.8234149813652039
1.2866766452789307,-0.11196307092905045,-1.0160601139068604,0.9554055333137512,-0.22259098291397095,-0.058175019919872284,0.8619440197944641
1.3067293167114258,-0.10929274559020996,-1.0187304019927979,0.9515907764434814,-0.2508201599121094,-0.06847485899925232,0.9023804068565369
1.326857566833496,-0.10776684433221817,-1.0210193395614624,0.9485389590263367,-0.2782863974571228,-0.07572289556264877,0.9405279755592346
1.3469469547271729,-0.10624094307422638,-1.0248340368270874,0.9435797929763794,-0.3061341345310211,-0.08030059933662415,0.9763866662979126
1.3669886589050293,-0.10471503436565399,-1.0271228551864624,0.9378576278686523,-0.33398184180259705,-0.0871671661734581,1.0118639469146729
1.387080192565918,-0.1024261862039566,-1.0290303230285645,0.9328984618186951,-0.36297398805618286,-0.09250781685113907,1.050774335861206
1.4071509838104248,-0.10166323184967041,-1.031700611114502,0.9267948269844055,-0.3900587558746338,-0.10013733059167862,1.0877774953842163
1.427191972732544,-0.10013733059167862,-1.0336079597473145,0.9214541912078857,-0.4175249934196472,-0.10662241280078888,1.121347427368164
1.4472956657409668,-0.09861142933368683,-1.0343708992004395,0.9164950251579285,-0.44232088327407837,-0.11387044936418533,1.1537728309631348
1.4674124717712402,-0.09670405089855194,-1.035896897315979,0.9103913903236389,-0.47436484694480896,-0.12302586436271667,1.188105583190918
1.4874744415283203,-0.09441519528627396,-1.0370413064956665,0.9050507545471191,-0.5022125840187073,-0.13103684782981873,1.2186236381530762
1.5076696872711182,-0.09365224838256836,-1.0370413064956665,0.8981841802597046,-0.5289158225059509,-0.1371404528617859,1.2487602233886719
1.5277838706970215,-0.09250781685113907,-1.0370413064956665,0.8924620151519775,-0.5533303022384644,-0.14286258816719055,1.276607871055603
1.547837495803833,-0.09098191559314728,-1.0370413064956665,0.8844510316848755,-0.5815594792366028,-0.14744029939174652,1.3082703351974487
1.5678884983062744,-0.08907453715801239,-1.0370413064956665,0.8764400482177734,-0.6067368388175964,-0.15354390442371368,1.3361181020736694
1.5879650115966797,-0.0864042118191719,-1.036659836769104,0.8699550032615662,-0.6307697892189026,-0.15926603972911835,1.3624398708343506
1.608069896697998,-0.0864042118191719,-1.035896897315979,0.8627069592475891,-0.6563286781311035,-0.1661325991153717,1.3891432285308838
1.6281366348266602,-0.08449683338403702,-1.033989429473877,0.8550774455070496,-0.6803616285324097,-0.17338064312934875,1.4120317697525024
1.648181438446045,-0.08258945494890213,-1.032463550567627,0.8493552803993225,-0.7051575779914856,-0.17872129380702972,1.4353017807006836
1.6683506965637207,-0.08144503086805344,-1.031700611114502,0.8432517051696777,-0.7238498330116272,-0.1813916265964508,1.4562828540802002
1.6885266304016113,-0.08030059933662415,-1.0305562019348145,0.8360036611557007,-0.7455939650535583,-0.18749523162841797,1.4768825769424438
1.7085790634155273,-0.07839322835206985,-1.0282673835754395,0.8283741474151611,-0.7654306888580322,-0.19207294285297394,1.4955748319625854
1.7287514209747314,-0.07686731964349747,-1.0248340368270874,0.8203631639480591,-0.7860303521156311,-0.1970321238040924,1.516174554824829
1.7487969398498535,-0.07495994865894318,-1.0217822790145874,0.8127336502075195,-0.8047226667404175,-0.20199130475521088,1.5341038703918457
1.7689738273620605,-0.07381551712751389,-1.0194933414459229,0.80663001537323,-0.8226520419120789,-0.20656901597976685,1.5505073070526123
1.78895902633667,-0.07267109304666519,-1.0172045230865479,0.7990005612373352,-0.8405813574790955,-0.21190966665744781,1.5669108629226685
1.8090693950653076,-0.071908138692379,-1.0137712955474854,0.7917525172233582,-0.8562218546867371,-0.2149614691734314,1.581406831741333
1.8291280269622803,-0.0707637146115303,-1.0111008882522583,0.7867932915687561,-0.8710994124412537,-0.21915769577026367,1.595139980316162
1.8492004871368408,-0.07000076025724411,-1.0088120698928833,0.7810711860656738,-0.8836880922317505,-0.22106507420539856,1.6088731288909912
1.86991548538208,-0.06847485899925232,-1.0053788423538208,0.7749675512313843,-0.9004730582237244,-0.22526131570339203,1.6210802793502808
1.890110731124878,-0.06733043491840363,-1.0015640258789062,0.7688639760017395,-0.9126802682876587,-0.2302204966545105,1.6321431398391724
1.9102516174316406,-0.06580453366041183,-0.9988937377929688,0.7639048099517822,-0.9267948269844055,-0.23441672325134277,1.642824411392212
1.9302895069122314,-0.06542305648326874,-0.9962233901023865,0.7585641145706177,-0.9390020370483398,-0.23785001039505005,1.6531243324279785
1.9504494667053223,-0.06427863240242004,-0.9931715726852417,0.7528420090675354,-0.9508277773857117,-0.23861294984817505,1.663042664527893
1.9705491065979004,-0.06351567804813385,-0.9897382855415344,0.7467383742332458,-0.962272047996521,-0.24052032828330994,1.6741054058074951
1.9906063079833984,-0.06275273114442825,-0.9859235286712646,0.7406347990036011,-0.9718089699745178,-0.24166475236415863,1.6824978590011597
2.010654926300049,-0.06198977679014206,-0.9828717708587646,0.7364385724067688,-0.9840161800384521,-0.2447165697813034,1.6927977800369263
2.030733585357666,-0.06160829961299896,-0.9813458323478699,0.732623815536499,-0.995841920375824,-0.24967575073242188,1.6996643543243408
2.0508856773376465,-0.06046387553215027,-0.9782940149307251,0.7288090586662292,-1.0049973726272583,-0.25425344705581665,1.7065308094024658
2.070922374725342,-0.06008239835500717,-0.9744792580604553,0.7234683632850647,-1.0149157047271729,-0.25616082549095154,1.7145417928695679
2.0913500785827637,-0.059319447726011276,-0.9710460305213928,0.7192721366882324,-1.021400809288025,-0.2592126429080963,1.7206454277038574
2.111621856689453,-0.05855649709701538,-0.967994213104248,0.7143129706382751,-1.0282673835754395,-0.2634088695049286,1.726749062538147
2.131725788116455,-0.057793546468019485,-0.9649423956871033,0.7101167440414429,-1.0370413064956665,-0.2626459002494812,1.731708288192749
2.1517717838287354,-0.05741206929087639,-0.9618905782699585,0.7066834568977356,-1.0423818826675415,-0.2630273997783661,1.7385748624801636
2.1720223426818848,-0.05741206929087639,-0.9603646993637085,0.7043945789337158,-1.047722578048706,-0.2622644305229187,1.742771029472351
2.1921157836914062,-0.05741206929087639,-0.9576943516731262,0.7009612917900085,-1.054207682609558,-0.2634088695049286,1.7477302551269531
2.2123069763183594,-0.056267641484737396,-0.9538795948028564,0.6967650651931763,-1.0595483779907227,-0.2637903392314911,1.7500190734863281
2.232316255569458,-0.056267641484737396,-0.9515907764434814,0.6929503083229065,-1.0652704238891602,-0.265697717666626,1.7545968294143677
2.2524654865264893,-0.0558861680328846,-0.9496833682060242,0.6906614899635315,-1.0702296495437622,-0.26913100481033325,1.7587929964065552
2.2725305557250977,-0.0555046908557415,-0.9493018984794617,0.6891355514526367,-1.0732814073562622,-0.26913100481033325,1.7614632844924927
2.292597770690918,-0.0555046908557415,-0.9481574892997742,0.6876096725463867,-1.0759518146514893,-0.27027541399002075,1.7652781009674072
2.3126485347747803,-0.0555046908557415,-0.9462500810623169,0.6853207945823669,-1.0778591632843018,-0.26989394426345825,1.7668039798736572
2.3327457904815674,-0.0555046908557415,-0.9443427324295044,0.6837949156761169,-1.0816738605499268,-0.27065691351890564,1.7687113285064697
2.352909564971924,-0.0555046908557415,-0.9431982636451721,0.6830319762229919,-1.0835813283920288,-0.27141985297203064,1.7702373266220093
2.372927188873291,-0.0555046908557415,-0.9416723847389221,0.6811245679855347,-1.0858701467514038,-0.2725642919540405,1.7717632055282593
2.393319606781006,-0.0555046908557415,-0.9393835067749023,0.6788357496261597,-1.0896848440170288,-0.2740901708602905,1.7748149633407593
2.4134199619293213,-0.0551232174038887,-0.9374761581420898,0.6769283413887024,-1.0934996604919434,-0.2752346098423004,1.7767223119735718
2.433485984802246,-0.0551232174038887,-0.9355688095092773,0.6746395230293274,-1.0969328880310059,-0.2790493667125702,1.7786297798156738
2.4535884857177734,-0.0551232174038887,-0.9340428709983826,0.6723506450653076,-1.101129174232483,-0.2794308364391327,1.7813000679016113
2.473642587661743,-0.05436026677489281,-0.9328984618186951,0.6704432964324951,-1.1022735834121704,-0.2794308364391327,1.7835888862609863
2.493725538253784,-0.05397878959774971,-0.9313725233078003,0.6685358881950378,-1.104180932044983,-0.2798123061656952,1.7843518257141113
2.5138235092163086,-0.053215838968753815,-0.9298466444015503,0.6670100092887878,-1.1057069301605225,-0.2794308364391327,1.7851147651672363
2.53387451171875,-0.053215838968753815,-0.9290837049484253,0.6658655405044556,-1.107614278793335,-0.2790493667125702,1.7866407632827759
2.5539488792419434,-0.053215838968753815,-0.9279392957687378,0.6647211313247681,-1.10990309715271,-0.2805752754211426,1.7874037027359009
2.5740201473236084,-0.053215838968753815,-0.9267948269844055,0.6635767221450806,-1.1118104457855225,-0.2794308364391327,1.7893110513687134
2.594087600708008,-0.053215838968753815,-0.9252689480781555,0.6624323129653931,-1.1144808530807495,-0.2794308364391327,1.7923628091812134
2.6141514778137207,-0.053215838968753815,-0.924124538898468,0.6609063744544983,-1.1160067319869995,-0.2794308364391327,1.7935073375701904
2.6342287063598633,-0.053215838968753815,-0.9225986003875732,0.6589990258216858,-1.119439959526062,-0.2801937758922577,1.796177625656128
2.654306173324585,-0.053215838968753815,-0.9214541912078857,0.6570916175842285,-1.121347427368164,-0.2805752754211426,1.796940565109253
2.6744017601013184,-0.053215838968753815,-0.9206912517547607,0.655184268951416,-1.1240177154541016,-0.2801937758922577,1.7996108531951904
2.694472312927246,-0.053215838968753815,-0.9195467829704285,0.6540398001670837,-1.1247806549072266,-0.2794308364391327,1.800755262374878
2.714555263519287,-0.053215838968753815,-0.919165313243866,0.6532768607139587,-1.126688003540039,-0.2790493667125702,1.800755262374878
2.734684944152832,-0.053215838968753815,-0.918402373790741,0.6525139212608337,-1.127450942993164,-0.2801937758922577,1.801899790763855
2.754697561264038,-0.053215838968753815,-0.917639434337616,0.6521324515342712,-1.1289769411087036,-0.2798123061656952,1.801899790763855
2.7748122215270996,-0.053215838968753815,-0.916876494884491,0.6517509818077087,-1.1301213502883911,-0.2805752754211426,1.801899790763855
2.7948644161224365,-0.053215838968753815,-0.9164950251579285,0.6517509818077087,-1.1308842897415161,-0.2801937758922577,1.80266273021698
2.8149802684783936,-0.053215838968753815,-0.9157320261001587,0.6509880423545837,-1.1316472291946411,-0.2805752754211426,1.803425669670105
2.835089683532715,-0.053215838968753815,-0.9153505563735962,0.6506065726280212,-1.1327916383743286,-0.2790493667125702,1.803425669670105
2.855257034301758,-0.053215838968753815,-0.9153505563735962,0.650225043296814,-1.1339360475540161,-0.2794308364391327,1.8038071393966675
2.875269651412964,-0.053215838968753815,-0.9149690866470337,0.6498435735702515,-1.1343175172805786,-0.2794308364391327,1.8038071393966675
2.895455837249756,-0.053215838968753815,-0.9145876169204712,0.649462103843689,-1.1346989870071411,-0.2790493667125702,1.80418860912323
2.91560959815979,-0.053215838968753815,-0.9142061471939087,0.6490806341171265,-1.1358433961868286,-0.2801937758922577,1.80418860912323
2.9357242584228516,-0.053215838968753815,-0.9134432077407837,0.648699164390564,-1.1369879245758057,-0.2805752754211426,1.80418860912323
2.955731153488159,-0.053215838968753815,-0.9126802682876587,0.6483176946640015,-1.1369879245758057,-0.2801937758922577,1.8053330183029175
2.9758005142211914,-0.053215838968753815,-0.9126802682876587,0.6483176946640015,-1.1373693943023682,-0.2801937758922577,1.8060959577560425
2.9958972930908203,-0.053215838968753815,-0.9122987985610962,0.647936224937439,-1.1377508640289307,-0.2801937758922577,1.806477427482605
3.0159754753112793,-0.053215838968753815,-0.9122987985610962,0.647936224937439,-1.1377508640289307,-0.2794308364391327,1.8068588972091675
3.0360493659973145,-0.053215838968753815,-0.9122987985610962,0.647936224937439,-1.1381323337554932,-0.2794308364391327,1.8068588972091675
3.056152105331421,-0.053215838968753815,-0.9111543297767639,0.6475547552108765,-1.1381323337554932,-0.2786678969860077,1.8068588972091675
3.0762782096862793,-0.053215838968753815,-0.9103913903236389,0.647173285484314,-1.1385138034820557,-0.2786678969860077,1.80724036693573
3.0963525772094727,-0.053215838968753815,-0.9103913903236389,0.647173285484314,-1.1388952732086182,-0.2805752754211426,1.8068588972091675
3.1164350509643555,-0.053215838968753815,-0.9103913903236389,0.6467918157577515,-1.1408026218414307,-0.2805752754211426,1.8068588972091675
3.136577606201172,-0.053215838968753815,-0.9103913903236389,0.6467918157577515,-1.1408026218414307,-0.2786678969860077,1.80724036693573
3.156599521636963,-0.053215838968753815,-0.9103913903236389,0.6464102864265442,-1.1408026218414307,-0.2775234580039978,1.80724036693573
3.176661968231201,-0.053215838968753815,-0.9103913903236389,0.6464102864265442,-1.1408026218414307,-0.2775234580039978,1.80724036693573
3.1967124938964844,-0.053215838968753815,-0.9096284508705139,0.6464102864265442,-1.1408026218414307,-0.2779049277305603,1.80724036693573
3.2168641090393066,-0.053215838968753815,-0.9088655114173889,0.6464102864265442,-1.1415655612945557,-0.2782863974571228,1.80724036693573
3.2369019985198975,-0.053215838968753815,-0.9084840416908264,0.6460288166999817,-1.1419470310211182,-0.2790493667125702,1.80724036693573
3.256981372833252,-0.053215838968753815,-0.9084840416908264,0.6460288166999817,-1.1419470310211182,-0.2798123061656952,1.80724036693573
3.2772858142852783,-0.053215838968753815,-0.9084840416908264,0.6456473469734192,-1.1419470310211182,-0.2794308364391327,1.80724036693573
3.297405481338501,-0.053215838968753815,-0.9084840416908264,0.6456473469734192,-1.1419470310211182,-0.2782863974571228,1.80724036693573
3.3174681663513184,-0.053215838968753815,-0.9084840416908264,0.6456473469734192,-1.1423285007476807,-0.2782863974571228,1.8076218366622925
3.3375556468963623,-0.053215838968753815,-0.9084840416908264,0.6456473469734192,-1.1423285007476807,-0.2782863974571228,1.8076218366622925
3.3576083183288574,-0.053215838968753815,-0.9084840416908264,0.6456473469734192,-1.1423285007476807,-0.2786678969860077,1.8076218366622925
3.3776748180389404,-0.053215838968753815,-0.9084840416908264,0.6452658772468567,-1.1430914402008057,-0.2790493667125702,1.8076218366622925
3.3977203369140625,-0.053215838968753815,-0.9084840416908264,0.6448844075202942,-1.1427099704742432,-0.2786678969860077,1.8076218366622925
3.4178144931793213,-0.053215838968753815,-0.9084840416908264,0.6448844075202942,-1.1427099704742432,-0.2779049277305603,1.808003306388855
3.437905788421631,-0.053215838968753815,-0.9084840416908264,0.6448844075202942,-1.1427099704742432,-0.2779049277305603,1.8076218366622925
3.4579522609710693,-0.053215838968753815,-0.9084840416908264,0.6448844075202942,-1.1427099704742432,-0.2782863974571228,1.8076218366622925
3.4780385494232178,-0.05359731614589691,-0.9081025123596191,0.6448844075202942,-1.1434729099273682,-0.2786678969860077,1.8076218366622925
3.4981861114501953,-0.05359731614589691,-0.9081025123596191,0.6448844075202942,-1.1434729099273682,-0.2786678969860077,1.8076218366622925
3.5182647705078125,-0.05359731614589691,-0.9081025123596191,0.6448844075202942,-1.1434729099273682,-0.2782863974571228,1.808003306388855
3.538339853286743,-0.05359731614589691,-0.9081025123596191,0.6445029377937317,-1.1434729099273682,-0.2782863974571228,1.808003306388855
3.5584962368011475,-0.05359731614589691,-0.9081025123596191,0.6448844075202942,-1.1434729099273682,-0.2782863974571228,1.808003306388855
3.57858943939209,-0.05359731614589691,-0.9081025123596191,0.6448844075202942,-1.1434729099273682,-0.2782863974571228,1.808003306388855
3.5986714363098145,-0.05359731614589691,-0.9077210426330566,0.6445029377937317,-1.1434729099273682,-0.2782863974571228,1.808003306388855
3.6187312602996826,-0.05359731614589691,-0.9073395729064941,0.6445029377937317,-1.1438543796539307,-0.2782863974571228,1.808003306388855
3.6388020515441895,-0.05359731614589691,-0.9073395729064941,0.6445029377937317,-1.1438543796539307,-0.2779049277305603,1.808003306388855
3.65885853767395,-0.05359731614589691,-0.9073395729064941,0.6445029377937317,-1.1438543796539307,-0.2782863974571228,1.808003306388855
3.6790425777435303,-0.05397878959774971,-0.9073395729064941,0.6445029377937317,-1.1438543796539307,-0.2779049277305603,1.808003306388855
3.6990535259246826,-0.05397878959774971,-0.9073395729064941,0.6445029377937317,-1.1438543796539307,-0.2779049277305603,1.808003306388855
3.719087600708008,-0.05436026677489281,-0.9073395729064941,0.6445029377937317,-1.1438543796539307,-0.2779049277305603,1.808003306388855
3.7392072677612305,-0.05436026677489281,-0.9073395729064941,0.6445029377937317,-1.1438543796539307,-0.2779049277305603,1.808003306388855
3.7593016624450684,-0.05436026677489281,-0.9073395729064941,0.6445029377937317,-1.1438543796539307,-0.2779049277305603,1.808003306388855
3.7793350219726562,-0.05436026677489281,-0.9073395729064941,0.6445029377937317,-1.1438543796539307,-0.2779049277305603,1.8083847761154175
3.799470901489258,-0.05436026677489281,-0.9073395729064941,0.6445029377937317,-1.1438543796539307,-0.2775234580039978,1.8083847761154175
3.8196306228637695,-0.05436026677489281,-0.9073395729064941,0.6445029377937317,-1.1438543796539307,-0.2775234580039978,1.8083847761154175
3.8396735191345215,-0.05436026677489281,-0.9073395729064941,0.6445029377937317,-1.1438543796539307,-0.2775234580039978,1.8083847761154175
3.8597207069396973,-0.05436026677489281,-0.9073395729064941,0.6445029377937317,-1.1438543796539307,-0.2775234580039978,1.8083847761154175
3.8798835277557373,-0.05436026677489281,-0.9073395729064941,0.6445029377937317,-1.1438543796539307,-0.2775234580039978,1.8083847761154175
3.899862051010132,-0.05436026677489281,-0.9073395729064941,0.6445029377937317,-1.1438543796539307,-0.2775234580039978,1.8083847761154175
3.919917583465576,-0.05436026677489281,-0.9073395729064941,0.6445029377937317,-1.1438543796539307,-0.2775234580039978,1.8083847761154175
3.940281629562378,-0.05436026677489281,-0.9073395729064941,0.6441214680671692,-1.1438543796539307,-0.2775234580039978,1.8083847761154175
3.960362434387207,-0.05436026677489281,-0.9073395729064941,0.6441214680671692,-1.1438543796539307,-0.2775234580039978,1.8083847761154175
3.9804351329803467,-0.05436026677489281,-0.9073395729064941,0.6441214680671692,-1.1442358493804932,-0.2771419882774353,1.8083847761154175
4.000530481338501,-0.05436026677489281,-0.9073395729064941,0.6441214680671692,-1.1438543796539307,-0.2771419882774353,1.8083847761154175
4.0206215381622314,-0.05436026677489281,-0.9073395729064941,0.6441214680671692,-1.1442358493804932,-0.2771419882774353,1.8083847761154175
4.04068922996521,-0.05436026677489281,-0.9073395729064941,0.6441214680671692,-1.1442358493804932,-0.2771419882774353,1.8083847761154175
4.060846567153931,-0.05436026677489281,-0.9073395729064941,0.6441214680671692,-1.1442358493804932,-0.2771419882774353,1.8083847761154175
4.080826282501221,-0.05436026677489281,-0.9073395729064941,0.6441214680671692,-1.1442358493804932,-0.2771419882774353,1.8083847761154175
4.100907802581787,-0.05436026677489281,-0.9073395729064941,0.6441214680671692,-1.1442358493804932,-0.2771419882774353,1.8083847761154175
4.121007680892944,-0.05436026677489281,-0.9073395729064941,0.6441214680671692,-1.1442358493804932,-0.2771419882774353,1.8083847761154175
4.1411051750183105,-0.05436026677489281,-0.9073395729064941,0.6441214680671692,-1.1442358493804932,-0.2771419882774353,1.8083847761154175
4.161144495010376,-0.05436026677489281,-0.9073395729064941,0.6441214680671692,-1.1442358493804932,-0.2771419882774353,1.8083847761154175
4.1812543869018555,-0.05436026677489281,-0.9073395729064941,0.6441214680671692,-1.1442358493804932,-0.2771419882774353,1.8083847761154175
4.2013115882873535,-0.05436026677489281,-0.9073395729064941,0.6441214680671692,-1.1442358493804932,-0.2771419882774353,1.8083847761154175
4.22141170501709,-0.05436026677489281,-0.9073395729064941,0.6441214680671692,-1.1442358493804932,-0.2771419882774353,1.8083847761154175
4.241686105728149,-0.05436026677489281,-0.9073395729064941,0.6441214680671692,-1.1442358493804932,-0.2771419882774353,1.8083847761154175
4.2618408203125,-0.05436026677489281,-0.9073395729064941,0.6441214680671692,-1.1442358493804932,-0.2771419882774353,1.8083847761154175
4.281914234161377,-0.05436026677489281,-0.9073395729064941,0.6441214680671692,-1.1442358493804932,-0.2771419882774353,1.8083847761154175
4.301986932754517,-0.05436026677489281,-0.9073395729064941,0.6441214680671692,-1.1442358493804932,-0.2771419882774353,1.8083847761154175
4.322076082229614,-0.05436026677489281,-0.9073395729064941,0.6441214680671692,-1.1442358493804932,-0.2771419882774353,1.8083847761154175
4.34216833114624,-0.05436026677489281,-0.9073395729064941,0.6441214680671692,-1.1442358493804932,-0.2771419882774353,1.8083847761154175
4.362269878387451,-0.05436026677489281,-0.9073395729064941,0.6441214680671692,-1.1442358493804932,-0.2767605185508728,1.8083847761154175
4.382380485534668,-0.05436026677489281,-0.9073395729064941,0.6441214680671692,-1.1442358493804932,-0.2771419882774353,1.8083847761154175
4.402494430541992,-0.05436026677489281,-0.9073395729064941,0.6441214680671692,-1.1442358493804932,-0.2771419882774353,1.8083847761154175
4.422542095184326,-0.05436026677489281,-0.9073395729064941,0.6441214680671692,-1.1442358493804932,-0.2771419882774353,1.8083847761154175
4.442715406417847,-0.05436026677489281,-0.9073395729064941,0.6441214680671692,-1.1442358493804932,-0.2771419882774353,1.8083847761154175
4.462873935699463,-0.05436026677489281,-0.9073395729064941,0.6441214680671692,-1.1442358493804932,-0.2771419882774353,1.8083847761154175
4.482951879501343,-0.05436026677489281,-0.9073395729064941,0.6441214680671692,-1.1442358493804932,-0.2767605185508728,1.8083847761154175
4.50300145149231,-0.05436026677489281,-0.9073395729064941,0.6441214680671692,-1.1442358493804932,-0.2767605185508728,1.8083847761154175
4.523055076599121,-0.05436026677489281,-0.9073395729064941,0.6441214680671692,-1.1442358493804932,-0.2767605185508728,1.8083847761154175
4.54317307472229,-0.05436026677489281,-0.9073395729064941,0.6441214680671692,-1.1442358493804932,-0.2767605185508728,1.8083847761154175
4.563214540481567,-0.054741740226745605,-0.9073395729064941,0.6441214680671692,-1.1442358493804932,-0.2767605185508728,1.8083847761154175
4.583280801773071,-0.054741740226745605,-0.9073395729064941,0.6441214680671692,-1.1442358493804932,-0.2767605185508728,1.8083847761154175
4.603378534317017,-0.054741740226745605,-0.9073395729064941,0.6441214680671692,-1.1442358493804932,-0.2767605185508728,1.8083847761154175
4.623485565185547,-0.054741740226745605,-0.9073395729064941,0.6441214680671692,-1.1442358493804932,-0.2767605185508728,1.8083847761154175
4.643566131591797,-0.054741740226745605,-0.9073395729064941,0.6441214680671692,-1.1442358493804932,-0.2767605185508728,1.8083847761154175
4.663594007492065,-0.054741740226745605,-0.9073395729064941,0.6441214680671692,-1.1442358493804932,-0.2767605185508728,1.8083847761154175
4.683680057525635,-0.054741740226745605,-0.9073395729064941,0.6441214680671692,-1.1442358493804932,-0.2767605185508728,1.8083847761154175
4.703745365142822,-0.054741740226745605,-0.9073395729064941,0.6441214680671692,-1.1442358493804932,-0.2767605185508728,1.8083847761154175
4.723849773406982,-0.054741740226745605,-0.9073395729064941,0.6441214680671692,-1.1442358493804932,-0.2767605185508728,1.8083847761154175
4.743890285491943,-0.054741740226745605,-0.9073395729064941,0.6441214680671692,-1.1442358493804932,-0.2767605185508728,1.8083847761154175
4.763966083526611,-0.054741740226745605,-0.9073395729064941,0.6441214680671692,-1.1442358493804932,-0.2767605185508728,1.8083847761154175
4.784081935882568,-0.054741740226745605,-0.9073395729064941,0.6441214680671692,-1.1446174383163452,-0.2767605185508728,1.8083847761154175
4.8041911125183105,-0.054741740226745605,-0.9073395729064941,0.6445029377937317,-1.1446174383163452,-0.2767605185508728,1.8083847761154175
4.824680805206299,-0.054741740226745605,-0.9073395729064941,0.6441214680671692,-1.1446174383163452,-0.2767605185508728,1.8083847761154175
4.844746112823486,-0.054741740226745605,-0.9073395729064941,0.6445029377937317,-1.1442358493804932,-0.2767605185508728,1.8083847761154175
4.86481237411499,-0.054741740226745605,-0.9073395729064941,0.6445029377937317,-1.1442358493804932,-0.2767605185508728,1.8083847761154175
4.884875297546387,-0.054741740226745605,-0.9073395729064941,0.6445029377937317,-1.1442358493804932,-0.2767605185508728,1.8083847761154175
4.904980421066284,-0.054741740226745605,-0.9073395729064941,0.6445029377937317,-1.1442358493804932,-0.2767605185508728,1.8083847761154175
4.925058364868164,-0.054741740226745605,-0.9073395729064941,0.6445029377937317,-1.1442358493804932,-0.2767605185508728,1.8083847761154175
4.9451258182525635,-0.054741740226745605,-0.9073395729064941,0.6445029377937317,-1.1442358493804932,-0.2767605185508728,1.8083847761154175
4.965260028839111,-0.054741740226745605,-0.9073395729064941,0.6445029377937317,-1.1442358493804932,-0.2767605185508728,1.8083847761154175
4.985405206680298,-0.054741740226745605,-0.9073395729064941,0.6445029377937317,-1.1442358493804932,-0.2763790488243103,1.8083847761154175
5.005566835403442,-0.054741740226745605,-0.9073395729064941,0.6445029377937317,-1.1442358493804932,-0.2767605185508728,1.8083847761154175
5.025661945343018,-0.054741740226745605,-0.9073395729064941,0.6445029377937317,-1.1442358493804932,-0.2767605185508728,1.8083847761154175
5.045893669128418,-0.054741740226745605,-0.9073395729064941,0.6445029377937317,-1.1442358493804932,-0.2767605185508728,1.8083847761154175
5.066091299057007,-0.054741740226745605,-0.9073395729064941,0.6445029377937317,-1.1442358493804932,-0.2767605185508728,1.8083847761154175
5.0860679149627686,-0.054741740226745605,-0.9073395729064941,0.6445029377937317,-1.1442358493804932,-0.2767605185508728,1.8083847761154175
5.10611891746521,-0.054741740226745605,-0.9073395729064941,0.6445029377937317,-1.1442358493804932,-0.2767605185508728,1.8083847761154175
5.126234531402588,-0.054741740226745605,-0.9073395729064941,0.6445029377937317,-1.1442358493804932,-0.2767605185508728,1.8083847761154175
5.146356582641602,-0.054741740226745605,-0.9073395729064941,0.6445029377937317,-1.1442358493804932,-0.2767605185508728,1.8083847761154175
5.166391372680664,-0.054741740226745605,-0.9073395729064941,0.6445029377937317,-1.1442358493804932,-0.2767605185508728,1.8083847761154175
5.186673402786255,-0.054741740226745605,-0.9073395729064941,0.6445029377937317,-1.1442358493804932,-0.2767605185508728,1.8083847761154175
5.2068190574646,-0.054741740226745605,-0.9073395729064941,0.6445029377937317,-1.1442358493804932,-0.2767605185508728,1.8083847761154175
5.226897954940796,-0.054741740226745605,-0.9073395729064941,0.6445029377937317,-1.1442358493804932,-0.2767605185508728,1.8083847761154175
5.246995449066162,-0.054741740226745605,-0.9073395729064941,0.6445029377937317,-1.1442358493804932,-0.2767605185508728,1.8083847761154175
5.267045974731445,-0.054741740226745605,-0.9073395729064941,0.6445029377937317,-1.1442358493804932,-0.2767605185508728,1.8083847761154175
5.287129878997803,-0.054741740226745605,-0.9073395729064941,0.6445029377937317,-1.1442358493804932,-0.2763790488243103,1.8083847761154175
5.307233810424805,-0.054741740226745605,-0.9073395729064941,0.6445029377937317,-1.1442358493804932,-0.2763790488243103,1.8083847761154175
5.327324628829956,-0.054741740226745605,-0.9073395729064941,0.6445029377937317,-1.1442358493804932,-0.2767605185508728,1.8083847761154175
5.347458124160767,-0.054741740226745605,-0.9073395729064941,0.6445029377937317,-1.1442358493804932,-0.2767605185508728,1.8083847761154175
5.367509365081787,-0.054741740226745605,-0.9073395729064941,0.6445029377937317,-1.1442358493804932,-0.2767605185508728,1.8083847761154175
5.387568235397339,-0.054741740226745605,-0.9073395729064941,0.6445029377937317,-1.1442358493804932,-0.2763790488243103,1.8083847761154175
5.407693862915039,-0.054741740226745605,-0.9077210426330566,0.6445029377937317,-1.1442358493804932,-0.2763790488243103,1.8083847761154175
5.427790641784668,-0.054741740226745605,-0.9073395729064941,0.6445029377937317,-1.1442358493804932,-0.2763790488243103,1.8083847761154175
5.447856187820435,-0.054741740226745605,-0.9077210426330566,0.6445029377937317,-1.1442358493804932,-0.2767605185508728,1.8083847761154175
5.467933654785156,-0.054741740226745605,-0.9073395729064941,0.6445029377937317,-1.1446174383163452,-0.2763790488243103,1.8083847761154175
5.48799467086792,-0.054741740226745605,-0.9077210426330566,0.6445029377937317,-1.1442358493804932,-0.2763790488243103,1.8083847761154175
5.508202791213989,-0.054741740226745605,-0.9077210426330566,0.6445029377937317,-1.1442358493804932,-0.2763790488243103,1.8083847761154175
5.528209447860718,-0.054741740226745605,-0.9073395729064941,0.6445029377937317,-1.1442358493804932,-0.2763790488243103,1.8083847761154175
5.548267602920532,-0.054741740226745605,-0.9077210426330566,0.6445029377937317,-1.1442358493804932,-0.2763790488243103,1.8083847761154175
5.568338871002197,-0.054741740226745605,-0.9077210426330566,0.6445029377937317,-1.1442358493804932,-0.2763790488243103,1.8083847761154175
5.588459730148315,-0.054741740226745605,-0.9077210426330566,0.6445029377937317,-1.1442358493804932,-0.2767605185508728,1.8083847761154175
5.608534812927246,-0.054741740226745605,-0.9077210426330566,0.6445029377937317,-1.1446174383163452,-0.2763790488243103,1.8083847761154175
5.628575563430786,-0.054741740226745605,-0.9077210426330566,0.6445029377937317,-1.1442358493804932,-0.2763790488243103,1.8083847761154175
5.648725986480713,-0.054741740226745605,-0.9077210426330566,0.6445029377937317,-1.1446174383163452,-0.2763790488243103,1.8083847761154175
5.668843984603882,-0.0555046908557415,-0.9077210426330566,0.6445029377937317,-1.1446174383163452,-0.2763790488243103,1.8083847761154175
5.6888275146484375,-0.0555046908557415,-0.9077210426330566,0.6445029377937317,-1.1446174383163452,-0.2763790488243103,1.8083847761154175
5.708876371383667,-0.0555046908557415,-0.9077210426330566,0.6445029377937317,-1.1446174383163452,-0.2763790488243103,1.8083847761154175
5.728962182998657,-0.0555046908557415,-0.9077210426330566,0.6445029377937317,-1.1442358493804932,-0.2763790488243103,1.8083847761154175
5.749159097671509,-0.0555046908557415,-0.9077210426330566,0.6445029377937317,-1.1446174383163452,-0.2763790488243103,1.8083847761154175
5.769219160079956,-0.0555046908557415,-0.9077210426330566,0.6445029377937317,-1.1446174383163452,-0.2763790488243103,1.8083847761154175
5.789383172988892,-0.0555046908557415,-0.9077210426330566,0.6445029377937317,-1.1446174383163452,-0.2763790488243103,1.8083847761154175
5.809496164321899,-0.0555046908557415,-0.9077210426330566,0.6445029377937317,-1.1446174383163452,-0.2763790488243103,1.8083847761154175
5.829582929611206,-0.0555046908557415,-0.9077210426330566,0.6445029377937317,-1.1446174383163452,-0.2763790488243103,1.8083847761154175
5.849632978439331,-0.0555046908557415,-0.9077210426330566,0.6445029377937317,-1.1446174383163452,-0.2763790488243103,1.8083847761154175
5.870019912719727,-0.0555046908557415,-0.9077210426330566,0.6445029377937317,-1.1446174383163452,-0.2763790488243103,1.8083847761154175
5.890109539031982,-0.0555046908557415,-0.9077210426330566,0.6448844075202942,-1.1446174383163452,-0.2763790488243103,1.8083847761154175
5.91020655632019,-0.0555046908557415,-0.9077210426330566,0.6448844075202942,-1.1446174383163452,-0.2763790488243103,1.8083847761154175
5.930240869522095,-0.0555046908557415,-0.9077210426330566,0.6448844075202942,-1.1446174383163452,-0.2763790488243103,1.8083847761154175
5.95055890083313,-0.0555046908557415,-0.9077210426330566,0.6448844075202942,-1.1446174383163452,-0.2763790488243103,1.8083847761154175
5.970661401748657,-0.0555046908557415,-0.9077210426330566,0.6448844075202942,-1.1446174383163452,-0.2763790488243103,1.8083847761154175
5.990676164627075,-0.0555046908557415,-0.9077210426330566,0.6448844075202942,-1.1446174383163452,-0.2763790488243103,1.8083847761154175
6.010727405548096,-0.0555046908557415,-0.9077210426330566,0.6448844075202942,-1.1446174383163452,-0.2763790488243103,1.8083847761154175
6.030880928039551,-0.0555046908557415,-0.9077210426330566,0.6448844075202942,-1.1446174383163452,-0.2763790488243103,1.8083847761154175
6.0509192943573,-0.0555046908557415,-0.9077210426330566,0.6448844075202942,-1.1446174383163452,-0.2763790488243103,1.8083847761154175
6.070963144302368,-0.0555046908557415,-0.9077210426330566,0.6448844075202942,-1.1442358493804932,-0.2763790488243103,1.8083847761154175
6.091216564178467,-0.0555046908557415,-0.9077210426330566,0.6448844075202942,-1.1446174383163452,-0.2763790488243103,1.8083847761154175
6.111324071884155,-0.0555046908557415,-0.9077210426330566,0.6448844075202942,-1.1446174383163452,-0.2763790488243103,1.8083847761154175
6.131437301635742,-0.0551232174038887,-0.9077210426330566,0.6448844075202942,-1.1446174383163452,-0.2763790488243103,1.8083847761154175
6.151453495025635,-0.0551232174038887,-0.9077210426330566,0.6448844075202942,-1.1446174383163452,-0.2763790488243103,1.8083847761154175
6.171550750732422,-0.0551232174038887,-0.9081025123596191,0.6448844075202942,-1.1446174383163452,-0.2763790488243103,1.8083847761154175
6.191643953323364,-0.0551232174038887,-0.9081025123596191,0.6448844075202942,-1.1446174383163452,-0.2763790488243103,1.8083847761154175
6.21170449256897,-0.0551232174038887,-0.9081025123596191,0.6448844075202942,-1.1446174383163452,-0.2759975492954254,1.8083847761154175
6.231775999069214,-0.0551232174038887,-0.9081025123596191,0.6448844075202942,-1.1446174383163452,-0.2759975492954254,1.8083847761154175
6.2521562576293945,-0.0551232174038887,-0.9081025123596191,0.6448844075202942,-1.1446174383163452,-0.2759975492954254,1.8083847761154175
6.272270917892456,-0.0551232174038887,-0.9081025123596191,0.6448844075202942,-1.1446174383163452,-0.2759975492954254,1.8083847761154175
6.292386770248413,-0.05436026677489281,-0.9081025123596191,0.6448844075202942,-1.1446174383163452,-0.2763790488243103,1.8083847761154175
6.312653303146362,-0.05436026677489281,-0.9081025123596191,0.6448844075202942,-1.1446174383163452,-0.2759975492954254,1.8083847761154175
6.332725763320923,-0.05436026677489281,-0.9081025123596191,0.6448844075202942,-1.1446174383163452,-0.2759975492954254,1.8083847761154175
6.352830410003662,-0.05436026677489281,-0.9081025123596191,0.6448844075202942,-1.1446174383163452,-0.2759975492954254,1.8083847761154175
6.372911214828491,-0.05436026677489281,-0.9081025123596191,0.6448844075202942,-1.1446174383163452,-0.2759975492954254,1.8083847761154175
6.392995834350586,-0.05436026677489281,-0.9081025123596191,0.6448844075202942,-1.1446174383163452,-0.2759975492954254,1.8083847761154175
6.413069248199463,-0.05436026677489281,-0.9081025123596191,0.6448844075202942,-1.1446174383163452,-0.2763790488243103,1.8083847761154175
6.433136940002441,-0.05436026677489281,-0.9081025123596191,0.6448844075202942,-1.1446174383163452,-0.2763790488243103,1.8083847761154175
6.453229665756226,-0.05436026677489281,-0.9081025123596191,0.6448844075202942,-1.1446174383163452,-0.2763790488243103,1.8083847761154175
6.473315715789795,-0.05436026677489281,-0.9081025123596191,0.6448844075202942,-1.1446174383163452,-0.2763790488243103,1.8083847761154175
6.493412733078003,-0.05436026677489281,-0.9081025123596191,0.6448844075202942,-1.1446174383163452,-0.2759975492954254,1.8083847761154175
6.5134687423706055,-0.05436026677489281,-0.9081025123596191,0.6448844075202942,-1.1446174383163452,-0.2763790488243103,1.8083847761154175
6.533540964126587,-0.05436026677489281,-0.9081025123596191,0.6448844075202942,-1.1446174383163452,-0.2763790488243103,1.8083847761154175
6.55367112159729,-0.05436026677489281,-0.9081025123596191,0.6448844075202942,-1.1446174383163452,-0.2763790488243103,1.8083847761154175
6.5737059116363525,-0.05436026677489281,-0.9077210426330566,0.6448844075202942,-1.1446174383163452,-0.2763790488243103,1.8083847761154175
6.593751907348633,-0.05436026677489281,-0.9077210426330566,0.6448844075202942,-1.1446174383163452,-0.2763790488243103,1.8083847761154175
6.61384391784668,-0.05436026677489281,-0.9077210426330566,0.6448844075202942,-1.1446174383163452,-0.2763790488243103,1.8083847761154175
6.633909702301025,-0.05436026677489281,-0.9077210426330566,0.6448844075202942,-1.1446174383163452,-0.2763790488243103,1.8083847761154175
6.654022693634033,-0.05436026677489281,-0.9077210426330566,0.6448844075202942,-1.1446174383163452,-0.2767605185508728,1.8083847761154175
6.674352645874023,-0.05436026677489281,-0.9077210426330566,0.6448844075202942,-1.1446174383163452,-0.2763790488243103,1.8083847761154175
6.694585084915161,-0.05436026677489281,-0.9077210426330566,0.6448844075202942,-1.1446174383163452,-0.2763790488243103,1.8083847761154175
6.714599370956421,-0.05436026677489281,-0.9077210426330566,0.6448844075202942,-1.1446174383163452,-0.2763790488243103,1.8083847761154175
6.734750270843506,-0.05436026677489281,-0.9077210426330566,0.6448844075202942,-1.1446174383163452,-0.2767605185508728,1.8083847761154175
6.754851341247559,-0.05436026677489281,-0.9077210426330566,0.6448844075202942,-1.1446174383163452,-0.2763790488243103,1.8083847761154175
6.7748401165008545,-0.05436026677489281,-0.9077210426330566,0.6448844075202942,-1.1446174383163452,-0.2763790488243103,1.8083847761154175
6.795007705688477,-0.05436026677489281,-0.9077210426330566,0.6448844075202942,-1.1446174383163452,-0.2763790488243103,1.8083847761154175
6.8151867389678955,-0.05436026677489281,-0.9081025123596191,0.6448844075202942,-1.1446174383163452,-0.2767605185508728,1.8083847761154175
6.83525538444519,-0.05436026677489281,-0.9081025123596191,0.6448844075202942,-1.1446174383163452,-0.2763790488243103,1.8083847761154175
6.855311632156372,-0.05436026677489281,-0.9081025123596191,0.6448844075202942,-1.1446174383163452,-0.2763790488243103,1.8083847761154175
6.875474691390991,-0.05436026677489281,-0.9081025123596191,0.6448844075202942,-1.1446174383163452,-0.2767605185508728,1.8083847761154175
6.895625352859497,-0.05436026677489281,-0.9081025123596191,0.6448844075202942,-1.1446174383163452,-0.2767605185508728,1.8083847761154175
6.915679454803467,-0.05436026677489281,-0.9081025123596191,0.6448844075202942,-1.1446174383163452,-0.2767605185508728,1.8083847761154175
6.935806751251221,-0.05436026677489281,-0.9081025123596191,0.6448844075202942,-1.1446174383163452,-0.2767605185508728,1.8083847761154175
6.9558305740356445,-0.05436026677489281,-0.9081025123596191,0.6448844075202942,-1.1446174383163452,-0.2763790488243103,1.8083847761154175
6.9759202003479,-0.05436026677489281,-0.9081025123596191,0.6448844075202942,-1.1446174383163452,-0.2767605185508728,1.8083847761154175
6.995990514755249,-0.05436026677489281,-0.9081025123596191,0.6448844075202942,-1.1446174383163452,-0.2767605185508728,1.8083847761154175
7.016181945800781,-0.05436026677489281,-0.9081025123596191,0.6448844075202942,-1.1446174383163452,-0.2767605185508728,1.8083847761154175
7.036367177963257,-0.05436026677489281,-0.9081025123596191,0.6448844075202942,-1.1446174383163452,-0.2767605185508728,1.8083847761154175
7.056453227996826,-0.05436026677489281,-0.9081025123596191,0.6448844075202942,-1.1442358493804932,-0.2767605185508728,1.8083847761154175
7.076555490493774,-0.05436026677489281,-0.9081025123596191,0.6448844075202942,-1.1446174383163452,-0.2767605185508728,1.8083847761154175
7.096700191497803,-0.05436026677489281,-0.9081025123596191,0.6448844075202942,-1.1446174383163452,-0.2767605185508728,1.8083847761154175
7.116734504699707,-0.05436026677489281,-0.9077210426330566,0.6448844075202942,-1.1446174383163452,-0.2767605185508728,1.8083847761154175
7.151249408721924,-0.05436026677489281,-0.9077210426330566,0.6448844075202942,-1.1446174383163452,-0.2767605185508728,1.8083847761154175
7.1713526248931885,-0.05436026677489281,-0.9077210426330566,0.6448844075202942,-1.1446174383163452,-0.2767605185508728,1.8083847761154175
7.191416501998901,-0.05436026677489281,-0.9077210426330566,0.6448844075202942,-1.1446174383163452,-0.2767605185508728,1.8083847761154175
7.211487770080566,-0.05436026677489281,-0.9077210426330566,0.6448844075202942,-1.1446174383163452,-0.2767605185508728,1.8083847761154175
7.232273578643799,-0.05436026677489281,-0.9077210426330566,0.6448844075202942,-1.1446174383163452,-0.2767605185508728,1.8083847761154175
7.252366065979004,-0.05436026677489281,-0.9077210426330566,0.6448844075202942,-1.1446174383163452,-0.2767605185508728,1.8083847761154175
7.272424221038818,-0.05436026677489281,-0.9077210426330566,0.6448844075202942,-1.1446174383163452,-0.2767605185508728,1.8083847761154175
7.2925379276275635,-0.05436026677489281,-0.9077210426330566,0.6448844075202942,-1.1446174383163452,-0.2767605185508728,1.8083847761154175
7.31258487701416,-0.05436026677489281,-0.9077210426330566,0.6448844075202942,-1.1446174383163452,-0.2767605185508728,1.8083847761154175
7.332659006118774,-0.05436026677489281,-0.9081025123596191,0.6448844075202942,-1.1446174383163452,-0.2767605185508728,1.8083847761154175
7.35274863243103,-0.05436026677489281,-0.9081025123596191,0.6448844075202942,-1.1446174383163452,-0.2767605185508728,1.8083847761154175
7.373779058456421,-0.05436026677489281,-0.9081025123596191,0.6448844075202942,-1.1442358493804932,-0.2767605185508728,1.8083847761154175
7.3938515186309814,-0.05436026677489281,-0.9081025123596191,0.6448844075202942,-1.1446174383163452,-0.2767605185508728,1.8083847761154175
7.41396951675415,-0.05436026677489281,-0.9081025123596191,0.6448844075202942,-1.1446174383163452,-0.2767605185508728,1.8083847761154175
7.434004783630371,-0.05436026677489281,-0.9081025123596191,0.6448844075202942,-1.1446174383163452,-0.2767605185508728,1.8083847761154175
7.454396486282349,-0.05436026677489281,-0.9081025123596191,0.6448844075202942,-1.1446174383163452,-0.2767605185508728,1.8083847761154175
7.47455358505249,-0.05436026677489281,-0.9081025123596191,0.6448844075202942,-1.1442358493804932,-0.2767605185508728,1.8083847761154175
7.494582176208496,-0.05436026677489281,-0.9081025123596191,0.6448844075202942,-1.1446174383163452,-0.2767605185508728,1.8083847761154175
7.514665842056274,-0.054741740226745605,-0.9081025123596191,0.6448844075202942,-1.1446174383163452,-0.2767605185508728,1.8083847761154175
7.534767389297485,-0.05436026677489281,-0.9081025123596191,0.6448844075202942,-1.1446174383163452,-0.2767605185508728,1.8083847761154175
7.554834365844727,-0.05436026677489281,-0.9081025123596191,0.6448844075202942,-1.1442358493804932,-0.2767605185508728,1.8083847761154175
7.574944496154785,-0.054741740226745605,-0.9077210426330566,0.6448844075202942,-1.1446174383163452,-0.2767605185508728,1.8083847761154175
7.5949647426605225,-0.05436026677489281,-0.9077210426330566,0.6448844075202942,-1.1446174383163452,-0.2767605185508728,1.8083847761154175
7.61505389213562,-0.054741740226745605,-0.9077210426330566,0.6448844075202942,-1.1446174383163452,-0.2767605185508728,1.8083847761154175
7.635116100311279,-0.054741740226745605,-0.9077210426330566,0.6448844075202942,-1.1446174383163452,-0.2767605185508728,1.8083847761154175
7.655186653137207,-0.054741740226745605,-0.9077210426330566,0.6448844075202942,-1.1446174383163452,-0.2767605185508728,1.8083847761154175
7.675265312194824,-0.054741740226745605,-0.9077210426330566,0.6448844075202942,-1.1446174383163452,-0.2767605185508728,1.8083847761154175
7.695326566696167,-0.054741740226745605,-0.9077210426330566,0.6448844075202942,-1.1446174383163452,-0.2767605185508728,1.8083847761154175
7.715420722961426,-0.054741740226745605,-0.9077210426330566,0.6448844075202942,-1.1446174383163452,-0.2767605185508728,1.8083847761154175
7.735475063323975,-0.054741740226745605,-0.9077210426330566,0.6448844075202942,-1.1446174383163452,-0.2767605185508728,1.8083847761154175
7.755628824234009,-0.054741740226745605,-0.9077210426330566,0.6448844075202942,-1.1446174383163452,-0.2767605185508728,1.8083847761154175
7.775632381439209,-0.054741740226745605,-0.9077210426330566,0.6448844075202942,-1.1446174383163452,-0.2767605185508728,1.8083847761154175
7.795745134353638,-0.054741740226745605,-0.9077210426330566,0.6448844075202942,-1.1446174383163452,-0.2767605185508728,1.8083847761154175
7.816319942474365,-0.054741740226745605,-0.9077210426330566,0.6448844075202942,-1.1446174383163452,-0.2767605185508728,1.8083847761154175
7.8365349769592285,-0.054741740226745605,-0.9077210426330566,0.6448844075202942,-1.1446174383163452,-0.2767605185508728,1.8083847761154175
7.856651306152344,-0.054741740226745605,-0.9077210426330566,0.6448844075202942,-1.1446174383163452,-0.2767605185508728,1.8083847761154175
7.8766584396362305,-0.054741740226745605,-0.9077210426330566,0.6448844075202942,-1.1446174383163452,-0.2767605185508728,1.8083847761154175
7.896726608276367,-0.054741740226745605,-0.9077210426330566,0.6448844075202942,-1.1446174383163452,-0.2767605185508728,1.8083847761154175
7.916833400726318,-0.054741740226745605,-0.9077210426330566,0.6448844075202942,-1.1446174383163452,-0.2767605185508728,1.8083847761154175
7.936901330947876,-0.054741740226745605,-0.9081025123596191,0.6448844075202942,-1.1446174383163452,-0.2767605185508728,1.8083847761154175
7.956959009170532,-0.054741740226745605,-0.9081025123596191,0.6448844075202942,-1.1446174383163452,-0.2767605185508728,1.808003306388855
7.977080583572388,-0.054741740226745605,-0.9081025123596191,0.6448844075202942,-1.1446174383163452,-0.2767605185508728,1.8083847761154175
7.99715256690979,-0.054741740226745605,-0.9081025123596191,0.6448844075202942,-1.1446174383163452,-0.2767605185508728,1.8083847761154175
8.017223596572876,-0.054741740226745605,-0.9081025123596191,0.6448844075202942,-1.1446174383163452,-0.2767605185508728,1.8083847761154175
8.037272691726685,-0.054741740226745605,-0.9081025123596191,0.6448844075202942,-1.1446174383163452,-0.2767605185508728,1.8083847761154175
8.05736756324768,-0.054741740226745605,-0.9081025123596191,0.6448844075202942,-1.1446174383163452,-0.2767605185508728,1.8083847761154175
8.077431917190552,-0.054741740226745605,-0.9081025123596191,0.6448844075202942,-1.1442358493804932,-0.2767605185508728,1.8083847761154175
8.097538948059082,-0.054741740226745605,-0.9081025123596191,0.6448844075202942,-1.1442358493804932,-0.2767605185508728,1.8083847761154175
8.117578506469727,-0.054741740226745605,-0.9081025123596191,0.6448844075202942,-1.1446174383163452,-0.2767605185508728,1.8083847761154175
8.137661695480347,-0.054741740226745605,-0.9081025123596191,0.6448844075202942,-1.1446174383163452,-0.2767605185508728,1.8083847761154175
8.157728433609009,-0.054741740226745605,-0.9081025123596191,0.6448844075202942,-1.1446174383163452,-0.2767605185508728,1.8083847761154175
8.17780089378357,-0.054741740226745605,-0.9081025123596191,0.6448844075202942,-1.1446174383163452,-0.2767605185508728,1.8083847761154175
8.197907209396362,-0.054741740226745605,-0.9077210426330566,0.6448844075202942,-1.1446174383163452,-0.2767605185508728,1.8083847761154175
8.217995643615723,-0.054741740226745605,-0.9077210426330566,0.6448844075202942,-1.1446174383163452,-0.2767605185508728,1.8083847761154175
8.238089084625244,-0.054741740226745605,-0.9077210426330566,0.6448844075202942,-1.1446174383163452,-0.2767605185508728,1.8083847761154175
8.258167505264282,-0.054741740226745605,-0.9077210426330566,0.6448844075202942,-1.1446174383163452,-0.2767605185508728,1.8083847761154175
8.278239965438843,-0.054741740226745605,-0.9077210426330566,0.6448844075202942,-1.1442358493804932,-0.2767605185508728,1.8083847761154175
8.298305988311768,-0.054741740226745605,-0.9077210426330566,0.6448844075202942,-1.1446174383163452,-0.2767605185508728,1.8083847761154175
8.31844425201416,-0.054741740226745605,-0.9077210426330566,0.6448844075202942,-1.1442358493804932,-0.2767605185508728,1.8083847761154175
8.338539600372314,-0.054741740226745605,-0.9077210426330566,0.6448844075202942,-1.1446174383163452,-0.2767605185508728,1.8083847761154175
8.358583927154541,-0.054741740226745605,-0.9077210426330566,0.6448844075202942,-1.1446174383163452,-0.2767605185508728,1.8083847761154175
8.37871241569519,-0.054741740226745605,-0.9077210426330566,0.6448844075202942,-1.1446174383163452,-0.2767605185508728,1.8083847761154175
8.39872670173645,-0.054741740226745605,-0.9077210426330566,0.6448844075202942,-1.1446174383163452,-0.2767605185508728,1.8083847761154175
8.418813467025757,-0.054741740226745605,-0.9077210426330566,0.6448844075202942,-1.1446174383163452,-0.2767605185508728,1.8083847761154175
8.438888788223267,-0.054741740226745605,-0.9077210426330566,0.6448844075202942,-1.1446174383163452,-0.2767605185508728,1.8083847761154175
8.458938121795654,-0.054741740226745605,-0.9077210426330566,0.6448844075202942,-1.1446174383163452,-0.2767605185508728,1.8083847761154175
8.479064226150513,-0.054741740226745605,-0.9077210426330566,0.6448844075202942,-1.1446174383163452,-0.2767605185508728,1.8083847761154175
8.499104022979736,-0.054741740226745605,-0.9081025123596191,0.6448844075202942,-1.1446174383163452,-0.2767605185508728,1.8083847761154175
8.519168376922607,-0.054741740226745605,-0.9081025123596191,0.6448844075202942,-1.1446174383163452,-0.2767605185508728,1.8083847761154175
8.539257764816284,-0.054741740226745605,-0.9081025123596191,0.6448844075202942,-1.1446174383163452,-0.2767605185508728,1.8083847761154175
8.559342384338379,-0.054741740226745605,-0.9081025123596191,0.6448844075202942,-1.1446174383163452,-0.2763790488243103,1.8083847761154175
8.579451084136963,-0.054741740226745605,-0.9081025123596191,0.6448844075202942,-1.1446174383163452,-0.2767605185508728,1.8083847761154175
8.599517345428467,-0.054741740226745605,-0.9081025123596191,0.6448844075202942,-1.1442358493804932,-0.2767605185508728,1.8083847761154175
8.61962890625,-0.054741740226745605,-0.9081025123596191,0.6448844075202942,-1.1446174383163452,-0.2767605185508728,1.8083847761154175
8.639734268188477,-0.054741740226745605,-0.9081025123596191,0.6448844075202942,-1.1446174383163452,-0.2767605185508728,1.8083847761154175
8.659885883331299,-0.054741740226745605,-0.9081025123596191,0.6448844075202942,-1.1446174383163452,-0.2767605185508728,1.8083847761154175
8.679891109466553,-0.054741740226745605,-0.9081025123596191,0.6448844075202942,-1.1446174383163452,-0.2767605185508728,1.8083847761154175
8.70009994506836,-0.054741740226745605,-0.9081025123596191,0.6448844075202942,-1.1446174383163452,-0.2767605185508728,1.8083847761154175
8.720104455947876,-0.054741740226745605,-0.9081025123596191,0.6448844075202942,-1.1446174383163452,-0.2767605185508728,1.8083847761154175
8.740189552307129,-0.054741740226745605,-0.9081025123596191,0.6448844075202942,-1.1446174383163452,-0.2767605185508728,1.8083847761154175
8.760228633880615,-0.054741740226745605,-0.9081025123596191,0.6448844075202942,-1.1446174383163452,-0.2763790488243103,1.8083847761154175
8.780340194702148,-0.054741740226745605,-0.9077210426330566,0.6448844075202942,-1.1442358493804932,-0.2767605185508728,1.8083847761154175
8.800407409667969,-0.054741740226745605,-0.9077210426330566,0.6448844075202942,-1.1446174383163452,-0.2763790488243103,1.8083847761154175
8.820459842681885,-0.054741740226745605,-0.9077210426330566,0.6448844075202942,-1.1446174383163452,-0.2767605185508728,1.8083847761154175
8.840603590011597,-0.054741740226745605,-0.9077210426330566,0.6448844075202942,-1.1446174383163452,-0.2767605185508728,1.8083847761154175
8.86069631576538,-0.054741740226745605,-0.9077210426330566,0.6448844075202942,-1.1446174383163452,-0.2767605185508728,1.8083847761154175
8.88084864616394,-0.054741740226745605,-0.9077210426330566,0.6448844075202942,-1.1442358493804932,-0.2767605185508728,1.8083847761154175
8.900864362716675,-0.054741740226745605,-0.9077210426330566,0.6448844075202942,-1.1442358493804932,-0.2767605185508728,1.8083847761154175
8.920926570892334,-0.054741740226745605,-0.9077210426330566,0.6448844075202942,-1.1446174383163452,-0.2767605185508728,1.8083847761154175
8.941005229949951,-0.054741740226745605,-0.9077210426330566,0.6448844075202942,-1.1442358493804932,-0.2767605185508728,1.8083847761154175
8.961266040802002,-0.054741740226745605,-0.9077210426330566,0.6448844075202942,-1.1446174383163452,-0.2767605185508728,1.8083847761154175
8.981250047683716,-0.054741740226745605,-0.9077210426330566,0.6448844075202942,-1.1446174383163452,-0.2767605185508728,1.8083847761154175
9.001417398452759,-0.054741740226745605,-0.9077210426330566,0.6448844075202942,-1.1446174383163452,-0.2767605185508728,1.8083847761154175
9.02156400680542,-0.054741740226745605,-0.9077210426330566,0.6448844075202942,-1.1446174383163452,-0.2767605185508728,1.8083847761154175
9.04160451889038,-0.054741740226745605,-0.9077210426330566,0.6448844075202942,-1.1446174383163452,-0.2767605185508728,1.8083847761154175
9.061681032180786,-0.054741740226745605,-0.9077210426330566,0.6448844075202942,-1.1446174383163452,-0.2767605185508728,1.8083847761154175
9.081986904144287,-0.054741740226745605,-0.9077210426330566,0.6448844075202942,-1.1446174383163452,-0.2767605185508728,1.8083847761154175
9.102118492126465,-0.054741740226745605,-0.9077210426330566,0.6448844075202942,-1.1446174383163452,-0.2767605185508728,1.8083847761154175
9.122240781784058,-0.054741740226745605,-0.9081025123596191,0.6448844075202942,-1.1446174383163452,-0.2767605185508728,1.8083847761154175
9.142308950424194,-0.054741740226745605,-0.9081025123596191,0.6448844075202942,-1.1446174383163452,-0.2767605185508728,1.8083847761154175
9.162404298782349,-0.054741740226745605,-0.9081025123596191,0.6448844075202942,-1.1446174383163452,-0.2763790488243103,1.8083847761154175
9.18251371383667,-0.054741740226745605,-0.9081025123596191,0.6448844075202942,-1.1442358493804932,-0.2767605185508728,1.8083847761154175
9.202677011489868,-0.054741740226745605,-0.9081025123596191,0.6448844075202942,-1.1446174383163452,-0.2767605185508728,1.8083847761154175
9.222763538360596,-0.054741740226745605,-0.9081025123596191,0.6448844075202942,-1.1446174383163452,-0.2767605185508728,1.8083847761154175
9.242794513702393,-0.054741740226745605,-0.9081025123596191,0.6448844075202942,-1.1442358493804932,-0.2767605185508728,1.8083847761154175
9.262860536575317,-0.054741740226745605,-0.9081025123596191,0.6448844075202942,-1.1442358493804932,-0.2767605185508728,1.8083847761154175
9.28303074836731,-0.054741740226745605,-0.9081025123596191,0.6448844075202942,-1.1442358493804932,-0.2767605185508728,1.8083847761154175
9.30301809310913,-0.054741740226745605,-0.9081025123596191,0.6448844075202942,-1.1442358493804932,-0.2767605185508728,1.8083847761154175
9.32319688796997,-0.054741740226745605,-0.9081025123596191,0.6448844075202942,-1.1442358493804932,-0.2767605185508728,1.8083847761154175
9.34335207939148,-0.054741740226745605,-0.9081025123596191,0.6448844075202942,-1.1442358493804932,-0.2767605185508728,1.8083847761154175
9.363438844680786,-0.054741740226745605,-0.9077210426330566,0.6448844075202942,-1.1442358493804932,-0.2767605185508728,1.8083847761154175
9.383538007736206,-0.054741740226745605,-0.9077210426330566,0.6448844075202942,-1.1442358493804932,-0.2767605185508728,1.8083847761154175
9.403630495071411,-0.054741740226745605,-0.9077210426330566,0.6448844075202942,-1.1442358493804932,-0.2767605185508728,1.8083847761154175
9.423709869384766,-0.054741740226745605,-0.9077210426330566,0.6448844075202942,-1.1446174383163452,-0.2767605185508728,1.8083847761154175
9.443798542022705,-0.054741740226745605,-0.9077210426330566,0.6448844075202942,-1.1446174383163452,-0.2767605185508728,1.8083847761154175
9.463932514190674,-0.054741740226745605,-0.9077210426330566,0.6448844075202942,-1.1446174383163452,-0.2767605185508728,1.8083847761154175
9.483998775482178,-0.054741740226745605,-0.9077210426330566,0.6448844075202942,-1.1442358493804932,-0.2767605185508728,1.8083847761154175
9.504079103469849,-0.054741740226745605,-0.9077210426330566,0.6448844075202942,-1.1446174383163452,-0.2767605185508728,1.8083847761154175
9.524134159088135,-0.054741740226745605,-0.9077210426330566,0.6448844075202942,-1.1446174383163452,-0.2767605185508728,1.8083847761154175
9.544214010238647,-0.054741740226745605,-0.9077210426330566,0.6448844075202942,-1.1442358493804932,-0.2767605185508728,1.8083847761154175
9.564260482788086,-0.054741740226745605,-0.9077210426330566,0.6448844075202942,-1.1442358493804932,-0.2767605185508728,1.8083847761154175
9.58434271812439,-0.054741740226745605,-0.9077210426330566,0.6448844075202942,-1.1442358493804932,-0.2767605185508728,1.8083847761154175
9.604410171508789,-0.054741740226745605,-0.9077210426330566,0.6448844075202942,-1.1446174383163452,-0.2767605185508728,1.8083847761154175
9.624524593353271,-0.054741740226745605,-0.9077210426330566,0.6448844075202942,-1.1442358493804932,-0.2767605185508728,1.8083847761154175
9.64467477798462,-0.054741740226745605,-0.9077210426330566,0.6448844075202942,-1.1446174383163452,-0.2767605185508728,1.8083847761154175
9.664814710617065,-0.054741740226745605,-0.9077210426330566,0.6448844075202942,-1.1442358493804932,-0.2767605185508728,1.8083847761154175
9.68485689163208,-0.054741740226745605,-0.9081025123596191,0.6448844075202942,-1.1442358493804932,-0.2767605185508728,1.8083847761154175
9.7048819065094,-0.054741740226745605,-0.9081025123596191,0.6448844075202942,-1.1446174383163452,-0.2767605185508728,1.8083847761154175
9.724961757659912,-0.054741740226745605,-0.9081025123596191,0.6448844075202942,-1.1446174383163452,-0.2767605185508728,1.8083847761154175
9.74514889717102,-0.054741740226745605,-0.9081025123596191,0.6448844075202942,-1.1446174383163452,-0.2763790488243103,1.8083847761154175
9.765231370925903,-0.054741740226745605,-0.9081025123596191,0.6448844075202942,-1.1446174383163452,-0.2767605185508728,1.8083847761154175
9.785266637802124,-0.054741740226745605,-0.9081025123596191,0.6448844075202942,-1.1446174383163452,-0.2767605185508728,1.8083847761154175
9.805339336395264,-0.054741740226745605,-0.9081025123596191,0.6448844075202942,-1.1446174383163452,-0.2767605185508728,1.8083847761154175
9.825494766235352,-0.054741740226745605,-0.9081025123596191,0.6448844075202942,-1.1442358493804932,-0.2767605185508728,1.8083847761154175
9.845588445663452,-0.054741740226745605,-0.9081025123596191,0.6448844075202942,-1.1442358493804932,-0.2763790488243103,1.8083847761154175
9.865598201751709,-0.054741740226745605,-0.9081025123596191,0.6448844075202942,-1.1446174383163452,-0.2767605185508728,1.8083847761154175
9.885682106018066,-0.054741740226745605,-0.9081025123596191,0.6448844075202942,-1.1446174383163452,-0.2767605185508728,1.8083847761154175
9.905746936798096,-0.054741740226745605,-0.9081025123596191,0.6448844075202942,-1.1446174383163452,-0.2767605185508728,1.8083847761154175
9.925849914550781,-0.054741740226745605,-0.9081025123596191,0.6448844075202942,-1.1446174383163452,-0.2767605185508728,1.8083847761154175
9.946032762527466,-0.054741740226745605,-0.9081025123596191,0.6448844075202942,-1.1446174383163452,-0.2767605185508728,1.8083847761154175
9.966089487075806,-0.054741740226745605,-0.9077210426330566,0.6448844075202942,-1.1446174383163452,-0.2763790488243103,1.8083847761154175
9.986165761947632,-0.054741740226745605,-0.9077210426330566,0.6448844075202942,-1.1446174383163452,-0.2767605185508728,1.8083847761154175
10.006711721420288,-0.054741740226745605,-0.9077210426330566,0.6448844075202942,-1.1446174383163452,-0.2767605185508728,1.8083847761154175
10.026816368103027,-0.054741740226745605,-0.9077210426330566,0.6448844075202942,-1.1446174383163452,-0.2767605185508728,1.8083847761154175
10.046874761581421,-0.054741740226745605,-0.9077210426330566,0.6448844075202942,-1.1446174383163452,-0.2767605185508728,1.8083847761154175
10.066942691802979,-0.054741740226745605,-0.9077210426330566,0.6448844075202942,-1.1446174383163452,-0.2767605185508728,1.8083847761154175
10.087016105651855,-0.054741740226745605,-0.9077210426330566,0.6448844075202942,-1.1446174383163452,-0.2767605185508728,1.8083847761154175
10.107093811035156,-0.054741740226745605,-0.9077210426330566,0.6448844075202942,-1.1446174383163452,-0.2767605185508728,1.8083847761154175
10.127187728881836,-0.054741740226745605,-0.9077210426330566,0.6448844075202942,-1.1446174383163452,-0.2767605185508728,1.8083847761154175
10.147277355194092,-0.054741740226745605,-0.9077210426330566,0.6448844075202942,-1.1446174383163452,-0.2767605185508728,1.8083847761154175
10.167394399642944,-0.054741740226745605,-0.9077210426330566,0.6448844075202942,-1.1446174383163452,-0.2763790488243103,1.8083847761154175
10.187459230422974,-0.054741740226745605,-0.9077210426330566,0.6448844075202942,-1.1446174383163452,-0.2763790488243103,1.8083847761154175
10.207607984542847,-0.054741740226745605,-0.9077210426330566,0.6448844075202942,-1.1446174383163452,-0.2767605185508728,1.8083847761154175
10.22759222984314,-0.054741740226745605,-0.9077210426330566,0.6448844075202942,-1.1442358493804932,-0.2763790488243103,1.8083847761154175
10.247684001922607,-0.054741740226745605,-0.9077210426330566,0.6448844075202942,-1.1446174383163452,-0.2767605185508728,1.8083847761154175
10.267761468887329,-0.054741740226745605,-0.9077210426330566,0.6448844075202942,-1.1446174383163452,-0.2767605185508728,1.8083847761154175
10.287802934646606,-0.054741740226745605,-0.9077210426330566,0.6448844075202942,-1.1446174383163452,-0.2767605185508728,1.8083847761154175
10.30791687965393,-0.054741740226745605,-0.9081025123596191,0.6448844075202942,-1.1446174383163452,-0.2767605185508728,1.8083847761154175
10.32805871963501,-0.054741740226745605,-0.9081025123596191,0.6448844075202942,-1.1442358493804932,-0.2763790488243103,1.8083847761154175
10.348087787628174,-0.054741740226745605,-0.9081025123596191,0.6448844075202942,-1.1446174383163452,-0.2763790488243103,1.8083847761154175
10.368269443511963,-0.054741740226745605,-0.9081025123596191,0.6448844075202942,-1.1446174383163452,-0.2767605185508728,1.8083847761154175
10.388356685638428,-0.054741740226745605,-0.9081025123596191,0.6448844075202942,-1.1446174383163452,-0.2767605185508728,1.8083847761154175
10.408421039581299,-0.054741740226745605,-0.9081025123596191,0.6448844075202942,-1.1446174383163452,-0.2767605185508728,1.8083847761154175
10.428502559661865,-0.054741740226745605,-0.9081025123596191,0.6448844075202942,-1.1442358493804932,-0.2763790488243103,1.8083847761154175
10.448730945587158,-0.054741740226745605,-0.9081025123596191,0.6448844075202942,-1.1442358493804932,-0.2763790488243103,1.8083847761154175
10.468785762786865,-0.054741740226745605,-0.9081025123596191,0.6448844075202942,-1.1446174383163452,-0.2763790488243103,1.8083847761154175
10.48885464668274,-0.054741740226745605,-0.9081025123596191,0.6448844075202942,-1.1446174383163452,-0.2763790488243103,1.8083847761154175
10.508930206298828,-0.054741740226745605,-0.9077210426330566,0.6448844075202942,-1.1446174383163452,-0.2767605185508728,1.8083847761154175
10.529006242752075,-0.054741740226745605,-0.9077210426330566,0.6448844075202942,-1.1442358493804932,-0.2763790488243103,1.8083847761154175
10.549167156219482,-0.054741740226745605,-0.9077210426330566,0.6448844075202942,-1.1442358493804932,-0.2763790488243103,1.8083847761154175
10.569139242172241,-0.054741740226745605,-0.9077210426330566,0.6448844075202942,-1.1442358493804932,-0.2763790488243103,1.8083847761154175
10.589229106903076,-0.054741740226745605,-0.9077210426330566,0.6448844075202942,-1.1442358493804932,-0.2763790488243103,1.8083847761154175
10.609317302703857,-0.054741740226745605,-0.9077210426330566,0.6448844075202942,-1.1446174383163452,-0.2767605185508728,1.8083847761154175
10.629435062408447,-0.054741740226745605,-0.9077210426330566,0.6448844075202942,-1.1446174383163452,-0.2763790488243103,1.8083847761154175
10.649446964263916,-0.054741740226745605,-0.9077210426330566,0.6448844075202942,-1.1446174383163452,-0.2763790488243103,1.8083847761154175
10.669560194015503,-0.054741740226745605,-0.9077210426330566,0.6448844075202942,-1.1446174383163452,-0.2763790488243103,1.8083847761154175
10.689605951309204,-0.054741740226745605,-0.9077210426330566,0.6448844075202942,-1.1442358493804932,-0.2763790488243103,1.8083847761154175
10.70972228050232,-0.054741740226745605,-0.9077210426330566,0.6448844075202942,-1.1442358493804932,-0.2763790488243103,1.8083847761154175
10.72977900505066,-0.054741740226745605,-0.9077210426330566,0.6448844075202942,-1.1442358493804932,-0.2763790488243103,1.808003306388855
10.749959707260132,-0.0551232174038887,-0.9077210426330566,0.6448844075202942,-1.1446174383163452,-0.2763790488243103,1.808003306388855
10.770016431808472,-0.0555046908557415,-0.9077210426330566,0.6448844075202942,-1.1446174383163452,-0.2763790488243103,1.808003306388855
10.790115594863892,-0.0555046908557415,-0.9077210426330566,0.6448844075202942,-1.1442358493804932,-0.2763790488243103,1.8083847761154175
10.810124397277832,-0.0555046908557415,-0.9077210426330566,0.6448844075202942,-1.1442358493804932,-0.2763790488243103,1.8083847761154175
10.830207109451294,-0.0555046908557415,-0.9077210426330566,0.6448844075202942,-1.1446174383163452,-0.2763790488243103,1.808003306388855
10.850364446640015,-0.0555046908557415,-0.9077210426330566,0.6448844075202942,-1.1442358493804932,-0.2763790488243103,1.8083847761154175
10.870368003845215,-0.0555046908557415,-0.9077210426330566,0.6448844075202942,-1.1442358493804932,-0.2763790488243103,1.8083847761154175
10.890460968017578,-0.0555046908557415,-0.9077210426330566,0.6448844075202942,-1.1446174383163452,-0.2763790488243103,1.8083847761154175
10.910555124282837,-0.0555046908557415,-0.9077210426330566,0.6448844075202942,-1.1442358493804932,-0.2763790488243103,1.8083847761154175
10.930670976638794,-0.0555046908557415,-0.9077210426330566,0.6448844075202942,-1.1446174383163452,-0.2763790488243103,1.8083847761154175
10.950720310211182,-0.0555046908557415,-0.9077210426330566,0.6448844075202942,-1.1442358493804932,-0.2763790488243103,1.8083847761154175
10.970794916152954,-0.0555046908557415,-0.9077210426330566,0.6448844075202942,-1.1442358493804932,-0.2763790488243103,1.8083847761154175
10.990875959396362,-0.0555046908557415,-0.9077210426330566,0.6448844075202942,-1.1442358493804932,-0.2763790488243103,1.8083847761154175
11.010945796966553,-0.0555046908557415,-0.9077210426330566,0.6448844075202942,-1.1446174383163452,-0.2763790488243103,1.8083847761154175
11.031045913696289,-0.0555046908557415,-0.9077210426330566,0.6448844075202942,-1.1442358493804932,-0.2763790488243103,1.808003306388855
11.051179885864258,-0.0555046908557415,-0.9081025123596191,0.6448844075202942,-1.1442358493804932,-0.2763790488243103,1.808003306388855
11.071216583251953,-0.0555046908557415,-0.9081025123596191,0.6448844075202942,-1.1446174383163452,-0.2763790488243103,1.8083847761154175
11.091306924819946,-0.0555046908557415,-0.9081025123596191,0.6448844075202942,-1.1442358493804932,-0.2759975492954254,1.8083847761154175
11.111441850662231,-0.0555046908557415,-0.9081025123596191,0.6448844075202942,-1.1442358493804932,-0.2763790488243103,1.8083847761154175
11.131474256515503,-0.0555046908557415,-0.9081025123596191,0.6448844075202942,-1.1446174383163452,-0.2763790488243103,1.8083847761154175
11.151606559753418,-0.0555046908557415,-0.9081025123596191,0.6448844075202942,-1.1446174383163452,-0.2763790488243103,1.808003306388855
11.171634674072266,-0.0555046908557415,-0.9081025123596191,0.6448844075202942,-1.1442358493804932,-0.2759975492954254,1.808003306388855
11.191739082336426,-0.0555046908557415,-0.9081025123596191,0.6448844075202942,-1.1442358493804932,-0.2763790488243103,1.8083847761154175
11.211784839630127,-0.0555046908557415,-0.9081025123596191,0.6448844075202942,-1.1442358493804932,-0.2763790488243103,1.808003306388855
11.231929540634155,-0.0551232174038887,-0.9077210426330566,0.6448844075202942,-1.1446174383163452,-0.2763790488243103,1.8083847761154175
11.25204849243164,-0.0555046908557415,-0.9077210426330566,0.6448844075202942,-1.1442358493804932,-0.2759975492954254,1.8083847761154175
11.272064685821533,-0.0551232174038887,-0.9077210426330566,0.6448844075202942,-1.1446174383163452,-0.2759975492954254,1.8083847761154175
11.29211950302124,-0.0551232174038887,-0.9077210426330566,0.6448844075202942,-1.1442358493804932,-0.2763790488243103,1.8083847761154175
11.312170505523682,-0.0551232174038887,-0.9077210426330566,0.6448844075202942,-1.1442358493804932,-0.2763790488243103,1.8083847761154175
11.332327365875244,-0.0551232174038887,-0.9077210426330566,0.6448844075202942,-1.1446174383163452,-0.2759975492954254,1.8083847761154175
11.35241150856018,-0.0551232174038887,-0.9077210426330566,0.6448844075202942,-1.1446174383163452,-0.2759975492954254,1.8083847761154175
11.37245798110962,-0.054741740226745605,-0.9077210426330566,0.6448844075202942,-1.1442358493804932,-0.2759975492954254,1.8083847761154175
11.39249062538147,-0.05436026677489281,-0.9077210426330566,0.6448844075202942,-1.1446174383163452,-0.2763790488243103,1.8083847761154175
11.412607669830322,-0.05436026677489281,-0.9077210426330566,0.6448844075202942,-1.1442358493804932,-0.2759975492954254,1.8083847761154175
11.432713270187378,-0.05436026677489281,-0.9077210426330566,0.6448844075202942,-1.1442358493804932,-0.2759975492954254,1.8083847761154175
11.452778339385986,-0.05436026677489281,-0.9081025123596191,0.6448844075202942,-1.1442358493804932,-0.2763790488243103,1.8083847761154175
11.472890853881836,-0.05436026677489281,-0.9081025123596191,0.6448844075202942,-1.1446174383163452,-0.2763790488243103,1.808003306388855
11.493004322052002,-0.05436026677489281,-0.9081025123596191,0.6448844075202942,-1.1442358493804932,-0.2759975492954254,1.808003306388855
11.513018131256104,-0.05436026677489281,-0.9081025123596191,0.6448844075202942,-1.1442358493804932,-0.2763790488243103,1.8083847761154175
11.533081531524658,-0.05436026677489281,-0.9081025123596191,0.6448844075202942,-1.1442358493804932,-0.2763790488243103,1.8083847761154175
11.553245544433594,-0.05436026677489281,-0.9081025123596191,0.6448844075202942,-1.1442358493804932,-0.2763790488243103,1.808003306388855
11.573292255401611,-0.05436026677489281,-0.9081025123596191,0.6448844075202942,-1.1442358493804932,-0.2763790488243103,1.8083847761154175
11.593332052230835,-0.05436026677489281,-0.9081025123596191,0.6448844075202942,-1.1442358493804932,-0.2763790488243103,1.8083847761154175
11.613418579101562,-0.05436026677489281,-0.9081025123596191,0.6448844075202942,-1.1442358493804932,-0.2763790488243103,1.808003306388855
11.633538484573364,-0.05436026677489281,-0.9081025123596191,0.6448844075202942,-1.1446174383163452,-0.2763790488243103,1.808003306388855
11.653614521026611,-0.05436026677489281,-0.9081025123596191,0.6448844075202942,-1.1442358493804932,-0.2763790488243103,1.8083847761154175
11.6736741065979,-0.05436026677489281,-0.9081025123596191,0.6448844075202942,-1.1442358493804932,-0.2763790488243103,1.808003306388855
11.693809747695923,-0.05436026677489281,-0.9081025123596191,0.6448844075202942,-1.1442358493804932,-0.2763790488243103,1.8083847761154175
11.71384596824646,-0.05436026677489281,-0.9081025123596191,0.6448844075202942,-1.1442358493804932,-0.2763790488243103,1.8083847761154175
11.733942031860352,-0.05436026677489281,-0.9081025123596191,0.6448844075202942,-1.1442358493804932,-0.2763790488243103,1.8083847761154175
11.753982543945312,-0.05436026677489281,-0.9081025123596191,0.6448844075202942,-1.1442358493804932,-0.2763790488243103,1.8083847761154175
11.774141311645508,-0.05436026677489281,-0.9092469811439514,0.6452658772468567,-1.1446174383163452,-0.2767605185508728,1.808003306388855
11.794161319732666,-0.05436026677489281,-0.9145876169204712,0.6475547552108765,-1.1442358493804932,-0.2775234580039978,1.8076218366622925
11.814265251159668,-0.05359731614589691,-0.9283207654953003,0.650225043296814,-1.1449989080429077,-0.2813382148742676,1.80724036693573
11.834310054779053,-0.05207141116261482,-0.9477760195732117,0.6555657386779785,-1.1453803777694702,-0.28553444147109985,1.80724036693573
11.854444742202759,-0.04901960864663124,-0.9733348488807678,0.6639581918716431,-1.1457618474960327,-0.28896772861480713,1.8068588972091675
11.874495267868042,-0.04329747334122658,-0.9916456937789917,0.6757839322090149,-1.1449989080429077,-0.28973066806793213,1.8068588972091675
11.894650936126709,-0.039101243019104004,-1.0126268863677979,0.6853207945823669,-1.1427099704742432,-0.2759975492954254,1.8022812604904175
11.91485595703125,-0.03376058489084244,-1.0351338386535645,0.699816882610321,-1.1415655612945557,-0.264934778213501,1.7965590953826904
11.934929370880127,-0.027656977996230125,-1.0599298477172852,0.7196536064147949,-1.1419470310211182,-0.2592126429080963,1.7942702770233154
11.954989910125732,-0.021553369238972664,-1.0881589651107788,0.7402533292770386,-1.1476691961288452,-0.26798656582832336,1.7900739908218384
11.975060224533081,-0.013160906732082367,-1.124399185180664,0.7654306888580322,-1.1514838933944702,-0.2813382148742676,1.7835888862609863
11.995182037353516,-0.005531395319849253,-1.1606394052505493,0.7921339869499207,-1.1533913612365723,-0.2935454249382019,1.7786297798156738
12.01528286933899,-0.00019073777366429567,-1.1949721574783325,0.8157854676246643,-1.1537728309631348,-0.30003052949905396,1.7725261449813843
12.035383462905884,0.0032425422687083483,-1.2254902124404907,0.8333333134651184,-1.1541543006896973,-0.30460822582244873,1.7656595706939697
12.055414199829102,0.007057297509163618,-1.2483787536621094,0.846684992313385,-1.1522468328475952,-0.2973601818084717,1.7580300569534302
12.075471878051758,0.008964675478637218,-1.269359827041626,0.8592736721038818,-1.1491950750350952,-0.28934919834136963,1.7507820129394531
12.095638036727905,0.010490577667951584,-1.2903410196304321,0.8726252913475037,-1.1499580144882202,-0.2927824854850769,1.7408636808395386
12.115676403045654,0.012779430486261845,-1.3090333938598633,0.8863584399223328,-1.1503394842147827,-0.30193790793418884,1.733234167098999
12.13576602935791,0.014686808921396732,-1.3265812397003174,0.8974212408065796,-1.1522468328475952,-0.3099488914012909,1.7256046533584595
12.155839443206787,0.015449759550392628,-1.3410773277282715,0.9065766334533691,-1.1541543006896973,-0.3244449496269226,1.7168307304382324
12.175899982452393,0.01735713705420494,-1.3536659479141235,0.9157320261001587,-1.1552987098693848,-0.325970858335495,1.7107270956039429
12.195984125137329,0.01888304017484188,-1.3654917478561401,0.924887478351593,-1.1541543006896973,-0.32101166248321533,1.7053864002227783
12.216171026229858,0.019645990803837776,-1.3776988983154297,0.9328984618186951,-1.1552987098693848,-0.3248264193534851,1.6989012956619263
12.23623275756836,0.021553369238972664,-1.3899061679840088,0.9431982636451721,-1.1552987098693848,-0.3290226459503174,1.6916533708572388
12.256405115127563,0.023079270496964455,-1.4005874395370483,0.951209306716919,-1.1564431190490723,-0.3385595381259918,1.6874570846557617
12.27640962600708,0.024223696440458298,-1.409742832183838,0.9588387608528137,-1.1568245887756348,-0.343900203704834,1.6821163892745972
12.296614170074463,0.025749599561095238,-1.421187162399292,0.9683756828308105,-1.1572060585021973,-0.35114824771881104,1.6763943433761597
12.316774845123291,0.02689402550458908,-1.4326313734054565,0.9763866662979126,-1.1572060585021973,-0.3542000353336334,1.6710536479949951
12.336809635162354,0.028038453310728073,-1.441023826599121,0.9828717708587646,-1.1579689979553223,-0.361066609621048,1.666857361793518
12.356873512268066,0.02880140393972397,-1.4482718706130981,0.9885938763618469,-1.1560616493225098,-0.3599221706390381,1.6634241342544556
12.377073764801025,0.029182879254221916,-1.4570459127426147,0.9946975111961365,-1.1564431190490723,-0.361829549074173,1.659609317779541
12.39713740348816,0.030708782374858856,-1.4635308980941772,1.0023269653320312,-1.1572060585021973,-0.36907759308815,1.6554131507873535
12.417267799377441,0.03185320645570755,-1.4707789421081543,1.0088120698928833,-1.1568245887756348,-0.3747997283935547,1.650835394859314
12.437335729598999,0.03299763426184654,-1.4780269861221313,1.0152971744537354,-1.1568245887756348,-0.38090333342552185,1.6474021673202515
12.457756996154785,0.034142062067985535,-1.4845120906829834,1.019874930381775,-1.1568245887756348,-0.3866254687309265,1.643587350845337
12.477860689163208,0.03490501269698143,-1.4902342557907104,1.024452567100525,-1.1560616493225098,-0.3889143168926239,1.641298532485962
12.497949123382568,0.035667963325977325,-1.4967193603515625,1.0297932624816895,-1.1549172401428223,-0.3912031650543213,1.6393911838531494
12.517998933792114,0.03643091395497322,-1.50244140625,1.0351338386535645,-1.1549172401428223,-0.3934920132160187,1.6359578371047974
12.538124561309814,0.037193864583969116,-1.5062562227249146,1.038185715675354,-1.1530098915100098,-0.39463645219802856,1.6332875490188599
12.55823040008545,0.03833829239010811,-1.513122797012329,1.0442893505096436,-1.1522468328475952,-0.4011215269565582,1.6306172609329224
12.578287124633789,0.0394827201962471,-1.517700433731079,1.0481040477752686,-1.1522468328475952,-0.4056992530822754,1.6271839141845703
12.598356485366821,0.0398641936480999,-1.5230411291122437,1.0538262128829956,-1.1514838933944702,-0.40951400995254517,1.6252765655517578
12.618415832519531,0.040627144277095795,-1.5276188850402832,1.0576409101486206,-1.1499580144882202,-0.41409170627593994,1.6241321563720703
12.638499021530151,0.04177157208323479,-1.5306706428527832,1.0603113174438477,-1.1488136053085327,-0.4186694025993347,1.6210802793502808
12.658589363098145,0.04253452271223068,-1.5352483987808228,1.0641260147094727,-1.1465247869491577,-0.4205767810344696,1.6180285215377808
12.678709268569946,0.043678950518369675,-1.5390630960464478,1.0675593614578247,-1.1465247869491577,-0.4232471287250519,1.6165026426315308
12.698746919631958,0.04406042397022247,-1.5421148538589478,1.0690852403640747,-1.1449989080429077,-0.42553597688674927,1.6149767637252808
12.718828916549683,0.04482337832450867,-1.5451667308807373,1.0706111192703247,-1.1438543796539307,-0.42668038606643677,1.6142138242721558
12.738900899887085,0.04558632895350456,-1.5482184886932373,1.0725184679031372,-1.1438543796539307,-0.42820629477500916,1.6130692958831787
12.75905966758728,0.04558632895350456,-1.5501258373260498,1.0748074054718018,-1.1427099704742432,-0.43087664246559143,1.6111619472503662
12.77906346321106,0.04596780240535736,-1.5512703657150269,1.0767147541046143,-1.1411840915679932,-0.4339284300804138,1.6103990077972412
12.79912519454956,0.04634927958250046,-1.5531777143478394,1.0786221027374268,-1.1404211521148682,-0.4381246566772461,1.6088731288909912
12.819182395935059,0.046730753034353256,-1.5554665327072144,1.0801479816436768,-1.1396582126617432,-0.440032035112381,1.6077287197113037
12.839243650436401,0.04787518084049225,-1.5577553510665894,1.0816738605499268,-1.1385138034820557,-0.44270238280296326,1.6073472499847412
12.85933542251587,0.048638131469488144,-1.5596628189086914,1.0831998586654663,-1.1366063356399536,-0.44384679198265076,1.6065843105316162
12.879422903060913,0.04901960864663124,-1.5619516372680664,1.0847257375717163,-1.1366063356399536,-0.44384679198265076,1.6054397821426392
12.899475574493408,0.05054550990462303,-1.5634775161743164,1.0858701467514038,-1.1350804567337036,-0.44422826170921326,1.6035324335098267
12.919523000717163,0.05092698708176613,-1.5650033950805664,1.0870145559310913,-1.1335545778274536,-0.44422826170921326,1.6035324335098267
12.9396071434021,0.05092698708176613,-1.565384864807129,1.0881589651107788,-1.1335545778274536,-0.44689860939979553,1.6027694940567017
12.95967435836792,0.05092698708176613,-1.566147804260254,1.0893033742904663,-1.1327916383743286,-0.44766154885292053,1.6004806756973267
12.979733943939209,0.05092698708176613,-1.5669108629226685,1.0912108421325684,-1.1324101686477661,-0.4499503970146179,1.5997177362442017
12.999781131744385,0.05092698708176613,-1.568055272102356,1.0923552513122559,-1.1305028200149536,-0.4537651538848877,1.5985733270645142
13.019865036010742,0.05092698708176613,-1.5691996812820435,1.0931181907653809,-1.1297398805618286,-0.4552910625934601,1.597428798675537
13.03992748260498,0.05130846053361893,-1.571107029914856,1.0934996604919434,-1.1289769411087036,-0.45757991075515747,1.596665859222412
13.060023546218872,0.051689937710762024,-1.571869969367981,1.0934996604919434,-1.1289769411087036,-0.45872434973716736,1.5962843894958496
13.080045700073242,0.05207141116261482,-1.5722514390945435,1.0934996604919434,-1.127450942993164,-0.45796138048171997,1.5962843894958496
13.100220918655396,0.05283436179161072,-1.5737773180007935,1.0942625999450684,-1.127450942993164,-0.45872434973716736,1.595902919769287
13.120279312133789,0.053215838968753815,-1.5749218463897705,1.0954070091247559,-1.127450942993164,-0.46025025844573975,1.595902919769287
13.14034104347229,0.05359731614589691,-1.575303316116333,1.0957884788513184,-1.127450942993164,-0.46215763688087463,1.5955214500427246
13.160401821136475,0.05397878959774971,-1.575303316116333,1.0957884788513184,-1.126688003540039,-0.46215763688087463,1.595139980316162
13.180481672286987,0.05436026677489281,-1.5756847858428955,1.0957884788513184,-1.1263065338134766,-0.46368351578712463,1.5947585105895996
13.20063304901123,0.0551232174038887,-1.5764477252960205,1.0965514183044434,-1.125925064086914,-0.4663538634777069,1.593614101409912
13.22064208984375,0.0555046908557415,-1.5772106647491455,1.0969328880310059,-1.125925064086914,-0.4694056510925293,1.592851161956787
13.24070930480957,0.0558861680328846,-1.5779736042022705,1.0969328880310059,-1.125925064086914,-0.4716945290565491,1.592851161956787
13.260829210281372,0.0558861680328846,-1.5787365436553955,1.0969328880310059,-1.1263065338134766,-0.4716945290565491,1.592851161956787
13.280915975570679,0.056267641484737396,-1.5794994831085205,1.0973143577575684,-1.125925064086914,-0.4716945290565491,1.5924696922302246
13.301231145858765,0.05703059583902359,-1.5802624225616455,1.0973143577575684,-1.125925064086914,-0.4716945290565491,1.592088222503662
13.321363925933838,0.05703059583902359,-1.5802624225616455,1.0973143577575684,-1.125925064086914,-0.4720759987831116,1.592088222503662
13.341501951217651,0.05703059583902359,-1.580643892288208,1.0973143577575684,-1.125925064086914,-0.4716945290565491,1.592088222503662
13.361533403396606,0.05703059583902359,-1.5802624225616455,1.0973143577575684,-1.125925064086914,-0.4720759987831116,1.5917067527770996
13.381603956222534,0.05703059583902359,-1.5802624225616455,1.0976959466934204,-1.1255435943603516,-0.4720759987831116,1.5917067527770996
13.401688814163208,0.05741206929087639,-1.5802624225616455,1.0976959466934204,-1.1255435943603516,-0.4720759987831116,1.5917067527770996
13.42173981666565,0.05741206929087639,-1.5802624225616455,1.0976959466934204,-1.125162124633789,-0.4720759987831116,1.5917067527770996
13.441810846328735,0.057793546468019485,-1.5802624225616455,1.0976959466934204,-1.124399185180664,-0.4720759987831116,1.5917067527770996
13.461901903152466,0.057793546468019485,-1.5802624225616455,1.0976959466934204,-1.123636245727539,-0.4720759987831116,1.592088222503662
13.481964826583862,0.058175019919872284,-1.5802624225616455,1.0976959466934204,-1.1232547760009766,-0.4724574685096741,1.5917067527770996
13.502038478851318,0.058175019919872284,-1.5802624225616455,1.0976959466934204,-1.122873306274414,-0.4724574685096741,1.5917067527770996
13.522123336791992,0.058175019919872284,-1.5802624225616455,1.098077416419983,-1.1224918365478516,-0.4724574685096741,1.5917067527770996
13.542204856872559,0.058175019919872284,-1.580643892288208,1.0984588861465454,-1.1217288970947266,-0.4724574685096741,1.5917067527770996
13.562308549880981,0.058175019919872284,-1.580643892288208,1.0984588861465454,-1.1217288970947266,-0.4724574685096741,1.5917067527770996
13.582415580749512,0.058175019919872284,-1.580643892288208,1.0984588861465454,-1.1205843687057495,-0.4724574685096741,1.592088222503662
13.602499961853027,0.058175019919872284,-1.580643892288208,1.0984588861465454,-1.120202898979187,-0.4728389382362366,1.592088222503662
13.622607946395874,0.058175019919872284,-1.580643892288208,1.0984588861465454,-1.119439959526062,-0.4728389382362366,1.592088222503662
13.642670631408691,0.058175019919872284,-1.580643892288208,1.098840355873108,-1.1190584897994995,-0.4728389382362366,1.592088222503662
13.662851572036743,0.058175019919872284,-1.580643892288208,1.098840355873108,-1.1190584897994995,-0.4728389382362366,1.592088222503662
13.68284296989441,0.058175019919872284,-1.580643892288208,1.098840355873108,-1.118677020072937,-0.4728389382362366,1.592088222503662
13.702933311462402,0.058175019919872284,-1.580643892288208,1.098840355873108,-1.1182955503463745,-0.4728389382362366,1.592088222503662
13.722996950149536,0.058175019919872284,-1.580643892288208,1.098840355873108,-1.117914080619812,-0.4728389382362366,1.592088222503662
13.743102550506592,0.05855649709701538,-1.5810253620147705,1.098840355873108,-1.1175326108932495,-0.4724574685096741,1.592088222503662
13.763141393661499,0.05855649709701538,-1.581406831741333,1.0992218255996704,-1.1175326108932495,-0.4728389382362366,1.592088222503662
13.783270359039307,0.05855649709701538,-1.581406831741333,1.0992218255996704,-1.117151141166687,-0.4728389382362366,1.592088222503662
13.803574323654175,0.05893797054886818,-1.581406831741333,1.0992218255996704,-1.116388201713562,-0.4724574685096741,1.592088222503662
13.823663711547852,0.05893797054886818,-1.581406831741333,1.099603295326233,-1.1160067319869995,-0.4724574685096741,1.592088222503662
13.843743324279785,0.05893797054886818,-1.581406831741333,1.099603295326233,-1.1160067319869995,-0.4728389382362366,1.592088222503662
13.863800764083862,0.05893797054886818,-1.581406831741333,1.099603295326233,-1.115625262260437,-0.4728389382362366,1.592088222503662
13.883942127227783,0.05893797054886818,-1.581406831741333,1.099603295326233,-1.1152437925338745,-0.4728389382362366,1.592088222503662
13.904090166091919,0.05893797054886818,-1.581406831741333,1.099603295326233,-1.1152437925338745,-0.4728389382362366,1.592088222503662
13.924174785614014,0.05893797054886818,-1.581406831741333,1.099603295326233,-1.1152437925338745,-0.4728389382362366,1.592088222503662
13.944239377975464,0.05893797054886818,-1.581406831741333,1.099603295326233,-1.1152437925338745,-0.4728389382362366,1.592088222503662
13.964754104614258,0.05893797054886818,-1.581406831741333,1.099603295326233,-1.114862322807312,-0.4728389382362366,1.592088222503662
13.984821319580078,0.059319447726011276,-1.581406831741333,1.099603295326233,-1.114862322807312,-0.4728389382362366,1.5924696922302246
14.004896640777588,0.059319447726011276,-1.581406831741333,1.099603295326233,-1.114862322807312,-0.4728389382362366,1.5924696922302246
14.024967670440674,0.059319447726011276,-1.581406831741333,1.099603295326233,-1.1144808530807495,-0.4728389382362366,1.5924696922302246
14.045334577560425,0.059319447726011276,-1.581406831741333,1.099603295326233,-1.1144808530807495,-0.4728389382362366,1.5924696922302246
14.065441608428955,0.059319447726011276,-1.581406831741333,1.099603295326233,-1.1144808530807495,-0.4728389382362366,1.5924696922302246
14.085501670837402,0.059319447726011276,-1.581406831741333,1.099603295326233,-1.1144808530807495,-0.4732204079627991,1.5924696922302246
14.105560779571533,0.059319447726011276,-1.581406831741333,1.099603295326233,-1.114099383354187,-0.4732204079627991,1.5924696922302246
14.125651359558105,0.059319447726011276,-1.581406831741333,1.099603295326233,-1.114099383354187,-0.4732204079627991,1.5924696922302246
14.145725965499878,0.059319447726011276,-1.581406831741333,1.099603295326233,-1.114099383354187,-0.4732204079627991,1.5924696922302246
14.165863037109375,0.05970092490315437,-1.581406831741333,1.099603295326233,-1.114099383354187,-0.4732204079627991,1.5924696922302246
14.185940742492676,0.05970092490315437,-1.5817883014678955,1.099603295326233,-1.1137179136276245,-0.4732204079627991,1.5924696922302246
14.205960273742676,0.05970092490315437,-1.5817883014678955,1.0999847650527954,-1.1137179136276245,-0.4736018776893616,1.5924696922302246
14.226041316986084,0.06008239835500717,-1.5817883014678955,1.0999847650527954,-1.1137179136276245,-0.4736018776893616,1.5924696922302246
14.24610686302185,0.05970092490315437,-1.5817883014678955,1.0999847650527954,-1.1137179136276245,-0.4736018776893616,1.5924696922302246
14.266258478164673,0.06008239835500717,-1.5817883014678955,1.0999847650527954,-1.1137179136276245,-0.4736018776893616,1.5924696922302246
14.286312818527222,0.06008239835500717,-1.5817883014678955,1.0999847650527954,-1.113336443901062,-0.4736018776893616,1.592851161956787
14.306574821472168,0.05970092490315437,-1.5817883014678955,1.0999847650527954,-1.1125733852386475,-0.47398337721824646,1.5924696922302246
14.326598882675171,0.06008239835500717,-1.5817883014678955,1.0999847650527954,-1.1125733852386475,-0.47398337721824646,1.5924696922302246
14.346673250198364,0.05970092490315437,-1.5817883014678955,1.100366234779358,-1.112191915512085,-0.47398337721824646,1.5924696922302246
14.366806983947754,0.06008239835500717,-1.5817883014678955,1.100366234779358,-1.112191915512085,-0.47436484694480896,1.592851161956787
14.38689923286438,0.05970092490315437,-1.5817883014678955,1.100366234779358,-1.112191915512085,-0.47474631667137146,1.592851161956787
14.406996726989746,0.05970092490315437,-1.5817883014678955,1.100366234779358,-1.112191915512085,-0.47512778639793396,1.592851161956787
14.427027463912964,0.06008239835500717,-1.5817883014678955,1.100366234779358,-1.112191915512085,-0.47512778639793396,1.592851161956787
14.447233200073242,0.05970092490315437,-1.5821698904037476,1.100366234779358,-1.112191915512085,-0.47512778639793396,1.592851161956787
