liuyurong129/humanoid-gym/humanoid/data/actual_q_20250523-230252.csv
timestamp,joint_1,joint_2,joint_3,joint_4,joint_5,joint_6
0.0002906322479248047,-0.00019073777366429567,0.0024795911740511656,-0.001716639962978661,-0.00019073777366429567,0.00019073777366429567,-0.00019073777366429567
0.02036905288696289,-0.00019073777366429567,0.001716639962978661,-0.001716639962978661,-0.00019073777366429567,-0.00019073777366429567,-0.00019073777366429567
0.04042696952819824,-0.00019073777366429567,0.001716639962978661,-0.0009536888683214784,-0.00019073777366429567,-0.00019073777366429567,-0.00019073777366429567
0.060491323471069336,-0.00019073777366429567,0.001716639962978661,-0.0009536888683214784,-0.00019073777366429567,0.00019073777366429567,-0.00019073777366429567
0.0805673599243164,-0.000572213320992887,-0.0013351644156500697,0.002861066721379757,-0.00019073777366429567,-0.00019073777366429567,-0.00019073777366429567
0.10062599182128906,-0.0013351644156500697,-0.008201723918318748,0.009727626107633114,0.00019073777366429567,0.00019073777366429567,-0.00019073777366429567
0.12085080146789551,-0.004386968910694122,-0.020027466118335724,0.02231631986796856,0.000572213320992887,0.0013351644156500697,0.00019073777366429567
0.1409151554107666,-0.00858320016413927,-0.03490501269698143,0.038719769567251205,0.0013351644156500697,0.0020981156267225742,0.00019073777366429567
0.16097712516784668,-0.013923857361078262,-0.05245288833975792,0.05436026677489281,0.001716639962978661,0.0020981156267225742,0.00019073777366429567
0.18108510971069336,-0.02040894143283367,-0.07343403995037079,0.07686731964349747,0.004005493130534887,0.0020981156267225742,0.00019073777366429567
0.2011411190032959,-0.029564354568719864,-0.09899290651082993,0.10204470902681351,0.00667582219466567,0.002861066721379757,0.000572213320992887
0.22122550010681152,-0.040627144277095795,-0.12722209095954895,0.13103684782981873,0.00858320016413927,0.0020981156267225742,0.0013351644156500697
0.24129128456115723,-0.05436026677489281,-0.16117341816425323,0.1646067053079605,0.009727626107633114,0.0024795911740511656,0.0020981156267225742
0.2613532543182373,-0.06885633617639542,-0.18940261006355286,0.1962691694498062,0.01201647985726595,0.002861066721379757,0.002861066721379757
0.28140759468078613,-0.08564125746488571,-0.22793163359165192,0.22793163359165192,0.01430533267557621,0.004386968910694122,0.004005493130534887
0.30164432525634766,-0.10662241280078888,-0.266460657119751,0.2645532786846161,0.016975661739706993,0.00858320016413927,0.005531395319849253
0.3217897415161133,-0.12951095402240753,-0.3068970739841461,0.30422675609588623,0.019645990803837776,0.012397955171763897,0.0078202486038208
0.3418149948120117,-0.15506981313228607,-0.34657052159309387,0.3435187339782715,0.022697795182466507,0.01735713705420494,0.008964675478637218
0.36188650131225586,-0.1832990050315857,-0.3866254687309265,0.3881513774394989,0.024223696440458298,0.02040894143283367,0.01201647985726595
0.38193750381469727,-0.20923933386802673,-0.42591744661331177,0.42896926403045654,0.02689402550458908,0.024605173617601395,0.01430533267557621
0.4020707607269287,-0.23556114733219147,-0.465209424495697,0.4732204079627991,0.02841992862522602,0.02727550081908703,0.016975661739706993
0.4221060276031494,-0.2611200213432312,-0.5064088106155396,0.5155642032623291,0.030708782374858856,0.028038453310728073,0.020027466118335724
0.44216060638427734,-0.28324559330940247,-0.54264897108078,0.5544747114181519,0.03185320645570755,0.03032730519771576,0.023460745811462402
0.46221494674682617,-0.30308231711387634,-0.5788891315460205,0.5914778113365173,0.03299763426184654,0.031090257689356804,0.024986648932099342
0.4823720455169678,-0.3217746317386627,-0.6139848828315735,0.6265735626220703,0.03376058489084244,0.031090257689356804,0.02689402550458908
0.5024580955505371,-0.3374151289463043,-0.6448844075202942,0.6586175560951233,0.03376058489084244,0.030708782374858856,0.02880140393972397
0.5225443840026855,-0.34924086928367615,-0.6742580533027649,0.6879911422729492,0.03376058489084244,0.03032730519771576,0.03032730519771576
0.5425970554351807,-0.3599221706390381,-0.7074463963508606,0.7173647880554199,0.034142062067985535,0.034142062067985535,0.030708782374858856
0.5627038478851318,-0.368314653635025,-0.7364385724067688,0.7463569045066833,0.034142062067985535,0.04100862145423889,0.03147173300385475
0.582761287689209,-0.3744182586669922,-0.7646677494049072,0.7742046117782593,0.03452353551983833,0.04634927958250046,0.03299763426184654
0.6028237342834473,-0.37823301553726196,-0.7913710474967957,0.8012893795967102,0.03490501269698143,0.051689937710762024,0.03452353551983833
0.6228926181793213,-0.38128480315208435,-0.8180742859840393,0.8249408602714539,0.03490501269698143,0.058175019919872284,0.03643091395497322
0.6429502964019775,-0.38319218158721924,-0.8447775840759277,0.8463035225868225,0.03490501269698143,0.06427863240242004,0.03795681521296501
0.6630003452301025,-0.38357365131378174,-0.8730067610740662,0.8695735335350037,0.035667963325977325,0.07000076025724411,0.039101243019104004
0.6830899715423584,-0.38357365131378174,-0.8985656499862671,0.89131760597229,0.03604944050312042,0.07305257022380829,0.04177157208323479
0.7031517028808594,-0.38357365131378174,-0.9225986003875732,0.9096284508705139,0.037193864583969116,0.07953765243291855,0.04406042397022247
0.723214864730835,-0.38357365131378174,-0.9451056718826294,0.926413357257843,0.038719769567251205,0.08411535620689392,0.04596780240535736
0.7432799339294434,-0.38357365131378174,-0.9657053351402283,0.9416723847389221,0.039101243019104004,0.09021896868944168,0.048638131469488144
0.7636775970458984,-0.3843366205692291,-0.9866865277290344,0.9569314122200012,0.0398641936480999,0.09708552807569504,0.050164032727479935
0.7837674617767334,-0.3847180902957916,-1.0065232515335083,0.969520092010498,0.04139009863138199,0.1028076633810997,0.05207141116261482
0.8038361072540283,-0.3854810297489166,-1.0233081579208374,0.9782940149307251,0.04329747334122658,0.10814831405878067,0.05359731614589691
0.8238835334777832,-0.386243999004364,-1.037422776222229,0.9855420589447021,0.04444190114736557,0.11387044936418533,0.0551232174038887
0.8439352512359619,-0.387006938457489,-1.0488669872283936,0.9889753460884094,0.04558632895350456,0.1192111074924469,0.05664911866188049
0.8640389442443848,-0.3877699077129364,-1.0576409101486206,0.9908827543258667,0.04634927958250046,0.12493324279785156,0.058175019919872284
0.8841278553009033,-0.3889143168926239,-1.0622186660766602,0.9916456937789917,0.04634927958250046,0.12874799966812134,0.06046387553215027
0.904144287109375,-0.3900587558746338,-1.0645074844360352,0.9912642240524292,0.046730753034353256,0.13179980218410492,0.06160829961299896
0.9242134094238281,-0.3912031650543213,-1.0645074844360352,0.9908827543258667,0.048256658017635345,0.1356145590543747,0.06389715522527695
0.9442613124847412,-0.3919661343097687,-1.0637445449829102,0.9908827543258667,0.051689937710762024,0.14057374000549316,0.06580453366041183
0.9643573760986328,-0.39501792192459106,-1.0626001358032227,0.9908827543258667,0.05436026677489281,0.14858472347259521,0.06885633617639542
0.984417200088501,-0.39730677008628845,-1.0614557266235352,0.9908827543258667,0.05703059583902359,0.15659570693969727,0.0715266615152359
1.0044853687286377,-0.39883267879486084,-1.0603113174438477,0.9901197552680969,0.05893797054886818,0.1661325991153717,0.07419699430465698
1.0245299339294434,-0.4011215269565582,-1.0603113174438477,0.9889753460884094,0.06046387553215027,0.17338064312934875,0.07648584991693497
1.0446248054504395,-0.403410404920578,-1.0603113174438477,0.9878309369087219,0.061226826161146164,0.1810101419687271,0.07953765243291855
1.0647101402282715,-0.404936283826828,-1.0603113174438477,0.9866865277290344,0.06198977679014206,0.18787670135498047,0.08220797777175903
1.0847642421722412,-0.4064621925354004,-1.0603113174438477,0.9851605892181396,0.06427863240242004,0.1970321238040924,0.08373387902975082
1.1048214435577393,-0.4079881012439728,-1.0603113174438477,0.9843976497650146,0.06580453366041183,0.20580606162548065,0.086785688996315
1.1248877048492432,-0.41027694940567017,-1.0603113174438477,0.9836347103118896,0.06847485899925232,0.2141985148191452,0.08983749151229858
1.144972562789917,-0.41256579756736755,-1.0603113174438477,0.9828717708587646,0.071908138692379,0.22220951318740845,0.09327077120542526
1.1650397777557373,-0.41561761498451233,-1.0599298477172852,0.9824903011322021,0.07495994865894318,0.2290760725736618,0.09708552807569504
1.1851189136505127,-0.4186694025993347,-1.0603113174438477,0.9813458323478699,0.07648584991693497,0.23746852576732635,0.10051880776882172
1.2051620483398438,-0.422102689743042,-1.0603113174438477,0.9805828928947449,0.07915617525577545,0.2439536154270172,0.10471503436565399
1.2256505489349365,-0.42629891633987427,-1.0603113174438477,0.9794384837150574,0.08144503086805344,0.25310903787612915,0.10891126841306686
1.245833158493042,-0.42973220348358154,-1.0603113174438477,0.9786755442619324,0.08297093212604523,0.2611200213432312,0.11310750246047974
1.265824794769287,-0.4327840209007263,-1.0603113174438477,0.9779125452041626,0.08602273464202881,0.26798656582832336,0.11730372905731201
1.2858846187591553,-0.4354543387889862,-1.0603113174438477,0.9771496057510376,0.0883115902543068,0.2771419882774353,0.1203555315732956
1.3059899806976318,-0.4381246566772461,-1.0603113174438477,0.9763866662979126,0.09136339277029037,0.28629741072654724,0.12493324279785156
1.3265435695648193,-0.44079500436782837,-1.0603113174438477,0.9752422571182251,0.09517814964056015,0.2935454249382019,0.12989242374897003
1.3465955257415771,-0.44460976123809814,-1.0603113174438477,0.9740977883338928,0.10128175467252731,0.30231937766075134,0.1359960287809372
1.3667783737182617,-0.44804301857948303,-1.0606927871704102,0.9729533791542053,0.10585946589708328,0.3110933005809784,0.14019227027893066
1.3867335319519043,-0.4514763057231903,-1.0610742568969727,0.9721904397010803,0.10967422276735306,0.31948578357696533,0.14629587531089783
1.406787633895874,-0.4541466534137726,-1.0610742568969727,0.9714275002479553,0.11310750246047974,0.3274967670440674,0.1516365259885788
1.4268827438354492,-0.45681697130203247,-1.0614557266235352,0.9706645011901855,0.11654078215360641,0.33588922023773193,0.15735866129398346
1.4469866752624512,-0.45948728919029236,-1.0622186660766602,0.9691386222839355,0.12188144028186798,0.344663143157959,0.16308079659938812
1.4670276641845703,-0.46177613735198975,-1.0629816055297852,0.967994213104248,0.12836651504039764,0.3538185656070709,0.16918440163135529
1.4871175289154053,-0.46368351578712463,-1.0633630752563477,0.967231273651123,0.1325627565383911,0.36297398805618286,0.17605096101760864
1.5074100494384766,-0.4659723937511444,-1.0645074844360352,0.9668498039245605,0.1367589831352234,0.3717479109764099,0.1825360506772995
1.5275542736053467,-0.4678797721862793,-1.0660333633422852,0.9660868048667908,0.14057374000549316,0.38014039397239685,0.18787670135498047
1.5475952625274658,-0.4697871506214142,-1.0671778917312622,0.9657053351402283,0.14400701224803925,0.3877699077129364,0.19321736693382263
1.5676240921020508,-0.4709315598011017,-1.0683223009109497,0.9645609259605408,0.14820325374603271,0.39616236090660095,0.1997024416923523
1.5876998901367188,-0.4728389382362366,-1.0687037706375122,0.9641794562339783,0.15392538905143738,0.4053177833557129,0.20618753135204315
1.6077849864959717,-0.47512778639793396,-1.0698481798171997,0.9637979865074158,0.15888457000255585,0.41332876682281494,0.21229113638401031
1.627842664718628,-0.47665369510650635,-1.0713740587234497,0.9634165167808533,0.1646067053079605,0.4201953113079071,0.21839475631713867
1.6479125022888184,-0.47779813408851624,-1.0725184679031372,0.962272047996521,0.16956588625907898,0.42820629477500916,0.22449836134910583
1.6679856777191162,-0.47932401299476624,-1.0732814073562622,0.961509108543396,0.17376211285591125,0.4331654906272888,0.2302204966545105
1.688056230545044,-0.4808499217033386,-1.0744259357452393,0.961509108543396,0.17681391537189484,0.4381246566772461,0.23708705604076385
1.7081310749053955,-0.4819943606853485,-1.0751888751983643,0.960746169090271,0.1813916265964508,0.44346532225608826,0.24166475236415863
1.7282326221466064,-0.483138769865036,-1.0763332843780518,0.960746169090271,0.18520638346672058,0.44728007912635803,0.2473868876695633
1.7482638359069824,-0.4839017391204834,-1.0774776935577393,0.9603646993637085,0.18863965570926666,0.4503318965435028,0.25272753834724426
1.7683160305023193,-0.4850461483001709,-1.0778591632843018,0.9603646993637085,0.19283588230609894,0.4549095928668976,0.2576867341995239
1.788393259048462,-0.4861905872821808,-1.0793850421905518,0.959983229637146,0.1966506391763687,0.46063172817230225,0.2622644305229187
1.8084723949432373,-0.4869535267353058,-1.0809109210968018,0.9596017599105835,0.20084688067436218,0.4655908942222595,0.26760509610176086
1.828584909439087,-0.4877164959907532,-1.0816738605499268,0.9596017599105835,0.20313572883605957,0.4694056510925293,0.27218279242515564
1.8485915660858154,-0.4880979657173157,-1.0828183889389038,0.9596017599105835,0.20466163754463196,0.4709315598011017,0.2756160795688629
1.8686904907226562,-0.4888609051704407,-1.0839627981185913,0.9596017599105835,0.20695048570632935,0.47436484694480896,0.2790493667125702
1.8887608051300049,-0.49000534415245056,-1.0847257375717163,0.9596017599105835,0.21038375794887543,0.47779813408851624,0.28362706303596497
1.9088258743286133,-0.49076828360557556,-1.0854886770248413,0.9596017599105835,0.212672621011734,0.4812313914299011,0.28896772861480713
1.928877592086792,-0.49153125286102295,-1.0862516164779663,0.9596017599105835,0.2161058932542801,0.4842832088470459,0.291638046503067
1.9489336013793945,-0.49229419231414795,-1.0870145559310913,0.9596017599105835,0.21801327168941498,0.4854276478290558,0.2943083941936493
1.969020128250122,-0.49229419231414795,-1.0877774953842163,0.9596017599105835,0.21915769577026367,0.4873350262641907,0.2973601818084717
1.9891064167022705,-0.49267566204071045,-1.0885404348373413,0.9596017599105835,0.22030213475227356,0.48962387442588806,0.30041199922561646
2.0092051029205322,-0.49343863129615784,-1.0889219045639038,0.9596017599105835,0.22106507420539856,0.49153125286102295,0.30384528636932373
2.029309034347534,-0.49343863129615784,-1.0896848440170288,0.9596017599105835,0.22220951318740845,0.49229419231414795,0.3068970739841461
2.049309253692627,-0.49343863129615784,-1.0900664329528809,0.9596017599105835,0.22335393726825714,0.49305713176727295,0.309567391872406
2.0693936347961426,-0.49458304047584534,-1.0908293724060059,0.9596017599105835,0.22487983107566833,0.4961089491844177,0.3122377395629883
2.089459180831909,-0.4953460097312927,-1.0915923118591309,0.9596017599105835,0.22716869413852692,0.4987792670726776,0.31490805745124817
2.109520673751831,-0.4953460097312927,-1.0919737815856934,0.9596017599105835,0.2294575423002243,0.499542236328125,0.31643396615982056
2.1295740604400635,-0.4957274794578552,-1.0927367210388184,0.9596017599105835,0.2298390120267868,0.499542236328125,0.31910428404808044
2.1496567726135254,-0.4957274794578552,-1.0931181907653809,0.9596017599105835,0.230601966381073,0.4999237060546875,0.31986725330352783
2.1697306632995605,-0.4964904189109802,-1.0938811302185059,0.9596017599105835,0.2309834510087967,0.4999237060546875,0.3221561014652252
2.189840316772461,-0.4972533881664276,-1.0946440696716309,0.9596017599105835,0.2313649207353592,0.5018310546875,0.3240634799003601
2.2098865509033203,-0.4972533881664276,-1.0950255393981934,0.9596017599105835,0.23212787508964539,0.5029755234718323,0.325970858335495
2.229947566986084,-0.4972533881664276,-1.0957884788513184,0.9596017599105835,0.23289081454277039,0.5033569931983948,0.3282597064971924
2.250025749206543,-0.4972533881664276,-1.0961699485778809,0.9596017599105835,0.23365376889705658,0.5045014023780823,0.33016708493232727
2.2701027393341064,-0.4972533881664276,-1.0961699485778809,0.9596017599105835,0.23403525352478027,0.5052643418312073,0.33131152391433716
2.290161371231079,-0.4976348578929901,-1.0961699485778809,0.9596017599105835,0.23403525352478027,0.506790280342102,0.33321890234947205
2.3102266788482666,-0.4976348578929901,-1.0969328880310059,0.9596017599105835,0.23441672325134277,0.507553219795227,0.33398184180259705
2.3302741050720215,-0.4980163276195526,-1.0973143577575684,0.9596017599105835,0.23556114733219147,0.5086976289749146,0.33474478125572205
2.3503592014312744,-0.4987792670726776,-1.0973143577575684,0.9596017599105835,0.23594263195991516,0.5098420977592468,0.33665215969085693
2.3704302310943604,-0.499542236328125,-1.098077416419983,0.9596017599105835,0.23594263195991516,0.5106050372123718,0.3374151289463043
2.39052414894104,-0.499542236328125,-1.098077416419983,0.9596017599105835,0.23632410168647766,0.5102235674858093,0.3377965986728668
2.4105629920959473,-0.499542236328125,-1.0984588861465454,0.9596017599105835,0.23632410168647766,0.5098420977592468,0.3385595381259918
2.4307496547698975,-0.499542236328125,-1.0984588861465454,0.9596017599105835,0.23632410168647766,0.5098420977592468,0.3393225073814392
2.450819253921509,-0.499542236328125,-1.098840355873108,0.9596017599105835,0.23670557141304016,0.5098420977592468,0.3408484160900116
2.471015214920044,-0.499542236328125,-1.098840355873108,0.9596017599105835,0.23708705604076385,0.5098420977592468,0.3408484160900116
2.4909920692443848,-0.499542236328125,-1.0992218255996704,0.9596017599105835,0.23708705604076385,0.5098420977592468,0.3412298858165741
2.5110557079315186,-0.499542236328125,-1.0992218255996704,0.9596017599105835,0.23708705604076385,0.5098420977592468,0.3412298858165741
2.5311551094055176,-0.499542236328125,-1.099603295326233,0.9596017599105835,0.23670557141304016,0.5098420977592468,0.3412298858165741
2.5512185096740723,-0.499542236328125,-1.0999847650527954,0.9596017599105835,0.23670557141304016,0.5102235674858093,0.3412298858165741
2.5712835788726807,-0.499542236328125,-1.0999847650527954,0.959983229637146,0.23670557141304016,0.5109865069389343,0.3416113555431366
2.5913829803466797,-0.499542236328125,-1.0999847650527954,0.959983229637146,0.23670557141304016,0.5109865069389343,0.3416113555431366
2.6114158630371094,-0.499542236328125,-1.0999847650527954,0.959983229637146,0.23708705604076385,0.5106050372123718,0.3419928252696991
2.631503105163574,-0.499542236328125,-1.0999847650527954,0.959983229637146,0.23708705604076385,0.5102235674858093,0.343137264251709
2.651567220687866,-0.499542236328125,-1.0999847650527954,0.959983229637146,0.23708705604076385,0.5098420977592468,0.343900203704834
2.671644687652588,-0.499542236328125,-1.0999847650527954,0.959983229637146,0.23708705604076385,0.5098420977592468,0.3442816734313965
2.6916916370391846,-0.4999237060546875,-1.0999847650527954,0.959983229637146,0.23708705604076385,0.5098420977592468,0.344663143157959
2.7117526531219482,-0.5006866455078125,-1.0999847650527954,0.959983229637146,0.23708705604076385,0.5098420977592468,0.344663143157959
2.7318413257598877,-0.5006866455078125,-1.100366234779358,0.959983229637146,0.23708705604076385,0.5102235674858093,0.34504464268684387
2.7519381046295166,-0.5006866455078125,-1.100366234779358,0.959983229637146,0.23708705604076385,0.5102235674858093,0.34504464268684387
2.771986961364746,-0.5006866455078125,-1.100366234779358,0.959983229637146,0.23708705604076385,0.5098420977592468,0.34504464268684387
2.7920379638671875,-0.5006866455078125,-1.100366234779358,0.959983229637146,0.23708705604076385,0.5098420977592468,0.34542611241340637
2.8123152256011963,-0.5006866455078125,-1.100366234779358,0.959983229637146,0.23708705604076385,0.5098420977592468,0.34580758213996887
2.832422971725464,-0.5006866455078125,-1.100366234779358,0.959983229637146,0.23708705604076385,0.5098420977592468,0.34618905186653137
2.8524763584136963,-0.5006866455078125,-1.100366234779358,0.959983229637146,0.23746852576732635,0.5098420977592468,0.34733349084854126
2.872520685195923,-0.5006866455078125,-1.100366234779358,0.959983229637146,0.23746852576732635,0.5098420977592468,0.34847790002822876
2.8925795555114746,-0.5006866455078125,-1.100366234779358,0.9603646993637085,0.23746852576732635,0.5102235674858093,0.34847790002822876
2.9126694202423096,-0.5006866455078125,-1.100366234779358,0.960746169090271,0.23746852576732635,0.5102235674858093,0.34847790002822876
2.9327337741851807,-0.5006866455078125,-1.100366234779358,0.960746169090271,0.23785001039505005,0.5102235674858093,0.34847790002822876
2.95280122756958,-0.5006866455078125,-1.100366234779358,0.960746169090271,0.23861294984817505,0.5102235674858093,0.34885939955711365
2.972865104675293,-0.5006866455078125,-1.1007477045059204,0.960746169090271,0.23861294984817505,0.5102235674858093,0.34885939955711365
2.9930078983306885,-0.5006866455078125,-1.101129174232483,0.960746169090271,0.23861294984817505,0.5102235674858093,0.34885939955711365
3.013092279434204,-0.5006866455078125,-1.1015106439590454,0.9611276388168335,0.23861294984817505,0.5102235674858093,0.34924086928367615
3.0331506729125977,-0.5006866455078125,-1.1015106439590454,0.9611276388168335,0.23861294984817505,0.5098420977592468,0.34924086928367615
3.0532028675079346,-0.5006866455078125,-1.1015106439590454,0.9611276388168335,0.23861294984817505,0.5102235674858093,0.34924086928367615
3.0732581615448,-0.5006866455078125,-1.1015106439590454,0.9611276388168335,0.23861294984817505,0.5102235674858093,0.34962233901023865
3.0933427810668945,-0.5006866455078125,-1.101129174232483,0.9611276388168335,0.23899443447589874,0.5106050372123718,0.34962233901023865
3.1134066581726074,-0.5006866455078125,-1.1015106439590454,0.9611276388168335,0.23899443447589874,0.5106050372123718,0.35000380873680115
3.1334726810455322,-0.5006866455078125,-1.1015106439590454,0.961509108543396,0.23899443447589874,0.5106050372123718,0.35076677799224854
3.153531074523926,-0.50030517578125,-1.1015106439590454,0.961509108543396,0.23899443447589874,0.5106050372123718,0.35152971744537354
3.1736347675323486,-0.5006866455078125,-1.1015106439590454,0.961509108543396,0.23899443447589874,0.5106050372123718,0.35152971744537354
3.1937057971954346,-0.50030517578125,-1.1015106439590454,0.9618905782699585,0.23899443447589874,0.5106050372123718,0.35152971744537354
3.2138123512268066,-0.50030517578125,-1.1015106439590454,0.961509108543396,0.23899443447589874,0.5106050372123718,0.35152971744537354
3.233816146850586,-0.50030517578125,-1.1015106439590454,0.9618905782699585,0.23899443447589874,0.5106050372123718,0.35191118717193604
3.2538774013519287,-0.4999237060546875,-1.1015106439590454,0.9618905782699585,0.23899443447589874,0.5106050372123718,0.35191118717193604
3.2739622592926025,-0.4983977973461151,-1.1015106439590454,0.9618905782699585,0.23899443447589874,0.5102235674858093,0.35191118717193604
3.2940244674682617,-0.4983977973461151,-1.1015106439590454,0.9618905782699585,0.23899443447589874,0.5102235674858093,0.35191118717193604
3.3140981197357178,-0.4983977973461151,-1.1015106439590454,0.9618905782699585,0.23899443447589874,0.5102235674858093,0.35229265689849854
3.3341424465179443,-0.4983977973461151,-1.1015106439590454,0.9618905782699585,0.23899443447589874,0.5106050372123718,0.35191118717193604
3.3542234897613525,-0.4983977973461151,-1.1015106439590454,0.9618905782699585,0.23937590420246124,0.5109865069389343,0.35191118717193604
3.374297618865967,-0.4983977973461151,-1.1015106439590454,0.9618905782699585,0.23937590420246124,0.5106050372123718,0.35229265689849854
3.3943803310394287,-0.4983977973461151,-1.1015106439590454,0.9618905782699585,0.23937590420246124,0.5106050372123718,0.35229265689849854
3.414424419403076,-0.4983977973461151,-1.1015106439590454,0.9618905782699585,0.23937590420246124,0.5102235674858093,0.35229265689849854
3.434481620788574,-0.4983977973461151,-1.1015106439590454,0.9618905782699585,0.23975738883018494,0.5102235674858093,0.35229265689849854
3.454564094543457,-0.4983977973461151,-1.1015106439590454,0.9618905782699585,0.23975738883018494,0.5102235674858093,0.3526741564273834
3.4746296405792236,-0.4983977973461151,-1.101129174232483,0.9618905782699585,0.23975738883018494,0.5102235674858093,0.3526741564273834
3.494678258895874,-0.4983977973461151,-1.101129174232483,0.9618905782699585,0.24013885855674744,0.5102235674858093,0.3526741564273834
3.5147407054901123,-0.4983977973461151,-1.101129174232483,0.9618905782699585,0.24013885855674744,0.5102235674858093,0.3526741564273834
3.534839153289795,-0.4983977973461151,-1.101129174232483,0.9618905782699585,0.24013885855674744,0.5102235674858093,0.3526741564273834
3.5549213886260986,-0.4983977973461151,-1.101129174232483,0.9618905782699585,0.24013885855674744,0.5106050372123718,0.3530556261539459
3.5750551223754883,-0.4983977973461151,-1.101129174232483,0.9618905782699585,0.24013885855674744,0.5106050372123718,0.3530556261539459
3.5950512886047363,-0.4983977973461151,-1.101129174232483,0.9618905782699585,0.24013885855674744,0.5102235674858093,0.3530556261539459
3.6151576042175293,-0.4983977973461151,-1.101129174232483,0.9618905782699585,0.24013885855674744,0.5102235674858093,0.3530556261539459
3.635249376296997,-0.4983977973461151,-1.101129174232483,0.9618905782699585,0.24013885855674744,0.5102235674858093,0.3534370958805084
3.6553637981414795,-0.4983977973461151,-1.101129174232483,0.9618905782699585,0.24013885855674744,0.5102235674858093,0.3534370958805084
3.675394296646118,-0.4983977973461151,-1.101129174232483,0.9618905782699585,0.24013885855674744,0.5102235674858093,0.3538185656070709
3.695439338684082,-0.4983977973461151,-1.101129174232483,0.9618905782699585,0.24013885855674744,0.5102235674858093,0.3545815348625183
3.715508222579956,-0.4983977973461151,-1.101129174232483,0.9618905782699585,0.24013885855674744,0.5102235674858093,0.3549630045890808
3.7356743812561035,-0.4983977973461151,-1.101129174232483,0.9618905782699585,0.24013885855674744,0.5102235674858093,0.3553444743156433
3.7556700706481934,-0.4983977973461151,-1.101129174232483,0.9618905782699585,0.24013885855674744,0.5106050372123718,0.3553444743156433
3.775718927383423,-0.4983977973461151,-1.101129174232483,0.9618905782699585,0.24013885855674744,0.5102235674858093,0.3553444743156433
3.7957847118377686,-0.4983977973461151,-1.101129174232483,0.9618905782699585,0.24013885855674744,0.5102235674858093,0.3553444743156433
3.815913200378418,-0.4983977973461151,-1.101129174232483,0.9618905782699585,0.24013885855674744,0.5102235674858093,0.3553444743156433
3.835935354232788,-0.4983977973461151,-1.101129174232483,0.9618905782699585,0.24013885855674744,0.5102235674858093,0.3553444743156433
3.85603404045105,-0.4983977973461151,-1.101129174232483,0.9618905782699585,0.24013885855674744,0.5098420977592468,0.3553444743156433
3.8761353492736816,-0.4983977973461151,-1.101129174232483,0.9618905782699585,0.24013885855674744,0.5102235674858093,0.3553444743156433
3.89619779586792,-0.4983977973461151,-1.101129174232483,0.9618905782699585,0.24013885855674744,0.5102235674858093,0.3553444743156433
3.916280508041382,-0.4983977973461151,-1.101129174232483,0.9618905782699585,0.24013885855674744,0.5102235674858093,0.3553444743156433
3.9363276958465576,-0.4983977973461151,-1.101129174232483,0.9618905782699585,0.24052032828330994,0.5102235674858093,0.3553444743156433
3.9563844203948975,-0.4983977973461151,-1.101129174232483,0.9618905782699585,0.24013885855674744,0.5102235674858093,0.3553444743156433
3.9764695167541504,-0.4983977973461151,-1.101129174232483,0.9618905782699585,0.24013885855674744,0.5102235674858093,0.3553444743156433
3.996575355529785,-0.4983977973461151,-1.101129174232483,0.9618905782699585,0.24052032828330994,0.5102235674858093,0.3553444743156433
4.0166542530059814,-0.4983977973461151,-1.101129174232483,0.9618905782699585,0.24052032828330994,0.5098420977592468,0.3553444743156433
4.036718130111694,-0.4983977973461151,-1.101129174232483,0.9618905782699585,0.24052032828330994,0.5098420977592468,0.3553444743156433
4.056801795959473,-0.4983977973461151,-1.101129174232483,0.9618905782699585,0.24052032828330994,0.5098420977592468,0.3553444743156433
4.07689356803894,-0.4983977973461151,-1.101129174232483,0.9618905782699585,0.24052032828330994,0.5098420977592468,0.3553444743156433
4.096996784210205,-0.4983977973461151,-1.101129174232483,0.9618905782699585,0.24052032828330994,0.5098420977592468,0.3553444743156433
4.117027282714844,-0.4983977973461151,-1.1007477045059204,0.9618905782699585,0.24052032828330994,0.5102235674858093,0.3553444743156433
4.137087106704712,-0.4983977973461151,-1.101129174232483,0.9618905782699585,0.24052032828330994,0.5102235674858093,0.3553444743156433
4.157153367996216,-0.4983977973461151,-1.101129174232483,0.9618905782699585,0.24052032828330994,0.5098420977592468,0.3553444743156433
4.177247762680054,-0.4983977973461151,-1.101129174232483,0.9618905782699585,0.24090181291103363,0.5098420977592468,0.3553444743156433
4.197298526763916,-0.4983977973461151,-1.101129174232483,0.9618905782699585,0.24090181291103363,0.5098420977592468,0.3553444743156433
4.217403888702393,-0.4983977973461151,-1.101129174232483,0.9618905782699585,0.24052032828330994,0.5098420977592468,0.3553444743156433
4.23745059967041,-0.4983977973461151,-1.101129174232483,0.9618905782699585,0.24090181291103363,0.5098420977592468,0.3553444743156433
4.257523775100708,-0.4983977973461151,-1.1007477045059204,0.9618905782699585,0.24052032828330994,0.5098420977592468,0.3553444743156433
4.2775890827178955,-0.4983977973461151,-1.101129174232483,0.9618905782699585,0.24052032828330994,0.5098420977592468,0.3549630045890808
4.2976391315460205,-0.4983977973461151,-1.101129174232483,0.9618905782699585,0.24090181291103363,0.5098420977592468,0.3553444743156433
4.317723989486694,-0.4983977973461151,-1.101129174232483,0.9618905782699585,0.24090181291103363,0.5098420977592468,0.3553444743156433
4.337775468826294,-0.4983977973461151,-1.101129174232483,0.9618905782699585,0.24052032828330994,0.5098420977592468,0.3549630045890808
4.357846260070801,-0.4983977973461151,-1.101129174232483,0.9618905782699585,0.24090181291103363,0.5098420977592468,0.3553444743156433
4.377903938293457,-0.4983977973461151,-1.101129174232483,0.9618905782699585,0.24090181291103363,0.5098420977592468,0.3549630045890808
4.398005723953247,-0.4983977973461151,-1.101129174232483,0.9618905782699585,0.24052032828330994,0.5098420977592468,0.3549630045890808
4.418043851852417,-0.4983977973461151,-1.101129174232483,0.9618905782699585,0.24052032828330994,0.5098420977592468,0.3549630045890808
4.438201427459717,-0.4983977973461151,-1.101129174232483,0.9618905782699585,0.24052032828330994,0.5098420977592468,0.3549630045890808
4.4583258628845215,-0.4983977973461151,-1.101129174232483,0.9618905782699585,0.24090181291103363,0.5098420977592468,0.3553444743156433
4.478323936462402,-0.4983977973461151,-1.101129174232483,0.9618905782699585,0.24052032828330994,0.5098420977592468,0.3553444743156433
4.498386859893799,-0.4983977973461151,-1.101129174232483,0.9618905782699585,0.24052032828330994,0.5098420977592468,0.3549630045890808
4.518503427505493,-0.4983977973461151,-1.101129174232483,0.9618905782699585,0.24052032828330994,0.5098420977592468,0.3549630045890808
4.538830757141113,-0.4983977973461151,-1.1007477045059204,0.9618905782699585,0.24052032828330994,0.5098420977592468,0.3549630045890808
4.558864593505859,-0.4983977973461151,-1.101129174232483,0.9618905782699585,0.24090181291103363,0.5098420977592468,0.3549630045890808
4.579092502593994,-0.4983977973461151,-1.101129174232483,0.9618905782699585,0.24052032828330994,0.5098420977592468,0.3549630045890808
4.599072694778442,-0.4983977973461151,-1.101129174232483,0.9618905782699585,0.24090181291103363,0.5098420977592468,0.3549630045890808
4.6191322803497314,-0.4983977973461151,-1.101129174232483,0.9618905782699585,0.24090181291103363,0.5098420977592468,0.3549630045890808
4.6397271156311035,-0.4983977973461151,-1.101129174232483,0.9618905782699585,0.24090181291103363,0.5098420977592468,0.3549630045890808
4.659849405288696,-0.4983977973461151,-1.101129174232483,0.9618905782699585,0.24090181291103363,0.5098420977592468,0.3549630045890808
4.679916620254517,-0.4983977973461151,-1.101129174232483,0.9618905782699585,0.24052032828330994,0.5098420977592468,0.3549630045890808
4.699958801269531,-0.4983977973461151,-1.101129174232483,0.9618905782699585,0.24052032828330994,0.5098420977592468,0.3549630045890808
4.720014810562134,-0.4983977973461151,-1.101129174232483,0.9618905782699585,0.24090181291103363,0.5098420977592468,0.3549630045890808
4.74018406867981,-0.4983977973461151,-1.101129174232483,0.9618905782699585,0.24090181291103363,0.5098420977592468,0.3549630045890808
4.760274171829224,-0.4983977973461151,-1.101129174232483,0.9618905782699585,0.24052032828330994,0.5098420977592468,0.3549630045890808
4.7803332805633545,-0.4983977973461151,-1.101129174232483,0.9618905782699585,0.24090181291103363,0.5098420977592468,0.3549630045890808
4.800400733947754,-0.4983977973461151,-1.101129174232483,0.9618905782699585,0.24052032828330994,0.5098420977592468,0.3549630045890808
4.8204851150512695,-0.4983977973461151,-1.101129174232483,0.9618905782699585,0.24052032828330994,0.5098420977592468,0.3549630045890808
4.840625762939453,-0.4983977973461151,-1.101129174232483,0.9618905782699585,0.24090181291103363,0.5098420977592468,0.3549630045890808
4.860730886459351,-0.4983977973461151,-1.101129174232483,0.9618905782699585,0.24090181291103363,0.5098420977592468,0.3549630045890808
4.880833864212036,-0.4983977973461151,-1.101129174232483,0.9618905782699585,0.24090181291103363,0.5098420977592468,0.3549630045890808
4.900861501693726,-0.4983977973461151,-1.101129174232483,0.9618905782699585,0.24090181291103363,0.5098420977592468,0.3549630045890808
4.920918703079224,-0.4983977973461151,-1.1007477045059204,0.9618905782699585,0.24090181291103363,0.5098420977592468,0.3549630045890808
4.941001653671265,-0.4983977973461151,-1.1007477045059204,0.9618905782699585,0.24090181291103363,0.5098420977592468,0.3549630045890808
4.9611005783081055,-0.4983977973461151,-1.101129174232483,0.9618905782699585,0.24090181291103363,0.5098420977592468,0.3549630045890808
4.98114013671875,-0.4983977973461151,-1.101129174232483,0.9618905782699585,0.24090181291103363,0.5098420977592468,0.3549630045890808
5.001264333724976,-0.4983977973461151,-1.101129174232483,0.9618905782699585,0.24090181291103363,0.5098420977592468,0.3549630045890808
5.021308660507202,-0.4983977973461151,-1.101129174232483,0.9618905782699585,0.24090181291103363,0.5098420977592468,0.3549630045890808
5.041388750076294,-0.4983977973461151,-1.101129174232483,0.9618905782699585,0.24090181291103363,0.5098420977592468,0.3549630045890808
5.061457872390747,-0.4983977973461151,-1.101129174232483,0.9618905782699585,0.24052032828330994,0.5098420977592468,0.3549630045890808
5.08157205581665,-0.4983977973461151,-1.101129174232483,0.9618905782699585,0.24052032828330994,0.5098420977592468,0.3549630045890808
5.101632595062256,-0.4983977973461151,-1.101129174232483,0.9618905782699585,0.24090181291103363,0.5098420977592468,0.3549630045890808
5.121700048446655,-0.4983977973461151,-1.101129174232483,0.9618905782699585,0.24090181291103363,0.5098420977592468,0.3549630045890808
5.141884088516235,-0.4983977973461151,-1.101129174232483,0.9618905782699585,0.24052032828330994,0.5098420977592468,0.3549630045890808
5.161905527114868,-0.4983977973461151,-1.101129174232483,0.9618905782699585,0.24052032828330994,0.5098420977592468,0.3549630045890808
5.181969404220581,-0.4983977973461151,-1.101129174232483,0.9618905782699585,0.24090181291103363,0.5098420977592468,0.3549630045890808
5.202014923095703,-0.4983977973461151,-1.101129174232483,0.9618905782699585,0.24090181291103363,0.5098420977592468,0.3549630045890808
5.222127676010132,-0.4983977973461151,-1.101129174232483,0.9618905782699585,0.24090181291103363,0.5098420977592468,0.3549630045890808
5.242213487625122,-0.4983977973461151,-1.101129174232483,0.9618905782699585,0.24090181291103363,0.5098420977592468,0.3549630045890808
5.262278079986572,-0.4983977973461151,-1.101129174232483,0.9618905782699585,0.24090181291103363,0.5098420977592468,0.3549630045890808
5.282335042953491,-0.4983977973461151,-1.101129174232483,0.9618905782699585,0.24090181291103363,0.5098420977592468,0.3549630045890808
5.3024632930755615,-0.4983977973461151,-1.101129174232483,0.9618905782699585,0.24052032828330994,0.5098420977592468,0.3549630045890808
5.322551250457764,-0.4983977973461151,-1.101129174232483,0.9618905782699585,0.24090181291103363,0.5098420977592468,0.3549630045890808
5.342617034912109,-0.4983977973461151,-1.101129174232483,0.9618905782699585,0.24090181291103363,0.5098420977592468,0.3549630045890808
5.362680435180664,-0.4983977973461151,-1.101129174232483,0.9618905782699585,0.24090181291103363,0.5098420977592468,0.3549630045890808
5.382734537124634,-0.4983977973461151,-1.101129174232483,0.9618905782699585,0.24052032828330994,0.5098420977592468,0.3549630045890808
5.402822971343994,-0.4983977973461151,-1.101129174232483,0.9618905782699585,0.24090181291103363,0.5098420977592468,0.3549630045890808
5.4228901863098145,-0.4983977973461151,-1.101129174232483,0.9618905782699585,0.24090181291103363,0.5098420977592468,0.3549630045890808
5.442942142486572,-0.4983977973461151,-1.101129174232483,0.9618905782699585,0.24090181291103363,0.5098420977592468,0.3549630045890808
5.462999582290649,-0.4983977973461151,-1.101129174232483,0.9618905782699585,0.24090181291103363,0.5098420977592468,0.3549630045890808
5.483067750930786,-0.4983977973461151,-1.101129174232483,0.9618905782699585,0.24090181291103363,0.5098420977592468,0.3549630045890808
5.5031514167785645,-0.4983977973461151,-1.101129174232483,0.9618905782699585,0.24090181291103363,0.5098420977592468,0.3545815348625183
5.5232203006744385,-0.4983977973461151,-1.101129174232483,0.9618905782699585,0.24090181291103363,0.5098420977592468,0.3549630045890808
5.543288946151733,-0.4983977973461151,-1.101129174232483,0.9618905782699585,0.24090181291103363,0.5098420977592468,0.3549630045890808
5.563350200653076,-0.4983977973461151,-1.101129174232483,0.9618905782699585,0.24052032828330994,0.5098420977592468,0.3549630045890808
5.583556890487671,-0.4983977973461151,-1.101129174232483,0.9618905782699585,0.24090181291103363,0.5098420977592468,0.3549630045890808
5.603613376617432,-0.4983977973461151,-1.101129174232483,0.9618905782699585,0.24090181291103363,0.5098420977592468,0.3545815348625183
5.62367582321167,-0.4983977973461151,-1.101129174232483,0.9618905782699585,0.24090181291103363,0.5098420977592468,0.3545815348625183
5.643735408782959,-0.4983977973461151,-1.101129174232483,0.9618905782699585,0.24090181291103363,0.5098420977592468,0.3545815348625183
5.663976192474365,-0.4983977973461151,-1.101129174232483,0.9618905782699585,0.24090181291103363,0.5098420977592468,0.3549630045890808
5.684094190597534,-0.4983977973461151,-1.101129174232483,0.9618905782699585,0.24052032828330994,0.5098420977592468,0.3545815348625183
5.704130411148071,-0.4983977973461151,-1.101129174232483,0.9618905782699585,0.24090181291103363,0.5098420977592468,0.3549630045890808
5.7241950035095215,-0.4983977973461151,-1.101129174232483,0.9618905782699585,0.24090181291103363,0.5098420977592468,0.3549630045890808
5.744244575500488,-0.4983977973461151,-1.101129174232483,0.9618905782699585,0.24090181291103363,0.5098420977592468,0.3549630045890808
5.764370441436768,-0.4983977973461151,-1.101129174232483,0.9618905782699585,0.24090181291103363,0.5098420977592468,0.3545815348625183
5.784400701522827,-0.4983977973461151,-1.101129174232483,0.9618905782699585,0.24090181291103363,0.5098420977592468,0.3545815348625183
5.80446457862854,-0.4983977973461151,-1.101129174232483,0.9618905782699585,0.24090181291103363,0.5098420977592468,0.3545815348625183
5.824522256851196,-0.4983977973461151,-1.101129174232483,0.9618905782699585,0.24090181291103363,0.5098420977592468,0.3545815348625183
5.844724178314209,-0.4983977973461151,-1.101129174232483,0.9618905782699585,0.24052032828330994,0.5098420977592468,0.3545815348625183
5.864810466766357,-0.4983977973461151,-1.101129174232483,0.9618905782699585,0.24090181291103363,0.5098420977592468,0.3545815348625183
5.884875059127808,-0.4983977973461151,-1.101129174232483,0.9618905782699585,0.24052032828330994,0.5098420977592468,0.3545815348625183
5.904950857162476,-0.4983977973461151,-1.101129174232483,0.9618905782699585,0.24090181291103363,0.5098420977592468,0.3545815348625183
5.924995183944702,-0.4983977973461151,-1.101129174232483,0.9618905782699585,0.24090181291103363,0.5098420977592468,0.3545815348625183
5.945080280303955,-0.4983977973461151,-1.101129174232483,0.9618905782699585,0.24090181291103363,0.5098420977592468,0.3545815348625183
5.9651618003845215,-0.4983977973461151,-1.101129174232483,0.9618905782699585,0.24052032828330994,0.5098420977592468,0.3545815348625183
5.9852399826049805,-0.4983977973461151,-1.101129174232483,0.9618905782699585,0.24090181291103363,0.5098420977592468,0.3545815348625183
6.005289554595947,-0.4983977973461151,-1.101129174232483,0.9618905782699585,0.24090181291103363,0.5098420977592468,0.3545815348625183
6.025350570678711,-0.4983977973461151,-1.101129174232483,0.9618905782699585,0.24090181291103363,0.5098420977592468,0.3545815348625183
6.045445680618286,-0.4983977973461151,-1.101129174232483,0.9618905782699585,0.24090181291103363,0.5098420977592468,0.3545815348625183
6.0655128955841064,-0.4983977973461151,-1.101129174232483,0.9618905782699585,0.24090181291103363,0.5098420977592468,0.3545815348625183
6.085618734359741,-0.4983977973461151,-1.101129174232483,0.9618905782699585,0.24090181291103363,0.5098420977592468,0.3545815348625183
6.105656623840332,-0.4983977973461151,-1.101129174232483,0.9618905782699585,0.24052032828330994,0.5098420977592468,0.3545815348625183
6.126031875610352,-0.4983977973461151,-1.101129174232483,0.9618905782699585,0.24052032828330994,0.5098420977592468,0.3545815348625183
6.146205425262451,-0.4983977973461151,-1.101129174232483,0.9618905782699585,0.24090181291103363,0.5098420977592468,0.3545815348625183
6.166223049163818,-0.4983977973461151,-1.101129174232483,0.9618905782699585,0.24090181291103363,0.5098420977592468,0.3545815348625183
6.18626856803894,-0.4983977973461151,-1.101129174232483,0.9618905782699585,0.24090181291103363,0.5098420977592468,0.3545815348625183
6.206331253051758,-0.4983977973461151,-1.101129174232483,0.9618905782699585,0.24052032828330994,0.5098420977592468,0.3545815348625183
6.226418972015381,-0.4983977973461151,-1.101129174232483,0.9618905782699585,0.24052032828330994,0.5098420977592468,0.3545815348625183
6.246483564376831,-0.4983977973461151,-1.101129174232483,0.9618905782699585,0.24090181291103363,0.5098420977592468,0.3545815348625183
6.266555547714233,-0.4983977973461151,-1.101129174232483,0.9618905782699585,0.24090181291103363,0.5098420977592468,0.3545815348625183
6.286617279052734,-0.4983977973461151,-1.101129174232483,0.9618905782699585,0.24090181291103363,0.5098420977592468,0.3545815348625183
6.306751012802124,-0.4983977973461151,-1.101129174232483,0.9618905782699585,0.24090181291103363,0.5098420977592468,0.3545815348625183
6.326875686645508,-0.4983977973461151,-1.101129174232483,0.9618905782699585,0.24090181291103363,0.5098420977592468,0.3545815348625183
6.346940517425537,-0.4983977973461151,-1.101129174232483,0.9618905782699585,0.24052032828330994,0.5098420977592468,0.3545815348625183
6.366986989974976,-0.4983977973461151,-1.101129174232483,0.9618905782699585,0.24090181291103363,0.5098420977592468,0.3545815348625183
6.387048721313477,-0.4983977973461151,-1.101129174232483,0.9618905782699585,0.24090181291103363,0.5098420977592468,0.3545815348625183
6.407160520553589,-0.4983977973461151,-1.101129174232483,0.9618905782699585,0.24052032828330994,0.5098420977592468,0.3545815348625183
6.427260875701904,-0.4983977973461151,-1.101129174232483,0.9618905782699585,0.24052032828330994,0.5098420977592468,0.3545815348625183
6.447338342666626,-0.4983977973461151,-1.101129174232483,0.9618905782699585,0.24052032828330994,0.5098420977592468,0.3545815348625183
6.467411756515503,-0.4983977973461151,-1.101129174232483,0.9618905782699585,0.24090181291103363,0.5098420977592468,0.3545815348625183
6.487599611282349,-0.4983977973461151,-1.101129174232483,0.9618905782699585,0.24052032828330994,0.5098420977592468,0.3545815348625183
6.507689476013184,-0.4983977973461151,-1.101129174232483,0.9618905782699585,0.24090181291103363,0.5098420977592468,0.3545815348625183
6.527756929397583,-0.4983977973461151,-1.101129174232483,0.9618905782699585,0.24090181291103363,0.5098420977592468,0.3542000353336334
6.547840118408203,-0.4983977973461151,-1.101129174232483,0.9618905782699585,0.24090181291103363,0.5098420977592468,0.3545815348625183
6.567867755889893,-0.4983977973461151,-1.101129174232483,0.9618905782699585,0.24052032828330994,0.5098420977592468,0.3545815348625183
6.58798885345459,-0.4983977973461151,-1.101129174232483,0.9618905782699585,0.24090181291103363,0.5098420977592468,0.3545815348625183
6.60804295539856,-0.4983977973461151,-1.101129174232483,0.9618905782699585,0.24090181291103363,0.5098420977592468,0.3545815348625183
6.628097772598267,-0.4983977973461151,-1.101129174232483,0.9618905782699585,0.24090181291103363,0.5098420977592468,0.3545815348625183
6.648151874542236,-0.4983977973461151,-1.101129174232483,0.9618905782699585,0.24052032828330994,0.5098420977592468,0.3545815348625183
6.668245077133179,-0.4983977973461151,-1.101129174232483,0.9618905782699585,0.24090181291103363,0.5098420977592468,0.3545815348625183
6.688309192657471,-0.4983977973461151,-1.101129174232483,0.9618905782699585,0.24090181291103363,0.5098420977592468,0.3545815348625183
6.708402872085571,-0.4983977973461151,-1.101129174232483,0.9618905782699585,0.24090181291103363,0.5098420977592468,0.3545815348625183
6.728468179702759,-0.4983977973461151,-1.101129174232483,0.9618905782699585,0.24090181291103363,0.5098420977592468,0.3542000353336334
6.748509645462036,-0.4983977973461151,-1.101129174232483,0.9618905782699585,0.24090181291103363,0.5098420977592468,0.3545815348625183
6.768584966659546,-0.4983977973461151,-1.101129174232483,0.9618905782699585,0.24090181291103363,0.5098420977592468,0.3545815348625183
6.7886528968811035,-0.4983977973461151,-1.101129174232483,0.9618905782699585,0.24090181291103363,0.5098420977592468,0.3545815348625183
6.808744430541992,-0.4983977973461151,-1.101129174232483,0.9618905782699585,0.24090181291103363,0.5098420977592468,0.3545815348625183
6.8288798332214355,-0.4983977973461151,-1.101129174232483,0.9618905782699585,0.24090181291103363,0.5098420977592468,0.3545815348625183
6.849037170410156,-0.4983977973461151,-1.101129174232483,0.9618905782699585,0.24090181291103363,0.5098420977592468,0.3545815348625183
6.869089841842651,-0.4983977973461151,-1.101129174232483,0.9618905782699585,0.24090181291103363,0.5098420977592468,0.3545815348625183
6.8891870975494385,-0.4983977973461151,-1.101129174232483,0.9618905782699585,0.24052032828330994,0.5098420977592468,0.3545815348625183
6.90926194190979,-0.4983977973461151,-1.101129174232483,0.9618905782699585,0.24090181291103363,0.5098420977592468,0.3545815348625183
6.929422855377197,-0.4983977973461151,-1.101129174232483,0.9618905782699585,0.24052032828330994,0.5098420977592468,0.3545815348625183
6.949528932571411,-0.4983977973461151,-1.101129174232483,0.9618905782699585,0.24052032828330994,0.5098420977592468,0.3545815348625183
6.969598054885864,-0.4983977973461151,-1.101129174232483,0.9618905782699585,0.24090181291103363,0.5098420977592468,0.3545815348625183
6.989659070968628,-0.4983977973461151,-1.101129174232483,0.9618905782699585,0.24052032828330994,0.5098420977592468,0.3545815348625183
7.009738922119141,-0.4983977973461151,-1.101129174232483,0.9618905782699585,0.24090181291103363,0.5098420977592468,0.3545815348625183
7.029832601547241,-0.4983977973461151,-1.101129174232483,0.9618905782699585,0.24090181291103363,0.5098420977592468,0.3545815348625183
7.049887657165527,-0.4983977973461151,-1.101129174232483,0.9618905782699585,0.24052032828330994,0.5098420977592468,0.3545815348625183
7.06995701789856,-0.4983977973461151,-1.101129174232483,0.9618905782699585,0.24052032828330994,0.5098420977592468,0.3545815348625183
7.0900232791900635,-0.4983977973461151,-1.101129174232483,0.9618905782699585,0.24090181291103363,0.5098420977592468,0.3545815348625183
7.110074281692505,-0.4983977973461151,-1.101129174232483,0.9618905782699585,0.24052032828330994,0.5098420977592468,0.3545815348625183
7.1301586627960205,-0.4983977973461151,-1.101129174232483,0.9618905782699585,0.24052032828330994,0.5098420977592468,0.3545815348625183
7.150220155715942,-0.4983977973461151,-1.101129174232483,0.9618905782699585,0.24090181291103363,0.5098420977592468,0.3545815348625183
7.170275926589966,-0.4983977973461151,-1.101129174232483,0.9618905782699585,0.24052032828330994,0.5098420977592468,0.3545815348625183
7.19043755531311,-0.4983977973461151,-1.101129174232483,0.9618905782699585,0.24090181291103363,0.5098420977592468,0.3545815348625183
7.210576057434082,-0.4983977973461151,-1.101129174232483,0.9618905782699585,0.24052032828330994,0.5098420977592468,0.3545815348625183
7.230619668960571,-0.4983977973461151,-1.101129174232483,0.9618905782699585,0.24052032828330994,0.5098420977592468,0.3545815348625183
7.250696420669556,-0.4983977973461151,-1.101129174232483,0.9618905782699585,0.24052032828330994,0.5098420977592468,0.3545815348625183
7.270800828933716,-0.4983977973461151,-1.101129174232483,0.9618905782699585,0.24052032828330994,0.5098420977592468,0.3545815348625183
7.2908947467803955,-0.4983977973461151,-1.101129174232483,0.9618905782699585,0.24052032828330994,0.5098420977592468,0.3545815348625183
7.310945987701416,-0.4983977973461151,-1.101129174232483,0.9618905782699585,0.24052032828330994,0.5098420977592468,0.3545815348625183
7.331012725830078,-0.4983977973461151,-1.101129174232483,0.9618905782699585,0.24090181291103363,0.5098420977592468,0.3545815348625183
7.351097106933594,-0.4983977973461151,-1.101129174232483,0.9618905782699585,0.24052032828330994,0.5098420977592468,0.3545815348625183
7.371179580688477,-0.4983977973461151,-1.101129174232483,0.9618905782699585,0.24052032828330994,0.5098420977592468,0.3545815348625183
7.391251802444458,-0.4983977973461151,-1.101129174232483,0.9618905782699585,0.24052032828330994,0.5098420977592468,0.3545815348625183
7.411384344100952,-0.4983977973461151,-1.101129174232483,0.9618905782699585,0.24052032828330994,0.5098420977592468,0.3545815348625183
7.431453227996826,-0.4983977973461151,-1.101129174232483,0.9618905782699585,0.24052032828330994,0.5098420977592468,0.3545815348625183
7.451501131057739,-0.4983977973461151,-1.101129174232483,0.9618905782699585,0.24052032828330994,0.5098420977592468,0.3545815348625183
7.471581220626831,-0.4983977973461151,-1.101129174232483,0.9618905782699585,0.24052032828330994,0.5098420977592468,0.3545815348625183
7.491672515869141,-0.4983977973461151,-1.101129174232483,0.9618905782699585,0.24052032828330994,0.5098420977592468,0.3545815348625183
7.511723279953003,-0.4983977973461151,-1.101129174232483,0.9618905782699585,0.24052032828330994,0.5098420977592468,0.3545815348625183
7.5317792892456055,-0.4983977973461151,-1.101129174232483,0.9618905782699585,0.24052032828330994,0.5098420977592468,0.3545815348625183
7.5518639087677,-0.4983977973461151,-1.101129174232483,0.9618905782699585,0.24052032828330994,0.5098420977592468,0.3545815348625183
7.571928024291992,-0.4983977973461151,-1.101129174232483,0.9618905782699585,0.24052032828330994,0.5098420977592468,0.3545815348625183
7.5919976234436035,-0.4983977973461151,-1.101129174232483,0.9618905782699585,0.24052032828330994,0.5098420977592468,0.3545815348625183
7.61205530166626,-0.4983977973461151,-1.101129174232483,0.9618905782699585,0.24052032828330994,0.5098420977592468,0.3545815348625183
7.632230758666992,-0.4983977973461151,-1.101129174232483,0.9618905782699585,0.24052032828330994,0.5098420977592468,0.3545815348625183
7.652319431304932,-0.4983977973461151,-1.101129174232483,0.9618905782699585,0.24052032828330994,0.5098420977592468,0.3545815348625183
7.672387599945068,-0.4983977973461151,-1.101129174232483,0.9618905782699585,0.24052032828330994,0.5098420977592468,0.3545815348625183
7.692435264587402,-0.4983977973461151,-1.101129174232483,0.9618905782699585,0.24052032828330994,0.5098420977592468,0.3545815348625183
7.712493181228638,-0.4983977973461151,-1.101129174232483,0.9618905782699585,0.24052032828330994,0.5098420977592468,0.3545815348625183
7.73259162902832,-0.4983977973461151,-1.101129174232483,0.9618905782699585,0.24052032828330994,0.5098420977592468,0.3545815348625183
7.752648115158081,-0.4983977973461151,-1.101129174232483,0.9618905782699585,0.24052032828330994,0.5098420977592468,0.3545815348625183
7.772726774215698,-0.4983977973461151,-1.101129174232483,0.9618905782699585,0.24052032828330994,0.5098420977592468,0.3545815348625183
7.7927844524383545,-0.4983977973461151,-1.101129174232483,0.9618905782699585,0.24052032828330994,0.5098420977592468,0.3542000353336334
7.812994718551636,-0.4983977973461151,-1.101129174232483,0.9618905782699585,0.24052032828330994,0.5098420977592468,0.3545815348625183
7.8331074714660645,-0.4983977973461151,-1.101129174232483,0.9618905782699585,0.24052032828330994,0.5098420977592468,0.3545815348625183
7.853222608566284,-0.4983977973461151,-1.101129174232483,0.9618905782699585,0.24052032828330994,0.5098420977592468,0.3545815348625183
7.873232364654541,-0.4983977973461151,-1.101129174232483,0.9618905782699585,0.24052032828330994,0.5098420977592468,0.3545815348625183
7.893283128738403,-0.4983977973461151,-1.101129174232483,0.9618905782699585,0.24052032828330994,0.5098420977592468,0.3545815348625183
7.91340446472168,-0.4983977973461151,-1.101129174232483,0.9618905782699585,0.24052032828330994,0.5098420977592468,0.3545815348625183
7.933469295501709,-0.4983977973461151,-1.101129174232483,0.9618905782699585,0.24052032828330994,0.5098420977592468,0.3545815348625183
7.953535556793213,-0.4983977973461151,-1.101129174232483,0.9618905782699585,0.24052032828330994,0.5098420977592468,0.3545815348625183
7.973597526550293,-0.4983977973461151,-1.101129174232483,0.9618905782699585,0.24052032828330994,0.5098420977592468,0.3545815348625183
7.993653297424316,-0.4983977973461151,-1.101129174232483,0.9618905782699585,0.24052032828330994,0.5098420977592468,0.3545815348625183
8.01375961303711,-0.4983977973461151,-1.101129174232483,0.9618905782699585,0.24052032828330994,0.5098420977592468,0.3545815348625183
8.033891677856445,-0.4983977973461151,-1.101129174232483,0.9618905782699585,0.24052032828330994,0.5098420977592468,0.3545815348625183
8.053943634033203,-0.4983977973461151,-1.101129174232483,0.9618905782699585,0.24052032828330994,0.5098420977592468,0.3545815348625183
8.073957443237305,-0.4983977973461151,-1.101129174232483,0.9618905782699585,0.24052032828330994,0.5098420977592468,0.3542000353336334
8.094027996063232,-0.4983977973461151,-1.101129174232483,0.9618905782699585,0.24052032828330994,0.5098420977592468,0.3545815348625183
8.114108085632324,-0.4983977973461151,-1.101129174232483,0.9618905782699585,0.24052032828330994,0.5098420977592468,0.3545815348625183
8.134166240692139,-0.4983977973461151,-1.101129174232483,0.9618905782699585,0.24090181291103363,0.5098420977592468,0.3545815348625183
8.154247760772705,-0.4983977973461151,-1.101129174232483,0.9618905782699585,0.24052032828330994,0.5098420977592468,0.3542000353336334
8.174283027648926,-0.4983977973461151,-1.101129174232483,0.9618905782699585,0.24052032828330994,0.5098420977592468,0.3542000353336334
8.19436764717102,-0.4983977973461151,-1.101129174232483,0.9618905782699585,0.24090181291103363,0.5098420977592468,0.3542000353336334
8.21443510055542,-0.4983977973461151,-1.101129174232483,0.9618905782699585,0.24090181291103363,0.5098420977592468,0.3545815348625183
8.23450231552124,-0.4983977973461151,-1.101129174232483,0.9618905782699585,0.24090181291103363,0.5098420977592468,0.3545815348625183
8.254546880722046,-0.4983977973461151,-1.101129174232483,0.9618905782699585,0.24052032828330994,0.5098420977592468,0.3545815348625183
8.274644136428833,-0.4983977973461151,-1.101129174232483,0.9618905782699585,0.24052032828330994,0.5098420977592468,0.3545815348625183
8.294703722000122,-0.4983977973461151,-1.101129174232483,0.9618905782699585,0.24090181291103363,0.5098420977592468,0.3542000353336334
8.314815521240234,-0.4983977973461151,-1.101129174232483,0.9618905782699585,0.24090181291103363,0.5098420977592468,0.3545815348625183
8.334933280944824,-0.4983977973461151,-1.101129174232483,0.9618905782699585,0.24090181291103363,0.5098420977592468,0.3542000353336334
8.354971408843994,-0.4983977973461151,-1.101129174232483,0.9618905782699585,0.24052032828330994,0.5098420977592468,0.3545815348625183
8.375042200088501,-0.4983977973461151,-1.101129174232483,0.9618905782699585,0.24090181291103363,0.5102235674858093,0.3542000353336334
8.39510202407837,-0.4983977973461151,-1.101129174232483,0.9618905782699585,0.24052032828330994,0.5098420977592468,0.3542000353336334
8.415152549743652,-0.4983977973461151,-1.101129174232483,0.9618905782699585,0.24052032828330994,0.5098420977592468,0.3542000353336334
8.435210704803467,-0.4983977973461151,-1.101129174232483,0.9618905782699585,0.24090181291103363,0.5098420977592468,0.3545815348625183
8.45529580116272,-0.4983977973461151,-1.101129174232483,0.9618905782699585,0.24090181291103363,0.5098420977592468,0.3542000353336334
8.475367069244385,-0.4983977973461151,-1.101129174232483,0.9618905782699585,0.24090181291103363,0.5098420977592468,0.3545815348625183
8.495414018630981,-0.4983977973461151,-1.101129174232483,0.9618905782699585,0.24052032828330994,0.5098420977592468,0.3542000353336334
8.51549768447876,-0.4983977973461151,-1.101129174232483,0.9618905782699585,0.24052032828330994,0.5098420977592468,0.3542000353336334
8.535543203353882,-0.4983977973461151,-1.101129174232483,0.9618905782699585,0.24052032828330994,0.5098420977592468,0.3542000353336334
8.555631875991821,-0.4983977973461151,-1.101129174232483,0.9618905782699585,0.24052032828330994,0.5098420977592468,0.3542000353336334
8.575661897659302,-0.4983977973461151,-1.101129174232483,0.9618905782699585,0.24052032828330994,0.5098420977592468,0.3542000353336334
8.595703363418579,-0.4983977973461151,-1.101129174232483,0.9618905782699585,0.24052032828330994,0.5098420977592468,0.3542000353336334
8.615763187408447,-0.4983977973461151,-1.101129174232483,0.9618905782699585,0.24052032828330994,0.5098420977592468,0.3542000353336334
8.635832786560059,-0.4983977973461151,-1.101129174232483,0.9618905782699585,0.24052032828330994,0.5098420977592468,0.3542000353336334
8.655911922454834,-0.4983977973461151,-1.101129174232483,0.9618905782699585,0.24052032828330994,0.5098420977592468,0.3542000353336334
8.676088571548462,-0.4983977973461151,-1.101129174232483,0.9618905782699585,0.24052032828330994,0.5098420977592468,0.3542000353336334
8.696097373962402,-0.4983977973461151,-1.101129174232483,0.9618905782699585,0.24052032828330994,0.5098420977592468,0.3542000353336334
8.716191291809082,-0.4983977973461151,-1.101129174232483,0.9618905782699585,0.24052032828330994,0.5098420977592468,0.3542000353336334
8.736271142959595,-0.4983977973461151,-1.101129174232483,0.9618905782699585,0.24052032828330994,0.5098420977592468,0.3542000353336334
8.756330013275146,-0.4983977973461151,-1.101129174232483,0.9618905782699585,0.24052032828330994,0.5098420977592468,0.3542000353336334
8.776382446289062,-0.4983977973461151,-1.101129174232483,0.9618905782699585,0.24052032828330994,0.5098420977592468,0.3542000353336334
8.7964506149292,-0.4983977973461151,-1.101129174232483,0.9618905782699585,0.24052032828330994,0.5098420977592468,0.3542000353336334
8.816537141799927,-0.4983977973461151,-1.101129174232483,0.9618905782699585,0.24052032828330994,0.5098420977592468,0.3542000353336334
8.836638927459717,-0.4983977973461151,-1.101129174232483,0.9618905782699585,0.24052032828330994,0.5098420977592468,0.3542000353336334
8.85669207572937,-0.4983977973461151,-1.101129174232483,0.9618905782699585,0.24052032828330994,0.5098420977592468,0.3542000353336334
8.876770257949829,-0.4983977973461151,-1.101129174232483,0.9618905782699585,0.24052032828330994,0.5098420977592468,0.3542000353336334
8.896929502487183,-0.4983977973461151,-1.101129174232483,0.9618905782699585,0.24052032828330994,0.5098420977592468,0.3542000353336334
8.917012214660645,-0.4983977973461151,-1.101129174232483,0.9618905782699585,0.24052032828330994,0.5098420977592468,0.3542000353336334
8.937090158462524,-0.4983977973461151,-1.101129174232483,0.9618905782699585,0.24052032828330994,0.5098420977592468,0.3542000353336334
8.957153081893921,-0.4983977973461151,-1.101129174232483,0.9618905782699585,0.24052032828330994,0.5098420977592468,0.3542000353336334
8.977209091186523,-0.4983977973461151,-1.101129174232483,0.9618905782699585,0.24052032828330994,0.5098420977592468,0.3542000353336334
8.99728775024414,-0.4983977973461151,-1.101129174232483,0.9618905782699585,0.24052032828330994,0.5098420977592468,0.3542000353336334
9.017354249954224,-0.4983977973461151,-1.101129174232483,0.9618905782699585,0.24052032828330994,0.5098420977592468,0.3542000353336334
9.037420749664307,-0.4983977973461151,-1.101129174232483,0.9618905782699585,0.24052032828330994,0.5098420977592468,0.3542000353336334
9.057469367980957,-0.4983977973461151,-1.101129174232483,0.9618905782699585,0.24052032828330994,0.5098420977592468,0.3542000353336334
9.077555179595947,-0.4983977973461151,-1.101129174232483,0.9618905782699585,0.24090181291103363,0.5098420977592468,0.3542000353336334
9.09762716293335,-0.4983977973461151,-1.101129174232483,0.9618905782699585,0.24052032828330994,0.5098420977592468,0.3542000353336334
9.117724418640137,-0.4983977973461151,-1.101129174232483,0.9618905782699585,0.24052032828330994,0.5098420977592468,0.3542000353336334
9.137756109237671,-0.4983977973461151,-1.101129174232483,0.9618905782699585,0.24052032828330994,0.5098420977592468,0.3542000353336334
9.15782880783081,-0.4983977973461151,-1.101129174232483,0.9618905782699585,0.24052032828330994,0.5098420977592468,0.3542000353336334
9.177889823913574,-0.4983977973461151,-1.101129174232483,0.9618905782699585,0.24052032828330994,0.5098420977592468,0.3542000353336334
9.19795560836792,-0.4983977973461151,-1.101129174232483,0.9618905782699585,0.24052032828330994,0.5098420977592468,0.3542000353336334
9.218010902404785,-0.4983977973461151,-1.101129174232483,0.9618905782699585,0.24052032828330994,0.5098420977592468,0.3542000353336334
9.238092184066772,-0.4983977973461151,-1.101129174232483,0.9618905782699585,0.24052032828330994,0.5098420977592468,0.3542000353336334
9.258160829544067,-0.4983977973461151,-1.101129174232483,0.9618905782699585,0.24052032828330994,0.5098420977592468,0.3542000353336334
9.278233051300049,-0.4983977973461151,-1.101129174232483,0.9618905782699585,0.24090181291103363,0.5098420977592468,0.3542000353336334
9.298312902450562,-0.4983977973461151,-1.101129174232483,0.9618905782699585,0.24052032828330994,0.5098420977592468,0.3542000353336334
9.31836986541748,-0.4983977973461151,-1.101129174232483,0.9618905782699585,0.24052032828330994,0.5098420977592468,0.3542000353336334
9.338458776473999,-0.4983977973461151,-1.101129174232483,0.9618905782699585,0.24052032828330994,0.5098420977592468,0.3542000353336334
9.358502864837646,-0.4983977973461151,-1.101129174232483,0.9618905782699585,0.24052032828330994,0.5098420977592468,0.3542000353336334
9.378577470779419,-0.4983977973461151,-1.101129174232483,0.9618905782699585,0.24052032828330994,0.5098420977592468,0.3542000353336334
9.39864182472229,-0.4983977973461151,-1.101129174232483,0.9618905782699585,0.24052032828330994,0.5098420977592468,0.3542000353336334
9.418750286102295,-0.4983977973461151,-1.101129174232483,0.9618905782699585,0.24052032828330994,0.5098420977592468,0.3542000353336334
9.438842296600342,-0.4983977973461151,-1.101129174232483,0.9618905782699585,0.24052032828330994,0.5098420977592468,0.3542000353336334
9.458925008773804,-0.4983977973461151,-1.101129174232483,0.9618905782699585,0.24052032828330994,0.5098420977592468,0.3542000353336334
9.47908353805542,-0.4983977973461151,-1.101129174232483,0.9618905782699585,0.24052032828330994,0.5098420977592468,0.3542000353336334
9.499099254608154,-0.4983977973461151,-1.101129174232483,0.9618905782699585,0.24052032828330994,0.5098420977592468,0.3542000353336334
9.519458293914795,-0.4983977973461151,-1.101129174232483,0.9618905782699585,0.24052032828330994,0.5098420977592468,0.3542000353336334
9.539554119110107,-0.4983977973461151,-1.101129174232483,0.9618905782699585,0.24052032828330994,0.5098420977592468,0.3542000353336334
9.559610605239868,-0.4983977973461151,-1.101129174232483,0.9618905782699585,0.24052032828330994,0.5098420977592468,0.3542000353336334
9.579679489135742,-0.4983977973461151,-1.101129174232483,0.9618905782699585,0.24052032828330994,0.5098420977592468,0.3542000353336334
9.599745988845825,-0.4983977973461151,-1.101129174232483,0.9618905782699585,0.24052032828330994,0.5098420977592468,0.3542000353336334
9.619907140731812,-0.4983977973461151,-1.101129174232483,0.9618905782699585,0.24052032828330994,0.5098420977592468,0.3542000353336334
9.63999319076538,-0.4983977973461151,-1.101129174232483,0.9618905782699585,0.24052032828330994,0.5098420977592468,0.3542000353336334
9.660077571868896,-0.4983977973461151,-1.101129174232483,0.9618905782699585,0.24052032828330994,0.5098420977592468,0.3542000353336334
9.680139541625977,-0.4983977973461151,-1.101129174232483,0.9618905782699585,0.24052032828330994,0.5098420977592468,0.3542000353336334
9.700189113616943,-0.4983977973461151,-1.101129174232483,0.9618905782699585,0.24052032828330994,0.5098420977592468,0.3542000353336334
9.720267057418823,-0.4983977973461151,-1.101129174232483,0.9618905782699585,0.24052032828330994,0.5098420977592468,0.3542000353336334
9.740339994430542,-0.4983977973461151,-1.101129174232483,0.9618905782699585,0.24052032828330994,0.5098420977592468,0.3542000353336334
9.76040530204773,-0.4983977973461151,-1.101129174232483,0.9618905782699585,0.24052032828330994,0.5098420977592468,0.3542000353336334
9.780467510223389,-0.4983977973461151,-1.101129174232483,0.9618905782699585,0.24052032828330994,0.5098420977592468,0.3542000353336334
9.800566911697388,-0.4983977973461151,-1.101129174232483,0.9618905782699585,0.24052032828330994,0.5098420977592468,0.3542000353336334
9.82062029838562,-0.4983977973461151,-1.101129174232483,0.9618905782699585,0.24052032828330994,0.5098420977592468,0.3542000353336334
9.840742111206055,-0.4983977973461151,-1.101129174232483,0.9618905782699585,0.24052032828330994,0.5098420977592468,0.3542000353336334
9.860833644866943,-0.4983977973461151,-1.101129174232483,0.9618905782699585,0.24052032828330994,0.5098420977592468,0.3542000353336334
9.880835056304932,-0.4983977973461151,-1.101129174232483,0.9618905782699585,0.24052032828330994,0.5098420977592468,0.3542000353336334
9.900990009307861,-0.4983977973461151,-1.101129174232483,0.9618905782699585,0.24052032828330994,0.5098420977592468,0.3542000353336334
9.921061992645264,-0.4983977973461151,-1.101129174232483,0.9618905782699585,0.24052032828330994,0.5098420977592468,0.3542000353336334
9.94115424156189,-0.4983977973461151,-1.101129174232483,0.9618905782699585,0.24052032828330994,0.5098420977592468,0.3542000353336334
9.961173295974731,-0.4983977973461151,-1.101129174232483,0.9618905782699585,0.24052032828330994,0.5098420977592468,0.3542000353336334
9.981260776519775,-0.4983977973461151,-1.101129174232483,0.9618905782699585,0.24052032828330994,0.5098420977592468,0.3542000353336334
10.001378297805786,-0.4983977973461151,-1.101129174232483,0.9618905782699585,0.24052032828330994,0.5098420977592468,0.3542000353336334
10.021442413330078,-0.4983977973461151,-1.101129174232483,0.9618905782699585,0.24052032828330994,0.5098420977592468,0.3542000353336334
10.041537761688232,-0.4983977973461151,-1.1007477045059204,0.9618905782699585,0.24052032828330994,0.5098420977592468,0.3542000353336334
10.06157922744751,-0.4983977973461151,-1.1007477045059204,0.9618905782699585,0.24052032828330994,0.5098420977592468,0.3542000353336334
10.081657409667969,-0.4983977973461151,-1.101129174232483,0.9618905782699585,0.24052032828330994,0.5098420977592468,0.3542000353336334
10.101712703704834,-0.4983977973461151,-1.101129174232483,0.9618905782699585,0.24052032828330994,0.5098420977592468,0.3542000353336334
10.121796131134033,-0.4983977973461151,-1.101129174232483,0.9618905782699585,0.24052032828330994,0.5098420977592468,0.3542000353336334
10.141855955123901,-0.4983977973461151,-1.101129174232483,0.9618905782699585,0.24052032828330994,0.5098420977592468,0.3542000353336334
10.161913633346558,-0.4983977973461151,-1.101129174232483,0.9618905782699585,0.24052032828330994,0.5098420977592468,0.3542000353336334
10.182025909423828,-0.4983977973461151,-1.101129174232483,0.9618905782699585,0.24052032828330994,0.5098420977592468,0.3542000353336334
10.202096700668335,-0.4983977973461151,-1.101129174232483,0.9618905782699585,0.24052032828330994,0.5098420977592468,0.3542000353336334
10.222172737121582,-0.4983977973461151,-1.101129174232483,0.9618905782699585,0.24052032828330994,0.5098420977592468,0.3542000353336334
10.242214918136597,-0.4983977973461151,-1.101129174232483,0.9618905782699585,0.24052032828330994,0.5098420977592468,0.3542000353336334
10.262279748916626,-0.4983977973461151,-1.101129174232483,0.9618905782699585,0.24052032828330994,0.5098420977592468,0.3542000353336334
10.282363414764404,-0.4983977973461151,-1.101129174232483,0.9618905782699585,0.24052032828330994,0.5098420977592468,0.3542000353336334
10.30242657661438,-0.4983977973461151,-1.101129174232483,0.9618905782699585,0.24052032828330994,0.5098420977592468,0.3542000353336334
10.322491884231567,-0.4983977973461151,-1.101129174232483,0.9618905782699585,0.24052032828330994,0.5098420977592468,0.3542000353336334
10.342538356781006,-0.4983977973461151,-1.101129174232483,0.9618905782699585,0.24052032828330994,0.5098420977592468,0.3542000353336334
10.36262583732605,-0.4983977973461151,-1.101129174232483,0.9618905782699585,0.24052032828330994,0.5098420977592468,0.3542000353336334
10.382694005966187,-0.4983977973461151,-1.101129174232483,0.9618905782699585,0.24052032828330994,0.5098420977592468,0.3542000353336334
10.402763605117798,-0.4983977973461151,-1.101129174232483,0.9618905782699585,0.24052032828330994,0.5098420977592468,0.3542000353336334
10.422807931900024,-0.4983977973461151,-1.101129174232483,0.9618905782699585,0.24052032828330994,0.5098420977592468,0.3542000353336334
10.44295072555542,-0.4983977973461151,-1.101129174232483,0.9618905782699585,0.24052032828330994,0.5098420977592468,0.3542000353336334
10.463032007217407,-0.4983977973461151,-1.101129174232483,0.9618905782699585,0.24052032828330994,0.5098420977592468,0.3542000353336334
10.483097791671753,-0.4983977973461151,-1.101129174232483,0.9618905782699585,0.24090181291103363,0.5098420977592468,0.3542000353336334
10.503155708312988,-0.4983977973461151,-1.101129174232483,0.9618905782699585,0.24052032828330994,0.5098420977592468,0.3542000353336334
10.523202657699585,-0.4983977973461151,-1.101129174232483,0.9618905782699585,0.24052032828330994,0.5098420977592468,0.3542000353336334
10.543400526046753,-0.4983977973461151,-1.101129174232483,0.9618905782699585,0.24052032828330994,0.5098420977592468,0.3542000353336334
10.56348705291748,-0.4983977973461151,-1.101129174232483,0.9618905782699585,0.24052032828330994,0.5098420977592468,0.3542000353336334
10.583562135696411,-0.4983977973461151,-1.101129174232483,0.9618905782699585,0.24052032828330994,0.5098420977592468,0.3542000353336334
10.603618383407593,-0.4983977973461151,-1.101129174232483,0.9618905782699585,0.24052032828330994,0.5098420977592468,0.3542000353336334
10.623727798461914,-0.4983977973461151,-1.101129174232483,0.9618905782699585,0.24090181291103363,0.5098420977592468,0.3542000353336334
10.643789291381836,-0.4983977973461151,-1.101129174232483,0.9618905782699585,0.24052032828330994,0.5098420977592468,0.3542000353336334
10.663851499557495,-0.4983977973461151,-1.101129174232483,0.9618905782699585,0.24090181291103363,0.5098420977592468,0.3542000353336334
10.683919906616211,-0.4983977973461151,-1.101129174232483,0.9618905782699585,0.24090181291103363,0.5098420977592468,0.3542000353336334
10.703993320465088,-0.4983977973461151,-1.101129174232483,0.9618905782699585,0.24052032828330994,0.5098420977592468,0.3545815348625183
10.724234580993652,-0.4983977973461151,-1.101129174232483,0.9618905782699585,0.24052032828330994,0.5098420977592468,0.3542000353336334
10.744311571121216,-0.4983977973461151,-1.101129174232483,0.9618905782699585,0.24052032828330994,0.5098420977592468,0.3542000353336334
10.764357805252075,-0.4983977973461151,-1.101129174232483,0.9618905782699585,0.24052032828330994,0.5098420977592468,0.3542000353336334
10.78442096710205,-0.4983977973461151,-1.101129174232483,0.9618905782699585,0.24090181291103363,0.5098420977592468,0.3542000353336334
10.804483652114868,-0.4983977973461151,-1.101129174232483,0.9618905782699585,0.24090181291103363,0.5098420977592468,0.3542000353336334
10.8245689868927,-0.4983977973461151,-1.101129174232483,0.9618905782699585,0.24052032828330994,0.5098420977592468,0.3542000353336334
10.844680786132812,-0.4983977973461151,-1.101129174232483,0.9618905782699585,0.24052032828330994,0.5098420977592468,0.3542000353336334
10.864706993103027,-0.4983977973461151,-1.101129174232483,0.9618905782699585,0.24052032828330994,0.5098420977592468,0.3542000353336334
10.884767770767212,-0.4983977973461151,-1.101129174232483,0.9618905782699585,0.24090181291103363,0.5098420977592468,0.3542000353336334
10.904821157455444,-0.4983977973461151,-1.101129174232483,0.9618905782699585,0.24052032828330994,0.5098420977592468,0.3542000353336334
10.924904346466064,-0.4983977973461151,-1.101129174232483,0.9618905782699585,0.24052032828330994,0.5098420977592468,0.3545815348625183
10.944963455200195,-0.4983977973461151,-1.101129174232483,0.9618905782699585,0.24090181291103363,0.5098420977592468,0.3542000353336334
10.965029954910278,-0.4983977973461151,-1.101129174232483,0.9618905782699585,0.24090181291103363,0.5098420977592468,0.3542000353336334
10.985095739364624,-0.4983977973461151,-1.101129174232483,0.9618905782699585,0.24052032828330994,0.5098420977592468,0.3542000353336334
11.00528073310852,-0.4983977973461151,-1.101129174232483,0.9618905782699585,0.24090181291103363,0.5098420977592468,0.3542000353336334
11.025359153747559,-0.4983977973461151,-1.101129174232483,0.9618905782699585,0.24090181291103363,0.5098420977592468,0.3542000353336334
11.04547667503357,-0.4983977973461151,-1.101129174232483,0.9618905782699585,0.24052032828330994,0.5098420977592468,0.3545815348625183
11.065484285354614,-0.4983977973461151,-1.101129174232483,0.9618905782699585,0.24090181291103363,0.5098420977592468,0.3542000353336334
11.085695505142212,-0.4983977973461151,-1.101129174232483,0.9618905782699585,0.24052032828330994,0.5098420977592468,0.3545815348625183
11.105792760848999,-0.4983977973461151,-1.101129174232483,0.9618905782699585,0.24090181291103363,0.5098420977592468,0.3542000353336334
11.12581729888916,-0.4983977973461151,-1.101129174232483,0.9618905782699585,0.24052032828330994,0.5098420977592468,0.3545815348625183
11.145877599716187,-0.4983977973461151,-1.101129174232483,0.9618905782699585,0.24052032828330994,0.5098420977592468,0.3545815348625183
11.165923357009888,-0.4983977973461151,-1.101129174232483,0.9618905782699585,0.24090181291103363,0.5098420977592468,0.3545815348625183
11.186005592346191,-0.4983977973461151,-1.101129174232483,0.9618905782699585,0.24090181291103363,0.5098420977592468,0.3545815348625183
11.20609712600708,-0.4983977973461151,-1.101129174232483,0.9618905782699585,0.24090181291103363,0.5098420977592468,0.3545815348625183
11.226151704788208,-0.4983977973461151,-1.101129174232483,0.9618905782699585,0.24052032828330994,0.5098420977592468,0.3545815348625183
11.246227741241455,-0.4983977973461151,-1.101129174232483,0.9618905782699585,0.24052032828330994,0.5098420977592468,0.3545815348625183
11.26626968383789,-0.4983977973461151,-1.101129174232483,0.9618905782699585,0.24090181291103363,0.5098420977592468,0.3545815348625183
11.286376237869263,-0.4983977973461151,-1.101129174232483,0.9618905782699585,0.24052032828330994,0.5098420977592468,0.3545815348625183
11.306484937667847,-0.4983977973461151,-1.101129174232483,0.9618905782699585,0.24052032828330994,0.5098420977592468,0.3545815348625183
11.326539516448975,-0.4983977973461151,-1.101129174232483,0.9618905782699585,0.24090181291103363,0.5098420977592468,0.3545815348625183
11.34660029411316,-0.4983977973461151,-1.101129174232483,0.9618905782699585,0.24052032828330994,0.5098420977592468,0.3545815348625183
11.366688251495361,-0.4961089491844177,-1.100366234779358,0.9618905782699585,0.24052032828330994,0.5098420977592468,0.3545815348625183
11.387138605117798,-0.49076828360557556,-1.099603295326233,0.961509108543396,0.24052032828330994,0.5064088106155396,0.3553444743156433
11.40723204612732,-0.4827573001384735,-1.098077416419983,0.960746169090271,0.24090181291103363,0.50030517578125,0.3561074137687683
11.427297830581665,-0.4716945290565491,-1.0965514183044434,0.9603646993637085,0.24242770671844482,0.49343863129615784,0.3583962619304657
11.447349548339844,-0.45796138048171997,-1.0954070091247559,0.9603646993637085,0.24357213079929352,0.48962387442588806,0.3614480793476105
11.467425107955933,-0.4373617172241211,-1.0934996604919434,0.9596017599105835,0.2443350851535797,0.4892423748970032,0.36564430594444275
11.487503290176392,-0.41447317600250244,-1.0912108421325684,0.959220290184021,0.2443350851535797,0.4880979657173157,0.3702220320701599
11.507617950439453,-0.3858625292778015,-1.0866330862045288,0.9576943516731262,0.2443350851535797,0.4861905872821808,0.3744182586669922
11.527685403823853,-0.3542000353336334,-1.0816738605499268,0.9565499424934387,0.2443350851535797,0.4850461483001709,0.37937742471694946
11.547751188278198,-0.31948578357696533,-1.0767147541046143,0.9565499424934387,0.2458609938621521,0.4839017391204834,0.3847180902957916
11.567806482315063,-0.28324559330940247,-1.0698481798171997,0.9557870030403137,0.2462424635887146,0.4842832088470459,0.3900587558746338
11.587900400161743,-0.2462424635887146,-1.0614557266235352,0.9554055333137512,0.2462424635887146,0.4880979657173157,0.39463645219802856
11.6079683303833,-0.21648737788200378,-1.054207682609558,0.9546425342559814,0.2473868876695633,0.49305713176727295,0.39730677008628845
11.628034114837646,-0.18673227727413177,-1.0473411083221436,0.954261064529419,0.24891279637813568,0.5025940537452698,0.4011215269565582
11.648122072219849,-0.16422522068023682,-1.042000412940979,0.954261064529419,0.2500572204589844,0.5140383243560791,0.4022659659385681
11.668190002441406,-0.14476996660232544,-1.035896897315979,0.9538795948028564,0.25158312916755676,0.5189974904060364,0.4045548141002655
11.68838620185852,-0.12874799966812134,-1.0305562019348145,0.953498125076294,0.25349050760269165,0.5197604298591614,0.4056992530822754
11.708393335342407,-0.1180666834115982,-1.0271228551864624,0.953498125076294,0.25501641631126404,0.5170900821685791,0.4083695709705353
11.728439331054688,-0.11005569249391556,-1.0240710973739624,0.953498125076294,0.25616082549095154,0.5098420977592468,0.41142138838768005
11.748524188995361,-0.10509651154279709,-1.0206378698349,0.952735185623169,0.2573052644729614,0.4999237060546875,0.41332876682281494
11.768584728240967,-0.10166323184967041,-1.0172045230865479,0.951972246170044,0.2588311731815338,0.49153125286102295,0.41599908471107483
11.788649559020996,-0.10013733059167862,-1.0141527652740479,0.9515907764434814,0.2603570520877838,0.4797055125236511,0.4205767810344696
11.808706998825073,-0.10013733059167862,-1.0107194185256958,0.951209306716919,0.2622644305229187,0.4701686203479767,0.4228656589984894
11.82890248298645,-0.10013733059167862,-1.0072861909866333,0.951209306716919,0.2630273997783661,0.46253910660743713,0.42553597688674927
11.849001169204712,-0.10204470902681351,-1.0027084350585938,0.9504463076591492,0.264934778213501,0.45834288001060486,0.42782482504844666
11.86908745765686,-0.1031891331076622,-0.9981307983398438,0.9500648379325867,0.26836803555488586,0.4560540020465851,0.43125811219215393
11.889138460159302,-0.10433356463909149,-0.9946975111961365,0.9496833682060242,0.27065691351890564,0.4545281231403351,0.4354543387889862
11.909186363220215,-0.10509651154279709,-0.9905012845993042,0.9496833682060242,0.27141985297203064,0.4533836841583252,0.439269095659256
11.92928409576416,-0.10509651154279709,-0.9855420589447021,0.9493018984794617,0.2725642919540405,0.4530022144317627,0.44232088327407837
11.949337244033813,-0.10509651154279709,-0.9813458323478699,0.9493018984794617,0.2740901708602905,0.4526207447052002,0.44613564014434814
11.969404935836792,-0.10509651154279709,-0.9782940149307251,0.9489204287528992,0.2763790488243103,0.4530022144317627,0.4499503970146179
11.989470958709717,-0.10509651154279709,-0.9740977883338928,0.9481574892997742,0.2786678969860077,0.4526207447052002,0.4530022144317627
12.009522676467896,-0.10509651154279709,-0.9706645011901855,0.9473945498466492,0.2798123061656952,0.4518577754497528,0.4556725323200226
12.02962875366211,-0.10509651154279709,-0.9668498039245605,0.9470130205154419,0.2817196846008301,0.4495689272880554,0.45872434973716736
12.049689292907715,-0.10509651154279709,-0.9634165167808533,0.9462500810623169,0.28286412358283997,0.44651713967323303,0.46253910660743713
12.069756746292114,-0.10509651154279709,-0.9603646993637085,0.9454871416091919,0.28477150201797485,0.44346532225608826,0.4667353332042694
12.089814901351929,-0.10509651154279709,-0.9573128819465637,0.9451056718826294,0.28667888045310974,0.440032035112381,0.4720759987831116
12.109863996505737,-0.10509651154279709,-0.955024003982544,0.9447242021560669,0.28858625888824463,0.4373617172241211,0.47474631667137146
12.12994384765625,-0.10509651154279709,-0.9523537158966064,0.9439612627029419,0.290875107049942,0.4354543387889862,0.47779813408851624
12.150009870529175,-0.10547798871994019,-0.9496833682060242,0.9428167939186096,0.2935454249382019,0.4339284300804138,0.4808499217033386
12.170092105865479,-0.10547798871994019,-0.9473945498466492,0.9416723847389221,0.2954528033733368,0.43202105164527893,0.4858091175556183
12.19015121459961,-0.10547798871994019,-0.9451056718826294,0.9405279755592346,0.2969787120819092,0.42973220348358154,0.49038681387901306
12.210215091705322,-0.10624094307422638,-0.9431982636451721,0.9393835067749023,0.29888609051704407,0.42820629477500916,0.49496451020240784
12.230355739593506,-0.10662241280078888,-0.9405279755592346,0.9378576278686523,0.30041199922561646,0.42629891633987427,0.499542236328125
12.250386953353882,-0.10662241280078888,-0.9374761581420898,0.9367132186889648,0.30193790793418884,0.4240100681781769,0.5033569931983948
12.270464181900024,-0.10700388997793198,-0.9351872801780701,0.9355688095092773,0.30498969554901123,0.4209582805633545,0.508316159248352
12.290525436401367,-0.10700388997793198,-0.9332799315452576,0.9348058104515076,0.3076600432395935,0.4186694025993347,0.5136567950248718
12.310574293136597,-0.10738536715507507,-0.9313725233078003,0.9348058104515076,0.309567391872406,0.41561761498451233,0.5193789601325989
12.330693244934082,-0.10738536715507507,-0.9287022352218628,0.9336614012718201,0.3122377395629883,0.41142138838768005,0.5247195959091187
12.350757598876953,-0.10738536715507507,-0.926413357257843,0.9325169920921326,0.31567102670669556,0.4087510406970978,0.5296788215637207
12.370836734771729,-0.10738536715507507,-0.9237430095672607,0.9302281141281128,0.31795987486839294,0.4072251319885254,0.535400927066803
12.390894412994385,-0.10738536715507507,-0.9218356609344482,0.9298466444015503,0.32101166248321533,0.4045548141002655,0.5422675013542175
12.410960674285889,-0.10738536715507507,-0.9199283123016357,0.9283207654953003,0.3233005404472351,0.4026474356651306,0.5479896068572998
12.431041479110718,-0.10738536715507507,-0.9172579646110535,0.926413357257843,0.3263523280620575,0.4007400572299957,0.5537117719650269
12.451112985610962,-0.10738536715507507,-0.9134432077407837,0.9233615398406982,0.32940414547920227,0.39883267879486084,0.5594338774681091
12.471287727355957,-0.10738536715507507,-0.9107728600502014,0.9206912517547607,0.33131152391433716,0.39616236090660095,0.5663004517555237
12.491261959075928,-0.10738536715507507,-0.9081025123596191,0.9180209040641785,0.33512628078460693,0.3931105434894562,0.5716410875320435
12.511321544647217,-0.10738536715507507,-0.9050507545471191,0.9157320261001587,0.3377965986728668,0.3900587558746338,0.578507661819458
12.531414985656738,-0.10738536715507507,-0.9016174674034119,0.9119172692298889,0.3412298858165741,0.386243999004364,0.5861371755599976
12.551507472991943,-0.10738536715507507,-0.8970397710800171,0.9081025123596191,0.343900203704834,0.38281071186065674,0.5926222801208496
12.571554899215698,-0.10738536715507507,-0.8936064839363098,0.9046692848205566,0.34695202112197876,0.37937742471694946,0.5998703241348267
12.591615676879883,-0.10738536715507507,-0.8901731967926025,0.9012359976768494,0.35114824771881104,0.3759441375732422,0.6074998378753662
12.6116943359375,-0.10738536715507507,-0.8859769701957703,0.8978027105331421,0.3538185656070709,0.3713664412498474,0.6155108213424683
12.631796598434448,-0.10700388997793198,-0.881017804145813,0.8928435444831848,0.3564889132976532,0.36717021465301514,0.6235218048095703
12.651885271072388,-0.10700388997793198,-0.8768215179443359,0.8882657885551453,0.3606851398944855,0.36297398805618286,0.6330586671829224
12.671914339065552,-0.10700388997793198,-0.8733882904052734,0.884069561958313,0.36602577567100525,0.3595407009124756,0.6418325901031494
12.691968441009521,-0.10700388997793198,-0.8691920638084412,0.8794918656349182,0.369840532541275,0.3557259440422058,0.6528953909873962
12.712082624435425,-0.10700388997793198,-0.8646143078804016,0.8745326995849609,0.3740367889404297,0.35152971744537354,0.6628137826919556
12.732146739959717,-0.10662241280078888,-0.8588922023773193,0.8676661252975464,0.3770885765552521,0.34809643030166626,0.6738765835762024
12.752240657806396,-0.10547798871994019,-0.8543145060539246,0.8634698987007141,0.38052186369895935,0.343137264251709,0.6849393248558044
12.772303342819214,-0.1035706102848053,-0.8501182794570923,0.8585107326507568,0.3839551508426666,0.3385595381259918,0.6944762468338013
12.792362689971924,-0.10090028494596481,-0.8463035225868225,0.8543145060539246,0.3889143168926239,0.33360037207603455,0.7051575779914856
12.812447786331177,-0.09746700525283813,-0.840962827205658,0.8493552803993225,0.3934920132160187,0.3282597064971924,0.7166017889976501
12.832526206970215,-0.09365224838256836,-0.8363851308822632,0.8440146446228027,0.39654383063316345,0.3221561014652252,0.7265201807022095
12.852590322494507,-0.09060044586658478,-0.8321889042854309,0.8405813574790955,0.4003585875034332,0.31910428404808044,0.7368200421333313
12.872637271881104,-0.086785688996315,-0.8283741474151611,0.8363851308822632,0.403410404920578,0.31490805745124817,0.7459754347801208
12.892698287963867,-0.08335240930318832,-0.8249408602714539,0.8329518437385559,0.4068436622619629,0.3114747703075409,0.7547493577003479
12.912785053253174,-0.08030059933662415,-0.8207446336746216,0.8291370868682861,0.41027694940567017,0.3065156042575836,0.76276034116745
12.93285322189331,-0.07801175117492676,-0.8165484070777893,0.8253223299980164,0.41447317600250244,0.30270084738731384,0.770008385181427
12.952913999557495,-0.07648584991693497,-0.8127336502075195,0.8215075731277466,0.41676202416419983,0.2973601818084717,0.7776378989219666
12.972988367080688,-0.07457847148180008,-0.8096818327903748,0.8184558153152466,0.4201953113079071,0.2927824854850769,0.7852674126625061
12.99313497543335,-0.0711451917886734,-0.8054856061935425,0.8150225281715393,0.4243915379047394,0.28591591119766235,0.7917525172233582
13.0132155418396,-0.06923781335353851,-0.8024337887763977,0.810826301574707,0.42706188559532166,0.2790493667125702,0.7974746227264404
13.033277750015259,-0.06618601083755493,-0.7982375621795654,0.8081559538841248,0.42935073375701904,0.2752346098423004,0.804341197013855
13.053329467773438,-0.06351567804813385,-0.7944228053092957,0.804341197013855,0.43163958191871643,0.27103838324546814,0.8104447722434998
13.073384046554565,-0.06046387553215027,-0.7909895181655884,0.8012893795967102,0.4339284300804138,0.26760509610176086,0.8154039978981018
13.09346866607666,-0.058175019919872284,-0.7879377603530884,0.7982375621795654,0.4354543387889862,0.265697717666626,0.8207446336746216
13.113529920578003,-0.0551232174038887,-0.7848859429359436,0.7955672740936279,0.4362172782421112,0.2630273997783661,0.8249408602714539
13.133599758148193,-0.05245288833975792,-0.7818341255187988,0.7921339869499207,0.4396505653858185,0.2603570520877838,0.8291370868682861
13.153661966323853,-0.049782559275627136,-0.7791637778282166,0.7890821695327759,0.44193941354751587,0.25577935576438904,0.8340963125228882
13.173709869384766,-0.04634927958250046,-0.7749675512313843,0.7860303521156311,0.44346532225608826,0.25158312916755676,0.838674008846283
13.193907976150513,-0.04558632895350456,-0.7711527943611145,0.7833600640296936,0.44422826170921326,0.2450980395078659,0.8413442969322205
13.213944673538208,-0.043678950518369675,-0.7681010365486145,0.7795453071594238,0.44575417041778564,0.24166475236415863,0.8432517051696777
13.233992099761963,-0.04100862145423889,-0.7646677494049072,0.778019368648529,0.44689860939979553,0.23670557141304016,0.84744793176651
13.254093170166016,-0.03795681521296501,-0.761997401714325,0.7749675512313843,0.4491874575614929,0.2313649207353592,0.8504997491836548
13.274337530136108,-0.03604944050312042,-0.7597085237503052,0.7730602025985718,0.4491874575614929,0.22716869413852692,0.8539330363273621
13.29447865486145,-0.03337911143898964,-0.7566567659378052,0.770008385181427,0.4499503970146179,0.22564278542995453,0.8554589152336121
13.314484357833862,-0.03147173300385475,-0.7539864182472229,0.767719566822052,0.4499503970146179,0.22297245264053345,0.8573662638664246
13.334556341171265,-0.029182879254221916,-0.7516975402832031,0.7654306888580322,0.4510948359966278,0.22144655883312225,0.8588922023773193
13.35461688041687,-0.02689402550458908,-0.7486457824707031,0.7631418108940125,0.4530022144317627,0.22068360447883606,0.8604180812835693
13.374709367752075,-0.024605173617601395,-0.7455939650535583,0.7616159319877625,0.4541466534137726,0.21763180196285248,0.8623254895210266
13.394779920578003,-0.02193484455347061,-0.7425421476364136,0.7593270540237427,0.4545281231403351,0.21190966665744781,0.8649957776069641
13.414902448654175,-0.02079041674733162,-0.7394903302192688,0.7570382356643677,0.4560540020465851,0.20771344006061554,0.8649957776069641
13.434914112091064,-0.018501564860343933,-0.7375829815864563,0.7551308274269104,0.45643550157546997,0.20237277448177338,0.8661402463912964
13.455002307891846,-0.015449759550392628,-0.7345311641693115,0.7524605393409729,0.45719844102859497,0.1977950781583786,0.8676661252975464
13.475069046020508,-0.01430533267557621,-0.7330052852630615,0.7505531311035156,0.45719844102859497,0.19321736693382263,0.8684290647506714
13.495214700698853,-0.011635004542768002,-0.7303349375724792,0.7486457824707031,0.45757991075515747,0.19092851877212524,0.8688105344772339
13.515244007110596,-0.010109102353453636,-0.7280460596084595,0.7471198439598083,0.45757991075515747,0.19054703414440155,0.8695735335350037
13.535499811172485,-0.007438773289322853,-0.7257572412490845,0.7455939650535583,0.45872434973716736,0.19130998849868774,0.8695735335350037
13.555638313293457,-0.006294346414506435,-0.7234683632850647,0.7448310256004333,0.45872434973716736,0.18940261006355286,0.8703364729881287
13.575801372528076,-0.004005493130534887,-0.7207980751991272,0.7417792081832886,0.45986875891685486,0.18902114033699036,0.8714808821678162
13.595751762390137,-0.001716639962978661,-0.7181277275085449,0.7410162687301636,0.46063172817230225,0.1836804747581482,0.8726252913475037
13.61580753326416,0.00019073777366429567,-0.7150759100914001,0.7383459210395813,0.46177613735198975,0.17872129380702972,0.8726252913475037
13.636030435562134,0.0020981156267225742,-0.7131685614585876,0.7375829815864563,0.46215763688087463,0.17643244564533234,0.8730067610740662
13.656118869781494,0.0036240178160369396,-0.7120240926742554,0.7360570430755615,0.46253910660743713,0.17299915850162506,0.8733882904052734
13.676178693771362,0.004005493130534887,-0.7104982137680054,0.7345311641693115,0.46368351578712463,0.17109178006649017,0.8733882904052734
13.696227073669434,0.005531395319849253,-0.7085908055305481,0.7330052852630615,0.4640650153160095,0.16918440163135529,0.8733882904052734
13.716283559799194,0.008201723918318748,-0.7063019871711731,0.7314793467521667,0.4640650153160095,0.1665140837430954,0.8737697601318359
13.736368417739868,0.010109102353453636,-0.7036316394805908,0.7303349375724792,0.464446485042572,0.16384375095367432,0.8741512298583984
13.756433963775635,0.01201647985726595,-0.7013428211212158,0.7288090586662292,0.464446485042572,0.16384375095367432,0.8741512298583984
13.77648377418518,0.012779430486261845,-0.6994354128837585,0.7280460596084595,0.465209424495697,0.16384375095367432,0.8741512298583984
13.796543598175049,0.014686808921396732,-0.6979095339775085,0.726901650428772,0.4655908942222595,0.16155488789081573,0.8741512298583984
13.816617012023926,0.016212711110711098,-0.6967650651931763,0.725375771522522,0.4659723937511444,0.15964750945568085,0.8741512298583984
13.836697578430176,0.01735713705420494,-0.6963835954666138,0.724612832069397,0.4678797721862793,0.15621423721313477,0.8741512298583984
13.856756687164307,0.01773861236870289,-0.6944762468338013,0.7227054238319397,0.4682612419128418,0.15316243469715118,0.8741512298583984
13.876823902130127,0.018501564860343933,-0.6921873688697815,0.7227054238319397,0.4686427116394043,0.1489662081003189,0.8745326995849609
13.896902561187744,0.019645990803837776,-0.691042959690094,0.7215610146522522,0.4686427116394043,0.14705882966518402,0.8745326995849609
13.917089462280273,0.02040894143283367,-0.6887540817260742,0.7211795449256897,0.4690241813659668,0.14705882966518402,0.8745326995849609
13.937109470367432,0.021553369238972664,-0.6864652633666992,0.7207980751991272,0.4694056510925293,0.14705882966518402,0.8745326995849609
13.957143545150757,0.022697795182466507,-0.6845578551292419,0.7196536064147949,0.4697871506214142,0.14744029939174652,0.8745326995849609
13.97720456123352,0.024605173617601395,-0.6853207945823669,0.7192721366882324,0.4701686203479767,0.14705882966518402,0.8745326995849609
13.997286081314087,0.02536812424659729,-0.6841763854026794,0.7177462577819824,0.4705500900745392,0.14629587531089783,0.8741512298583984
14.017358541488647,0.02689402550458908,-0.6826505064964294,0.7173647880554199,0.4705500900745392,0.14438849687576294,0.8741512298583984
14.037451267242432,0.03032730519771576,-0.6815060377120972,0.7158388495445251,0.4709315598011017,0.14095520973205566,0.8741512298583984
14.05749797821045,0.03223468363285065,-0.6792172193527222,0.7146944403648376,0.4716945290565491,0.13866636157035828,0.8737697601318359
14.077557563781738,0.032616160809993744,-0.6776912808418274,0.7143129706382751,0.4716945290565491,0.1359960287809372,0.8733882904052734
14.09784984588623,0.03299763426184654,-0.6765468716621399,0.7131685614585876,0.4724574685096741,0.1356145590543747,0.8733882904052734
14.117914915084839,0.03376058489084244,-0.6761654019355774,0.7127870321273804,0.4724574685096741,0.1325627565383911,0.8730067610740662
14.137961387634277,0.035667963325977325,-0.6738765835762024,0.7124055624008179,0.4724574685096741,0.12874799966812134,0.8730067610740662
14.158058881759644,0.037193864583969116,-0.6723506450653076,0.7108796834945679,0.4724574685096741,0.12531471252441406,0.8730067610740662
14.178099155426025,0.03757534176111221,-0.6712062358856201,0.7104982137680054,0.4724574685096741,0.12531471252441406,0.8726252913475037
14.19818639755249,0.039101243019104004,-0.6704432964324951,0.7101167440414429,0.4728389382362366,0.12531471252441406,0.8722438216209412
14.21824860572815,0.040245670825242996,-0.6692988276481628,0.7093538045883179,0.47398337721824646,0.12531471252441406,0.8722438216209412
14.238395690917969,0.04177157208323479,-0.6677729487419128,0.7089722752571106,0.47550925612449646,0.12378881871700287,0.8718623518943787
14.25843334197998,0.04177157208323479,-0.6677729487419128,0.7085908055305481,0.47589075565338135,0.12302586436271667,0.8718623518943787
14.27852988243103,0.04291599988937378,-0.6670100092887878,0.7082093358039856,0.47627222537994385,0.12340734153985977,0.8714808821678162
14.29871916770935,0.04406042397022247,-0.6666285395622253,0.7074463963508606,0.47665369510650635,0.12188144028186798,0.8707179427146912
14.318711757659912,0.04482337832450867,-0.6651026010513306,0.7070649266242981,0.47741663455963135,0.12111848592758179,0.8695735335350037
14.338754653930664,0.04596780240535736,-0.6635767221450806,0.7063019871711731,0.47856107354164124,0.11959258466959,0.8680475950241089
14.358819484710693,0.046730753034353256,-0.6628137826919556,0.7059205174446106,0.47894254326820374,0.11730372905731201,0.8680475950241089
14.378995895385742,0.04711223021149635,-0.6620507836341858,0.7047760486602783,0.4797055125236511,0.11692225188016891,0.8676661252975464
14.399083137512207,0.04787518084049225,-0.6616693139076233,0.7043945789337158,0.4797055125236511,0.11577782779932022,0.8672846555709839
14.419166803359985,0.048256658017635345,-0.6605249047279358,0.7032501697540283,0.4797055125236511,0.11348897218704224,0.8669031858444214
14.439224243164062,0.04901960864663124,-0.6597619652748108,0.7024872303009033,0.4797055125236511,0.11310750246047974,0.8661402463912964
14.45928955078125,0.050164032727479935,-0.6593804955482483,0.7021057605743408,0.4800869822502136,0.11196307092905045,0.8646143078804016
14.479450464248657,0.05130846053361893,-0.657473087310791,0.7021057605743408,0.4800869822502136,0.11005569249391556,0.8642328381538391
14.499527931213379,0.05207141116261482,-0.656710147857666,0.7001983523368835,0.4800869822502136,0.10738536715507507,0.8642328381538391
14.519571781158447,0.05283436179161072,-0.655184268951416,0.699816882610321,0.4804684519767761,0.10776684433221817,0.8638513684272766
14.539610147476196,0.053215838968753815,-0.654421329498291,0.699053943157196,0.4804684519767761,0.10700388997793198,0.8638513684272766
14.559706449508667,0.05397878959774971,-0.6536583304405212,0.6986724734306335,0.482375830411911,0.10852979123592377,0.8634698987007141
14.579768896102905,0.05436026677489281,-0.6532768607139587,0.699053943157196,0.4827573001384735,0.10814831405878067,0.8630884289741516
14.599834680557251,0.05436026677489281,-0.6528953909873962,0.6979095339775085,0.483138769865036,0.10662241280078888,0.8623254895210266
14.619901418685913,0.0555046908557415,-0.6525139212608337,0.6979095339775085,0.483138769865036,0.10433356463909149,0.8615625500679016
14.64000153541565,0.0555046908557415,-0.6521324515342712,0.6971465349197388,0.483138769865036,0.1035706102848053,0.8604180812835693
14.660104036331177,0.056267641484737396,-0.6509880423545837,0.6967650651931763,0.4835202693939209,0.10128175467252731,0.8600366115570068
14.680146932601929,0.05703059583902359,-0.650225043296814,0.6956206560134888,0.4839017391204834,0.10013733059167862,0.8596551418304443
