liuyurong129/humanoid-gym/humanoid/data/actual_q_20250522-223327.csv
timestamp,joint_1,joint_2,joint_3,joint_4,joint_5,joint_6
4.6253204345703125e-05,0.00019073777366429567,0.17376211285591125,-0.086785688996315,0.00019073777366429567,0.00019073777366429567,-0.00019073777366429567
0.020114660263061523,-0.00019073777366429567,0.1512550562620163,-0.07763027399778366,-0.00019073777366429567,-0.000572213320992887,-0.00019073777366429567
0.04019880294799805,-0.00019073777366429567,0.12798504531383514,-0.06694895774126053,-0.00019073777366429567,0.000572213320992887,-0.00019073777366429567
0.06024456024169922,-0.00019073777366429567,0.11196307092905045,-0.06046387553215027,0.00019073777366429567,0.001716639962978661,-0.00019073777366429567
0.08033323287963867,0.000572213320992887,0.10433356463909149,-0.0558861680328846,0.00019073777366429567,0.00019073777366429567,-0.00019073777366429567
0.100433349609375,0.000572213320992887,0.09975585341453552,-0.053215838968753815,0.00019073777366429567,0.00019073777366429567,-0.00019073777366429567
0.1204671859741211,0.000572213320992887,0.09403372555971146,-0.04901960864663124,0.00019073777366429567,0.00019073777366429567,-0.00019073777366429567
0.14055609703063965,0.000572213320992887,0.08907453715801239,-0.04558632895350456,0.000572213320992887,0.00019073777366429567,-0.00019073777366429567
0.16069841384887695,0.000572213320992887,0.08297093212604523,-0.042153049260377884,0.0009536888683214784,0.00019073777366429567,-0.00019073777366429567
0.18071866035461426,0.000572213320992887,0.07724879682064056,-0.04100862145423889,0.0013351644156500697,0.00019073777366429567,-0.00019073777366429567
0.2008051872253418,0.000572213320992887,0.0707637146115303,-0.038719769567251205,0.0024795911740511656,0.00019073777366429567,-0.000572213320992887
0.220872163772583,0.000572213320992887,0.06427863240242004,-0.03528648987412453,0.0036240178160369396,0.00019073777366429567,-0.000572213320992887
0.24094486236572266,0.000572213320992887,0.059319447726011276,-0.03185320645570755,0.004386968910694122,0.00019073777366429567,-0.000572213320992887
0.2609853744506836,0.000572213320992887,0.0551232174038887,-0.029564354568719864,0.005149920005351305,-0.00019073777366429567,-0.000572213320992887
0.2811579704284668,0.000572213320992887,0.04940108209848404,-0.026512550190091133,0.007057297509163618,-0.00019073777366429567,-0.0009536888683214784
0.3012869358062744,0.000572213320992887,0.04253452271223068,-0.021553369238972664,0.007438773289322853,-0.000572213320992887,-0.0009536888683214784
0.32144951820373535,0.000572213320992887,0.03604944050312042,-0.01888304017484188,0.008201723918318748,-0.00019073777366429567,-0.0009536888683214784
0.3419189453125,0.0009536888683214784,0.03032730519771576,-0.016212711110711098,0.009727626107633114,-0.000572213320992887,-0.0013351644156500697
0.3620290756225586,0.0009536888683214784,0.024605173617601395,-0.012779430486261845,0.01125352829694748,-0.000572213320992887,-0.001716639962978661
0.38221311569213867,0.0013351644156500697,0.01888304017484188,-0.008964675478637218,0.011635004542768002,-0.000572213320992887,-0.0020981156267225742
0.4022531509399414,0.0020981156267225742,0.013542382046580315,-0.005912871100008488,0.012397955171763897,-0.000572213320992887,-0.0024795911740511656
0.4222738742828369,0.0020981156267225742,0.008201723918318748,-0.002861066721379757,0.014686808921396732,-0.0009536888683214784,-0.0024795911740511656
0.44245076179504395,0.0020981156267225742,0.0024795911740511656,0.001716639962978661,0.015449759550392628,-0.0009536888683214784,-0.0024795911740511656
0.46248340606689453,0.0020981156267225742,-0.002861066721379757,0.005149920005351305,0.016975661739706993,-0.0009536888683214784,-0.002861066721379757
0.4825477600097656,0.0020981156267225742,-0.008201723918318748,0.008201723918318748,0.018501564860343933,-0.0009536888683214784,-0.002861066721379757
0.5026164054870605,0.0024795911740511656,-0.01430533267557621,0.012779430486261845,0.01926451548933983,-0.0013351644156500697,-0.002861066721379757
0.5226788520812988,0.0024795911740511656,-0.020027466118335724,0.016212711110711098,0.020027466118335724,-0.001716639962978661,-0.002861066721379757
0.5427610874176025,0.002861066721379757,-0.024986648932099342,0.01926451548933983,0.02193484455347061,-0.0020981156267225742,-0.0032425422687083483
0.5636904239654541,0.0024795911740511656,-0.031090257689356804,0.023079270496964455,0.023079270496964455,-0.0020981156267225742,-0.0032425422687083483
0.5837645530700684,0.0024795911740511656,-0.03795681521296501,0.02727550081908703,0.024605173617601395,-0.0024795911740511656,-0.0032425422687083483
0.6039080619812012,0.002861066721379757,-0.045204851776361465,0.02994582988321781,0.025749599561095238,-0.002861066721379757,-0.0032425422687083483
0.6239967346191406,0.002861066721379757,-0.05054550990462303,0.03337911143898964,0.026512550190091133,-0.0036240178160369396,-0.0032425422687083483
0.6444916725158691,0.002861066721379757,-0.05703059583902359,0.03681239113211632,0.02689402550458908,-0.004386968910694122,-0.0032425422687083483
0.6646044254302979,0.002861066721379757,-0.06198977679014206,0.040245670825242996,0.02841992862522602,-0.005149920005351305,-0.0036240178160369396
0.68467116355896,0.002861066721379757,-0.06580453366041183,0.04291599988937378,0.02994582988321781,-0.005531395319849253,-0.0036240178160369396
0.7047808170318604,0.0032425422687083483,-0.0707637146115303,0.04634927958250046,0.030708782374858856,-0.006294346414506435,-0.0036240178160369396
0.7249932289123535,0.0032425422687083483,-0.07534141838550568,0.049782559275627136,0.032616160809993744,-0.008201723918318748,-0.0036240178160369396
0.7450799942016602,0.004005493130534887,-0.08182650804519653,0.05436026677489281,0.03376058489084244,-0.008201723918318748,-0.0036240178160369396
0.7651457786560059,0.00476844422519207,-0.0875486359000206,0.057793546468019485,0.03452353551983833,-0.008201723918318748,-0.0036240178160369396
0.7852869033813477,0.00476844422519207,-0.09403372555971146,0.061226826161146164,0.03528648987412453,-0.00858320016413927,-0.004005493130534887
0.8053483963012695,0.00476844422519207,-0.09937438368797302,0.06504157930612564,0.037193864583969116,-0.00858320016413927,-0.004005493130534887
0.8254702091217041,0.00476844422519207,-0.1035706102848053,0.06809338182210922,0.03795681521296501,-0.008964675478637218,-0.004386968910694122
0.845477819442749,0.00476844422519207,-0.10776684433221817,0.0711451917886734,0.038719769567251205,-0.00858320016413927,-0.004386968910694122
0.8656117916107178,0.00476844422519207,-0.11387044936418533,0.07572289556264877,0.04100862145423889,-0.008964675478637218,-0.005149920005351305
0.8856461048126221,0.00476844422519207,-0.1199740618467331,0.07915617525577545,0.04139009863138199,-0.009346150793135166,-0.005531395319849253
0.9057629108428955,0.00476844422519207,-0.12569619715213776,0.08297093212604523,0.04253452271223068,-0.009727626107633114,-0.005912871100008488
0.9258472919464111,0.00476844422519207,-0.1325627565383911,0.0875486359000206,0.04444190114736557,-0.010490577667951584,-0.006294346414506435
0.945969820022583,0.005149920005351305,-0.1371404528617859,0.09212634712457657,0.045204851776361465,-0.010872052982449532,-0.006294346414506435
0.966130256652832,0.005149920005351305,-0.14133669435977936,0.09594109654426575,0.04634927958250046,-0.011635004542768002,-0.006294346414506435
0.9861173629760742,0.005149920005351305,-0.14667734503746033,0.09975585341453552,0.048256658017635345,-0.012779430486261845,-0.006294346414506435
1.006303071975708,0.006294346414506435,-0.15392538905143738,0.10471503436565399,0.04940108209848404,-0.013542382046580315,-0.006294346414506435
1.0263257026672363,0.007057297509163618,-0.16079194843769073,0.10776684433221817,0.05092698708176613,-0.01583123579621315,-0.00667582219466567
1.046415090560913,0.00667582219466567,-0.1680399775505066,0.11272602528333664,0.05245288833975792,-0.015449759550392628,-0.00667582219466567
1.0665793418884277,0.007057297509163618,-0.17376211285591125,0.11768520623445511,0.053215838968753815,-0.01583123579621315,-0.00667582219466567
1.0866100788116455,0.007057297509163618,-0.17795833945274353,0.12149996310472488,0.05436026677489281,-0.016212711110711098,-0.00667582219466567
1.106637954711914,0.007057297509163618,-0.1813916265964508,0.12417028844356537,0.0558861680328846,-0.016975661739706993,-0.00667582219466567
1.1268036365509033,0.007057297509163618,-0.18749523162841797,0.12836651504039764,0.05703059583902359,-0.016975661739706993,-0.00667582219466567
1.1468849182128906,0.007057297509163618,-0.19436179101467133,0.1329442262649536,0.057793546468019485,-0.016975661739706993,-0.007057297509163618
1.166923999786377,0.007438773289322853,-0.20122835040092468,0.1367589831352234,0.05970092490315437,-0.016594186425209045,-0.007057297509163618
1.1870484352111816,0.0078202486038208,-0.20695048570632935,0.14171816408634186,0.06046387553215027,-0.01735713705420494,-0.007057297509163618
1.2071034908294678,0.008201723918318748,-0.21076524257659912,0.14476996660232544,0.061226826161146164,-0.018120087683200836,-0.007057297509163618
1.2271721363067627,0.008201723918318748,-0.2141985148191452,0.14820325374603271,0.06237125024199486,-0.018501564860343933,-0.007438773289322853
1.2472352981567383,0.00858320016413927,-0.22068360447883606,0.1527809500694275,0.06389715522527695,-0.018120087683200836,-0.007438773289322853
1.2673733234405518,0.008964675478637218,-0.22678720951080322,0.15697719156742096,0.06427863240242004,-0.01888304017484188,-0.007438773289322853
1.287454605102539,0.008964675478637218,-0.23403525352478027,0.16079194843769073,0.06618601083755493,-0.01888304017484188,-0.007438773289322853
1.3075733184814453,0.008964675478637218,-0.23823148012161255,0.1653696447610855,0.06771191209554672,-0.019645990803837776,-0.0078202486038208
1.3276469707489014,0.009346150793135166,-0.24128328263759613,0.16956588625907898,0.06885633617639542,-0.019645990803837776,-0.008201723918318748
1.3477835655212402,0.009346150793135166,-0.2458609938621521,0.17414358258247375,0.0711451917886734,-0.020027466118335724,-0.008201723918318748
1.367910385131836,0.010109102353453636,-0.2508201599121094,0.17872129380702972,0.0722896158695221,-0.020027466118335724,-0.008201723918318748
1.3879523277282715,0.010109102353453636,-0.25501641631126404,0.182917520403862,0.07419699430465698,-0.019645990803837776,-0.00858320016413927
1.4080026149749756,0.010109102353453636,-0.2603570520877838,0.18673227727413177,0.07534141838550568,-0.020027466118335724,-0.00858320016413927
1.4280831813812256,0.010109102353453636,-0.2645532786846161,0.19130998849868774,0.07648584991693497,-0.020027466118335724,-0.009346150793135166
1.4481630325317383,0.010490577667951584,-0.26836803555488586,0.1958876997232437,0.07839322835206985,-0.02040894143283367,-0.010109102353453636
1.4682362079620361,0.010872052982449532,-0.273708701133728,0.20160982012748718,0.07953765243291855,-0.02079041674733162,-0.010109102353453636
1.488316535949707,0.01125352829694748,-0.2798123061656952,0.20695048570632935,0.08030059933662415,-0.02193484455347061,-0.010872052982449532
1.5083677768707275,0.01201647985726595,-0.28629741072654724,0.21038375794887543,0.08220797777175903,-0.023079270496964455,-0.010872052982449532
1.5284450054168701,0.012397955171763897,-0.2904936373233795,0.2149614691734314,0.08335240930318832,-0.023460745811462402,-0.010490577667951584
1.5485076904296875,0.012779430486261845,-0.2935454249382019,0.21915769577026367,0.08449683338403702,-0.024223696440458298,-0.01125352829694748
1.5685584545135498,0.013160906732082367,-0.2965972423553467,0.22182802855968475,0.08602273464202881,-0.024986648932099342,-0.01125352829694748
1.588658332824707,0.013923857361078262,-0.30231937766075134,0.22678720951080322,0.086785688996315,-0.024986648932099342,-0.01125352829694748
1.6087169647216797,0.01430533267557621,-0.308041512966156,0.23250934481620789,0.0879301130771637,-0.02536812424659729,-0.011635004542768002
1.6288073062896729,0.01430533267557621,-0.3130006790161133,0.23632410168647766,0.08983749151229858,-0.024986648932099342,-0.011635004542768002
1.648836374282837,0.01430533267557621,-0.31795987486839294,0.24090181291103363,0.09098191559314728,-0.02536812424659729,-0.01201647985726595
1.6689445972442627,0.01430533267557621,-0.3221561014652252,0.2470054179430008,0.09327077120542526,-0.026131074875593185,-0.012397955171763897
1.688995122909546,0.01430533267557621,-0.3248264193534851,0.2508201599121094,0.09441519528627396,-0.026131074875593185,-0.012397955171763897
1.7091748714447021,0.01430533267557621,-0.32940414547920227,0.25616082549095154,0.09517814964056015,-0.026512550190091133,-0.013160906732082367
1.7292625904083252,0.014686808921396732,-0.33474478125572205,0.2607385218143463,0.09746700525283813,-0.026512550190091133,-0.013160906732082367
1.7493259906768799,0.01506828423589468,-0.3400854468345642,0.2653162479400635,0.09861142933368683,-0.02689402550458908,-0.013923857361078262
1.7694365978240967,0.01506828423589468,-0.34504464268684387,0.26874953508377075,0.10090028494596481,-0.026512550190091133,-0.013923857361078262
1.7894690036773682,0.01506828423589468,-0.35000380873680115,0.2733272314071655,0.10204470902681351,-0.026512550190091133,-0.013923857361078262
1.8095452785491943,0.015449759550392628,-0.3545815348625183,0.2782863974571228,0.1028076633810997,-0.02689402550458908,-0.013923857361078262
1.8296105861663818,0.015449759550392628,-0.3568703830242157,0.2821011543273926,0.10471503436565399,-0.02689402550458908,-0.013923857361078262
1.849696397781372,0.016212711110711098,-0.3603036403656006,0.28667888045310974,0.10547798871994019,-0.028038453310728073,-0.01430533267557621
1.8697779178619385,0.016975661739706993,-0.36526283621788025,0.2927824854850769,0.10662241280078888,-0.029182879254221916,-0.01430533267557621
1.8900203704833984,0.01735713705420494,-0.3713664412498474,0.29812315106391907,0.10891126841306686,-0.02880140393972397,-0.01430533267557621
1.9100439548492432,0.01735713705420494,-0.3770885765552521,0.30308231711387634,0.11043716967105865,-0.02841992862522602,-0.01430533267557621
1.930109977722168,0.01773861236870289,-0.38357365131378174,0.3099488914012909,0.11272602528333664,-0.029564354568719864,-0.014686808921396732
1.9502065181732178,0.018501564860343933,-0.3892957866191864,0.31567102670669556,0.11387044936418533,-0.02994582988321781,-0.01506828423589468
1.970344066619873,0.01926451548933983,-0.39425498247146606,0.32101166248321533,0.11539635062217712,-0.03147173300385475,-0.01506828423589468
1.9904329776763916,0.01926451548933983,-0.39883267879486084,0.32673379778862,0.11654078215360641,-0.031090257689356804,-0.01506828423589468
2.010615110397339,0.01926451548933983,-0.4018844962120056,0.33093002438545227,0.11768520623445511,-0.03223468363285065,-0.015449759550392628
2.0305962562561035,0.019645990803837776,-0.4060807228088379,0.33588922023773193,0.1203555315732956,-0.032616160809993744,-0.015449759550392628
2.0507445335388184,0.02040894143283367,-0.41142138838768005,0.3419928252696991,0.12340734153985977,-0.03337911143898964,-0.01583123579621315
2.0708305835723877,0.021553369238972664,-0.4171435236930847,0.34771496057510376,0.12493324279785156,-0.034142062067985535,-0.01583123579621315
2.090904712677002,0.021171892061829567,-0.4224841594696045,0.35229265689849854,0.12684062123298645,-0.034142062067985535,-0.016594186425209045
2.1109554767608643,0.021553369238972664,-0.42744335532188416,0.3583962619304657,0.12836651504039764,-0.034142062067985535,-0.016975661739706993
2.131040096282959,0.021553369238972664,-0.43202105164527893,0.36488136649131775,0.12951095402240753,-0.034142062067985535,-0.01773861236870289
2.1511781215667725,0.021553369238972664,-0.4365987777709961,0.3694590628147125,0.13141833245754242,-0.03452353551983833,-0.018120087683200836
2.171330213546753,0.02193484455347061,-0.44193941354751587,0.3755626678466797,0.1329442262649536,-0.03528648987412453,-0.018501564860343933
2.191425085067749,0.022697795182466507,-0.4488059878349304,0.38319218158721924,0.1348516047000885,-0.03604944050312042,-0.01888304017484188
2.2115795612335205,0.023079270496964455,-0.4533836841583252,0.3896772861480713,0.1371404528617859,-0.03681239113211632,-0.01888304017484188
2.231882333755493,0.023460745811462402,-0.45872434973716736,0.39616236090660095,0.13904783129692078,-0.03681239113211632,-0.01926451548933983
2.252105951309204,0.024223696440458298,-0.4640650153160095,0.4037918746471405,0.14019227027893066,-0.03795681521296501,-0.019645990803837776
2.272146224975586,0.024605173617601395,-0.4682612419128418,0.4087510406970978,0.14248111844062805,-0.037193864583969116,-0.021553369238972664
2.2924344539642334,0.024986648932099342,-0.47398337721824646,0.41523614525794983,0.14400701224803925,-0.03757534176111221,-0.021553369238972664
2.3125760555267334,0.025749599561095238,-0.4804684519767761,0.422102689743042,0.14667734503746033,-0.03795681521296501,-0.02193484455347061
2.3326528072357178,0.025749599561095238,-0.4850461483001709,0.42706188559532166,0.1493476778268814,-0.039101243019104004,-0.02231631986796856
2.352696418762207,0.026512550190091133,-0.49153125286102295,0.4339284300804138,0.1516365259885788,-0.0398641936480999,-0.02231631986796856
2.372724771499634,0.02689402550458908,-0.4972533881664276,0.439269095659256,0.15468832850456238,-0.04100862145423889,-0.022697795182466507
2.3928072452545166,0.028038453310728073,-0.5014495849609375,0.44575417041778564,0.15659570693969727,-0.040245670825242996,-0.022697795182466507
2.412975788116455,0.02880140393972397,-0.5064088106155396,0.4537651538848877,0.15774014592170715,-0.04139009863138199,-0.022697795182466507
2.4330272674560547,0.02880140393972397,-0.5106050372123718,0.45910581946372986,0.15926603972911835,-0.04177157208323479,-0.023460745811462402
2.4530932903289795,0.029182879254221916,-0.5148012638092041,0.4640650153160095,0.16079194843769073,-0.04139009863138199,-0.02384222112596035
2.4731392860412598,0.029564354568719864,-0.5201418995857239,0.4701686203479767,0.16269932687282562,-0.04139009863138199,-0.02384222112596035
2.493286371231079,0.02994582988321781,-0.5254825949668884,0.47741663455963135,0.164988175034523,-0.04177157208323479,-0.024986648932099342
2.513380765914917,0.02994582988321781,-0.5308232307434082,0.4842832088470459,0.1661325991153717,-0.04253452271223068,-0.02536812424659729
2.5334131717681885,0.03032730519771576,-0.535400927066803,0.48962387442588806,0.16880293190479279,-0.04291599988937378,-0.025749599561095238
2.553521156311035,0.03147173300385475,-0.5403600931167603,0.4964904189109802,0.17223620414733887,-0.04329747334122658,-0.025749599561095238
2.57358980178833,0.03185320645570755,-0.5460822582244873,0.5045014023780823,0.17528800666332245,-0.043678950518369675,-0.026131074875593185
2.59372878074646,0.03185320645570755,-0.5514228940010071,0.5113679766654968,0.17719538509845734,-0.04291599988937378,-0.026131074875593185
2.6137945652008057,0.03223468363285065,-0.5579079985618591,0.5197604298591614,0.1802472025156021,-0.04177157208323479,-0.026512550190091133
2.6339786052703857,0.03376058489084244,-0.5647745728492737,0.5300602912902832,0.1832990050315857,-0.042153049260377884,-0.02689402550458908
2.6540720462799072,0.03452353551983833,-0.5708781480789185,0.5384527444839478,0.18520638346672058,-0.04291599988937378,-0.02727550081908703
2.6741769313812256,0.03604944050312042,-0.577744722366333,0.5468451976776123,0.18749523162841797,-0.043678950518369675,-0.02880140393972397
2.694286346435547,0.03643091395497322,-0.5853742361068726,0.5575265288352966,0.19016556441783905,-0.04406042397022247,-0.029182879254221916
2.714460849761963,0.03604944050312042,-0.5941481590270996,0.5693522691726685,0.19207294285297394,-0.04444190114736557,-0.029564354568719864
2.734485626220703,0.03604944050312042,-0.6033035516738892,0.5796520709991455,0.19436179101467133,-0.04329747334122658,-0.030708782374858856
2.754600763320923,0.03604944050312042,-0.612077534198761,0.5907148718833923,0.1981765478849411,-0.04291599988937378,-0.030708782374858856
2.774688243865967,0.03681239113211632,-0.621614396572113,0.6025406122207642,0.2004653960466385,-0.04444190114736557,-0.030708782374858856
2.794748306274414,0.03757534176111221,-0.6284809708595276,0.6124590039253235,0.20428015291690826,-0.04596780240535736,-0.031090257689356804
2.8148183822631836,0.03833829239010811,-0.6353475451469421,0.6219958662986755,0.20656901597976685,-0.04596780240535736,-0.031090257689356804
2.8348686695098877,0.03833829239010811,-0.6425955891609192,0.6326771974563599,0.21038375794887543,-0.04558632895350456,-0.03185320645570755
2.8550288677215576,0.0394827201962471,-0.6525139212608337,0.6456473469734192,0.212672621011734,-0.04596780240535736,-0.03299763426184654
2.8751089572906494,0.0398641936480999,-0.6612878441810608,0.657473087310791,0.2153429538011551,-0.04482337832450867,-0.03299763426184654
2.895162582397461,0.040627144277095795,-0.6696802973747253,0.6677729487419128,0.21801327168941498,-0.04596780240535736,-0.03337911143898964
2.9154417514801025,0.04139009863138199,-0.6784542798995972,0.6795986890792847,0.22182802855968475,-0.04596780240535736,-0.03376058489084244
2.9355146884918213,0.04253452271223068,-0.6879911422729492,0.6929503083229065,0.22640573978424072,-0.04749370738863945,-0.034142062067985535
2.9555819034576416,0.04329747334122658,-0.6963835954666138,0.7036316394805908,0.2302204966545105,-0.04711223021149635,-0.034142062067985535
2.9756247997283936,0.043678950518369675,-0.7063019871711731,0.7173647880554199,0.23441672325134277,-0.04558632895350456,-0.03490501269698143
2.9957118034362793,0.04406042397022247,-0.7169833183288574,0.7318608164787292,0.23823148012161255,-0.04444190114736557,-0.03528648987412453
3.015796422958374,0.04444190114736557,-0.7265201807022095,0.7440680265426636,0.24204623699188232,-0.04482337832450867,-0.03681239113211632
3.0358965396881104,0.04558632895350456,-0.7372015118598938,0.7581826448440552,0.2466239482164383,-0.04482337832450867,-0.037193864583969116
3.056077003479004,0.04634927958250046,-0.7463569045066833,0.7711527943611145,0.2500572204589844,-0.045204851776361465,-0.03757534176111221
3.0761756896972656,0.046730753034353256,-0.7566567659378052,0.7852674126625061,0.25577935576438904,-0.04558632895350456,-0.038719769567251205
3.096243143081665,0.046730753034353256,-0.7661936283111572,0.7963302135467529,0.2592126429080963,-0.045204851776361465,-0.0394827201962471
3.116288900375366,0.04787518084049225,-0.7745860815048218,0.8077744841575623,0.2634088695049286,-0.04596780240535736,-0.040627144277095795
3.136352777481079,0.048638131469488144,-0.7841230034828186,0.8207446336746216,0.26836803555488586,-0.04558632895350456,-0.040627144277095795
3.156466007232666,0.049782559275627136,-0.7928969264030457,0.8329518437385559,0.27141985297203064,-0.04482337832450867,-0.04100862145423889
3.1765549182891846,0.05092698708176613,-0.8005264401435852,0.84592205286026,0.2756160795688629,-0.04444190114736557,-0.04177157208323479
3.1966004371643066,0.05130846053361893,-0.8077744841575623,0.8558403849601746,0.2809567451477051,-0.04444190114736557,-0.04291599988937378
3.2166826725006104,0.05207141116261482,-0.8161669373512268,0.8691920638084412,0.28706035017967224,-0.043678950518369675,-0.04406042397022247
3.2367730140686035,0.05283436179161072,-0.8260852694511414,0.8813992738723755,0.290875107049942,-0.042153049260377884,-0.045204851776361465
3.2568881511688232,0.05359731614589691,-0.8360036611557007,0.8943694233894348,0.2965972423553467,-0.04444190114736557,-0.046730753034353256
3.2771153450012207,0.054741740226745605,-0.8478294014930725,0.9092469811439514,0.30079346895217896,-0.04253452271223068,-0.04901960864663124
3.297271490097046,0.05703059583902359,-0.8581292629241943,0.9229800701141357,0.3076600432395935,-0.04253452271223068,-0.04940108209848404
3.3173203468322754,0.05855649709701538,-0.8653773069381714,0.9340428709983826,0.3130006790161133,-0.04291599988937378,-0.05092698708176613
3.337364912033081,0.06084534898400307,-0.8703364729881287,0.9439612627029419,0.31757840514183044,-0.04291599988937378,-0.05207141116261482
3.3574695587158203,0.06237125024199486,-0.8760585784912109,0.9557870030403137,0.32520791888237,-0.04177157208323479,-0.05436026677489281
3.37758207321167,0.06351567804813385,-0.8813992738723755,0.9668498039245605,0.33398184180259705,-0.04253452271223068,-0.056267641484737396
3.3976612091064453,0.06351567804813385,-0.8852140307426453,0.9752422571182251,0.3416113555431366,-0.04177157208323479,-0.05855649709701538
3.4181275367736816,0.06313420087099075,-0.889028787612915,0.9828717708587646,0.35076677799224854,-0.0394827201962471,-0.06084534898400307
3.4382681846618652,0.06313420087099075,-0.89131760597229,0.9885938763618469,0.3606851398944855,-0.03795681521296501,-0.06313420087099075
3.458277463912964,0.06389715522527695,-0.8916990756988525,0.9905012845993042,0.3721294105052948,-0.04100862145423889,-0.06580453366041183
3.4783689975738525,0.06466010212898254,-0.8916990756988525,0.9920271635055542,0.38166627287864685,-0.04177157208323479,-0.06771191209554672
3.498471736907959,0.06504157930612564,-0.8916990756988525,0.9924086332321167,0.3900587558746338,-0.043678950518369675,-0.06923781335353851
3.518501043319702,0.06542305648326874,-0.8916990756988525,0.9924086332321167,0.39387351274490356,-0.04291599988937378,-0.0707637146115303
3.5385890007019043,0.06542305648326874,-0.8916990756988525,0.9927901029586792,0.39501792192459106,-0.04177157208323479,-0.07267109304666519
3.5586533546447754,0.06542305648326874,-0.8916990756988525,0.9931715726852417,0.39845120906829834,-0.04139009863138199,-0.07457847148180008
3.578721523284912,0.06542305648326874,-0.8916990756988525,0.9931715726852417,0.4015030264854431,-0.04100862145423889,-0.07534141838550568
3.598830223083496,0.06618601083755493,-0.8916990756988525,0.9935530424118042,0.4056992530822754,-0.04100862145423889,-0.07610437273979187
3.6189165115356445,0.06656748056411743,-0.8916990756988525,0.9939345121383667,0.40951400995254517,-0.04100862145423889,-0.07801175117492676
3.638986825942993,0.06694895774126053,-0.8916990756988525,0.9939345121383667,0.41294726729393005,-0.04100862145423889,-0.07877469807863235
3.6590328216552734,0.06733043491840363,-0.8916990756988525,0.9939345121383667,0.4175249934196472,-0.040627144277095795,-0.08030059933662415
3.679128646850586,0.06771191209554672,-0.8916990756988525,0.994316041469574,0.421339750289917,-0.039101243019104004,-0.08144503086805344
3.6992056369781494,0.06847485899925232,-0.8916990756988525,0.995078980922699,0.4240100681781769,-0.037193864583969116,-0.08297093212604523
3.7192671298980713,0.06847485899925232,-0.8916990756988525,0.9954604506492615,0.42858776450157166,-0.03528648987412453,-0.08449683338403702
3.7393124103546143,0.06847485899925232,-0.8916990756988525,0.995841920375824,0.4327840209007263,-0.03337911143898964,-0.0864042118191719
3.7594528198242188,0.06847485899925232,-0.8916990756988525,0.996604859828949,0.438506156206131,-0.03223468363285065,-0.0875486359000206
3.7794744968414307,0.06885633617639542,-0.8916990756988525,0.9969863295555115,0.44537270069122314,-0.03032730519771576,-0.09021896868944168
3.7995591163635254,0.06885633617639542,-0.8916990756988525,0.9969863295555115,0.4503318965435028,-0.02880140393972397,-0.09212634712457657
3.819765090942383,0.06885633617639542,-0.8916990756988525,0.9969863295555115,0.4556725323200226,-0.027656977996230125,-0.09365224838256836
3.839846611022949,0.06961929053068161,-0.8916990756988525,0.9969863295555115,0.46215763688087463,-0.026512550190091133,-0.09517814964056015
3.8599648475646973,0.07000076025724411,-0.8916990756988525,0.997367799282074,0.4674982726573944,-0.02536812424659729,-0.09708552807569504
3.879990339279175,0.07038223743438721,-0.8916990756988525,0.9977492690086365,0.4728389382362366,-0.024605173617601395,-0.09899290651082993
3.9000582695007324,0.0707637146115303,-0.8916990756988525,0.9977492690086365,0.47856107354164124,-0.022697795182466507,-0.10128175467252731
3.9201369285583496,0.0711451917886734,-0.8916990756988525,0.9981307983398438,0.4839017391204834,-0.02040894143283367,-0.1028076633810997
3.9402968883514404,0.0715266615152359,-0.8916990756988525,0.9981307983398438,0.49000534415245056,-0.018501564860343933,-0.10509651154279709
3.960315227508545,0.071908138692379,-0.8916990756988525,0.9981307983398438,0.4968718886375427,-0.01773861236870289,-0.10662241280078888
3.9804651737213135,0.07267109304666519,-0.8916990756988525,0.9981307983398438,0.5014495849609375,-0.01735713705420494,-0.10891126841306686
4.000516653060913,0.07267109304666519,-0.8916990756988525,0.9988937377929688,0.5064088106155396,-0.016212711110711098,-0.11158160120248795
4.020624876022339,0.07267109304666519,-0.8916990756988525,0.9988937377929688,0.5109865069389343,-0.014686808921396732,-0.11310750246047974
4.040639877319336,0.07267109304666519,-0.8916990756988525,0.9992752075195312,0.5170900821685791,-0.01201647985726595,-0.11577782779932022
4.060758352279663,0.07267109304666519,-0.8916990756988525,0.9988937377929688,0.5243381261825562,-0.009346150793135166,-0.1188296303153038
4.0807788372039795,0.07267109304666519,-0.892080545425415,0.9988937377929688,0.5319676399230957,-0.007438773289322853,-0.12111848592758179
4.100938081741333,0.07267109304666519,-0.892080545425415,0.9988937377929688,0.5407415628433228,-0.005912871100008488,-0.12417028844356537
4.120919466018677,0.07267109304666519,-0.892080545425415,0.9988937377929688,0.5506599545478821,-0.004005493130534887,-0.12722209095954895
4.141218185424805,0.07305257022380829,-0.8924620151519775,0.9992752075195312,0.5563820600509644,-0.0013351644156500697,-0.12874799966812134
4.161433935165405,0.07305257022380829,-0.8928435444831848,0.9992752075195312,0.5621042251586914,0.0013351644156500697,-0.13141833245754242
4.181451797485352,0.07343403995037079,-0.8928435444831848,0.9992752075195312,0.569733738899231,0.0032425422687083483,-0.1348516047000885
4.201501369476318,0.07343403995037079,-0.8928435444831848,0.9992752075195312,0.5788891315460205,0.00476844422519207,-0.13790340721607208
4.221668481826782,0.07343403995037079,-0.8932250142097473,0.9992752075195312,0.5869001150131226,0.005912871100008488,-0.14019227027893066
4.241690397262573,0.07343403995037079,-0.8939879536628723,0.9992752075195312,0.5937666893005371,0.00858320016413927,-0.14286258816719055
4.261747121810913,0.07343403995037079,-0.8939879536628723,0.9992752075195312,0.6006332635879517,0.01125352829694748,-0.14515145123004913
4.2818121910095215,0.07343403995037079,-0.8943694233894348,0.9992752075195312,0.6086442470550537,0.012779430486261845,-0.14744029939174652
4.301932096481323,0.07381551712751389,-0.8947508931159973,0.9992752075195312,0.6162737607955933,0.01430533267557621,-0.1497291475534439
4.321990489959717,0.07381551712751389,-0.8951323628425598,0.9992752075195312,0.6258106231689453,0.018501564860343933,-0.15316243469715118
4.34204363822937,0.07381551712751389,-0.8958953022956848,0.9992752075195312,0.6322957277297974,0.02193484455347061,-0.15583276748657227
4.362236976623535,0.07381551712751389,-0.8962767720222473,0.9992752075195312,0.6422140598297119,0.025749599561095238,-0.15888457000255585
4.382379531860352,0.07381551712751389,-0.8970397710800171,0.9992752075195312,0.6517509818077087,0.028038453310728073,-0.16384375095367432
4.402430772781372,0.07381551712751389,-0.8970397710800171,0.9992752075195312,0.6628137826919556,0.031090257689356804,-0.1676585078239441
4.422515630722046,0.07381551712751389,-0.8978027105331421,0.9992752075195312,0.6731135845184326,0.03490501269698143,-0.17147326469421387
4.443023920059204,0.07381551712751389,-0.8985656499862671,0.9992752075195312,0.6853207945823669,0.039101243019104004,-0.17452506721019745
4.463104486465454,0.07381551712751389,-0.8989471197128296,0.9992752075195312,0.6960021257400513,0.04329747334122658,-0.17948424816131592
4.483165979385376,0.07343403995037079,-0.8993285894393921,0.9988937377929688,0.7074463963508606,0.04711223021149635,-0.1832990050315857
4.503245115280151,0.07343403995037079,-0.9000915288925171,0.9988937377929688,0.7188906669616699,0.053215838968753815,-0.18787670135498047
4.523352384567261,0.07343403995037079,-0.9012359976768494,0.9988937377929688,0.7330052852630615,0.05970092490315437,-0.19321736693382263
4.543391466140747,0.07343403995037079,-0.9023804068565369,0.9985122680664062,0.7516975402832031,0.06733043491840363,-0.1997024416923523
4.563478708267212,0.07343403995037079,-0.9046692848205566,0.9977492690086365,0.7726787328720093,0.07724879682064056,-0.20656901597976685
4.583578586578369,0.07343403995037079,-0.9061951637268066,0.997367799282074,0.7932783961296082,0.08449683338403702,-0.2153429538011551
4.603717803955078,0.07343403995037079,-0.9073395729064941,0.9969863295555115,0.813115119934082,0.08983749151229858,-0.22144655883312225
4.6237475872039795,0.07343403995037079,-0.9084840416908264,0.9969863295555115,0.8329518437385559,0.09403372555971146,-0.2286945879459381
4.643880128860474,0.07343403995037079,-0.9088655114173889,0.9969863295555115,0.848210871219635,0.1024261862039566,-0.23441672325134277
4.663888692855835,0.07267109304666519,-0.9088655114173889,0.996604859828949,0.8642328381538391,0.10929274559020996,-0.24128328263759613
4.684008598327637,0.06961929053068161,-0.9092469811439514,0.9939345121383667,0.8821622133255005,0.12111848592758179,-0.24891279637813568
4.70404839515686,0.06466010212898254,-0.9107728600502014,0.9893568158149719,0.9023804068565369,0.14133669435977936,-0.2595941126346588
4.724146366119385,0.06237125024199486,-0.9142061471939087,0.9866865277290344,0.9225986003875732,0.15545128285884857,-0.26951247453689575
4.744201183319092,0.06046387553215027,-0.9210727214813232,0.9866865277290344,0.9454871416091919,0.16422522068023682,-0.2786678969860077
4.764272451400757,0.06008239835500717,-0.9287022352218628,0.9874494671821594,0.9649423956871033,0.16918440163135529,-0.28362706303596497
4.784350633621216,0.06008239835500717,-0.9336614012718201,0.9874494671821594,0.9748607873916626,0.1684214472770691,-0.28667888045310974
4.804468870162964,0.06008239835500717,-0.9355688095092773,0.9870679974555969,0.9798199534416199,0.1661325991153717,-0.28896772861480713
4.824499130249023,0.06008239835500717,-0.9363317489624023,0.9874494671821594,0.9828717708587646,0.1668955534696579,-0.28973066806793213
4.844651460647583,0.06008239835500717,-0.9359502792358398,0.9878309369087219,0.9847791194915771,0.16994735598564148,-0.2912565767765045
4.8647141456604,0.06008239835500717,-0.9351872801780701,0.9878309369087219,0.9878309369087219,0.17795833945274353,-0.2935454249382019
4.885056495666504,0.056267641484737396,-0.9351872801780701,0.9863049983978271,0.9977492690086365,0.19130998849868774,-0.29812315106391907
4.905252933502197,0.05130846053361893,-0.9355688095092773,0.9798199534416199,1.0118639469146729,0.20695048570632935,-0.30422675609588623
4.92533802986145,0.05054550990462303,-0.9359502792358398,0.9744792580604553,1.0282673835754395,0.21648737788200378,-0.3099488914012909
4.945365905761719,0.05054550990462303,-0.9374761581420898,0.9725719094276428,1.0416189432144165,0.21763180196285248,-0.31414511799812317
4.965444803237915,0.05054550990462303,-0.9401465058326721,0.9718089699745178,1.051918864250183,0.2161058932542801,-0.31795987486839294
4.985576391220093,0.05054550990462303,-0.9416723847389221,0.9718089699745178,1.054970622062683,0.2157244235277176,-0.31948578357696533
5.005724668502808,0.05054550990462303,-0.9412909150123596,0.9721904397010803,1.0576409101486206,0.21725031733512878,-0.32101166248321533
5.025718927383423,0.05054550990462303,-0.9401465058326721,0.9725719094276428,1.0599298477172852,0.22411687672138214,-0.3225375711917877
5.045809268951416,0.04749370738863945,-0.9397650361061096,0.9706645011901855,1.0664149522781372,0.23594263195991516,-0.3255893886089325
5.065998554229736,0.04177157208323479,-0.9405279755592346,0.9657053351402283,1.0755703449249268,0.25196459889411926,-0.33093002438545227
5.086093902587891,0.04100862145423889,-0.9416723847389221,0.961509108543396,1.0889219045639038,0.2653162479400635,-0.3370336592197418
5.106092929840088,0.04100862145423889,-0.9451056718826294,0.961509108543396,1.100366234779358,0.26722362637519836,-0.3400854468345642
5.1262476444244385,0.04100862145423889,-0.9500648379325867,0.9618905782699585,1.109140157699585,0.26684215664863586,-0.343900203704834
5.1463539600372314,0.04100862145423889,-0.952735185623169,0.9618905782699585,1.114099383354187,0.265697717666626,-0.34504464268684387
5.16639518737793,0.04100862145423889,-0.952735185623169,0.9618905782699585,1.1167696714401245,0.2634088695049286,-0.34580758213996887
5.186566352844238,0.04100862145423889,-0.952735185623169,0.9618905782699585,1.1190584897994995,0.2653162479400635,-0.34657052159309387
5.20656418800354,0.04139009863138199,-0.951972246170044,0.9630350470542908,1.1198214292526245,0.27027541399002075,-0.34809643030166626
5.226655721664429,0.04100862145423889,-0.9515907764434814,0.9630350470542908,1.1247806549072266,0.2801937758922577,-0.34962233901023865
5.247055530548096,0.035667963325977325,-0.951972246170044,0.9618905782699585,1.1327916383743286,0.2931639552116394,-0.3526741564273834
5.2671215534210205,0.03337911143898964,-0.954261064529419,0.9565499424934387,1.1434729099273682,0.30537116527557373,-0.3580147922039032
5.28728461265564,0.032616160809993744,-0.9565499424934387,0.9546425342559814,1.1552987098693848,0.308041512966156,-0.3614480793476105
5.3073132038116455,0.032616160809993744,-0.9584572911262512,0.954261064529419,1.1648355722427368,0.3065156042575836,-0.36373692750930786
5.327526092529297,0.03223468363285065,-0.9603646993637085,0.9538795948028564,1.1705577373504639,0.30308231711387634,-0.36411839723587036
5.347621202468872,0.03185320645570755,-0.9611276388168335,0.954261064529419,1.1728465557098389,0.30079346895217896,-0.36449989676475525
5.367687940597534,0.03223468363285065,-0.960746169090271,0.9546425342559814,1.1751353740692139,0.30384528636932373,-0.36526283621788025
5.387758493423462,0.032616160809993744,-0.959983229637146,0.9557870030403137,1.1766613721847534,0.3091859221458435,-0.36640727519989014
5.407885313034058,0.03299763426184654,-0.959983229637146,0.9565499424934387,1.1812390089035034,0.31948578357696533,-0.36793315410614014
5.427961826324463,0.029182879254221916,-0.960746169090271,0.954261064529419,1.188105583190918,0.33207446336746216,-0.3713664412498474
5.448037385940552,0.02727550081908703,-0.961509108543396,0.9496833682060242,1.195353627204895,0.3435187339782715,-0.3755626678466797
5.468142509460449,0.027656977996230125,-0.9630350470542908,0.9493018984794617,1.2083238363265991,0.343900203704834,-0.3770885765552521
5.488315105438232,0.027656977996230125,-0.9660868048667908,0.951972246170044,1.2182421684265137,0.3377965986728668,-0.37937742471694946
5.508336782455444,0.027656977996230125,-0.9683756828308105,0.954261064529419,1.2247272729873657,0.3393225073814392,-0.38014039397239685
5.528424024581909,0.027656977996230125,-0.9691386222839355,0.9561684727668762,1.2300678491592407,0.3397039771080017,-0.38166627287864685
5.548459768295288,0.027656977996230125,-0.967994213104248,0.9580758213996887,1.2342641353607178,0.34618905186653137,-0.38281071186065674
5.568542003631592,0.026131074875593185,-0.967231273651123,0.9573128819465637,1.2411307096481323,0.3587777614593506,-0.3854810297489166
5.588659286499023,0.02231631986796856,-0.9660868048667908,0.9538795948028564,1.2457083463668823,0.3732738196849823,-0.3889143168926239
5.60870885848999,0.020027466118335724,-0.9664682745933533,0.9485389590263367,1.2502861022949219,0.38281071186065674,-0.3923476040363312
5.62879490852356,0.021171892061829567,-0.9683756828308105,0.9489204287528992,1.257534146308899,0.38166627287864685,-0.39425498247146606
5.648906469345093,0.021171892061829567,-0.9710460305213928,0.9500648379325867,1.2666895389556885,0.3770885765552521,-0.39463645219802856
5.668964385986328,0.021171892061829567,-0.9721904397010803,0.951209306716919,1.269741415977478,0.3725108802318573,-0.39501792192459106
5.689080238342285,0.021171892061829567,-0.9718089699745178,0.9523537158966064,1.273556113243103,0.3713664412498474,-0.39578089118003845
5.709120035171509,0.021553369238972664,-0.9706645011901855,0.9538795948028564,1.275844931602478,0.3759441375732422,-0.39654383063316345
5.729201555252075,0.021171892061829567,-0.9706645011901855,0.9531166553497314,1.2773709297180176,0.387006938457489,-0.39806973934173584
5.749263286590576,0.01888304017484188,-0.9699015617370605,0.9508277773857117,1.283092975616455,0.403410404920578,-0.4003585875034332
5.769327163696289,0.016594186425209045,-0.9714275002479553,0.9473945498466492,1.284618854522705,0.40951400995254517,-0.4018844962120056
5.789429187774658,0.016594186425209045,-0.9733348488807678,0.9462500810623169,1.2911039590835571,0.4064621925354004,-0.4026474356651306
5.8095197677612305,0.016594186425209045,-0.9748607873916626,0.9458686113357544,1.2956817150115967,0.3995956480503082,-0.4022659659385681
5.829594373703003,0.01583123579621315,-0.9756237268447876,0.9454871416091919,1.2987334728240967,0.3908216953277588,-0.4015030264854431
5.849644660949707,0.016212711110711098,-0.9756237268447876,0.9454871416091919,1.3014038801193237,0.3912031650543213,-0.4018844962120056
5.869731664657593,0.016594186425209045,-0.9752422571182251,0.9462500810623169,1.3029297590255737,0.39387351274490356,-0.4018844962120056
5.889896631240845,0.016975661739706993,-0.9744792580604553,0.9481574892997742,1.3048371076583862,0.39883267879486084,-0.4026474356651306
5.90988826751709,0.01583123579621315,-0.9748607873916626,0.9470130205154419,1.3071259260177612,0.41371023654937744,-0.403410404920578
5.929979085922241,0.012779430486261845,-0.9748607873916626,0.9424353241920471,1.3086519241333008,0.4209582805633545,-0.4053177833557129
5.950061082839966,0.01430533267557621,-0.9748607873916626,0.9412909150123596,1.3120851516723633,0.4236285984516144,-0.4076066315174103
5.970114707946777,0.01430533267557621,-0.9752422571182251,0.9420538544654846,1.3181887865066528,0.41561761498451233,-0.4068436622619629
5.990225791931152,0.01430533267557621,-0.9767681360244751,0.9420538544654846,1.3231478929519653,0.41409170627593994,-0.4068436622619629
6.010233640670776,0.01506828423589468,-0.9767681360244751,0.9428167939186096,1.3258183002471924,0.41180285811424255,-0.4072251319885254
6.030407905578613,0.016212711110711098,-0.9767681360244751,0.9443427324295044,1.3292515277862549,0.41523614525794983,-0.4068436622619629
6.050468683242798,0.01583123579621315,-0.9760051965713501,0.9458686113357544,1.3323034048080444,0.4190509021282196,-0.4072251319885254
6.070585250854492,0.013923857361078262,-0.9752422571182251,0.9435797929763794,1.3338292837142944,0.43202105164527893,-0.4083695709705353
6.091408729553223,0.01125352829694748,-0.9744792580604553,0.9390020370483398,1.334210753440857,0.439269095659256,-0.40951400995254517
6.111584901809692,0.012779430486261845,-0.9748607873916626,0.9393835067749023,1.338025450706482,0.4396505653858185,-0.40989547967910767
6.131728172302246,0.012779430486261845,-0.9760051965713501,0.9405279755592346,1.341458797454834,0.42858776450157166,-0.40951400995254517
6.151731252670288,0.01201647985726595,-0.9763866662979126,0.9420538544654846,1.3441290855407715,0.42515450716018677,-0.40951400995254517
6.171846866607666,0.012397955171763897,-0.9756237268447876,0.9420538544654846,1.346799373626709,0.4240100681781769,-0.4091325104236603
6.191930294036865,0.013542382046580315,-0.9737163186073303,0.9431982636451721,1.349469780921936,0.42706188559532166,-0.40989547967910767
6.2120397090911865,0.011635004542768002,-0.9729533791542053,0.9397650361061096,1.3506141901016235,0.440032035112381,-0.40989547967910767
6.232081890106201,0.0078202486038208,-0.9721904397010803,0.9367132186889648,1.3498512506484985,0.4514763057231903,-0.41218432784080505
6.2527174949646,0.007057297509163618,-0.9725719094276428,0.9336614012718201,1.350232720375061,0.45719844102859497,-0.41294726729393005
6.2728047370910645,0.008201723918318748,-0.9737163186073303,0.9340428709983826,1.352521538734436,0.4522392749786377,-0.41294726729393005
6.292968988418579,0.009727626107633114,-0.9744792580604553,0.9340428709983826,1.3555734157562256,0.44232088327407837,-0.41256579756736755
6.313084125518799,0.012779430486261845,-0.9748607873916626,0.9351872801780701,1.358243703842163,0.4365987777709961,-0.41065841913223267
6.3330793380737305,0.01583123579621315,-0.9748607873916626,0.9370946884155273,1.3601510524749756,0.4354543387889862,-0.40989547967910767
6.3531904220581055,0.016212711110711098,-0.9740977883338928,0.9416723847389221,1.3616769313812256,0.4362172782421112,-0.40951400995254517
6.373283386230469,0.012779430486261845,-0.9721904397010803,0.9397650361061096,1.360532522201538,0.44728007912635803,-0.41103988885879517
6.393315076828003,0.009727626107633114,-0.970283031463623,0.9317540526390076,1.359769582748413,0.45757991075515747,-0.41180285811424255
6.41342568397522,0.010490577667951584,-0.968757152557373,0.9317540526390076,1.360532522201538,0.45948728919029236,-0.41256579756736755
6.433599948883057,0.009346150793135166,-0.9710460305213928,0.9325169920921326,1.3624398708343506,0.4510948359966278,-0.41256579756736755
6.453595876693726,0.010490577667951584,-0.9718089699745178,0.9340428709983826,1.3635843992233276,0.4514763057231903,-0.41256579756736755
6.473708868026733,0.01201647985726595,-0.9714275002479553,0.9344243407249451,1.3658732175827026,0.44117647409439087,-0.41103988885879517
6.4938061237335205,0.01430533267557621,-0.9714275002479553,0.9359502792358398,1.3673990964889526,0.44079500436782837,-0.41103988885879517
6.513869524002075,0.01506828423589468,-0.9710460305213928,0.9397650361061096,1.3693064451217651,0.4404135048389435,-0.41065841913223267
6.5340049266815186,0.013923857361078262,-0.9706645011901855,0.9405279755592346,1.3689249753952026,0.4526207447052002,-0.41256579756736755
6.554128646850586,0.010872052982449532,-0.970283031463623,0.9359502792358398,1.3681620359420776,0.45986875891685486,-0.41218432784080505
6.574307203292847,0.010109102353453636,-0.9714275002479553,0.9344243407249451,1.3685435056686401,0.4648279547691345,-0.41409170627593994
6.594321966171265,0.008964675478637218,-0.9718089699745178,0.9336614012718201,1.3685435056686401,0.46292057633399963,-0.41371023654937744
6.614394903182983,0.009727626107633114,-0.9756237268447876,0.9348058104515076,1.3715953826904297,0.45643550157546997,-0.41332876682281494
6.634483098983765,0.01201647985726595,-0.9771496057510376,0.9363317489624023,1.3746471405029297,0.4495689272880554,-0.41180285811424255
6.654717683792114,0.014686808921396732,-0.9775310754776001,0.9397650361061096,1.3769359588623047,0.44460976123809814,-0.41142138838768005
6.674766778945923,0.016594186425209045,-0.9771496057510376,0.9424353241920471,1.3788433074951172,0.44384679198265076,-0.41103988885879517
6.694952487945557,0.01506828423589468,-0.9748607873916626,0.9443427324295044,1.3784618377685547,0.4491874575614929,-0.41103988885879517
6.71508264541626,0.013160906732082367,-0.9725719094276428,0.9424353241920471,1.3761730194091797,0.45872434973716736,-0.41256579756736755
6.73518967628479,0.008201723918318748,-0.9706645011901855,0.9363317489624023,1.3746471405029297,0.4709315598011017,-0.41218432784080505
6.75524640083313,0.00667582219466567,-0.9706645011901855,0.9306095838546753,1.3735027313232422,0.47665369510650635,-0.41409170627593994
6.775306701660156,0.007057297509163618,-0.9725719094276428,0.9317540526390076,1.3754100799560547,0.4674982726573944,-0.41332876682281494
6.795400857925415,0.009727626107633114,-0.9756237268447876,0.9340428709983826,1.3796063661575317,0.45834288001060486,-0.41065841913223267
6.815466642379761,0.01201647985726595,-0.9782940149307251,0.9348058104515076,1.3803693056106567,0.44651713967323303,-0.4083695709705353
6.835535049438477,0.014686808921396732,-0.9786755442619324,0.9359502792358398,1.3822766542434692,0.44155794382095337,-0.4079881012439728
6.855607986450195,0.018120087683200836,-0.9779125452041626,0.9386205673217773,1.3845654726028442,0.44232088327407837,-0.4076066315174103
6.875715255737305,0.016975661739706993,-0.9756237268447876,0.9412909150123596,1.3834210634231567,0.44537270069122314,-0.4083695709705353
6.895832300186157,0.01583123579621315,-0.9733348488807678,0.9431982636451721,1.3796063661575317,0.45681697130203247,-0.4091325104236603
6.9159064292907715,0.010490577667951584,-0.9706645011901855,0.9382390975952148,1.3765544891357422,0.4640650153160095,-0.4083695709705353
6.936032056808472,0.010109102353453636,-0.970283031463623,0.9298466444015503,1.3757915496826172,0.47436484694480896,-0.41027694940567017
6.956053733825684,0.009346150793135166,-0.9706645011901855,0.9298466444015503,1.3754100799560547,0.4686427116394043,-0.41027694940567017
6.976131916046143,0.01201647985726595,-0.9729533791542053,0.9340428709983826,1.3799878358840942,0.4560540020465851,-0.4079881012439728
6.996175527572632,0.01506828423589468,-0.9744792580604553,0.9351872801780701,1.3822766542434692,0.44804301857948303,-0.4064621925354004
7.01628851890564,0.016975661739706993,-0.9748607873916626,0.9367132186889648,1.3830395936965942,0.44346532225608826,-0.4064621925354004
7.036349773406982,0.01888304017484188,-0.9729533791542053,0.9401465058326721,1.3860913515090942,0.44537270069122314,-0.4056992530822754
7.056545257568359,0.01735713705420494,-0.9699015617370605,0.9409094452857971,1.3841840028762817,0.4545281231403351,-0.4068436622619629
7.0766191482543945,0.01430533267557621,-0.967994213104248,0.9393835067749023,1.3796063661575317,0.46292057633399963,-0.4076066315174103
7.096714019775391,0.008964675478637218,-0.9664682745933533,0.9348058104515076,1.3761730194091797,0.47398337721824646,-0.4083695709705353
7.116827487945557,0.006294346414506435,-0.9664682745933533,0.9290837049484253,1.3727397918701172,0.47894254326820374,-0.4083695709705353
7.136858940124512,0.008964675478637218,-0.9676127433776855,0.9275577664375305,1.3727397918701172,0.47703516483306885,-0.4083695709705353
7.1569294929504395,0.01125352829694748,-0.9718089699745178,0.9344243407249451,1.3769359588623047,0.45872434973716736,-0.4072251319885254
7.176974296569824,0.01506828423589468,-0.9733348488807678,0.9370946884155273,1.3807507753372192,0.4514763057231903,-0.4056992530822754
7.197063207626343,0.01926451548933983,-0.9729533791542053,0.9409094452857971,1.3826581239700317,0.44613564014434814,-0.4056992530822754
7.217146635055542,0.01926451548933983,-0.9699015617370605,0.9424353241920471,1.3841840028762817,0.44575417041778564,-0.4045548141002655
7.2372050285339355,0.01583123579621315,-0.9664682745933533,0.9412909150123596,1.3788433074951172,0.46025025844573975,-0.4060807228088379
7.2572996616363525,0.010872052982449532,-0.9626535177230835,0.9348058104515076,1.3754100799560547,0.47512778639793396,-0.4079881012439728
7.277364492416382,0.00667582219466567,-0.9611276388168335,0.9283207654953003,1.3750286102294922,0.4835202693939209,-0.40951400995254517
7.29740834236145,0.004005493130534887,-0.9611276388168335,0.9233615398406982,1.3704508543014526,0.49114975333213806,-0.40989547967910767
7.317484617233276,0.00858320016413927,-0.9618905782699585,0.9267948269844055,1.3727397918701172,0.4797055125236511,-0.41103988885879517
7.337563991546631,0.010490577667951584,-0.9657053351402283,0.9298466444015503,1.3776988983154297,0.46063172817230225,-0.4076066315174103
7.357694625854492,0.012779430486261845,-0.9691386222839355,0.9336614012718201,1.3780803680419922,0.4507133662700653,-0.4068436622619629
7.377751588821411,0.01430533267557621,-0.967994213104248,0.9355688095092773,1.3811322450637817,0.4503318965435028,-0.4056992530822754
7.397953748703003,0.016594186425209045,-0.9660868048667908,0.9401465058326721,1.3818951845169067,0.4514763057231903,-0.4056992530822754
7.417965650558472,0.01506828423589468,-0.9641794562339783,0.9409094452857971,1.3803693056106567,0.4682612419128418,-0.4068436622619629
7.438109636306763,0.012397955171763897,-0.962272047996521,0.9390020370483398,1.3776988983154297,0.47856107354164124,-0.4079881012439728
7.458083391189575,0.008201723918318748,-0.9611276388168335,0.9367132186889648,1.3761730194091797,0.4839017391204834,-0.4083695709705353
7.478190660476685,0.00476844422519207,-0.9611276388168335,0.9302281141281128,1.3746471405029297,0.4873350262641907,-0.4087510406970978
7.498283863067627,0.007057297509163618,-0.962272047996521,0.9260318875312805,1.3761730194091797,0.4846646785736084,-0.4083695709705353
7.518334865570068,0.010872052982449532,-0.9645609259605408,0.926413357257843,1.3811322450637817,0.4709315598011017,-0.4072251319885254
7.538832187652588,0.01506828423589468,-0.967231273651123,0.9287022352218628,1.3838025331497192,0.45872434973716736,-0.4053177833557129
7.558918714523315,0.018120087683200836,-0.968757152557373,0.9313725233078003,1.3857098817825317,0.4510948359966278,-0.4053177833557129
7.578992128372192,0.02193484455347061,-0.967994213104248,0.9359502792358398,1.3857098817825317,0.4499503970146179,-0.4053177833557129
7.599076986312866,0.018120087683200836,-0.9660868048667908,0.9401465058326721,1.3818951845169067,0.46101319789886475,-0.4045548141002655
7.619141578674316,0.01201647985726595,-0.9641794562339783,0.9405279755592346,1.3788433074951172,0.4686427116394043,-0.4068436622619629
7.639225244522095,0.005531395319849253,-0.962272047996521,0.9386205673217773,1.3757915496826172,0.47894254326820374,-0.4087510406970978
7.659295558929443,0.000572213320992887,-0.9618905782699585,0.9367132186889648,1.3738842010498047,0.4835202693939209,-0.4083695709705353
7.679363250732422,-0.0024795911740511656,-0.962272047996521,0.9325169920921326,1.3735027313232422,0.4850461483001709,-0.4083695709705353
7.699412107467651,0.000572213320992887,-0.9637979865074158,0.9279392957687378,1.3765544891357422,0.4808499217033386,-0.4083695709705353
7.719500780105591,0.002861066721379757,-0.9664682745933533,0.926413357257843,1.3811322450637817,0.4674982726573944,-0.4056992530822754
7.739567041397095,0.005149920005351305,-0.9691386222839355,0.926413357257843,1.3849469423294067,0.45834288001060486,-0.4053177833557129
7.759636878967285,0.007057297509163618,-0.9691386222839355,0.9267948269844055,1.3876173496246338,0.4537651538848877,-0.4037918746471405
7.779680252075195,0.010109102353453636,-0.967994213104248,0.9283207654953003,1.3879988193511963,0.4556725323200226,-0.404173344373703
7.79977011680603,0.008964675478637218,-0.9676127433776855,0.9317540526390076,1.3857098817825317,0.46215763688087463,-0.4037918746471405
7.819921016693115,0.00858320016413927,-0.9664682745933533,0.9336614012718201,1.3803693056106567,0.47474631667137146,-0.4056992530822754
7.839915752410889,0.007057297509163618,-0.9657053351402283,0.9332799315452576,1.3765544891357422,0.4839017391204834,-0.4056992530822754
7.860013246536255,0.005531395319849253,-0.9653238654136658,0.9321355223655701,1.3742656707763672,0.4865720570087433,-0.4072251319885254
7.8800976276397705,0.00476844422519207,-0.9657053351402283,0.927176296710968,1.3727397918701172,0.4869535267353058,-0.4076066315174103
7.9001624584198,0.005531395319849253,-0.9660868048667908,0.925650417804718,1.3746471405029297,0.47703516483306885,-0.4068436622619629
7.920218229293823,0.00667582219466567,-0.9676127433776855,0.926413357257843,1.3780803680419922,0.4682612419128418,-0.4056992530822754
7.940306663513184,0.009346150793135166,-0.9683756828308105,0.9279392957687378,1.3803693056106567,0.46215763688087463,-0.404936283826828
7.960375547409058,0.012779430486261845,-0.9683756828308105,0.9313725233078003,1.3838025331497192,0.46063172817230225,-0.4045548141002655
7.980455160140991,0.01430533267557621,-0.9683756828308105,0.9348058104515076,1.3853284120559692,0.46101319789886475,-0.403410404920578
8.000535488128662,0.011635004542768002,-0.967994213104248,0.9359502792358398,1.3818951845169067,0.4732204079627991,-0.404936283826828
8.020676136016846,0.00858320016413927,-0.967231273651123,0.9351872801780701,1.3780803680419922,0.4808499217033386,-0.4045548141002655
8.040701389312744,0.005531395319849253,-0.9664682745933533,0.9332799315452576,1.3765544891357422,0.4842832088470459,-0.4068436622619629
8.06076169013977,0.005531395319849253,-0.9664682745933533,0.9294651746749878,1.3757915496826172,0.4873350262641907,-0.4079881012439728
8.080832242965698,0.00858320016413927,-0.967994213104248,0.927176296710968,1.3784618377685547,0.4819943606853485,-0.4076066315174103
8.100910425186157,0.008964675478637218,-0.970283031463623,0.9332799315452576,1.3811322450637817,0.46177613735198975,-0.4037918746471405
8.121027708053589,0.01201647985726595,-0.9729533791542053,0.9393835067749023,1.3811322450637817,0.45643550157546997,-0.404173344373703
8.141135931015015,0.01583123579621315,-0.9714275002479553,0.9420538544654846,1.3826581239700317,0.4522392749786377,-0.4018844962120056
8.161155462265015,0.013160906732082367,-0.968757152557373,0.9420538544654846,1.3830395936965942,0.46101319789886475,-0.4007400572299957
8.181273698806763,0.009346150793135166,-0.9664682745933533,0.9382390975952148,1.3792248964309692,0.47398337721824646,-0.4026474356651306
8.20139765739441,0.005912871100008488,-0.9649423956871033,0.9332799315452576,1.3792248964309692,0.4846646785736084,-0.404173344373703
8.221466302871704,0.0024795911740511656,-0.9641794562339783,0.926413357257843,1.3769359588623047,0.49267566204071045,-0.404936283826828
8.242176532745361,0.004005493130534887,-0.9660868048667908,0.925650417804718,1.3769359588623047,0.4858091175556183,-0.4053177833557129
8.262332677841187,0.008201723918318748,-0.969520092010498,0.9279392957687378,1.3822766542434692,0.4697871506214142,-0.404173344373703
8.282379150390625,0.012779430486261845,-0.9721904397010803,0.9287022352218628,1.3838025331497192,0.46139466762542725,-0.4026474356651306
8.302464008331299,0.016975661739706993,-0.9725719094276428,0.9302281141281128,1.3849469423294067,0.4499503970146179,-0.4007400572299957
8.322547197341919,0.021553369238972664,-0.9710460305213928,0.9332799315452576,1.3864728212356567,0.4514763057231903,-0.3995956480503082
8.342649698257446,0.02079041674733162,-0.9691386222839355,0.9359502792358398,1.3857098817825317,0.4533836841583252,-0.3999771177768707
8.362704992294312,0.01583123579621315,-0.9668498039245605,0.9374761581420898,1.3792248964309692,0.4640650153160095,-0.4018844962120056
8.382896423339844,0.011635004542768002,-0.9649423956871033,0.9355688095092773,1.3746471405029297,0.47398337721824646,-0.4018844962120056
8.402965545654297,0.005912871100008488,-0.9641794562339783,0.9313725233078003,1.3723583221435547,0.4808499217033386,-0.404173344373703
8.423042297363281,0.00858320016413927,-0.9641794562339783,0.9267948269844055,1.3727397918701172,0.4819943606853485,-0.4056992530822754
8.443079710006714,0.011635004542768002,-0.9664682745933533,0.9294651746749878,1.3769359588623047,0.4728389382362366,-0.4045548141002655
8.46322751045227,0.012779430486261845,-0.969520092010498,0.9359502792358398,1.3807507753372192,0.4518577754497528,-0.4030289053916931
8.483254671096802,0.014686808921396732,-0.9721904397010803,0.9405279755592346,1.3841840028762817,0.44575417041778564,-0.4022659659385681
8.503338813781738,0.016212711110711098,-0.9714275002479553,0.9454871416091919,1.3841840028762817,0.44346532225608826,-0.4011215269565582
8.52344536781311,0.014686808921396732,-0.968757152557373,0.9443427324295044,1.3826581239700317,0.46063172817230225,-0.4018844962120056
8.543496370315552,0.013923857361078262,-0.9660868048667908,0.9443427324295044,1.3799878358840942,0.4713130295276642,-0.403410404920578
8.56356430053711,0.012779430486261845,-0.9645609259605408,0.9431982636451721,1.3796063661575317,0.4797055125236511,-0.4056992530822754
8.583621263504028,0.009727626107633114,-0.9645609259605408,0.9409094452857971,1.3765544891357422,0.4819943606853485,-0.4056992530822754
8.603759050369263,0.0078202486038208,-0.9653238654136658,0.9351872801780701,1.3742656707763672,0.4812313914299011,-0.4064621925354004
8.623886346817017,0.010490577667951584,-0.9668498039245605,0.9325169920921326,1.3757915496826172,0.4728389382362366,-0.4064621925354004
8.643906831741333,0.013542382046580315,-0.967994213104248,0.9332799315452576,1.3796063661575317,0.46101319789886475,-0.4053177833557129
8.664047241210938,0.016975661739706993,-0.9691386222839355,0.9336614012718201,1.3815137147903442,0.45719844102859497,-0.4037918746471405
8.684082746505737,0.019645990803837776,-0.9691386222839355,0.9367132186889648,1.3826581239700317,0.4541466534137726,-0.403410404920578
8.704143524169922,0.01926451548933983,-0.967994213104248,0.9397650361061096,1.3815137147903442,0.45834288001060486,-0.4037918746471405
8.724410057067871,0.01506828423589468,-0.9657053351402283,0.9390020370483398,1.3761730194091797,0.4720759987831116,-0.404936283826828
8.744523048400879,0.010872052982449532,-0.9641794562339783,0.9367132186889648,1.3738842010498047,0.47894254326820374,-0.4053177833557129
8.764575242996216,0.006294346414506435,-0.9641794562339783,0.9332799315452576,1.3715953826904297,0.4854276478290558,-0.4076066315174103
8.784717798233032,0.007438773289322853,-0.9645609259605408,0.9287022352218628,1.3719768524169922,0.4873350262641907,-0.4079881012439728
8.804823875427246,0.009346150793135166,-0.967994213104248,0.9340428709983826,1.3776988983154297,0.47550925612449646,-0.4068436622619629
8.824903964996338,0.010490577667951584,-0.9721904397010803,0.9405279755592346,1.3799878358840942,0.46139466762542725,-0.404173344373703
8.84501338005066,0.01201647985726595,-0.9729533791542053,0.9435797929763794,1.3818951845169067,0.4533836841583252,-0.403410404920578
8.865064859390259,0.014686808921396732,-0.9710460305213928,0.9473945498466492,1.3830395936965942,0.4537651538848877,-0.403410404920578
8.885149478912354,0.013923857361078262,-0.9683756828308105,0.9458686113357544,1.3826581239700317,0.4694056510925293,-0.403410404920578
8.905257225036621,0.013923857361078262,-0.967231273651123,0.9454871416091919,1.3799878358840942,0.4808499217033386,-0.404936283826828
8.925466299057007,0.013160906732082367,-0.9664682745933533,0.9439612627029419,1.3796063661575317,0.4865720570087433,-0.4068436622619629
8.945554971694946,0.010490577667951584,-0.9664682745933533,0.9405279755592346,1.3788433074951172,0.48962387442588806,-0.4076066315174103
8.965626955032349,0.010109102353453636,-0.967231273651123,0.9378576278686523,1.3769359588623047,0.4877164959907532,-0.4079881012439728
8.985812425613403,0.010872052982449532,-0.968757152557373,0.9348058104515076,1.3792248964309692,0.47474631667137146,-0.4068436622619629
9.00597882270813,0.012779430486261845,-0.969520092010498,0.9344243407249451,1.3811322450637817,0.4659723937511444,-0.4064621925354004
9.026005983352661,0.01430533267557621,-0.970283031463623,0.9351872801780701,1.3815137147903442,0.45986875891685486,-0.4056992530822754
9.04605507850647,0.016212711110711098,-0.969520092010498,0.9363317489624023,1.3834210634231567,0.46101319789886475,-0.4053177833557129
9.066157579421997,0.016975661739706993,-0.968757152557373,0.9397650361061096,1.3830395936965942,0.46368351578712463,-0.4053177833557129
9.086238384246826,0.016212711110711098,-0.967994213104248,0.9416723847389221,1.3803693056106567,0.47894254326820374,-0.4064621925354004
9.106324434280396,0.013923857361078262,-0.967231273651123,0.9401465058326721,1.3788433074951172,0.4835202693939209,-0.4072251319885254
9.126398086547852,0.009346150793135166,-0.9668498039245605,0.9370946884155273,1.3780803680419922,0.4846646785736084,-0.4079881012439728
9.146456956863403,0.009727626107633114,-0.9664682745933533,0.9313725233078003,1.3757915496826172,0.4846646785736084,-0.4087510406970978
9.166538953781128,0.01201647985726595,-0.967231273651123,0.9287022352218628,1.3796063661575317,0.47627222537994385,-0.4076066315174103
9.186751127243042,0.01506828423589468,-0.9691386222839355,0.9332799315452576,1.3834210634231567,0.4648279547691345,-0.4056992530822754
9.206836223602295,0.01926451548933983,-0.9710460305213928,0.9397650361061096,1.3834210634231567,0.45872434973716736,-0.4053177833557129
9.226905107498169,0.021171892061829567,-0.970283031463623,0.9439612627029419,1.3868544101715088,0.45757991075515747,-0.4030289053916931
9.24696135520935,0.019645990803837776,-0.9691386222839355,0.9458686113357544,1.3834210634231567,0.4674982726573944,-0.4037918746471405
9.267138957977295,0.01583123579621315,-0.967231273651123,0.9454871416091919,1.3792248964309692,0.4804684519767761,-0.4037918746471405
9.287219762802124,0.012397955171763897,-0.9660868048667908,0.9431982636451721,1.3784618377685547,0.4861905872821808,-0.4068436622619629
9.30725383758545,0.0078202486038208,-0.9664682745933533,0.9401465058326721,1.3765544891357422,0.4873350262641907,-0.4072251319885254
9.327433109283447,0.009727626107633114,-0.9668498039245605,0.9359502792358398,1.3769359588623047,0.4888609051704407,-0.4076066315174103
9.347456693649292,0.013923857361078262,-0.9691386222839355,0.9390020370483398,1.3838025331497192,0.4697871506214142,-0.4056992530822754
9.36763858795166,0.015449759550392628,-0.9721904397010803,0.9454871416091919,1.3857098817825317,0.45643550157546997,-0.404173344373703
9.387887001037598,0.018501564860343933,-0.9737163186073303,0.9508277773857117,1.3879988193511963,0.4495689272880554,-0.4022659659385681
9.40800952911377,0.020027466118335724,-0.9699015617370605,0.9538795948028564,1.3891432285308838,0.4545281231403351,-0.4015030264854431
9.42812442779541,0.019645990803837776,-0.9657053351402283,0.953498125076294,1.3876173496246338,0.4694056510925293,-0.4030289053916931
9.44812297821045,0.01926451548933983,-0.9630350470542908,0.9523537158966064,1.3857098817825317,0.4808499217033386,-0.404936283826828
9.4682936668396,0.018501564860343933,-0.9611276388168335,0.951209306716919,1.3841840028762817,0.4861905872821808,-0.404936283826828
9.48837661743164,0.016594186425209045,-0.9603646993637085,0.9485389590263367,1.3826581239700317,0.48962387442588806,-0.404936283826828
9.508485078811646,0.014686808921396732,-0.9611276388168335,0.9424353241920471,1.3818951845169067,0.4884794354438782,-0.4053177833557129
9.52853798866272,0.015449759550392628,-0.9626535177230835,0.9386205673217773,1.3834210634231567,0.47779813408851624,-0.4045548141002655
9.548722982406616,0.01735713705420494,-0.9649423956871033,0.9393835067749023,1.3868544101715088,0.464446485042572,-0.4037918746471405
9.568835973739624,0.020027466118335724,-0.9668498039245605,0.9409094452857971,1.3891432285308838,0.45719844102859497,-0.4018844962120056
9.588899374008179,0.02193484455347061,-0.967231273651123,0.9431982636451721,1.3895246982574463,0.4545281231403351,-0.4030289053916931
9.608999729156494,0.021553369238972664,-0.9664682745933533,0.9462500810623169,1.3902876377105713,0.45872434973716736,-0.4026474356651306
9.62905740737915,0.01888304017484188,-0.9645609259605408,0.9424353241920471,1.3860913515090942,0.47550925612449646,-0.404936283826828
9.649148941040039,0.014686808921396732,-0.9630350470542908,0.9378576278686523,1.3826581239700317,0.4842832088470459,-0.404173344373703
9.669312238693237,0.009727626107633114,-0.9618905782699585,0.9317540526390076,1.3796063661575317,0.49076828360557556,-0.4068436622619629
9.68929934501648,0.010490577667951584,-0.962272047996521,0.9275577664375305,1.3784618377685547,0.4858091175556183,-0.4076066315174103
9.709373474121094,0.012397955171763897,-0.9634165167808533,0.9317540526390076,1.3815137147903442,0.4716945290565491,-0.404936283826828
9.729443788528442,0.013923857361078262,-0.9657053351402283,0.9355688095092773,1.3826581239700317,0.45681697130203247,-0.4022659659385681
9.749515056610107,0.016594186425209045,-0.9664682745933533,0.9405279755592346,1.3834210634231567,0.4491874575614929,-0.4007400572299957
9.769568920135498,0.016975661739706993,-0.9657053351402283,0.9439612627029419,1.3845654726028442,0.4556725323200226,-0.4003585875034332
9.789651870727539,0.01506828423589468,-0.9641794562339783,0.9420538544654846,1.3838025331497192,0.4736018776893616,-0.4007400572299957
9.809722661972046,0.013160906732082367,-0.962272047996521,0.9382390975952148,1.3807507753372192,0.4839017391204834,-0.4026474356651306
9.829790592193604,0.010872052982449532,-0.961509108543396,0.9336614012718201,1.3796063661575317,0.4854276478290558,-0.4026474356651306
9.849887371063232,0.009727626107633114,-0.9611276388168335,0.9290837049484253,1.3784618377685547,0.4861905872821808,-0.4037918746471405
9.869979619979858,0.01125352829694748,-0.962272047996521,0.9283207654953003,1.3792248964309692,0.4732204079627991,-0.403410404920578
9.89014458656311,0.013542382046580315,-0.9641794562339783,0.9279392957687378,1.3811322450637817,0.45986875891685486,-0.4026474356651306
9.91013503074646,0.015449759550392628,-0.9653238654136658,0.9287022352218628,1.3818951845169067,0.4514763057231903,-0.4011215269565582
9.930276870727539,0.01888304017484188,-0.9653238654136658,0.9298466444015503,1.3826581239700317,0.4533836841583252,-0.4007400572299957
9.950331211090088,0.01735713705420494,-0.9653238654136658,0.9348058104515076,1.3826581239700317,0.4533836841583252,-0.4003585875034332
9.970404148101807,0.015449759550392628,-0.9645609259605408,0.9367132186889648,1.3784618377685547,0.4682612419128418,-0.4022659659385681
9.990449905395508,0.01201647985726595,-0.9637979865074158,0.9363317489624023,1.3757915496826172,0.47436484694480896,-0.4030289053916931
10.010559797286987,0.0078202486038208,-0.9637979865074158,0.9344243407249451,1.3750286102294922,0.4797055125236511,-0.403410404920578
10.030626058578491,0.005912871100008488,-0.9649423956871033,0.9298466444015503,1.3754100799560547,0.4827573001384735,-0.404936283826828
10.050680875778198,0.008964675478637218,-0.9664682745933533,0.9260318875312805,1.3799878358840942,0.47627222537994385,-0.404173344373703
10.07128119468689,0.012397955171763897,-0.969520092010498,0.9298466444015503,1.3841840028762817,0.46215763688087463,-0.4030289053916931
10.091449737548828,0.01735713705420494,-0.9718089699745178,0.9351872801780701,1.3864728212356567,0.4514763057231903,-0.4018844962120056
10.11151909828186,0.021553369238972664,-0.9721904397010803,0.9416723847389221,1.3883802890777588,0.44613564014434814,-0.4007400572299957
10.13159990310669,0.01888304017484188,-0.9699015617370605,0.9462500810623169,1.3857098817825317,0.4507133662700653,-0.3999771177768707
10.15225863456726,0.013160906732082367,-0.9660868048667908,0.9447242021560669,1.3815137147903442,0.464446485042572,-0.4015030264854431
10.172353029251099,0.010109102353453636,-0.9637979865074158,0.9420538544654846,1.3792248964309692,0.47512778639793396,-0.4022659659385681
10.192411184310913,0.004005493130534887,-0.962272047996521,0.9374761581420898,1.3757915496826172,0.4835202693939209,-0.4030289053916931
10.212589025497437,0.0020981156267225742,-0.9611276388168335,0.9298466444015503,1.3757915496826172,0.4884794354438782,-0.404173344373703
10.232742547988892,0.005531395319849253,-0.962272047996521,0.9279392957687378,1.3776988983154297,0.4839017391204834,-0.404173344373703
10.252799034118652,0.009727626107633114,-0.967994213104248,0.9332799315452576,1.3838025331497192,0.46253910660743713,-0.4007400572299957
10.273101091384888,0.01125352829694748,-0.9729533791542053,0.9378576278686523,1.3868544101715088,0.45796138048171997,-0.3999771177768707
10.293232202529907,0.01583123579621315,-0.9740977883338928,0.9454871416091919,1.3887617588043213,0.44575417041778564,-0.3999771177768707
10.313463926315308,0.015449759550392628,-0.970283031463623,0.9477760195732117,1.3879988193511963,0.4507133662700653,-0.3995956480503082
10.333415031433105,0.013542382046580315,-0.9649423956871033,0.9451056718826294,1.3834210634231567,0.4640650153160095,-0.4003585875034332
10.353685140609741,0.011635004542768002,-0.959983229637146,0.9412909150123596,1.3796063661575317,0.47856107354164124,-0.4018844962120056
10.373817920684814,0.00858320016413927,-0.9573128819465637,0.9363317489624023,1.3765544891357422,0.4892423748970032,-0.4030289053916931
10.393902778625488,0.005531395319849253,-0.955024003982544,0.9294651746749878,1.3731212615966797,0.49305713176727295,-0.404173344373703
10.413958311080933,0.005149920005351305,-0.955024003982544,0.9225986003875732,1.3723583221435547,0.49420157074928284,-0.404936283826828
10.434040546417236,0.008964675478637218,-0.959220290184021,0.9237430095672607,1.3746471405029297,0.4827573001384735,-0.4037918746471405
10.454120874404907,0.013542382046580315,-0.9649423956871033,0.925650417804718,1.3807507753372192,0.4674982726573944,-0.4030289053916931
10.474217891693115,0.018120087683200836,-0.9691386222839355,0.9302281141281128,1.3830395936965942,0.4526207447052002,-0.4007400572299957
10.494277954101562,0.022697795182466507,-0.970283031463623,0.9359502792358398,1.3853284120559692,0.4488059878349304,-0.3999771177768707
10.514357566833496,0.022697795182466507,-0.9676127433776855,0.9424353241920471,1.3845654726028442,0.44499123096466064,-0.3999771177768707
10.534423351287842,0.018501564860343933,-0.9641794562339783,0.9470130205154419,1.3788433074951172,0.45910581946372986,-0.4026474356651306
10.554497718811035,0.01583123579621315,-0.9611276388168335,0.9470130205154419,1.3750286102294922,0.47550925612449646,-0.4022659659385681
10.574882984161377,0.013160906732082367,-0.959220290184021,0.9470130205154419,1.3746471405029297,0.4812313914299011,-0.4037918746471405
10.595074892044067,0.00858320016413927,-0.9588387608528137,0.9447242021560669,1.3731212615966797,0.483138769865036,-0.404173344373703
10.61511492729187,0.005149920005351305,-0.959220290184021,0.9401465058326721,1.3731212615966797,0.4839017391204834,-0.4045548141002655
10.635195970535278,0.0078202486038208,-0.9626535177230835,0.9370946884155273,1.3792248964309692,0.47856107354164124,-0.4045548141002655
10.655315160751343,0.01201647985726595,-0.967994213104248,0.9416723847389221,1.3845654726028442,0.46101319789886475,-0.4030289053916931
10.675418138504028,0.016975661739706993,-0.9737163186073303,0.9470130205154419,1.3895246982574463,0.4514763057231903,-0.4022659659385681
10.695476770401001,0.02193484455347061,-0.9752422571182251,0.951209306716919,1.3914320468902588,0.44193941354751587,-0.4011215269565582
10.715633869171143,0.026512550190091133,-0.9748607873916626,0.959220290184021,1.3914320468902588,0.44193941354751587,-0.4003585875034332
10.735704183578491,0.026512550190091133,-0.9721904397010803,0.961509108543396,1.3872358798980713,0.45643550157546997,-0.4007400572299957
10.75587511062622,0.02536812424659729,-0.968757152557373,0.961509108543396,1.3838025331497192,0.4686427116394043,-0.4011215269565582
10.775925636291504,0.024605173617601395,-0.967231273651123,0.9611276388168335,1.3818951845169067,0.47550925612449646,-0.4015030264854431
10.795968055725098,0.023079270496964455,-0.9664682745933533,0.959983229637146,1.3796063661575317,0.47894254326820374,-0.4018844962120056
10.816077709197998,0.01926451548933983,-0.9668498039245605,0.955024003982544,1.3792248964309692,0.47741663455963135,-0.4022659659385681
10.836182594299316,0.016212711110711098,-0.9676127433776855,0.9477760195732117,1.3803693056106567,0.4724574685096741,-0.4030289053916931
10.856245756149292,0.01506828423589468,-0.9691386222839355,0.9451056718826294,1.3826581239700317,0.45757991075515747,-0.4018844962120056
10.876307249069214,0.013923857361078262,-0.9710460305213928,0.9443427324295044,1.3841840028762817,0.4495689272880554,-0.4007400572299957
10.896406412124634,0.013923857361078262,-0.9714275002479553,0.9447242021560669,1.3860913515090942,0.44422826170921326,-0.4007400572299957
10.916463136672974,0.01506828423589468,-0.9706645011901855,0.9466315507888794,1.3891432285308838,0.44728007912635803,-0.4007400572299957
10.936623096466064,0.014686808921396732,-0.969520092010498,0.9466315507888794,1.3891432285308838,0.45681697130203247,-0.4015030264854431
10.956615924835205,0.01430533267557621,-0.969520092010498,0.9466315507888794,1.3868544101715088,0.4732204079627991,-0.4022659659385681
10.976703405380249,0.013923857361078262,-0.969520092010498,0.9462500810623169,1.3834210634231567,0.47817960381507874,-0.403410404920578
10.996766328811646,0.013542382046580315,-0.969520092010498,0.9439612627029419,1.3826581239700317,0.4800869822502136,-0.404173344373703
11.016839981079102,0.012397955171763897,-0.968757152557373,0.9409094452857971,1.3796063661575317,0.47817960381507874,-0.404173344373703
11.036907196044922,0.012397955171763897,-0.9691386222839355,0.9382390975952148,1.3796063661575317,0.4667353332042694,-0.403410404920578
11.05701494216919,0.013542382046580315,-0.968757152557373,0.9374761581420898,1.3807507753372192,0.46063172817230225,-0.403410404920578
11.07710075378418,0.015449759550392628,-0.968757152557373,0.9393835067749023,1.3834210634231567,0.45834288001060486,-0.4030289053916931
11.097156524658203,0.015449759550392628,-0.9691386222839355,0.9412909150123596,1.3849469423294067,0.45986875891685486,-0.4030289053916931
11.117289781570435,0.013542382046580315,-0.9683756828308105,0.9420538544654846,1.3834210634231567,0.4709315598011017,-0.404173344373703
11.137408018112183,0.010872052982449532,-0.9683756828308105,0.9412909150123596,1.3807507753372192,0.47856107354164124,-0.404173344373703
11.157440185546875,0.007438773289322853,-0.968757152557373,0.9374761581420898,1.3788433074951172,0.483138769865036,-0.4060807228088379
11.177540063858032,0.008201723918318748,-0.9683756828308105,0.9344243407249451,1.3788433074951172,0.482375830411911,-0.4064621925354004
11.197606801986694,0.01125352829694748,-0.969520092010498,0.9344243407249451,1.3811322450637817,0.4713130295276642,-0.4060807228088379
11.2177414894104,0.01430533267557621,-0.9710460305213928,0.9359502792358398,1.3853284120559692,0.46368351578712463,-0.404173344373703
11.237825155258179,0.01735713705420494,-0.9714275002479553,0.9401465058326721,1.3853284120559692,0.45681697130203247,-0.4037918746471405
11.257896423339844,0.01773861236870289,-0.9699015617370605,0.9424353241920471,1.3841840028762817,0.46215763688087463,-0.4022659659385681
11.277949571609497,0.013923857361078262,-0.967994213104248,0.9393835067749023,1.3815137147903442,0.47474631667137146,-0.403410404920578
11.298034191131592,0.009727626107633114,-0.9641794562339783,0.9313725233078003,1.3784618377685547,0.4877164959907532,-0.4053177833557129
11.318110466003418,0.005531395319849253,-0.9630350470542908,0.9229800701141357,1.3769359588623047,0.4972533881664276,-0.4060807228088379
11.338179111480713,0.0036240178160369396,-0.9630350470542908,0.9199283123016357,1.3754100799560547,0.49382010102272034,-0.4068436622619629
11.358262538909912,0.00667582219466567,-0.9653238654136658,0.9199283123016357,1.3780803680419922,0.482375830411911,-0.4068436622619629
11.378339052200317,0.009727626107633114,-0.968757152557373,0.9245060086250305,1.3803693056106567,0.46292057633399963,-0.4037918746471405
11.398428916931152,0.012779430486261845,-0.9699015617370605,0.9287022352218628,1.3803693056106567,0.45757991075515747,-0.4045548141002655
11.418534278869629,0.015449759550392628,-0.969520092010498,0.9348058104515076,1.3826581239700317,0.4560540020465851,-0.4022659659385681
11.438616275787354,0.01583123579621315,-0.967231273651123,0.9382390975952148,1.3818951845169067,0.4640650153160095,-0.403410404920578
11.458678245544434,0.016212711110711098,-0.9653238654136658,0.9386205673217773,1.3776988983154297,0.47856107354164124,-0.404173344373703
11.478726863861084,0.016212711110711098,-0.9641794562339783,0.9386205673217773,1.3765544891357422,0.4861905872821808,-0.404936283826828
11.498817205429077,0.014686808921396732,-0.9637979865074158,0.9370946884155273,1.3742656707763672,0.48962387442588806,-0.404936283826828
11.518878698348999,0.012397955171763897,-0.9641794562339783,0.9340428709983826,1.3735027313232422,0.4884794354438782,-0.4045548141002655
11.538945198059082,0.011635004542768002,-0.9645609259605408,0.9306095838546753,1.3723583221435547,0.47817960381507874,-0.404936283826828
11.559035062789917,0.011635004542768002,-0.9649423956871033,0.9298466444015503,1.3738842010498047,0.464446485042572,-0.4030289053916931
11.579128980636597,0.011635004542768002,-0.9660868048667908,0.9302281141281128,1.3765544891357422,0.45872434973716736,-0.4030289053916931
11.59919810295105,0.012397955171763897,-0.9664682745933533,0.9309910535812378,1.3765544891357422,0.45910581946372986,-0.4026474356651306
11.619252920150757,0.01430533267557621,-0.9664682745933533,0.9344243407249451,1.3773174285888672,0.46101319789886475,-0.4018844962120056
11.63933253288269,0.01430533267557621,-0.9664682745933533,0.9367132186889648,1.3765544891357422,0.4701686203479767,-0.4018844962120056
11.65942931175232,0.01430533267557621,-0.9664682745933533,0.9370946884155273,1.3757915496826172,0.47779813408851624,-0.4026474356651306
11.67949628829956,0.013923857361078262,-0.9660868048667908,0.9363317489624023,1.3746471405029297,0.481612890958786,-0.403410404920578
11.699543237686157,0.01201647985726595,-0.9664682745933533,0.9336614012718201,1.3742656707763672,0.481612890958786,-0.403410404920578
11.71963381767273,0.012397955171763897,-0.9664682745933533,0.9317540526390076,1.3738842010498047,0.4728389382362366,-0.4030289053916931
11.739798784255981,0.01201647985726595,-0.9668498039245605,0.9306095838546753,1.3757915496826172,0.465209424495697,-0.4022659659385681
11.759862422943115,0.013542382046580315,-0.9676127433776855,0.9309910535812378,1.3769359588623047,0.45986875891685486,-0.4011215269565582
11.780150651931763,0.013542382046580315,-0.967231273651123,0.9313725233078003,1.3773174285888672,0.46215763688087463,-0.4011215269565582
11.800240278244019,0.013923857361078262,-0.967231273651123,0.9313725233078003,1.3769359588623047,0.4659723937511444,-0.4015030264854431
11.820319175720215,0.01430533267557621,-0.967231273651123,0.9313725233078003,1.3754100799560547,0.4713130295276642,-0.4018844962120056
11.840445518493652,0.01430533267557621,-0.967231273651123,0.9313725233078003,1.3731212615966797,0.4720759987831116,-0.4018844962120056
11.86049199104309,0.01430533267557621,-0.9676127433776855,0.9313725233078003,1.3723583221435547,0.4705500900745392,-0.4022659659385681
11.880553245544434,0.01430533267557621,-0.9683756828308105,0.9313725233078003,1.3723583221435547,0.4678797721862793,-0.4022659659385681
11.900821924209595,0.013923857361078262,-0.968757152557373,0.9313725233078003,1.3727397918701172,0.4655908942222595,-0.4022659659385681
11.920979738235474,0.013923857361078262,-0.9691386222839355,0.9309910535812378,1.3731212615966797,0.46368351578712463,-0.4022659659385681
11.94115424156189,0.013923857361078262,-0.969520092010498,0.9309910535812378,1.3731212615966797,0.4640650153160095,-0.4022659659385681
11.961148023605347,0.013923857361078262,-0.9691386222839355,0.9309910535812378,1.3727397918701172,0.4655908942222595,-0.4022659659385681
11.981252670288086,0.01430533267557621,-0.9691386222839355,0.9309910535812378,1.3719768524169922,0.4671168029308319,-0.4026474356651306
12.001397132873535,0.01430533267557621,-0.969520092010498,0.9309910535812378,1.3715953826904297,0.4674982726573944,-0.4026474356651306
12.021434545516968,0.01430533267557621,-0.969520092010498,0.9306095838546753,1.3700693845748901,0.4667353332042694,-0.4030289053916931
12.041682004928589,0.01430533267557621,-0.9699015617370605,0.9306095838546753,1.3704508543014526,0.4663538634777069,-0.4030289053916931
12.061861276626587,0.013923857361078262,-0.9706645011901855,0.9302281141281128,1.3704508543014526,0.4655908942222595,-0.4030289053916931
12.081928253173828,0.013923857361078262,-0.9710460305213928,0.9302281141281128,1.3708323240280151,0.465209424495697,-0.4030289053916931
12.10194993019104,0.013923857361078262,-0.9710460305213928,0.9302281141281128,1.3708323240280151,0.46368351578712463,-0.4030289053916931
12.12203598022461,0.013923857361078262,-0.9714275002479553,0.9302281141281128,1.3704508543014526,0.4640650153160095,-0.403410404920578
12.142176389694214,0.013923857361078262,-0.9718089699745178,0.9302281141281128,1.3696879148483276,0.4640650153160095,-0.403410404920578
12.162271738052368,0.013923857361078262,-0.9718089699745178,0.9298466444015503,1.3689249753952026,0.4640650153160095,-0.403410404920578
12.182451009750366,0.013923857361078262,-0.9718089699745178,0.9294651746749878,1.3685435056686401,0.4640650153160095,-0.4037918746471405
12.202590227127075,0.013923857361078262,-0.9718089699745178,0.9290837049484253,1.3685435056686401,0.464446485042572,-0.4037918746471405
12.22264552116394,0.013923857361078262,-0.9721904397010803,0.9290837049484253,1.3685435056686401,0.46368351578712463,-0.4037918746471405
12.242722511291504,0.013542382046580315,-0.9729533791542053,0.9287022352218628,1.3689249753952026,0.46368351578712463,-0.4037918746471405
12.262772560119629,0.013160906732082367,-0.9733348488807678,0.9287022352218628,1.3685435056686401,0.46330204606056213,-0.4037918746471405
12.282922983169556,0.013160906732082367,-0.9737163186073303,0.9283207654953003,1.3685435056686401,0.46253910660743713,-0.4037918746471405
12.302985191345215,0.013160906732082367,-0.9737163186073303,0.9283207654953003,1.3685435056686401,0.46177613735198975,-0.404173344373703
12.323041200637817,0.013160906732082367,-0.9737163186073303,0.9283207654953003,1.3677805662155151,0.46215763688087463,-0.404173344373703
12.34312105178833,0.012779430486261845,-0.9740977883338928,0.9283207654953003,1.3677805662155151,0.46253910660743713,-0.404173344373703
12.36324167251587,0.012779430486261845,-0.9740977883338928,0.9283207654953003,1.3673990964889526,0.46292057633399963,-0.4045548141002655
12.383370637893677,0.012779430486261845,-0.9744792580604553,0.9283207654953003,1.3673990964889526,0.46253910660743713,-0.404173344373703
12.403408527374268,0.01201647985726595,-0.9748607873916626,0.9279392957687378,1.3673990964889526,0.46292057633399963,-0.4045548141002655
12.42345905303955,0.01201647985726595,-0.9752422571182251,0.9279392957687378,1.3666361570358276,0.46139466762542725,-0.4045548141002655
12.443679094314575,0.01201647985726595,-0.9760051965713501,0.9279392957687378,1.3662546873092651,0.46025025844573975,-0.4045548141002655
12.463654518127441,0.01201647985726595,-0.9760051965713501,0.9275577664375305,1.3654917478561401,0.46063172817230225,-0.4045548141002655
12.483724355697632,0.01201647985726595,-0.9760051965713501,0.927176296710968,1.3647288084030151,0.46063172817230225,-0.4045548141002655
12.503798484802246,0.01201647985726595,-0.9760051965713501,0.927176296710968,1.3643473386764526,0.46025025844573975,-0.404936283826828
12.523882150650024,0.01201647985726595,-0.9767681360244751,0.927176296710968,1.3639658689498901,0.46025025844573975,-0.404936283826828
12.543927192687988,0.01201647985726595,-0.9771496057510376,0.9267948269844055,1.3639658689498901,0.46025025844573975,-0.4053177833557129
12.564475059509277,0.01201647985726595,-0.9771496057510376,0.9267948269844055,1.3639658689498901,0.45986875891685486,-0.4056992530822754
12.584562063217163,0.011635004542768002,-0.9779125452041626,0.926413357257843,1.3639658689498901,0.45948728919029236,-0.4056992530822754
12.604630470275879,0.011635004542768002,-0.9779125452041626,0.926413357257843,1.3635843992233276,0.45948728919029236,-0.4060807228088379
12.624783515930176,0.011635004542768002,-0.9779125452041626,0.926413357257843,1.3635843992233276,0.45910581946372986,-0.4064621925354004
12.6448814868927,0.011635004542768002,-0.9782940149307251,0.926413357257843,1.362058401107788,0.45910581946372986,-0.4068436622619629
12.664923429489136,0.01125352829694748,-0.9786755442619324,0.926413357257843,1.361295461654663,0.45948728919029236,-0.4072251319885254
12.685008525848389,0.010872052982449532,-0.9790570139884949,0.926413357257843,1.3609139919281006,0.45986875891685486,-0.4072251319885254
12.705047845840454,0.010872052982449532,-0.9790570139884949,0.9260318875312805,1.361295461654663,0.45910581946372986,-0.4072251319885254
12.725220441818237,0.010490577667951584,-0.9794384837150574,0.9260318875312805,1.3609139919281006,0.45719844102859497,-0.4072251319885254
12.745434761047363,0.009727626107633114,-0.9802014231681824,0.9260318875312805,1.3609139919281006,0.45681697130203247,-0.4072251319885254
12.765413045883179,0.009727626107633114,-0.9805828928947449,0.9260318875312805,1.3609139919281006,0.45681697130203247,-0.4076066315174103
12.785472393035889,0.009727626107633114,-0.9809643626213074,0.9260318875312805,1.360532522201538,0.45643550157546997,-0.4076066315174103
12.805647134780884,0.009727626107633114,-0.9813458323478699,0.925650417804718,1.360532522201538,0.4560540020465851,-0.4076066315174103
12.82566523551941,0.009727626107633114,-0.9813458323478699,0.925650417804718,1.360532522201538,0.4552910625934601,-0.4076066315174103
12.845841407775879,0.009727626107633114,-0.9817273020744324,0.924887478351593,1.3601510524749756,0.4560540020465851,-0.4079881012439728
12.865896940231323,0.009727626107633114,-0.9821087718009949,0.924887478351593,1.359769582748413,0.4552910625934601,-0.4079881012439728
12.885978698730469,0.009727626107633114,-0.9824903011322021,0.924887478351593,1.358243703842163,0.4552910625934601,-0.4079881012439728
12.906107902526855,0.009727626107633114,-0.9828717708587646,0.9245060086250305,1.3570992946624756,0.4549095928668976,-0.4079881012439728
12.92612910270691,0.009727626107633114,-0.9832532405853271,0.9245060086250305,1.3570992946624756,0.4552910625934601,-0.4083695709705353
12.946221351623535,0.009346150793135166,-0.9832532405853271,0.924124538898468,1.356717824935913,0.4545281231403351,-0.4083695709705353
12.966286897659302,0.009346150793135166,-0.9836347103118896,0.924124538898468,1.356717824935913,0.4533836841583252,-0.4083695709705353
12.986356973648071,0.008964675478637218,-0.9840161800384521,0.924124538898468,1.355954885482788,0.4533836841583252,-0.4083695709705353
13.006459712982178,0.008964675478637218,-0.9840161800384521,0.924124538898468,1.3555734157562256,0.4533836841583252,-0.4083695709705353
13.026573896408081,0.00858320016413927,-0.9840161800384521,0.924124538898468,1.3551918268203735,0.4533836841583252,-0.4087510406970978
13.04665493965149,0.00858320016413927,-0.9843976497650146,0.924124538898468,1.354810357093811,0.4530022144317627,-0.4087510406970978
13.066694021224976,0.00858320016413927,-0.9843976497650146,0.9237430095672607,1.3536659479141235,0.4530022144317627,-0.4087510406970978
13.086740493774414,0.00858320016413927,-0.9851605892181396,0.9237430095672607,1.3536659479141235,0.4533836841583252,-0.4087510406970978
13.10685133934021,0.00858320016413927,-0.9855420589447021,0.9237430095672607,1.353284478187561,0.4530022144317627,-0.4091325104236603
13.126963376998901,0.00858320016413927,-0.9863049983978271,0.9229800701141357,1.3529030084609985,0.4526207447052002,-0.4091325104236603
13.147059202194214,0.00858320016413927,-0.9863049983978271,0.9229800701141357,1.3529030084609985,0.4518577754497528,-0.4091325104236603
13.167108058929443,0.0078202486038208,-0.9863049983978271,0.9229800701141357,1.3529030084609985,0.4518577754497528,-0.4091325104236603
13.187181949615479,0.0078202486038208,-0.9866865277290344,0.9229800701141357,1.352521538734436,0.4518577754497528,-0.40951400995254517
13.207252740859985,0.0078202486038208,-0.9866865277290344,0.9229800701141357,1.352521538734436,0.4522392749786377,-0.40951400995254517
13.227331161499023,0.0078202486038208,-0.9870679974555969,0.9229800701141357,1.352521538734436,0.4526207447052002,-0.40989547967910767
13.247403860092163,0.007438773289322853,-0.9874494671821594,0.9229800701141357,1.3521400690078735,0.4526207447052002,-0.41027694940567017
13.267491579055786,0.007438773289322853,-0.9882124066352844,0.9225986003875732,1.350995659828186,0.4518577754497528,-0.41027694940567017
13.287561416625977,0.007438773289322853,-0.9885938763618469,0.9222171306610107,1.3490883111953735,0.4514763057231903,-0.41065841913223267
13.30767822265625,0.007438773289322853,-0.9885938763618469,0.9218356609344482,1.348706841468811,0.4507133662700653,-0.41103988885879517
13.327723026275635,0.007438773289322853,-0.9885938763618469,0.9218356609344482,1.3483253717422485,0.4499503970146179,-0.41103988885879517
13.347817420959473,0.007057297509163618,-0.9893568158149719,0.9218356609344482,1.347943902015686,0.4507133662700653,-0.41103988885879517
13.367889165878296,0.007057297509163618,-0.9897382855415344,0.9218356609344482,1.3471808433532715,0.4514763057231903,-0.41142138838768005
13.387932300567627,0.007057297509163618,-0.9897382855415344,0.9218356609344482,1.346799373626709,0.4507133662700653,-0.41142138838768005
13.40818738937378,0.00667582219466567,-0.9901197552680969,0.9214541912078857,1.3464179039001465,0.4499503970146179,-0.41142138838768005
13.428271293640137,0.00667582219466567,-0.9905012845993042,0.9210727214813232,1.346036434173584,0.4495689272880554,-0.41180285811424255
13.448376655578613,0.00667582219466567,-0.9905012845993042,0.9210727214813232,1.345273494720459,0.4491874575614929,-0.41180285811424255
13.468390941619873,0.00667582219466567,-0.9908827543258667,0.9206912517547607,1.3448920249938965,0.4488059878349304,-0.41180285811424255
13.48851752281189,0.00667582219466567,-0.9912642240524292,0.9210727214813232,1.344510555267334,0.4488059878349304,-0.41218432784080505
13.508694648742676,0.00667582219466567,-0.9916456937789917,0.9206912517547607,1.343747615814209,0.4491874575614929,-0.41218432784080505
13.528722763061523,0.00667582219466567,-0.9916456937789917,0.9206912517547607,1.343747615814209,0.4488059878349304,-0.41218432784080505
13.548803329467773,0.00667582219466567,-0.9924086332321167,0.9206912517547607,1.343747615814209,0.4484245181083679,-0.41218432784080505
13.56893515586853,0.00667582219466567,-0.9927901029586792,0.9206912517547607,1.3433661460876465,0.44804301857948303,-0.41218432784080505
13.588960409164429,0.00667582219466567,-0.9931715726852417,0.9203097820281982,1.3426032066345215,0.44766154885292053,-0.41218432784080505
13.609044551849365,0.00667582219466567,-0.9935530424118042,0.9203097820281982,1.342221736907959,0.44766154885292053,-0.41256579756736755
13.629132747650146,0.00667582219466567,-0.9935530424118042,0.9199283123016357,1.342221736907959,0.44728007912635803,-0.41256579756736755
13.649180889129639,0.006294346414506435,-0.9939345121383667,0.9199283123016357,1.3418402671813965,0.44651713967323303,-0.41256579756736755
13.669273853302002,0.006294346414506435,-0.994316041469574,0.9199283123016357,1.3418402671813965,0.44651713967323303,-0.41294726729393005
13.689343929290771,0.005912871100008488,-0.9946975111961365,0.9199283123016357,1.3418402671813965,0.44651713967323303,-0.41332876682281494
13.70940089225769,0.005912871100008488,-0.9946975111961365,0.9199283123016357,1.3418402671813965,0.44651713967323303,-0.41409170627593994
13.729707479476929,0.005531395319849253,-0.9954604506492615,0.9199283123016357,1.3418402671813965,0.44613564014434814,-0.41447317600250244
13.749796628952026,0.005531395319849253,-0.995841920375824,0.9195467829704285,1.341458797454834,0.44575417041778564,-0.41485464572906494
13.769862651824951,0.005531395319849253,-0.9962233901023865,0.919165313243866,1.340695858001709,0.44537270069122314,-0.41485464572906494
13.790087223052979,0.005531395319849253,-0.996604859828949,0.9187838435173035,1.339551329612732,0.44499123096466064,-0.41485464572906494
13.81016755104065,0.00476844422519207,-0.9969863295555115,0.9187838435173035,1.338025450706482,0.44499123096466064,-0.41523614525794983
13.830230712890625,0.00476844422519207,-0.9977492690086365,0.9187838435173035,1.3376439809799194,0.44460976123809814,-0.41523614525794983
13.85039734840393,0.00476844422519207,-0.9977492690086365,0.9187838435173035,1.3376439809799194,0.44499123096466064,-0.41561761498451233
13.870497226715088,0.00476844422519207,-0.9981307983398438,0.9187838435173035,1.3376439809799194,0.44422826170921326,-0.41561761498451233
13.89054822921753,0.00476844422519207,-0.9985122680664062,0.9187838435173035,1.3376439809799194,0.44460976123809814,-0.41561761498451233
13.910618305206299,0.00476844422519207,-0.9988937377929688,0.918402373790741,1.337262511253357,0.44422826170921326,-0.41561761498451233
13.930694341659546,0.00476844422519207,-0.9992752075195312,0.918402373790741,1.3353551626205444,0.44422826170921326,-0.41561761498451233
13.950764179229736,0.00476844422519207,-0.9996566772460938,0.9180209040641785,1.334973692893982,0.44460976123809814,-0.41599908471107483
13.970850229263306,0.00476844422519207,-1.0000381469726562,0.9180209040641785,1.3345922231674194,0.44422826170921326,-0.41599908471107483
13.991081476211548,0.004386968910694122,-1.0004196166992188,0.917639434337616,1.3345922231674194,0.44346532225608826,-0.41599908471107483
14.01114273071289,0.004386968910694122,-1.0004196166992188,0.917639434337616,1.3345922231674194,0.44346532225608826,-0.41599908471107483
14.031284093856812,0.004386968910694122,-1.0008010864257812,0.917639434337616,1.334210753440857,0.44308385252952576,-0.41599908471107483
14.051346063613892,0.0036240178160369396,-1.0008010864257812,0.917639434337616,1.334210753440857,0.44308385252952576,-0.41638055443763733
14.071593284606934,0.0036240178160369396,-1.0008010864257812,0.917639434337616,1.334210753440857,0.44308385252952576,-0.41638055443763733
14.091782093048096,0.0036240178160369396,-1.0019454956054688,0.9172579646110535,1.3338292837142944,0.44308385252952576,-0.41676202416419983
14.11180830001831,0.0036240178160369396,-1.0023269653320312,0.916876494884491,1.333447813987732,0.44308385252952576,-0.41676202416419983
14.131856679916382,0.0032425422687083483,-1.0027084350585938,0.916876494884491,1.332684874534607,0.44155794382095337,-0.41676202416419983
14.151924133300781,0.0024795911740511656,-1.0030899047851562,0.9164950251579285,1.3307774066925049,0.4388876259326935,-0.41676202416419983
14.172006368637085,0.0024795911740511656,-1.0038528442382812,0.9164950251579285,1.3300144672393799,0.4381246566772461,-0.4171435236930847
14.192098617553711,0.0024795911740511656,-1.0038528442382812,0.9164950251579285,1.3300144672393799,0.438506156206131,-0.4175249934196472
14.212130069732666,0.0024795911740511656,-1.0042344331741333,0.9164950251579285,1.3300144672393799,0.4381246566772461,-0.4179064631462097
14.232217788696289,0.0024795911740511656,-1.0046159029006958,0.9164950251579285,1.3300144672393799,0.438506156206131,-0.4179064631462097
14.25228762626648,0.0024795911740511656,-1.0049973726272583,0.916113555431366,1.3296329975128174,0.4381246566772461,-0.4182879328727722
14.27237343788147,0.0024795911740511656,-1.0049973726272583,0.9157320261001587,1.3284885883331299,0.4377431869506836,-0.4182879328727722
14.292482137680054,0.0024795911740511656,-1.0053788423538208,0.9157320261001587,1.3269627094268799,0.4377431869506836,-0.4186694025993347
14.312602519989014,0.0024795911740511656,-1.0057603120803833,0.9157320261001587,1.3269627094268799,0.4377431869506836,-0.4186694025993347
14.332773685455322,0.0024795911740511656,-1.0061417818069458,0.9157320261001587,1.3265812397003174,0.4373617172241211,-0.4186694025993347
14.352851867675781,0.0024795911740511656,-1.0065232515335083,0.9157320261001587,1.3265812397003174,0.4373617172241211,-0.4186694025993347
14.373475790023804,0.0020981156267225742,-1.0069047212600708,0.9157320261001587,1.3265812397003174,0.4373617172241211,-0.4190509021282196
14.39353609085083,0.001716639962978661,-1.0069047212600708,0.9153505563735962,1.3261997699737549,0.4369802474975586,-0.4190509021282196
14.413716316223145,0.001716639962978661,-1.0072861909866333,0.9149690866470337,1.3258183002471924,0.4369802474975586,-0.4190509021282196
14.433809280395508,0.001716639962978661,-1.0076676607131958,0.9145876169204712,1.3254368305206299,0.4373617172241211,-0.4194323718547821
