liuyurong129/humanoid-gym/humanoid/data/actual_q_20250521-050845.csv
timestamp,joint_1,joint_2,joint_3,joint_4,joint_5,joint_6
6.031990051269531e-05,0.000572213320992887,0.1665140837430954,-0.08297093212604523,-0.00019073777366429567,0.00019073777366429567,0.00019073777366429567
0.02013874053955078,0.0009536888683214784,0.14286258816719055,-0.07381551712751389,-0.00019073777366429567,0.00019073777366429567,0.000572213320992887
0.04021477699279785,-0.00019073777366429567,0.12149996310472488,-0.06389715522527695,-0.00019073777366429567,0.002861066721379757,0.00019073777366429567
0.060266733169555664,0.00019073777366429567,0.10776684433221817,-0.058175019919872284,-0.00019073777366429567,0.0013351644156500697,0.00019073777366429567
0.08034110069274902,0.00019073777366429567,0.09746700525283813,-0.051689937710762024,-0.00019073777366429567,0.00019073777366429567,0.00019073777366429567
0.10043835639953613,0.00019073777366429567,0.08983749151229858,-0.04634927958250046,-0.00019073777366429567,0.00019073777366429567,0.00019073777366429567
0.12061429023742676,0.0009536888683214784,0.08525978773832321,-0.04253452271223068,-0.000572213320992887,0.00019073777366429567,0.00019073777366429567
0.14072346687316895,0.001716639962978661,0.08564125746488571,-0.04100862145423889,-0.00019073777366429567,-0.000572213320992887,0.00019073777366429567
0.16084980964660645,0.0024795911740511656,0.08487831056118011,-0.040627144277095795,-0.000572213320992887,-0.00019073777366429567,0.00019073777366429567
0.180863618850708,0.002861066721379757,0.08373387902975082,-0.040627144277095795,-0.000572213320992887,-0.00019073777366429567,0.00019073777366429567
0.20095443725585938,0.004005493130534887,0.08068207651376724,-0.039101243019104004,-0.000572213320992887,0.000572213320992887,0.00019073777366429567
0.22102808952331543,0.00476844422519207,0.08068207651376724,-0.03757534176111221,-0.000572213320992887,0.000572213320992887,0.00019073777366429567
0.24109172821044922,0.00476844422519207,0.08068207651376724,-0.03604944050312042,-0.000572213320992887,0.0009536888683214784,0.00019073777366429567
0.2612147331237793,0.005531395319849253,0.08030059933662415,-0.034142062067985535,-0.000572213320992887,0.000572213320992887,0.00019073777366429567
0.2812941074371338,0.007057297509163618,0.07915617525577545,-0.03299763426184654,-0.0009536888683214784,0.00019073777366429567,0.00019073777366429567
0.30133962631225586,0.0078202486038208,0.07839322835206985,-0.03185320645570755,-0.0009536888683214784,0.00019073777366429567,0.00019073777366429567
0.3214268684387207,0.008201723918318748,0.07686731964349747,-0.030708782374858856,-0.0009536888683214784,0.00019073777366429567,0.00019073777366429567
0.3414950370788574,0.008964675478637218,0.07610437273979187,-0.029182879254221916,-0.0009536888683214784,0.00019073777366429567,0.00019073777366429567
0.36156725883483887,0.009727626107633114,0.07572289556264877,-0.028038453310728073,-0.0013351644156500697,0.00019073777366429567,0.00019073777366429567
0.3816547393798828,0.010490577667951584,0.07419699430465698,-0.025749599561095238,-0.0013351644156500697,0.00019073777366429567,0.00019073777366429567
0.401721715927124,0.010872052982449532,0.07343403995037079,-0.024605173617601395,-0.001716639962978661,0.000572213320992887,0.00019073777366429567
0.4217801094055176,0.01201647985726595,0.07267109304666519,-0.023460745811462402,-0.0020981156267225742,0.00019073777366429567,0.00019073777366429567
0.44187211990356445,0.013160906732082367,0.0711451917886734,-0.02193484455347061,-0.0024795911740511656,0.000572213320992887,0.00019073777366429567
0.46201324462890625,0.01430533267557621,0.0707637146115303,-0.02079041674733162,-0.0032425422687083483,0.000572213320992887,0.00019073777366429567
0.48201894760131836,0.01430533267557621,0.07000076025724411,-0.01926451548933983,-0.0036240178160369396,0.000572213320992887,0.00019073777366429567
0.5023748874664307,0.01506828423589468,0.06847485899925232,-0.01773861236870289,-0.004005493130534887,0.000572213320992887,0.00019073777366429567
0.5224635601043701,0.01583123579621315,0.06694895774126053,-0.016212711110711098,-0.004005493130534887,0.000572213320992887,0.00019073777366429567
0.5425207614898682,0.016975661739706993,0.06618601083755493,-0.014686808921396732,-0.004386968910694122,0.000572213320992887,0.00019073777366429567
0.5626206398010254,0.01735713705420494,0.06466010212898254,-0.012779430486261845,-0.00476844422519207,0.000572213320992887,0.00019073777366429567
0.5827021598815918,0.018501564860343933,0.06351567804813385,-0.010872052982449532,-0.005149920005351305,0.000572213320992887,0.00019073777366429567
0.6027839183807373,0.01926451548933983,0.06275273114442825,-0.009727626107633114,-0.005531395319849253,0.000572213320992887,0.00019073777366429567
0.6232788562774658,0.020027466118335724,0.06198977679014206,-0.008201723918318748,-0.005912871100008488,0.0009536888683214784,0.00019073777366429567
0.6433372497558594,0.021553369238972664,0.06046387553215027,-0.006294346414506435,-0.007057297509163618,0.000572213320992887,0.00019073777366429567
0.663449764251709,0.021553369238972664,0.05970092490315437,-0.005149920005351305,-0.007057297509163618,0.0009536888683214784,0.00019073777366429567
0.6834695339202881,0.02193484455347061,0.058175019919872284,-0.004005493130534887,-0.007438773289322853,0.0009536888683214784,0.00019073777366429567
0.7035558223724365,0.023079270496964455,0.056267641484737396,-0.0024795911740511656,-0.007438773289322853,0.0009536888683214784,0.00019073777366429567
0.723623514175415,0.02384222112596035,0.0551232174038887,-0.000572213320992887,-0.0078202486038208,0.0009536888683214784,0.00019073777366429567
0.7437088489532471,0.024605173617601395,0.054741740226745605,0.0009536888683214784,-0.0078202486038208,0.000572213320992887,0.00019073777366429567
0.763761043548584,0.025749599561095238,0.05359731614589691,0.002861066721379757,-0.008201723918318748,0.000572213320992887,0.00019073777366429567
0.7838490009307861,0.02689402550458908,0.05207141116261482,0.005149920005351305,-0.008201723918318748,0.000572213320992887,0.00019073777366429567
0.8039226531982422,0.02689402550458908,0.05130846053361893,0.006294346414506435,-0.00858320016413927,0.0009536888683214784,0.00019073777366429567
0.8240056037902832,0.028038453310728073,0.05054550990462303,0.0078202486038208,-0.009346150793135166,0.0009536888683214784,0.00019073777366429567
0.8440988063812256,0.029182879254221916,0.04901960864663124,0.009346150793135166,-0.009727626107633114,0.0009536888683214784,0.00019073777366429567
0.8641712665557861,0.029564354568719864,0.048256658017635345,0.010490577667951584,-0.010872052982449532,0.0009536888683214784,0.00019073777366429567
0.8842427730560303,0.02994582988321781,0.046730753034353256,0.01201647985726595,-0.01125352829694748,0.0013351644156500697,0.00019073777366429567
0.9044466018676758,0.031090257689356804,0.045204851776361465,0.013542382046580315,-0.011635004542768002,0.000572213320992887,0.00019073777366429567
0.9244413375854492,0.03223468363285065,0.04329747334122658,0.01506828423589468,-0.011635004542768002,0.0009536888683214784,0.00019073777366429567
0.9444894790649414,0.03299763426184654,0.042153049260377884,0.016594186425209045,-0.011635004542768002,0.0009536888683214784,0.00019073777366429567
0.9645848274230957,0.034142062067985535,0.040627144277095795,0.018501564860343933,-0.01201647985726595,0.0009536888683214784,0.00019073777366429567
0.9846584796905518,0.03452353551983833,0.039101243019104004,0.02079041674733162,-0.012397955171763897,0.0009536888683214784,0.00019073777366429567
1.0047099590301514,0.035667963325977325,0.03833829239010811,0.02231631986796856,-0.013160906732082367,0.0009536888683214784,0.00019073777366429567
1.0247986316680908,0.03681239113211632,0.037193864583969116,0.024605173617601395,-0.01430533267557621,0.0013351644156500697,0.00019073777366429567
1.0448894500732422,0.037193864583969116,0.03604944050312042,0.026131074875593185,-0.01506828423589468,0.0013351644156500697,0.00019073777366429567
1.0649657249450684,0.03795681521296501,0.03490501269698143,0.027656977996230125,-0.015449759550392628,0.0020981156267225742,0.00019073777366429567
1.0850813388824463,0.03833829239010811,0.03337911143898964,0.02880140393972397,-0.015449759550392628,0.001716639962978661,0.00019073777366429567
1.1051623821258545,0.039101243019104004,0.03185320645570755,0.031090257689356804,-0.015449759550392628,0.001716639962978661,0.00019073777366429567
1.1252555847167969,0.0398641936480999,0.031090257689356804,0.03223468363285065,-0.01583123579621315,0.0013351644156500697,0.00019073777366429567
1.1453521251678467,0.04100862145423889,0.02994582988321781,0.034142062067985535,-0.016212711110711098,0.0013351644156500697,0.00019073777366429567
1.1654469966888428,0.042153049260377884,0.02841992862522602,0.037193864583969116,-0.016212711110711098,0.001716639962978661,0.00019073777366429567
1.1855194568634033,0.04291599988937378,0.02689402550458908,0.038719769567251205,-0.016975661739706993,0.0013351644156500697,0.00019073777366429567
1.2055726051330566,0.043678950518369675,0.024986648932099342,0.040627144277095795,-0.018120087683200836,0.001716639962978661,0.00019073777366429567
1.225687026977539,0.04444190114736557,0.023460745811462402,0.04253452271223068,-0.01888304017484188,0.001716639962978661,0.00019073777366429567
1.24576735496521,0.04558632895350456,0.02231631986796856,0.04482337832450867,-0.01926451548933983,0.001716639962978661,0.00019073777366429567
1.2658512592315674,0.04634927958250046,0.02079041674733162,0.04634927958250046,-0.01926451548933983,0.001716639962978661,0.00019073777366429567
1.2859125137329102,0.04749370738863945,0.01888304017484188,0.048638131469488144,-0.01926451548933983,0.0020981156267225742,0.00019073777366429567
1.3060007095336914,0.048638131469488144,0.01735713705420494,0.05092698708176613,-0.019645990803837776,0.0013351644156500697,0.00019073777366429567
1.3260817527770996,0.049782559275627136,0.016212711110711098,0.053215838968753815,-0.020027466118335724,0.001716639962978661,0.00019073777366429567
1.346238136291504,0.05092698708176613,0.014686808921396732,0.0555046908557415,-0.02040894143283367,0.001716639962978661,0.00019073777366429567
1.3663506507873535,0.051689937710762024,0.012779430486261845,0.058175019919872284,-0.021171892061829567,0.0020981156267225742,0.00019073777366429567
1.3864774703979492,0.05207141116261482,0.01125352829694748,0.05970092490315437,-0.02231631986796856,0.0024795911740511656,0.00019073777366429567
1.4064602851867676,0.05283436179161072,0.009346150793135166,0.06198977679014206,-0.022697795182466507,0.0024795911740511656,0.00019073777366429567
1.4265575408935547,0.05397878959774971,0.007057297509163618,0.06504157930612564,-0.023079270496964455,0.0024795911740511656,0.00019073777366429567
1.4466276168823242,0.05436026677489281,0.005531395319849253,0.06694895774126053,-0.023079270496964455,0.0024795911740511656,0.00019073777366429567
1.4666786193847656,0.0551232174038887,0.0036240178160369396,0.06923781335353851,-0.023460745811462402,0.001716639962978661,0.00019073777366429567
1.486781358718872,0.05664911866188049,0.001716639962978661,0.071908138692379,-0.02384222112596035,0.001716639962978661,0.00019073777366429567
1.506859540939331,0.058175019919872284,-0.000572213320992887,0.07572289556264877,-0.024223696440458298,0.001716639962978661,0.00019073777366429567
1.5270187854766846,0.05893797054886818,-0.0032425422687083483,0.07763027399778366,-0.024986648932099342,0.0032425422687083483,0.00019073777366429567
1.5476465225219727,0.05970092490315437,-0.006294346414506435,0.08106355369091034,-0.026131074875593185,0.0036240178160369396,0.00019073777366429567
1.5677320957183838,0.06084534898400307,-0.00858320016413927,0.08449683338403702,-0.026512550190091133,0.0036240178160369396,0.00019073777366429567
1.5878057479858398,0.06160829961299896,-0.009727626107633114,0.0864042118191719,-0.02689402550458908,0.0032425422687083483,0.00019073777366429567
1.607923984527588,0.06351567804813385,-0.011635004542768002,0.08869306743144989,-0.02727550081908703,0.002861066721379757,0.00019073777366429567
1.6280169486999512,0.06504157930612564,-0.013923857361078262,0.09212634712457657,-0.02727550081908703,0.0032425422687083483,0.00019073777366429567
1.6480677127838135,0.06580453366041183,-0.01583123579621315,0.09441519528627396,-0.027656977996230125,0.002861066721379757,0.00019073777366429567
1.668175220489502,0.06733043491840363,-0.018501564860343933,0.09708552807569504,-0.02841992862522602,0.0032425422687083483,0.00019073777366429567
1.688239574432373,0.06885633617639542,-0.02079041674733162,0.10013733059167862,-0.029182879254221916,0.0032425422687083483,0.00019073777366429567
1.7082922458648682,0.06961929053068161,-0.022697795182466507,0.1024261862039566,-0.02994582988321781,0.0032425422687083483,0.00019073777366429567
1.728546142578125,0.0707637146115303,-0.025749599561095238,0.10509651154279709,-0.03032730519771576,0.0036240178160369396,0.00019073777366429567
1.748657464981079,0.071908138692379,-0.02880140393972397,0.10852979123592377,-0.03032730519771576,0.0032425422687083483,0.00019073777366429567
1.7687101364135742,0.07267109304666519,-0.03223468363285065,0.11120012402534485,-0.030708782374858856,0.0032425422687083483,0.00019073777366429567
1.7888703346252441,0.07343403995037079,-0.03490501269698143,0.11387044936418533,-0.031090257689356804,0.0032425422687083483,0.00019073777366429567
1.808952808380127,0.07495994865894318,-0.037193864583969116,0.1180666834115982,-0.03147173300385475,0.0032425422687083483,0.00019073777366429567
1.8290035724639893,0.07572289556264877,-0.039101243019104004,0.1203555315732956,-0.03185320645570755,0.0032425422687083483,0.00019073777366429567
1.8490722179412842,0.07686731964349747,-0.04100862145423889,0.12302586436271667,-0.03337911143898964,0.0032425422687083483,0.00019073777366429567
1.8691601753234863,0.07877469807863235,-0.04406042397022247,0.12684062123298645,-0.03376058489084244,0.0036240178160369396,0.00019073777366429567
1.8892338275909424,0.08030059933662415,-0.04634927958250046,0.12951095402240753,-0.034142062067985535,0.002861066721379757,0.00019073777366429567
1.909327745437622,0.08106355369091034,-0.04901960864663124,0.1325627565383911,-0.03452353551983833,0.0036240178160369396,0.00019073777366429567
1.9293930530548096,0.08258945494890213,-0.05207141116261482,0.1367589831352234,-0.03528648987412453,0.002861066721379757,0.00019073777366429567
1.949463129043579,0.08411535620689392,-0.0551232174038887,0.14057374000549316,-0.03604944050312042,0.0036240178160369396,0.00019073777366429567
1.9696063995361328,0.08487831056118011,-0.058175019919872284,0.14362554252147675,-0.037193864583969116,0.0036240178160369396,0.00019073777366429567
1.9897165298461914,0.0871671661734581,-0.06237125024199486,0.14858472347259521,-0.03795681521296501,0.0036240178160369396,0.00019073777366429567
2.0097460746765137,0.0883115902543068,-0.06542305648326874,0.152399480342865,-0.03795681521296501,0.0036240178160369396,0.00019073777366429567
2.0297999382019043,0.08945601433515549,-0.06733043491840363,0.15545128285884857,-0.03833829239010811,0.0032425422687083483,0.00019073777366429567
2.0498931407928467,0.09136339277029037,-0.07038223743438721,0.15964750945568085,-0.038719769567251205,0.0036240178160369396,0.00019073777366429567
2.069974899291992,0.09250781685113907,-0.07419699430465698,0.16346226632595062,-0.0394827201962471,0.0032425422687083483,0.00019073777366429567
2.0900213718414307,0.09479667246341705,-0.07763027399778366,0.1676585078239441,-0.040627144277095795,0.0032425422687083483,0.00019073777366429567
2.110114812850952,0.09632257372140884,-0.08220797777175903,0.17261768877506256,-0.04177157208323479,0.0032425422687083483,0.000572213320992887
2.13018536567688,0.09784847497940063,-0.08564125746488571,0.17757686972618103,-0.04253452271223068,0.004005493130534887,0.00019073777366429567
2.1502790451049805,0.09937438368797302,-0.08907453715801239,0.1813916265964508,-0.04291599988937378,0.004005493130534887,0.000572213320992887
2.1703476905822754,0.10128175467252731,-0.09403372555971146,0.18635080754756927,-0.04406042397022247,0.0036240178160369396,0.000572213320992887
2.190432548522949,0.1024261862039566,-0.09784847497940063,0.19092851877212524,-0.04482337832450867,0.0036240178160369396,0.000572213320992887
2.210505485534668,0.1028076633810997,-0.1024261862039566,0.19436179101467133,-0.04558632895350456,0.0036240178160369396,0.000572213320992887
2.230595588684082,0.10471503436565399,-0.10624094307422638,0.1989395022392273,-0.04558632895350456,0.002861066721379757,0.000572213320992887
2.25068736076355,0.10662241280078888,-0.11081864684820175,0.20351719856262207,-0.04596780240535736,0.0024795911740511656,0.000572213320992887
2.270753860473633,0.10852979123592377,-0.11577782779932022,0.20847637951374054,-0.04634927958250046,0.0032425422687083483,0.000572213320992887
2.2909345626831055,0.11005569249391556,-0.12188144028186798,0.2134355753660202,-0.046730753034353256,0.0036240178160369396,0.000572213320992887
2.3110427856445312,0.11196307092905045,-0.12607766687870026,0.21915769577026367,-0.04787518084049225,0.0032425422687083483,0.000572213320992887
2.3311054706573486,0.11387044936418533,-0.12951095402240753,0.22449836134910583,-0.04940108209848404,0.0036240178160369396,0.000572213320992887
2.3511667251586914,0.11692225188016891,-0.135233074426651,0.23327229917049408,-0.050164032727479935,0.0036240178160369396,0.000572213320992887
2.3712730407714844,0.1203555315732956,-0.14209964871406555,0.24357213079929352,-0.05092698708176613,0.0036240178160369396,0.000572213320992887
2.3913486003875732,0.12378881871700287,-0.14820325374603271,0.25310903787612915,-0.05207141116261482,0.0020981156267225742,0.000572213320992887
2.411400318145752,0.12760357558727264,-0.15621423721313477,0.2641718089580536,-0.05283436179161072,0.0020981156267225742,0.000572213320992887
2.431485652923584,0.13218127191066742,-0.1665140837430954,0.2763790488243103,-0.05359731614589691,0.0020981156267225742,0.0009536888683214784
2.4515578746795654,0.1363775134086609,-0.17719538509845734,0.28667888045310974,-0.05436026677489281,0.0024795911740511656,0.0009536888683214784
2.4716150760650635,0.13942931592464447,-0.18978407979011536,0.2962157726287842,-0.0555046908557415,0.001716639962978661,0.0009536888683214784
2.491703510284424,0.14324407279491425,-0.20275425910949707,0.3103303611278534,-0.05703059583902359,0.0024795911740511656,0.0009536888683214784
2.5117743015289307,0.14744029939174652,-0.2161058932542801,0.3217746317386627,-0.05893797054886818,0.0032425422687083483,0.0009536888683214784
2.5318446159362793,0.1516365259885788,-0.23250934481620789,0.3397039771080017,-0.06046387553215027,0.002861066721379757,0.0009536888683214784
2.5520427227020264,0.15659570693969727,-0.2470054179430008,0.3583962619304657,-0.061226826161146164,0.001716639962978661,0.0013351644156500697
2.572068929672241,0.16155488789081573,-0.2622644305229187,0.3763256371021271,-0.06275273114442825,0.000572213320992887,0.001716639962978661
2.592125654220581,0.1684214472770691,-0.2817196846008301,0.39883267879486084,-0.06504157930612564,0.00019073777366429567,0.0024795911740511656
2.6123063564300537,0.17757686972618103,-0.3065156042575836,0.42591744661331177,-0.06733043491840363,0.00019073777366429567,0.0032425422687083483
2.6324074268341064,0.18711376190185547,-0.33169299364089966,0.4510948359966278,-0.06961929053068161,-0.000572213320992887,0.004005493130534887
2.6525075435638428,0.1981765478849411,-0.3603036403656006,0.4800869822502136,-0.07267109304666519,-0.0032425422687083483,0.005149920005351305
2.6727631092071533,0.21190966665744781,-0.39654383063316345,0.5178530812263489,-0.07610437273979187,-0.005531395319849253,0.005912871100008488
2.6928582191467285,0.22602425515651703,-0.4358358085155487,0.5590524077415466,-0.08030059933662415,-0.00667582219466567,0.008201723918318748
2.712980270385742,0.23708705604076385,-0.47779813408851624,0.6025406122207642,-0.08525978773832321,-0.005531395319849253,0.01125352829694748
2.733025074005127,0.248531311750412,-0.5273899435997009,0.6536583304405212,-0.09250781685113907,-0.005149920005351305,0.013923857361078262
2.75311541557312,0.2573052644729614,-0.576981782913208,0.7059205174446106,-0.09937438368797302,-0.002861066721379757,0.01773861236870289
2.773205041885376,0.265697717666626,-0.6261920928955078,0.7558938264846802,-0.10624094307422638,-0.0024795911740511656,0.02079041674733162
2.7932472229003906,0.272945761680603,-0.6792172193527222,0.8093003630638123,-0.11272602528333664,-0.00476844422519207,0.024986648932099342
2.8133370876312256,0.2801937758922577,-0.7352941036224365,0.8611810207366943,-0.11959258466959,-0.007057297509163618,0.03032730519771576
2.833405017852783,0.28744181990623474,-0.7928969264030457,0.9092469811439514,-0.13141833245754242,-0.013160906732082367,0.0398641936480999
2.8534743785858154,0.291638046503067,-0.8314259648323059,0.9397650361061096,-0.14705882966518402,-0.018501564860343933,0.05092698708176613
2.8735413551330566,0.2939268946647644,-0.8588922023773193,0.9576943516731262,-0.16117341816425323,-0.02040894143283367,0.061226826161146164
2.893627405166626,0.2935454249382019,-0.8794918656349182,0.9699015617370605,-0.16880293190479279,-0.02040894143283367,0.06542305648326874
2.9137051105499268,0.2935454249382019,-0.8985656499862671,0.9832532405853271,-0.17338064312934875,-0.023460745811462402,0.07000076025724411
2.9341394901275635,0.2935454249382019,-0.9115357995033264,0.997367799282074,-0.17757686972618103,-0.025749599561095238,0.0722896158695221
2.954227924346924,0.2927824854850769,-0.9180209040641785,1.0088120698928833,-0.17910276353359222,-0.028038453310728073,0.07305257022380829
2.9742889404296875,0.290875107049942,-0.9225986003875732,1.0175859928131104,-0.1806286722421646,-0.03185320645570755,0.07381551712751389
2.994359016418457,0.28820478916168213,-0.9229800701141357,1.0233081579208374,-0.182917520403862,-0.03299763426184654,0.07495994865894318
3.0144596099853516,0.28553444147109985,-0.9206912517547607,1.0248340368270874,-0.1840619444847107,-0.035667963325977325,0.07495994865894318
3.034485340118408,0.28324559330940247,-0.9195467829704285,1.0255969762802124,-0.1844434291124344,-0.03643091395497322,0.07534141838550568
3.0545501708984375,0.2821011543273926,-0.9195467829704285,1.0263599157333374,-0.1848248988389969,-0.03681239113211632,0.07572289556264877
3.074716806411743,0.2805752754211426,-0.9195467829704285,1.025978446006775,-0.1848248988389969,-0.03757534176111221,0.07572289556264877
3.094813346862793,0.2794308364391327,-0.9195467829704285,1.025978446006775,-0.18520638346672058,-0.03795681521296501,0.07572289556264877
3.1148769855499268,0.2779049277305603,-0.9195467829704285,1.025978446006775,-0.18596932291984558,-0.037193864583969116,0.07572289556264877
3.13578200340271,0.2775234580039978,-0.919165313243866,1.025978446006775,-0.18673227727413177,-0.037193864583969116,0.07572289556264877
3.155881404876709,0.2767605185508728,-0.918402373790741,1.0267413854599,-0.18749523162841797,-0.037193864583969116,0.07572289556264877
3.1759696006774902,0.2759975492954254,-0.917639434337616,1.0271228551864624,-0.18749523162841797,-0.037193864583969116,0.07572289556264877
3.1960103511810303,0.2756160795688629,-0.9172579646110535,1.0271228551864624,-0.18787670135498047,-0.03795681521296501,0.07572289556264877
3.216099739074707,0.2744716703891754,-0.916876494884491,1.0271228551864624,-0.18787670135498047,-0.038719769567251205,0.07572289556264877
3.236189603805542,0.272945761680603,-0.9164950251579285,1.0282673835754395,-0.18825818598270416,-0.038719769567251205,0.07572289556264877
3.256467580795288,0.27141985297203064,-0.9157320261001587,1.0282673835754395,-0.18902114033699036,-0.0394827201962471,0.07572289556264877
3.276554822921753,0.26951247453689575,-0.9145876169204712,1.028648853302002,-0.18978407979011536,-0.0398641936480999,0.07610437273979187
3.2967605590820312,0.26684215664863586,-0.9134432077407837,1.0290303230285645,-0.19092851877212524,-0.04253452271223068,0.07610437273979187
3.316876173019409,0.2637903392314911,-0.9115357995033264,1.029411792755127,-0.19245441257953644,-0.045204851776361465,0.07610437273979187
3.337040901184082,0.2615014910697937,-0.9096284508705139,1.0305562019348145,-0.19321736693382263,-0.04634927958250046,0.07610437273979187
3.357057809829712,0.2595941126346588,-0.9084840416908264,1.030937671661377,-0.19512474536895752,-0.04711223021149635,0.07686731964349747
3.3771138191223145,0.2569237947463989,-0.9058136940002441,1.0320820808410645,-0.1958876997232437,-0.050164032727479935,0.07724879682064056
3.397188425064087,0.25425344705581665,-0.9039062857627869,1.033226490020752,-0.1977950781583786,-0.05130846053361893,0.07839322835206985
3.417719602584839,0.25158312916755676,-0.9016174674034119,1.033989429473877,-0.200083926320076,-0.05245288833975792,0.07953765243291855
3.437809467315674,0.2481498420238495,-0.8966583013534546,1.0351338386535645,-0.20275425910949707,-0.05207141116261482,0.07991912961006165
3.457876443862915,0.2450980395078659,-0.8928435444831848,1.035896897315979,-0.20466163754463196,-0.05245288833975792,0.08030059933662415
3.4780054092407227,0.24090181291103363,-0.8867399096488953,1.036659836769104,-0.20771344006061554,-0.051689937710762024,0.08144503086805344
3.498100519180298,0.23594263195991516,-0.8813992738723755,1.037422776222229,-0.2134355753660202,-0.053215838968753815,0.08411535620689392
3.518181562423706,0.23327229917049408,-0.8768215179443359,1.039711594581604,-0.21877622604370117,-0.054741740226745605,0.0864042118191719
3.5382628440856934,0.230601966381073,-0.8722438216209412,1.0393301248550415,-0.22449836134910583,-0.05664911866188049,0.09060044586658478
3.558340311050415,0.2302204966545105,-0.8661402463912964,1.038948655128479,-0.230601966381073,-0.059319447726011276,0.09403372555971146
3.5784265995025635,0.22640573978424072,-0.8615625500679016,1.0393301248550415,-0.23441672325134277,-0.05970092490315437,0.09822995215654373
3.598464250564575,0.22068360447883606,-0.8585107326507568,1.0385671854019165,-0.24013885855674744,-0.053215838968753815,0.10090028494596481
3.6185712814331055,0.22144655883312225,-0.8535515666007996,1.039711594581604,-0.2447165697813034,-0.05092698708176613,0.1035706102848053
3.638634204864502,0.21953918039798737,-0.848210871219635,1.041237473487854,-0.248531311750412,-0.054741740226745605,0.10700388997793198
3.65871000289917,0.21877622604370117,-0.8421072959899902,1.0400930643081665,-0.25463491678237915,-0.05703059583902359,0.11081864684820175
3.6787819862365723,0.21839475631713867,-0.8360036611557007,1.038948655128479,-0.2569237947463989,-0.056267641484737396,0.11387044936418533
3.698887348175049,0.21763180196285248,-0.8337147831916809,1.0362783670425415,-0.2603570520877838,-0.0558861680328846,0.11768520623445511
3.7189550399780273,0.21839475631713867,-0.8314259648323059,1.0362783670425415,-0.264934778213501,-0.05664911866188049,0.1203555315732956
3.7390806674957275,0.2138170450925827,-0.8295185565948486,1.0343708992004395,-0.26836803555488586,-0.0551232174038887,0.12340734153985977
3.759192705154419,0.21686884760856628,-0.8264667987823486,1.033226490020752,-0.272945761680603,-0.05741206929087639,0.12531471252441406
3.779301166534424,0.2161058932542801,-0.8215075731277466,1.031700611114502,-0.2744716703891754,-0.053215838968753815,0.12874799966812134
3.7997519969940186,0.21725031733512878,-0.8169298768043518,1.0305562019348145,-0.2782863974571228,-0.0555046908557415,0.13103684782981873
3.819838047027588,0.2161058932542801,-0.813878059387207,1.030174732208252,-0.28286412358283997,-0.06008239835500717,0.1359960287809372
3.8399362564086914,0.21877622604370117,-0.8093003630638123,1.0282673835754395,-0.28896772861480713,-0.06198977679014206,0.14133669435977936
3.859980583190918,0.22335393726825714,-0.8081559538841248,1.027885913848877,-0.2912565767765045,-0.06618601083755493,0.14515145123004913
3.880080223083496,0.22297245264053345,-0.8016708493232727,1.0255969762802124,-0.2931639552116394,-0.06504157930612564,0.1489662081003189
3.900151014328003,0.22144655883312225,-0.8001449704170227,1.0225452184677124,-0.2973601818084717,-0.06046387553215027,0.1527809500694275
3.9203274250030518,0.21992065012454987,-0.7974746227264404,1.0210193395614624,-0.30117493867874146,-0.059319447726011276,0.15545128285884857
3.940408706665039,0.22564278542995453,-0.7970931529998779,1.0217822790145874,-0.30422675609588623,-0.06542305648326874,0.16079194843769073
3.9604744911193848,0.22602425515651703,-0.7925154566764832,1.019874930381775,-0.3076600432395935,-0.06809338182210922,0.1661325991153717
3.980538845062256,0.22716869413852692,-0.7879377603530884,1.0168230533599854,-0.3133821487426758,-0.071908138692379,0.17109178006649017
4.000621557235718,0.22716869413852692,-0.7860303521156311,1.0156786441802979,-0.31643396615982056,-0.07610437273979187,0.17490653693675995
4.020695209503174,0.2283131182193756,-0.7841230034828186,1.0133898258209229,-0.31986725330352783,-0.07419699430465698,0.17872129380702972
4.040769577026367,0.23289081454277039,-0.7841230034828186,1.0114823579788208,-0.3236820101737976,-0.07381551712751389,0.182917520403862
4.061070203781128,0.23250934481620789,-0.7833600640296936,1.0091935396194458,-0.3255893886089325,-0.07419699430465698,0.18635080754756927
4.081171274185181,0.23289081454277039,-0.7814526557922363,1.0084306001663208,-0.3290226459503174,-0.0707637146115303,0.18978407979011536
4.101224660873413,0.2302204966545105,-0.7795453071594238,1.0072861909866333,-0.33207446336746216,-0.06733043491840363,0.19321736693382263
4.121321439743042,0.23403525352478027,-0.7776378989219666,1.0065232515335083,-0.33550775051116943,-0.06961929053068161,0.1974135935306549
4.1414008140563965,0.23708705604076385,-0.7749675512313843,1.0072861909866333,-0.3377965986728668,-0.07763027399778366,0.20275425910949707
4.161479234695435,0.23365376889705658,-0.7703898549079895,0.9996566772460938,-0.3423742949962616,-0.08258945494890213,0.20733195543289185
4.181546211242676,0.23250934481620789,-0.7665750980377197,0.9939345121383667,-0.34695202112197876,-0.08335240930318832,0.21076524257659912
4.20163631439209,0.23289081454277039,-0.7711527943611145,0.997367799282074,-0.34771496057510376,-0.07839322835206985,0.2149614691734314
4.221710681915283,0.23708705604076385,-0.7730602025985718,0.9977492690086365,-0.35229265689849854,-0.08564125746488571,0.22068360447883606
4.241798400878906,0.23975738883018494,-0.7749675512313843,0.996604859828949,-0.3576333224773407,-0.0875486359000206,0.22602425515651703
4.262355327606201,0.23975738883018494,-0.768482506275177,0.9935530424118042,-0.3595407009124756,-0.08030059933662415,0.2298390120267868
4.282457590103149,0.23441672325134277,-0.7639048099517822,0.9916456937789917,-0.3603036403656006,-0.07534141838550568,0.23327229917049408
4.302584409713745,0.23556114733219147,-0.7642862796783447,0.9924086332321167,-0.36526283621788025,-0.07572289556264877,0.23441672325134277
4.322852849960327,0.23289081454277039,-0.7608529925346375,0.9897382855415344,-0.36717021465301514,-0.07801175117492676,0.24090181291103363
4.342953443527222,0.23327229917049408,-0.7593270540237427,0.9878309369087219,-0.3706035017967224,-0.08373387902975082,0.2450980395078659
4.363027334213257,0.23327229917049408,-0.7597085237503052,0.9863049983978271,-0.3721294105052948,-0.08564125746488571,0.24967575073242188
4.383099555969238,0.23670557141304016,-0.7608529925346375,0.9866865277290344,-0.3744182586669922,-0.0879301130771637,0.25577935576438904
4.403175354003906,0.23517967760562897,-0.7650492191314697,0.9874494671821594,-0.3770885765552521,-0.09174486994743347,0.2603570520877838
4.423253774642944,0.23327229917049408,-0.7688639760017395,0.9874494671821594,-0.38166627287864685,-0.086785688996315,0.2630273997783661
4.443328380584717,0.23746852576732635,-0.769245445728302,0.9882124066352844,-0.38281071186065674,-0.07953765243291855,0.264934778213501
4.463582515716553,0.23975738883018494,-0.7696269154548645,0.9897382855415344,-0.38319218158721924,-0.07839322835206985,0.26760509610176086
4.483670949935913,0.23975738883018494,-0.7646677494049072,0.9885938763618469,-0.3858625292778015,-0.07648584991693497,0.27027541399002075
4.50374174118042,0.23441672325134277,-0.760471522808075,0.9859235286712646,-0.3881513774394989,-0.07572289556264877,0.2756160795688629
4.523987293243408,0.23250934481620789,-0.7574197053909302,0.9847791194915771,-0.3904402256011963,-0.07877469807863235,0.2782863974571228
4.544069290161133,0.23289081454277039,-0.7585641145706177,0.9843976497650146,-0.3915846347808838,-0.08144503086805344,0.2821011543273926
4.564128160476685,0.23289081454277039,-0.7597085237503052,0.9847791194915771,-0.3923476040363312,-0.0879301130771637,0.28439003229141235
4.584259510040283,0.23899443447589874,-0.7631418108940125,0.9843976497650146,-0.3934920132160187,-0.09708552807569504,0.28706035017967224
4.604342699050903,0.23785001039505005,-0.7623788714408875,0.9843976497650146,-0.39501792192459106,-0.09479667246341705,0.2920195460319519
4.624413728713989,0.23632410168647766,-0.7658121585845947,0.9840161800384521,-0.39730677008628845,-0.08564125746488571,0.2931639552116394
4.644477367401123,0.23517967760562897,-0.7658121585845947,0.9851605892181396,-0.39883267879486084,-0.08335240930318832,0.2950713336467743
4.664563894271851,0.24090181291103363,-0.7642862796783447,0.9840161800384521,-0.4022659659385681,-0.08373387902975082,0.29850462079048157
4.68462610244751,0.23975738883018494,-0.7616159319877625,0.9847791194915771,-0.403410404920578,-0.08106355369091034,0.30193790793418884
4.704765319824219,0.23975738883018494,-0.7593270540237427,0.9817273020744324,-0.4068436622619629,-0.08335240930318832,0.30422675609588623
4.724862575531006,0.24052032828330994,-0.7585641145706177,0.9843976497650146,-0.4091325104236603,-0.08525978773832321,0.3076600432395935
4.74494481086731,0.23670557141304016,-0.7589455842971802,0.9851605892181396,-0.40951400995254517,-0.08106355369091034,0.3103303611278534
4.765054941177368,0.23594263195991516,-0.7608529925346375,0.9855420589447021,-0.41103988885879517,-0.0879301130771637,0.3122377395629883
4.785146474838257,0.23975738883018494,-0.761997401714325,0.9863049983978271,-0.41180285811424255,-0.09632257372140884,0.31452658772468567
4.805242300033569,0.23975738883018494,-0.7600900530815125,0.9843976497650146,-0.41371023654937744,-0.09746700525283813,0.31948578357696533
4.825288772583008,0.24357213079929352,-0.760471522808075,0.9840161800384521,-0.4175249934196472,-0.09746700525283813,0.3229190409183502
4.845380783081055,0.2458609938621521,-0.7597085237503052,0.9836347103118896,-0.4190509021282196,-0.09250781685113907,0.3263523280620575
4.865448474884033,0.2443350851535797,-0.7570382356643677,0.9817273020744324,-0.4209582805633545,-0.09136339277029037,0.3271152675151825
4.885504245758057,0.24319066107273102,-0.7551308274269104,0.9805828928947449,-0.4243915379047394,-0.08220797777175903,0.3290226459503174
4.905582427978516,0.23899443447589874,-0.7532234787940979,0.9798199534416199,-0.4240100681781769,-0.07877469807863235,0.33398184180259705
4.925675868988037,0.23861294984817505,-0.7551308274269104,0.9802014231681824,-0.4247730076313019,-0.08525978773832321,0.33512628078460693
4.945780992507935,0.24052032828330994,-0.7558938264846802,0.9805828928947449,-0.4247730076313019,-0.09250781685113907,0.3385595381259918
4.965876340866089,0.2454795092344284,-0.7578011751174927,0.9802014231681824,-0.42629891633987427,-0.09975585341453552,0.3435187339782715
4.985965013504028,0.2481498420238495,-0.7593270540237427,0.9805828928947449,-0.42782482504844666,-0.10547798871994019,0.34695202112197876
5.0060272216796875,0.2439536154270172,-0.7600900530815125,0.9802014231681824,-0.43049514293670654,-0.10013733059167862,0.35038527846336365
5.026198387145996,0.2481498420238495,-0.760471522808075,0.9809643626213074,-0.43202105164527893,-0.09365224838256836,0.35114824771881104
5.046216011047363,0.24929426610469818,-0.7608529925346375,0.9824903011322021,-0.4335469603538513,-0.09327077120542526,0.3534370958805084
5.0662901401519775,0.2470054179430008,-0.7581826448440552,0.9798199534416199,-0.4362172782421112,-0.09021896868944168,0.3549630045890808
5.086472272872925,0.2458609938621521,-0.7558938264846802,0.9782940149307251,-0.4373617172241211,-0.08869306743144989,0.3576333224773407
5.106562376022339,0.2447165697813034,-0.7566567659378052,0.9782940149307251,-0.4377431869506836,-0.08869306743144989,0.3614480793476105
5.126631259918213,0.2454795092344284,-0.7589455842971802,0.9786755442619324,-0.4388876259326935,-0.09403372555971146,0.36411839723587036
5.14677619934082,0.25120165944099426,-0.7597085237503052,0.9782940149307251,-0.439269095659256,-0.09899290651082993,0.36678874492645264
5.166922330856323,0.2454795092344284,-0.7597085237503052,0.9782940149307251,-0.4396505653858185,-0.09250781685113907,0.3717479109764099
5.187005519866943,0.24280919134616852,-0.761997401714325,0.9782940149307251,-0.44232088327407837,-0.09021896868944168,0.3721294105052948
5.207036972045898,0.2439536154270172,-0.76276034116745,0.9798199534416199,-0.44384679198265076,-0.09021896868944168,0.3725108802318573
5.227129220962524,0.2439536154270172,-0.76276034116745,0.9809643626213074,-0.44499123096466064,-0.09060044586658478,0.3751811981201172
5.247192144393921,0.2454795092344284,-0.7612344622612,0.9779125452041626,-0.44689860939979553,-0.09136339277029037,0.3778515160083771
5.267271280288696,0.248531311750412,-0.7597085237503052,0.9782940149307251,-0.44689860939979553,-0.09288929402828217,0.37975889444351196
5.287352085113525,0.24166475236415863,-0.7597085237503052,0.9782940149307251,-0.4488059878349304,-0.086785688996315,0.38281071186065674
5.307445764541626,0.23975738883018494,-0.7616159319877625,0.9782940149307251,-0.4499503970146179,-0.0883115902543068,0.38281071186065674
5.327527761459351,0.24319066107273102,-0.7631418108940125,0.9786755442619324,-0.4499503970146179,-0.09479667246341705,0.3839551508426666
5.348237991333008,0.2466239482164383,-0.7646677494049072,0.9802014231681824,-0.4507133662700653,-0.09822995215654373,0.3866254687309265
5.36838436126709,0.247768372297287,-0.76276034116745,0.9790570139884949,-0.4522392749786377,-0.09746700525283813,0.3877699077129364
5.388425588607788,0.25120165944099426,-0.76276034116745,0.9798199534416199,-0.4537651538848877,-0.09555962681770325,0.3896772861480713
5.40864896774292,0.25196459889411926,-0.7623788714408875,0.9805828928947449,-0.4545281231403351,-0.09021896868944168,0.3904402256011963
5.42874002456665,0.2462424635887146,-0.7581826448440552,0.9779125452041626,-0.45719844102859497,-0.08449683338403702,0.3927290737628937
5.448854446411133,0.24357213079929352,-0.7558938264846802,0.9760051965713501,-0.45834288001060486,-0.08297093212604523,0.3927290737628937
5.468886852264404,0.2439536154270172,-0.7585641145706177,0.9767681360244751,-0.45681697130203247,-0.08487831056118011,0.39578089118003845
5.488977909088135,0.2500572204589844,-0.7631418108940125,0.9805828928947449,-0.45719844102859497,-0.09632257372140884,0.39768826961517334
5.509104013442993,0.2504386901855469,-0.7661936283111572,0.9805828928947449,-0.45796138048171997,-0.10166323184967041,0.4007400572299957
5.5291807651519775,0.25120165944099426,-0.767719566822052,0.9798199534416199,-0.45872434973716736,-0.1031891331076622,0.4026474356651306
5.549281120300293,0.2504386901855469,-0.7681010365486145,0.9821087718009949,-0.45910581946372986,-0.09288929402828217,0.404936283826828
5.569333791732788,0.2450980395078659,-0.7681010365486145,0.9794384837150574,-0.45986875891685486,-0.08258945494890213,0.4068436622619629
5.589414119720459,0.248531311750412,-0.7669565677642822,0.9802014231681824,-0.46253910660743713,-0.08335240930318832,0.4053177833557129
5.609465599060059,0.2508201599121094,-0.7646677494049072,0.9813458323478699,-0.46215763688087463,-0.08258945494890213,0.4068436622619629
5.629549741744995,0.2447165697813034,-0.7616159319877625,0.9782940149307251,-0.46368351578712463,-0.08449683338403702,0.4091325104236603
5.6496405601501465,0.24052032828330994,-0.7608529925346375,0.9779125452041626,-0.4648279547691345,-0.08602273464202881,0.4079881012439728
5.669712543487549,0.24052032828330994,-0.7623788714408875,0.9775310754776001,-0.464446485042572,-0.08564125746488571,0.4091325104236603
5.6897900104522705,0.2473868876695633,-0.7665750980377197,0.9813458323478699,-0.4640650153160095,-0.09555962681770325,0.41027694940567017
5.70988392829895,0.2481498420238495,-0.7688639760017395,0.9813458323478699,-0.4640650153160095,-0.09861142933368683,0.41294726729393005
5.730988025665283,0.2473868876695633,-0.7639048099517822,0.9794384837150574,-0.4648279547691345,-0.09250781685113907,0.41294726729393005
5.751093864440918,0.2466239482164383,-0.7608529925346375,0.9782940149307251,-0.465209424495697,-0.08487831056118011,0.41294726729393005
5.771211624145508,0.2454795092344284,-0.7597085237503052,0.9779125452041626,-0.4659723937511444,-0.08258945494890213,0.41294726729393005
5.791310548782349,0.24319066107273102,-0.7574197053909302,0.9771496057510376,-0.4682612419128418,-0.08106355369091034,0.41371023654937744
5.8113508224487305,0.2458609938621521,-0.7574197053909302,0.9763866662979126,-0.4682612419128418,-0.08182650804519653,0.41409170627593994
5.831451416015625,0.247768372297287,-0.7585641145706177,0.9763866662979126,-0.4674982726573944,-0.08449683338403702,0.41638055443763733
5.8515214920043945,0.2450980395078659,-0.7608529925346375,0.9760051965713501,-0.4678797721862793,-0.086785688996315,0.4198138415813446
5.87164568901062,0.2504386901855469,-0.7646677494049072,0.9756237268447876,-0.4678797721862793,-0.08907453715801239,0.4201953113079071
5.891709566116333,0.2500572204589844,-0.7665750980377197,0.9763866662979126,-0.4674982726573944,-0.086785688996315,0.422102689743042
5.911787271499634,0.2508201599121094,-0.7661936283111572,0.9756237268447876,-0.4682612419128418,-0.08411535620689392,0.422102689743042
5.9319374561309814,0.25234606862068176,-0.7650492191314697,0.9771496057510376,-0.4682612419128418,-0.08106355369091034,0.4224841594696045
5.952057123184204,0.247768372297287,-0.763523280620575,0.9771496057510376,-0.4690241813659668,-0.07991912961006165,0.4236285984516144
5.972161769866943,0.24967575073242188,-0.76276034116745,0.9775310754776001,-0.4716945290565491,-0.08220797777175903,0.4236285984516144
5.992352247238159,0.247768372297287,-0.7608529925346375,0.9767681360244751,-0.4713130295276642,-0.08258945494890213,0.4243915379047394
6.012438774108887,0.2462424635887146,-0.7612344622612,0.9760051965713501,-0.4716945290565491,-0.08525978773832321,0.42706188559532166
6.032506465911865,0.24929426610469818,-0.7642862796783447,0.9763866662979126,-0.4716945290565491,-0.0871671661734581,0.42820629477500916
6.052566766738892,0.2504386901855469,-0.7681010365486145,0.9775310754776001,-0.4713130295276642,-0.08869306743144989,0.43125811219215393
6.072746992111206,0.25387197732925415,-0.7688639760017395,0.9782940149307251,-0.4716945290565491,-0.0875486359000206,0.4331654906272888
6.092780351638794,0.25577935576438904,-0.7681010365486145,0.9779125452041626,-0.4720759987831116,-0.08411535620689392,0.4339284300804138
6.112834692001343,0.25425344705581665,-0.7665750980377197,0.9775310754776001,-0.4728389382362366,-0.08297093212604523,0.4343098998069763
6.132925033569336,0.2504386901855469,-0.7642862796783447,0.9767681360244751,-0.47436484694480896,-0.07991912961006165,0.4339284300804138
6.153027057647705,0.25158312916755676,-0.76276034116745,0.9760051965713501,-0.47550925612449646,-0.07915617525577545,0.4339284300804138
6.17306923866272,0.25120165944099426,-0.76276034116745,0.9767681360244751,-0.47512778639793396,-0.08182650804519653,0.4350728690624237
6.193164587020874,0.2504386901855469,-0.7650492191314697,0.9763866662979126,-0.47512778639793396,-0.08602273464202881,0.4358358085155487
6.213245153427124,0.25616082549095154,-0.767719566822052,0.9775310754776001,-0.47512778639793396,-0.09021896868944168,0.4369802474975586
6.233325719833374,0.2584496736526489,-0.7688639760017395,0.9771496057510376,-0.47512778639793396,-0.08945601433515549,0.4396505653858185
6.2534191608428955,0.25654229521751404,-0.7681010365486145,0.9771496057510376,-0.47512778639793396,-0.08602273464202881,0.439269095659256
6.2735021114349365,0.2569237947463989,-0.767719566822052,0.9767681360244751,-0.47589075565338135,-0.08297093212604523,0.4388876259326935
6.293550252914429,0.25425344705581665,-0.7658121585845947,0.9775310754776001,-0.47627222537994385,-0.07839322835206985,0.439269095659256
6.313642263412476,0.25349050760269165,-0.7650492191314697,0.9767681360244751,-0.47779813408851624,-0.07724879682064056,0.439269095659256
6.333739280700684,0.2508201599121094,-0.7650492191314697,0.9779125452041626,-0.47817960381507874,-0.07953765243291855,0.439269095659256
6.353804349899292,0.2443350851535797,-0.7661936283111572,0.9775310754776001,-0.47817960381507874,-0.08258945494890213,0.440032035112381
6.374446868896484,0.24242770671844482,-0.7681010365486145,0.9775310754776001,-0.47817960381507874,-0.0864042118191719,0.440032035112381
6.394532680511475,0.24280919134616852,-0.7711527943611145,0.9775310754776001,-0.47779813408851624,-0.09021896868944168,0.44079500436782837
6.414608955383301,0.2481498420238495,-0.7742046117782593,0.9798199534416199,-0.47779813408851624,-0.09479667246341705,0.44193941354751587
6.434682369232178,0.24891279637813568,-0.775730550289154,0.9817273020744324,-0.47779813408851624,-0.09708552807569504,0.44308385252952576
6.454774618148804,0.248531311750412,-0.7730602025985718,0.9798199534416199,-0.47894254326820374,-0.08907453715801239,0.44308385252952576
6.4748311042785645,0.25120165944099426,-0.7696269154548645,0.9798199534416199,-0.47932401299476624,-0.08411535620689392,0.44270238280296326
6.494938850402832,0.248531311750412,-0.7681010365486145,0.9798199534416199,-0.4797055125236511,-0.07915617525577545,0.44270238280296326
6.515008926391602,0.25120165944099426,-0.767719566822052,0.9786755442619324,-0.4804684519767761,-0.08182650804519653,0.44232088327407837
6.535083293914795,0.247768372297287,-0.7669565677642822,0.9775310754776001,-0.4797055125236511,-0.07953765243291855,0.44346532225608826
6.555135011672974,0.2481498420238495,-0.7681010365486145,0.9763866662979126,-0.4797055125236511,-0.08564125746488571,0.44384679198265076
6.575228691101074,0.2500572204589844,-0.7715343236923218,0.9790570139884949,-0.4797055125236511,-0.08564125746488571,0.44499123096466064
6.5952959060668945,0.25272753834724426,-0.7745860815048218,0.9817273020744324,-0.47932401299476624,-0.08869306743144989,0.44613564014434814
6.615361213684082,0.25234606862068176,-0.7742046117782593,0.9824903011322021,-0.4797055125236511,-0.0883115902543068,0.4488059878349304
6.635448932647705,0.25425344705581665,-0.7711527943611145,0.9809643626213074,-0.4797055125236511,-0.08297093212604523,0.4488059878349304
6.65553617477417,0.25387197732925415,-0.7681010365486145,0.9798199534416199,-0.4804684519767761,-0.08068207651376724,0.4491874575614929
6.675581455230713,0.24891279637813568,-0.767719566822052,0.9802014231681824,-0.4808499217033386,-0.07915617525577545,0.4488059878349304
6.695688247680664,0.24967575073242188,-0.7669565677642822,0.9794384837150574,-0.482375830411911,-0.07915617525577545,0.4484245181083679
6.715773820877075,0.247768372297287,-0.7681010365486145,0.9813458323478699,-0.4819943606853485,-0.08106355369091034,0.4491874575614929
6.736051797866821,0.24929426610469818,-0.7703898549079895,0.9813458323478699,-0.4819943606853485,-0.08564125746488571,0.4491874575614929
6.756144285202026,0.25349050760269165,-0.7722972631454468,0.9821087718009949,-0.4819943606853485,-0.09060044586658478,0.4495689272880554
6.776222229003906,0.25272753834724426,-0.7715343236923218,0.9805828928947449,-0.4812313914299011,-0.08907453715801239,0.4514763057231903
6.796908855438232,0.25234606862068176,-0.7711527943611145,0.9813458323478699,-0.481612890958786,-0.08373387902975082,0.4510948359966278
6.817018985748291,0.25272753834724426,-0.770771324634552,0.9824903011322021,-0.481612890958786,-0.07877469807863235,0.4510948359966278
6.837149143218994,0.24929426610469818,-0.7688639760017395,0.9821087718009949,-0.482375830411911,-0.07610437273979187,0.4507133662700653
6.857205629348755,0.24929426610469818,-0.7681010365486145,0.9813458323478699,-0.4827573001384735,-0.07610437273979187,0.4503318965435028
6.877267837524414,0.25158312916755676,-0.7681010365486145,0.9813458323478699,-0.4819943606853485,-0.07686731964349747,0.4510948359966278
6.89733624458313,0.2500572204589844,-0.770008385181427,0.9813458323478699,-0.4819943606853485,-0.07991912961006165,0.4510948359966278
6.917399168014526,0.25196459889411926,-0.7734416723251343,0.9813458323478699,-0.4819943606853485,-0.08449683338403702,0.4510948359966278
6.937503337860107,0.25120165944099426,-0.7749675512313843,0.9828717708587646,-0.4819943606853485,-0.08449683338403702,0.4518577754497528
6.957616090774536,0.2500572204589844,-0.777256429195404,0.9832532405853271,-0.4819943606853485,-0.08144503086805344,0.4533836841583252
6.977672815322876,0.25577935576438904,-0.777256429195404,0.9836347103118896,-0.482375830411911,-0.07877469807863235,0.4530022144317627
6.997763395309448,0.25387197732925415,-0.7768749594688416,0.9847791194915771,-0.482375830411911,-0.07343403995037079,0.4537651538848877
7.017827987670898,0.25387197732925415,-0.7745860815048218,0.9813458323478699,-0.483138769865036,-0.07763027399778366,0.4537651538848877
7.037928581237793,0.25196459889411926,-0.7726787328720093,0.9840161800384521,-0.482375830411911,-0.0707637146115303,0.4537651538848877
7.057984113693237,0.24891279637813568,-0.7734416723251343,0.9813458323478699,-0.482375830411911,-0.0722896158695221,0.4537651538848877
7.078058481216431,0.24929426610469818,-0.7742046117782593,0.9851605892181396,-0.4827573001384735,-0.07953765243291855,0.4530022144317627
7.098119497299194,0.25158312916755676,-0.775730550289154,0.9866865277290344,-0.481612890958786,-0.08335240930318832,0.4541466534137726
7.118204593658447,0.25158312916755676,-0.7768749594688416,0.9843976497650146,-0.482375830411911,-0.0875486359000206,0.45834288001060486
7.138283014297485,0.25501641631126404,-0.778019368648529,0.9847791194915771,-0.4827573001384735,-0.086785688996315,0.45757991075515747
7.1583311557769775,0.2569237947463989,-0.7776378989219666,0.9843976497650146,-0.4827573001384735,-0.07953765243291855,0.45757991075515747
7.1784443855285645,0.25539788603782654,-0.7761120200157166,0.9843976497650146,-0.483138769865036,-0.07763027399778366,0.45719844102859497
7.198491096496582,0.25349050760269165,-0.7753490209579468,0.9809643626213074,-0.4835202693939209,-0.06961929053068161,0.45681697130203247
7.218607187271118,0.25349050760269165,-0.7742046117782593,0.9824903011322021,-0.483138769865036,-0.0722896158695221,0.45719844102859497
7.238735198974609,0.24891279637813568,-0.7753490209579468,0.9840161800384521,-0.483138769865036,-0.07801175117492676,0.45757991075515747
7.258834362030029,0.2466239482164383,-0.7768749594688416,0.9817273020744324,-0.4835202693939209,-0.08525978773832321,0.45719844102859497
7.278922080993652,0.2481498420238495,-0.7784008383750916,0.9855420589447021,-0.4819943606853485,-0.0875486359000206,0.45757991075515747
7.299109220504761,0.25234606862068176,-0.7829785346984863,0.9878309369087219,-0.4808499217033386,-0.09479667246341705,0.45948728919029236
7.319194793701172,0.25425344705581665,-0.7810711860656738,0.9885938763618469,-0.4819943606853485,-0.10013733059167862,0.46025025844573975
7.33927845954895,0.25349050760269165,-0.778782308101654,0.9847791194915771,-0.4827573001384735,-0.09441519528627396,0.46025025844573975
7.359325885772705,0.2473868876695633,-0.7749675512313843,0.9843976497650146,-0.4835202693939209,-0.08411535620689392,0.45986875891685486
7.3794169425964355,0.24319066107273102,-0.7734416723251343,0.9840161800384521,-0.4850461483001709,-0.07572289556264877,0.45834288001060486
7.399483919143677,0.24357213079929352,-0.7734416723251343,0.9847791194915771,-0.4861905872821808,-0.071908138692379,0.45719844102859497
7.419564247131348,0.2443350851535797,-0.7738231420516968,0.9843976497650146,-0.4854276478290558,-0.07610437273979187,0.45757991075515747
7.439899682998657,0.247768372297287,-0.7761120200157166,0.9843976497650146,-0.4839017391204834,-0.08068207651376724,0.45757991075515747
7.4599785804748535,0.2508201599121094,-0.7776378989219666,0.9866865277290344,-0.482375830411911,-0.08449683338403702,0.45834288001060486
7.480076313018799,0.25387197732925415,-0.7776378989219666,0.9847791194915771,-0.4819943606853485,-0.08335240930318832,0.45796138048171997
7.500869035720825,0.25425344705581665,-0.7749675512313843,0.9843976497650146,-0.4819943606853485,-0.07648584991693497,0.45796138048171997
7.520985841751099,0.248531311750412,-0.7719157934188843,0.9843976497650146,-0.482375830411911,-0.0707637146115303,0.45796138048171997
7.541078567504883,0.2473868876695633,-0.7711527943611145,0.9847791194915771,-0.4842832088470459,-0.0711451917886734,0.45643550157546997
7.561135292053223,0.2500572204589844,-0.7719157934188843,0.9847791194915771,-0.4839017391204834,-0.07495994865894318,0.45681697130203247
7.581256151199341,0.2454795092344284,-0.7719157934188843,0.9832532405853271,-0.483138769865036,-0.07572289556264877,0.45757991075515747
7.601345062255859,0.2450980395078659,-0.7730602025985718,0.9824903011322021,-0.4827573001384735,-0.08030059933662415,0.45757991075515747
7.621431827545166,0.247768372297287,-0.7784008383750916,0.9828717708587646,-0.482375830411911,-0.08144503086805344,0.45757991075515747
7.641485929489136,0.25158312916755676,-0.7818341255187988,0.9870679974555969,-0.4812313914299011,-0.08297093212604523,0.45834288001060486
7.661555767059326,0.25349050760269165,-0.7806897163391113,0.9840161800384521,-0.4812313914299011,-0.08106355369091034,0.45796138048171997
7.681643486022949,0.25425344705581665,-0.776493489742279,0.9824903011322021,-0.481612890958786,-0.07419699430465698,0.45796138048171997
7.7017412185668945,0.24929426610469818,-0.7722972631454468,0.9843976497650146,-0.481612890958786,-0.06847485899925232,0.45757991075515747
7.721811771392822,0.2466239482164383,-0.770008385181427,0.9836347103118896,-0.4839017391204834,-0.0711451917886734,0.45681697130203247
7.741878509521484,0.2481498420238495,-0.7715343236923218,0.9859235286712646,-0.4846646785736084,-0.07305257022380829,0.45643550157546997
7.762031316757202,0.2450980395078659,-0.7711527943611145,0.9824903011322021,-0.4827573001384735,-0.07572289556264877,0.45872434973716736
7.782119274139404,0.24967575073242188,-0.7730602025985718,0.9836347103118896,-0.4819943606853485,-0.08602273464202881,0.45834288001060486
7.802252531051636,0.2473868876695633,-0.7768749594688416,0.9843976497650146,-0.4804684519767761,-0.08564125746488571,0.45986875891685486
7.822268486022949,0.2473868876695633,-0.7818341255187988,0.9847791194915771,-0.4812313914299011,-0.08449683338403702,0.45986875891685486
7.842345952987671,0.24967575073242188,-0.7833600640296936,0.9866865277290344,-0.4804684519767761,-0.08220797777175903,0.46025025844573975
7.862401008605957,0.2504386901855469,-0.7829785346984863,0.9851605892181396,-0.4808499217033386,-0.07572289556264877,0.45986875891685486
7.882457256317139,0.25196459889411926,-0.7803082466125488,0.9855420589447021,-0.4812313914299011,-0.071908138692379,0.45948728919029236
7.9025490283966064,0.2458609938621521,-0.777256429195404,0.9847791194915771,-0.4812313914299011,-0.06504157930612564,0.45910581946372986
7.922614574432373,0.24357213079929352,-0.7753490209579468,0.9851605892181396,-0.4835202693939209,-0.06961929053068161,0.45681697130203247
7.942688226699829,0.2443350851535797,-0.776493489742279,0.9851605892181396,-0.483138769865036,-0.07495994865894318,0.45719844102859497
7.962769269943237,0.247768372297287,-0.7776378989219666,0.9847791194915771,-0.482375830411911,-0.08182650804519653,0.45796138048171997
7.98288106918335,0.25196459889411926,-0.7810711860656738,0.9866865277290344,-0.481612890958786,-0.09212634712457657,0.45872434973716736
8.003100633621216,0.24929426610469818,-0.7837415337562561,0.9874494671821594,-0.4819943606853485,-0.09327077120542526,0.45948728919029236
8.02311658859253,0.25196459889411926,-0.7860303521156311,0.9870679974555969,-0.4819943606853485,-0.0883115902543068,0.45910581946372986
8.043179035186768,0.25310903787612915,-0.7845044732093811,0.9870679974555969,-0.4819943606853485,-0.08106355369091034,0.45948728919029236
8.063238382339478,0.24929426610469818,-0.7814526557922363,0.9866865277290344,-0.482375830411911,-0.07343403995037079,0.45910581946372986
8.083325624465942,0.24967575073242188,-0.7803082466125488,0.9859235286712646,-0.483138769865036,-0.0715266615152359,0.45681697130203247
8.103394269943237,0.24967575073242188,-0.778019368648529,0.9855420589447021,-0.4827573001384735,-0.07381551712751389,0.45719844102859497
8.123898267745972,0.2454795092344284,-0.7784008383750916,0.9855420589447021,-0.4827573001384735,-0.07686731964349747,0.45757991075515747
8.144007444381714,0.2458609938621521,-0.7799267768859863,0.9851605892181396,-0.4819943606853485,-0.07991912961006165,0.45757991075515747
8.164090156555176,0.24891279637813568,-0.7822155952453613,0.9874494671821594,-0.4804684519767761,-0.08449683338403702,0.45834288001060486
8.184135675430298,0.25349050760269165,-0.7852674126625061,0.9885938763618469,-0.4800869822502136,-0.0864042118191719,0.45910581946372986
8.204230785369873,0.25387197732925415,-0.7841230034828186,0.9893568158149719,-0.4800869822502136,-0.08373387902975082,0.45910581946372986
8.224339962005615,0.25196459889411926,-0.7803082466125488,0.9863049983978271,-0.4804684519767761,-0.07915617525577545,0.45872434973716736
8.24438762664795,0.2504386901855469,-0.776493489742279,0.9866865277290344,-0.4804684519767761,-0.07381551712751389,0.45719844102859497
8.264488220214844,0.24357213079929352,-0.7753490209579468,0.9851605892181396,-0.4808499217033386,-0.07305257022380829,0.45757991075515747
8.28456997871399,0.24280919134616852,-0.7753490209579468,0.9863049983978271,-0.4827573001384735,-0.07648584991693497,0.45681697130203247
8.304635524749756,0.24319066107273102,-0.778019368648529,0.9863049983978271,-0.4812313914299011,-0.08182650804519653,0.45719844102859497
8.324755191802979,0.24967575073242188,-0.7822155952453613,0.9866865277290344,-0.47894254326820374,-0.08869306743144989,0.45796138048171997
8.344834566116333,0.2504386901855469,-0.7864118218421936,0.9889753460884094,-0.47817960381507874,-0.09479667246341705,0.45910581946372986
8.364891529083252,0.24929426610469818,-0.7883192300796509,0.9889753460884094,-0.47856107354164124,-0.09288929402828217,0.45834288001060486
8.3849778175354,0.25196459889411926,-0.7883192300796509,0.9905012845993042,-0.47817960381507874,-0.08945601433515549,0.45872434973716736
8.405057907104492,0.25120165944099426,-0.7860303521156311,0.9905012845993042,-0.47894254326820374,-0.08373387902975082,0.45834288001060486
8.42514944076538,0.2470054179430008,-0.7822155952453613,0.9889753460884094,-0.47932401299476624,-0.07839322835206985,0.45719844102859497
8.445215225219727,0.2466239482164383,-0.7776378989219666,0.9866865277290344,-0.4797055125236511,-0.07839322835206985,0.45719844102859497
8.465306282043457,0.24204623699188232,-0.7776378989219666,0.9885938763618469,-0.47894254326820374,-0.07953765243291855,0.45719844102859497
8.485359907150269,0.24357213079929352,-0.778782308101654,0.9885938763618469,-0.47932401299476624,-0.0864042118191719,0.45719844102859497
8.505431890487671,0.2454795092344284,-0.7810711860656738,0.9901197552680969,-0.47894254326820374,-0.09288929402828217,0.45757991075515747
8.525517225265503,0.25120165944099426,-0.7852674126625061,0.9908827543258667,-0.47741663455963135,-0.10128175467252731,0.45757991075515747
8.545557022094727,0.25539788603782654,-0.7871748208999634,0.9908827543258667,-0.47741663455963135,-0.09937438368797302,0.45834288001060486
8.565635204315186,0.25463491678237915,-0.7833600640296936,0.9897382855415344,-0.47741663455963135,-0.08869306743144989,0.45796138048171997
8.585715293884277,0.25234606862068176,-0.7799267768859863,0.9885938763618469,-0.47817960381507874,-0.07763027399778366,0.45719844102859497
8.605771780014038,0.2454795092344284,-0.775730550289154,0.9870679974555969,-0.47894254326820374,-0.071908138692379,0.45681697130203247
8.625854015350342,0.2470054179430008,-0.7730602025985718,0.9851605892181396,-0.4800869822502136,-0.0722896158695221,0.4552910625934601
8.645922660827637,0.2447165697813034,-0.7719157934188843,0.9855420589447021,-0.47932401299476624,-0.06923781335353851,0.4552910625934601
8.665988206863403,0.24242770671844482,-0.7715343236923218,0.9851605892181396,-0.47894254326820374,-0.07267109304666519,0.4560540020465851
8.686078548431396,0.2450980395078659,-0.775730550289154,0.9866865277290344,-0.47894254326820374,-0.07991912961006165,0.4560540020465851
8.70613980293274,0.2458609938621521,-0.778019368648529,0.9878309369087219,-0.47703516483306885,-0.0864042118191719,0.45681697130203247
8.726183414459229,0.2447165697813034,-0.7806897163391113,0.9889753460884094,-0.47665369510650635,-0.08525978773832321,0.4560540020465851
8.746370792388916,0.2481498420238495,-0.7795453071594238,0.9885938763618469,-0.47665369510650635,-0.08144503086805344,0.45643550157546997
8.766521453857422,0.2466239482164383,-0.7768749594688416,0.9889753460884094,-0.47665369510650635,-0.07572289556264877,0.45681697130203247
8.786574602127075,0.2470054179430008,-0.7753490209579468,0.9874494671821594,-0.47779813408851624,-0.07534141838550568,0.4552910625934601
8.806639194488525,0.2470054179430008,-0.7738231420516968,0.9863049983978271,-0.47817960381507874,-0.07457847148180008,0.4541466534137726
8.826723575592041,0.2470054179430008,-0.7734416723251343,0.9859235286712646,-0.47779813408851624,-0.07724879682064056,0.4537651538848877
8.846804141998291,0.248531311750412,-0.7745860815048218,0.9851605892181396,-0.47779813408851624,-0.07953765243291855,0.4537651538848877
8.867143392562866,0.25349050760269165,-0.7776378989219666,0.9859235286712646,-0.47703516483306885,-0.08258945494890213,0.4537651538848877
8.88722562789917,0.25387197732925415,-0.7791637778282166,0.9874494671821594,-0.47589075565338135,-0.08182650804519653,0.4552910625934601
8.907307863235474,0.2576867341995239,-0.7791637778282166,0.9863049983978271,-0.47741663455963135,-0.0879301130771637,0.4549095928668976
8.927390098571777,0.2588311731815338,-0.7768749594688416,0.9863049983978271,-0.47741663455963135,-0.08564125746488571,0.4549095928668976
8.947484731674194,0.2595941126346588,-0.7726787328720093,0.9809643626213074,-0.47894254326820374,-0.08220797777175903,0.4545281231403351
8.967574119567871,0.25463491678237915,-0.769245445728302,0.9802014231681824,-0.4804684519767761,-0.07534141838550568,0.4522392749786377
8.98768949508667,0.2508201599121094,-0.7673380374908447,0.9790570139884949,-0.4804684519767761,-0.07572289556264877,0.4514763057231903
9.007792949676514,0.25120165944099426,-0.770771324634552,0.9817273020744324,-0.4804684519767761,-0.07839322835206985,0.4518577754497528
9.027853965759277,0.25577935576438904,-0.7742046117782593,0.9824903011322021,-0.4797055125236511,-0.0875486359000206,0.4526207447052002
9.048236846923828,0.2569237947463989,-0.7749675512313843,0.9824903011322021,-0.4797055125236511,-0.09098191559314728,0.4541466534137726
9.068333864212036,0.25616082549095154,-0.7726787328720093,0.9813458323478699,-0.4800869822502136,-0.0864042118191719,0.4537651538848877
9.088420391082764,0.2573052644729614,-0.7726787328720093,0.9817273020744324,-0.4804684519767761,-0.08373387902975082,0.4541466534137726
9.108485698699951,0.25463491678237915,-0.7722972631454468,0.9821087718009949,-0.4812313914299011,-0.07839322835206985,0.4533836841583252
9.128633499145508,0.2576867341995239,-0.7715343236923218,0.9798199534416199,-0.4839017391204834,-0.07572289556264877,0.4530022144317627
9.148686647415161,0.25616082549095154,-0.7703898549079895,0.9794384837150574,-0.4839017391204834,-0.071908138692379,0.4537651538848877
9.168750524520874,0.25310903787612915,-0.7715343236923218,0.9782940149307251,-0.4839017391204834,-0.0711451917886734,0.4533836841583252
9.188830137252808,0.25616082549095154,-0.7742046117782593,0.9786755442619324,-0.4835202693939209,-0.07801175117492676,0.4530022144317627
9.208922147750854,0.25577935576438904,-0.7768749594688416,0.9813458323478699,-0.483138769865036,-0.08030059933662415,0.4545281231403351
9.22900676727295,0.2603570520877838,-0.7803082466125488,0.9824903011322021,-0.4835202693939209,-0.08564125746488571,0.4549095928668976
9.2490553855896,0.2634088695049286,-0.7791637778282166,0.9824903011322021,-0.4835202693939209,-0.0871671661734581,0.45681697130203247
9.269170045852661,0.2615014910697937,-0.776493489742279,0.9824903011322021,-0.4839017391204834,-0.08564125746488571,0.45643550157546997
9.289236307144165,0.2569237947463989,-0.7734416723251343,0.9805828928947449,-0.4854276478290558,-0.07877469807863235,0.45643550157546997
9.30934476852417,0.2576867341995239,-0.7730602025985718,0.9813458323478699,-0.4865720570087433,-0.07801175117492676,0.45643550157546997
9.329502820968628,0.24967575073242188,-0.7738231420516968,0.9813458323478699,-0.4865720570087433,-0.07648584991693497,0.45681697130203247
9.34952425956726,0.2473868876695633,-0.775730550289154,0.9809643626213074,-0.4865720570087433,-0.08106355369091034,0.45643550157546997
9.36960768699646,0.2500572204589844,-0.7806897163391113,0.9832532405853271,-0.4854276478290558,-0.08411535620689392,0.45719844102859497
9.389703512191772,0.25158312916755676,-0.7837415337562561,0.9855420589447021,-0.483138769865036,-0.09136339277029037,0.45872434973716736
9.409755945205688,0.25387197732925415,-0.7890821695327759,0.9870679974555969,-0.4835202693939209,-0.09594109654426575,0.45872434973716736
9.429860591888428,0.2580682039260864,-0.7883192300796509,0.9870679974555969,-0.483138769865036,-0.09441519528627396,0.45948728919029236
9.449974060058594,0.2584496736526489,-0.7867932915687561,0.9878309369087219,-0.4839017391204834,-0.08869306743144989,0.45948728919029236
9.470041275024414,0.25539788603782654,-0.7841230034828186,0.9870679974555969,-0.4842832088470459,-0.08106355369091034,0.45872434973716736
9.490126848220825,0.2504386901855469,-0.7814526557922363,0.9836347103118896,-0.4846646785736084,-0.07381551712751389,0.45719844102859497
9.510219812393188,0.24891279637813568,-0.7795453071594238,0.9874494671821594,-0.4846646785736084,-0.07381551712751389,0.45719844102859497
9.530277729034424,0.247768372297287,-0.7825970649719238,0.9905012845993042,-0.482375830411911,-0.07763027399778366,0.45757991075515747
9.550371170043945,0.25196459889411926,-0.7841230034828186,0.9897382855415344,-0.483138769865036,-0.0879301130771637,0.45796138048171997
9.570514440536499,0.25539788603782654,-0.7856488823890686,0.9897382855415344,-0.4819943606853485,-0.09594109654426575,0.45757991075515747
9.590539693832397,0.25463491678237915,-0.7845044732093811,0.9889753460884094,-0.4812313914299011,-0.09632257372140884,0.45910581946372986
9.610630989074707,0.2573052644729614,-0.7833600640296936,0.9885938763618469,-0.482375830411911,-0.08907453715801239,0.45872434973716736
9.630707740783691,0.25387197732925415,-0.7814526557922363,0.9889753460884094,-0.482375830411911,-0.07991912961006165,0.45872434973716736
9.650797605514526,0.25234606862068176,-0.7791637778282166,0.9866865277290344,-0.4835202693939209,-0.07763027399778366,0.45681697130203247
9.670866012573242,0.24929426610469818,-0.776493489742279,0.9870679974555969,-0.4835202693939209,-0.07572289556264877,0.45643550157546997
9.690942287445068,0.2450980395078659,-0.7753490209579468,0.9847791194915771,-0.4827573001384735,-0.07267109304666519,0.45719844102859497
9.711007595062256,0.24319066107273102,-0.775730550289154,0.9847791194915771,-0.483138769865036,-0.07534141838550568,0.45681697130203247
9.731093168258667,0.24967575073242188,-0.778782308101654,0.9855420589447021,-0.4819943606853485,-0.08373387902975082,0.45719844102859497
9.751174449920654,0.25272753834724426,-0.7829785346984863,0.9878309369087219,-0.4804684519767761,-0.086785688996315,0.45834288001060486
9.77157735824585,0.25577935576438904,-0.7829785346984863,0.9870679974555969,-0.4812313914299011,-0.09327077120542526,0.45757991075515747
9.791652917861938,0.2584496736526489,-0.7814526557922363,0.9863049983978271,-0.4808499217033386,-0.09021896868944168,0.45834288001060486
9.811721324920654,0.2580682039260864,-0.778782308101654,0.9855420589447021,-0.4827573001384735,-0.08258945494890213,0.45757991075515747
9.831850290298462,0.25272753834724426,-0.7745860815048218,0.9843976497650146,-0.4839017391204834,-0.07495994865894318,0.45681697130203247
9.851938724517822,0.25234606862068176,-0.770771324634552,0.9805828928947449,-0.4839017391204834,-0.0722896158695221,0.4560540020465851
9.87210202217102,0.24967575073242188,-0.7703898549079895,0.9824903011322021,-0.483138769865036,-0.0711451917886734,0.4560540020465851
9.89213514328003,0.2470054179430008,-0.7722972631454468,0.9847791194915771,-0.4835202693939209,-0.07801175117492676,0.45643550157546997
9.912206888198853,0.2481498420238495,-0.7749675512313843,0.9851605892181396,-0.483138769865036,-0.086785688996315,0.45681697130203247
9.932291746139526,0.25234606862068176,-0.778019368648529,0.9855420589447021,-0.4819943606853485,-0.09670405089855194,0.45757991075515747
9.95236086845398,0.25463491678237915,-0.7803082466125488,0.9866865277290344,-0.482375830411911,-0.10013733059167862,0.45757991075515747
9.9724440574646,0.25272753834724426,-0.777256429195404,0.9863049983978271,-0.483138769865036,-0.09365224838256836,0.45757991075515747
9.992519617080688,0.2504386901855469,-0.7742046117782593,0.9855420589447021,-0.4835202693939209,-0.08258945494890213,0.45719844102859497
10.012619018554688,0.2458609938621521,-0.7719157934188843,0.9843976497650146,-0.4835202693939209,-0.07839322835206985,0.45719844102859497
10.032703876495361,0.24891279637813568,-0.770771324634552,0.9836347103118896,-0.4850461483001709,-0.07915617525577545,0.4560540020465851
10.052832841873169,0.24967575073242188,-0.770771324634552,0.9843976497650146,-0.4842832088470459,-0.07839322835206985,0.45643550157546997
10.072853803634644,0.247768372297287,-0.7715343236923218,0.9821087718009949,-0.4842832088470459,-0.07915617525577545,0.45681697130203247
10.093164443969727,0.25349050760269165,-0.7730602025985718,0.9821087718009949,-0.4839017391204834,-0.08182650804519653,0.45681697130203247
10.113256692886353,0.2508201599121094,-0.7745860815048218,0.9824903011322021,-0.482375830411911,-0.07763027399778366,0.45796138048171997
10.133290767669678,0.2500572204589844,-0.776493489742279,0.9828717708587646,-0.483138769865036,-0.07953765243291855,0.45719844102859497
10.153456926345825,0.25616082549095154,-0.777256429195404,0.9847791194915771,-0.483138769865036,-0.08525978773832321,0.45719844102859497
10.17354154586792,0.25654229521751404,-0.777256429195404,0.9855420589447021,-0.4835202693939209,-0.086785688996315,0.45796138048171997
10.193614482879639,0.25654229521751404,-0.7745860815048218,0.9828717708587646,-0.4846646785736084,-0.08525978773832321,0.45681697130203247
10.213972806930542,0.25501641631126404,-0.7722972631454468,0.9828717708587646,-0.4839017391204834,-0.07839322835206985,0.45719844102859497
10.234068870544434,0.2470054179430008,-0.7722972631454468,0.9824903011322021,-0.4839017391204834,-0.07572289556264877,0.45719844102859497
10.254171371459961,0.2443350851535797,-0.7734416723251343,0.9824903011322021,-0.4850461483001709,-0.07877469807863235,0.4560540020465851
10.274224281311035,0.24357213079929352,-0.7745860815048218,0.9824903011322021,-0.4839017391204834,-0.08869306743144989,0.45719844102859497
10.29431414604187,0.2458609938621521,-0.778019368648529,0.9828717708587646,-0.4839017391204834,-0.09861142933368683,0.45719844102859497
10.314413070678711,0.25272753834724426,-0.7806897163391113,0.9843976497650146,-0.4835202693939209,-0.10585946589708328,0.45757991075515747
10.334470987319946,0.25463491678237915,-0.7803082466125488,0.9843976497650146,-0.4835202693939209,-0.10547798871994019,0.45834288001060486
10.354556798934937,0.25463491678237915,-0.7761120200157166,0.9836347103118896,-0.4839017391204834,-0.09784847497940063,0.45757991075515747
10.374631404876709,0.2504386901855469,-0.7722972631454468,0.9821087718009949,-0.4839017391204834,-0.0879301130771637,0.45719844102859497
10.394694328308105,0.24242770671844482,-0.769245445728302,0.9813458323478699,-0.4846646785736084,-0.08106355369091034,0.45719844102859497
10.414780139923096,0.24166475236415863,-0.7688639760017395,0.9813458323478699,-0.4861905872821808,-0.07991912961006165,0.45681697130203247
10.434849262237549,0.24319066107273102,-0.770008385181427,0.9813458323478699,-0.4858091175556183,-0.08487831056118011,0.45681697130203247
10.454907894134521,0.2473868876695633,-0.7726787328720093,0.9817273020744324,-0.4835202693939209,-0.09098191559314728,0.45719844102859497
10.474976062774658,0.2481498420238495,-0.7753490209579468,0.9836347103118896,-0.482375830411911,-0.09746700525283813,0.45834288001060486
10.495064496994019,0.2466239482164383,-0.7776378989219666,0.9843976497650146,-0.482375830411911,-0.09479667246341705,0.45757991075515747
10.51511836051941,0.247768372297287,-0.7768749594688416,0.9851605892181396,-0.482375830411911,-0.08869306743144989,0.45796138048171997
10.535262823104858,0.2439536154270172,-0.7753490209579468,0.9851605892181396,-0.482375830411911,-0.08449683338403702,0.45796138048171997
10.555367469787598,0.24280919134616852,-0.7726787328720093,0.9843976497650146,-0.483138769865036,-0.07953765243291855,0.45681697130203247
10.575441122055054,0.24242770671844482,-0.7719157934188843,0.9840161800384521,-0.4827573001384735,-0.08068207651376724,0.45719844102859497
10.595492601394653,0.24280919134616852,-0.7722972631454468,0.9843976497650146,-0.483138769865036,-0.08449683338403702,0.45681697130203247
10.615587711334229,0.248531311750412,-0.7738231420516968,0.9840161800384521,-0.482375830411911,-0.08983749151229858,0.45681697130203247
10.635669231414795,0.2473868876695633,-0.7745860815048218,0.9843976497650146,-0.4804684519767761,-0.08907453715801239,0.45872434973716736
10.655728816986084,0.2470054179430008,-0.7742046117782593,0.9832532405853271,-0.4804684519767761,-0.08945601433515549,0.45796138048171997
10.675808668136597,0.2470054179430008,-0.7749675512313843,0.9836347103118896,-0.4800869822502136,-0.08411535620689392,0.45796138048171997
10.6961088180542,0.2443350851535797,-0.7726787328720093,0.9851605892181396,-0.4800869822502136,-0.07991912961006165,0.45757991075515747
10.715987205505371,0.2443350851535797,-0.7711527943611145,0.9836347103118896,-0.4808499217033386,-0.08258945494890213,0.45719844102859497
10.73610544204712,0.24891279637813568,-0.770008385181427,0.9843976497650146,-0.4812313914299011,-0.08297093212604523,0.45681697130203247
10.756180763244629,0.2443350851535797,-0.7696269154548645,0.9840161800384521,-0.4797055125236511,-0.07953765243291855,0.45872434973716736
10.776354312896729,0.24166475236415863,-0.7715343236923218,0.9843976497650146,-0.4804684519767761,-0.08373387902975082,0.45719844102859497
10.796510934829712,0.2458609938621521,-0.7738231420516968,0.9843976497650146,-0.47932401299476624,-0.08106355369091034,0.45719844102859497
10.816527843475342,0.24967575073242188,-0.7768749594688416,0.9859235286712646,-0.47894254326820374,-0.0875486359000206,0.45834288001060486
10.836619853973389,0.25196459889411926,-0.777256429195404,0.9855420589447021,-0.47932401299476624,-0.08907453715801239,0.45719844102859497
10.856685161590576,0.25501641631126404,-0.7738231420516968,0.9847791194915771,-0.47894254326820374,-0.0871671661734581,0.45757991075515747
10.87677788734436,0.25272753834724426,-0.768482506275177,0.9832532405853271,-0.47932401299476624,-0.07801175117492676,0.45719844102859497
10.89684247970581,0.2481498420238495,-0.7658121585845947,0.9821087718009949,-0.4804684519767761,-0.07305257022380829,0.45681697130203247
10.917246341705322,0.24929426610469818,-0.7623788714408875,0.9813458323478699,-0.4819943606853485,-0.07610437273979187,0.45643550157546997
10.937311887741089,0.2462424635887146,-0.76276034116745,0.9794384837150574,-0.481612890958786,-0.07610437273979187,0.45681697130203247
10.957387924194336,0.2443350851535797,-0.7642862796783447,0.9790570139884949,-0.481612890958786,-0.08297093212604523,0.45681697130203247
10.97746205329895,0.24929426610469818,-0.7688639760017395,0.9794384837150574,-0.4808499217033386,-0.09365224838256836,0.45681697130203247
10.997569799423218,0.25234606862068176,-0.7734416723251343,0.9840161800384521,-0.47932401299476624,-0.09555962681770325,0.45834288001060486
11.01767635345459,0.25501641631126404,-0.775730550289154,0.9828717708587646,-0.4808499217033386,-0.09365224838256836,0.45834288001060486
11.037728309631348,0.2576867341995239,-0.7726787328720093,0.9813458323478699,-0.4812313914299011,-0.08487831056118011,0.45757991075515747
11.057806730270386,0.2576867341995239,-0.7711527943611145,0.9832532405853271,-0.482375830411911,-0.07763027399778366,0.45681697130203247
11.077885150909424,0.25387197732925415,-0.7673380374908447,0.9836347103118896,-0.4842832088470459,-0.06923781335353851,0.45643550157546997
11.097928285598755,0.24891279637813568,-0.763523280620575,0.9802014231681824,-0.4846646785736084,-0.06961929053068161,0.45643550157546997
11.118042230606079,0.25349050760269165,-0.7658121585845947,0.9813458323478699,-0.4854276478290558,-0.0707637146115303,0.45643550157546997
11.138174057006836,0.25425344705581665,-0.770008385181427,0.9870679974555969,-0.4819943606853485,-0.07267109304666519,0.45719844102859497
11.158249378204346,0.25577935576438904,-0.7768749594688416,0.9889753460884094,-0.4827573001384735,-0.09174486994743347,0.45796138048171997
11.178584814071655,0.2641718089580536,-0.7814526557922363,0.9893568158149719,-0.4827573001384735,-0.09899290651082993,0.45757991075515747
11.19866681098938,0.2645532786846161,-0.7814526557922363,0.9885938763618469,-0.4808499217033386,-0.08525978773832321,0.46025025844573975
11.218719244003296,0.2611200213432312,-0.7814526557922363,0.9866865277290344,-0.4812313914299011,-0.07572289556264877,0.45948728919029236
11.23892855644226,0.2569237947463989,-0.7803082466125488,0.9866865277290344,-0.482375830411911,-0.07000076025724411,0.45719844102859497
11.259054899215698,0.2569237947463989,-0.7799267768859863,0.9866865277290344,-0.483138769865036,-0.06733043491840363,0.45681697130203247
11.279104471206665,0.25387197732925415,-0.778019368648529,0.9863049983978271,-0.483138769865036,-0.06847485899925232,0.45681697130203247
11.299182415008545,0.25425344705581665,-0.7784008383750916,0.9859235286712646,-0.483138769865036,-0.07801175117492676,0.45681697130203247
11.319247007369995,0.2580682039260864,-0.7795453071594238,0.9855420589447021,-0.482375830411911,-0.08525978773832321,0.45757991075515747
11.339320659637451,0.2588311731815338,-0.7833600640296936,0.9870679974555969,-0.4812313914299011,-0.0875486359000206,0.45948728919029236
11.359410047531128,0.2618829607963562,-0.7864118218421936,0.9866865277290344,-0.482375830411911,-0.09212634712457657,0.45910581946372986
11.37955927848816,0.2637903392314911,-0.7860303521156311,0.9866865277290344,-0.482375830411911,-0.0883115902543068,0.46025025844573975
11.399586200714111,0.2615014910697937,-0.7833600640296936,0.9859235286712646,-0.483138769865036,-0.08525978773832321,0.45986875891685486
11.41966462135315,0.2569237947463989,-0.7810711860656738,0.9843976497650146,-0.4846646785736084,-0.07801175117492676,0.45872434973716736
11.439934730529785,0.2584496736526489,-0.7784008383750916,0.9843976497650146,-0.4858091175556183,-0.07686731964349747,0.45757991075515747
11.460013389587402,0.25387197732925415,-0.777256429195404,0.9828717708587646,-0.4858091175556183,-0.08182650804519653,0.45757991075515747
11.480104923248291,0.25349050760269165,-0.777256429195404,0.9809643626213074,-0.4877164959907532,-0.08869306743144989,0.45757991075515747
11.500166893005371,0.25310903787612915,-0.7791637778282166,0.9817273020744324,-0.4861905872821808,-0.09212634712457657,0.45834288001060486
11.520256519317627,0.25501641631126404,-0.7829785346984863,0.9828717708587646,-0.4846646785736084,-0.09517814964056015,0.46063172817230225
11.540331363677979,0.25654229521751404,-0.7852674126625061,0.9859235286712646,-0.4850461483001709,-0.09975585341453552,0.46063172817230225
11.560384511947632,0.25654229521751404,-0.7852674126625061,0.9863049983978271,-0.4846646785736084,-0.09555962681770325,0.46025025844573975
11.58049750328064,0.25501641631126404,-0.7818341255187988,0.9843976497650146,-0.4854276478290558,-0.08869306743144989,0.46025025844573975
11.600576639175415,0.25158312916755676,-0.7753490209579468,0.9836347103118896,-0.4861905872821808,-0.08258945494890213,0.45986875891685486
11.620645761489868,0.2481498420238495,-0.7730602025985718,0.9832532405853271,-0.4873350262641907,-0.07915617525577545,0.45872434973716736
11.640780448913574,0.2473868876695633,-0.7730602025985718,0.9824903011322021,-0.4873350262641907,-0.08449683338403702,0.45834288001060486
11.66086745262146,0.24929426610469818,-0.7738231420516968,0.9824903011322021,-0.4869535267353058,-0.0883115902543068,0.45910581946372986
11.680954933166504,0.24967575073242188,-0.7753490209579468,0.9836347103118896,-0.4861905872821808,-0.09555962681770325,0.45948728919029236
11.701002836227417,0.25387197732925415,-0.7803082466125488,0.9836347103118896,-0.4861905872821808,-0.09822995215654373,0.46025025844573975
11.721088647842407,0.2573052644729614,-0.7806897163391113,0.9843976497650146,-0.4858091175556183,-0.09975585341453552,0.46139466762542725
11.74117398262024,0.2588311731815338,-0.778019368648529,0.9840161800384521,-0.4858091175556183,-0.09060044586658478,0.46063172817230225
11.761291265487671,0.2580682039260864,-0.775730550289154,0.9832532405853271,-0.4861905872821808,-0.08144503086805344,0.46101319789886475
11.781367301940918,0.25310903787612915,-0.7719157934188843,0.9809643626213074,-0.4869535267353058,-0.07610437273979187,0.46025025844573975
11.801424264907837,0.25234606862068176,-0.769245445728302,0.9794384837150574,-0.4884794354438782,-0.07877469807863235,0.45910581946372986
11.82216191291809,0.25463491678237915,-0.770008385181427,0.9790570139884949,-0.4880979657173157,-0.08144503086805344,0.45948728919029236
11.842252969741821,0.24929426610469818,-0.770008385181427,0.9809643626213074,-0.4861905872821808,-0.08525978773832321,0.46101319789886475
11.862309455871582,0.2470054179430008,-0.7745860815048218,0.9813458323478699,-0.4869535267353058,-0.09365224838256836,0.46101319789886475
11.882364988327026,0.25158312916755676,-0.7795453071594238,0.9821087718009949,-0.4861905872821808,-0.09822995215654373,0.46139466762542725
11.902474164962769,0.25196459889411926,-0.7818341255187988,0.9843976497650146,-0.4846646785736084,-0.09937438368797302,0.46253910660743713
11.922562599182129,0.24891279637813568,-0.7860303521156311,0.9855420589447021,-0.4850461483001709,-0.09479667246341705,0.46215763688087463
11.942618370056152,0.24967575073242188,-0.7837415337562561,0.9855420589447021,-0.4858091175556183,-0.0875486359000206,0.46177613735198975
11.962698936462402,0.2473868876695633,-0.7814526557922363,0.9855420589447021,-0.4854276478290558,-0.08106355369091034,0.46215763688087463
11.982755422592163,0.24357213079929352,-0.7784008383750916,0.9843976497650146,-0.4858091175556183,-0.07877469807863235,0.46101319789886475
12.002837657928467,0.24319066107273102,-0.777256429195404,0.9843976497650146,-0.4858091175556183,-0.08258945494890213,0.46101319789886475
12.022919416427612,0.2447165697813034,-0.7784008383750916,0.9847791194915771,-0.4858091175556183,-0.08869306743144989,0.46101319789886475
12.042994022369385,0.2481498420238495,-0.7806897163391113,0.9859235286712646,-0.4858091175556183,-0.09365224838256836,0.46101319789886475
12.063043117523193,0.2466239482164383,-0.7825970649719238,0.9855420589447021,-0.4839017391204834,-0.09517814964056015,0.46215763688087463
12.08315896987915,0.2470054179430008,-0.7825970649719238,0.9847791194915771,-0.4835202693939209,-0.086785688996315,0.46139466762542725
12.103219509124756,0.2470054179430008,-0.7825970649719238,0.9843976497650146,-0.4835202693939209,-0.08297093212604523,0.46101319789886475
12.12331485748291,0.2470054179430008,-0.7825970649719238,0.9847791194915771,-0.4839017391204834,-0.08182650804519653,0.46101319789886475
12.143388032913208,0.2473868876695633,-0.7818341255187988,0.9847791194915771,-0.4842832088470459,-0.08220797777175903,0.46025025844573975
12.163490772247314,0.2473868876695633,-0.7814526557922363,0.9847791194915771,-0.4842832088470459,-0.08258945494890213,0.46063172817230225
12.183557033538818,0.2470054179430008,-0.7818341255187988,0.9847791194915771,-0.4842832088470459,-0.08487831056118011,0.46063172817230225
12.203625440597534,0.2466239482164383,-0.7822155952453613,0.9847791194915771,-0.4842832088470459,-0.086785688996315,0.46063172817230225
12.223721742630005,0.2458609938621521,-0.7825970649719238,0.9843976497650146,-0.4839017391204834,-0.0871671661734581,0.46063172817230225
12.243786334991455,0.2450980395078659,-0.7825970649719238,0.9843976497650146,-0.4839017391204834,-0.086785688996315,0.46063172817230225
12.26387071609497,0.2450980395078659,-0.7822155952453613,0.9843976497650146,-0.4842832088470459,-0.086785688996315,0.46063172817230225
12.283992290496826,0.2450980395078659,-0.7822155952453613,0.9843976497650146,-0.4842832088470459,-0.08602273464202881,0.46063172817230225
12.304054021835327,0.2447165697813034,-0.7822155952453613,0.9843976497650146,-0.4846646785736084,-0.08525978773832321,0.46025025844573975
12.324349164962769,0.2447165697813034,-0.7822155952453613,0.9843976497650146,-0.4846646785736084,-0.08411535620689392,0.46025025844573975
12.344537496566772,0.2439536154270172,-0.7822155952453613,0.9840161800384521,-0.4846646785736084,-0.08411535620689392,0.46025025844573975
12.364543676376343,0.24280919134616852,-0.7822155952453613,0.9832532405853271,-0.4846646785736084,-0.08525978773832321,0.46025025844573975
12.384796142578125,0.24242770671844482,-0.7822155952453613,0.9832532405853271,-0.4846646785736084,-0.086785688996315,0.46063172817230225
12.404902935028076,0.24128328263759613,-0.7822155952453613,0.9832532405853271,-0.4846646785736084,-0.0871671661734581,0.46025025844573975
12.425023794174194,0.24052032828330994,-0.7822155952453613,0.9832532405853271,-0.4850461483001709,-0.0871671661734581,0.46025025844573975
12.445080995559692,0.24052032828330994,-0.7822155952453613,0.9832532405853271,-0.4850461483001709,-0.0864042118191719,0.46025025844573975
12.465190410614014,0.24052032828330994,-0.7822155952453613,0.9832532405853271,-0.4850461483001709,-0.08602273464202881,0.46025025844573975
12.485280752182007,0.24052032828330994,-0.7822155952453613,0.9824903011322021,-0.4854276478290558,-0.08564125746488571,0.46025025844573975
12.505347967147827,0.23975738883018494,-0.7822155952453613,0.9824903011322021,-0.4854276478290558,-0.08525978773832321,0.46025025844573975
12.525438785552979,0.23975738883018494,-0.7822155952453613,0.9824903011322021,-0.4854276478290558,-0.08602273464202881,0.46025025844573975
12.545527458190918,0.23937590420246124,-0.7822155952453613,0.9824903011322021,-0.4854276478290558,-0.0871671661734581,0.46025025844573975
12.565542459487915,0.23861294984817505,-0.7822155952453613,0.9824903011322021,-0.4858091175556183,-0.0871671661734581,0.46025025844573975
12.58585000038147,0.23785001039505005,-0.7822155952453613,0.9824903011322021,-0.4858091175556183,-0.0871671661734581,0.45986875891685486
12.605944156646729,0.23746852576732635,-0.7822155952453613,0.9824903011322021,-0.4858091175556183,-0.0864042118191719,0.45986875891685486
12.626044034957886,0.23746852576732635,-0.7822155952453613,0.9824903011322021,-0.4858091175556183,-0.08602273464202881,0.45986875891685486
12.64606761932373,0.23708705604076385,-0.7822155952453613,0.9821087718009949,-0.4861905872821808,-0.08602273464202881,0.45986875891685486
12.66622519493103,0.23632410168647766,-0.7822155952453613,0.9821087718009949,-0.4861905872821808,-0.086785688996315,0.45948728919029236
12.686245441436768,0.23517967760562897,-0.7822155952453613,0.9821087718009949,-0.4861905872821808,-0.0864042118191719,0.45948728919029236
12.706343173980713,0.23517967760562897,-0.7822155952453613,0.9821087718009949,-0.4861905872821808,-0.0871671661734581,0.45910581946372986
12.726449489593506,0.23441672325134277,-0.7822155952453613,0.9813458323478699,-0.4861905872821808,-0.0871671661734581,0.45910581946372986
12.74654221534729,0.23441672325134277,-0.7822155952453613,0.9813458323478699,-0.4865720570087433,-0.0871671661734581,0.45910581946372986
12.766543865203857,0.23365376889705658,-0.7822155952453613,0.9813458323478699,-0.4865720570087433,-0.0871671661734581,0.45910581946372986
12.786625623703003,0.23327229917049408,-0.7822155952453613,0.9813458323478699,-0.4865720570087433,-0.086785688996315,0.45834288001060486
12.806797504425049,0.23250934481620789,-0.7822155952453613,0.9813458323478699,-0.4865720570087433,-0.08602273464202881,0.45796138048171997
12.826784610748291,0.23250934481620789,-0.7822155952453613,0.9809643626213074,-0.4869535267353058,-0.0871671661734581,0.45757991075515747
12.846874713897705,0.23250934481620789,-0.7822155952453613,0.9809643626213074,-0.4869535267353058,-0.0871671661734581,0.45757991075515747
12.866968154907227,0.23212787508964539,-0.7822155952453613,0.9809643626213074,-0.4869535267353058,-0.0871671661734581,0.45757991075515747
12.887013912200928,0.2313649207353592,-0.7822155952453613,0.9805828928947449,-0.4869535267353058,-0.086785688996315,0.45757991075515747
12.907111167907715,0.2309834510087967,-0.7822155952453613,0.9802014231681824,-0.4869535267353058,-0.0871671661734581,0.45719844102859497
12.927180528640747,0.2302204966545105,-0.7822155952453613,0.9802014231681824,-0.4869535267353058,-0.08602273464202881,0.45719844102859497
12.947271347045898,0.2302204966545105,-0.7822155952453613,0.9802014231681824,-0.4869535267353058,-0.086785688996315,0.45719844102859497
12.96735429763794,0.2298390120267868,-0.7822155952453613,0.9802014231681824,-0.4869535267353058,-0.086785688996315,0.45719844102859497
12.987435817718506,0.2290760725736618,-0.7822155952453613,0.9802014231681824,-0.4869535267353058,-0.0871671661734581,0.45719844102859497
13.007545232772827,0.2286945879459381,-0.7822155952453613,0.9794384837150574,-0.4869535267353058,-0.0871671661734581,0.45719844102859497
13.027617692947388,0.22793163359165192,-0.7822155952453613,0.9794384837150574,-0.4873350262641907,-0.0875486359000206,0.45719844102859497
13.047760486602783,0.22716869413852692,-0.7822155952453613,0.9794384837150574,-0.4873350262641907,-0.086785688996315,0.45719844102859497
13.067800283432007,0.22716869413852692,-0.7822155952453613,0.9790570139884949,-0.4873350262641907,-0.0871671661734581,0.45681697130203247
13.087871074676514,0.22678720951080322,-0.7822155952453613,0.9790570139884949,-0.4873350262641907,-0.0871671661734581,0.45681697130203247
13.107961416244507,0.22602425515651703,-0.7822155952453613,0.9790570139884949,-0.4877164959907532,-0.0871671661734581,0.45681697130203247
13.128057479858398,0.22526131570339203,-0.7822155952453613,0.9790570139884949,-0.4877164959907532,-0.0871671661734581,0.45681697130203247
13.148131370544434,0.22487983107566833,-0.7822155952453613,0.9790570139884949,-0.4877164959907532,-0.0875486359000206,0.45681697130203247
13.168193578720093,0.22487983107566833,-0.7822155952453613,0.9786755442619324,-0.4877164959907532,-0.0875486359000206,0.45681697130203247
13.188264608383179,0.22411687672138214,-0.7822155952453613,0.9782940149307251,-0.4877164959907532,-0.0875486359000206,0.45681697130203247
13.208401203155518,0.22373540699481964,-0.7822155952453613,0.9782940149307251,-0.4877164959907532,-0.0871671661734581,0.45681697130203247
13.228484869003296,0.22297245264053345,-0.7822155952453613,0.9782940149307251,-0.4880979657173157,-0.086785688996315,0.45643550157546997
13.248563289642334,0.22297245264053345,-0.7822155952453613,0.9782940149307251,-0.4880979657173157,-0.0871671661734581,0.45643550157546997
13.268927812576294,0.22220951318740845,-0.7822155952453613,0.9782940149307251,-0.4880979657173157,-0.0875486359000206,0.45643550157546997
13.289015531539917,0.22144655883312225,-0.7822155952453613,0.9779125452041626,-0.4884794354438782,-0.0875486359000206,0.45643550157546997
13.309107065200806,0.22068360447883606,-0.7822155952453613,0.9775310754776001,-0.4884794354438782,-0.0871671661734581,0.45643550157546997
13.329267024993896,0.21992065012454987,-0.7822155952453613,0.9771496057510376,-0.4884794354438782,-0.0883115902543068,0.4560540020465851
13.349396228790283,0.21992065012454987,-0.7822155952453613,0.9771496057510376,-0.4888609051704407,-0.0883115902543068,0.4560540020465851
13.36949896812439,0.21953918039798737,-0.7822155952453613,0.9771496057510376,-0.4888609051704407,-0.0879301130771637,0.4560540020465851
13.389654159545898,0.21839475631713867,-0.7822155952453613,0.9771496057510376,-0.4888609051704407,-0.0879301130771637,0.4560540020465851
13.409754276275635,0.21801327168941498,-0.7822155952453613,0.9771496057510376,-0.48962387442588806,-0.0879301130771637,0.4556725323200226
13.429826021194458,0.21763180196285248,-0.7822155952453613,0.9771496057510376,-0.49000534415245056,-0.0883115902543068,0.4556725323200226
13.450190305709839,0.21801327168941498,-0.7822155952453613,0.9767681360244751,-0.49000534415245056,-0.0883115902543068,0.4552910625934601
13.470267295837402,0.21725031733512878,-0.7822155952453613,0.9763866662979126,-0.49000534415245056,-0.08869306743144989,0.4552910625934601
13.490363359451294,0.21686884760856628,-0.7822155952453613,0.9763866662979126,-0.49000534415245056,-0.0883115902543068,0.4552910625934601
13.510647535324097,0.2161058932542801,-0.7822155952453613,0.9763866662979126,-0.49000534415245056,-0.0883115902543068,0.4549095928668976
13.530740022659302,0.2157244235277176,-0.7822155952453613,0.9763866662979126,-0.49000534415245056,-0.0883115902543068,0.4545281231403351
13.55081558227539,0.2153429538011551,-0.7822155952453613,0.9760051965713501,-0.49038681387901306,-0.0883115902543068,0.4537651538848877
13.570890426635742,0.2145799994468689,-0.7822155952453613,0.9760051965713501,-0.49038681387901306,-0.08869306743144989,0.4533836841583252
13.590999364852905,0.2141985148191452,-0.7822155952453613,0.9760051965713501,-0.49038681387901306,-0.08869306743144989,0.4533836841583252
13.611051321029663,0.2134355753660202,-0.7822155952453613,0.9756237268447876,-0.49038681387901306,-0.08907453715801239,0.4533836841583252
13.631120681762695,0.2130540907382965,-0.7822155952453613,0.9752422571182251,-0.49038681387901306,-0.08907453715801239,0.4533836841583252
13.651215553283691,0.212672621011734,-0.7822155952453613,0.9752422571182251,-0.49038681387901306,-0.08907453715801239,0.4530022144317627
13.671302080154419,0.21229113638401031,-0.7822155952453613,0.9752422571182251,-0.49076828360557556,-0.08907453715801239,0.4530022144317627
13.691372632980347,0.21190966665744781,-0.7822155952453613,0.9752422571182251,-0.49076828360557556,-0.08907453715801239,0.4530022144317627
13.711445093154907,0.21114671230316162,-0.7822155952453613,0.9752422571182251,-0.49076828360557556,-0.08945601433515549,0.4530022144317627
13.731498718261719,0.21076524257659912,-0.7822155952453613,0.9748607873916626,-0.49114975333213806,-0.08907453715801239,0.4526207447052002
13.751621961593628,0.21038375794887543,-0.7822155952453613,0.9748607873916626,-0.49114975333213806,-0.08907453715801239,0.4526207447052002
13.771709203720093,0.21000228822231293,-0.7822155952453613,0.9748607873916626,-0.49114975333213806,-0.08945601433515549,0.4526207447052002
13.791780710220337,0.20923933386802673,-0.7822155952453613,0.9744792580604553,-0.49114975333213806,-0.08945601433515549,0.4522392749786377
13.811853647232056,0.20847637951374054,-0.7822155952453613,0.9744792580604553,-0.49114975333213806,-0.08945601433515549,0.4522392749786377
13.831955432891846,0.20809490978717804,-0.7822155952453613,0.9740977883338928,-0.49153125286102295,-0.08945601433515549,0.4518577754497528
13.852058172225952,0.20771344006061554,-0.7822155952453613,0.9740977883338928,-0.49153125286102295,-0.08907453715801239,0.4518577754497528
13.872103214263916,0.20733195543289185,-0.7822155952453613,0.9740977883338928,-0.49153125286102295,-0.08945601433515549,0.4514763057231903
13.892208814620972,0.20580606162548065,-0.7822155952453613,0.9740977883338928,-0.49153125286102295,-0.08945601433515549,0.4503318965435028
13.912277460098267,0.20580606162548065,-0.7822155952453613,0.9740977883338928,-0.49191272258758545,-0.09021896868944168,0.4495689272880554
13.932331800460815,0.20542457699775696,-0.7822155952453613,0.9740977883338928,-0.49229419231414795,-0.08983749151229858,0.4495689272880554
13.952425718307495,0.20504310727119446,-0.7822155952453613,0.9740977883338928,-0.49267566204071045,-0.09021896868944168,0.4495689272880554
13.972508192062378,0.20466163754463196,-0.7822155952453613,0.9737163186073303,-0.49267566204071045,-0.09021896868944168,0.4495689272880554
13.992577075958252,0.20351719856262207,-0.7822155952453613,0.9729533791542053,-0.49305713176727295,-0.08983749151229858,0.4495689272880554
14.012635469436646,0.20313572883605957,-0.7822155952453613,0.9729533791542053,-0.49343863129615784,-0.08945601433515549,0.4491874575614929
14.03273057937622,0.20313572883605957,-0.7822155952453613,0.9725719094276428,-0.49343863129615784,-0.08983749151229858,0.4491874575614929
14.05281138420105,0.20313572883605957,-0.7822155952453613,0.9721904397010803,-0.49343863129615784,-0.09021896868944168,0.4491874575614929
14.072908163070679,0.20237277448177338,-0.7822155952453613,0.9721904397010803,-0.49343863129615784,-0.09021896868944168,0.4491874575614929
14.092994689941406,0.20160982012748718,-0.7822155952453613,0.9721904397010803,-0.49343863129615784,-0.09021896868944168,0.4491874575614929
14.11306881904602,0.20084688067436218,-0.7822155952453613,0.9721904397010803,-0.49382010102272034,-0.08983749151229858,0.4491874575614929
14.133187055587769,0.20084688067436218,-0.7822155952453613,0.9721904397010803,-0.49382010102272034,-0.08983749151229858,0.4491874575614929
14.153278827667236,0.2004653960466385,-0.7822155952453613,0.9721904397010803,-0.49382010102272034,-0.09021896868944168,0.4491874575614929
14.1734778881073,0.1997024416923523,-0.7822155952453613,0.9721904397010803,-0.49382010102272034,-0.09021896868944168,0.4488059878349304
14.193456649780273,0.1989395022392273,-0.7822155952453613,0.9718089699745178,-0.49382010102272034,-0.09021896868944168,0.4491874575614929
14.213547706604004,0.1989395022392273,-0.7822155952453613,0.9718089699745178,-0.49382010102272034,-0.09060044586658478,0.4488059878349304
14.233621597290039,0.1985580176115036,-0.7822155952453613,0.9718089699745178,-0.49420157074928284,-0.09021896868944168,0.4488059878349304
14.253697395324707,0.1977950781583786,-0.7822155952453613,0.9718089699745178,-0.49420157074928284,-0.09021896868944168,0.4488059878349304
14.27406620979309,0.1977950781583786,-0.7822155952453613,0.9714275002479553,-0.49420157074928284,-0.09060044586658478,0.4484245181083679
14.294152975082397,0.1966506391763687,-0.7822155952453613,0.9710460305213928,-0.49420157074928284,-0.09021896868944168,0.4484245181083679
14.3142249584198,0.1966506391763687,-0.7822155952453613,0.9706645011901855,-0.49420157074928284,-0.09021896868944168,0.4484245181083679
