liuyurong129/humanoid-gym/humanoid/data/actual_q_20250522-040315.csv
timestamp,joint_1,joint_2,joint_3,joint_4,joint_5,joint_6
5.340576171875e-05,0.00019073777366429567,0.1668955534696579,-0.08258945494890213,-0.00019073777366429567,0.00019073777366429567,-0.00019073777366429567
0.020233154296875,0.000572213320992887,0.14286258816719055,-0.07305257022380829,-0.00019073777366429567,0.00019073777366429567,-0.00019073777366429567
0.0402529239654541,-0.00019073777366429567,0.12111848592758179,-0.06313420087099075,-0.00019073777366429567,0.0024795911740511656,-0.00019073777366429567
0.06032538414001465,-0.00019073777366429567,0.10738536715507507,-0.05741206929087639,-0.00019073777366429567,0.000572213320992887,-0.00019073777366429567
0.08039116859436035,-0.00019073777366429567,0.09746700525283813,-0.05092698708176613,-0.00019073777366429567,0.00019073777366429567,-0.00019073777366429567
0.10048198699951172,-0.00019073777366429567,0.0864042118191719,-0.043678950518369675,-0.00019073777366429567,0.00019073777366429567,-0.00019073777366429567
0.12060713768005371,0.000572213320992887,0.07305257022380829,-0.03376058489084244,0.00019073777366429567,0.00019073777366429567,-0.00019073777366429567
0.14069294929504395,0.001716639962978661,0.056267641484737396,-0.020027466118335724,0.00019073777366429567,0.00019073777366429567,-0.00019073777366429567
0.16081714630126953,0.0024795911740511656,0.04100862145423889,-0.010490577667951584,0.000572213320992887,-0.0013351644156500697,-0.000572213320992887
0.1808791160583496,0.002861066721379757,0.02079041674733162,0.004005493130534887,0.001716639962978661,-0.0009536888683214784,-0.0009536888683214784
0.20094823837280273,0.0024795911740511656,0.00019073777366429567,0.019645990803837776,0.0036240178160369396,-0.0009536888683214784,-0.0013351644156500697
0.22103071212768555,0.0024795911740511656,-0.020027466118335724,0.032616160809993744,0.004005493130534887,-0.000572213320992887,-0.0024795911740511656
0.2413320541381836,0.0024795911740511656,-0.039101243019104004,0.04901960864663124,0.005531395319849253,-0.0013351644156500697,-0.002861066721379757
0.2614405155181885,0.0024795911740511656,-0.05283436179161072,0.06351567804813385,0.007057297509163618,-0.0013351644156500697,-0.0032425422687083483
0.28159093856811523,0.002861066721379757,-0.06580453366041183,0.07648584991693497,0.0078202486038208,-0.0020981156267225742,-0.0032425422687083483
0.30167722702026367,0.0024795911740511656,-0.08220797777175903,0.08983749151229858,0.009346150793135166,-0.0036240178160369396,-0.0032425422687083483
0.32172179222106934,0.0024795911740511656,-0.09784847497940063,0.09975585341453552,0.010109102353453636,-0.004386968910694122,-0.0036240178160369396
0.3417682647705078,0.0024795911740511656,-0.1180666834115982,0.11120012402534485,0.01201647985726595,-0.00476844422519207,-0.0036240178160369396
0.3618810176849365,0.0024795911740511656,-0.1329442262649536,0.12264438718557358,0.01430533267557621,-0.006294346414506435,-0.004005493130534887
0.38204264640808105,0.0024795911740511656,-0.14858472347259521,0.13218127191066742,0.015449759550392628,-0.007438773289322853,-0.004386968910694122
0.4022939205169678,0.002861066721379757,-0.16384375095367432,0.14209964871406555,0.01735713705420494,-0.008201723918318748,-0.004386968910694122
0.42248058319091797,0.0020981156267225742,-0.18596932291984558,0.15316243469715118,0.01888304017484188,-0.009346150793135166,-0.005531395319849253
0.4424781799316406,0.0024795911740511656,-0.20237277448177338,0.16117341816425323,0.020027466118335724,-0.00858320016413927,-0.006294346414506435
0.46257853507995605,0.0024795911740511656,-0.21801327168941498,0.17032882571220398,0.021553369238972664,-0.009346150793135166,-0.006294346414506435
0.4826498031616211,0.0024795911740511656,-0.2298390120267868,0.17986571788787842,0.02231631986796856,-0.01125352829694748,-0.006294346414506435
0.502769947052002,0.0024795911740511656,-0.24204623699188232,0.18978407979011536,0.023460745811462402,-0.011635004542768002,-0.00667582219466567
0.5228254795074463,0.0024795911740511656,-0.25654229521751404,0.20160982012748718,0.024605173617601395,-0.011635004542768002,-0.00667582219466567
0.5429096221923828,0.0024795911740511656,-0.2763790488243103,0.21076524257659912,0.026131074875593185,-0.011635004542768002,-0.00667582219466567
0.5629997253417969,0.0024795911740511656,-0.2927824854850769,0.22182802855968475,0.02689402550458908,-0.014686808921396732,-0.00667582219466567
0.5831868648529053,0.0020981156267225742,-0.3065156042575836,0.23289081454277039,0.027656977996230125,-0.015449759550392628,-0.007057297509163618
0.6032216548919678,0.0020981156267225742,-0.32063019275665283,0.24204623699188232,0.029564354568719864,-0.01583123579621315,-0.007057297509163618
0.6233081817626953,0.0013351644156500697,-0.3385595381259918,0.25349050760269165,0.030708782374858856,-0.01583123579621315,-0.007438773289322853
0.6433672904968262,0.0013351644156500697,-0.3606851398944855,0.2634088695049286,0.032616160809993744,-0.016212711110711098,-0.007438773289322853
0.6634628772735596,0.0013351644156500697,-0.38014039397239685,0.2725642919540405,0.034142062067985535,-0.01888304017484188,-0.0078202486038208
0.6835615634918213,0.0009536888683214784,-0.3934920132160187,0.28477150201797485,0.03490501269698143,-0.018501564860343933,-0.008201723918318748
0.703679084777832,0.00019073777366429567,-0.4056992530822754,0.2931639552116394,0.03643091395497322,-0.01888304017484188,-0.008964675478637218
0.7241458892822266,-0.00019073777366429567,-0.421339750289917,0.30498969554901123,0.03795681521296501,-0.02040894143283367,-0.009727626107633114
0.7442529201507568,-0.000572213320992887,-0.440032035112381,0.31948578357696533,0.0394827201962471,-0.020027466118335724,-0.010490577667951584
0.7642965316772461,-0.000572213320992887,-0.4560540020465851,0.33093002438545227,0.04139009863138199,-0.020027466118335724,-0.010872052982449532
0.7844605445861816,-0.000572213320992887,-0.4697871506214142,0.34618905186653137,0.04253452271223068,-0.02079041674733162,-0.01125352829694748
0.8045163154602051,-0.00019073777366429567,-0.4800869822502136,0.3580147922039032,0.04444190114736557,-0.022697795182466507,-0.011635004542768002
0.82454514503479,-0.00019073777366429567,-0.49229419231414795,0.3721294105052948,0.04558632895350456,-0.02384222112596035,-0.01201647985726595
0.8446388244628906,-0.000572213320992887,-0.5144197940826416,0.3885328471660614,0.048256658017635345,-0.023460745811462402,-0.013542382046580315
0.864835262298584,-0.000572213320992887,-0.5407415628433228,0.404936283826828,0.050164032727479935,-0.02384222112596035,-0.013923857361078262
0.8848392963409424,-0.000572213320992887,-0.5598153471946716,0.4247730076313019,0.05283436179161072,-0.024986648932099342,-0.01430533267557621
0.9049084186553955,-0.000572213320992887,-0.5758373141288757,0.44155794382095337,0.05397878959774971,-0.025749599561095238,-0.01430533267557621
0.9249899387359619,-0.000572213320992887,-0.5895704627037048,0.45910581946372986,0.05703059583902359,-0.027656977996230125,-0.014686808921396732
0.9450705051422119,-0.000572213320992887,-0.6082627773284912,0.4800869822502136,0.06008239835500717,-0.03032730519771576,-0.01506828423589468
0.9651825428009033,-0.0009536888683214784,-0.6273365616798401,0.5014495849609375,0.061226826161146164,-0.02994582988321781,-0.015449759550392628
0.9851980209350586,-0.0009536888683214784,-0.6490806341171265,0.5243381261825562,0.06427863240242004,-0.029564354568719864,-0.016212711110711098
1.0052955150604248,-0.0013351644156500697,-0.6692988276481628,0.5525673031806946,0.06885633617639542,-0.032616160809993744,-0.01773861236870289
1.0253775119781494,-0.001716639962978661,-0.6898985505104065,0.5727855563163757,0.0715266615152359,-0.03223468363285065,-0.018501564860343933
1.0455055236816406,-0.0024795911740511656,-0.7116426229476929,0.6006332635879517,0.07572289556264877,-0.03223468363285065,-0.019645990803837776
1.0655624866485596,-0.002861066721379757,-0.7337682247161865,0.6197070479393005,0.07915617525577545,-0.03337911143898964,-0.02193484455347061
1.085618257522583,-0.0036240178160369396,-0.7578011751174927,0.6399252414703369,0.08220797777175903,-0.03604944050312042,-0.022697795182466507
1.1058244705200195,-0.004005493130534887,-0.7803082466125488,0.6620507836341858,0.0871671661734581,-0.0394827201962471,-0.023079270496964455
1.1259117126464844,-0.00476844422519207,-0.8039597272872925,0.6868467330932617,0.09174486994743347,-0.04177157208323479,-0.024223696440458298
1.1459813117980957,-0.00476844422519207,-0.8283741474151611,0.7093538045883179,0.09708552807569504,-0.04482337832450867,-0.025749599561095238
1.166078805923462,-0.00476844422519207,-0.8535515666007996,0.7330052852630615,0.10204470902681351,-0.048256658017635345,-0.026131074875593185
1.1861457824707031,-0.00476844422519207,-0.8768215179443359,0.7585641145706177,0.10585946589708328,-0.04787518084049225,-0.027656977996230125
1.2063627243041992,-0.00476844422519207,-0.9031433463096619,0.7894636392593384,0.11234454810619354,-0.05283436179161072,-0.029564354568719864
1.2265405654907227,-0.00476844422519207,-0.9294651746749878,0.8207446336746216,0.11654078215360641,-0.05245288833975792,-0.03032730519771576
1.2465486526489258,-0.004386968910694122,-0.951972246170044,0.8524070978164673,0.12149996310472488,-0.05359731614589691,-0.03223468363285065
1.2667393684387207,-0.004386968910694122,-0.9794384837150574,0.892080545425415,0.12760357558727264,-0.05397878959774971,-0.03299763426184654
1.2868609428405762,-0.004386968910694122,-1.0046159029006958,0.9321355223655701,0.1325627565383911,-0.0551232174038887,-0.034142062067985535
1.3070757389068604,-0.00476844422519207,-1.029411792755127,0.9737163186073303,0.13752193748950958,-0.05359731614589691,-0.035667963325977325
1.3271634578704834,-0.00476844422519207,-1.055733561515808,1.0172045230865479,0.14515145123004913,-0.056267641484737396,-0.037193864583969116
1.347217082977295,-0.00476844422519207,-1.0767147541046143,1.054207682609558,0.1520180106163025,-0.06008239835500717,-0.038719769567251205
1.367323875427246,-0.004386968910694122,-1.100366234779358,1.0957884788513184,0.15964750945568085,-0.06084534898400307,-0.04100862145423889
1.3874180316925049,-0.00476844422519207,-1.1175326108932495,1.1308842897415161,0.16880293190479279,-0.06351567804813385,-0.04329747334122658
1.4075088500976562,-0.00476844422519207,-1.1331731081008911,1.1614023447036743,0.17719538509845734,-0.06656748056411743,-0.04596780240535736
1.4275600910186768,-0.00476844422519207,-1.1408026218414307,1.1827648878097534,0.1848248988389969,-0.0711451917886734,-0.050164032727479935
1.4476425647735596,-0.00476844422519207,-1.1453803777694702,1.199549913406372,0.19016556441783905,-0.07457847148180008,-0.051689937710762024
1.4677464962005615,-0.00476844422519207,-1.1476691961288452,1.2113755941390991,0.19321736693382263,-0.07724879682064056,-0.053215838968753815
1.4878222942352295,-0.005912871100008488,-1.1465247869491577,1.2136644124984741,0.19512474536895752,-0.07839322835206985,-0.0558861680328846
1.5079023838043213,-0.007057297509163618,-1.1446174383163452,1.2125200033187866,0.1958876997232437,-0.07877469807863235,-0.058175019919872284
1.5279695987701416,-0.0078202486038208,-1.1430914402008057,1.2109941244125366,0.1985580176115036,-0.07915617525577545,-0.05970092490315437
1.5482676029205322,-0.007438773289322853,-1.1434729099273682,1.206416368484497,0.20084688067436218,-0.08144503086805344,-0.06046387553215027
1.5684430599212646,-0.0078202486038208,-1.1430914402008057,1.19764244556427,0.20389868319034576,-0.08525978773832321,-0.06160829961299896
1.5885329246520996,-0.007438773289322853,-1.1419470310211182,1.187342643737793,0.20733195543289185,-0.0864042118191719,-0.06580453366041183
1.6085388660430908,-0.007438773289322853,-1.1358433961868286,1.1678873300552368,0.21076524257659912,-0.08869306743144989,-0.0711451917886734
1.62862229347229,-0.004005493130534887,-1.125925064086914,1.1438543796539307,0.21953918039798737,-0.09136339277029037,-0.08068207651376724
1.64872407913208,0.005531395319849253,-1.10990309715271,1.1240177154541016,0.24166475236415863,-0.10814831405878067,-0.09670405089855194
1.6688034534454346,0.014686808921396732,-1.0950255393981934,1.107614278793335,0.2653162479400635,-0.12302586436271667,-0.11272602528333664
1.688873291015625,0.02231631986796856,-1.0786221027374268,1.099603295326233,0.28248265385627747,-0.12645913660526276,-0.13218127191066742
1.7089686393737793,0.02994582988321781,-1.0561150312423706,1.0881589651107788,0.2954528033733368,-0.12455176562070847,-0.1504921019077301
1.7291157245635986,0.03185320645570755,-1.037422776222229,1.0770962238311768,0.30384528636932373,-0.12073700875043869,-0.16994735598564148
1.7491981983184814,0.03185320645570755,-1.0179674625396729,1.0595483779907227,0.3068970739841461,-0.11005569249391556,-0.18749523162841797
1.7693414688110352,0.03147173300385475,-1.0011825561523438,1.037422776222229,0.308804452419281,-0.10090028494596481,-0.20389868319034576
1.7898375988006592,0.02994582988321781,-0.9824903011322021,1.0095750093460083,0.3118562698364258,-0.09975585341453552,-0.21877622604370117
1.8099455833435059,0.027656977996230125,-0.9649423956871033,0.9775310754776001,0.31452658772468567,-0.09861142933368683,-0.2286945879459381
1.8300447463989258,0.02384222112596035,-0.9489204287528992,0.9401465058326721,0.31719690561294556,-0.10128175467252731,-0.23785001039505005
1.8502819538116455,0.02040894143283367,-0.9382390975952148,0.9046692848205566,0.3248264193534851,-0.11158160120248795,-0.247768372297287
1.8703608512878418,0.01926451548933983,-0.9344243407249451,0.8787289261817932,0.3370336592197418,-0.13179980218410492,-0.2576867341995239
1.8904337882995605,0.01888304017484188,-0.9378576278686523,0.8642328381538391,0.34580758213996887,-0.13141833245754242,-0.2653162479400635
1.9105372428894043,0.019645990803837776,-0.9374761581420898,0.8512626886367798,0.3526741564273834,-0.13103684782981873,-0.2744716703891754
1.93062424659729,0.02040894143283367,-0.9348058104515076,0.8443961143493652,0.3583962619304657,-0.13027389347553253,-0.2786678969860077
1.9507341384887695,0.021553369238972664,-0.9325169920921326,0.8436331748962402,0.3606851398944855,-0.12798504531383514,-0.2821011543273926
1.9709110260009766,0.02384222112596035,-0.9317540526390076,0.8463035225868225,0.36259251832962036,-0.12111848592758179,-0.28629741072654724
1.9910438060760498,0.027656977996230125,-0.9317540526390076,0.8512626886367798,0.36411839723587036,-0.11615930497646332,-0.28934919834136963
2.0110678672790527,0.03147173300385475,-0.9321355223655701,0.8562218546867371,0.36717021465301514,-0.11501488089561462,-0.2935454249382019
2.0311591625213623,0.03681239113211632,-0.9344243407249451,0.8669031858444214,0.3725108802318573,-0.11463340371847153,-0.2973601818084717
2.0512940883636475,0.039101243019104004,-0.9390020370483398,0.8783474564552307,0.3850995600223541,-0.11272602528333664,-0.30537116527557373
2.071363925933838,0.038719769567251205,-0.9431982636451721,0.8863584399223328,0.403410404920578,-0.1031891331076622,-0.31681543588638306
2.0915849208831787,0.035667963325977325,-0.9473945498466492,0.8916990756988525,0.4198138415813446,-0.09632257372140884,-0.3271152675151825
2.111649751663208,0.032616160809993744,-0.9493018984794617,0.8932250142097473,0.4377431869506836,-0.09517814964056015,-0.3389410376548767
2.1317310333251953,0.03147173300385475,-0.9546425342559814,0.8958953022956848,0.45681697130203247,-0.09937438368797302,-0.35114824771881104
2.1518166065216064,0.03147173300385475,-0.9618905782699585,0.8997100591659546,0.47512778639793396,-0.11081864684820175,-0.3606851398944855
2.172302722930908,0.03147173300385475,-0.9649423956871033,0.9035248160362244,0.49229419231414795,-0.1184481605887413,-0.3702220320701599
2.1923933029174805,0.03185320645570755,-0.9664682745933533,0.9084840416908264,0.5079346895217896,-0.12951095402240753,-0.37861448526382446
2.2125232219696045,0.03185320645570755,-0.9653238654136658,0.9122987985610962,0.5209048390388489,-0.1329442262649536,-0.386243999004364
2.2327187061309814,0.034142062067985535,-0.9630350470542908,0.918402373790741,0.5289158225059509,-0.12836651504039764,-0.3927290737628937
2.2527565956115723,0.035667963325977325,-0.959983229637146,0.9218356609344482,0.536163866519928,-0.11959258466959,-0.4007400572299957
2.272801399230957,0.03604944050312042,-0.9569314122200012,0.9199283123016357,0.5464637279510498,-0.10471503436565399,-0.41065841913223267
2.292917013168335,0.032616160809993744,-0.9561684727668762,0.9126802682876587,0.5582894682884216,-0.09098191559314728,-0.4209582805633545
2.3129947185516357,0.029182879254221916,-0.9561684727668762,0.9046692848205566,0.5701152086257935,-0.07724879682064056,-0.43049514293670654
2.333268165588379,0.02841992862522602,-0.9584572911262512,0.9019989371299744,0.5849927663803101,-0.08030059933662415,-0.439269095659256
2.353372812271118,0.02841992862522602,-0.962272047996521,0.9000915288925171,0.5994887948036194,-0.08602273464202881,-0.44651713967323303
2.3734333515167236,0.028038453310728073,-0.9660868048667908,0.8985656499862671,0.6124590039253235,-0.08869306743144989,-0.4533836841583252
2.393730640411377,0.02536812424659729,-0.9660868048667908,0.8985656499862671,0.6239032745361328,-0.09212634712457657,-0.45834288001060486
2.4138741493225098,0.023079270496964455,-0.9637979865074158,0.9000915288925171,0.6303883194923401,-0.08945601433515549,-0.46253910660743713
2.4339258670806885,0.023079270496964455,-0.9603646993637085,0.9016174674034119,0.6368734240531921,-0.08182650804519653,-0.4674982726573944
2.454029083251953,0.023460745811462402,-0.9576943516731262,0.9023804068565369,0.6448844075202942,-0.0707637146115303,-0.4728389382362366
2.4740889072418213,0.023079270496964455,-0.9561684727668762,0.8993285894393921,0.6555657386779785,-0.05703059583902359,-0.4800869822502136
2.495056629180908,0.021171892061829567,-0.9561684727668762,0.8939879536628723,0.6658655405044556,-0.037193864583969116,-0.4877164959907532
2.5151405334472656,0.01773861236870289,-0.9580758213996887,0.890554666519165,0.6776912808418274,-0.028038453310728073,-0.4957274794578552
2.535214900970459,0.014686808921396732,-0.9611276388168335,0.8863584399223328,0.6883726119995117,-0.02384222112596035,-0.5029755234718323
2.555298328399658,0.013542382046580315,-0.9645609259605408,0.883306622505188,0.6979095339775085,-0.02384222112596035,-0.509079098701477
2.5753860473632812,0.01201647985726595,-0.967994213104248,0.8821622133255005,0.7097352743148804,-0.024986648932099342,-0.5136567950248718
2.5954749584198,0.010109102353453636,-0.968757152557373,0.8829251527786255,0.7200350761413574,-0.026512550190091133,-0.5174715518951416
2.615560531616211,0.0078202486038208,-0.9683756828308105,0.8844510316848755,0.7280460596084595,-0.02384222112596035,-0.5212863087654114
2.63563871383667,0.00667582219466567,-0.9668498039245605,0.8859769701957703,0.7352941036224365,-0.018501564860343933,-0.5251010656356812
2.655958414077759,0.00667582219466567,-0.9660868048667908,0.8878843188285828,0.7421606779098511,-0.0078202486038208,-0.5296788215637207
2.676029920578003,0.00667582219466567,-0.9657053351402283,0.8875028491020203,0.7497901916503906,0.005149920005351305,-0.5331120491027832
2.6960957050323486,0.005912871100008488,-0.9664682745933533,0.8859769701957703,0.7585641145706177,0.019645990803837776,-0.5384527444839478
2.7161788940429688,0.001716639962978661,-0.9683756828308105,0.882543683052063,0.7665750980377197,0.03185320645570755,-0.5437933802604675
2.736248016357422,-0.001716639962978661,-0.9718089699745178,0.8798733353614807,0.7726787328720093,0.03795681521296501,-0.5487525463104248
2.756585121154785,-0.004386968910694122,-0.9740977883338928,0.8779659867286682,0.7806897163391113,0.03757534176111221,-0.5521858334541321
2.7766764163970947,-0.007438773289322853,-0.9760051965713501,0.8775845170021057,0.7887006998062134,0.03795681521296501,-0.5556191205978394
2.7967565059661865,-0.009346150793135166,-0.9779125452041626,0.8772030472755432,0.7974746227264404,0.03833829239010811,-0.5575265288352966
2.816803455352783,-0.012397955171763897,-0.9782940149307251,0.8775845170021057,0.8062485456466675,0.04482337832450867,-0.5598153471946716
2.83695125579834,-0.013160906732082367,-0.9779125452041626,0.8787289261817932,0.813115119934082,0.05283436179161072,-0.5624856948852539
2.85699462890625,-0.013160906732082367,-0.9790570139884949,0.8794918656349182,0.8199816942214966,0.06389715522527695,-0.5659189820289612
2.8770859241485596,-0.013542382046580315,-0.9802014231681824,0.8794918656349182,0.8245593905448914,0.07915617525577545,-0.5685893297195435
2.897174835205078,-0.01506828423589468,-0.9836347103118896,0.8787289261817932,0.8321889042854309,0.09174486994743347,-0.5727855563163757
2.9172325134277344,-0.01735713705420494,-0.9874494671821594,0.8779659867286682,0.8375295400619507,0.1024261862039566,-0.576218843460083
2.937520980834961,-0.02040894143283367,-0.9912642240524292,0.8775845170021057,0.8443961143493652,0.10547798871994019,-0.5781261920928955
2.957451581954956,-0.02231631986796856,-0.9946975111961365,0.8775845170021057,0.8508812189102173,0.10509651154279709,-0.5811780095100403
2.9776906967163086,-0.023460745811462402,-0.9977492690086365,0.8794918656349182,0.8592736721038818,0.1035706102848053,-0.5819409489631653
2.997871160507202,-0.026131074875593185,-1.0015640258789062,0.881780743598938,0.8661402463912964,0.10509651154279709,-0.5830853581428528
3.0178749561309814,-0.02689402550458908,-1.0019454956054688,0.8836880922317505,0.8730067610740662,0.10776684433221817,-0.5838482975959778
3.0379793643951416,-0.02727550081908703,-1.0023269653320312,0.8848325610160828,0.8779659867286682,0.11196307092905045,-0.5846112966537476
3.058119773864746,-0.02727550081908703,-1.0019454956054688,0.8855955004692078,0.8836880922317505,0.12417028844356537,-0.5861371755599976
3.0782618522644043,-0.02727550081908703,-1.0027084350585938,0.8855955004692078,0.8882657885551453,0.1359960287809372,-0.5884260535240173
3.0983169078826904,-0.028038453310728073,-1.0049973726272583,0.8848325610160828,0.892080545425415,0.14591439068317413,-0.5910963416099548
3.118408441543579,-0.02994582988321781,-1.0076676607131958,0.8844510316848755,0.8951323628425598,0.15774014592170715,-0.5922408103942871
3.1385338306427,-0.034142062067985535,-1.0111008882522583,0.883306622505188,0.8985656499862671,0.16155488789081573,-0.5941481590270996
3.158595323562622,-0.03643091395497322,-1.0130083560943604,0.8829251527786255,0.9023804068565369,0.16002899408340454,-0.5952925682067871
3.1787052154541016,-0.037193864583969116,-1.0152971744537354,0.882543683052063,0.9077210426330566,0.15850308537483215,-0.5952925682067871
3.198755979537964,-0.0398641936480999,-1.0175859928131104,0.884069561958313,0.9145876169204712,0.15812161564826965,-0.5952925682067871
3.218956708908081,-0.04100862145423889,-1.0183489322662354,0.8855955004692078,0.9187838435173035,0.15926603972911835,-0.5952925682067871
3.2390365600585938,-0.040245670825242996,-1.0183489322662354,0.8871213793754578,0.9237430095672607,0.16193637251853943,-0.5952925682067871
3.259108543395996,-0.0398641936480999,-1.0183489322662354,0.8882657885551453,0.927176296710968,0.16880293190479279,-0.5956740379333496
3.279282569885254,-0.038719769567251205,-1.0183489322662354,0.889028787612915,0.9309910535812378,0.17872129380702972,-0.5960555672645569
3.2993834018707275,-0.038719769567251205,-1.0191118717193604,0.889028787612915,0.9328984618186951,0.18787670135498047,-0.5968185067176819
3.3194594383239746,-0.0394827201962471,-1.021400809288025,0.8886472582817078,0.9351872801780701,0.19550621509552002,-0.5987258553504944
3.3395259380340576,-0.04253452271223068,-1.0240710973739624,0.8882657885551453,0.9378576278686523,0.200083926320076,-0.5991073250770569
3.3596391677856445,-0.04406042397022247,-1.0263599157333374,0.8878843188285828,0.9405279755592346,0.20160982012748718,-0.5991073250770569
3.37967586517334,-0.045204851776361465,-1.028648853302002,0.8882657885551453,0.9443427324295044,0.1970321238040924,-0.5987258553504944
3.3997862339019775,-0.04711223021149635,-1.0297932624816895,0.88979172706604,0.9485389590263367,0.19436179101467133,-0.5987258553504944
3.4198875427246094,-0.048638131469488144,-1.031700611114502,0.89131760597229,0.951972246170044,0.19398032128810883,-0.5987258553504944
3.440570831298828,-0.04711223021149635,-1.031700611114502,0.8928435444831848,0.9554055333137512,0.1989395022392273,-0.5983443856239319
3.4606680870056152,-0.04596780240535736,-1.031700611114502,0.8943694233894348,0.9596017599105835,0.20389868319034576,-0.5987258553504944
3.4807631969451904,-0.04596780240535736,-1.031700611114502,0.8951323628425598,0.961509108543396,0.21152819693088531,-0.5987258553504944
3.5012197494506836,-0.04596780240535736,-1.0328450202941895,0.8951323628425598,0.962272047996521,0.22220951318740845,-0.5987258553504944
3.521355628967285,-0.04634927958250046,-1.034752368927002,0.8951323628425598,0.9637979865074158,0.22793163359165192,-0.5991073250770569
3.5414316654205322,-0.048638131469488144,-1.0378042459487915,0.8955138325691223,0.9664682745933533,0.2309834510087967,-0.5987258553504944
3.561610221862793,-0.05092698708176613,-1.0400930643081665,0.8955138325691223,0.968757152557373,0.2286945879459381,-0.5987258553504944
3.5816173553466797,-0.05130846053361893,-1.0416189432144165,0.8962767720222473,0.9706645011901855,0.22487983107566833,-0.5987258553504944
3.6018292903900146,-0.05283436179161072,-1.043907880783081,0.8974212408065796,0.9740977883338928,0.21953918039798737,-0.5983443856239319
3.621901750564575,-0.05245288833975792,-1.043907880783081,0.8997100591659546,0.9779125452041626,0.21992065012454987,-0.5983443856239319
3.6420273780822754,-0.05092698708176613,-1.0442893505096436,0.9023804068565369,0.9805828928947449,0.22182802855968475,-0.5979629158973694
3.6621549129486084,-0.049782559275627136,-1.043907880783081,0.9042877554893494,0.9824903011322021,0.2298390120267868,-0.5983443856239319
3.6822011470794678,-0.04940108209848404,-1.043907880783081,0.9046692848205566,0.9840161800384521,0.24128328263759613,-0.5983443856239319
3.702564001083374,-0.04901960864663124,-1.0442893505096436,0.9042877554893494,0.9840161800384521,0.24929426610469818,-0.5983443856239319
3.7227375507354736,-0.051689937710762024,-1.0450522899627686,0.9039062857627869,0.9840161800384521,0.25349050760269165,-0.5987258553504944
3.742757558822632,-0.05359731614589691,-1.0465781688690186,0.9027618765830994,0.9843976497650146,0.25425344705581665,-0.5983443856239319
3.762845516204834,-0.0558861680328846,-1.048485517501831,0.9016174674034119,0.9855420589447021,0.25234606862068176,-0.5983443856239319
3.7829201221466064,-0.05664911866188049,-1.050011396408081,0.9012359976768494,0.9885938763618469,0.2462424635887146,-0.5979629158973694
3.803133249282837,-0.05855649709701538,-1.051918864250183,0.9016174674034119,0.9920271635055542,0.24166475236415863,-0.5968185067176819
3.823246479034424,-0.05703059583902359,-1.051918864250183,0.9027618765830994,0.9939345121383667,0.24204623699188232,-0.5952925682067871
3.843353271484375,-0.0551232174038887,-1.0523003339767456,0.9050507545471191,0.9962233901023865,0.24280919134616852,-0.5933852195739746
3.863429307937622,-0.053215838968753815,-1.051918864250183,0.9073395729064941,0.9981307983398438,0.247768372297287,-0.5933852195739746
3.883516788482666,-0.053215838968753815,-1.051155924797058,0.9081025123596191,0.9985122680664062,0.2573052644729614,-0.5937666893005371
3.903597116470337,-0.051689937710762024,-1.0515373945236206,0.9084840416908264,0.9981307983398438,0.266460657119751,-0.5945296287536621
3.923677682876587,-0.054741740226745605,-1.0515373945236206,0.9084840416908264,0.9985122680664062,0.27180132269859314,-0.5945296287536621
3.943751096725464,-0.05855649709701538,-1.052681803703308,0.9061951637268066,0.9977492690086365,0.27180132269859314,-0.5945296287536621
3.9638004302978516,-0.06084534898400307,-1.0538262128829956,0.9042877554893494,0.9981307983398438,0.26989394426345825,-0.5945296287536621
3.983957052230835,-0.06237125024199486,-1.054970622062683,0.9023804068565369,0.9985122680664062,0.2637903392314911,-0.5937666893005371
4.004018068313599,-0.06275273114442825,-1.055733561515808,0.9019989371299744,0.9996566772460938,0.2569237947463989,-0.5922408103942871
4.024067640304565,-0.06198977679014206,-1.0568779706954956,0.9019989371299744,1.0015640258789062,0.25349050760269165,-0.5907148718833923
4.044158935546875,-0.05855649709701538,-1.0561150312423706,0.9035248160362244,1.0038528442382812,0.25425344705581665,-0.5903334021568298
4.064236640930176,-0.056267641484737396,-1.055733561515808,0.9065766334533691,1.0057603120803833,0.25654229521751404,-0.5899519324302673
4.084517955780029,-0.0555046908557415,-1.0553520917892456,0.9077210426330566,1.0057603120803833,0.2637903392314911,-0.5903334021568298
4.104597091674805,-0.0551232174038887,-1.054207682609558,0.9088655114173889,1.0053788423538208,0.2744716703891754,-0.5903334021568298
4.124661684036255,-0.0555046908557415,-1.0545891523361206,0.9081025123596191,1.0053788423538208,0.2821011543273926,-0.5907148718833923
4.1447529792785645,-0.05893797054886818,-1.054970622062683,0.9069581031799316,1.0049973726272583,0.28744181990623474,-0.5907148718833923
4.164817810058594,-0.06198977679014206,-1.0561150312423706,0.9046692848205566,1.0046159029006958,0.28706035017967224,-0.5907148718833923
4.184872388839722,-0.06313420087099075,-1.0576409101486206,0.9031433463096619,1.0046159029006958,0.2798123061656952,-0.5903334021568298
4.204972982406616,-0.06389715522527695,-1.0587854385375977,0.9027618765830994,1.0053788423538208,0.27218279242515564,-0.5891889929771423
4.225062847137451,-0.06389715522527695,-1.0587854385375977,0.9023804068565369,1.0057603120803833,0.2653162479400635,-0.5876630544662476
4.245114326477051,-0.06160829961299896,-1.0587854385375977,0.9023804068565369,1.0065232515335083,0.2634088695049286,-0.5861371755599976
4.265206336975098,-0.05893797054886818,-1.0584038496017456,0.9046692848205566,1.0076676607131958,0.265697717666626,-0.5849927663803101
4.285305500030518,-0.057793546468019485,-1.058022379875183,0.9073395729064941,1.0088120698928833,0.27180132269859314,-0.5834668278694153
4.305701732635498,-0.05741206929087639,-1.0576409101486206,0.9084840416908264,1.0084306001663208,0.28362706303596497,-0.5838482975959778
4.3257997035980225,-0.05664911866188049,-1.058022379875183,0.9088655114173889,1.0080491304397583,0.2912565767765045,-0.5842298269271851
4.345853567123413,-0.058175019919872284,-1.058022379875183,0.9092469811439514,1.0080491304397583,0.2962157726287842,-0.5838482975959778
4.3659350872039795,-0.06084534898400307,-1.0587854385375977,0.9073395729064941,1.0065232515335083,0.2950713336467743,-0.5842298269271851
4.386008262634277,-0.06313420087099075,-1.0603113174438477,0.9050507545471191,1.0061417818069458,0.2904936373233795,-0.5842298269271851
4.406064510345459,-0.06427863240242004,-1.0614557266235352,0.9039062857627869,1.0065232515335083,0.28248265385627747,-0.5834668278694153
4.426156520843506,-0.06618601083755493,-1.0626001358032227,0.9035248160362244,1.0072861909866333,0.2740901708602905,-0.5834668278694153
4.446224212646484,-0.06504157930612564,-1.0633630752563477,0.9039062857627869,1.0076676607131958,0.26722362637519836,-0.5830853581428528
4.466358184814453,-0.06084534898400307,-1.0633630752563477,0.9054322242736816,1.0091935396194458,0.264934778213501,-0.5827038884162903
4.4863927364349365,-0.057793546468019485,-1.0626001358032227,0.9088655114173889,1.0111008882522583,0.266460657119751,-0.5815594792366028
4.506457805633545,-0.0555046908557415,-1.0618371963500977,0.9111543297767639,1.0111008882522583,0.27141985297203064,-0.5819409489631653
4.526541233062744,-0.0551232174038887,-1.0606927871704102,0.9122987985610962,1.0107194185256958,0.2817196846008301,-0.5823224186897278
4.546618223190308,-0.056267641484737396,-1.0606927871704102,0.9119172692298889,1.0103379487991333,0.28820478916168213,-0.5827038884162903
4.56705904006958,-0.058175019919872284,-1.0603113174438477,0.9115357995033264,1.0099564790725708,0.28934919834136963,-0.5827038884162903
4.5871922969818115,-0.06084534898400307,-1.0610742568969727,0.9096284508705139,1.0095750093460083,0.28744181990623474,-0.5827038884162903
4.607234954833984,-0.06237125024199486,-1.0622186660766602,0.9077210426330566,1.0095750093460083,0.2801937758922577,-0.5823224186897278
4.627435684204102,-0.06504157930612564,-1.0629816055297852,0.9065766334533691,1.0099564790725708,0.27180132269859314,-0.5811780095100403
4.647457122802734,-0.06466010212898254,-1.0629816055297852,0.9061951637268066,1.0099564790725708,0.26684215664863586,-0.580033540725708
4.66750955581665,-0.06275273114442825,-1.0633630752563477,0.9061951637268066,1.0107194185256958,0.2637903392314911,-0.5788891315460205
4.687607526779175,-0.05970092490315437,-1.0626001358032227,0.9081025123596191,1.0126268863677979,0.264934778213501,-0.578507661819458
4.7077038288116455,-0.05741206929087639,-1.0618371963500977,0.9107728600502014,1.0130083560943604,0.26836803555488586,-0.5781261920928955
4.727850914001465,-0.05664911866188049,-1.0610742568969727,0.9119172692298889,1.0122454166412354,0.2779049277305603,-0.578507661819458
4.748002529144287,-0.0555046908557415,-1.0603113174438477,0.9119172692298889,1.0118639469146729,0.28667888045310974,-0.579270601272583
4.768062591552734,-0.05703059583902359,-1.0603113174438477,0.9115357995033264,1.0107194185256958,0.28973066806793213,-0.5796520709991455
4.788218259811401,-0.06008239835500717,-1.0603113174438477,0.9103913903236389,1.0088120698928833,0.2904936373233795,-0.579270601272583
4.80832576751709,-0.06237125024199486,-1.0610742568969727,0.9081025123596191,1.0088120698928833,0.28744181990623474,-0.5796520709991455
4.828369617462158,-0.06427863240242004,-1.0622186660766602,0.9061951637268066,1.0091935396194458,0.2798123061656952,-0.5788891315460205
4.848471403121948,-0.06580453366041183,-1.0629816055297852,0.9058136940002441,1.0095750093460083,0.2725642919540405,-0.578507661819458
4.868542432785034,-0.06504157930612564,-1.0633630752563477,0.9058136940002441,1.0099564790725708,0.26722362637519836,-0.5781261920928955
4.889341831207275,-0.061226826161146164,-1.0629816055297852,0.9069581031799316,1.0107194185256958,0.2660791873931885,-0.576981782913208
4.909574031829834,-0.058175019919872284,-1.0626001358032227,0.9103913903236389,1.0130083560943604,0.26798656582832336,-0.5754558444023132
4.929685354232788,-0.05741206929087639,-1.0618371963500977,0.9122987985610962,1.0126268863677979,0.2752346098423004,-0.5758373141288757
4.9497151374816895,-0.0555046908557415,-1.0618371963500977,0.9126802682876587,1.0122454166412354,0.28629741072654724,-0.576218843460083
4.969857215881348,-0.05703059583902359,-1.0618371963500977,0.9126802682876587,1.0118639469146729,0.2920195460319519,-0.5758373141288757
4.989881753921509,-0.059319447726011276,-1.0622186660766602,0.9122987985610962,1.0103379487991333,0.2924010157585144,-0.576218843460083
5.010339260101318,-0.06084534898400307,-1.0629816055297852,0.9111543297767639,1.0088120698928833,0.28934919834136963,-0.5766003131866455
5.030506610870361,-0.06198977679014206,-1.0645074844360352,0.9096284508705139,1.0088120698928833,0.28286412358283997,-0.576218843460083
5.050725698471069,-0.06427863240242004,-1.0648889541625977,0.9092469811439514,1.0091935396194458,0.272945761680603,-0.5758373141288757
5.070773124694824,-0.06389715522527695,-1.0648889541625977,0.9096284508705139,1.0099564790725708,0.26798656582832336,-0.5754558444023132
5.0908591747283936,-0.06237125024199486,-1.0641260147094727,0.9100099205970764,1.0107194185256958,0.26684215664863586,-0.5754558444023132
5.111105918884277,-0.05970092490315437,-1.0633630752563477,0.9115357995033264,1.0130083560943604,0.26722362637519836,-0.5754558444023132
5.131191968917847,-0.058175019919872284,-1.0622186660766602,0.9126802682876587,1.0133898258209229,0.2740901708602905,-0.5754558444023132
5.1512556076049805,-0.056267641484737396,-1.0610742568969727,0.9138246774673462,1.0126268863677979,0.28286412358283997,-0.5754558444023132
5.171413898468018,-0.0551232174038887,-1.0606927871704102,0.9138246774673462,1.0114823579788208,0.290112167596817,-0.5758373141288757
5.191473007202148,-0.056267641484737396,-1.0610742568969727,0.9134432077407837,1.0107194185256958,0.2943083941936493,-0.5758373141288757
5.211866140365601,-0.06008239835500717,-1.0610742568969727,0.9119172692298889,1.0084306001663208,0.2958342730998993,-0.576218843460083
5.232016563415527,-0.06237125024199486,-1.0618371963500977,0.9092469811439514,1.0069047212600708,0.2931639552116394,-0.576218843460083
5.252116680145264,-0.06351567804813385,-1.0629816055297852,0.9081025123596191,1.0072861909866333,0.28629741072654724,-0.5758373141288757
5.2723228931427,-0.06618601083755493,-1.0637445449829102,0.9065766334533691,1.0080491304397583,0.2759975492954254,-0.5754558444023132
5.292445659637451,-0.06466010212898254,-1.0637445449829102,0.9069581031799316,1.0084306001663208,0.27180132269859314,-0.5758373141288757
5.312505483627319,-0.06046387553215027,-1.0641260147094727,0.9073395729064941,1.0099564790725708,0.26951247453689575,-0.5750743746757507
5.332707405090332,-0.058175019919872284,-1.0633630752563477,0.9103913903236389,1.0114823579788208,0.27027541399002075,-0.5743114352226257
5.352705717086792,-0.05703059583902359,-1.0626001358032227,0.9122987985610962,1.0111008882522583,0.2744716703891754,-0.5750743746757507
5.372767448425293,-0.0551232174038887,-1.0614557266235352,0.9134432077407837,1.0107194185256958,0.28477150201797485,-0.5754558444023132
5.392867565155029,-0.056267641484737396,-1.0610742568969727,0.9138246774673462,1.0103379487991333,0.2927824854850769,-0.5754558444023132
5.412952423095703,-0.058175019919872284,-1.0606927871704102,0.9126802682876587,1.0091935396194458,0.2962157726287842,-0.5758373141288757
5.433037996292114,-0.06160829961299896,-1.0610742568969727,0.9103913903236389,1.0080491304397583,0.2962157726287842,-0.5758373141288757
5.4532387256622314,-0.06351567804813385,-1.0626001358032227,0.9081025123596191,1.0072861909866333,0.28934919834136963,-0.5758373141288757
5.4732489585876465,-0.06427863240242004,-1.0637445449829102,0.9073395729064941,1.0076676607131958,0.2790493667125702,-0.5750743746757507
5.4933881759643555,-0.06504157930612564,-1.0648889541625977,0.9073395729064941,1.0080491304397583,0.27065691351890564,-0.5746929049491882
5.5135109424591064,-0.06237125024199486,-1.0641260147094727,0.9084840416908264,1.0088120698928833,0.26836803555488586,-0.5750743746757507
5.533568382263184,-0.05893797054886818,-1.0637445449829102,0.9103913903236389,1.0103379487991333,0.26874953508377075,-0.5739299654960632
5.553682088851929,-0.057793546468019485,-1.0626001358032227,0.9130617380142212,1.0107194185256958,0.2740901708602905,-0.5739299654960632
5.573787212371826,-0.05703059583902359,-1.0618371963500977,0.9138246774673462,1.0103379487991333,0.28362706303596497,-0.5743114352226257
5.593867778778076,-0.0555046908557415,-1.0606927871704102,0.9138246774673462,1.0099564790725708,0.2912565767765045,-0.5750743746757507
5.614054918289185,-0.057793546468019485,-1.0614557266235352,0.9126802682876587,1.0091935396194458,0.2943083941936493,-0.5746929049491882
5.6342010498046875,-0.061226826161146164,-1.0618371963500977,0.9107728600502014,1.0076676607131958,0.2946898639202118,-0.5754558444023132
5.654292583465576,-0.06275273114442825,-1.0633630752563477,0.9088655114173889,1.0065232515335083,0.28896772861480713,-0.5754558444023132
5.674351215362549,-0.06351567804813385,-1.0645074844360352,0.9073395729064941,1.0069047212600708,0.2775234580039978,-0.5746929049491882
5.69443416595459,-0.06427863240242004,-1.0652704238891602,0.9073395729064941,1.0076676607131958,0.26874953508377075,-0.5743114352226257
5.714527130126953,-0.06237125024199486,-1.0652704238891602,0.9088655114173889,1.0084306001663208,0.2653162479400635,-0.5739299654960632
5.734630823135376,-0.059319447726011276,-1.0652704238891602,0.9100099205970764,1.0103379487991333,0.2641718089580536,-0.5731670260429382
5.754772901535034,-0.0558861680328846,-1.0641260147094727,0.9134432077407837,1.0114823579788208,0.26684215664863586,-0.5724040865898132
5.77480411529541,-0.053215838968753815,-1.0633630752563477,0.9157320261001587,1.0114823579788208,0.273708701133728,-0.5727855563163757
5.794882535934448,-0.05283436179161072,-1.0626001358032227,0.916876494884491,1.0103379487991333,0.28248265385627747,-0.5727855563163757
5.814971923828125,-0.05397878959774971,-1.0622186660766602,0.916876494884491,1.0099564790725708,0.28896772861480713,-0.5739299654960632
5.83505654335022,-0.05703059583902359,-1.0626001358032227,0.9164950251579285,1.0084306001663208,0.2912565767765045,-0.5739299654960632
5.855133771896362,-0.05970092490315437,-1.0629816055297852,0.9145876169204712,1.0065232515335083,0.28973066806793213,-0.5743114352226257
5.87522554397583,-0.06160829961299896,-1.0637445449829102,0.9122987985610962,1.0065232515335083,0.28515297174453735,-0.5743114352226257
5.895313501358032,-0.06389715522527695,-1.0645074844360352,0.9111543297767639,1.0076676607131958,0.272945761680603,-0.5731670260429382
5.915377616882324,-0.06427863240242004,-1.0648889541625977,0.9103913903236389,1.0080491304397583,0.26798656582832336,-0.5731670260429382
5.9354565143585205,-0.06237125024199486,-1.0648889541625977,0.9103913903236389,1.0095750093460083,0.2618829607963562,-0.572022557258606
5.955590009689331,-0.05855649709701538,-1.0648889541625977,0.9115357995033264,1.0111008882522583,0.2603570520877838,-0.572022557258606
5.975699424743652,-0.0555046908557415,-1.0637445449829102,0.9138246774673462,1.0122454166412354,0.2626459002494812,-0.572022557258606
5.995749473571777,-0.05436026677489281,-1.0626001358032227,0.916113555431366,1.0114823579788208,0.26989394426345825,-0.5724040865898132
6.01605224609375,-0.05207141116261482,-1.0618371963500977,0.9164950251579285,1.0103379487991333,0.2790493667125702,-0.5731670260429382
6.036144256591797,-0.05359731614589691,-1.0618371963500977,0.9164950251579285,1.0099564790725708,0.28591591119766235,-0.5735484957695007
6.056201219558716,-0.056267641484737396,-1.0622186660766602,0.9157320261001587,1.0084306001663208,0.290875107049942,-0.5739299654960632
6.076290130615234,-0.059319447726011276,-1.0622186660766602,0.9142061471939087,1.0061417818069458,0.28858625888824463,-0.5746929049491882
6.096378564834595,-0.061226826161146164,-1.0629816055297852,0.9115357995033264,1.0065232515335083,0.28248265385627747,-0.5750743746757507
6.116575479507446,-0.06313420087099075,-1.0641260147094727,0.9103913903236389,1.0072861909866333,0.2725642919540405,-0.5739299654960632
6.136680364608765,-0.06389715522527695,-1.0645074844360352,0.9100099205970764,1.0076676607131958,0.266460657119751,-0.5739299654960632
6.156813144683838,-0.06313420087099075,-1.0641260147094727,0.9096284508705139,1.0084306001663208,0.2603570520877838,-0.5727855563163757
6.177017450332642,-0.059319447726011276,-1.0641260147094727,0.9103913903236389,1.0103379487991333,0.2588311731815338,-0.5731670260429382
6.197156667709351,-0.056267641484737396,-1.0629816055297852,0.9126802682876587,1.0107194185256958,0.2611200213432312,-0.5727855563163757
6.217221736907959,-0.05397878959774971,-1.0622186660766602,0.9145876169204712,1.0107194185256958,0.2660791873931885,-0.5731670260429382
6.2373268604278564,-0.05245288833975792,-1.0610742568969727,0.9157320261001587,1.0099564790725708,0.2759975492954254,-0.5743114352226257
6.257369041442871,-0.05359731614589691,-1.0610742568969727,0.916113555431366,1.0091935396194458,0.2821011543273926,-0.5754558444023132
6.277570009231567,-0.05664911866188049,-1.0606927871704102,0.9157320261001587,1.0072861909866333,0.28782328963279724,-0.5758373141288757
6.297694206237793,-0.06008239835500717,-1.0610742568969727,0.9134432077407837,1.0057603120803833,0.28934919834136963,-0.576218843460083
6.317752838134766,-0.06198977679014206,-1.0610742568969727,0.9103913903236389,1.0057603120803833,0.28477150201797485,-0.576218843460083
6.337872743606567,-0.06351567804813385,-1.0622186660766602,0.9088655114173889,1.0065232515335083,0.2763790488243103,-0.5754558444023132
6.357971668243408,-0.06466010212898254,-1.0629816055297852,0.9081025123596191,1.0065232515335083,0.27065691351890564,-0.5750743746757507
6.378027439117432,-0.06427863240242004,-1.0633630752563477,0.9077210426330566,1.0069047212600708,0.2653162479400635,-0.5750743746757507
6.398156404495239,-0.06046387553215027,-1.0629816055297852,0.9084840416908264,1.0084306001663208,0.2645532786846161,-0.5750743746757507
6.418263912200928,-0.05741206929087639,-1.0622186660766602,0.9111543297767639,1.0099564790725708,0.26722362637519836,-0.5746929049491882
6.438268661499023,-0.0558861680328846,-1.0618371963500977,0.9126802682876587,1.0095750093460083,0.2763790488243103,-0.5750743746757507
6.4584197998046875,-0.053215838968753815,-1.0606927871704102,0.9142061471939087,1.0091935396194458,0.28591591119766235,-0.5754558444023132
6.478448867797852,-0.05359731614589691,-1.0610742568969727,0.9145876169204712,1.0088120698928833,0.2927824854850769,-0.5758373141288757
6.499080181121826,-0.057793546468019485,-1.0606927871704102,0.9145876169204712,1.0072861909866333,0.2946898639202118,-0.5758373141288757
6.519175291061401,-0.06198977679014206,-1.0614557266235352,0.9115357995033264,1.0057603120803833,0.2935454249382019,-0.576218843460083
6.539264917373657,-0.06427863240242004,-1.0622186660766602,0.9092469811439514,1.0057603120803833,0.290112167596817,-0.576218843460083
6.559398651123047,-0.06580453366041183,-1.0626001358032227,0.9081025123596191,1.0065232515335083,0.2801937758922577,-0.5754558444023132
6.579497337341309,-0.06466010212898254,-1.0629816055297852,0.9077210426330566,1.0065232515335083,0.27180132269859314,-0.5750743746757507
6.599577188491821,-0.06313420087099075,-1.0633630752563477,0.9073395729064941,1.0069047212600708,0.26798656582832336,-0.5743114352226257
6.619649410247803,-0.05970092490315437,-1.0626001358032227,0.9088655114173889,1.0084306001663208,0.26722362637519836,-0.5743114352226257
6.639763832092285,-0.05741206929087639,-1.0618371963500977,0.9119172692298889,1.0095750093460083,0.27218279242515564,-0.5743114352226257
6.659907102584839,-0.0558861680328846,-1.0606927871704102,0.9126802682876587,1.0088120698928833,0.28248265385627747,-0.5750743746757507
6.680003643035889,-0.0555046908557415,-1.0599298477172852,0.9126802682876587,1.0084306001663208,0.2904936373233795,-0.5754558444023132
6.700167179107666,-0.05741206929087639,-1.0603113174438477,0.9122987985610962,1.0076676607131958,0.2935454249382019,-0.5758373141288757
6.720358610153198,-0.06084534898400307,-1.0599298477172852,0.9111543297767639,1.0053788423538208,0.2939268946647644,-0.5758373141288757
6.740522623062134,-0.06313420087099075,-1.0614557266235352,0.9081025123596191,1.0046159029006958,0.28858625888824463,-0.5758373141288757
6.760560035705566,-0.06427863240242004,-1.0622186660766602,0.9069581031799316,1.0049973726272583,0.2809567451477051,-0.5758373141288757
6.780638217926025,-0.06580453366041183,-1.0629816055297852,0.9065766334533691,1.0057603120803833,0.27141985297203064,-0.5746929049491882
6.800727367401123,-0.06466010212898254,-1.0629816055297852,0.9069581031799316,1.0061417818069458,0.264934778213501,-0.5746929049491882
6.820812463760376,-0.06046387553215027,-1.0629816055297852,0.9081025123596191,1.0072861909866333,0.2637903392314911,-0.5739299654960632
6.840914964675903,-0.057793546468019485,-1.0622186660766602,0.9115357995033264,1.0095750093460083,0.2653162479400635,-0.5735484957695007
6.861136436462402,-0.056267641484737396,-1.0610742568969727,0.9134432077407837,1.0091935396194458,0.2740901708602905,-0.5735484957695007
6.881239175796509,-0.0555046908557415,-1.0603113174438477,0.9138246774673462,1.0088120698928833,0.28400853276252747,-0.5739299654960632
6.901340484619141,-0.0555046908557415,-1.0599298477172852,0.9138246774673462,1.0080491304397583,0.28934919834136963,-0.5746929049491882
6.921411752700806,-0.05741206929087639,-1.0606927871704102,0.9126802682876587,1.0061417818069458,0.2912565767765045,-0.5750743746757507
6.9415295124053955,-0.06084534898400307,-1.0614557266235352,0.9107728600502014,1.0053788423538208,0.2904936373233795,-0.5754558444023132
6.961575269699097,-0.06160829961299896,-1.0626001358032227,0.9096284508705139,1.0053788423538208,0.28553444147109985,-0.5754558444023132
6.9816648960113525,-0.06313420087099075,-1.0641260147094727,0.9081025123596191,1.0061417818069458,0.2763790488243103,-0.5746929049491882
7.00219464302063,-0.06313420087099075,-1.0648889541625977,0.9077210426330566,1.0065232515335083,0.26684215664863586,-0.5743114352226257
7.02229642868042,-0.06008239835500717,-1.0648889541625977,0.9096284508705139,1.0076676607131958,0.2626459002494812,-0.5739299654960632
7.0424582958221436,-0.057793546468019485,-1.0645074844360352,0.9115357995033264,1.0095750093460083,0.2615014910697937,-0.5735484957695007
7.0625152587890625,-0.0551232174038887,-1.0637445449829102,0.9138246774673462,1.0103379487991333,0.2641718089580536,-0.5735484957695007
7.082591772079468,-0.053215838968753815,-1.0622186660766602,0.916113555431366,1.0099564790725708,0.2733272314071655,-0.5739299654960632
7.102810382843018,-0.053215838968753815,-1.0618371963500977,0.916113555431366,1.0091935396194458,0.2817196846008301,-0.5743114352226257
7.12280797958374,-0.054741740226745605,-1.0622186660766602,0.9157320261001587,1.0091935396194458,0.28629741072654724,-0.5750743746757507
7.142891883850098,-0.05741206929087639,-1.0626001358032227,0.9145876169204712,1.0065232515335083,0.28744181990623474,-0.5754558444023132
7.1629743576049805,-0.059319447726011276,-1.0629816055297852,0.9126802682876587,1.0057603120803833,0.28362706303596497,-0.5754558444023132
7.183105945587158,-0.06084534898400307,-1.0637445449829102,0.9115357995033264,1.0065232515335083,0.2756160795688629,-0.5754558444023132
7.203220367431641,-0.06313420087099075,-1.0641260147094727,0.9115357995033264,1.0072861909866333,0.266460657119751,-0.5746929049491882
7.223874568939209,-0.06275273114442825,-1.0645074844360352,0.9115357995033264,1.0076676607131958,0.2634088695049286,-0.5746929049491882
7.2439680099487305,-0.06008239835500717,-1.0633630752563477,0.9119172692298889,1.0095750093460083,0.2626459002494812,-0.5743114352226257
7.264043569564819,-0.05741206929087639,-1.0622186660766602,0.9134432077407837,1.0118639469146729,0.265697717666626,-0.5739299654960632
7.28413462638855,-0.056267641484737396,-1.0610742568969727,0.9145876169204712,1.0118639469146729,0.27180132269859314,-0.5743114352226257
7.304211378097534,-0.0555046908557415,-1.0606927871704102,0.9145876169204712,1.0107194185256958,0.2821011543273926,-0.5746929049491882
7.324284076690674,-0.0555046908557415,-1.0606927871704102,0.9145876169204712,1.0099564790725708,0.28782328963279724,-0.5750743746757507
7.344373464584351,-0.057793546468019485,-1.0610742568969727,0.9138246774673462,1.0091935396194458,0.28858625888824463,-0.5754558444023132
7.364562273025513,-0.05893797054886818,-1.0622186660766602,0.9119172692298889,1.0076676607131958,0.28706035017967224,-0.5754558444023132
7.38525390625,-0.06084534898400307,-1.0633630752563477,0.9111543297767639,1.0072861909866333,0.2805752754211426,-0.5754558444023132
7.405407667160034,-0.06237125024199486,-1.0645074844360352,0.9100099205970764,1.0076676607131958,0.273708701133728,-0.5750743746757507
7.425426959991455,-0.06351567804813385,-1.0645074844360352,0.9103913903236389,1.0080491304397583,0.2641718089580536,-0.5750743746757507
7.445531129837036,-0.06084534898400307,-1.0645074844360352,0.9111543297767639,1.0099564790725708,0.2618829607963562,-0.5746929049491882
7.465557336807251,-0.05741206929087639,-1.0637445449829102,0.9130617380142212,1.0111008882522583,0.2615014910697937,-0.5743114352226257
7.485610723495483,-0.0555046908557415,-1.0626001358032227,0.9149690866470337,1.0114823579788208,0.2645532786846161,-0.5743114352226257
7.505759954452515,-0.05436026677489281,-1.0618371963500977,0.916113555431366,1.0111008882522583,0.272945761680603,-0.5746929049491882
7.525848627090454,-0.053215838968753815,-1.0606927871704102,0.9164950251579285,1.0103379487991333,0.2817196846008301,-0.5750743746757507
7.545867919921875,-0.0551232174038887,-1.0606927871704102,0.916113555431366,1.0099564790725708,0.28973066806793213,-0.5754558444023132
7.5660364627838135,-0.05855649709701538,-1.0610742568969727,0.9145876169204712,1.0088120698928833,0.291638046503067,-0.5758373141288757
7.586054563522339,-0.061226826161146164,-1.0614557266235352,0.9115357995033264,1.0076676607131958,0.28973066806793213,-0.5758373141288757
7.60611891746521,-0.06313420087099075,-1.0626001358032227,0.9092469811439514,1.0072861909866333,0.2821011543273926,-0.5758373141288757
7.626214504241943,-0.06542305648326874,-1.0633630752563477,0.9081025123596191,1.0084306001663208,0.2740901708602905,-0.5750743746757507
7.646273374557495,-0.06504157930612564,-1.0641260147094727,0.9077210426330566,1.0084306001663208,0.2645532786846161,-0.5750743746757507
7.666358470916748,-0.061226826161146164,-1.0641260147094727,0.9081025123596191,1.0095750093460083,0.2637903392314911,-0.5746929049491882
7.686460494995117,-0.05741206929087639,-1.0637445449829102,0.9107728600502014,1.0111008882522583,0.2641718089580536,-0.5743114352226257
7.706517457962036,-0.0555046908557415,-1.0626001358032227,0.9130617380142212,1.0107194185256958,0.26798656582832336,-0.5746929049491882
7.72660493850708,-0.05359731614589691,-1.0618371963500977,0.9145876169204712,1.0099564790725708,0.2794308364391327,-0.5750743746757507
7.746680736541748,-0.05359731614589691,-1.0610742568969727,0.9149690866470337,1.0095750093460083,0.290112167596817,-0.5754558444023132
7.76702094078064,-0.05664911866188049,-1.0606927871704102,0.9145876169204712,1.0088120698928833,0.2939268946647644,-0.5758373141288757
7.787189245223999,-0.06008239835500717,-1.0614557266235352,0.9130617380142212,1.0069047212600708,0.2954528033733368,-0.5758373141288757
7.807196855545044,-0.06237125024199486,-1.0622186660766602,0.9107728600502014,1.0061417818069458,0.2912565767765045,-0.576218843460083
7.827262878417969,-0.06351567804813385,-1.0633630752563477,0.9096284508705139,1.0065232515335083,0.28286412358283997,-0.5758373141288757
7.847367525100708,-0.06427863240242004,-1.0641260147094727,0.9096284508705139,1.0076676607131958,0.272945761680603,-0.5746929049491882
7.867434501647949,-0.06313420087099075,-1.0645074844360352,0.9096284508705139,1.0080491304397583,0.26836803555488586,-0.5746929049491882
7.887585878372192,-0.05970092490315437,-1.0641260147094727,0.9107728600502014,1.0103379487991333,0.26760509610176086,-0.5746929049491882
7.907679557800293,-0.05703059583902359,-1.0626001358032227,0.9134432077407837,1.0114823579788208,0.27065691351890564,-0.5743114352226257
7.9279279708862305,-0.056267641484737396,-1.0618371963500977,0.9149690866470337,1.0107194185256958,0.2790493667125702,-0.5746929049491882
7.948009490966797,-0.0555046908557415,-1.0610742568969727,0.9149690866470337,1.0099564790725708,0.28934919834136963,-0.5750743746757507
7.968112230300903,-0.0558861680328846,-1.0610742568969727,0.9145876169204712,1.0095750093460083,0.2924010157585144,-0.5754558444023132
7.988210439682007,-0.05855649709701538,-1.0614557266235352,0.9134432077407837,1.0080491304397583,0.291638046503067,-0.5754558444023132
8.008283615112305,-0.06008239835500717,-1.0626001358032227,0.9115357995033264,1.0065232515335083,0.28820478916168213,-0.5754558444023132
8.028371095657349,-0.061226826161146164,-1.0645074844360352,0.9100099205970764,1.0065232515335083,0.2801937758922577,-0.5754558444023132
8.04852557182312,-0.06198977679014206,-1.0656518936157227,0.9100099205970764,1.0069047212600708,0.27065691351890564,-0.5746929049491882
8.068782806396484,-0.06198977679014206,-1.0656518936157227,0.9107728600502014,1.0076676607131958,0.2634088695049286,-0.5743114352226257
8.088954448699951,-0.05970092490315437,-1.0648889541625977,0.9122987985610962,1.0088120698928833,0.2630273997783661,-0.5739299654960632
8.108961820602417,-0.05741206929087639,-1.0637445449829102,0.9145876169204712,1.0107194185256958,0.2653162479400635,-0.5735484957695007
8.129135131835938,-0.0558861680328846,-1.0622186660766602,0.916876494884491,1.0114823579788208,0.273708701133728,-0.5735484957695007
8.149226665496826,-0.0555046908557415,-1.0614557266235352,0.916876494884491,1.0111008882522583,0.28515297174453735,-0.5739299654960632
8.169334888458252,-0.0558861680328846,-1.0606927871704102,0.916113555431366,1.0099564790725708,0.291638046503067,-0.5743114352226257
8.18950605392456,-0.05855649709701538,-1.0614557266235352,0.9134432077407837,1.0088120698928833,0.290875107049942,-0.5746929049491882
8.209595918655396,-0.06084534898400307,-1.0614557266235352,0.9111543297767639,1.0065232515335083,0.28858625888824463,-0.5750743746757507
8.229715585708618,-0.06275273114442825,-1.0629816055297852,0.9092469811439514,1.0061417818069458,0.2817196846008301,-0.5750743746757507
8.249791622161865,-0.06313420087099075,-1.0637445449829102,0.9084840416908264,1.0069047212600708,0.27141985297203064,-0.5739299654960632
8.270030736923218,-0.06313420087099075,-1.0645074844360352,0.9084840416908264,1.0072861909866333,0.264934778213501,-0.5739299654960632
8.290110111236572,-0.06084534898400307,-1.0637445449829102,0.9103913903236389,1.0084306001663208,0.2645532786846161,-0.5735484957695007
8.31022834777832,-0.058175019919872284,-1.0629816055297852,0.9122987985610962,1.0111008882522583,0.266460657119751,-0.5731670260429382
8.331608772277832,-0.05664911866188049,-1.0618371963500977,0.9138246774673462,1.0114823579788208,0.2733272314071655,-0.5731670260429382
8.351705312728882,-0.0551232174038887,-1.0606927871704102,0.9145876169204712,1.0111008882522583,0.28324559330940247,-0.5735484957695007
8.371809482574463,-0.0555046908557415,-1.0603113174438477,0.9142061471939087,1.0095750093460083,0.2904936373233795,-0.5739299654960632
8.391892671585083,-0.05664911866188049,-1.0603113174438477,0.9138246774673462,1.0088120698928833,0.2931639552116394,-0.5746929049491882
8.41196870803833,-0.059319447726011276,-1.0614557266235352,0.9119172692298889,1.0069047212600708,0.2931639552116394,-0.5750743746757507
8.432045221328735,-0.06198977679014206,-1.0626001358032227,0.9100099205970764,1.0061417818069458,0.28973066806793213,-0.5750743746757507
8.452131509780884,-0.06389715522527695,-1.0633630752563477,0.9084840416908264,1.0065232515335083,0.2817196846008301,-0.5746929049491882
8.472301721572876,-0.06427863240242004,-1.0637445449829102,0.9088655114173889,1.0069047212600708,0.27180132269859314,-0.5743114352226257
8.49233341217041,-0.06275273114442825,-1.0645074844360352,0.9092469811439514,1.0076676607131958,0.26722362637519836,-0.5735484957695007
8.512518882751465,-0.05893797054886818,-1.0637445449829102,0.9115357995033264,1.0095750093460083,0.2660791873931885,-0.5727855563163757
8.532499551773071,-0.0558861680328846,-1.0629816055297852,0.9138246774673462,1.0114823579788208,0.26760509610176086,-0.5724040865898132
8.552664279937744,-0.05436026677489281,-1.0614557266235352,0.9157320261001587,1.0111008882522583,0.2756160795688629,-0.5727855563163757
8.572748899459839,-0.05283436179161072,-1.0603113174438477,0.9164950251579285,1.0099564790725708,0.28553444147109985,-0.5731670260429382
8.593455076217651,-0.054741740226745605,-1.0587854385375977,0.916113555431366,1.0095750093460083,0.2950713336467743,-0.5739299654960632
8.613601207733154,-0.05893797054886818,-1.0591669082641602,0.9138246774673462,1.0076676607131958,0.2969787120819092,-0.5743114352226257
8.633671283721924,-0.06275273114442825,-1.0587854385375977,0.9107728600502014,1.0057603120803833,0.2973601818084717,-0.5754558444023132
8.653751134872437,-0.06580453366041183,-1.0599298477172852,0.9073395729064941,1.0053788423538208,0.291638046503067,-0.5758373141288757
8.673816919326782,-0.06618601083755493,-1.0614557266235352,0.9050507545471191,1.0061417818069458,0.2813382148742676,-0.5746929049491882
8.693894624710083,-0.06656748056411743,-1.0633630752563477,0.9046692848205566,1.0065232515335083,0.27218279242515564,-0.5743114352226257
8.713985681533813,-0.06427863240242004,-1.0641260147094727,0.9058136940002441,1.0069047212600708,0.26684215664863586,-0.5743114352226257
8.73405647277832,-0.06084534898400307,-1.0645074844360352,0.9069581031799316,1.0084306001663208,0.2645532786846161,-0.5731670260429382
8.754120588302612,-0.05664911866188049,-1.0637445449829102,0.9107728600502014,1.0099564790725708,0.2660791873931885,-0.5727855563163757
8.774208784103394,-0.0551232174038887,-1.0626001358032227,0.9138246774673462,1.0095750093460083,0.273708701133728,-0.5735484957695007
8.794342756271362,-0.05359731614589691,-1.0618371963500977,0.9138246774673462,1.0091935396194458,0.28591591119766235,-0.5739299654960632
8.814393520355225,-0.0551232174038887,-1.0610742568969727,0.9138246774673462,1.0084306001663208,0.2927824854850769,-0.5743114352226257
8.834464073181152,-0.05893797054886818,-1.0618371963500977,0.9134432077407837,1.0061417818069458,0.2946898639202118,-0.5746929049491882
8.854572057723999,-0.061226826161146164,-1.0622186660766602,0.9111543297767639,1.0053788423538208,0.291638046503067,-0.5754558444023132
8.87472152709961,-0.06275273114442825,-1.0633630752563477,0.9096284508705139,1.0053788423538208,0.28400853276252747,-0.5754558444023132
8.894792795181274,-0.06351567804813385,-1.0641260147094727,0.9096284508705139,1.0065232515335083,0.27103838324546814,-0.5735484957695007
8.914836645126343,-0.06427863240242004,-1.0648889541625977,0.9096284508705139,1.0065232515335083,0.2634088695049286,-0.5731670260429382
8.934929609298706,-0.061226826161146164,-1.0641260147094727,0.9103913903236389,1.0084306001663208,0.2615014910697937,-0.5727855563163757
8.955016374588013,-0.05741206929087639,-1.0633630752563477,0.9122987985610962,1.0107194185256958,0.2622644305229187,-0.5724040865898132
8.97519588470459,-0.0558861680328846,-1.0622186660766602,0.9142061471939087,1.0118639469146729,0.26836803555488586,-0.5724040865898132
8.995315074920654,-0.0555046908557415,-1.0610742568969727,0.9149690866470337,1.0107194185256958,0.2782863974571228,-0.5727855563163757
9.015401363372803,-0.0555046908557415,-1.0610742568969727,0.9145876169204712,1.0095750093460083,0.28629741072654724,-0.5731670260429382
9.035540580749512,-0.056267641484737396,-1.0610742568969727,0.9138246774673462,1.0088120698928833,0.28896772861480713,-0.5735484957695007
9.055641412734985,-0.05893797054886818,-1.0618371963500977,0.9119172692298889,1.0061417818069458,0.28858625888824463,-0.5735484957695007
9.075746774673462,-0.061226826161146164,-1.0629816055297852,0.9103913903236389,1.0053788423538208,0.28629741072654724,-0.5739299654960632
9.095803260803223,-0.06313420087099075,-1.0641260147094727,0.9096284508705139,1.0061417818069458,0.2786678969860077,-0.5739299654960632
9.11586856842041,-0.06313420087099075,-1.0645074844360352,0.9096284508705139,1.0065232515335083,0.26836803555488586,-0.5731670260429382
9.135929584503174,-0.06198977679014206,-1.0641260147094727,0.9100099205970764,1.0069047212600708,0.2645532786846161,-0.5731670260429382
9.156044721603394,-0.05970092490315437,-1.0633630752563477,0.9115357995033264,1.0091935396194458,0.265697717666626,-0.5727855563163757
9.176185369491577,-0.057793546468019485,-1.0622186660766602,0.9130617380142212,1.0107194185256958,0.26874953508377075,-0.5727855563163757
9.196863889694214,-0.05664911866188049,-1.0606927871704102,0.9145876169204712,1.0099564790725708,0.2779049277305603,-0.5731670260429382
9.21694278717041,-0.0555046908557415,-1.0606927871704102,0.9145876169204712,1.0091935396194458,0.28896772861480713,-0.5735484957695007
9.237076759338379,-0.056267641484737396,-1.0610742568969727,0.9138246774673462,1.0088120698928833,0.2958342730998993,-0.5739299654960632
9.25713324546814,-0.059319447726011276,-1.0614557266235352,0.9126802682876587,1.0061417818069458,0.2958342730998993,-0.5739299654960632
9.277188301086426,-0.06198977679014206,-1.0626001358032227,0.9100099205970764,1.0049973726272583,0.2939268946647644,-0.5746929049491882
9.297532558441162,-0.06275273114442825,-1.0641260147094727,0.9088655114173889,1.0049973726272583,0.28515297174453735,-0.5746929049491882
9.317612409591675,-0.06389715522527695,-1.0648889541625977,0.9084840416908264,1.0061417818069458,0.2756160795688629,-0.5739299654960632
9.337705850601196,-0.06351567804813385,-1.0648889541625977,0.9088655114173889,1.0061417818069458,0.26874953508377075,-0.5739299654960632
9.35786747932434,-0.06046387553215027,-1.0645074844360352,0.9096284508705139,1.0072861909866333,0.26760509610176086,-0.5731670260429382
9.378047227859497,-0.058175019919872284,-1.0633630752563477,0.9122987985610962,1.0091935396194458,0.26913100481033325,-0.5727855563163757
9.398113250732422,-0.05703059583902359,-1.0622186660766602,0.9134432077407837,1.0095750093460083,0.2756160795688629,-0.5731670260429382
9.418164491653442,-0.0558861680328846,-1.0610742568969727,0.9138246774673462,1.0088120698928833,0.28629741072654724,-0.5735484957695007
9.43834638595581,-0.056267641484737396,-1.0610742568969727,0.9134432077407837,1.0084306001663208,0.291638046503067,-0.5735484957695007
9.458349466323853,-0.057793546468019485,-1.0610742568969727,0.9122987985610962,1.0065232515335083,0.2927824854850769,-0.5739299654960632
9.478463172912598,-0.06046387553215027,-1.0618371963500977,0.9100099205970764,1.0053788423538208,0.290875107049942,-0.5743114352226257
9.498531579971313,-0.06160829961299896,-1.0629816055297852,0.9084840416908264,1.0049973726272583,0.28477150201797485,-0.5743114352226257
9.518609523773193,-0.06313420087099075,-1.0641260147094727,0.9077210426330566,1.0057603120803833,0.2752346098423004,-0.5735484957695007
9.5387122631073,-0.06275273114442825,-1.0641260147094727,0.9084840416908264,1.0057603120803833,0.26836803555488586,-0.5735484957695007
9.558811902999878,-0.06160829961299896,-1.0641260147094727,0.9092469811439514,1.0065232515335083,0.2637903392314911,-0.5731670260429382
9.579381465911865,-0.058175019919872284,-1.0641260147094727,0.9111543297767639,1.0076676607131958,0.2641718089580536,-0.5731670260429382
9.599464654922485,-0.0558861680328846,-1.0626001358032227,0.9142061471939087,1.0091935396194458,0.26760509610176086,-0.5727855563163757
9.619558334350586,-0.0555046908557415,-1.0618371963500977,0.9145876169204712,1.0088120698928833,0.2767605185508728,-0.5731670260429382
9.639621496200562,-0.0551232174038887,-1.0610742568969727,0.9145876169204712,1.0076676607131958,0.28553444147109985,-0.5735484957695007
9.659715175628662,-0.05664911866188049,-1.0614557266235352,0.9138246774673462,1.0069047212600708,0.28744181990623474,-0.5739299654960632
9.679895162582397,-0.05893797054886818,-1.0618371963500977,0.9126802682876587,1.0057603120803833,0.28744181990623474,-0.5739299654960632
9.699980735778809,-0.06084534898400307,-1.0629816055297852,0.9111543297767639,1.0057603120803833,0.28400853276252747,-0.5746929049491882
9.720069885253906,-0.06160829961299896,-1.0633630752563477,0.9100099205970764,1.0061417818069458,0.2733272314071655,-0.5739299654960632
9.740554332733154,-0.06351567804813385,-1.0637445449829102,0.9096284508705139,1.0065232515335083,0.26684215664863586,-0.5735484957695007
9.760693788528442,-0.06160829961299896,-1.0633630752563477,0.9103913903236389,1.0072861909866333,0.264934778213501,-0.5731670260429382
9.780788660049438,-0.05893797054886818,-1.0626001358032227,0.9111543297767639,1.0088120698928833,0.265697717666626,-0.5731670260429382
9.800923347473145,-0.05741206929087639,-1.0618371963500977,0.9130617380142212,1.0099564790725708,0.26913100481033325,-0.5727855563163757
9.821098566055298,-0.0558861680328846,-1.0610742568969727,0.9142061471939087,1.0095750093460083,0.2790493667125702,-0.5731670260429382
9.841120958328247,-0.0555046908557415,-1.0610742568969727,0.9145876169204712,1.0091935396194458,0.28706035017967224,-0.5735484957695007
9.861301183700562,-0.05664911866188049,-1.0610742568969727,0.9142061471939087,1.0080491304397583,0.28896772861480713,-0.5743114352226257
9.881341934204102,-0.05855649709701538,-1.0622186660766602,0.9134432077407837,1.0065232515335083,0.28896772861480713,-0.5743114352226257
9.901696681976318,-0.06008239835500717,-1.0629816055297852,0.9122987985610962,1.0057603120803833,0.28706035017967224,-0.5746929049491882
9.921813488006592,-0.06160829961299896,-1.0641260147094727,0.9115357995033264,1.0061417818069458,0.2782863974571228,-0.5743114352226257
9.942236423492432,-0.06389715522527695,-1.0652704238891602,0.9107728600502014,1.0069047212600708,0.26989394426345825,-0.5739299654960632
9.962378740310669,-0.06275273114442825,-1.0652704238891602,0.9111543297767639,1.0076676607131958,0.2653162479400635,-0.5735484957695007
9.982562780380249,-0.06084534898400307,-1.0648889541625977,0.9115357995033264,1.0088120698928833,0.2630273997783661,-0.5735484957695007
10.002643585205078,-0.057793546468019485,-1.0641260147094727,0.9134432077407837,1.0103379487991333,0.265697717666626,-0.5727855563163757
10.022907257080078,-0.0558861680328846,-1.0629816055297852,0.9149690866470337,1.0099564790725708,0.27065691351890564,-0.5731670260429382
10.04292631149292,-0.0555046908557415,-1.0622186660766602,0.9157320261001587,1.0095750093460083,0.2813382148742676,-0.5735484957695007
10.063132047653198,-0.056267641484737396,-1.0622186660766602,0.9157320261001587,1.0091935396194458,0.28782328963279724,-0.5739299654960632
10.083227634429932,-0.057793546468019485,-1.0622186660766602,0.9153505563735962,1.0084306001663208,0.28858625888824463,-0.5743114352226257
10.103344202041626,-0.06046387553215027,-1.0633630752563477,0.9130617380142212,1.0065232515335083,0.28782328963279724,-0.5743114352226257
10.123329877853394,-0.06237125024199486,-1.0645074844360352,0.9115357995033264,1.0065232515335083,0.2817196846008301,-0.5746929049491882
10.143457889556885,-0.06542305648326874,-1.0667964220046997,0.9096284508705139,1.0072861909866333,0.27218279242515564,-0.5739299654960632
10.163520097732544,-0.06504157930612564,-1.0671778917312622,0.9103913903236389,1.0076676607131958,0.2622644305229187,-0.5739299654960632
10.183571338653564,-0.06275273114442825,-1.0683223009109497,0.9100099205970764,1.0088120698928833,0.2576867341995239,-0.5735484957695007
10.20368480682373,-0.05893797054886818,-1.0683223009109497,0.9119172692298889,1.0111008882522583,0.25501641631126404,-0.5727855563163757
10.223762273788452,-0.054741740226745605,-1.0675593614578247,0.9142061471939087,1.0114823579788208,0.25425344705581665,-0.5731670260429382
10.244133949279785,-0.050164032727479935,-1.0664149522781372,0.9172579646110535,1.0118639469146729,0.2576867341995239,-0.5731670260429382
10.264222145080566,-0.04901960864663124,-1.0645074844360352,0.9195467829704285,1.0103379487991333,0.264934778213501,-0.5735484957695007
10.284325122833252,-0.050164032727479935,-1.0629816055297852,0.9203097820281982,1.0095750093460083,0.2725642919540405,-0.5739299654960632
10.304389476776123,-0.05359731614589691,-1.0614557266235352,0.9199283123016357,1.0084306001663208,0.2801937758922577,-0.5746929049491882
10.32444429397583,-0.05893797054886818,-1.0603113174438477,0.9164950251579285,1.0076676607131958,0.28515297174453735,-0.5758373141288757
10.344563007354736,-0.06237125024199486,-1.0599298477172852,0.9122987985610962,1.0061417818069458,0.28515297174453735,-0.576218843460083
10.364636898040771,-0.06504157930612564,-1.0606927871704102,0.9092469811439514,1.0069047212600708,0.2748531401157379,-0.5758373141288757
10.384700059890747,-0.06618601083755493,-1.0610742568969727,0.9065766334533691,1.0080491304397583,0.265697717666626,-0.5750743746757507
10.404768466949463,-0.06427863240242004,-1.0626001358032227,0.9046692848205566,1.0088120698928833,0.25349050760269165,-0.5743114352226257
10.424857139587402,-0.059319447726011276,-1.0629816055297852,0.9054322242736816,1.0103379487991333,0.248531311750412,-0.5739299654960632
10.444936990737915,-0.05703059583902359,-1.0629816055297852,0.9077210426330566,1.0107194185256958,0.2466239482164383,-0.5724040865898132
10.464991569519043,-0.05245288833975792,-1.0618371963500977,0.9111543297767639,1.0111008882522583,0.2504386901855469,-0.5731670260429382
10.485084533691406,-0.04940108209848404,-1.0603113174438477,0.9145876169204712,1.0103379487991333,0.2592126429080963,-0.5743114352226257
10.50515866279602,-0.049782559275627136,-1.0584038496017456,0.9164950251579285,1.0095750093460083,0.27027541399002075,-0.5746929049491882
10.525240421295166,-0.05397878959774971,-1.0576409101486206,0.9157320261001587,1.0080491304397583,0.2786678969860077,-0.5758373141288757
10.545321226119995,-0.05893797054886818,-1.055733561515808,0.9134432077407837,1.0057603120803833,0.28667888045310974,-0.576218843460083
10.565423488616943,-0.06198977679014206,-1.056496500968933,0.9092469811439514,1.0042344331741333,0.28858625888824463,-0.578507661819458
10.585506677627563,-0.06427863240242004,-1.0584038496017456,0.9069581031799316,1.0046159029006958,0.2813382148742676,-0.5788891315460205
10.605567693710327,-0.06618601083755493,-1.0603113174438477,0.9054322242736816,1.0057603120803833,0.26913100481033325,-0.578507661819458
10.62576699256897,-0.06504157930612564,-1.0618371963500977,0.9035248160362244,1.0061417818069458,0.25539788603782654,-0.576218843460083
10.645862579345703,-0.06275273114442825,-1.0629816055297852,0.9039062857627869,1.0072861909866333,0.2500572204589844,-0.5750743746757507
10.665929555892944,-0.059319447726011276,-1.0629816055297852,0.9046692848205566,1.0103379487991333,0.248531311750412,-0.5746929049491882
10.686025381088257,-0.05436026677489281,-1.0618371963500977,0.9073395729064941,1.0111008882522583,0.2500572204589844,-0.5746929049491882
10.70612359046936,-0.049782559275627136,-1.0603113174438477,0.9119172692298889,1.0111008882522583,0.25425344705581665,-0.5750743746757507
10.726184129714966,-0.04940108209848404,-1.0591669082641602,0.9134432077407837,1.0103379487991333,0.2615014910697937,-0.5754558444023132
10.746269702911377,-0.05245288833975792,-1.058022379875183,0.9138246774673462,1.0091935396194458,0.2725642919540405,-0.576218843460083
10.766363143920898,-0.05703059583902359,-1.057259440422058,0.9122987985610962,1.0069047212600708,0.2809567451477051,-0.576218843460083
10.786448955535889,-0.06084534898400307,-1.0568779706954956,0.9096284508705139,1.0053788423538208,0.28439003229141235,-0.577744722366333
10.806523084640503,-0.06389715522527695,-1.058022379875183,0.9061951637268066,1.0053788423538208,0.2798123061656952,-0.5788891315460205
10.826590061187744,-0.06542305648326874,-1.0591669082641602,0.9042877554893494,1.0057603120803833,0.26951247453689575,-0.5788891315460205
10.846702814102173,-0.06656748056411743,-1.0610742568969727,0.9035248160362244,1.0065232515335083,0.25616082549095154,-0.5766003131866455
10.866842031478882,-0.06542305648326874,-1.0622186660766602,0.9035248160362244,1.0072861909866333,0.24967575073242188,-0.5754558444023132
10.886889934539795,-0.06160829961299896,-1.0629816055297852,0.9042877554893494,1.0099564790725708,0.24891279637813568,-0.5754558444023132
10.907022714614868,-0.056267641484737396,-1.0622186660766602,0.9061951637268066,1.0114823579788208,0.2504386901855469,-0.5743114352226257
10.927101135253906,-0.05245288833975792,-1.0606927871704102,0.9092469811439514,1.0126268863677979,0.25577935576438904,-0.5743114352226257
10.947141647338867,-0.050164032727479935,-1.0599298477172852,0.9119172692298889,1.0114823579788208,0.2641718089580536,-0.5754558444023132
10.967225074768066,-0.050164032727479935,-1.0587854385375977,0.9130617380142212,1.0103379487991333,0.2740901708602905,-0.5758373141288757
10.987341165542603,-0.05397878959774971,-1.0584038496017456,0.9134432077407837,1.0080491304397583,0.2798123061656952,-0.576218843460083
11.007481098175049,-0.058175019919872284,-1.058022379875183,0.9122987985610962,1.0057603120803833,0.28400853276252747,-0.5766003131866455
11.027568578720093,-0.06160829961299896,-1.0587854385375977,0.9096284508705139,1.0053788423538208,0.28439003229141235,-0.5788891315460205
11.047752141952515,-0.06313420087099075,-1.0603113174438477,0.9077210426330566,1.0057603120803833,0.2756160795688629,-0.5788891315460205
11.067816972732544,-0.06580453366041183,-1.0610742568969727,0.9065766334533691,1.0065232515335083,0.264934778213501,-0.577744722366333
11.087899446487427,-0.06504157930612564,-1.0614557266235352,0.9058136940002441,1.0069047212600708,0.2569237947463989,-0.5766003131866455
11.107983350753784,-0.06351567804813385,-1.0622186660766602,0.9050507545471191,1.0084306001663208,0.25120165944099426,-0.5754558444023132
11.128053188323975,-0.059319447726011276,-1.0618371963500977,0.9065766334533691,1.0107194185256958,0.2508201599121094,-0.5754558444023132
11.148178815841675,-0.0558861680328846,-1.0606927871704102,0.9077210426330566,1.0122454166412354,0.25310903787612915,-0.5750743746757507
11.168293952941895,-0.053215838968753815,-1.0595483779907227,0.9103913903236389,1.0118639469146729,0.2588311731815338,-0.5754558444023132
11.18842077255249,-0.05092698708176613,-1.0584038496017456,0.9119172692298889,1.0103379487991333,0.26684215664863586,-0.5758373141288757
11.208445072174072,-0.05130846053361893,-1.0576409101486206,0.9126802682876587,1.0095750093460083,0.2748531401157379,-0.5758373141288757
11.228535175323486,-0.056267641484737396,-1.0576409101486206,0.9115357995033264,1.0072861909866333,0.2821011543273926,-0.5766003131866455
11.248892784118652,-0.05970092490315437,-1.0576409101486206,0.9111543297767639,1.0057603120803833,0.28477150201797485,-0.577744722366333
11.269012451171875,-0.06389715522527695,-1.0587854385375977,0.9081025123596191,1.0049973726272583,0.28286412358283997,-0.578507661819458
11.289116382598877,-0.06542305648326874,-1.0591669082641602,0.9058136940002441,1.0061417818069458,0.2756160795688629,-0.5788891315460205
11.309356689453125,-0.06733043491840363,-1.0606927871704102,0.9042877554893494,1.0065232515335083,0.2653162479400635,-0.576981782913208
11.329476594924927,-0.06504157930612564,-1.0610742568969727,0.9046692848205566,1.0072861909866333,0.2584496736526489,-0.5766003131866455
11.349595069885254,-0.06237125024199486,-1.0622186660766602,0.9046692848205566,1.0095750093460083,0.25616082549095154,-0.5754558444023132
11.369678020477295,-0.058175019919872284,-1.0618371963500977,0.9073395729064941,1.0111008882522583,0.25654229521751404,-0.5754558444023132
11.389828205108643,-0.054741740226745605,-1.0610742568969727,0.9107728600502014,1.0114823579788208,0.2592126429080963,-0.5754558444023132
11.409984350204468,-0.053215838968753815,-1.0599298477172852,0.9126802682876587,1.0099564790725708,0.26989394426345825,-0.5758373141288757
11.430240631103516,-0.053215838968753815,-1.0587854385375977,0.9130617380142212,1.0095750093460083,0.2794308364391327,-0.576218843460083
11.450244665145874,-0.0551232174038887,-1.0584038496017456,0.9126802682876587,1.0080491304397583,0.28553444147109985,-0.576218843460083
11.47028660774231,-0.059319447726011276,-1.0587854385375977,0.9115357995033264,1.0061417818069458,0.28896772861480713,-0.576981782913208
11.490381240844727,-0.06275273114442825,-1.0595483779907227,0.9088655114173889,1.0049973726272583,0.28706035017967224,-0.578507661819458
11.510483264923096,-0.06389715522527695,-1.0610742568969727,0.9065766334533691,1.0057603120803833,0.2813382148742676,-0.5788891315460205
11.531327724456787,-0.06504157930612564,-1.0622186660766602,0.9061951637268066,1.0065232515335083,0.266460657119751,-0.576981782913208
11.551429271697998,-0.06351567804813385,-1.0626001358032227,0.9061951637268066,1.0069047212600708,0.2615014910697937,-0.576218843460083
11.571502208709717,-0.061226826161146164,-1.0637445449829102,0.9073395729064941,1.0084306001663208,0.2592126429080963,-0.5750743746757507
11.591645956039429,-0.058175019919872284,-1.0629816055297852,0.9100099205970764,1.0103379487991333,0.2599755823612213,-0.5750743746757507
11.611740827560425,-0.0555046908557415,-1.0618371963500977,0.9126802682876587,1.0103379487991333,0.2660791873931885,-0.5750743746757507
11.631839990615845,-0.0555046908557415,-1.0606927871704102,0.9138246774673462,1.0095750093460083,0.2779049277305603,-0.5754558444023132
11.651992797851562,-0.0551232174038887,-1.0599298477172852,0.9134432077407837,1.0091935396194458,0.28515297174453735,-0.5758373141288757
11.67202377319336,-0.057793546468019485,-1.0606927871704102,0.9122987985610962,1.0080491304397583,0.28744181990623474,-0.576218843460083
11.69210171699524,-0.06046387553215027,-1.0610742568969727,0.9107728600502014,1.0057603120803833,0.28782328963279724,-0.576218843460083
11.712226152420044,-0.06275273114442825,-1.0622186660766602,0.9088655114173889,1.0053788423538208,0.2790493667125702,-0.5766003131866455
11.73231291770935,-0.06313420087099075,-1.0629816055297852,0.9077210426330566,1.0057603120803833,0.27065691351890564,-0.576218843460083
11.752538442611694,-0.06427863240242004,-1.0637445449829102,0.9073395729064941,1.0072861909866333,0.2607385218143463,-0.5750743746757507
11.772643089294434,-0.06237125024199486,-1.0629816055297852,0.9084840416908264,1.0076676607131958,0.2588311731815338,-0.5754558444023132
11.792717933654785,-0.05970092490315437,-1.0629816055297852,0.9092469811439514,1.0103379487991333,0.2592126429080963,-0.5750743746757507
11.81286883354187,-0.05741206929087639,-1.0618371963500977,0.9119172692298889,1.0122454166412354,0.2641718089580536,-0.5746929049491882
11.8329598903656,-0.056267641484737396,-1.0606927871704102,0.9130617380142212,1.0122454166412354,0.27218279242515564,-0.5754558444023132
11.853300333023071,-0.053215838968753815,-1.0587854385375977,0.9138246774673462,1.0107194185256958,0.2821011543273926,-0.5754558444023132
11.873379468917847,-0.0555046908557415,-1.0591669082641602,0.9134432077407837,1.0095750093460083,0.28858625888824463,-0.5758373141288757
11.893433332443237,-0.057793546468019485,-1.0587854385375977,0.9119172692298889,1.0080491304397583,0.291638046503067,-0.576218843460083
11.913594961166382,-0.06046387553215027,-1.0595483779907227,0.9096284508705139,1.0057603120803833,0.291638046503067,-0.576218843460083
11.933691501617432,-0.06275273114442825,-1.0610742568969727,0.9073395729064941,1.0053788423538208,0.28744181990623474,-0.576218843460083
11.95391845703125,-0.06427863240242004,-1.0622186660766602,0.9061951637268066,1.0061417818069458,0.2798123061656952,-0.5758373141288757
11.974009275436401,-0.06466010212898254,-1.0629816055297852,0.9061951637268066,1.0061417818069458,0.27180132269859314,-0.5750743746757507
11.994084358215332,-0.06389715522527695,-1.0637445449829102,0.9065766334533691,1.0069047212600708,0.26722362637519836,-0.5746929049491882
12.014145135879517,-0.05970092490315437,-1.0633630752563477,0.9084840416908264,1.0088120698928833,0.265697717666626,-0.5746929049491882
12.034236669540405,-0.05703059583902359,-1.0622186660766602,0.9119172692298889,1.0103379487991333,0.266460657119751,-0.5743114352226257
12.054341316223145,-0.0555046908557415,-1.0618371963500977,0.9138246774673462,1.0103379487991333,0.2748531401157379,-0.5750743746757507
12.074461460113525,-0.0551232174038887,-1.0610742568969727,0.9138246774673462,1.0091935396194458,0.28439003229141235,-0.5754558444023132
12.094489574432373,-0.0558861680328846,-1.0610742568969727,0.9138246774673462,1.0088120698928833,0.28896772861480713,-0.5754558444023132
12.114549160003662,-0.057793546468019485,-1.0610742568969727,0.9130617380142212,1.0080491304397583,0.28934919834136963,-0.5758373141288757
12.134641170501709,-0.06008239835500717,-1.0622186660766602,0.9111543297767639,1.0061417818069458,0.28706035017967224,-0.5758373141288757
12.15472149848938,-0.06198977679014206,-1.0633630752563477,0.9096284508705139,1.0061417818069458,0.2801937758922577,-0.5758373141288757
12.174797773361206,-0.06351567804813385,-1.0641260147094727,0.9084840416908264,1.0069047212600708,0.27103838324546814,-0.5750743746757507
12.194926738739014,-0.06313420087099075,-1.0641260147094727,0.9088655114173889,1.0072861909866333,0.2645532786846161,-0.5746929049491882
12.214985609054565,-0.06160829961299896,-1.0641260147094727,0.9092469811439514,1.0088120698928833,0.2622644305229187,-0.5743114352226257
12.235093832015991,-0.05855649709701538,-1.0629816055297852,0.9115357995033264,1.0103379487991333,0.2634088695049286,-0.5743114352226257
12.255157709121704,-0.05741206929087639,-1.0618371963500977,0.9130617380142212,1.0107194185256958,0.26913100481033325,-0.5743114352226257
12.275207042694092,-0.05664911866188049,-1.0606927871704102,0.9138246774673462,1.0099564790725708,0.2790493667125702,-0.5746929049491882
12.29529595375061,-0.0555046908557415,-1.0606927871704102,0.9138246774673462,1.0095750093460083,0.28629741072654724,-0.5754558444023132
12.31538200378418,-0.05664911866188049,-1.0610742568969727,0.9126802682876587,1.0088120698928833,0.28858625888824463,-0.5754558444023132
12.335588216781616,-0.05970092490315437,-1.0614557266235352,0.9107728600502014,1.0065232515335083,0.28782328963279724,-0.5754558444023132
12.355696439743042,-0.061226826161146164,-1.0626001358032227,0.9092469811439514,1.0057603120803833,0.28286412358283997,-0.5754558444023132
12.375760793685913,-0.06198977679014206,-1.0633630752563477,0.9081025123596191,1.0061417818069458,0.2786678969860077,-0.5750743746757507
12.396132707595825,-0.06313420087099075,-1.0641260147094727,0.9084840416908264,1.0065232515335083,0.2660791873931885,-0.5746929049491882
12.41628646850586,-0.06160829961299896,-1.0637445449829102,0.9092469811439514,1.0080491304397583,0.264934778213501,-0.5746929049491882
12.436312913894653,-0.05970092490315437,-1.0629816055297852,0.9107728600502014,1.0091935396194458,0.265697717666626,-0.5743114352226257
12.456410884857178,-0.057793546468019485,-1.0618371963500977,0.9126802682876587,1.0103379487991333,0.26913100481033325,-0.5743114352226257
12.476485013961792,-0.0558861680328846,-1.0610742568969727,0.9138246774673462,1.0099564790725708,0.2794308364391327,-0.5750743746757507
12.496568202972412,-0.0555046908557415,-1.0610742568969727,0.9138246774673462,1.0095750093460083,0.28629741072654724,-0.5750743746757507
12.516638040542603,-0.05703059583902359,-1.0614557266235352,0.9134432077407837,1.0088120698928833,0.28858625888824463,-0.5754558444023132
12.53669023513794,-0.059319447726011276,-1.0622186660766602,0.9119172692298889,1.0076676607131958,0.28858625888824463,-0.5754558444023132
12.556783676147461,-0.06084534898400307,-1.0633630752563477,0.9103913903236389,1.0061417818069458,0.28477150201797485,-0.5754558444023132
12.576933860778809,-0.06313420087099075,-1.0648889541625977,0.9088655114173889,1.0065232515335083,0.2775234580039978,-0.5754558444023132
12.596941232681274,-0.06313420087099075,-1.0656518936157227,0.9088655114173889,1.0065232515335083,0.26722362637519836,-0.5750743746757507
12.617102861404419,-0.06198977679014206,-1.0664149522781372,0.9100099205970764,1.0076676607131958,0.2618829607963562,-0.5743114352226257
12.63723635673523,-0.05970092490315437,-1.0660333633422852,0.9119172692298889,1.0099564790725708,0.2592126429080963,-0.5743114352226257
12.657446384429932,-0.056267641484737396,-1.0652704238891602,0.9138246774673462,1.0107194185256958,0.2599755823612213,-0.5739299654960632
12.677566289901733,-0.05359731614589691,-1.0637445449829102,0.9164950251579285,1.0111008882522583,0.2641718089580536,-0.5739299654960632
12.697658061981201,-0.053215838968753815,-1.0626001358032227,0.917639434337616,1.0103379487991333,0.27218279242515564,-0.5743114352226257
12.718974590301514,-0.051689937710762024,-1.0614557266235352,0.9180209040641785,1.0095750093460083,0.28248265385627747,-0.5750743746757507
12.739119529724121,-0.0551232174038887,-1.0610742568969727,0.916876494884491,1.0084306001663208,0.28934919834136963,-0.5754558444023132
12.75916576385498,-0.059319447726011276,-1.0610742568969727,0.9153505563735962,1.0069047212600708,0.2920195460319519,-0.5758373141288757
12.779927253723145,-0.06198977679014206,-1.0610742568969727,0.9115357995033264,1.0061417818069458,0.2912565767765045,-0.576218843460083
12.800036191940308,-0.06389715522527695,-1.0622186660766602,0.9092469811439514,1.0061417818069458,0.28286412358283997,-0.5758373141288757
12.82011866569519,-0.06580453366041183,-1.0629816055297852,0.9077210426330566,1.0072861909866333,0.2748531401157379,-0.5750743746757507
12.840240955352783,-0.06351567804813385,-1.0637445449829102,0.9073395729064941,1.0080491304397583,0.26798656582832336,-0.5746929049491882
12.860280275344849,-0.059319447726011276,-1.0637445449829102,0.9084840416908264,1.0088120698928833,0.2637903392314911,-0.5743114352226257
12.880373477935791,-0.05703059583902359,-1.0637445449829102,0.9111543297767639,1.0103379487991333,0.2641718089580536,-0.5739299654960632
12.90045714378357,-0.0551232174038887,-1.0622186660766602,0.9142061471939087,1.0099564790725708,0.26951247453689575,-0.5743114352226257
12.920519351959229,-0.05283436179161072,-1.0603113174438477,0.9157320261001587,1.0091935396194458,0.28248265385627747,-0.5754558444023132
12.940580606460571,-0.05359731614589691,-1.0591669082641602,0.9164950251579285,1.0088120698928833,0.290875107049942,-0.5758373141288757
12.96067762374878,-0.058175019919872284,-1.0587854385375977,0.9153505563735962,1.0076676607131958,0.2962157726287842,-0.576218843460083
12.980786323547363,-0.06275273114442825,-1.058022379875183,0.9134432077407837,1.0057603120803833,0.29926756024360657,-0.576218843460083
13.00115180015564,-0.06694895774126053,-1.0587854385375977,0.9088655114173889,1.0049973726272583,0.30193790793418884,-0.576981782913208
13.021275758743286,-0.06809338182210922,-1.0603113174438477,0.9054322242736816,1.0053788423538208,0.2946898639202118,-0.5766003131866455
13.041434049606323,-0.06771191209554672,-1.0614557266235352,0.9042877554893494,1.0061417818069458,0.2798123061656952,-0.5754558444023132
13.061742305755615,-0.06504157930612564,-1.0637445449829102,0.9035248160362244,1.0065232515335083,0.27218279242515564,-0.5750743746757507
13.081828117370605,-0.06084534898400307,-1.0652704238891602,0.9046692848205566,1.0076676607131958,0.265697717666626,-0.5743114352226257
13.10189962387085,-0.05664911866188049,-1.0648889541625977,0.9073395729064941,1.0095750093460083,0.2637903392314911,-0.5739299654960632
13.122008085250854,-0.05130846053361893,-1.0637445449829102,0.9115357995033264,1.0095750093460083,0.265697717666626,-0.5735484957695007
13.14210295677185,-0.04901960864663124,-1.0622186660766602,0.9157320261001587,1.0084306001663208,0.2748531401157379,-0.5735484957695007
13.162231683731079,-0.048638131469488144,-1.0606927871704102,0.917639434337616,1.0080491304397583,0.28515297174453735,-0.5746929049491882
13.182324647903442,-0.05283436179161072,-1.0587854385375977,0.9180209040641785,1.0057603120803833,0.2931639552116394,-0.5754558444023132
13.202414751052856,-0.05855649709701538,-1.0576409101486206,0.916113555431366,1.0038528442382812,0.29850462079048157,-0.576218843460083
13.222699403762817,-0.06389715522527695,-1.058022379875183,0.9122987985610962,1.0023269653320312,0.29888609051704407,-0.5766003131866455
13.242925882339478,-0.06694895774126053,-1.0587854385375977,0.9081025123596191,1.0027084350585938,0.2927824854850769,-0.576218843460083
13.262924194335938,-0.06771191209554672,-1.0595483779907227,0.9054322242736816,1.0034713745117188,0.2775234580039978,-0.5754558444023132
13.283013105392456,-0.06656748056411743,-1.0610742568969727,0.9042877554893494,1.0042344331741333,0.2660791873931885,-0.5746929049491882
13.303162336349487,-0.06466010212898254,-1.0626001358032227,0.9042877554893494,1.0061417818069458,0.2615014910697937,-0.5739299654960632
13.323367357254028,-0.059319447726011276,-1.0622186660766602,0.9054322242736816,1.0072861909866333,0.2599755823612213,-0.5739299654960632
13.343488693237305,-0.05359731614589691,-1.0606927871704102,0.9092469811439514,1.0095750093460083,0.2630273997783661,-0.5731670260429382
13.363559007644653,-0.05092698708176613,-1.0595483779907227,0.9126802682876587,1.0088120698928833,0.26989394426345825,-0.5731670260429382
13.383715391159058,-0.050164032727479935,-1.058022379875183,0.9142061471939087,1.0084306001663208,0.28400853276252747,-0.5750743746757507
13.403835773468018,-0.05283436179161072,-1.057259440422058,0.9138246774673462,1.0069047212600708,0.290875107049942,-0.5750743746757507
13.423906803131104,-0.05703059583902359,-1.056496500968933,0.9130617380142212,1.0049973726272583,0.2977416515350342,-0.5758373141288757
13.444002389907837,-0.06198977679014206,-1.0568779706954956,0.9107728600502014,1.0019454956054688,0.2977416515350342,-0.5766003131866455
13.464096784591675,-0.06618601083755493,-1.0584038496017456,0.9065766334533691,1.0015640258789062,0.2954528033733368,-0.5766003131866455
13.484148502349854,-0.06580453366041183,-1.0595483779907227,0.9042877554893494,1.0027084350585938,0.28477150201797485,-0.576218843460083
13.504238605499268,-0.06618601083755493,-1.0610742568969727,0.9039062857627869,1.0046159029006958,0.27141985297203064,-0.5746929049491882
13.524316549301147,-0.06504157930612564,-1.0629816055297852,0.9042877554893494,1.0057603120803833,0.264934778213501,-0.5746929049491882
13.544381380081177,-0.061226826161146164,-1.0633630752563477,0.9054322242736816,1.0076676607131958,0.2611200213432312,-0.5739299654960632
13.56449294090271,-0.05703059583902359,-1.0626001358032227,0.9088655114173889,1.0103379487991333,0.2618829607963562,-0.5735484957695007
13.584560632705688,-0.05359731614589691,-1.0618371963500977,0.9126802682876587,1.0103379487991333,0.2645532786846161,-0.5735484957695007
13.604849338531494,-0.053215838968753815,-1.0606927871704102,0.9145876169204712,1.0088120698928833,0.2767605185508728,-0.5750743746757507
13.62495732307434,-0.05245288833975792,-1.0599298477172852,0.9157320261001587,1.0084306001663208,0.28553444147109985,-0.5754558444023132
13.645047664642334,-0.05397878959774971,-1.0591669082641602,0.9153505563735962,1.0076676607131958,0.2943083941936493,-0.5754558444023132
13.665125608444214,-0.05855649709701538,-1.0591669082641602,0.9134432077407837,1.0049973726272583,0.2958342730998993,-0.576218843460083
13.685191631317139,-0.06275273114442825,-1.0603113174438477,0.9100099205970764,1.0034713745117188,0.2931639552116394,-0.5766003131866455
13.705788850784302,-0.06427863240242004,-1.0614557266235352,0.9081025123596191,1.0042344331741333,0.28515297174453735,-0.576218843460083
13.725914478302002,-0.06656748056411743,-1.0629816055297852,0.9058136940002441,1.0057603120803833,0.273708701133728,-0.5754558444023132
13.745967626571655,-0.06618601083755493,-1.0641260147094727,0.9054322242736816,1.0061417818069458,0.2626459002494812,-0.5754558444023132
13.766101121902466,-0.06237125024199486,-1.0645074844360352,0.9061951637268066,1.0072861909866333,0.2580682039260864,-0.5743114352226257
13.786245584487915,-0.05893797054886818,-1.0641260147094727,0.9081025123596191,1.0103379487991333,0.25577935576438904,-0.5735484957695007
13.806227922439575,-0.05436026677489281,-1.0629816055297852,0.9107728600502014,1.0114823579788208,0.25654229521751404,-0.5735484957695007
13.82631254196167,-0.05054550990462303,-1.0618371963500977,0.9145876169204712,1.0111008882522583,0.2615014910697937,-0.5735484957695007
13.846391201019287,-0.04940108209848404,-1.0606927871704102,0.916113555431366,1.0103379487991333,0.272945761680603,-0.5739299654960632
13.866613864898682,-0.05054550990462303,-1.0591669082641602,0.9164950251579285,1.0091935396194458,0.2809567451477051,-0.5750743746757507
13.886732816696167,-0.0551232174038887,-1.0587854385375977,0.9157320261001587,1.0061417818069458,0.28667888045310974,-0.5758373141288757
13.906881332397461,-0.05970092490315437,-1.0587854385375977,0.9134432077407837,1.0046159029006958,0.290112167596817,-0.5766003131866455
13.927037715911865,-0.06237125024199486,-1.0587854385375977,0.9100099205970764,1.0046159029006958,0.28820478916168213,-0.5766003131866455
13.947246551513672,-0.06389715522527695,-1.0603113174438477,0.9077210426330566,1.0053788423538208,0.2782863974571228,-0.576218843460083
13.96721601486206,-0.06694895774126053,-1.0610742568969727,0.9042877554893494,1.0065232515335083,0.26874953508377075,-0.5754558444023132
13.987339973449707,-0.06466010212898254,-1.0614557266235352,0.9046692848205566,1.0069047212600708,0.2584496736526489,-0.5754558444023132
14.00748324394226,-0.061226826161146164,-1.0622186660766602,0.9046692848205566,1.0084306001663208,0.25234606862068176,-0.5750743746757507
14.027535200119019,-0.058175019919872284,-1.0618371963500977,0.9065766334533691,1.0099564790725708,0.24967575073242188,-0.5743114352226257
14.047685623168945,-0.053215838968753815,-1.0606927871704102,0.9100099205970764,1.0107194185256958,0.25158312916755676,-0.5750743746757507
14.067737817764282,-0.049782559275627136,-1.0595483779907227,0.9130617380142212,1.0095750093460083,0.2573052644729614,-0.5754558444023132
14.088151931762695,-0.04901960864663124,-1.0576409101486206,0.9145876169204712,1.0091935396194458,0.265697717666626,-0.5758373141288757
14.108273029327393,-0.05207141116261482,-1.0568779706954956,0.9142061471939087,1.0080491304397583,0.2767605185508728,-0.576218843460083
14.128333568572998,-0.0551232174038887,-1.055733561515808,0.9138246774673462,1.0061417818069458,0.28362706303596497,-0.576981782913208
14.148465871810913,-0.05970092490315437,-1.0568779706954956,0.9103913903236389,1.0042344331741333,0.28477150201797485,-0.578507661819458
14.168679475784302,-0.06160829961299896,-1.0576409101486206,0.9081025123596191,1.0046159029006958,0.2794308364391327,-0.580033540725708
14.188925981521606,-0.06351567804813385,-1.0591669082641602,0.9058136940002441,1.0061417818069458,0.26951247453689575,-0.579270601272583
14.209056377410889,-0.06275273114442825,-1.0599298477172852,0.9058136940002441,1.0069047212600708,0.2592126429080963,-0.5788891315460205
14.229129076004028,-0.06160829961299896,-1.0614557266235352,0.9054322242736816,1.0076676607131958,0.25234606862068176,-0.578507661819458
14.249268531799316,-0.058175019919872284,-1.0610742568969727,0.9073395729064941,1.0103379487991333,0.2508201599121094,-0.5766003131866455
14.269320011138916,-0.054741740226745605,-1.0599298477172852,0.9107728600502014,1.0107194185256958,0.25196459889411926,-0.5758373141288757
14.289365768432617,-0.05245288833975792,-1.0584038496017456,0.9142061471939087,1.0107194185256958,0.2580682039260864,-0.576218843460083
14.309452295303345,-0.05092698708176613,-1.057259440422058,0.9145876169204712,1.0099564790725708,0.27141985297203064,-0.576981782913208
14.3296377658844,-0.05359731614589691,-1.0561150312423706,0.9138246774673462,1.0091935396194458,0.2790493667125702,-0.576981782913208
14.34989595413208,-0.05741206929087639,-1.0561150312423706,0.9126802682876587,1.0072861909866333,0.28439003229141235,-0.578507661819458
14.370067834854126,-0.061226826161146164,-1.057259440422058,0.9092469811439514,1.0053788423538208,0.28629741072654724,-0.5804150700569153
14.390102863311768,-0.06313420087099075,-1.0591669082641602,0.9073395729064941,1.0049973726272583,0.2821011543273926,-0.5807965397834778
14.410699844360352,-0.06427863240242004,-1.0606927871704102,0.9061951637268066,1.0065232515335083,0.26951247453689575,-0.579270601272583
14.430824756622314,-0.06466010212898254,-1.0614557266235352,0.9061951637268066,1.0065232515335083,0.2595941126346588,-0.579270601272583
14.450905799865723,-0.06389715522527695,-1.0622186660766602,0.9061951637268066,1.0072861909866333,0.25501641631126404,-0.578507661819458
14.47097897529602,-0.05970092490315437,-1.0622186660766602,0.9077210426330566,1.0103379487991333,0.25577935576438904,-0.578507661819458
