liuyurong129/humanoid-gym/humanoid/data/actual_q_20250521-000152.csv
timestamp,joint_1,joint_2,joint_3,joint_4,joint_5,joint_6
5.817413330078125e-05,0.00019073777366429567,0.1657511293888092,-0.08373387902975082,-0.00019073777366429567,0.00019073777366429567,-0.000572213320992887
0.020151138305664062,0.000572213320992887,0.14171816408634186,-0.07381551712751389,-0.00019073777366429567,0.00019073777366429567,-0.000572213320992887
0.04023337364196777,-0.00019073777366429567,0.1192111074924469,-0.06275273114442825,-0.00019073777366429567,0.0020981156267225742,-0.000572213320992887
0.060286521911621094,-0.00019073777366429567,0.10700388997793198,-0.05664911866188049,-0.00019073777366429567,0.00019073777366429567,-0.00019073777366429567
0.08036136627197266,-0.00019073777366429567,0.09670405089855194,-0.05054550990462303,-0.00019073777366429567,0.000572213320992887,-0.000572213320992887
0.10045218467712402,-0.00019073777366429567,0.0879301130771637,-0.045204851776361465,-0.00019073777366429567,0.0009536888683214784,-0.000572213320992887
0.12051606178283691,-0.00019073777366429567,0.08411535620689392,-0.043678950518369675,-0.00019073777366429567,0.000572213320992887,-0.00019073777366429567
0.1406078338623047,0.00019073777366429567,0.0871671661734581,-0.04444190114736557,-0.00019073777366429567,-0.000572213320992887,-0.00019073777366429567
0.16074347496032715,0.00019073777366429567,0.086785688996315,-0.04558632895350456,-0.00019073777366429567,0.000572213320992887,-0.000572213320992887
0.181077241897583,0.00019073777366429567,0.08373387902975082,-0.04558632895350456,-0.00019073777366429567,0.000572213320992887,-0.000572213320992887
0.20118021965026855,0.000572213320992887,0.08297093212604523,-0.045204851776361465,-0.00019073777366429567,0.000572213320992887,-0.000572213320992887
0.2212543487548828,0.000572213320992887,0.08297093212604523,-0.04444190114736557,-0.00019073777366429567,0.000572213320992887,-0.000572213320992887
0.24131488800048828,0.000572213320992887,0.08297093212604523,-0.043678950518369675,-0.00019073777366429567,0.000572213320992887,-0.000572213320992887
0.2614006996154785,0.000572213320992887,0.08258945494890213,-0.04329747334122658,-0.00019073777366429567,0.0009536888683214784,-0.0009536888683214784
0.28148412704467773,0.000572213320992887,0.08258945494890213,-0.04329747334122658,-0.00019073777366429567,0.000572213320992887,-0.0009536888683214784
0.30153965950012207,0.000572213320992887,0.08182650804519653,-0.04329747334122658,-0.00019073777366429567,0.000572213320992887,-0.0009536888683214784
0.32163047790527344,0.0009536888683214784,0.08030059933662415,-0.04329747334122658,-0.00019073777366429567,0.000572213320992887,-0.0013351644156500697
0.3417038917541504,0.0009536888683214784,0.08030059933662415,-0.04291599988937378,-0.00019073777366429567,0.000572213320992887,-0.0020981156267225742
0.36177587509155273,0.0009536888683214784,0.07991912961006165,-0.04291599988937378,-0.00019073777366429567,0.000572213320992887,-0.002861066721379757
0.38199710845947266,0.001716639962978661,0.07877469807863235,-0.04253452271223068,-0.00019073777366429567,0.000572213320992887,-0.0032425422687083483
0.40210795402526855,0.0020981156267225742,0.07801175117492676,-0.042153049260377884,-0.00019073777366429567,0.000572213320992887,-0.0032425422687083483
0.4221072196960449,0.0020981156267225742,0.07686731964349747,-0.04177157208323479,-0.00019073777366429567,0.000572213320992887,-0.0036240178160369396
0.44219279289245605,0.0024795911740511656,0.07572289556264877,-0.04139009863138199,-0.00019073777366429567,0.000572213320992887,-0.0036240178160369396
0.4622626304626465,0.0024795911740511656,0.07534141838550568,-0.04100862145423889,-0.00019073777366429567,0.000572213320992887,-0.0036240178160369396
0.482316255569458,0.0024795911740511656,0.07534141838550568,-0.04100862145423889,-0.00019073777366429567,0.000572213320992887,-0.0036240178160369396
0.5024309158325195,0.0024795911740511656,0.07457847148180008,-0.04100862145423889,-0.00019073777366429567,0.000572213320992887,-0.004005493130534887
0.5225005149841309,0.0024795911740511656,0.07343403995037079,-0.040627144277095795,-0.00019073777366429567,0.0009536888683214784,-0.004005493130534887
0.5425927639007568,0.002861066721379757,0.07343403995037079,-0.0398641936480999,-0.00019073777366429567,0.000572213320992887,-0.004005493130534887
0.5626883506774902,0.002861066721379757,0.0722896158695221,-0.0398641936480999,-0.00019073777366429567,0.000572213320992887,-0.004386968910694122
0.5827341079711914,0.002861066721379757,0.0715266615152359,-0.039101243019104004,-0.00019073777366429567,0.000572213320992887,-0.004386968910694122
0.6028149127960205,0.002861066721379757,0.0711451917886734,-0.039101243019104004,-0.00019073777366429567,0.000572213320992887,-0.004386968910694122
0.622891902923584,0.002861066721379757,0.0707637146115303,-0.039101243019104004,-0.00019073777366429567,0.000572213320992887,-0.00476844422519207
0.6429736614227295,0.002861066721379757,0.07000076025724411,-0.039101243019104004,-0.00019073777366429567,0.000572213320992887,-0.005149920005351305
0.6630263328552246,0.002861066721379757,0.06923781335353851,-0.039101243019104004,-0.00019073777366429567,0.000572213320992887,-0.005531395319849253
0.6831562519073486,0.0036240178160369396,0.06847485899925232,-0.038719769567251205,-0.00019073777366429567,0.000572213320992887,-0.005912871100008488
0.7032480239868164,0.004005493130534887,0.06809338182210922,-0.03833829239010811,-0.00019073777366429567,0.000572213320992887,-0.00667582219466567
0.7233238220214844,0.004386968910694122,0.06771191209554672,-0.03757534176111221,-0.00019073777366429567,0.000572213320992887,-0.00667582219466567
0.7434971332550049,0.00476844422519207,0.06694895774126053,-0.03757534176111221,-0.00019073777366429567,0.000572213320992887,-0.00667582219466567
0.7635879516601562,0.00476844422519207,0.06580453366041183,-0.03681239113211632,-0.00019073777366429567,0.000572213320992887,-0.00667582219466567
0.7836799621582031,0.00476844422519207,0.06504157930612564,-0.03681239113211632,-0.00019073777366429567,0.0009536888683214784,-0.007057297509163618
0.8037185668945312,0.00476844422519207,0.06427863240242004,-0.03681239113211632,-0.00019073777366429567,0.0009536888683214784,-0.007057297509163618
0.8238327503204346,0.00476844422519207,0.06313420087099075,-0.03681239113211632,-0.00019073777366429567,0.000572213320992887,-0.007057297509163618
0.8439123630523682,0.00476844422519207,0.06275273114442825,-0.03604944050312042,-0.000572213320992887,0.000572213320992887,-0.007057297509163618
0.8639674186706543,0.00476844422519207,0.06198977679014206,-0.035667963325977325,-0.000572213320992887,0.000572213320992887,-0.007057297509163618
0.8842089176177979,0.00476844422519207,0.061226826161146164,-0.03528648987412453,-0.000572213320992887,0.000572213320992887,-0.007057297509163618
0.9043009281158447,0.005149920005351305,0.06046387553215027,-0.03490501269698143,-0.000572213320992887,0.0009536888683214784,-0.007438773289322853
0.9243621826171875,0.005149920005351305,0.06046387553215027,-0.03490501269698143,-0.000572213320992887,0.000572213320992887,-0.007438773289322853
0.9446961879730225,0.005149920005351305,0.05970092490315437,-0.03490501269698143,-0.000572213320992887,0.0009536888683214784,-0.007438773289322853
0.9647886753082275,0.005149920005351305,0.05855649709701538,-0.03452353551983833,-0.000572213320992887,0.000572213320992887,-0.0078202486038208
0.9848732948303223,0.005912871100008488,0.057793546468019485,-0.03376058489084244,-0.000572213320992887,0.000572213320992887,-0.0078202486038208
1.0049235820770264,0.007057297509163618,0.05703059583902359,-0.03376058489084244,-0.0009536888683214784,0.000572213320992887,-0.0078202486038208
1.0250120162963867,0.00667582219466567,0.05664911866188049,-0.03337911143898964,-0.0009536888683214784,0.0009536888683214784,-0.008201723918318748
1.045140027999878,0.007057297509163618,0.0558861680328846,-0.03299763426184654,-0.0009536888683214784,0.0009536888683214784,-0.008201723918318748
1.0651838779449463,0.007057297509163618,0.0555046908557415,-0.03299763426184654,-0.0009536888683214784,0.0009536888683214784,-0.00858320016413927
1.085313320159912,0.007057297509163618,0.054741740226745605,-0.032616160809993744,-0.0009536888683214784,0.0009536888683214784,-0.00858320016413927
1.1054084300994873,0.007057297509163618,0.05359731614589691,-0.03223468363285065,-0.0009536888683214784,0.0009536888683214784,-0.008964675478637218
1.125462532043457,0.007057297509163618,0.05283436179161072,-0.03185320645570755,-0.0009536888683214784,0.0009536888683214784,-0.009346150793135166
1.145566463470459,0.007057297509163618,0.05207141116261482,-0.03147173300385475,-0.0009536888683214784,0.0009536888683214784,-0.009727626107633114
1.165618658065796,0.007057297509163618,0.05130846053361893,-0.03147173300385475,-0.0013351644156500697,0.0009536888683214784,-0.010490577667951584
1.185713768005371,0.007057297509163618,0.05092698708176613,-0.031090257689356804,-0.0013351644156500697,0.0009536888683214784,-0.010872052982449532
1.2060017585754395,0.007057297509163618,0.050164032727479935,-0.030708782374858856,-0.0013351644156500697,0.0009536888683214784,-0.010872052982449532
1.226121425628662,0.007438773289322853,0.04940108209848404,-0.030708782374858856,-0.0013351644156500697,0.0009536888683214784,-0.01125352829694748
1.2461791038513184,0.007438773289322853,0.048638131469488144,-0.03032730519771576,-0.0013351644156500697,0.0009536888683214784,-0.01125352829694748
1.266284704208374,0.0078202486038208,0.048638131469488144,-0.02994582988321781,-0.0013351644156500697,0.0009536888683214784,-0.01125352829694748
1.2863757610321045,0.008201723918318748,0.04749370738863945,-0.029564354568719864,-0.001716639962978661,0.0009536888683214784,-0.011635004542768002
1.306457281112671,0.008201723918318748,0.046730753034353256,-0.029182879254221916,-0.001716639962978661,0.0009536888683214784,-0.011635004542768002
1.3265414237976074,0.008201723918318748,0.04634927958250046,-0.02880140393972397,-0.001716639962978661,0.0009536888683214784,-0.01201647985726595
1.3466243743896484,0.008201723918318748,0.04558632895350456,-0.02880140393972397,-0.001716639962978661,0.0009536888683214784,-0.01201647985726595
1.36672043800354,0.008964675478637218,0.04482337832450867,-0.02841992862522602,-0.001716639962978661,0.0009536888683214784,-0.012397955171763897
1.386786937713623,0.008964675478637218,0.04444190114736557,-0.02841992862522602,-0.0020981156267225742,0.0009536888683214784,-0.012779430486261845
1.406848430633545,0.008964675478637218,0.043678950518369675,-0.02841992862522602,-0.0020981156267225742,0.0009536888683214784,-0.012779430486261845
1.4269142150878906,0.008964675478637218,0.04253452271223068,-0.027656977996230125,-0.0020981156267225742,0.0009536888683214784,-0.013160906732082367
1.4469974040985107,0.008964675478637218,0.042153049260377884,-0.02727550081908703,-0.0024795911740511656,0.0009536888683214784,-0.013542382046580315
1.4670774936676025,0.008964675478637218,0.04139009863138199,-0.02689402550458908,-0.0024795911740511656,0.0009536888683214784,-0.013923857361078262
1.487189769744873,0.008964675478637218,0.040245670825242996,-0.026512550190091133,-0.002861066721379757,0.0009536888683214784,-0.01430533267557621
1.5072433948516846,0.009346150793135166,0.0398641936480999,-0.026512550190091133,-0.002861066721379757,0.0013351644156500697,-0.01430533267557621
1.5273151397705078,0.009727626107633114,0.0394827201962471,-0.026512550190091133,-0.0032425422687083483,0.0009536888683214784,-0.01430533267557621
1.5474140644073486,0.010109102353453636,0.038719769567251205,-0.026512550190091133,-0.0032425422687083483,0.0009536888683214784,-0.014686808921396732
1.5676074028015137,0.010109102353453636,0.03795681521296501,-0.026131074875593185,-0.0036240178160369396,0.0013351644156500697,-0.014686808921396732
1.5875849723815918,0.010109102353453636,0.03757534176111221,-0.02536812424659729,-0.0036240178160369396,0.0013351644156500697,-0.014686808921396732
1.607680082321167,0.010109102353453636,0.03681239113211632,-0.024986648932099342,-0.0036240178160369396,0.0013351644156500697,-0.014686808921396732
1.6277987957000732,0.010109102353453636,0.03604944050312042,-0.024605173617601395,-0.0036240178160369396,0.0013351644156500697,-0.014686808921396732
1.6478564739227295,0.010109102353453636,0.035667963325977325,-0.024605173617601395,-0.004005493130534887,0.0013351644156500697,-0.01506828423589468
1.6679539680480957,0.010490577667951584,0.03490501269698143,-0.024605173617601395,-0.004005493130534887,0.0013351644156500697,-0.01506828423589468
1.6880533695220947,0.010490577667951584,0.034142062067985535,-0.024223696440458298,-0.004005493130534887,0.0013351644156500697,-0.01506828423589468
1.7081060409545898,0.010872052982449532,0.03337911143898964,-0.024223696440458298,-0.004005493130534887,0.0013351644156500697,-0.015449759550392628
1.7282776832580566,0.010872052982449532,0.032616160809993744,-0.02384222112596035,-0.004005493130534887,0.0013351644156500697,-0.015449759550392628
1.7483041286468506,0.01125352829694748,0.03185320645570755,-0.023079270496964455,-0.004386968910694122,0.0013351644156500697,-0.01583123579621315
1.7683792114257812,0.01125352829694748,0.03185320645570755,-0.023079270496964455,-0.004386968910694122,0.0013351644156500697,-0.01583123579621315
1.7884490489959717,0.01125352829694748,0.031090257689356804,-0.02231631986796856,-0.004386968910694122,0.0013351644156500697,-0.016212711110711098
1.8085463047027588,0.01201647985726595,0.02994582988321781,-0.02231631986796856,-0.004386968910694122,0.0013351644156500697,-0.016212711110711098
1.828634262084961,0.01201647985726595,0.02994582988321781,-0.02231631986796856,-0.004386968910694122,0.0013351644156500697,-0.016594186425209045
1.8487119674682617,0.012397955171763897,0.02880140393972397,-0.02231631986796856,-0.004386968910694122,0.0013351644156500697,-0.016975661739706993
1.8687849044799805,0.01201647985726595,0.027656977996230125,-0.02193484455347061,-0.00476844422519207,0.001716639962978661,-0.018120087683200836
1.8888790607452393,0.012397955171763897,0.02689402550458908,-0.021171892061829567,-0.00476844422519207,0.001716639962978661,-0.018120087683200836
1.9089415073394775,0.012397955171763897,0.026131074875593185,-0.02079041674733162,-0.00476844422519207,0.001716639962978661,-0.018501564860343933
1.9290335178375244,0.012779430486261845,0.025749599561095238,-0.02040894143283367,-0.00476844422519207,0.001716639962978661,-0.018501564860343933
1.9490742683410645,0.013160906732082367,0.024986648932099342,-0.02040894143283367,-0.00476844422519207,0.001716639962978661,-0.01888304017484188
1.969162940979004,0.013160906732082367,0.024605173617601395,-0.02040894143283367,-0.00476844422519207,0.001716639962978661,-0.01888304017484188
1.989234447479248,0.013160906732082367,0.02384222112596035,-0.020027466118335724,-0.005149920005351305,0.001716639962978661,-0.01926451548933983
2.009298086166382,0.013923857361078262,0.023079270496964455,-0.020027466118335724,-0.005149920005351305,0.001716639962978661,-0.019645990803837776
2.0293893814086914,0.01430533267557621,0.022697795182466507,-0.01926451548933983,-0.005149920005351305,0.001716639962978661,-0.020027466118335724
2.0494630336761475,0.01430533267557621,0.021553369238972664,-0.01888304017484188,-0.005531395319849253,0.0020981156267225742,-0.02079041674733162
2.069566249847412,0.01430533267557621,0.021171892061829567,-0.018501564860343933,-0.005531395319849253,0.0020981156267225742,-0.02193484455347061
2.0897107124328613,0.01430533267557621,0.02040894143283367,-0.018120087683200836,-0.005912871100008488,0.0024795911740511656,-0.02231631986796856
2.1097638607025146,0.01430533267557621,0.019645990803837776,-0.018120087683200836,-0.005912871100008488,0.0024795911740511656,-0.02231631986796856
2.12978196144104,0.01430533267557621,0.019645990803837776,-0.018120087683200836,-0.006294346414506435,0.0024795911740511656,-0.022697795182466507
2.149873733520508,0.01430533267557621,0.018501564860343933,-0.01773861236870289,-0.00667582219466567,0.0024795911740511656,-0.022697795182466507
2.1699435710906982,0.01430533267557621,0.01773861236870289,-0.016975661739706993,-0.007057297509163618,0.0024795911740511656,-0.022697795182466507
2.190218210220337,0.014686808921396732,0.016975661739706993,-0.016975661739706993,-0.007057297509163618,0.0024795911740511656,-0.022697795182466507
2.210310459136963,0.01506828423589468,0.016212711110711098,-0.016594186425209045,-0.007057297509163618,0.0024795911740511656,-0.022697795182466507
2.2303857803344727,0.01506828423589468,0.01583123579621315,-0.016212711110711098,-0.007438773289322853,0.0024795911740511656,-0.023079270496964455
2.2504451274871826,0.01506828423589468,0.014686808921396732,-0.016212711110711098,-0.007438773289322853,0.002861066721379757,-0.023079270496964455
2.2705562114715576,0.01506828423589468,0.013923857361078262,-0.015449759550392628,-0.007438773289322853,0.002861066721379757,-0.023079270496964455
2.2906036376953125,0.01506828423589468,0.013542382046580315,-0.01506828423589468,-0.007438773289322853,0.002861066721379757,-0.023460745811462402
2.3107175827026367,0.01506828423589468,0.013160906732082367,-0.014686808921396732,-0.007438773289322853,0.0032425422687083483,-0.023460745811462402
2.330780267715454,0.015449759550392628,0.012397955171763897,-0.013923857361078262,-0.0078202486038208,0.002861066721379757,-0.02384222112596035
2.3516297340393066,0.016212711110711098,0.01125352829694748,-0.013923857361078262,-0.0078202486038208,0.002861066721379757,-0.02384222112596035
2.371699810028076,0.016594186425209045,0.010490577667951584,-0.013542382046580315,-0.0078202486038208,0.002861066721379757,-0.024605173617601395
2.3917970657348633,0.016594186425209045,0.010109102353453636,-0.013160906732082367,-0.0078202486038208,0.0032425422687083483,-0.02536812424659729
2.4126105308532715,0.016594186425209045,0.008964675478637218,-0.012779430486261845,-0.0078202486038208,0.0032425422687083483,-0.025749599561095238
2.4327054023742676,0.016975661739706993,0.008201723918318748,-0.01201647985726595,-0.0078202486038208,0.0032425422687083483,-0.025749599561095238
2.4527785778045654,0.01735713705420494,0.0078202486038208,-0.01201647985726595,-0.0078202486038208,0.0036240178160369396,-0.026131074875593185
2.4731695652008057,0.01735713705420494,0.007057297509163618,-0.01201647985726595,-0.008201723918318748,0.0036240178160369396,-0.026131074875593185
2.49330472946167,0.01735713705420494,0.005912871100008488,-0.011635004542768002,-0.008201723918318748,0.0036240178160369396,-0.026131074875593185
2.513331413269043,0.01735713705420494,0.005912871100008488,-0.011635004542768002,-0.0078202486038208,0.0036240178160369396,-0.026512550190091133
2.5334928035736084,0.01735713705420494,0.005149920005351305,-0.011635004542768002,-0.008201723918318748,0.0036240178160369396,-0.026512550190091133
2.5535035133361816,0.01735713705420494,0.004005493130534887,-0.010872052982449532,-0.008201723918318748,0.0036240178160369396,-0.026512550190091133
2.5735795497894287,0.01773861236870289,0.0032425422687083483,-0.010109102353453636,-0.008201723918318748,0.0036240178160369396,-0.02689402550458908
2.593635082244873,0.01773861236870289,0.002861066721379757,-0.009727626107633114,-0.008201723918318748,0.0036240178160369396,-0.02689402550458908
2.6137242317199707,0.01888304017484188,0.0020981156267225742,-0.009727626107633114,-0.008201723918318748,0.0036240178160369396,-0.02727550081908703
2.6337969303131104,0.01926451548933983,0.0009536888683214784,-0.009727626107633114,-0.008201723918318748,0.0036240178160369396,-0.027656977996230125
2.653870105743408,0.01926451548933983,0.000572213320992887,-0.009727626107633114,-0.008201723918318748,0.004005493130534887,-0.028038453310728073
2.6739542484283447,0.01926451548933983,-0.00019073777366429567,-0.009727626107633114,-0.00858320016413927,0.004005493130534887,-0.02841992862522602
2.6940126419067383,0.01926451548933983,-0.0009536888683214784,-0.00858320016413927,-0.00858320016413927,0.004005493130534887,-0.029564354568719864
2.714092969894409,0.01926451548933983,-0.0013351644156500697,-0.00858320016413927,-0.00858320016413927,0.004005493130534887,-0.02994582988321781
2.7341883182525635,0.01926451548933983,-0.0024795911740511656,-0.0078202486038208,-0.00858320016413927,0.004005493130534887,-0.02994582988321781
2.7542481422424316,0.01926451548933983,-0.0036240178160369396,-0.0078202486038208,-0.00858320016413927,0.004005493130534887,-0.03032730519771576
2.774308681488037,0.01926451548933983,-0.004005493130534887,-0.007438773289322853,-0.00858320016413927,0.004005493130534887,-0.03032730519771576
2.794398069381714,0.019645990803837776,-0.004386968910694122,-0.007438773289322853,-0.00858320016413927,0.004005493130534887,-0.03032730519771576
2.814470052719116,0.019645990803837776,-0.005531395319849253,-0.007057297509163618,-0.008964675478637218,0.004005493130534887,-0.03032730519771576
2.8345398902893066,0.019645990803837776,-0.006294346414506435,-0.00667582219466567,-0.008964675478637218,0.004005493130534887,-0.03032730519771576
2.8547353744506836,0.02040894143283367,-0.007057297509163618,-0.006294346414506435,-0.008964675478637218,0.004386968910694122,-0.03032730519771576
2.8748183250427246,0.021553369238972664,-0.0078202486038208,-0.005912871100008488,-0.008964675478637218,0.004005493130534887,-0.030708782374858856
2.894928216934204,0.021171892061829567,-0.00858320016413927,-0.005912871100008488,-0.009346150793135166,0.004386968910694122,-0.030708782374858856
2.915131092071533,0.021171892061829567,-0.009727626107633114,-0.005531395319849253,-0.009346150793135166,0.004386968910694122,-0.031090257689356804
2.9352192878723145,0.021171892061829567,-0.010490577667951584,-0.005531395319849253,-0.009727626107633114,0.00476844422519207,-0.031090257689356804
2.955275774002075,0.021553369238972664,-0.010872052982449532,-0.00476844422519207,-0.009727626107633114,0.00476844422519207,-0.03147173300385475
2.9755797386169434,0.021171892061829567,-0.011635004542768002,-0.004386968910694122,-0.010109102353453636,0.00476844422519207,-0.03185320645570755
2.9956655502319336,0.021171892061829567,-0.01201647985726595,-0.004386968910694122,-0.010490577667951584,0.00476844422519207,-0.03223468363285065
3.015735149383545,0.021553369238972664,-0.012397955171763897,-0.004005493130534887,-0.010872052982449532,0.00476844422519207,-0.032616160809993744
3.0358223915100098,0.021553369238972664,-0.013160906732082367,-0.0036240178160369396,-0.010872052982449532,0.00476844422519207,-0.03299763426184654
3.055903434753418,0.021553369238972664,-0.01430533267557621,-0.0032425422687083483,-0.010872052982449532,0.00476844422519207,-0.03299763426184654
3.075984477996826,0.021553369238972664,-0.01506828423589468,-0.0032425422687083483,-0.01125352829694748,0.00476844422519207,-0.03337911143898964
3.09603214263916,0.02193484455347061,-0.01583123579621315,-0.0024795911740511656,-0.01125352829694748,0.00476844422519207,-0.03337911143898964
3.116121530532837,0.02231631986796856,-0.016975661739706993,-0.0020981156267225742,-0.01125352829694748,0.00476844422519207,-0.03337911143898964
3.1361889839172363,0.022697795182466507,-0.01735713705420494,-0.001716639962978661,-0.01125352829694748,0.00476844422519207,-0.03376058489084244
3.15625,0.022697795182466507,-0.01773861236870289,-0.0013351644156500697,-0.01125352829694748,0.00476844422519207,-0.03376058489084244
3.176332950592041,0.022697795182466507,-0.018501564860343933,-0.0013351644156500697,-0.01125352829694748,0.005149920005351305,-0.03376058489084244
3.1964056491851807,0.023079270496964455,-0.01926451548933983,-0.0009536888683214784,-0.01125352829694748,0.005149920005351305,-0.03376058489084244
3.216479539871216,0.023460745811462402,-0.020027466118335724,-0.000572213320992887,-0.011635004542768002,0.005149920005351305,-0.034142062067985535
3.2373454570770264,0.023460745811462402,-0.021171892061829567,-0.00019073777366429567,-0.011635004542768002,0.005149920005351305,-0.034142062067985535
3.257436513900757,0.023460745811462402,-0.02193484455347061,0.000572213320992887,-0.011635004542768002,0.005531395319849253,-0.034142062067985535
3.2775423526763916,0.023460745811462402,-0.02231631986796856,0.000572213320992887,-0.011635004542768002,0.005531395319849253,-0.034142062067985535
3.29768705368042,0.023460745811462402,-0.023079270496964455,0.000572213320992887,-0.011635004542768002,0.005531395319849253,-0.03452353551983833
3.3177735805511475,0.02384222112596035,-0.023460745811462402,0.0009536888683214784,-0.011635004542768002,0.005531395319849253,-0.03452353551983833
3.337864875793457,0.02384222112596035,-0.024223696440458298,0.0013351644156500697,-0.011635004542768002,0.005531395319849253,-0.03490501269698143
3.357913017272949,0.024605173617601395,-0.024605173617601395,0.0020981156267225742,-0.011635004542768002,0.005531395319849253,-0.03528648987412453
3.378002882003784,0.024605173617601395,-0.02536812424659729,0.0024795911740511656,-0.011635004542768002,0.005531395319849253,-0.03528648987412453
3.3980681896209717,0.024605173617601395,-0.026512550190091133,0.002861066721379757,-0.01201647985726595,0.005531395319849253,-0.035667963325977325
3.4181394577026367,0.024605173617601395,-0.02689402550458908,0.002861066721379757,-0.01201647985726595,0.006294346414506435,-0.03604944050312042
3.4382505416870117,0.024605173617601395,-0.02841992862522602,0.0032425422687083483,-0.01201647985726595,0.00667582219466567,-0.03604944050312042
3.458314895629883,0.024986648932099342,-0.029182879254221916,0.0036240178160369396,-0.01201647985726595,0.007057297509163618,-0.03681239113211632
3.478389263153076,0.02536812424659729,-0.029564354568719864,0.004005493130534887,-0.01201647985726595,0.007438773289322853,-0.037193864583969116
3.4984655380249023,0.025749599561095238,-0.030708782374858856,0.004386968910694122,-0.01201647985726595,0.007438773289322853,-0.03757534176111221
3.5185391902923584,0.025749599561095238,-0.031090257689356804,0.00476844422519207,-0.01201647985726595,0.0078202486038208,-0.03757534176111221
3.538601875305176,0.025749599561095238,-0.03147173300385475,0.00476844422519207,-0.012397955171763897,0.0078202486038208,-0.03795681521296501
3.558664560317993,0.026131074875593185,-0.03223468363285065,0.00476844422519207,-0.012397955171763897,0.008201723918318748,-0.03795681521296501
3.578795909881592,0.026512550190091133,-0.03337911143898964,0.005149920005351305,-0.012397955171763897,0.0078202486038208,-0.03795681521296501
3.598845958709717,0.026512550190091133,-0.03376058489084244,0.005149920005351305,-0.012397955171763897,0.0078202486038208,-0.03833829239010811
3.6190762519836426,0.026512550190091133,-0.03452353551983833,0.005912871100008488,-0.012779430486261845,0.0078202486038208,-0.03833829239010811
3.6391892433166504,0.02689402550458908,-0.035667963325977325,0.007057297509163618,-0.012779430486261845,0.0078202486038208,-0.038719769567251205
3.6592464447021484,0.02689402550458908,-0.03604944050312042,0.007057297509163618,-0.012779430486261845,0.008201723918318748,-0.038719769567251205
3.679929494857788,0.02689402550458908,-0.03681239113211632,0.007057297509163618,-0.013160906732082367,0.008201723918318748,-0.039101243019104004
3.70002818107605,0.02727550081908703,-0.03795681521296501,0.007057297509163618,-0.013923857361078262,0.0078202486038208,-0.0394827201962471
3.720099449157715,0.027656977996230125,-0.03833829239010811,0.007057297509163618,-0.014686808921396732,0.0078202486038208,-0.0398641936480999
3.740144968032837,0.028038453310728073,-0.039101243019104004,0.0078202486038208,-0.01506828423589468,0.008201723918318748,-0.040627144277095795
3.7602343559265137,0.02880140393972397,-0.0398641936480999,0.008201723918318748,-0.01506828423589468,0.008201723918318748,-0.04100862145423889
3.7802915573120117,0.02880140393972397,-0.04100862145423889,0.008964675478637218,-0.015449759550392628,0.008201723918318748,-0.04100862145423889
3.8003690242767334,0.02880140393972397,-0.04100862145423889,0.008964675478637218,-0.015449759550392628,0.008201723918318748,-0.04100862145423889
3.8204562664031982,0.02880140393972397,-0.04253452271223068,0.008964675478637218,-0.015449759550392628,0.00858320016413927,-0.04139009863138199
3.8405444622039795,0.02880140393972397,-0.04329747334122658,0.009346150793135166,-0.015449759550392628,0.00858320016413927,-0.04139009863138199
3.8606107234954834,0.02880140393972397,-0.04406042397022247,0.009727626107633114,-0.015449759550392628,0.008201723918318748,-0.04139009863138199
3.880723476409912,0.02880140393972397,-0.045204851776361465,0.010109102353453636,-0.015449759550392628,0.008201723918318748,-0.04177157208323479
3.900789499282837,0.02880140393972397,-0.04596780240535736,0.010490577667951584,-0.015449759550392628,0.00858320016413927,-0.04177157208323479
3.920855760574341,0.029182879254221916,-0.04634927958250046,0.010872052982449532,-0.015449759550392628,0.008201723918318748,-0.04177157208323479
3.940948247909546,0.029564354568719864,-0.04711223021149635,0.010872052982449532,-0.015449759550392628,0.00858320016413927,-0.042153049260377884
3.9610188007354736,0.029564354568719864,-0.048256658017635345,0.01125352829694748,-0.015449759550392628,0.00858320016413927,-0.042153049260377884
3.9810900688171387,0.029564354568719864,-0.048256658017635345,0.01125352829694748,-0.015449759550392628,0.00858320016413927,-0.04253452271223068
4.001174449920654,0.029564354568719864,-0.04901960864663124,0.011635004542768002,-0.015449759550392628,0.00858320016413927,-0.04291599988937378
4.0212578773498535,0.02994582988321781,-0.049782559275627136,0.012397955171763897,-0.01583123579621315,0.00858320016413927,-0.04329747334122658
4.041306495666504,0.02994582988321781,-0.050164032727479935,0.012397955171763897,-0.01583123579621315,0.00858320016413927,-0.043678950518369675
4.061400890350342,0.02994582988321781,-0.05092698708176613,0.012779430486261845,-0.01583123579621315,0.00858320016413927,-0.04444190114736557
4.08146333694458,0.030708782374858856,-0.051689937710762024,0.013160906732082367,-0.01583123579621315,0.00858320016413927,-0.04482337832450867
4.1015098094940186,0.031090257689356804,-0.05245288833975792,0.013160906732082367,-0.01583123579621315,0.008201723918318748,-0.045204851776361465
4.1215996742248535,0.031090257689356804,-0.053215838968753815,0.013542382046580315,-0.01583123579621315,0.00858320016413927,-0.045204851776361465
4.141665935516357,0.03147173300385475,-0.05397878959774971,0.01430533267557621,-0.016212711110711098,0.00858320016413927,-0.045204851776361465
4.161734342575073,0.03147173300385475,-0.05436026677489281,0.01430533267557621,-0.016212711110711098,0.00858320016413927,-0.04558632895350456
4.1818201541900635,0.03185320645570755,-0.0551232174038887,0.014686808921396732,-0.016212711110711098,0.00858320016413927,-0.04558632895350456
4.201907634735107,0.03185320645570755,-0.0555046908557415,0.01506828423589468,-0.016212711110711098,0.00858320016413927,-0.04596780240535736
4.22196364402771,0.03185320645570755,-0.0558861680328846,0.01506828423589468,-0.016212711110711098,0.00858320016413927,-0.04596780240535736
4.242037057876587,0.03185320645570755,-0.05664911866188049,0.015449759550392628,-0.016212711110711098,0.00858320016413927,-0.04634927958250046
4.262162685394287,0.03185320645570755,-0.057793546468019485,0.015449759550392628,-0.016212711110711098,0.00858320016413927,-0.04749370738863945
4.2822301387786865,0.03185320645570755,-0.05855649709701538,0.016212711110711098,-0.016594186425209045,0.00858320016413927,-0.048638131469488144
4.302276611328125,0.03185320645570755,-0.05893797054886818,0.016594186425209045,-0.016594186425209045,0.00858320016413927,-0.048638131469488144
4.322365045547485,0.03223468363285065,-0.06046387553215027,0.016975661739706993,-0.016594186425209045,0.008964675478637218,-0.048638131469488144
4.342433452606201,0.03223468363285065,-0.06084534898400307,0.01735713705420494,-0.016594186425209045,0.008964675478637218,-0.048638131469488144
4.362521171569824,0.03299763426184654,-0.06160829961299896,0.01735713705420494,-0.016975661739706993,0.00858320016413927,-0.04901960864663124
4.382598876953125,0.03376058489084244,-0.06198977679014206,0.01773861236870289,-0.016975661739706993,0.00858320016413927,-0.04901960864663124
4.402726173400879,0.03376058489084244,-0.06275273114442825,0.018501564860343933,-0.01735713705420494,0.00858320016413927,-0.04901960864663124
4.42279052734375,0.03376058489084244,-0.06351567804813385,0.01888304017484188,-0.01735713705420494,0.008964675478637218,-0.04901960864663124
4.442830562591553,0.03376058489084244,-0.06427863240242004,0.01926451548933983,-0.01773861236870289,0.008964675478637218,-0.04940108209848404
4.46289587020874,0.03376058489084244,-0.06466010212898254,0.01926451548933983,-0.018120087683200836,0.009346150793135166,-0.04940108209848404
4.482976198196411,0.03376058489084244,-0.06542305648326874,0.019645990803837776,-0.018501564860343933,0.009346150793135166,-0.049782559275627136
4.503028631210327,0.034142062067985535,-0.06580453366041183,0.019645990803837776,-0.018501564860343933,0.008964675478637218,-0.049782559275627136
4.523118019104004,0.034142062067985535,-0.06694895774126053,0.019645990803837776,-0.018501564860343933,0.008964675478637218,-0.049782559275627136
4.543212890625,0.034142062067985535,-0.06733043491840363,0.020027466118335724,-0.018501564860343933,0.008964675478637218,-0.050164032727479935
4.563260555267334,0.034142062067985535,-0.06809338182210922,0.02079041674733162,-0.018501564860343933,0.008964675478637218,-0.05054550990462303
4.583375692367554,0.03452353551983833,-0.06885633617639542,0.021171892061829567,-0.01888304017484188,0.009346150793135166,-0.05092698708176613
4.603447675704956,0.03604944050312042,-0.06961929053068161,0.021553369238972664,-0.01888304017484188,0.008964675478637218,-0.05130846053361893
4.6235105991363525,0.03604944050312042,-0.07000076025724411,0.021553369238972664,-0.01888304017484188,0.008964675478637218,-0.05207141116261482
4.6435911655426025,0.03604944050312042,-0.0711451917886734,0.021553369238972664,-0.01888304017484188,0.009346150793135166,-0.05245288833975792
4.663670301437378,0.03604944050312042,-0.071908138692379,0.02231631986796856,-0.01888304017484188,0.010109102353453636,-0.05245288833975792
4.6837241649627686,0.03604944050312042,-0.07305257022380829,0.022697795182466507,-0.01888304017484188,0.010490577667951584,-0.05283436179161072
4.703858137130737,0.03604944050312042,-0.07343403995037079,0.023079270496964455,-0.01888304017484188,0.010490577667951584,-0.05245288833975792
4.723977565765381,0.03604944050312042,-0.07419699430465698,0.023460745811462402,-0.01888304017484188,0.010109102353453636,-0.05283436179161072
4.744033098220825,0.03604944050312042,-0.07495994865894318,0.023460745811462402,-0.01888304017484188,0.010109102353453636,-0.05283436179161072
4.764184951782227,0.03604944050312042,-0.07648584991693497,0.02384222112596035,-0.01888304017484188,0.010109102353453636,-0.053215838968753815
4.784291744232178,0.03643091395497322,-0.07724879682064056,0.024223696440458298,-0.01888304017484188,0.010109102353453636,-0.053215838968753815
4.804356098175049,0.03643091395497322,-0.07763027399778366,0.024605173617601395,-0.01926451548933983,0.010490577667951584,-0.05359731614589691
4.824530601501465,0.03681239113211632,-0.07877469807863235,0.024986648932099342,-0.01926451548933983,0.010109102353453636,-0.05359731614589691
4.844644784927368,0.037193864583969116,-0.07991912961006165,0.02536812424659729,-0.01926451548933983,0.010490577667951584,-0.05397878959774971
4.864701747894287,0.037193864583969116,-0.08068207651376724,0.02536812424659729,-0.01926451548933983,0.010490577667951584,-0.0551232174038887
4.884753704071045,0.03757534176111221,-0.08144503086805344,0.02536812424659729,-0.01926451548933983,0.010490577667951584,-0.056267641484737396
4.904852628707886,0.03795681521296501,-0.08220797777175903,0.025749599561095238,-0.01926451548933983,0.010490577667951584,-0.056267641484737396
4.924999237060547,0.03795681521296501,-0.08258945494890213,0.026512550190091133,-0.01926451548933983,0.010490577667951584,-0.05664911866188049
4.9450461864471436,0.03795681521296501,-0.08335240930318832,0.02689402550458908,-0.01926451548933983,0.010490577667951584,-0.05664911866188049
4.965211391448975,0.03833829239010811,-0.08449683338403702,0.02727550081908703,-0.019645990803837776,0.010872052982449532,-0.05664911866188049
4.985270023345947,0.03833829239010811,-0.08487831056118011,0.027656977996230125,-0.019645990803837776,0.010872052982449532,-0.05664911866188049
5.00538444519043,0.03833829239010811,-0.08564125746488571,0.027656977996230125,-0.019645990803837776,0.010872052982449532,-0.05703059583902359
5.025464773178101,0.038719769567251205,-0.0864042118191719,0.028038453310728073,-0.019645990803837776,0.010872052982449532,-0.05703059583902359
5.045534372329712,0.039101243019104004,-0.0875486359000206,0.02841992862522602,-0.019645990803837776,0.010872052982449532,-0.05741206929087639
5.065600872039795,0.039101243019104004,-0.0879301130771637,0.02880140393972397,-0.019645990803837776,0.010872052982449532,-0.057793546468019485
5.085680723190308,0.039101243019104004,-0.08869306743144989,0.029564354568719864,-0.019645990803837776,0.01125352829694748,-0.057793546468019485
5.1057515144348145,0.0394827201962471,-0.08945601433515549,0.02994582988321781,-0.019645990803837776,0.01125352829694748,-0.058175019919872284
5.12582802772522,0.0394827201962471,-0.09021896868944168,0.02994582988321781,-0.020027466118335724,0.01125352829694748,-0.059319447726011276
5.14606499671936,0.040245670825242996,-0.09098191559314728,0.03032730519771576,-0.020027466118335724,0.01125352829694748,-0.05970092490315437
5.167042255401611,0.040245670825242996,-0.09212634712457657,0.030708782374858856,-0.020027466118335724,0.01125352829694748,-0.05970092490315437
5.1871654987335205,0.040245670825242996,-0.09250781685113907,0.031090257689356804,-0.020027466118335724,0.01125352829694748,-0.05970092490315437
5.207296371459961,0.040245670825242996,-0.09327077120542526,0.03147173300385475,-0.020027466118335724,0.01125352829694748,-0.06008239835500717
5.227395534515381,0.040627144277095795,-0.09403372555971146,0.03185320645570755,-0.020027466118335724,0.01125352829694748,-0.06008239835500717
5.2475011348724365,0.04139009863138199,-0.09479667246341705,0.03223468363285065,-0.02040894143283367,0.01125352829694748,-0.06008239835500717
5.2676239013671875,0.04139009863138199,-0.09517814964056015,0.03223468363285065,-0.02040894143283367,0.01125352829694748,-0.06008239835500717
5.287741184234619,0.04139009863138199,-0.09632257372140884,0.032616160809993744,-0.02040894143283367,0.011635004542768002,-0.06046387553215027
5.307794094085693,0.04139009863138199,-0.09784847497940063,0.03299763426184654,-0.02079041674733162,0.011635004542768002,-0.06046387553215027
5.327867269515991,0.04139009863138199,-0.09899290651082993,0.03376058489084244,-0.02079041674733162,0.011635004542768002,-0.06046387553215027
5.347929000854492,0.04177157208323479,-0.09937438368797302,0.034142062067985535,-0.021553369238972664,0.011635004542768002,-0.06084534898400307
5.368061542510986,0.042153049260377884,-0.09899290651082993,0.034142062067985535,-0.021553369238972664,0.011635004542768002,-0.06084534898400307
5.388124465942383,0.04253452271223068,-0.09975585341453552,0.03452353551983833,-0.02193484455347061,0.011635004542768002,-0.06084534898400307
5.408193349838257,0.04253452271223068,-0.10090028494596481,0.03490501269698143,-0.02231631986796856,0.011635004542768002,-0.061226826161146164
5.428252696990967,0.04329747334122658,-0.10204470902681351,0.035667963325977325,-0.02231631986796856,0.011635004542768002,-0.06160829961299896
5.448380947113037,0.04329747334122658,-0.1031891331076622,0.03604944050312042,-0.022697795182466507,0.01201647985726595,-0.06160829961299896
5.468428134918213,0.04329747334122658,-0.1035706102848053,0.03604944050312042,-0.022697795182466507,0.01201647985726595,-0.06237125024199486
5.488483905792236,0.04329747334122658,-0.1039520874619484,0.03604944050312042,-0.022697795182466507,0.01201647985726595,-0.06275273114442825
5.508564472198486,0.04329747334122658,-0.10433356463909149,0.03643091395497322,-0.022697795182466507,0.01201647985726595,-0.06313420087099075
5.528642416000366,0.043678950518369675,-0.10547798871994019,0.037193864583969116,-0.022697795182466507,0.011635004542768002,-0.06351567804813385
5.548718452453613,0.043678950518369675,-0.10624094307422638,0.03757534176111221,-0.022697795182466507,0.011635004542768002,-0.06351567804813385
5.5688090324401855,0.043678950518369675,-0.10738536715507507,0.03795681521296501,-0.023079270496964455,0.01201647985726595,-0.06389715522527695
5.5888776779174805,0.04406042397022247,-0.10852979123592377,0.03795681521296501,-0.023079270496964455,0.01201647985726595,-0.06427863240242004
5.608927249908447,0.04444190114736557,-0.10891126841306686,0.03795681521296501,-0.023079270496964455,0.01201647985726595,-0.06427863240242004
5.6290223598480225,0.04444190114736557,-0.10967422276735306,0.038719769567251205,-0.023079270496964455,0.01201647985726595,-0.06466010212898254
5.649084568023682,0.04444190114736557,-0.11120012402534485,0.039101243019104004,-0.023079270496964455,0.01201647985726595,-0.06466010212898254
5.669143915176392,0.04482337832450867,-0.11158160120248795,0.0394827201962471,-0.023079270496964455,0.01201647985726595,-0.06504157930612564
5.689240217208862,0.045204851776361465,-0.11234454810619354,0.0398641936480999,-0.023460745811462402,0.011635004542768002,-0.06504157930612564
5.70931339263916,0.04558632895350456,-0.11348897218704224,0.040245670825242996,-0.023460745811462402,0.01201647985726595,-0.06542305648326874
5.72939395904541,0.04558632895350456,-0.11387044936418533,0.040245670825242996,-0.023460745811462402,0.01201647985726595,-0.06618601083755493
5.749488592147827,0.04596780240535736,-0.11463340371847153,0.040245670825242996,-0.023460745811462402,0.01201647985726595,-0.06733043491840363
5.769574880599976,0.04596780240535736,-0.11577782779932022,0.04100862145423889,-0.023460745811462402,0.01201647985726595,-0.06694895774126053
5.789638042449951,0.04634927958250046,-0.11730372905731201,0.04139009863138199,-0.02384222112596035,0.012397955171763897,-0.06733043491840363
5.809712648391724,0.04634927958250046,-0.11768520623445511,0.04139009863138199,-0.02384222112596035,0.01201647985726595,-0.06733043491840363
5.82981276512146,0.04634927958250046,-0.1184481605887413,0.04177157208323479,-0.02384222112596035,0.01201647985726595,-0.06771191209554672
5.849873065948486,0.04634927958250046,-0.1192111074924469,0.042153049260377884,-0.02384222112596035,0.01201647985726595,-0.06771191209554672
5.8699798583984375,0.046730753034353256,-0.1199740618467331,0.042153049260377884,-0.02384222112596035,0.01201647985726595,-0.06771191209554672
5.890101671218872,0.046730753034353256,-0.12073700875043869,0.04253452271223068,-0.024223696440458298,0.01201647985726595,-0.06809338182210922
5.91018009185791,0.046730753034353256,-0.12111848592758179,0.04329747334122658,-0.024223696440458298,0.01201647985726595,-0.06809338182210922
5.930272102355957,0.04787518084049225,-0.12264438718557358,0.043678950518369675,-0.024605173617601395,0.01201647985726595,-0.06809338182210922
5.950347900390625,0.048638131469488144,-0.12340734153985977,0.04444190114736557,-0.024986648932099342,0.01201647985726595,-0.06847485899925232
5.970406532287598,0.048638131469488144,-0.12417028844356537,0.04444190114736557,-0.024986648932099342,0.012397955171763897,-0.06847485899925232
5.990502595901489,0.048638131469488144,-0.12493324279785156,0.04444190114736557,-0.02536812424659729,0.012397955171763897,-0.06885633617639542
6.010572910308838,0.048638131469488144,-0.12607766687870026,0.04482337832450867,-0.025749599561095238,0.013160906732082367,-0.06961929053068161
6.030648946762085,0.048638131469488144,-0.12645913660526276,0.045204851776361465,-0.026131074875593185,0.012779430486261845,-0.07038223743438721
6.050731658935547,0.048638131469488144,-0.12798504531383514,0.04596780240535736,-0.026131074875593185,0.012397955171763897,-0.0707637146115303
6.0708229541778564,0.048638131469488144,-0.12836651504039764,0.046730753034353256,-0.026131074875593185,0.012397955171763897,-0.0711451917886734
6.090875864028931,0.04901960864663124,-0.12912946939468384,0.046730753034353256,-0.026131074875593185,0.012397955171763897,-0.0711451917886734
6.110972166061401,0.049782559275627136,-0.12989242374897003,0.04711223021149635,-0.026131074875593185,0.012397955171763897,-0.0715266615152359
6.131033897399902,0.05054550990462303,-0.13141833245754242,0.04749370738863945,-0.026131074875593185,0.012779430486261845,-0.0715266615152359
6.151113986968994,0.05054550990462303,-0.13218127191066742,0.04787518084049225,-0.026512550190091133,0.013160906732082367,-0.071908138692379
6.171264410018921,0.05054550990462303,-0.1337071806192398,0.048256658017635345,-0.026512550190091133,0.013542382046580315,-0.0722896158695221
6.191354513168335,0.05092698708176613,-0.134470134973526,0.048638131469488144,-0.026512550190091133,0.01430533267557621,-0.07267109304666519
6.2114081382751465,0.05092698708176613,-0.135233074426651,0.04901960864663124,-0.026512550190091133,0.01430533267557621,-0.07305257022380829
6.231510400772095,0.05092698708176613,-0.135233074426651,0.04940108209848404,-0.026512550190091133,0.01430533267557621,-0.07419699430465698
6.251586675643921,0.05092698708176613,-0.1359960287809372,0.050164032727479935,-0.026512550190091133,0.01430533267557621,-0.07495994865894318
6.2716710567474365,0.05092698708176613,-0.1363775134086609,0.05054550990462303,-0.026512550190091133,0.01430533267557621,-0.07495994865894318
6.291783571243286,0.05130846053361893,-0.1371404528617859,0.05054550990462303,-0.02689402550458908,0.014686808921396732,-0.07495994865894318
6.311887979507446,0.051689937710762024,-0.13828489184379578,0.05130846053361893,-0.02689402550458908,0.01506828423589468,-0.07495994865894318
6.331942558288574,0.05207141116261482,-0.13866636157035828,0.051689937710762024,-0.02689402550458908,0.015449759550392628,-0.07534141838550568
6.352050065994263,0.05207141116261482,-0.13981078565120697,0.051689937710762024,-0.02689402550458908,0.01583123579621315,-0.07534141838550568
6.3721394538879395,0.05207141116261482,-0.14057374000549316,0.05207141116261482,-0.02689402550458908,0.01583123579621315,-0.07572289556264877
6.392243146896362,0.05245288833975792,-0.14171816408634186,0.05245288833975792,-0.02689402550458908,0.01583123579621315,-0.07572289556264877
6.412279844284058,0.05283436179161072,-0.14248111844062805,0.05283436179161072,-0.02689402550458908,0.01583123579621315,-0.07572289556264877
6.432370901107788,0.05283436179161072,-0.14362554252147675,0.05359731614589691,-0.02689402550458908,0.01583123579621315,-0.07572289556264877
6.452453851699829,0.05283436179161072,-0.14476996660232544,0.05359731614589691,-0.02689402550458908,0.01583123579621315,-0.07610437273979187
6.47252082824707,0.05283436179161072,-0.14553292095661163,0.05397878959774971,-0.02689402550458908,0.01583123579621315,-0.07610437273979187
6.4926276206970215,0.053215838968753815,-0.14629587531089783,0.05397878959774971,-0.02727550081908703,0.01583123579621315,-0.07648584991693497
6.512694597244263,0.05359731614589691,-0.14705882966518402,0.05436026677489281,-0.02727550081908703,0.01583123579621315,-0.07686731964349747
6.5327746868133545,0.05397878959774971,-0.14782176911830902,0.054741740226745605,-0.02727550081908703,0.01583123579621315,-0.07724879682064056
6.552893877029419,0.05397878959774971,-0.14858472347259521,0.0555046908557415,-0.02727550081908703,0.01583123579621315,-0.07763027399778366
6.57298469543457,0.05436026677489281,-0.1497291475534439,0.0558861680328846,-0.02727550081908703,0.01583123579621315,-0.07801175117492676
6.593055009841919,0.05436026677489281,-0.1508735716342926,0.056267641484737396,-0.02727550081908703,0.016212711110711098,-0.07839322835206985
6.6131370067596436,0.0551232174038887,-0.152399480342865,0.05664911866188049,-0.02727550081908703,0.01583123579621315,-0.07839322835206985
6.633215427398682,0.0551232174038887,-0.1527809500694275,0.05664911866188049,-0.027656977996230125,0.01583123579621315,-0.07877469807863235
6.653290033340454,0.0551232174038887,-0.15316243469715118,0.05703059583902359,-0.027656977996230125,0.016212711110711098,-0.07915617525577545
6.6733925342559814,0.0558861680328846,-0.15392538905143738,0.057793546468019485,-0.027656977996230125,0.01583123579621315,-0.07915617525577545
6.693481683731079,0.056267641484737396,-0.15506981313228607,0.058175019919872284,-0.027656977996230125,0.016212711110711098,-0.07915617525577545
6.713564872741699,0.056267641484737396,-0.15583276748657227,0.05855649709701538,-0.028038453310728073,0.016212711110711098,-0.07953765243291855
6.733707904815674,0.056267641484737396,-0.15697719156742096,0.05893797054886818,-0.027656977996230125,0.016975661739706993,-0.07991912961006165
6.753796815872192,0.05664911866188049,-0.15774014592170715,0.05893797054886818,-0.028038453310728073,0.016975661739706993,-0.07991912961006165
6.773863792419434,0.05703059583902359,-0.15812161564826965,0.05893797054886818,-0.028038453310728073,0.016594186425209045,-0.08030059933662415
6.79413628578186,0.05741206929087639,-0.15888457000255585,0.059319447726011276,-0.02841992862522602,0.016975661739706993,-0.08068207651376724
6.814214468002319,0.058175019919872284,-0.16041046380996704,0.06008239835500717,-0.02880140393972397,0.016594186425209045,-0.08182650804519653
6.834294319152832,0.058175019919872284,-0.16117341816425323,0.06046387553215027,-0.02880140393972397,0.01773861236870289,-0.08258945494890213
6.854443073272705,0.058175019919872284,-0.16155488789081573,0.06084534898400307,-0.029182879254221916,0.018501564860343933,-0.08258945494890213
6.8745129108428955,0.058175019919872284,-0.16231784224510193,0.061226826161146164,-0.029564354568719864,0.01888304017484188,-0.08297093212604523
6.8946006298065186,0.058175019919872284,-0.16308079659938812,0.06198977679014206,-0.029564354568719864,0.01926451548933983,-0.08297093212604523
6.914802312850952,0.058175019919872284,-0.164988175034523,0.06237125024199486,-0.02994582988321781,0.01888304017484188,-0.08335240930318832
6.934886932373047,0.058175019919872284,-0.1657511293888092,0.06275273114442825,-0.02994582988321781,0.01888304017484188,-0.08335240930318832
6.954957008361816,0.05855649709701538,-0.1668955534696579,0.06275273114442825,-0.02994582988321781,0.01888304017484188,-0.08335240930318832
6.975610971450806,0.05893797054886818,-0.1684214472770691,0.06313420087099075,-0.02994582988321781,0.01888304017484188,-0.08373387902975082
6.995715379714966,0.059319447726011276,-0.16880293190479279,0.06389715522527695,-0.02994582988321781,0.01888304017484188,-0.08411535620689392
7.015855312347412,0.059319447726011276,-0.16956588625907898,0.06466010212898254,-0.02994582988321781,0.01888304017484188,-0.08487831056118011
7.036156415939331,0.059319447726011276,-0.17109178006649017,0.06504157930612564,-0.03032730519771576,0.01926451548933983,-0.08564125746488571
7.056251287460327,0.06008239835500717,-0.17185473442077637,0.06504157930612564,-0.03032730519771576,0.01926451548933983,-0.08564125746488571
7.076331615447998,0.06046387553215027,-0.17147326469421387,0.06580453366041183,-0.03032730519771576,0.01888304017484188,-0.08602273464202881
7.096385955810547,0.06046387553215027,-0.17223620414733887,0.06618601083755493,-0.03032730519771576,0.01888304017484188,-0.08602273464202881
7.116486310958862,0.06046387553215027,-0.17338064312934875,0.06618601083755493,-0.03032730519771576,0.01926451548933983,-0.08602273464202881
7.136559963226318,0.06084534898400307,-0.17376211285591125,0.06694895774126053,-0.03032730519771576,0.01926451548933983,-0.0864042118191719
7.156617641448975,0.061226826161146164,-0.17414358258247375,0.06694895774126053,-0.03032730519771576,0.01926451548933983,-0.0864042118191719
7.176719427108765,0.061226826161146164,-0.17566949129104614,0.06733043491840363,-0.030708782374858856,0.01926451548933983,-0.0864042118191719
7.196834564208984,0.061226826161146164,-0.17681391537189484,0.06771191209554672,-0.03032730519771576,0.01926451548933983,-0.0864042118191719
7.21688985824585,0.061226826161146164,-0.17681391537189484,0.06809338182210922,-0.030708782374858856,0.01926451548933983,-0.086785688996315
7.237032890319824,0.06160829961299896,-0.17795833945274353,0.06847485899925232,-0.030708782374858856,0.01926451548933983,-0.086785688996315
7.257160902023315,0.06237125024199486,-0.17872129380702972,0.06885633617639542,-0.030708782374858856,0.01888304017484188,-0.086785688996315
7.277182102203369,0.06313420087099075,-0.17948424816131592,0.06885633617639542,-0.030708782374858856,0.01888304017484188,-0.0871671661734581
7.2972753047943115,0.06313420087099075,-0.1806286722421646,0.06923781335353851,-0.030708782374858856,0.01926451548933983,-0.0875486359000206
7.317346572875977,0.06313420087099075,-0.1813916265964508,0.07000076025724411,-0.030708782374858856,0.019645990803837776,-0.0875486359000206
7.337417125701904,0.06313420087099075,-0.1813916265964508,0.07038223743438721,-0.031090257689356804,0.019645990803837776,-0.0879301130771637
7.357511520385742,0.06313420087099075,-0.1832990050315857,0.07038223743438721,-0.031090257689356804,0.019645990803837776,-0.0883115902543068
7.377587556838989,0.06351567804813385,-0.1836804747581482,0.0707637146115303,-0.031090257689356804,0.019645990803837776,-0.08945601433515549
7.397664308547974,0.06351567804813385,-0.1840619444847107,0.0711451917886734,-0.031090257689356804,0.01926451548933983,-0.08983749151229858
7.418738603591919,0.06351567804813385,-0.18520638346672058,0.0715266615152359,-0.031090257689356804,0.01926451548933983,-0.09021896868944168
7.438824892044067,0.06466010212898254,-0.18635080754756927,0.0722896158695221,-0.031090257689356804,0.01926451548933983,-0.09021896868944168
7.458898544311523,0.06542305648326874,-0.18635080754756927,0.07267109304666519,-0.03147173300385475,0.01926451548933983,-0.09060044586658478
7.479245662689209,0.06542305648326874,-0.18787670135498047,0.07267109304666519,-0.03147173300385475,0.020027466118335724,-0.09060044586658478
7.499343395233154,0.06542305648326874,-0.18863965570926666,0.07343403995037079,-0.03147173300385475,0.020027466118335724,-0.09098191559314728
7.519443988800049,0.06542305648326874,-0.18940261006355286,0.07343403995037079,-0.03147173300385475,0.02040894143283367,-0.09136339277029037
7.539472818374634,0.06542305648326874,-0.19054703414440155,0.07381551712751389,-0.03147173300385475,0.020027466118335724,-0.09174486994743347
7.5595574378967285,0.06542305648326874,-0.19092851877212524,0.07457847148180008,-0.03147173300385475,0.019645990803837776,-0.09212634712457657
7.57964015007019,0.06542305648326874,-0.19207294285297394,0.07495994865894318,-0.03185320645570755,0.019645990803837776,-0.09250781685113907
7.599692106246948,0.06580453366041183,-0.19321736693382263,0.07534141838550568,-0.03185320645570755,0.019645990803837776,-0.09327077120542526
7.6197662353515625,0.06618601083755493,-0.19359883666038513,0.07534141838550568,-0.03185320645570755,0.019645990803837776,-0.09327077120542526
7.639844179153442,0.06694895774126053,-0.19398032128810883,0.07572289556264877,-0.03223468363285065,0.020027466118335724,-0.09365224838256836
7.659924507141113,0.06694895774126053,-0.19398032128810883,0.07572289556264877,-0.03223468363285065,0.020027466118335724,-0.09365224838256836
7.680218458175659,0.06733043491840363,-0.19474326074123383,0.07648584991693497,-0.03299763426184654,0.020027466118335724,-0.09365224838256836
7.700335264205933,0.06733043491840363,-0.1958876997232437,0.07724879682064056,-0.03337911143898964,0.020027466118335724,-0.09403372555971146
7.720398187637329,0.06771191209554672,-0.1970321238040924,0.07763027399778366,-0.03376058489084244,0.020027466118335724,-0.09403372555971146
7.740574359893799,0.06771191209554672,-0.1985580176115036,0.07763027399778366,-0.03376058489084244,0.020027466118335724,-0.09403372555971146
7.76066255569458,0.06809338182210922,-0.1993209719657898,0.07801175117492676,-0.03376058489084244,0.019645990803837776,-0.09441519528627396
7.780736207962036,0.06847485899925232,-0.200083926320076,0.07839322835206985,-0.03376058489084244,0.019645990803837776,-0.09479667246341705
7.800926208496094,0.06847485899925232,-0.20084688067436218,0.07877469807863235,-0.034142062067985535,0.020027466118335724,-0.09479667246341705
7.821016550064087,0.06847485899925232,-0.20122835040092468,0.07953765243291855,-0.034142062067985535,0.02040894143283367,-0.09517814964056015
7.841092824935913,0.06885633617639542,-0.20122835040092468,0.07991912961006165,-0.034142062067985535,0.02040894143283367,-0.09555962681770325
7.86126184463501,0.06885633617639542,-0.20313572883605957,0.07991912961006165,-0.034142062067985535,0.02040894143283367,-0.09632257372140884
7.881351947784424,0.06961929053068161,-0.20351719856262207,0.08068207651376724,-0.034142062067985535,0.020027466118335724,-0.09670405089855194
7.901442527770996,0.06961929053068161,-0.20428015291690826,0.08106355369091034,-0.034142062067985535,0.020027466118335724,-0.09708552807569504
7.921493053436279,0.06961929053068161,-0.20504310727119446,0.08144503086805344,-0.034142062067985535,0.02040894143283367,-0.09746700525283813
7.941588878631592,0.07000076025724411,-0.20618753135204315,0.08182650804519653,-0.034142062067985535,0.02040894143283367,-0.09784847497940063
7.961684703826904,0.0707637146115303,-0.20847637951374054,0.08220797777175903,-0.03452353551983833,0.02040894143283367,-0.09784847497940063
7.981756687164307,0.0707637146115303,-0.20809490978717804,0.08297093212604523,-0.03452353551983833,0.02079041674733162,-0.09822995215654373
8.001848220825195,0.0707637146115303,-0.20847637951374054,0.08297093212604523,-0.03452353551983833,0.02040894143283367,-0.09861142933368683
8.021927833557129,0.0711451917886734,-0.20923933386802673,0.08335240930318832,-0.03452353551983833,0.02079041674733162,-0.09899290651082993
8.042004585266113,0.0715266615152359,-0.21038375794887543,0.08373387902975082,-0.03452353551983833,0.02079041674733162,-0.09937438368797302
8.062412977218628,0.0722896158695221,-0.21114671230316162,0.08449683338403702,-0.03452353551983833,0.02079041674733162,-0.10013733059167862
