liuyurong129/humanoid-gym/humanoid/data/actual_q_20250521-035244.csv
timestamp,joint_1,joint_2,joint_3,joint_4,joint_5,joint_6
6.4849853515625e-05,-0.00019073777366429567,0.001716639962978661,-0.001716639962978661,-0.00019073777366429567,-0.00019073777366429567,-0.00019073777366429567
0.020142316818237305,-0.00019073777366429567,0.001716639962978661,-0.0013351644156500697,-0.00019073777366429567,-0.00019073777366429567,-0.00019073777366429567
0.04021430015563965,-0.00019073777366429567,0.001716639962978661,-0.0013351644156500697,-0.00019073777366429567,-0.00019073777366429567,-0.00019073777366429567
0.06027626991271973,-0.00019073777366429567,0.0013351644156500697,-0.0009536888683214784,-0.00019073777366429567,-0.00019073777366429567,-0.00019073777366429567
0.08034777641296387,-0.00019073777366429567,0.0009536888683214784,-0.000572213320992887,-0.00019073777366429567,-0.00019073777366429567,-0.00019073777366429567
0.10042285919189453,-0.00019073777366429567,0.00019073777366429567,-0.00019073777366429567,-0.00019073777366429567,-0.00019073777366429567,-0.00019073777366429567
0.12049031257629395,-0.00019073777366429567,-0.002861066721379757,0.000572213320992887,-0.00019073777366429567,-0.00019073777366429567,-0.000572213320992887
0.14054632186889648,-0.0009536888683214784,-0.00667582219466567,0.0013351644156500697,-0.000572213320992887,0.000572213320992887,-0.0009536888683214784
0.16066789627075195,-0.002861066721379757,-0.011635004542768002,0.001716639962978661,-0.00019073777366429567,0.0009536888683214784,-0.0020981156267225742
0.18114781379699707,-0.00667582219466567,-0.01735713705420494,0.0024795911740511656,-0.000572213320992887,0.001716639962978661,-0.0036240178160369396
0.20136642456054688,-0.010109102353453636,-0.02231631986796856,0.0032425422687083483,-0.0009536888683214784,0.0032425422687083483,-0.004005493130534887
0.22156786918640137,-0.01201647985726595,-0.026131074875593185,0.004386968910694122,-0.0009536888683214784,0.0020981156267225742,-0.004386968910694122
0.24161481857299805,-0.01506828423589468,-0.02994582988321781,0.00476844422519207,-0.0009536888683214784,0.0020981156267225742,-0.006294346414506435
0.2617621421813965,-0.018120087683200836,-0.03452353551983833,0.005531395319849253,-0.0013351644156500697,0.0020981156267225742,-0.00667582219466567
0.28185057640075684,-0.021171892061829567,-0.03833829239010811,0.006294346414506435,-0.001716639962978661,0.0020981156267225742,-0.00667582219466567
0.30199527740478516,-0.024223696440458298,-0.04253452271223068,0.006294346414506435,-0.0024795911740511656,0.0020981156267225742,-0.007438773289322853
0.32210469245910645,-0.02689402550458908,-0.04634927958250046,0.0078202486038208,-0.0032425422687083483,0.0024795911740511656,-0.008201723918318748
0.34218835830688477,-0.02994582988321781,-0.04940108209848404,0.00858320016413927,-0.0036240178160369396,0.002861066721379757,-0.009346150793135166
0.3625319004058838,-0.03337911143898964,-0.053215838968753815,0.008964675478637218,-0.004386968910694122,0.002861066721379757,-0.01125352829694748
0.3826260566711426,-0.037193864583969116,-0.05703059583902359,0.009346150793135166,-0.00476844422519207,0.0036240178160369396,-0.01201647985726595
0.4026908874511719,-0.0398641936480999,-0.06160829961299896,0.010109102353453636,-0.006294346414506435,0.004005493130534887,-0.013923857361078262
0.42275404930114746,-0.04329747334122658,-0.06694895774126053,0.010490577667951584,-0.007438773289322853,0.00476844422519207,-0.014686808921396732
0.44284558296203613,-0.04596780240535736,-0.0711451917886734,0.011635004542768002,-0.0078202486038208,0.00476844422519207,-0.014686808921396732
0.462939977645874,-0.04901960864663124,-0.07534141838550568,0.012779430486261845,-0.008201723918318748,0.005912871100008488,-0.015449759550392628
0.4830036163330078,-0.05207141116261482,-0.07877469807863235,0.013160906732082367,-0.00858320016413927,0.007057297509163618,-0.016594186425209045
0.5030806064605713,-0.0551232174038887,-0.08335240930318832,0.01430533267557621,-0.009727626107633114,0.007438773289322853,-0.018501564860343933
0.5231690406799316,-0.05855649709701538,-0.0883115902543068,0.015449759550392628,-0.010872052982449532,0.0078202486038208,-0.020027466118335724
0.5432372093200684,-0.06198977679014206,-0.09403372555971146,0.01583123579621315,-0.011635004542768002,0.008201723918318748,-0.022697795182466507
0.5633101463317871,-0.06618601083755493,-0.09975585341453552,0.01735713705420494,-0.012779430486261845,0.008964675478637218,-0.023460745811462402
0.5834059715270996,-0.06923781335353851,-0.1035706102848053,0.01888304017484188,-0.013542382046580315,0.010109102353453636,-0.02536812424659729
0.6034865379333496,-0.07267109304666519,-0.10814831405878067,0.019645990803837776,-0.01506828423589468,0.01125352829694748,-0.026131074875593185
0.6238362789154053,-0.07572289556264877,-0.11196307092905045,0.02040894143283367,-0.01583123579621315,0.011635004542768002,-0.028038453310728073
0.6439321041107178,-0.07877469807863235,-0.11692225188016891,0.021553369238972664,-0.016594186425209045,0.011635004542768002,-0.02994582988321781
0.6640172004699707,-0.08297093212604523,-0.12302586436271667,0.02231631986796856,-0.018501564860343933,0.011635004542768002,-0.030708782374858856
0.6840813159942627,-0.0875486359000206,-0.12912946939468384,0.023460745811462402,-0.01888304017484188,0.012397955171763897,-0.03223468363285065
0.7041676044464111,-0.09174486994743347,-0.1348516047000885,0.024605173617601395,-0.01926451548933983,0.013923857361078262,-0.03337911143898964
0.7242484092712402,-0.09441519528627396,-0.13828489184379578,0.02536812424659729,-0.019645990803837776,0.015449759550392628,-0.03376058489084244
0.7443904876708984,-0.09708552807569504,-0.14133669435977936,0.025749599561095238,-0.02040894143283367,0.016212711110711098,-0.03452353551983833
0.7644269466400146,-0.10051880776882172,-0.14553292095661163,0.02689402550458908,-0.02193484455347061,0.018120087683200836,-0.035667963325977325
0.7845191955566406,-0.1039520874619484,-0.1504921019077301,0.028038453310728073,-0.023079270496964455,0.018501564860343933,-0.03757534176111221
0.8045992851257324,-0.10700388997793198,-0.15545128285884857,0.029182879254221916,-0.02384222112596035,0.01888304017484188,-0.038719769567251205
0.8247201442718506,-0.11081864684820175,-0.16041046380996704,0.030708782374858856,-0.024605173617601395,0.02040894143283367,-0.040627144277095795
0.8447859287261963,-0.11348897218704224,-0.16308079659938812,0.03223468363285065,-0.026512550190091133,0.02231631986796856,-0.04139009863138199
0.8648488521575928,-0.11692225188016891,-0.1661325991153717,0.03376058489084244,-0.026512550190091133,0.024223696440458298,-0.04329747334122658
0.8851532936096191,-0.1203555315732956,-0.16956588625907898,0.03490501269698143,-0.02689402550458908,0.02536812424659729,-0.045204851776361465
0.9053025245666504,-0.12378881871700287,-0.17566949129104614,0.03643091395497322,-0.027656977996230125,0.026512550190091133,-0.04634927958250046
0.9253206253051758,-0.12645913660526276,-0.1813916265964508,0.037193864583969116,-0.029182879254221916,0.026512550190091133,-0.04901960864663124
0.9455833435058594,-0.12951095402240753,-0.18673227727413177,0.038719769567251205,-0.02994582988321781,0.027656977996230125,-0.049782559275627136
0.9656879901885986,-0.1325627565383911,-0.19016556441783905,0.0398641936480999,-0.03032730519771576,0.02841992862522602,-0.05130846053361893
0.9857242107391357,-0.1348516047000885,-0.19207294285297394,0.040245670825242996,-0.030708782374858856,0.02880140393972397,-0.05245288833975792
1.0057988166809082,-0.13866636157035828,-0.19474326074123383,0.04139009863138199,-0.03223468363285065,0.029564354568719864,-0.053215838968753815
1.0258898735046387,-0.14133669435977936,-0.1997024416923523,0.04253452271223068,-0.03376058489084244,0.03032730519771576,-0.0558861680328846
1.0459625720977783,-0.14400701224803925,-0.20504310727119446,0.043678950518369675,-0.03452353551983833,0.03185320645570755,-0.05741206929087639
1.0670371055603027,-0.14667734503746033,-0.20962081849575043,0.04444190114736557,-0.03490501269698143,0.03452353551983833,-0.05893797054886818
1.0871267318725586,-0.1497291475534439,-0.2138170450925827,0.04634927958250046,-0.03681239113211632,0.03528648987412453,-0.05970092490315437
1.1072032451629639,-0.1527809500694275,-0.21686884760856628,0.04749370738863945,-0.03795681521296501,0.03604944050312042,-0.06046387553215027
1.1274750232696533,-0.15621423721313477,-0.21992065012454987,0.04901960864663124,-0.038719769567251205,0.03681239113211632,-0.06160829961299896
1.14756441116333,-0.15926603972911835,-0.22373540699481964,0.05054550990462303,-0.0394827201962471,0.03795681521296501,-0.06351567804813385
1.167635202407837,-0.16155488789081573,-0.22716869413852692,0.051689937710762024,-0.04177157208323479,0.040245670825242996,-0.06427863240242004
1.1876916885375977,-0.16422522068023682,-0.230601966381073,0.05245288833975792,-0.042153049260377884,0.04139009863138199,-0.06618601083755493
1.2078015804290771,-0.1680399775505066,-0.23403525352478027,0.05436026677489281,-0.043678950518369675,0.04253452271223068,-0.06733043491840363
1.2278614044189453,-0.17071031033992767,-0.23708705604076385,0.0555046908557415,-0.04482337832450867,0.04406042397022247,-0.06809338182210922
1.2479307651519775,-0.17376211285591125,-0.24052032828330994,0.05664911866188049,-0.045204851776361465,0.04482337832450867,-0.06961929053068161
1.2680537700653076,-0.17643244564533234,-0.2447165697813034,0.058175019919872284,-0.04558632895350456,0.04596780240535736,-0.0715266615152359
1.288160800933838,-0.17833982408046722,-0.248531311750412,0.05893797054886818,-0.04596780240535736,0.048256658017635345,-0.07343403995037079
1.3082199096679688,-0.1810101419687271,-0.25234606862068176,0.06008239835500717,-0.046730753034353256,0.05054550990462303,-0.07534141838550568
1.3283355236053467,-0.1832990050315857,-0.25539788603782654,0.061226826161146164,-0.048638131469488144,0.05245288833975792,-0.07610437273979187
1.3484275341033936,-0.18635080754756927,-0.2580682039260864,0.06313420087099075,-0.04940108209848404,0.05283436179161072,-0.07801175117492676
1.3685331344604492,-0.18940261006355286,-0.2603570520877838,0.06427863240242004,-0.050164032727479935,0.05283436179161072,-0.07953765243291855
1.3886985778808594,-0.19283588230609894,-0.2634088695049286,0.06618601083755493,-0.051689937710762024,0.05283436179161072,-0.08106355369091034
1.408822774887085,-0.1962691694498062,-0.26722362637519836,0.06809338182210922,-0.05283436179161072,0.05436026677489281,-0.08297093212604523
1.4288811683654785,-0.1977950781583786,-0.27103838324546814,0.06923781335353851,-0.053215838968753815,0.0551232174038887,-0.08525978773832321
1.448974370956421,-0.20122835040092468,-0.2744716703891754,0.07038223743438721,-0.05359731614589691,0.05664911866188049,-0.08602273464202881
1.46905517578125,-0.20389868319034576,-0.2759975492954254,0.0715266615152359,-0.05397878959774971,0.0555046908557415,-0.086785688996315
1.4891235828399658,-0.20656901597976685,-0.2779049277305603,0.071908138692379,-0.0551232174038887,0.0555046908557415,-0.0875486359000206
1.5092644691467285,-0.21038375794887543,-0.2805752754211426,0.07267109304666519,-0.056267641484737396,0.0558861680328846,-0.08907453715801239
1.5293633937835693,-0.21229113638401031,-0.28286412358283997,0.07381551712751389,-0.05703059583902359,0.05855649709701538,-0.09060044586658478
1.5494358539581299,-0.2138170450925827,-0.28553444147109985,0.07457847148180008,-0.05741206929087639,0.06008239835500717,-0.09250781685113907
1.5695462226867676,-0.21648737788200378,-0.28858625888824463,0.07572289556264877,-0.058175019919872284,0.06160829961299896,-0.09365224838256836
1.589585781097412,-0.21953918039798737,-0.2912565767765045,0.07724879682064056,-0.06046387553215027,0.06198977679014206,-0.09441519528627396
1.6096415519714355,-0.22259098291397095,-0.2924010157585144,0.07763027399778366,-0.061226826161146164,0.06237125024199486,-0.09632257372140884
1.6298871040344238,-0.22564278542995453,-0.2950713336467743,0.07915617525577545,-0.06313420087099075,0.06313420087099075,-0.09784847497940063
1.6561334133148193,-0.2283131182193756,-0.29850462079048157,0.08144503086805344,-0.06427863240242004,0.06389715522527695,-0.10128175467252731
1.6762301921844482,-0.23479819297790527,-0.308804452419281,0.0883115902543068,-0.06580453366041183,0.06656748056411743,-0.1031891331076622
1.6963536739349365,-0.23975738883018494,-0.31376364827156067,0.09250781685113907,-0.07038223743438721,0.07763027399778366,-0.10891126841306686
1.716374397277832,-0.24128328263759613,-0.32024872303009033,0.09670405089855194,-0.0715266615152359,0.07724879682064056,-0.11234454810619354
1.736464262008667,-0.24280919134616852,-0.3233005404472351,0.09861142933368683,-0.0715266615152359,0.07839322835206985,-0.11234454810619354
1.7565345764160156,-0.2462424635887146,-0.3255893886089325,0.09937438368797302,-0.0722896158695221,0.07801175117492676,-0.11310750246047974
1.776587963104248,-0.247768372297287,-0.3286411762237549,0.09975585341453552,-0.07267109304666519,0.07915617525577545,-0.11425192654132843
1.7967100143432617,-0.24891279637813568,-0.33093002438545227,0.10166323184967041,-0.07343403995037079,0.07953765243291855,-0.11615930497646332
1.8167884349822998,-0.24967575073242188,-0.33207446336746216,0.1024261862039566,-0.07534141838550568,0.08106355369091034,-0.11692225188016891
1.8368449211120605,-0.25120165944099426,-0.33360037207603455,0.1031891331076622,-0.07572289556264877,0.08335240930318832,-0.11959258466959
1.8569347858428955,-0.25349050760269165,-0.33588922023773193,0.10471503436565399,-0.07686731964349747,0.08564125746488571,-0.1199740618467331
1.8770909309387207,-0.25501641631126404,-0.3389410376548767,0.10585946589708328,-0.07801175117492676,0.086785688996315,-0.12073700875043869
1.897087812423706,-0.2573052644729614,-0.3419928252696991,0.10662241280078888,-0.07915617525577545,0.0864042118191719,-0.12226291000843048
1.917177677154541,-0.2603570520877838,-0.3442816734313965,0.10776684433221817,-0.07953765243291855,0.0871671661734581,-0.12417028844356537
1.937251329421997,-0.2618829607963562,-0.34580758213996887,0.10929274559020996,-0.07991912961006165,0.08945601433515549,-0.12531471252441406
1.9573204517364502,-0.2626459002494812,-0.34847790002822876,0.11005569249391556,-0.08030059933662415,0.08945601433515549,-0.12760357558727264
1.9774243831634521,-0.2641718089580536,-0.35152971744537354,0.11120012402534485,-0.08182650804519653,0.08945601433515549,-0.12798504531383514
1.997483491897583,-0.266460657119751,-0.3534370958805084,0.11272602528333664,-0.08258945494890213,0.08983749151229858,-0.12951095402240753
2.017636775970459,-0.26798656582832336,-0.3538185656070709,0.11387044936418533,-0.08297093212604523,0.09060044586658478,-0.13103684782981873
2.037672281265259,-0.26951247453689575,-0.3545815348625183,0.11501488089561462,-0.08449683338403702,0.09212634712457657,-0.13179980218410492
2.0577921867370605,-0.27103838324546814,-0.3557259440422058,0.11654078215360641,-0.08525978773832321,0.09365224838256836,-0.1340886503458023
2.077822208404541,-0.27218279242515564,-0.3587777614593506,0.11768520623445511,-0.086785688996315,0.09479667246341705,-0.1363775134086609
2.0979020595550537,-0.2744716703891754,-0.361829549074173,0.11959258466959,-0.0875486359000206,0.09899290651082993,-0.13866636157035828
2.117968797683716,-0.2763790488243103,-0.36449989676475525,0.12111848592758179,-0.0879301130771637,0.10090028494596481,-0.13904783129692078
2.138028383255005,-0.2775234580039978,-0.36602577567100525,0.12111848592758179,-0.08983749151229858,0.1031891331076622,-0.13981078565120697
2.1581010818481445,-0.2794308364391327,-0.368314653635025,0.12188144028186798,-0.09098191559314728,0.10471503436565399,-0.14133669435977936
2.1782329082489014,-0.2809567451477051,-0.3709849715232849,0.12340734153985977,-0.09174486994743347,0.10547798871994019,-0.14286258816719055
2.1983842849731445,-0.2821011543273926,-0.3732738196849823,0.12455176562070847,-0.09365224838256836,0.10776684433221817,-0.14362554252147675
2.2185754776000977,-0.28400853276252747,-0.3759441375732422,0.12645913660526276,-0.09441519528627396,0.10852979123592377,-0.14591439068317413
2.2386693954467773,-0.28591591119766235,-0.3778515160083771,0.12836651504039764,-0.09479667246341705,0.10852979123592377,-0.14667734503746033
2.258742570877075,-0.28782328963279724,-0.37937742471694946,0.12989242374897003,-0.09517814964056015,0.10852979123592377,-0.14744029939174652
2.278777599334717,-0.28973066806793213,-0.38204777240753174,0.13103684782981873,-0.09670405089855194,0.10929274559020996,-0.1489662081003189
2.298874855041504,-0.2912565767765045,-0.3843366205692291,0.1325627565383911,-0.09746700525283813,0.11005569249391556,-0.1504921019077301
2.3189382553100586,-0.291638046503067,-0.3858625292778015,0.1337071806192398,-0.09784847497940063,0.11081864684820175,-0.152399480342865
2.338991403579712,-0.2924010157585144,-0.3873884081840515,0.134470134973526,-0.09861142933368683,0.11234454810619354,-0.15392538905143738
2.3590779304504395,-0.2943083941936493,-0.3885328471660614,0.1359960287809372,-0.09861142933368683,0.11387044936418533,-0.15506981313228607
2.3791372776031494,-0.2958342730998993,-0.3900587558746338,0.13790340721607208,-0.09899290651082993,0.11615930497646332,-0.15697719156742096
2.399198293685913,-0.2977416515350342,-0.3923476040363312,0.13866636157035828,-0.10013733059167862,0.11768520623445511,-0.15812161564826965
2.419369697570801,-0.29888609051704407,-0.39387351274490356,0.13942931592464447,-0.10166323184967041,0.12073700875043869,-0.15964750945568085
2.4394726753234863,-0.30003052949905396,-0.39578089118003845,0.14133669435977936,-0.10204470902681351,0.12073700875043869,-0.16193637251853943
2.4595491886138916,-0.30117493867874146,-0.39845120906829834,0.14209964871406555,-0.1028076633810997,0.12340734153985977,-0.16384375095367432
2.479611873626709,-0.30308231711387634,-0.4007400572299957,0.14324407279491425,-0.10433356463909149,0.12455176562070847,-0.164988175034523
2.4997050762176514,-0.30422675609588623,-0.4018844962120056,0.14438849687576294,-0.10509651154279709,0.12569619715213776,-0.1657511293888092
2.519770622253418,-0.30537116527557373,-0.4026474356651306,0.14553292095661163,-0.10547798871994019,0.12684062123298645,-0.1661325991153717
2.5398645401000977,-0.3057526648044586,-0.4030289053916931,0.14667734503746033,-0.10547798871994019,0.12836651504039764,-0.1672770231962204
2.559974193572998,-0.3068970739841461,-0.404173344373703,0.14858472347259521,-0.10624094307422638,0.12874799966812134,-0.16918440163135529
2.5800578594207764,-0.308041512966156,-0.404936283826828,0.1501106321811676,-0.10624094307422638,0.13179980218410492,-0.17071031033992767
2.600288152694702,-0.3099488914012909,-0.4072251319885254,0.1516365259885788,-0.10738536715507507,0.1333257108926773,-0.17299915850162506
2.6203930377960205,-0.3118562698364258,-0.40989547967910767,0.1527809500694275,-0.10891126841306686,0.135233074426651,-0.17338064312934875
2.640495538711548,-0.3130006790161133,-0.41294726729393005,0.15392538905143738,-0.10929274559020996,0.1359960287809372,-0.17414358258247375
2.6605889797210693,-0.3133821487426758,-0.41485464572906494,0.15468832850456238,-0.10967422276735306,0.1359960287809372,-0.17643244564533234
2.6806273460388184,-0.31528952717781067,-0.4171435236930847,0.15621423721313477,-0.11158160120248795,0.1363775134086609,-0.17757686972618103
2.7007076740264893,-0.31757840514183044,-0.4175249934196472,0.15697719156742096,-0.11234454810619354,0.1371404528617859,-0.1810101419687271
2.72076153755188,-0.31948578357696533,-0.4179064631462097,0.15812161564826965,-0.11310750246047974,0.13866636157035828,-0.1817730963230133
2.740854024887085,-0.32063019275665283,-0.4190509021282196,0.16002899408340454,-0.11310750246047974,0.14057374000549316,-0.1832990050315857
2.7609264850616455,-0.32101166248321533,-0.4209582805633545,0.16269932687282562,-0.11425192654132843,0.14133669435977936,-0.1844434291124344
2.7809741497039795,-0.3213931620121002,-0.4228656589984894,0.16384375095367432,-0.11501488089561462,0.14324407279491425,-0.18558785319328308
2.801158905029297,-0.3229190409183502,-0.42553597688674927,0.1653696447610855,-0.11654078215360641,0.14515145123004913,-0.18863965570926666
2.821258306503296,-0.3248264193534851,-0.42744335532188416,0.1668955534696579,-0.11692225188016891,0.14782176911830902,-0.19054703414440155
2.8413236141204834,-0.3271152675151825,-0.42935073375701904,0.1680399775505066,-0.11768520623445511,0.1489662081003189,-0.19130998849868774
2.8613784313201904,-0.3286411762237549,-0.43163958191871643,0.16880293190479279,-0.11959258466959,0.1501106321811676,-0.19169145822525024
2.881462812423706,-0.32940414547920227,-0.4327840209007263,0.17032882571220398,-0.12073700875043869,0.1516365259885788,-0.19245441257953644
2.901531457901001,-0.33016708493232727,-0.4335469603538513,0.17147326469421387,-0.12111848592758179,0.15316243469715118,-0.19359883666038513
2.9216043949127197,-0.33093002438545227,-0.4335469603538513,0.17261768877506256,-0.12188144028186798,0.15392538905143738,-0.19550621509552002
2.94173002243042,-0.33245593309402466,-0.4343098998069763,0.17414358258247375,-0.12264438718557358,0.15583276748657227,-0.1962691694498062
2.9617955684661865,-0.33321890234947205,-0.4354543387889862,0.17566949129104614,-0.12340734153985977,0.15850308537483215,-0.1981765478849411
2.9818546772003174,-0.33474478125572205,-0.4369802474975586,0.17719538509845734,-0.12378881871700287,0.16079194843769073,-0.1989395022392273
3.0019376277923584,-0.33512628078460693,-0.440032035112381,0.17872129380702972,-0.12417028844356537,0.16041046380996704,-0.200083926320076
3.0220108032226562,-0.33588922023773193,-0.44232088327407837,0.1802472025156021,-0.12455176562070847,0.16041046380996704,-0.20160982012748718
3.0420897006988525,-0.33665215969085693,-0.44422826170921326,0.1810101419687271,-0.12493324279785156,0.16079194843769073,-0.20351719856262207
3.0621626377105713,-0.3381780683994293,-0.44613564014434814,0.182154580950737,-0.12607766687870026,0.16308079659938812,-0.20618753135204315
3.0822362899780273,-0.3400854468345642,-0.44766154885292053,0.1832990050315857,-0.12798504531383514,0.1646067053079605,-0.20733195543289185
3.1022989749908447,-0.3419928252696991,-0.4484245181083679,0.1836804747581482,-0.12874799966812134,0.1653696447610855,-0.20923933386802673
3.122363567352295,-0.3427557647228241,-0.4484245181083679,0.1848248988389969,-0.12951095402240753,0.1665140837430954,-0.21038375794887543
3.142453908920288,-0.3427557647228241,-0.4499503970146179,0.18673227727413177,-0.13103684782981873,0.1665140837430954,-0.21076524257659912
3.1625359058380127,-0.3435187339782715,-0.4514763057231903,0.18787670135498047,-0.13103684782981873,0.1676585078239441,-0.212672621011734
3.1832435131073,-0.344663143157959,-0.4526207447052002,0.18940261006355286,-0.13179980218410492,0.1684214472770691,-0.2149614691734314
3.203331232070923,-0.34657052159309387,-0.4549095928668976,0.19092851877212524,-0.13218127191066742,0.17109178006649017,-0.21686884760856628
3.223447799682617,-0.34809643030166626,-0.45796138048171997,0.19245441257953644,-0.1337071806192398,0.17528800666332245,-0.21801327168941498
3.2434866428375244,-0.34924086928367615,-0.45986875891685486,0.19398032128810883,-0.1337071806192398,0.17681391537189484,-0.21801327168941498
3.2635719776153564,-0.34962233901023865,-0.46177613735198975,0.19512474536895752,-0.135233074426651,0.17719538509845734,-0.21877622604370117
3.283648729324341,-0.35000380873680115,-0.46292057633399963,0.1966506391763687,-0.1359960287809372,0.17833982408046722,-0.22144655883312225
3.3037078380584717,-0.35191118717193604,-0.4648279547691345,0.1974135935306549,-0.1367589831352234,0.1802472025156021,-0.22259098291397095
3.3237948417663574,-0.3530556261539459,-0.4655908942222595,0.1989395022392273,-0.1371404528617859,0.182917520403862,-0.22411687672138214
3.3438720703125,-0.3538185656070709,-0.4667353332042694,0.2004653960466385,-0.13866636157035828,0.18520638346672058,-0.22526131570339203
3.3639299869537354,-0.3549630045890808,-0.4674982726573944,0.20122835040092468,-0.13904783129692078,0.18596932291984558,-0.22602425515651703
3.3840126991271973,-0.3557259440422058,-0.4678797721862793,0.20237277448177338,-0.13942931592464447,0.18749523162841797,-0.22793163359165192
3.4040868282318115,-0.3568703830242157,-0.4694056510925293,0.20389868319034576,-0.14057374000549316,0.18711376190185547,-0.2298390120267868
3.424139976501465,-0.3576333224773407,-0.4713130295276642,0.20504310727119446,-0.14095520973205566,0.18787670135498047,-0.23250934481620789
3.4442269802093506,-0.3587777614593506,-0.4732204079627991,0.20656901597976685,-0.14248111844062805,0.18863965570926666,-0.23327229917049408
3.464301586151123,-0.3595407009124756,-0.47512778639793396,0.20847637951374054,-0.14286258816719055,0.19092851877212524,-0.23441672325134277
3.4843502044677734,-0.361066609621048,-0.47703516483306885,0.20885786414146423,-0.14324407279491425,0.19283588230609894,-0.23594263195991516
3.504441738128662,-0.3622110188007355,-0.47856107354164124,0.21038375794887543,-0.14438849687576294,0.19474326074123383,-0.23670557141304016
3.52451229095459,-0.36335545778274536,-0.4797055125236511,0.21190966665744781,-0.14553292095661163,0.19474326074123383,-0.23861294984817505
3.54461669921875,-0.36411839723587036,-0.4804684519767761,0.212672621011734,-0.14667734503746033,0.19550621509552002,-0.24090181291103363
3.564847707748413,-0.36411839723587036,-0.4812313914299011,0.2141985148191452,-0.14667734503746033,0.19550621509552002,-0.24242770671844482
3.584933042526245,-0.36526283621788025,-0.4819943606853485,0.2157244235277176,-0.14705882966518402,0.1962691694498062,-0.24319066107273102
3.6050117015838623,-0.36640727519989014,-0.482375830411911,0.2161058932542801,-0.14820325374603271,0.1997024416923523,-0.2439536154270172
3.6251628398895264,-0.36793315410614014,-0.4835202693939209,0.21725031733512878,-0.14858472347259521,0.20313572883605957,-0.2443350851535797
3.6452388763427734,-0.3694590628147125,-0.4854276478290558,0.21877622604370117,-0.1501106321811676,0.20428015291690826,-0.2458609938621521
3.6652894020080566,-0.3706035017967224,-0.4873350262641907,0.21915769577026367,-0.1504921019077301,0.20695048570632935,-0.247768372297287
3.685406446456909,-0.3713664412498474,-0.4892423748970032,0.22068360447883606,-0.1508735716342926,0.21038375794887543,-0.24891279637813568
3.7055201530456543,-0.3713664412498474,-0.49191272258758545,0.22220951318740845,-0.1512550562620163,0.21000228822231293,-0.25120165944099426
3.725569725036621,-0.3717479109764099,-0.49267566204071045,0.22297245264053345,-0.15316243469715118,0.21114671230316162,-0.25158312916755676
3.745671033859253,-0.3728923499584198,-0.49458304047584534,0.22449836134910583,-0.15392538905143738,0.21190966665744781,-0.25310903787612915
3.7658326625823975,-0.3736552894115448,-0.4964904189109802,0.22640573978424072,-0.15430685877799988,0.2149614691734314,-0.25539788603782654
3.785841226577759,-0.3744182586669922,-0.4976348578929901,0.2283131182193756,-0.15468832850456238,0.2153429538011551,-0.25654229521751404
3.806037664413452,-0.3755626678466797,-0.4983977973461151,0.2290760725736618,-0.15506981313228607,0.21801327168941498,-0.2588311731815338
3.8260388374328613,-0.3778515160083771,-0.4991607666015625,0.230601966381073,-0.15659570693969727,0.21839475631713867,-0.2595941126346588
3.8462820053100586,-0.37861448526382446,-0.5006866455078125,0.2309834510087967,-0.15735866129398346,0.22144655883312225,-0.2615014910697937
3.8664052486419678,-0.37899595499038696,-0.5022125840187073,0.23289081454277039,-0.15812161564826965,0.22106507420539856,-0.2630273997783661
3.8864903450012207,-0.37937742471694946,-0.5041199326515198,0.23403525352478027,-0.15850308537483215,0.22259098291397095,-0.2634088695049286
3.9065511226654053,-0.38090333342552185,-0.5056458115577698,0.23517967760562897,-0.15888457000255585,0.22526131570339203,-0.2660791873931885
3.9266819953918457,-0.38166627287864685,-0.506790280342102,0.23594263195991516,-0.16002899408340454,0.2283131182193756,-0.26760509610176086
3.946751356124878,-0.38281071186065674,-0.507553219795227,0.23708705604076385,-0.16117341816425323,0.23250934481620789,-0.26951247453689575
3.966827154159546,-0.3847180902957916,-0.509079098701477,0.23823148012161255,-0.16193637251853943,0.23479819297790527,-0.27103838324546814
3.9869139194488525,-0.3858625292778015,-0.5106050372123718,0.24052032828330994,-0.16269932687282562,0.23632410168647766,-0.27180132269859314
4.007016181945801,-0.386243999004364,-0.5121309161186218,0.24280919134616852,-0.16308079659938812,0.23670557141304016,-0.272945761680603
4.027055740356445,-0.3866254687309265,-0.5125123858451843,0.2439536154270172,-0.164988175034523,0.23708705604076385,-0.2744716703891754
4.047217130661011,-0.3877699077129364,-0.5136567950248718,0.2447165697813034,-0.1653696447610855,0.23785001039505005,-0.2763790488243103
4.0672993659973145,-0.3885328471660614,-0.5144197940826416,0.2462424635887146,-0.1657511293888092,0.23861294984817505,-0.2775234580039978
4.087385416030884,-0.3889143168926239,-0.5155642032623291,0.2470054179430008,-0.1661325991153717,0.23975738883018494,-0.2775234580039978
4.107568264007568,-0.3900587558746338,-0.5167086124420166,0.2481498420238495,-0.1680399775505066,0.24204623699188232,-0.2786678969860077
4.127653121948242,-0.3923476040363312,-0.5189974904060364,0.2500572204589844,-0.16880293190479279,0.2447165697813034,-0.2805752754211426
4.147746562957764,-0.3931105434894562,-0.5209048390388489,0.2508201599121094,-0.16918440163135529,0.2462424635887146,-0.28248265385627747
4.1678831577301025,-0.3934920132160187,-0.5228122472763062,0.25234606862068176,-0.16994735598564148,0.2466239482164383,-0.28477150201797485
4.187971353530884,-0.39387351274490356,-0.5243381261825562,0.25387197732925415,-0.17032882571220398,0.2470054179430008,-0.28591591119766235
4.208080291748047,-0.39463645219802856,-0.5251010656356812,0.25501641631126404,-0.17147326469421387,0.24891279637813568,-0.28667888045310974
4.228290796279907,-0.39539939165115356,-0.5262455344200134,0.25654229521751404,-0.17299915850162506,0.25120165944099426,-0.28896772861480713
4.2483837604522705,-0.39730677008628845,-0.5273899435997009,0.2584496736526489,-0.17338064312934875,0.25463491678237915,-0.290112167596817
4.268471002578735,-0.3995956480503082,-0.5281528830528259,0.2595941126346588,-0.17414358258247375,0.25654229521751404,-0.2927824854850769
4.2886803150177,-0.4007400572299957,-0.5292973518371582,0.2611200213432312,-0.17643244564533234,0.2592126429080963,-0.2950713336467743
4.308873176574707,-0.4011215269565582,-0.5308232307434082,0.2634088695049286,-0.17681391537189484,0.2615014910697937,-0.2965972423553467
4.328913450241089,-0.4015030264854431,-0.5319676399230957,0.2645532786846161,-0.17719538509845734,0.2630273997783661,-0.2965972423553467
4.348971843719482,-0.4026474356651306,-0.5334935784339905,0.265697717666626,-0.17719538509845734,0.2634088695049286,-0.29812315106391907
4.369039058685303,-0.4030289053916931,-0.534637987613678,0.26684215664863586,-0.17833982408046722,0.2660791873931885,-0.29964902997016907
4.389164924621582,-0.403410404920578,-0.535400927066803,0.26760509610176086,-0.17948424816131592,0.266460657119751,-0.30155640840530396
4.409230709075928,-0.404936283826828,-0.5365453362464905,0.26874953508377075,-0.1806286722421646,0.26722362637519836,-0.30308231711387634
4.42931866645813,-0.4056992530822754,-0.5380712747573853,0.27027541399002075,-0.1817730963230133,0.26989394426345825,-0.30384528636932373
4.449397802352905,-0.4056992530822754,-0.5395971536636353,0.27141985297203064,-0.182154580950737,0.27027541399002075,-0.30422675609588623
4.470052480697632,-0.4068436622619629,-0.5407415628433228,0.272945761680603,-0.1832990050315857,0.27218279242515564,-0.3057526648044586
4.490189552307129,-0.4076066315174103,-0.541886031627655,0.2740901708602905,-0.1844434291124344,0.273708701133728,-0.3076600432395935
4.510238170623779,-0.4083695709705353,-0.5430304408073425,0.2752346098423004,-0.1844434291124344,0.273708701133728,-0.3091859221458435
4.530290603637695,-0.4087510406970978,-0.5437933802604675,0.2763790488243103,-0.1848248988389969,0.2740901708602905,-0.3118562698364258
4.5503990650177,-0.40989547967910767,-0.5453193187713623,0.2779049277305603,-0.1848248988389969,0.2756160795688629,-0.3122377395629883
4.5704665184021,-0.41103988885879517,-0.5464637279510498,0.2790493667125702,-0.1848248988389969,0.2779049277305603,-0.31414511799812317
4.590526103973389,-0.41180285811424255,-0.5476081371307373,0.2801937758922577,-0.18635080754756927,0.2801937758922577,-0.31567102670669556
4.61061954498291,-0.41294726729393005,-0.5483710765838623,0.2813382148742676,-0.18787670135498047,0.2821011543273926,-0.31681543588638306
4.630702257156372,-0.41371023654937744,-0.5502784848213196,0.28324559330940247,-0.18863965570926666,0.28477150201797485,-0.31986725330352783
4.6507604122161865,-0.41523614525794983,-0.5514228940010071,0.28362706303596497,-0.18902114033699036,0.28820478916168213,-0.3221561014652252
4.67084264755249,-0.41523614525794983,-0.5525673031806946,0.28515297174453735,-0.19016556441783905,0.28896772861480713,-0.3225375711917877
4.690922737121582,-0.41599908471107483,-0.5537117719650269,0.28667888045310974,-0.19092851877212524,0.28934919834136963,-0.3233005404472351
4.710994005203247,-0.41638055443763733,-0.5544747114181519,0.28744181990623474,-0.19169145822525024,0.2904936373233795,-0.3244449496269226
4.731842756271362,-0.4171435236930847,-0.5560005903244019,0.28896772861480713,-0.19245441257953644,0.2927824854850769,-0.325970858335495
4.751948595046997,-0.4190509021282196,-0.5575265288352966,0.2904936373233795,-0.19245441257953644,0.2935454249382019,-0.3278782367706299
4.7720184326171875,-0.4201953113079071,-0.5579079985618591,0.291638046503067,-0.19359883666038513,0.2958342730998993,-0.32940414547920227
4.792073011398315,-0.4201953113079071,-0.5586709380149841,0.2927824854850769,-0.19436179101467133,0.2962157726287842,-0.33016708493232727
4.812166690826416,-0.4209582805633545,-0.5598153471946716,0.2943083941936493,-0.19550621509552002,0.2965972423553467,-0.33093002438545227
4.832233667373657,-0.422102689743042,-0.5609598159790039,0.2958342730998993,-0.1962691694498062,0.29926756024360657,-0.33169299364089966
4.852406024932861,-0.422102689743042,-0.5621042251586914,0.2965972423553467,-0.1966506391763687,0.30079346895217896,-0.33398184180259705
4.8724939823150635,-0.4224841594696045,-0.5640115737915039,0.29850462079048157,-0.1981765478849411,0.30193790793418884,-0.33550775051116943
4.892672777175903,-0.4228656589984894,-0.5647745728492737,0.30003052949905396,-0.1993209719657898,0.30460822582244873,-0.3389410376548767
4.912662029266357,-0.4236285984516144,-0.5659189820289612,0.30041199922561646,-0.1997024416923523,0.3076600432395935,-0.3404669165611267
4.932744979858398,-0.4243915379047394,-0.5670633912086487,0.30231937766075134,-0.200083926320076,0.3107118308544159,-0.3416113555431366
4.95282244682312,-0.42591744661331177,-0.5682078003883362,0.30346378684043884,-0.2004653960466385,0.3130006790161133,-0.343900203704834
4.972875356674194,-0.42706188559532166,-0.5693522691726685,0.30460822582244873,-0.20275425910949707,0.31605249643325806,-0.34657052159309387
4.9931018352508545,-0.42744335532188416,-0.5708781480789185,0.3061341345310211,-0.20351719856262207,0.31681543588638306,-0.34809643030166626
5.0131964683532715,-0.42820629477500916,-0.5724040865898132,0.308041512966156,-0.20351719856262207,0.31757840514183044,-0.34847790002822876
5.03328013420105,-0.42858776450157166,-0.5731670260429382,0.3084229826927185,-0.20428015291690826,0.31795987486839294,-0.34962233901023865
5.053353309631348,-0.42935073375701904,-0.5739299654960632,0.3099488914012909,-0.20504310727119446,0.31872281432151794,-0.35000380873680115
5.07344126701355,-0.42973220348358154,-0.5750743746757507,0.3114747703075409,-0.20542457699775696,0.31910428404808044,-0.35229265689849854
5.0935351848602295,-0.42973220348358154,-0.576218843460083,0.3130006790161133,-0.20618753135204315,0.32024872303009033,-0.3542000353336334
5.1135334968566895,-0.43049514293670654,-0.577744722366333,0.31414511799812317,-0.20695048570632935,0.3233005404472351,-0.3557259440422058
5.133619785308838,-0.43163958191871643,-0.579270601272583,0.31605249643325806,-0.20733195543289185,0.3263523280620575,-0.3564889132976532
5.153691291809082,-0.43240252137184143,-0.5807965397834778,0.31719690561294556,-0.20733195543289185,0.3286411762237549,-0.3580147922039032
5.173753261566162,-0.4335469603538513,-0.5811780095100403,0.31834134459495544,-0.20847637951374054,0.33283740282058716,-0.3603036403656006
5.193841457366943,-0.4346913993358612,-0.5823224186897278,0.32063019275665283,-0.20923933386802673,0.33398184180259705,-0.36335545778274536
5.213918685913086,-0.4362172782421112,-0.5838482975959778,0.3221561014652252,-0.21038375794887543,0.33436331152915955,-0.36564430594444275
5.233979940414429,-0.4365987777709961,-0.5853742361068726,0.3236820101737976,-0.21114671230316162,0.3370336592197418,-0.36678874492645264
5.254070997238159,-0.4365987777709961,-0.5869001150131226,0.3255893886089325,-0.21152819693088531,0.3377965986728668,-0.36755168437957764
5.274143934249878,-0.4369802474975586,-0.5891889929771423,0.3278782367706299,-0.21190966665744781,0.3400854468345642,-0.36907759308815
5.29421329498291,-0.4369802474975586,-0.5899519324302673,0.3290226459503174,-0.21229113638401031,0.3419928252696991,-0.3717479109764099
5.314375877380371,-0.4369802474975586,-0.5910963416099548,0.33054855465888977,-0.2141985148191452,0.3442816734313965,-0.3736552894115448
5.334464073181152,-0.4377431869506836,-0.5930037498474121,0.33283740282058716,-0.2141985148191452,0.34733349084854126,-0.3747997283935547
5.354549169540405,-0.4381246566772461,-0.5937666893005371,0.33398184180259705,-0.2141985148191452,0.34924086928367615,-0.3755626678466797
5.374634027481079,-0.4388876259326935,-0.5952925682067871,0.33588922023773193,-0.2153429538011551,0.35114824771881104,-0.3763256371021271
5.39473295211792,-0.440032035112381,-0.5971999764442444,0.3377965986728668,-0.2157244235277176,0.35152971744537354,-0.37899595499038696
5.414799451828003,-0.44155794382095337,-0.5979629158973694,0.3389410376548767,-0.21725031733512878,0.35191118717193604,-0.38052186369895935
5.434871673583984,-0.44270238280296326,-0.5991073250770569,0.3400854468345642,-0.21839475631713867,0.35229265689849854,-0.38242924213409424
5.455009698867798,-0.44346532225608826,-0.6010147333145142,0.3412298858165741,-0.21915769577026367,0.3530556261539459,-0.38319218158721924
5.475070476531982,-0.44384679198265076,-0.6017776727676392,0.3423742949962616,-0.21992065012454987,0.3534370958805084,-0.3847180902957916
5.495131731033325,-0.44384679198265076,-0.6029220819473267,0.343137264251709,-0.22106507420539856,0.3542000353336334,-0.3877699077129364
5.515223026275635,-0.44422826170921326,-0.6036850810050964,0.344663143157959,-0.22220951318740845,0.3572518527507782,-0.3904402256011963
5.535303354263306,-0.44422826170921326,-0.6052109599113464,0.34657052159309387,-0.22220951318740845,0.3599221706390381,-0.3908216953277588
5.555349111557007,-0.44460976123809814,-0.6059738993644714,0.34771496057510376,-0.22259098291397095,0.36488136649131775,-0.3931105434894562
5.575433015823364,-0.44613564014434814,-0.6074998378753662,0.34962233901023865,-0.22449836134910583,0.369840532541275,-0.39387351274490356
5.595508813858032,-0.44651713967323303,-0.6094071865081787,0.35152971744537354,-0.22449836134910583,0.3713664412498474,-0.39692530035972595
5.615561485290527,-0.44689860939979553,-0.6109330654144287,0.3530556261539459,-0.22564278542995453,0.3721294105052948,-0.3995956480503082
5.635710954666138,-0.4484245181083679,-0.6132219433784485,0.3553444743156433,-0.22678720951080322,0.3728923499584198,-0.4007400572299957
5.655749320983887,-0.4491874575614929,-0.6147478222846985,0.3564889132976532,-0.22793163359165192,0.3740367889404297,-0.4011215269565582
5.675814390182495,-0.4510948359966278,-0.6155108213424683,0.3576333224773407,-0.2286945879459381,0.3747997283935547,-0.4030289053916931
5.695889234542847,-0.4510948359966278,-0.6166552305221558,0.3591592311859131,-0.2294575423002243,0.3747997283935547,-0.404173344373703
5.7159905433654785,-0.4510948359966278,-0.6181811094284058,0.3606851398944855,-0.2294575423002243,0.3747997283935547,-0.4072251319885254
5.736034870147705,-0.4510948359966278,-0.6197070479393005,0.3622110188007355,-0.2294575423002243,0.3759441375732422,-0.4087510406970978
5.756279230117798,-0.4514763057231903,-0.6204699873924255,0.36373692750930786,-0.2298390120267868,0.37861448526382446,-0.4091325104236603
5.776371717453003,-0.4522392749786377,-0.6219958662986755,0.36564430594444275,-0.230601966381073,0.38242924213409424,-0.41065841913223267
5.79646635055542,-0.4533836841583252,-0.6239032745361328,0.36678874492645264,-0.2313649207353592,0.386243999004364,-0.41371023654937744
5.816528081893921,-0.4545281231403351,-0.6250476837158203,0.368314653635025,-0.23289081454277039,0.3896772861480713,-0.41599908471107483
5.836615562438965,-0.4556725323200226,-0.6269550919532776,0.3709849715232849,-0.23441672325134277,0.3927290737628937,-0.4171435236930847
5.856677293777466,-0.45643550157546997,-0.6284809708595276,0.3732738196849823,-0.23517967760562897,0.39425498247146606,-0.4194323718547821
5.876751899719238,-0.45719844102859497,-0.6300068497657776,0.3744182586669922,-0.23632410168647766,0.39501792192459106,-0.4205767810344696
5.896912336349487,-0.45834288001060486,-0.6319142580032349,0.3763256371021271,-0.23670557141304016,0.39616236090660095,-0.4217212200164795
5.916931629180908,-0.45834288001060486,-0.6330586671829224,0.3770885765552521,-0.23670557141304016,0.39654383063316345,-0.42515450716018677
5.937095403671265,-0.45834288001060486,-0.6345845460891724,0.37861448526382446,-0.23785001039505005,0.39654383063316345,-0.42706188559532166
5.957192420959473,-0.45872434973716736,-0.6364919543266296,0.38090333342552185,-0.23899443447589874,0.39845120906829834,-0.42782482504844666
5.977286338806152,-0.45910581946372986,-0.6376363635063171,0.38242924213409424,-0.23975738883018494,0.4015030264854431,-0.43011367321014404
5.997996091842651,-0.45986875891685486,-0.6391623020172119,0.3843366205692291,-0.24090181291103363,0.404936283826828,-0.4331654906272888
6.018115758895874,-0.46063172817230225,-0.6410696506500244,0.3873884081840515,-0.24166475236415863,0.4091325104236603,-0.4346913993358612
6.038175106048584,-0.46139466762542725,-0.6425955891609192,0.3885328471660614,-0.24166475236415863,0.41180285811424255,-0.4350728690624237
6.058619976043701,-0.46292057633399963,-0.6433585286140442,0.3896772861480713,-0.24280919134616852,0.41294726729393005,-0.4369802474975586
6.078713655471802,-0.4640650153160095,-0.6448844075202942,0.3912031650543213,-0.2443350851535797,0.41638055443763733,-0.4396505653858185
6.098793983459473,-0.465209424495697,-0.6467918157577515,0.3923476040363312,-0.2450980395078659,0.4190509021282196,-0.44193941354751587
6.1188647747039795,-0.4655908942222595,-0.6483176946640015,0.3934920132160187,-0.2454795092344284,0.4194323718547821,-0.44384679198265076
6.139000654220581,-0.4655908942222595,-0.6506065726280212,0.39539939165115356,-0.2466239482164383,0.4198138415813446,-0.44537270069122314
6.159038066864014,-0.4655908942222595,-0.6517509818077087,0.39768826961517334,-0.247768372297287,0.4209582805633545,-0.44613564014434814
6.179092884063721,-0.4655908942222595,-0.6525139212608337,0.39883267879486084,-0.247768372297287,0.4217212200164795,-0.4495689272880554
6.199181795120239,-0.4659723937511444,-0.6540398001670837,0.4015030264854431,-0.24929426610469818,0.42553597688674927,-0.4526207447052002
6.219299077987671,-0.4659723937511444,-0.6555657386779785,0.4030289053916931,-0.24929426610469818,0.42820629477500916,-0.4537651538848877
6.239418268203735,-0.4667353332042694,-0.6570916175842285,0.4045548141002655,-0.2500572204589844,0.42973220348358154,-0.4552910625934601
6.259519815444946,-0.4678797721862793,-0.6582360863685608,0.4072251319885254,-0.25158312916755676,0.4339284300804138,-0.45796138048171997
6.279592752456665,-0.4686427116394043,-0.6597619652748108,0.4079881012439728,-0.25234606862068176,0.4365987777709961,-0.46025025844573975
6.2996602058410645,-0.4705500900745392,-0.6612878441810608,0.4091325104236603,-0.25310903787612915,0.4388876259326935,-0.46101319789886475
6.319732189178467,-0.4713130295276642,-0.6635767221450806,0.41142138838768005,-0.25425344705581665,0.44079500436782837,-0.46253910660743713
6.339804649353027,-0.4720759987831116,-0.6654840707778931,0.41294726729393005,-0.25539788603782654,0.44346532225608826,-0.4648279547691345
6.359856367111206,-0.4728389382362366,-0.6666285395622253,0.41447317600250244,-0.25577935576438904,0.44575417041778564,-0.4671168029308319
6.379949331283569,-0.4732204079627991,-0.6685358881950378,0.41676202416419983,-0.25654229521751404,0.44728007912635803,-0.4697871506214142
6.40002703666687,-0.4732204079627991,-0.6704432964324951,0.4194323718547821,-0.2576867341995239,0.4495689272880554,-0.4720759987831116
6.420095443725586,-0.4732204079627991,-0.6712062358856201,0.4209582805633545,-0.2580682039260864,0.4526207447052002,-0.47474631667137146
6.4401915073394775,-0.4732204079627991,-0.6727321147918701,0.4232471287250519,-0.2595941126346588,0.45643550157546997,-0.47779813408851624
6.460333585739136,-0.47398337721824646,-0.6746395230293274,0.42553597688674927,-0.2595941126346588,0.45872434973716736,-0.4797055125236511
6.48038911819458,-0.47512778639793396,-0.6761654019355774,0.42744335532188416,-0.2595941126346588,0.46330204606056213,-0.4804684519767761
6.500452518463135,-0.47627222537994385,-0.6784542798995972,0.43049514293670654,-0.2607385218143463,0.4674982726573944,-0.4819943606853485
6.520565509796143,-0.47741663455963135,-0.6803616285324097,0.43240252137184143,-0.2618829607963562,0.4705500900745392,-0.4854276478290558
6.540579557418823,-0.47856107354164124,-0.6815060377120972,0.4339284300804138,-0.2634088695049286,0.47398337721824646,-0.4873350262641907
6.5606689453125,-0.4797055125236511,-0.6837949156761169,0.4358358085155487,-0.2637903392314911,0.47589075565338135,-0.4877164959907532
6.580750942230225,-0.4804684519767761,-0.6853207945823669,0.4381246566772461,-0.2641718089580536,0.47741663455963135,-0.49000534415245056
6.60082745552063,-0.4812313914299011,-0.6868467330932617,0.439269095659256,-0.265697717666626,0.47856107354164124,-0.49191272258758545
6.620901346206665,-0.4819943606853485,-0.6887540817260742,0.44155794382095337,-0.26684215664863586,0.4800869822502136,-0.4953460097312927
6.6409711837768555,-0.4827573001384735,-0.6906614899635315,0.44346532225608826,-0.26684215664863586,0.481612890958786,-0.4983977973461151
6.661031484603882,-0.4827573001384735,-0.6914244294166565,0.44460976123809814,-0.26798656582832336,0.4858091175556183,-0.50030517578125
6.681174039840698,-0.4839017391204834,-0.6937133073806763,0.44728007912635803,-0.26836803555488586,0.4892423748970032,-0.5045014023780823
6.70123291015625,-0.4846646785736084,-0.6960021257400513,0.4499503970146179,-0.27027541399002075,0.49420157074928284,-0.5064088106155396
6.721290111541748,-0.4850461483001709,-0.6971465349197388,0.4526207447052002,-0.27103838324546814,0.4999237060546875,-0.506790280342102
6.741385221481323,-0.4854276478290558,-0.699816882610321,0.4556725323200226,-0.27141985297203064,0.5018310546875,-0.5098420977592468
6.761460304260254,-0.4858091175556183,-0.7021057605743408,0.45834288001060486,-0.272945761680603,0.5041199326515198,-0.5121309161186218
6.781532287597656,-0.4865720570087433,-0.7036316394805908,0.46063172817230225,-0.273708701133728,0.506790280342102,-0.5128938555717468
6.8016862869262695,-0.4877164959907532,-0.7059205174446106,0.46292057633399963,-0.2740901708602905,0.5086976289749146,-0.5159456729888916
6.821739673614502,-0.4880979657173157,-0.7082093358039856,0.4655908942222595,-0.2756160795688629,0.5106050372123718,-0.5178530812263489
6.841845273971558,-0.4880979657173157,-0.7097352743148804,0.4671168029308319,-0.2756160795688629,0.5109865069389343,-0.5216678380966187
6.861961603164673,-0.4888609051704407,-0.7120240926742554,0.4697871506214142,-0.2763790488243103,0.5132753252983093,-0.5235751867294312
6.882049560546875,-0.48962387442588806,-0.7143129706382751,0.4724574685096741,-0.2782863974571228,0.5174715518951416,-0.5251010656356812
6.902105093002319,-0.49076828360557556,-0.7166017889976501,0.47474631667137146,-0.2786678969860077,0.5228122472763062,-0.5277714133262634
6.922540664672852,-0.49191272258758545,-0.7188906669616699,0.47703516483306885,-0.2801937758922577,0.5277714133262634,-0.5319676399230957
6.942631721496582,-0.49267566204071045,-0.7219424843788147,0.4804684519767761,-0.2821011543273926,0.5323491096496582,-0.5319676399230957
6.962710618972778,-0.49382010102272034,-0.7238498330116272,0.483138769865036,-0.2821011543273926,0.533875048160553,-0.5350194573402405
6.982795238494873,-0.49420157074928284,-0.7257572412490845,0.4850461483001709,-0.2821011543273926,0.5357823967933655,-0.5373083353042603
7.0028839111328125,-0.49496451020240784,-0.7280460596084595,0.4884794354438782,-0.28324559330940247,0.5380712747573853,-0.5392156839370728
7.022944450378418,-0.49496451020240784,-0.7299534678459167,0.49000534415245056,-0.28248265385627747,0.5399786233901978,-0.541886031627655
7.043015241622925,-0.49496451020240784,-0.7318608164787292,0.49191272258758545,-0.28553444147109985,0.5437933802604675,-0.5437933802604675
7.063058376312256,-0.4953460097312927,-0.7345311641693115,0.49496451020240784,-0.28591591119766235,0.5445563197135925,-0.5472266674041748
7.083134412765503,-0.4953460097312927,-0.7364385724067688,0.4972533881664276,-0.28744181990623474,0.5506599545478821,-0.5498970150947571
7.103193759918213,-0.4961089491844177,-0.7387273907661438,0.50030517578125,-0.28934919834136963,0.5560005903244019,-0.5518043637275696
7.1232757568359375,-0.4968718886375427,-0.7417792081832886,0.5045014023780823,-0.28896772861480713,0.5590524077415466,-0.5556191205978394
7.143351316452026,-0.4972533881664276,-0.7444495558738708,0.507553219795227,-0.28896772861480713,0.5621042251586914,-0.5590524077415466
7.163461208343506,-0.4972533881664276,-0.7463569045066833,0.5102235674858093,-0.28934919834136963,0.5643930435180664,-0.5590524077415466
7.183501243591309,-0.4980163276195526,-0.7490272521972656,0.5136567950248718,-0.28934919834136963,0.5647745728492737,-0.5617227554321289
7.203575372695923,-0.4991607666015625,-0.7509346008300781,0.5163271427154541,-0.290875107049942,0.568970799446106,-0.5647745728492737
7.223644971847534,-0.50030517578125,-0.7528420090675354,0.5189974904060364,-0.2924010157585144,0.5708781480789185,-0.5659189820289612
7.243731737136841,-0.5006866455078125,-0.7551308274269104,0.5216678380966187,-0.2927824854850769,0.5735484957695007,-0.5701152086257935
7.2638258934021,-0.5014495849609375,-0.7570382356643677,0.5251010656356812,-0.2943083941936493,0.579270601272583,-0.572022557258606
7.2838592529296875,-0.5022125840187073,-0.7597085237503052,0.5277714133262634,-0.2946898639202118,0.5815594792366028,-0.5743114352226257
7.304016351699829,-0.5022125840187073,-0.761997401714325,0.5312047004699707,-0.2958342730998993,0.5853742361068726,-0.578507661819458
7.324105739593506,-0.5022125840187073,-0.7650492191314697,0.5350194573402405,-0.29812315106391907,0.5888075232505798,-0.5804150700569153
7.344183444976807,-0.5025940537452698,-0.7681010365486145,0.5376898050308228,-0.2977416515350342,0.5907148718833923,-0.5838482975959778
7.364618301391602,-0.5025940537452698,-0.7711527943611145,0.5407415628433228,-0.29812315106391907,0.5937666893005371,-0.5861371755599976
7.3847105503082275,-0.5029755234718323,-0.7745860815048218,0.5449378490447998,-0.30003052949905396,0.5975814461708069,-0.5884260535240173
7.404773235321045,-0.5037384629249573,-0.777256429195404,0.5491340756416321,-0.30117493867874146,0.6013962030410767,-0.5910963416099548
7.424837350845337,-0.5045014023780823,-0.7799267768859863,0.5514228940010071,-0.30117493867874146,0.6055924296379089,-0.5937666893005371
7.444929838180542,-0.5052643418312073,-0.7825970649719238,0.5548561811447144,-0.30193790793418884,0.6086442470550537,-0.5956740379333496
7.465072870254517,-0.5056458115577698,-0.7852674126625061,0.5582894682884216,-0.30384528636932373,0.6113145351409912,-0.5979629158973694
7.485089302062988,-0.506790280342102,-0.7867932915687561,0.5605783462524414,-0.30384528636932373,0.613603413105011,-0.6025406122207642
7.50518274307251,-0.507553219795227,-0.7898451089859009,0.5640115737915039,-0.30498969554901123,0.6158922910690308,-0.6036850810050964
7.5252556800842285,-0.507553219795227,-0.7913710474967957,0.5663004517555237,-0.30460822582244873,0.6212329268455505,-0.6094071865081787
7.545463800430298,-0.509079098701477,-0.7932783961296082,0.5685893297195435,-0.30498969554901123,0.6250476837158203,-0.612077534198761
7.565558433532715,-0.5094605684280396,-0.7967116832733154,0.5716410875320435,-0.3057526648044586,0.6300068497657776,-0.614366352558136
7.585647344589233,-0.5094605684280396,-0.7993820309638977,0.5743114352226257,-0.3076600432395935,0.6353475451469421,-0.6177996397018433
7.605717182159424,-0.5098420977592468,-0.8024337887763977,0.5781261920928955,-0.309567391872406,0.6403067111968994,-0.620851457118988
7.625816345214844,-0.5098420977592468,-0.80663001537323,0.5830853581428528,-0.3114747703075409,0.6456473469734192,-0.6254291534423828
7.645876884460449,-0.5098420977592468,-0.8096818327903748,0.5869001150131226,-0.3110933005809784,0.6509880423545837,-0.6300068497657776
7.6659746170043945,-0.5109865069389343,-0.8134965896606445,0.5914778113365173,-0.3110933005809784,0.6563286781311035,-0.6345845460891724
7.686068534851074,-0.5117494463920593,-0.8169298768043518,0.5956740379333496,-0.3114747703075409,0.6601434350013733,-0.6383993029594421
7.7064690589904785,-0.5125123858451843,-0.8196002244949341,0.5983443856239319,-0.3114747703075409,0.6635767221450806,-0.6422140598297119
7.7265613079071045,-0.5136567950248718,-0.8226520419120789,0.6010147333145142,-0.3122377395629883,0.6662470698356628,-0.6448844075202942
7.746634244918823,-0.5148012638092041,-0.8245593905448914,0.6029220819473267,-0.3133821487426758,0.6719691753387451,-0.6483176946640015
7.7670557498931885,-0.5159456729888916,-0.8279926776885986,0.6055924296379089,-0.31452658772468567,0.6765468716621399,-0.6532768607139587
7.7870917320251465,-0.5167086124420166,-0.8318074345588684,0.6090257167816162,-0.31490805745124817,0.6826505064964294,-0.6582360863685608
7.807223320007324,-0.5167086124420166,-0.8340963125228882,0.6124590039253235,-0.31681543588638306,0.6891355514526367,-0.6616693139076233
7.827282190322876,-0.5167086124420166,-0.8375295400619507,0.6158922910690308,-0.31834134459495544,0.692568838596344,-0.6666285395622253
7.847352504730225,-0.5170900821685791,-0.8421072959899902,0.621614396572113,-0.31910428404808044,0.7021057605743408,-0.6704432964324951
7.867418527603149,-0.5170900821685791,-0.8451590538024902,0.6250476837158203,-0.31872281432151794,0.7085908055305481,-0.6746395230293274
7.887526988983154,-0.5178530812263489,-0.84897381067276,0.6300068497657776,-0.31910428404808044,0.7150759100914001,-0.6818875670433044
7.907587289810181,-0.5182345509529114,-0.8520256280899048,0.6338216066360474,-0.31910428404808044,0.7207980751991272,-0.689517080783844
7.927676200866699,-0.5189974904060364,-0.8550774455070496,0.6376363635063171,-0.32063019275665283,0.7310978770256042,-0.6940947771072388
7.947798252105713,-0.5197604298591614,-0.8604180812835693,0.6429770588874817,-0.32101166248321533,0.7383459210395813,-0.6994354128837585
7.9679036140441895,-0.5205233693122864,-0.8661402463912964,0.648699164390564,-0.3213931620121002,0.7452124953269958,-0.7063019871711731
7.987969398498535,-0.5212863087654114,-0.8703364729881287,0.6521324515342712,-0.3217746317386627,0.7501716613769531,-0.7131685614585876
8.008105516433716,-0.5220493078231812,-0.8741512298583984,0.656710147857666,-0.3263523280620575,0.7558938264846802,-0.7169833183288574
8.02817177772522,-0.5239566564559937,-0.8787289261817932,0.6616693139076233,-0.32673379778862,0.7639048099517822,-0.7234683632850647
8.04825472831726,-0.5239566564559937,-0.884069561958313,0.6662470698356628,-0.32673379778862,0.770008385181427,-0.728427529335022
8.068318128585815,-0.5239566564559937,-0.889028787612915,0.6715877056121826,-0.32673379778862,0.7749675512313843,-0.7337682247161865
8.088390827178955,-0.5239566564559937,-0.8932250142097473,0.6769283413887024,-0.3274967670440674,0.778782308101654,-0.7379644513130188
8.108463764190674,-0.5239566564559937,-0.8958953022956848,0.6799801588058472,-0.3274967670440674,0.7879377603530884,-0.7440680265426636
8.129400730133057,-0.5239566564559937,-0.9000915288925171,0.6857023239135742,-0.32978561520576477,0.7974746227264404,-0.7490272521972656
8.149601459503174,-0.5243381261825562,-0.9065766334533691,0.6921873688697815,-0.33016708493232727,0.8077744841575623,-0.7543678879737854
8.169594287872314,-0.5243381261825562,-0.9111543297767639,0.697528064250946,-0.32940414547920227,0.8161669373512268,-0.7600900530815125
8.189965009689331,-0.5247195959091187,-0.9142061471939087,0.7021057605743408,-0.33054855465888977,0.8237964510917664,-0.7658121585845947
8.210047006607056,-0.5254825949668884,-0.9199283123016357,0.7070649266242981,-0.33245593309402466,0.8356221914291382,-0.7753490209579468
8.23012113571167,-0.5262455344200134,-0.9252689480781555,0.7116426229476929,-0.33093002438545227,0.8493552803993225,-0.7795453071594238
8.250175476074219,-0.5281528830528259,-0.9294651746749878,0.7154573798179626,-0.32940414547920227,0.8550774455070496,-0.7837415337562561
8.270283937454224,-0.5281528830528259,-0.9328984618186951,0.7204165458679199,-0.33131152391433716,0.8607995510101318,-0.7909895181655884
8.290337800979614,-0.5281528830528259,-0.9386205673217773,0.724612832069397,-0.33245593309402466,0.8680475950241089,-0.7986190319061279
8.31039810180664,-0.5285343527793884,-0.9428167939186096,0.7280460596084595,-0.3290226459503174,0.8783474564552307,-0.8020523190498352
8.33048391342163,-0.5292973518371582,-0.9454871416091919,0.7318608164787292,-0.32673379778862,0.8836880922317505,-0.80357825756073
8.350608348846436,-0.5292973518371582,-0.9504463076591492,0.7375829815864563,-0.3290226459503174,0.890554666519165,-0.8085374236106873
8.370670080184937,-0.5292973518371582,-0.9546425342559814,0.7413977384567261,-0.32673379778862,0.9016174674034119,-0.8173113465309143
8.391278505325317,-0.5292973518371582,-0.9576943516731262,0.7433050870895386,-0.32063019275665283,0.9061951637268066,-0.8188372850418091
8.41137146949768,-0.5289158225059509,-0.960746169090271,0.7490272521972656,-0.3244449496269226,0.9103913903236389,-0.8207446336746216
8.431441068649292,-0.5289158225059509,-0.967994213104248,0.7539864182472229,-0.3271152675151825,0.9199283123016357,-0.8291370868682861
8.451494455337524,-0.5292973518371582,-0.9733348488807678,0.7551308274269104,-0.31643396615982056,0.9328984618186951,-0.8318074345588684
8.47158670425415,-0.5289158225059509,-0.9756237268447876,0.7581826448440552,-0.31567102670669556,0.9309910535812378,-0.8318074345588684
8.491647481918335,-0.5292973518371582,-0.9794384837150574,0.7631418108940125,-0.3263523280620575,0.9332799315452576,-0.8363851308822632
8.511703252792358,-0.5292973518371582,-0.9851605892181396,0.7673380374908447,-0.3236820101737976,0.9416723847389221,-0.8432517051696777
8.53179669380188,-0.5315861701965332,-0.9901197552680969,0.7696269154548645,-0.3118562698364258,0.951972246170044,-0.84592205286026
8.551918506622314,-0.5312047004699707,-0.9927901029586792,0.7734416723251343,-0.308804452419281,0.9504463076591492,-0.8447775840759277
8.5719895362854,-0.5296788215637207,-0.9946975111961365,0.7761120200157166,-0.31643396615982056,0.9470130205154419,-0.846684992313385
8.59212875366211,-0.5312047004699707,-1.0008010864257812,0.778782308101654,-0.31490805745124817,0.9561684727668762,-0.8520256280899048
8.612232446670532,-0.5315861701965332,-1.0072861909866333,0.7829785346984863,-0.30270084738731384,0.968757152557373,-0.8531700372695923
8.632294416427612,-0.5312047004699707,-1.0111008882522583,0.7856488823890686,-0.29850462079048157,0.9676127433776855,-0.8516441583633423
8.652475833892822,-0.5300602912902832,-1.0114823579788208,0.7887006998062134,-0.3061341345310211,0.9611276388168335,-0.8527885675430298
8.672571897506714,-0.5296788215637207,-1.0145342350006104,0.7909895181655884,-0.3091859221458435,0.9657053351402283,-0.8562218546867371
8.69265103340149,-0.5315861701965332,-1.0194933414459229,0.7951858043670654,-0.30422675609588623,0.9775310754776001,-0.8573662638664246
8.712708234786987,-0.5312047004699707,-1.0217822790145874,0.7986190319061279,-0.2943083941936493,0.9790570139884949,-0.8569847941398621
8.732806205749512,-0.5304417610168457,-1.019874930381775,0.8016708493232727,-0.29926756024360657,0.970283031463623,-0.8569847941398621
8.75287389755249,-0.5281528830528259,-1.022926688194275,0.8031967878341675,-0.3057526648044586,0.9733348488807678,-0.8619440197944641
8.772934198379517,-0.5300602912902832,-1.029411792755127,0.80510413646698,-0.30346378684043884,0.9878309369087219,-0.8638513684272766
8.79302167892456,-0.5300602912902832,-1.0343708992004395,0.8093003630638123,-0.2962157726287842,0.9946975111961365,-0.8638513684272766
8.81310224533081,-0.5281528830528259,-1.033226490020752,0.8127336502075195,-0.30155640840530396,0.9908827543258667,-0.8642328381538391
8.833153247833252,-0.5270084738731384,-1.0328450202941895,0.813878059387207,-0.3076600432395935,0.9885938763618469,-0.8680475950241089
8.853232860565186,-0.5285343527793884,-1.0393301248550415,0.8173113465309143,-0.30498969554901123,0.9996566772460938,-0.8699550032615662
8.873333930969238,-0.5289158225059509,-1.0393301248550415,0.8207446336746216,-0.2927824854850769,1.0023269653320312,-0.8691920638084412
8.89340329170227,-0.5266270041465759,-1.0416189432144165,0.8253223299980164,-0.30003052949905396,0.995078980922699,-0.8676661252975464
8.913920164108276,-0.5254825949668884,-1.0450522899627686,0.8257037997245789,-0.29812315106391907,0.995841920375824,-0.8718623518943787
8.934005737304688,-0.5258640646934509,-1.047722578048706,0.8253223299980164,-0.291638046503067,1.0004196166992188,-0.8707179427146912
8.954102754592896,-0.5258640646934509,-1.050011396408081,0.8253223299980164,-0.2939268946647644,1.0027084350585938,-0.8691920638084412
8.974175453186035,-0.5258640646934509,-1.052681803703308,0.8291370868682861,-0.3057526648044586,1.0019454956054688,-0.8703364729881287
8.99427843093872,-0.5258640646934509,-1.0584038496017456,0.8314259648323059,-0.30193790793418884,1.0046159029006958,-0.8730067610740662
9.014351606369019,-0.5262455344200134,-1.0599298477172852,0.8329518437385559,-0.28667888045310974,1.0065232515335083,-0.8703364729881287
9.034396409988403,-0.5258640646934509,-1.0584038496017456,0.8356221914291382,-0.28591591119766235,0.9988937377929688,-0.8688105344772339
9.05448031425476,-0.5258640646934509,-1.0587854385375977,0.8371480703353882,-0.28896772861480713,0.9969863295555115,-0.8691920638084412
9.07455849647522,-0.5258640646934509,-1.0603113174438477,0.837911069393158,-0.28324559330940247,1.0046159029006958,-0.8710994124412537
9.09461236000061,-0.5258640646934509,-1.0599298477172852,0.840962827205658,-0.2790493667125702,1.0088120698928833,-0.8699550032615662
9.114694833755493,-0.5247195959091187,-1.0618371963500977,0.8451590538024902,-0.28744181990623474,1.0053788423538208,-0.8691920638084412
9.134772300720215,-0.5228122472763062,-1.0671778917312622,0.8440146446228027,-0.2805752754211426,1.0065232515335083,-0.8726252913475037
9.154850244522095,-0.5224307775497437,-1.0713740587234497,0.8440146446228027,-0.26913100481033325,1.0099564790725708,-0.8691920638084412
9.174968957901001,-0.5228122472763062,-1.0717555284500122,0.8440146446228027,-0.27180132269859314,1.0076676607131958,-0.8684290647506714
9.195037841796875,-0.5228122472763062,-1.0725184679031372,0.848210871219635,-0.28362706303596497,1.0069047212600708,-0.8695735335350037
9.215089797973633,-0.5235751867294312,-1.0732814073562622,0.8512626886367798,-0.2821011543273926,1.0099564790725708,-0.8710994124412537
9.235259056091309,-0.5235751867294312,-1.0732814073562622,0.8531700372695923,-0.27218279242515564,1.0114823579788208,-0.8718623518943787
9.255340337753296,-0.5231937170028687,-1.0744259357452393,0.8558403849601746,-0.27027541399002075,1.0046159029006958,-0.8688105344772339
9.275420665740967,-0.5228122472763062,-1.0759518146514893,0.8562218546867371,-0.272945761680603,1.0057603120803833,-0.8730067610740662
9.295982599258423,-0.5228122472763062,-1.0763332843780518,0.8566033244132996,-0.26951247453689575,1.0145342350006104,-0.8710994124412537
9.316077470779419,-0.5228122472763062,-1.0816738605499268,0.8615625500679016,-0.2752346098423004,1.0175859928131104,-0.8703364729881287
9.336220026016235,-0.5209048390388489,-1.0851072072982788,0.8619440197944641,-0.2782863974571228,1.0202564001083374,-0.8756771087646484
9.356236457824707,-0.5205233693122864,-1.0835813283920288,0.8615625500679016,-0.26874953508377075,1.0164415836334229,-0.8699550032615662
9.376335144042969,-0.5209048390388489,-1.0820554494857788,0.8653773069381714,-0.2744716703891754,1.0072861909866333,-0.8703364729881287
9.396417140960693,-0.5216678380966187,-1.0843442678451538,0.8665217161178589,-0.26951247453689575,1.0095750093460083,-0.8760585784912109
9.416557312011719,-0.5193789601325989,-1.0828183889389038,0.8661402463912964,-0.2573052644729614,1.0103379487991333,-0.8718623518943787
9.43669056892395,-0.5205233693122864,-1.0797665119171143,0.8714808821678162,-0.2611200213432312,1.0011825561523438,-0.8691920638084412
9.456732034683228,-0.5212863087654114,-1.0828183889389038,0.8772030472755432,-0.26951247453689575,1.0061417818069458,-0.8737697601318359
9.476794719696045,-0.5209048390388489,-1.0843442678451538,0.8726252913475037,-0.2607385218143463,1.0149157047271729,-0.8718623518943787
9.496886730194092,-0.5209048390388489,-1.0809109210968018,0.8695735335350037,-0.25577935576438904,1.0095750093460083,-0.8676661252975464
9.516992807388306,-0.5209048390388489,-1.0828183889389038,0.8718623518943787,-0.26798656582832336,1.0080491304397583,-0.8714808821678162
9.537036418914795,-0.5209048390388489,-1.0870145559310913,0.8730067610740662,-0.26798656582832336,1.0164415836334229,-0.8745326995849609
9.557127952575684,-0.5212863087654114,-1.0873960256576538,0.8710994124412537,-0.2584496736526489,1.0141527652740479,-0.8730067610740662
9.57731580734253,-0.5209048390388489,-1.0854886770248413,0.8733882904052734,-0.2611200213432312,1.0027084350585938,-0.8718623518943787
9.597365856170654,-0.5209048390388489,-1.0862516164779663,0.8756771087646484,-0.26722362637519836,1.0049973726272583,-0.8752956390380859
9.617462396621704,-0.5216678380966187,-1.0912108421325684,0.8752956390380859,-0.2569237947463989,1.0088120698928833,-0.8745326995849609
9.63753342628479,-0.5220493078231812,-1.0923552513122559,0.8764400482177734,-0.2500572204589844,1.0122454166412354,-0.8737697601318359
9.657585859298706,-0.5212863087654114,-1.0915923118591309,0.8775845170021057,-0.25539788603782654,1.0057603120803833,-0.8718623518943787
9.677862882614136,-0.5209048390388489,-1.0954070091247559,0.8775845170021057,-0.2611200213432312,1.0061417818069458,-0.8760585784912109
9.697953224182129,-0.5209048390388489,-1.098840355873108,0.8775845170021057,-0.25425344705581665,1.0187304019927979,-0.8756771087646484
9.71804428100586,-0.5209048390388489,-1.099603295326233,0.8787289261817932,-0.25158312916755676,1.0191118717193604,-0.8749141693115234
9.738120317459106,-0.5205233693122864,-1.0984588861465454,0.8829251527786255,-0.2653162479400635,1.0122454166412354,-0.8752956390380859
9.758198022842407,-0.5209048390388489,-1.1022735834121704,0.8806362748146057,-0.2584496736526489,1.0141527652740479,-0.8802548050880432
9.77826976776123,-0.5212863087654114,-1.1030365228652954,0.8802548050880432,-0.248531311750412,1.019874930381775,-0.8772030472755432
9.798341274261475,-0.5209048390388489,-1.101129174232483,0.883306622505188,-0.25425344705581665,1.0133898258209229,-0.8775845170021057
9.818424701690674,-0.5193789601325989,-1.104943871498108,0.8844510316848755,-0.2595941126346588,1.0137712955474854,-0.8829251527786255
9.838492631912231,-0.5182345509529114,-1.1072328090667725,0.8852140307426453,-0.25310903787612915,1.0164415836334229,-0.8787289261817932
9.85876750946045,-0.5186160206794739,-1.1064698696136475,0.8844510316848755,-0.25310903787612915,1.0164415836334229,-0.8783474564552307
9.87889552116394,-0.5167086124420166,-1.104943871498108,0.8871213793754578,-0.2641718089580536,1.0107194185256958,-0.8791103959083557
9.898987293243408,-0.5167086124420166,-1.1072328090667725,0.889028787612915,-0.2660791873931885,1.0137712955474854,-0.8813992738723755
9.919023275375366,-0.5167086124420166,-1.1053253412246704,0.88979172706604,-0.25501641631126404,1.0179674625396729,-0.8806362748146057
9.939114570617676,-0.5167086124420166,-1.10685133934021,0.8916990756988525,-0.2599755823612213,1.0072861909866333,-0.8768215179443359
9.959186553955078,-0.5167086124420166,-1.101892113685608,0.8901731967926025,-0.2584496736526489,1.0084306001663208,-0.882543683052063
9.979246616363525,-0.5167086124420166,-1.101892113685608,0.8901731967926025,-0.25196459889411926,1.0099564790725708,-0.8764400482177734
9.999338150024414,-0.5167086124420166,-1.1022735834121704,0.892080545425415,-0.2576867341995239,1.0126268863677979,-0.8794918656349182
10.01944613456726,-0.5167086124420166,-1.1079957485198975,0.890554666519165,-0.25463491678237915,1.0133898258209229,-0.881017804145813
10.039543628692627,-0.5167086124420166,-1.1118104457855225,0.890554666519165,-0.24929426610469818,1.0149157047271729,-0.8794918656349182
10.059672832489014,-0.5163271427154541,-1.10990309715271,0.890554666519165,-0.25387197732925415,1.0088120698928833,-0.8794918656349182
10.07975172996521,-0.5163271427154541,-1.10837721824646,0.892080545425415,-0.2653162479400635,1.0042344331741333,-0.881017804145813
10.099870204925537,-0.5170900821685791,-1.104180932044983,0.892080545425415,-0.2603570520877838,1.0095750093460083,-0.8829251527786255
10.119961023330688,-0.5178530812263489,-1.104180932044983,0.8932250142097473,-0.2500572204589844,1.0126268863677979,-0.881017804145813
10.14003324508667,-0.5167086124420166,-1.099603295326233,0.8943694233894348,-0.24280919134616852,1.0091935396194458,-0.8791103959083557
10.160080194473267,-0.5163271427154541,-1.0961699485778809,0.8947508931159973,-0.24929426610469818,1.0034713745117188,-0.8783474564552307
10.180167198181152,-0.5155642032623291,-1.0973143577575684,0.892080545425415,-0.2466239482164383,1.0130083560943604,-0.8806362748146057
10.200243473052979,-0.5159456729888916,-1.099603295326233,0.8936064839363098,-0.24280919134616852,1.0233081579208374,-0.8783474564552307
10.220297813415527,-0.5155642032623291,-1.102655053138733,0.8943694233894348,-0.2473868876695633,1.0183489322662354,-0.8794918656349182
10.240396976470947,-0.5148012638092041,-1.103417992591858,0.8932250142097473,-0.2500572204589844,1.0107194185256958,-0.8798733353614807
10.260485887527466,-0.5155642032623291,-1.1022735834121704,0.892080545425415,-0.247768372297287,1.0099564790725708,-0.8787289261817932
10.280544519424438,-0.5170900821685791,-1.101129174232483,0.8936064839363098,-0.25120165944099426,1.0080491304397583,-0.8787289261817932
10.301103115081787,-0.5170900821685791,-1.101892113685608,0.8939879536628723,-0.2462424635887146,1.0084306001663208,-0.8794918656349182
10.321188688278198,-0.5167086124420166,-1.099603295326233,0.8932250142097473,-0.23670557141304016,1.0111008882522583,-0.8787289261817932
10.341288328170776,-0.5167086124420166,-1.101129174232483,0.8943694233894348,-0.23937590420246124,1.0057603120803833,-0.8760585784912109
10.361329317092896,-0.5163271427154541,-1.1053253412246704,0.8951323628425598,-0.2470054179430008,1.0160601139068604,-0.8806362748146057
10.381418228149414,-0.5167086124420166,-1.103417992591858,0.8928435444831848,-0.23975738883018494,1.0225452184677124,-0.8768215179443359
10.401488304138184,-0.5163271427154541,-1.1045624017715454,0.8981841802597046,-0.2500572204589844,1.021400809288025,-0.8760585784912109
10.421560525894165,-0.5163271427154541,-1.1079957485198975,0.8970397710800171,-0.2466239482164383,1.0168230533599854,-0.8798733353614807
10.442644119262695,-0.5167086124420166,-1.1045624017715454,0.8939879536628723,-0.23556114733219147,1.0156786441802979,-0.8783474564552307
10.46273159980774,-0.5167086124420166,-1.1053253412246704,0.8974212408065796,-0.247768372297287,1.0023269653320312,-0.8760585784912109
10.48283052444458,-0.5170900821685791,-1.107614278793335,0.8970397710800171,-0.25234606862068176,1.0061417818069458,-0.8829251527786255
10.503323078155518,-0.5170900821685791,-1.10990309715271,0.88979172706604,-0.23289081454277039,1.0065232515335083,-0.8798733353614807
10.523418426513672,-0.5167086124420166,-1.10990309715271,0.8855955004692078,-0.22678720951080322,1.0019454956054688,-0.8749141693115234
10.54348087310791,-0.5159456729888916,-1.10837721824646,0.8855955004692078,-0.23823148012161255,0.997367799282074,-0.8775845170021057
10.563548803329468,-0.5167086124420166,-1.1118104457855225,0.8878843188285828,-0.2504386901855469,1.0053788423538208,-0.881017804145813
10.583637952804565,-0.5170900821685791,-1.1160067319869995,0.8867399096488953,-0.23937590420246124,1.0168230533599854,-0.882543683052063
10.60370397567749,-0.5167086124420166,-1.1190584897994995,0.889028787612915,-0.230601966381073,1.0130083560943604,-0.8802548050880432
10.623762845993042,-0.5163271427154541,-1.1160067319869995,0.890554666519165,-0.2302204966545105,1.0000381469726562,-0.8798733353614807
10.643856287002563,-0.5159456729888916,-1.114862322807312,0.890554666519165,-0.23517967760562897,0.9981307983398438,-0.8802548050880432
10.663923978805542,-0.5167086124420166,-1.1160067319869995,0.8909361362457275,-0.230601966381073,1.0072861909866333,-0.8813992738723755
10.683977365493774,-0.5167086124420166,-1.115625262260437,0.8932250142097473,-0.22487983107566833,1.0114823579788208,-0.8791103959083557
10.70406460762024,-0.5151827335357666,-1.11142897605896,0.8947508931159973,-0.2317463904619217,1.0030899047851562,-0.8787289261817932
10.724133014678955,-0.5132753252983093,-1.1137179136276245,0.8951323628425598,-0.23823148012161255,1.0011825561523438,-0.8829251527786255
10.744186401367188,-0.5136567950248718,-1.1152437925338745,0.8947508931159973,-0.23250934481620789,1.0107194185256958,-0.8821622133255005
10.76429295539856,-0.5140383243560791,-1.114099383354187,0.8951323628425598,-0.23212787508964539,1.0099564790725708,-0.8787289261817932
10.784393787384033,-0.5136567950248718,-1.116388201713562,0.8993285894393921,-0.24204623699188232,1.0057603120803833,-0.8806362748146057
10.80448603630066,-0.5136567950248718,-1.1167696714401245,0.8978027105331421,-0.23327229917049408,1.0057603120803833,-0.8813992738723755
10.824534177780151,-0.5151827335357666,-1.1182955503463745,0.8978027105331421,-0.22755016386508942,1.0057603120803833,-0.8772030472755432
10.844642877578735,-0.5155642032623291,-1.1144808530807495,0.8985656499862671,-0.2302204966545105,0.9962233901023865,-0.8760585784912109
10.86470651626587,-0.5151827335357666,-1.1152437925338745,0.8985656499862671,-0.23785001039505005,0.997367799282074,-0.8787289261817932
10.884782791137695,-0.5163271427154541,-1.119439959526062,0.8981841802597046,-0.23479819297790527,1.0049973726272583,-0.8783474564552307
10.90487003326416,-0.5167086124420166,-1.117914080619812,0.8993285894393921,-0.2298390120267868,1.0088120698928833,-0.8783474564552307
10.924939155578613,-0.5140383243560791,-1.1205843687057495,0.9012359976768494,-0.24128328263759613,1.0027084350585938,-0.8764400482177734
10.945002555847168,-0.5136567950248718,-1.122110366821289,0.9012359976768494,-0.24090181291103363,1.0046159029006958,-0.8798733353614807
10.965076923370361,-0.5140383243560791,-1.1240177154541016,0.9012359976768494,-0.23403525352478027,1.0103379487991333,-0.8779659867286682
10.985128402709961,-0.5144197940826416,-1.120202898979187,0.9027618765830994,-0.23746852576732635,1.0084306001663208,-0.8764400482177734
11.005192995071411,-0.5144197940826416,-1.120202898979187,0.9035248160362244,-0.2447165697813034,1.0030899047851562,-0.8794918656349182
11.025331497192383,-0.5163271427154541,-1.125162124633789,0.9039062857627869,-0.23479819297790527,1.0053788423538208,-0.8779659867286682
11.045385122299194,-0.5167086124420166,-1.125925064086914,0.9046692848205566,-0.22755016386508942,1.0057603120803833,-0.8779659867286682
11.065454721450806,-0.5163271427154541,-1.1217288970947266,0.9046692848205566,-0.23556114733219147,0.995841920375824,-0.8752956390380859
11.085616111755371,-0.5167086124420166,-1.1247806549072266,0.9046692848205566,-0.2443350851535797,1.0008010864257812,-0.8798733353614807
11.105719804763794,-0.5167086124420166,-1.1247806549072266,0.9042877554893494,-0.23708705604076385,1.0141527652740479,-0.8783474564552307
11.125788450241089,-0.5163271427154541,-1.1240177154541016,0.9061951637268066,-0.23632410168647766,1.0103379487991333,-0.8764400482177734
11.146313667297363,-0.5136567950248718,-1.1285953521728516,0.9073395729064941,-0.2454795092344284,1.0046159029006958,-0.881017804145813
11.1664297580719,-0.5136567950248718,-1.1285953521728516,0.9061951637268066,-0.23403525352478027,1.0072861909866333,-0.8783474564552307
11.186481952667236,-0.5136567950248718,-1.126688003540039,0.9081025123596191,-0.23403525352478027,1.0114823579788208,-0.8764400482177734
11.206593990325928,-0.5136567950248718,-1.125162124633789,0.9088655114173889,-0.2447165697813034,1.0049973726272583,-0.8787289261817932
11.226661205291748,-0.5140383243560791,-1.1297398805618286,0.9077210426330566,-0.23746852576732635,1.0069047212600708,-0.8787289261817932
11.246732950210571,-0.5151827335357666,-1.1339360475540161,0.9084840416908264,-0.2286945879459381,1.0126268863677979,-0.8787289261817932
11.2670316696167,-0.5148012638092041,-1.1335545778274536,0.9077210426330566,-0.2309834510087967,1.0049973726272583,-0.8775845170021057
11.287117719650269,-0.5140383243560791,-1.128213882446289,0.9077210426330566,-0.24319066107273102,0.9985122680664062,-0.8794918656349182
11.30721926689148,-0.5148012638092041,-1.1293584108352661,0.9061951637268066,-0.2470054179430008,1.0042344331741333,-0.8806362748146057
11.327254056930542,-0.5151827335357666,-1.1305028200149536,0.9069581031799316,-0.23517967760562897,1.0103379487991333,-0.8791103959083557
11.347347259521484,-0.5144197940826416,-1.1263065338134766,0.9092469811439514,-0.23250934481620789,1.0069047212600708,-0.8783474564552307
11.367437839508057,-0.5128938555717468,-1.125925064086914,0.9100099205970764,-0.23785001039505005,1.0004196166992188,-0.8794918656349182
11.387489080429077,-0.5117494463920593,-1.1289769411087036,0.9088655114173889,-0.23289081454277039,1.0049973726272583,-0.8791103959083557
11.407588243484497,-0.5136567950248718,-1.1263065338134766,0.9084840416908264,-0.2290760725736618,1.0095750093460083,-0.8775845170021057
11.427674531936646,-0.5121309161186218,-1.1285953521728516,0.9103913903236389,-0.23975738883018494,1.0061417818069458,-0.8775845170021057
11.447737216949463,-0.5113679766654968,-1.1327916383743286,0.9100099205970764,-0.23746852576732635,1.0057603120803833,-0.8791103959083557
11.467845916748047,-0.5113679766654968,-1.1312657594680786,0.9103913903236389,-0.23479819297790527,1.0053788423538208,-0.8779659867286682
11.487927198410034,-0.5113679766654968,-1.1312657594680786,0.9115357995033264,-0.2473868876695633,0.9962233901023865,-0.8768215179443359
11.507982730865479,-0.5117494463920593,-1.1327916383743286,0.9103913903236389,-0.2458609938621521,1.0000381469726562,-0.8806362748146057
11.528072118759155,-0.5128938555717468,-1.1312657594680786,0.9096284508705139,-0.23556114733219147,1.0049973726272583,-0.8783474564552307
11.548147201538086,-0.5117494463920593,-1.1324101686477661,0.9111543297767639,-0.23975738883018494,0.9969863295555115,-0.8756771087646484
11.568212270736694,-0.5117494463920593,-1.1335545778274536,0.9111543297767639,-0.24204623699188232,1.0008010864257812,-0.8791103959083557
11.588330268859863,-0.5136567950248718,-1.1335545778274536,0.9103913903236389,-0.2317463904619217,1.0065232515335083,-0.8772030472755432
11.608404159545898,-0.5144197940826416,-1.1331731081008911,0.9122987985610962,-0.23250934481620789,1.0080491304397583,-0.8760585784912109
11.628498077392578,-0.5128938555717468,-1.1331731081008911,0.9119172692298889,-0.24242770671844482,1.0030899047851562,-0.8791103959083557
11.648725748062134,-0.5148012638092041,-1.1369879245758057,0.9119172692298889,-0.23517967760562897,1.0057603120803833,-0.8779659867286682
11.668722152709961,-0.5151827335357666,-1.1373693943023682,0.9122987985610962,-0.2283131182193756,1.0084306001663208,-0.8775845170021057
11.688787937164307,-0.5140383243560791,-1.1350804567337036,0.9134432077407837,-0.23861294984817505,0.9996566772460938,-0.8749141693115234
11.708887577056885,-0.5140383243560791,-1.1369879245758057,0.9138246774673462,-0.24052032828330994,1.0030899047851562,-0.8794918656349182
11.728951454162598,-0.5151827335357666,-1.1373693943023682,0.9134432077407837,-0.230601966381073,1.0095750093460083,-0.8768215179443359
11.749022245407104,-0.5144197940826416,-1.1358433961868286,0.9130617380142212,-0.2302204966545105,1.0072861909866333,-0.8749141693115234
11.769163131713867,-0.5136567950248718,-1.1335545778274536,0.9153505563735962,-0.23937590420246124,1.0057603120803833,-0.8760585784912109
11.789224863052368,-0.5136567950248718,-1.1362248659133911,0.9149690866470337,-0.23594263195991516,1.0111008882522583,-0.8775845170021057
11.80927562713623,-0.5140383243560791,-1.1381323337554932,0.9153505563735962,-0.22793163359165192,1.0168230533599854,-0.8760585784912109
11.829360961914062,-0.5136567950248718,-1.1350804567337036,0.9164950251579285,-0.2302204966545105,1.0152971744537354,-0.8745326995849609
11.849427700042725,-0.5132753252983093,-1.1369879245758057,0.9157320261001587,-0.23594263195991516,1.0091935396194458,-0.8752956390380859
11.869555711746216,-0.5136567950248718,-1.1369879245758057,0.9145876169204712,-0.2313649207353592,1.0126268863677979,-0.8756771087646484
11.889567136764526,-0.5140383243560791,-1.1350804567337036,0.9142061471939087,-0.2290760725736618,1.0137712955474854,-0.8741512298583984
11.909621477127075,-0.5136567950248718,-1.1362248659133911,0.9153505563735962,-0.23479819297790527,1.0057603120803833,-0.8737697601318359
11.929688453674316,-0.5136567950248718,-1.1377508640289307,0.9142061471939087,-0.2309834510087967,1.0084306001663208,-0.8764400482177734
11.94975209236145,-0.5136567950248718,-1.1366063356399536,0.9138246774673462,-0.22106507420539856,1.0114823579788208,-0.8726252913475037
11.969838380813599,-0.5136567950248718,-1.1320286989212036,0.9157320261001587,-0.22335393726825714,1.0065232515335083,-0.8714808821678162
11.989914178848267,-0.5132753252983093,-1.1343175172805786,0.9153505563735962,-0.2309834510087967,1.0080491304397583,-0.8760585784912109
12.009980916976929,-0.5140383243560791,-1.1385138034820557,0.9138246774673462,-0.21915769577026367,1.0183489322662354,-0.8745326995849609
12.030069828033447,-0.5144197940826416,-1.1396582126617432,0.9138246774673462,-0.2149614691734314,1.0194933414459229,-0.8733882904052734
12.05013132095337,-0.5136567950248718,-1.1362248659133911,0.9142061471939087,-0.22182802855968475,1.0114823579788208,-0.8737697601318359
12.070209264755249,-0.5117494463920593,-1.1381323337554932,0.9138246774673462,-0.2298390120267868,1.0076676607131958,-0.8760585784912109
12.09034776687622,-0.5140383243560791,-1.1411840915679932,0.9149690866470337,-0.22297245264053345,1.0149157047271729,-0.8779659867286682
12.110351324081421,-0.5167086124420166,-1.1438543796539307,0.9157320261001587,-0.2141985148191452,1.0210193395614624,-0.8764400482177734
12.130443096160889,-0.5201418995857239,-1.1434729099273682,0.9164950251579285,-0.21839475631713867,1.0149157047271729,-0.8760585784912109
12.150516271591187,-0.5281528830528259,-1.1423285007476807,0.917639434337616,-0.22678720951080322,1.0141527652740479,-0.8791103959083557
12.17057180404663,-0.5395971536636353,-1.1411840915679932,0.918402373790741,-0.2309834510087967,1.0202564001083374,-0.8791103959083557
12.19078278541565,-0.5525673031806946,-1.1388952732086182,0.919165313243866,-0.23556114733219147,1.0263599157333374,-0.8821622133255005
12.210787534713745,-0.5636301040649414,-1.1369879245758057,0.9195467829704285,-0.23746852576732635,1.0248340368270874,-0.8844510316848755
12.231065034866333,-0.5727855563163757,-1.1362248659133911,0.9199283123016357,-0.24204623699188232,1.0187304019927979,-0.8863584399223328
12.251173973083496,-0.5819409489631653,-1.1335545778274536,0.9195467829704285,-0.2508201599121094,1.0145342350006104,-0.8878843188285828
12.271236896514893,-0.5903334021568298,-1.1324101686477661,0.918402373790741,-0.2615014910697937,1.0160601139068604,-0.89131760597229
12.291476249694824,-0.5964370369911194,-1.1327916383743286,0.9172579646110535,-0.2725642919540405,1.0240710973739624,-0.8966583013534546
12.311563491821289,-0.6021591424942017,-1.1331731081008911,0.9180209040641785,-0.2756160795688629,1.031700611114502,-0.9031433463096619
12.331635236740112,-0.6063553690910339,-1.1331731081008911,0.9180209040641785,-0.2790493667125702,1.0408560037612915,-0.9042877554893494
12.351993799209595,-0.6113145351409912,-1.1316472291946411,0.919165313243866,-0.28934919834136963,1.043907880783081,-0.9092469811439514
12.372087001800537,-0.6166552305221558,-1.1316472291946411,0.9199283123016357,-0.28973066806793213,1.051918864250183,-0.9157320261001587
12.392168998718262,-0.6219958662986755,-1.1278324127197266,0.9199283123016357,-0.28858625888824463,1.0599298477172852,-0.917639434337616
12.412227869033813,-0.6280995011329651,-1.124399185180664,0.9206912517547607,-0.2962157726287842,1.0576409101486206,-0.9195467829704285
12.43233871459961,-0.6311513185501099,-1.124399185180664,0.9210727214813232,-0.30041199922561646,1.057259440422058,-0.927176296710968
12.452402114868164,-0.6357290148735046,-1.1240177154541016,0.9203097820281982,-0.2954528033733368,1.0648889541625977,-0.9283207654953003
12.472450256347656,-0.6399252414703369,-1.120965838432312,0.9203097820281982,-0.30117493867874146,1.0648889541625977,-0.9283207654953003
12.492544889450073,-0.6422140598297119,-1.1205843687057495,0.9206912517547607,-0.31376364827156067,1.0702296495437622,-0.9325169920921326
12.512627363204956,-0.647936224937439,-1.123636245727539,0.9206912517547607,-0.3099488914012909,1.0851072072982788,-0.9378576278686523
12.532700538635254,-0.6517509818077087,-1.1263065338134766,0.9206912517547607,-0.30460822582244873,1.0889219045639038,-0.9378576278686523
12.552840232849121,-0.6563286781311035,-1.1232547760009766,0.9206912517547607,-0.3091859221458435,1.0862516164779663,-0.9386205673217773
12.572928190231323,-0.6589990258216858,-1.120202898979187,0.9203097820281982,-0.31872281432151794,1.0801479816436768,-0.9401465058326721
12.593011379241943,-0.6624323129653931,-1.120202898979187,0.9203097820281982,-0.31834134459495544,1.0889219045639038,-0.9458686113357544
12.613283395767212,-0.6670100092887878,-1.118677020072937,0.9203097820281982,-0.3114747703075409,1.100366234779358,-0.9470130205154419
12.63336181640625,-0.6685358881950378,-1.114099383354187,0.9206912517547607,-0.31605249643325806,1.0973143577575684,-0.9466315507888794
12.653433561325073,-0.6689173579216003,-1.11295485496521,0.9206912517547607,-0.3282597064971924,1.0973143577575684,-0.9508277773857117
12.673716306686401,-0.6700618267059326,-1.1198214292526245,0.9210727214813232,-0.3244449496269226,1.1079957485198975,-0.9538795948028564
12.693804502487183,-0.6715877056121826,-1.123636245727539,0.9210727214813232,-0.31795987486839294,1.1205843687057495,-0.9546425342559814
12.713876485824585,-0.6723506450653076,-1.121347427368164,0.9206912517547607,-0.3229190409183502,1.117914080619812,-0.9538795948028564
12.734074354171753,-0.6738765835762024,-1.1175326108932495,0.9210727214813232,-0.33665215969085693,1.109140157699585,-0.9561684727668762
12.75416088104248,-0.6773098111152649,-1.120202898979187,0.9206912517547607,-0.33321890234947205,1.1144808530807495,-0.959983229637146
12.774229764938354,-0.6792172193527222,-1.1198214292526245,0.9210727214813232,-0.3225375711917877,1.1217288970947266,-0.9580758213996887
12.794318675994873,-0.6811245679855347,-1.1144808530807495,0.9225986003875732,-0.325970858335495,1.1152437925338745,-0.9576943516731262
12.814404487609863,-0.6799801588058472,-1.1118104457855225,0.9206912517547607,-0.33207446336746216,1.1102845668792725,-0.962272047996521
12.834534645080566,-0.6799801588058472,-1.109140157699585,0.919165313243866,-0.3282597064971924,1.121347427368164,-0.9611276388168335
12.854866743087769,-0.6830319762229919,-1.1072328090667725,0.9222171306610107,-0.33550775051116943,1.127450942993164,-0.961509108543396
12.874961137771606,-0.6826505064964294,-1.10990309715271,0.9206912517547607,-0.3389410376548767,1.1324101686477661,-0.9676127433776855
12.895024299621582,-0.6830319762229919,-1.1102845668792725,0.917639434337616,-0.3290226459503174,1.1358433961868286,-0.9664682745933533
12.91539454460144,-0.6834134459495544,-1.1057069301605225,0.9164950251579285,-0.33360037207603455,1.1335545778274536,-0.9649423956871033
12.93548035621643,-0.6849393248558044,-1.1057069301605225,0.9187838435173035,-0.344663143157959,1.1289769411087036,-0.9660868048667908
12.955575227737427,-0.6860837936401367,-1.10685133934021,0.9153505563735962,-0.3377965986728668,1.1305028200149536,-0.9691386222839355
12.975621700286865,-0.6887540817260742,-1.106088399887085,0.9145876169204712,-0.3286411762237549,1.1305028200149536,-0.9660868048667908
12.995737314224243,-0.6891355514526367,-1.100366234779358,0.9145876169204712,-0.33360037207603455,1.1240177154541016,-0.9657053351402283
13.015808582305908,-0.689517080783844,-1.1007477045059204,0.9145876169204712,-0.3408484160900116,1.1278324127197266,-0.969520092010498
13.035884618759155,-0.6914244294166565,-1.10685133934021,0.9145876169204712,-0.33360037207603455,1.1385138034820557,-0.9691386222839355
13.055959224700928,-0.691042959690094,-1.1087586879730225,0.9149690866470337,-0.3271152675151825,1.1469062566757202,-0.9691386222839355
13.076040029525757,-0.690280020236969,-1.1072328090667725,0.9149690866470337,-0.33398184180259705,1.1423285007476807,-0.968757152557373
13.09609079360962,-0.6906614899635315,-1.1045624017715454,0.916113555431366,-0.343900203704834,1.1415655612945557,-0.9714275002479553
13.116239309310913,-0.6914244294166565,-1.109140157699585,0.916876494884491,-0.3404669165611267,1.1495765447616577,-0.9740977883338928
13.136343002319336,-0.6940947771072388,-1.1095216274261475,0.916876494884491,-0.32673379778862,1.1545357704162598,-0.9721904397010803
13.156384229660034,-0.6952391862869263,-1.1030365228652954,0.917639434337616,-0.3286411762237549,1.1423285007476807,-0.9721904397010803
13.176477670669556,-0.6952391862869263,-1.098077416419983,0.9172579646110535,-0.3381780683994293,1.1350804567337036,-0.9740977883338928
13.196532011032104,-0.6956206560134888,-1.0976959466934204,0.9157320261001587,-0.33474478125572205,1.1419470310211182,-0.9744792580604553
13.216592073440552,-0.6967650651931763,-1.0976959466934204,0.916113555431366,-0.32673379778862,1.1511024236679077,-0.9737163186073303
13.23677921295166,-0.6963835954666138,-1.0927367210388184,0.9157320261001587,-0.3282597064971924,1.1495765447616577,-0.9729533791542053
13.256864547729492,-0.6952391862869263,-1.0923552513122559,0.9164950251579285,-0.3423742949962616,1.1430914402008057,-0.9744792580604553
13.276946783065796,-0.6952391862869263,-1.0938811302185059,0.916113555431366,-0.3400854468345642,1.1507209539413452,-0.9763866662979126
13.297301530838013,-0.6960021257400513,-1.0885404348373413,0.9149690866470337,-0.33588922023773193,1.1530098915100098,-0.9748607873916626
13.317381858825684,-0.6963835954666138,-1.0912108421325684,0.919165313243866,-0.34809643030166626,1.1476691961288452,-0.9767681360244751
13.337506294250488,-0.6963835954666138,-1.0900664329528809,0.9130617380142212,-0.3370336592197418,1.1457618474960327,-0.9790570139884949
13.357772827148438,-0.6971465349197388,-1.0851072072982788,0.9092469811439514,-0.3374151289463043,1.1423285007476807,-0.9725719094276428
13.377867937088013,-0.699053943157196,-1.0873960256576538,0.916113555431366,-0.35191118717193604,1.1434729099273682,-0.9775310754776001
13.397940397262573,-0.700579822063446,-1.0904479026794434,0.916876494884491,-0.35191118717193604,1.1511024236679077,-0.9817273020744324
13.418001890182495,-0.7001983523368835,-1.0870145559310913,0.9157320261001587,-0.34885939955711365,1.1552987098693848,-0.9798199534416199
13.438090324401855,-0.7009612917900085,-1.0862516164779663,0.9172579646110535,-0.3622110188007355,1.1465247869491577,-0.9790570139884949
13.458223581314087,-0.700579822063446,-1.0858701467514038,0.9134432077407837,-0.3591592311859131,1.1507209539413452,-0.9836347103118896
13.478232383728027,-0.700579822063446,-1.0805294513702393,0.9115357995033264,-0.34809643030166626,1.1541543006896973,-0.9786755442619324
13.49847412109375,-0.7009612917900085,-1.0797665119171143,0.9145876169204712,-0.3580147922039032,1.1476691961288452,-0.9775310754776001
13.518542051315308,-0.700579822063446,-1.0820554494857788,0.9164950251579285,-0.36373692750930786,1.1556801795959473,-0.9840161800384521
13.53864598274231,-0.7009612917900085,-1.0831998586654663,0.9096284508705139,-0.34733349084854126,1.1606394052505493,-0.9809643626213074
13.558687925338745,-0.7024872303009033,-1.0816738605499268,0.9050507545471191,-0.3427557647228241,1.1591134071350098,-0.9748607873916626
13.578788757324219,-0.7028687000274658,-1.0770962238311768,0.9065766334533691,-0.3553444743156433,1.1495765447616577,-0.9767681360244751
13.598947048187256,-0.7036316394805908,-1.0816738605499268,0.9103913903236389,-0.3706035017967224,1.1606394052505493,-0.9798199534416199
13.6189603805542,-0.7051575779914856,-1.0843442678451538,0.9065766334533691,-0.3561074137687683,1.1663614511489868,-0.9798199534416199
13.639103889465332,-0.7059205174446106,-1.0793850421905518,0.9042877554893494,-0.3526741564273834,1.1591134071350098,-0.9760051965713501
13.659141540527344,-0.7047760486602783,-1.0774776935577393,0.9061951637268066,-0.3603036403656006,1.1526284217834473,-0.9775310754776001
13.67919635772705,-0.7040131092071533,-1.0774776935577393,0.9035248160362244,-0.3549630045890808,1.1572060585021973,-0.9802014231681824
13.699328184127808,-0.7047760486602783,-1.0748074054718018,0.9035248160362244,-0.35114824771881104,1.1652170419692993,-0.9794384837150574
13.719408512115479,-0.7051575779914856,-1.0748074054718018,0.9039062857627869,-0.3606851398944855,1.1640726327896118,-0.9786755442619324
13.739610433578491,-0.7032501697540283,-1.0782406330108643,0.9042877554893494,-0.36335545778274536,1.1659799814224243,-0.9832532405853271
13.759753227233887,-0.7043945789337158,-1.0755703449249268,0.9039062857627869,-0.3549630045890808,1.1697947978973389,-0.9802014231681824
13.779776811599731,-0.7040131092071533,-1.0751888751983643,0.9042877554893494,-0.36335545778274536,1.1625467538833618,-0.9786755442619324
13.799885749816895,-0.7036316394805908,-1.0732814073562622,0.9042877554893494,-0.36640727519989014,1.1564431190490723,-0.9836347103118896
13.820023536682129,-0.7051575779914856,-1.0751888751983643,0.9035248160362244,-0.361066609621048,1.1610208749771118,-0.9817273020744324
13.840095043182373,-0.7059205174446106,-1.0759518146514893,0.9023804068565369,-0.3591592311859131,1.1610208749771118,-0.9805828928947449
13.860150575637817,-0.7055390477180481,-1.0751888751983643,0.9023804068565369,-0.36678874492645264,1.1541543006896973,-0.9805828928947449
13.880236148834229,-0.7059205174446106,-1.0767147541046143,0.9023804068565369,-0.36449989676475525,1.1602579355239868,-0.9828717708587646
13.900344610214233,-0.7059205174446106,-1.0736628770828247,0.9027618765830994,-0.3606851398944855,1.1659799814224243,-0.9809643626213074
13.920400619506836,-0.7055390477180481,-1.0698481798171997,0.9027618765830994,-0.36755168437957764,1.1602579355239868,-0.9805828928947449
13.94051742553711,-0.7055390477180481,-1.0679408311843872,0.9042877554893494,-0.369840532541275,1.1625467538833618,-0.9843976497650146
13.960620880126953,-0.7055390477180481,-1.0679408311843872,0.9027618765830994,-0.3606851398944855,1.1694133281707764,-0.9813458323478699
13.980659484863281,-0.7055390477180481,-1.0664149522781372,0.9019989371299744,-0.3580147922039032,1.1678873300552368,-0.9805828928947449
14.000754117965698,-0.7055390477180481,-1.0629816055297852,0.9023804068565369,-0.3694590628147125,1.1594948768615723,-0.9798199534416199
14.020838737487793,-0.7051575779914856,-1.0618371963500977,0.9019989371299744,-0.3759441375732422,1.1602579355239868,-0.9832532405853271
14.040898323059082,-0.7059205174446106,-1.0645074844360352,0.9008545279502869,-0.369840532541275,1.1652170419692993,-0.9832532405853271
14.060989141464233,-0.7059205174446106,-1.058022379875183,0.8993285894393921,-0.3702220320701599,1.1606394052505493,-0.9790570139884949
14.081066846847534,-0.7055390477180481,-1.0568779706954956,0.9008545279502869,-0.38281071186065674,1.1518653631210327,-0.9809643626213074
14.101127624511719,-0.7059205174446106,-1.0576409101486206,0.8966583013534546,-0.36793315410614014,1.1564431190490723,-0.9821087718009949
14.121257543563843,-0.7059205174446106,-1.057259440422058,0.8978027105331421,-0.36526283621788025,1.1575875282287598,-0.9782940149307251
14.141440391540527,-0.7059205174446106,-1.054207682609558,0.8978027105331421,-0.3725108802318573,1.1579689979553223,-0.9813458323478699
14.161539077758789,-0.7055390477180481,-1.054207682609558,0.8981841802597046,-0.3774700462818146,1.1572060585021973,-0.9802014231681824
14.18199372291565,-0.7063019871711731,-1.0595483779907227,0.8974212408065796,-0.36793315410614014,1.1640726327896118,-0.9798199534416199
14.202083826065063,-0.7070649266242981,-1.0603113174438477,0.8974212408065796,-0.36488136649131775,1.1667429208755493,-0.9775310754776001
14.222154140472412,-0.7074463963508606,-1.0568779706954956,0.8974212408065796,-0.3767071068286896,1.1568245887756348,-0.9775310754776001
14.242220878601074,-0.7078278660774231,-1.0587854385375977,0.8970397710800171,-0.37975889444351196,1.1587319374084473,-0.9817273020744324
14.262309789657593,-0.7093538045883179,-1.0576409101486206,0.8951323628425598,-0.36907759308815,1.1675058603286743,-0.9809643626213074
14.282400608062744,-0.7101167440414429,-1.057259440422058,0.8966583013534546,-0.36793315410614014,1.1644541025161743,-0.9779125452041626
14.302458763122559,-0.7085908055305481,-1.054207682609558,0.8974212408065796,-0.38128480315208435,1.1556801795959473,-0.9805828928947449
14.322641849517822,-0.7078278660774231,-1.0584038496017456,0.8966583013534546,-0.38014039397239685,1.1614023447036743,-0.9821087718009949
14.342643022537231,-0.7078278660774231,-1.0584038496017456,0.8958953022956848,-0.369840532541275,1.1678873300552368,-0.9813458323478699
14.362698078155518,-0.7074463963508606,-1.0587854385375977,0.8978027105331421,-0.38090333342552185,1.1640726327896118,-0.9775310754776001
14.382817268371582,-0.7070649266242981,-1.0606927871704102,0.8974212408065796,-0.38014039397239685,1.1633096933364868,-0.9832532405853271
14.402889490127563,-0.7078278660774231,-1.0568779706954956,0.8951323628425598,-0.3767071068286896,1.1621652841567993,-0.9786755442619324
