liuyurong129/humanoid-gym/humanoid/data/actual_q_20250523-024723.csv
timestamp,joint_1,joint_2,joint_3,joint_4,joint_5,joint_6
9.226799011230469e-05,-0.00019073777366429567,0.001716639962978661,-0.0013351644156500697,-0.000572213320992887,-0.000572213320992887,-0.00019073777366429567
0.020159006118774414,-0.00019073777366429567,0.001716639962978661,-0.0009536888683214784,-0.000572213320992887,-0.000572213320992887,-0.00019073777366429567
0.04024696350097656,-0.00019073777366429567,0.001716639962978661,-0.0009536888683214784,-0.00019073777366429567,-0.000572213320992887,-0.00019073777366429567
0.06031513214111328,-0.00019073777366429567,0.0013351644156500697,-0.000572213320992887,-0.000572213320992887,-0.0009536888683214784,-0.00019073777366429567
0.08036613464355469,-0.00019073777366429567,-0.00019073777366429567,-0.00019073777366429567,-0.000572213320992887,-0.0009536888683214784,-0.00019073777366429567
0.10044717788696289,0.00019073777366429567,-0.0032425422687083483,0.00019073777366429567,-0.000572213320992887,-0.000572213320992887,-0.00019073777366429567
0.12054800987243652,0.00019073777366429567,-0.004386968910694122,0.00019073777366429567,-0.000572213320992887,-0.000572213320992887,-0.00019073777366429567
0.1406080722808838,0.00019073777366429567,-0.005531395319849253,0.00019073777366429567,-0.000572213320992887,-0.000572213320992887,-0.00019073777366429567
0.16064453125,-0.00019073777366429567,-0.005912871100008488,0.00019073777366429567,-0.000572213320992887,-0.000572213320992887,-0.00019073777366429567
0.18079161643981934,0.00019073777366429567,-0.00667582219466567,0.00019073777366429567,-0.000572213320992887,-0.000572213320992887,-0.00019073777366429567
0.2009422779083252,0.00019073777366429567,-0.00667582219466567,0.00019073777366429567,-0.000572213320992887,-0.000572213320992887,-0.00019073777366429567
0.2209925651550293,0.00019073777366429567,-0.0078202486038208,0.000572213320992887,-0.000572213320992887,-0.000572213320992887,-0.00019073777366429567
0.24102115631103516,0.00019073777366429567,-0.0078202486038208,0.000572213320992887,-0.000572213320992887,-0.000572213320992887,-0.00019073777366429567
0.2611091136932373,0.00019073777366429567,-0.008964675478637218,0.0009536888683214784,-0.000572213320992887,-0.000572213320992887,-0.00019073777366429567
0.2812306880950928,0.00019073777366429567,-0.010490577667951584,0.0009536888683214784,-0.000572213320992887,-0.000572213320992887,-0.00019073777366429567
0.30147838592529297,0.00019073777366429567,-0.01125352829694748,0.0009536888683214784,-0.000572213320992887,-0.000572213320992887,-0.00019073777366429567
0.32140016555786133,0.00019073777366429567,-0.01201647985726595,0.0009536888683214784,-0.000572213320992887,-0.000572213320992887,-0.00019073777366429567
0.3418312072753906,0.00019073777366429567,-0.012779430486261845,0.0009536888683214784,-0.000572213320992887,-0.000572213320992887,-0.00019073777366429567
0.36195802688598633,0.00019073777366429567,-0.013542382046580315,0.0009536888683214784,-0.000572213320992887,-0.000572213320992887,-0.00019073777366429567
0.3820335865020752,0.000572213320992887,-0.013923857361078262,0.0009536888683214784,-0.000572213320992887,-0.0009536888683214784,-0.00019073777366429567
0.4020540714263916,0.0009536888683214784,-0.01506828423589468,0.0009536888683214784,-0.000572213320992887,-0.0009536888683214784,-0.00019073777366429567
0.42214393615722656,0.0009536888683214784,-0.016212711110711098,0.0013351644156500697,-0.000572213320992887,-0.000572213320992887,-0.00019073777366429567
0.4422333240509033,0.0009536888683214784,-0.01735713705420494,0.0013351644156500697,-0.000572213320992887,-0.0009536888683214784,-0.00019073777366429567
0.46231698989868164,0.0009536888683214784,-0.01888304017484188,0.0013351644156500697,-0.000572213320992887,-0.00019073777366429567,-0.00019073777366429567
0.4824037551879883,0.0009536888683214784,-0.01926451548933983,0.0013351644156500697,-0.000572213320992887,-0.000572213320992887,-0.00019073777366429567
0.5024816989898682,0.0009536888683214784,-0.020027466118335724,0.0013351644156500697,-0.000572213320992887,-0.000572213320992887,-0.00019073777366429567
0.522608757019043,0.0009536888683214784,-0.02079041674733162,0.0013351644156500697,-0.000572213320992887,-0.000572213320992887,-0.00019073777366429567
0.5426995754241943,0.0009536888683214784,-0.021171892061829567,0.001716639962978661,-0.000572213320992887,-0.0009536888683214784,-0.00019073777366429567
0.5628058910369873,0.0009536888683214784,-0.02193484455347061,0.0020981156267225742,-0.000572213320992887,-0.000572213320992887,-0.000572213320992887
0.5829274654388428,0.0009536888683214784,-0.023460745811462402,0.0024795911740511656,-0.000572213320992887,-0.000572213320992887,-0.00019073777366429567
0.6029963493347168,0.0009536888683214784,-0.024223696440458298,0.0020981156267225742,-0.000572213320992887,-0.000572213320992887,-0.000572213320992887
0.6229798793792725,0.0009536888683214784,-0.024605173617601395,0.0020981156267225742,-0.000572213320992887,-0.000572213320992887,-0.000572213320992887
0.6431069374084473,0.0009536888683214784,-0.02536812424659729,0.0020981156267225742,-0.000572213320992887,-0.000572213320992887,-0.000572213320992887
0.6631441116333008,0.0009536888683214784,-0.02689402550458908,0.0024795911740511656,-0.000572213320992887,-0.000572213320992887,-0.000572213320992887
0.6832046508789062,0.0009536888683214784,-0.027656977996230125,0.0024795911740511656,-0.000572213320992887,-0.000572213320992887,-0.000572213320992887
0.7032995223999023,0.0009536888683214784,-0.028038453310728073,0.0024795911740511656,-0.000572213320992887,-0.0009536888683214784,-0.000572213320992887
0.7233502864837646,0.0009536888683214784,-0.02841992862522602,0.0024795911740511656,-0.0009536888683214784,-0.0009536888683214784,-0.000572213320992887
0.7434804439544678,0.0009536888683214784,-0.029182879254221916,0.0024795911740511656,-0.000572213320992887,-0.0009536888683214784,-0.000572213320992887
0.7636034488677979,0.0013351644156500697,-0.03032730519771576,0.002861066721379757,-0.0009536888683214784,-0.000572213320992887,-0.000572213320992887
0.7836828231811523,0.0009536888683214784,-0.031090257689356804,0.002861066721379757,-0.0009536888683214784,-0.0009536888683214784,-0.000572213320992887
0.8037295341491699,0.0009536888683214784,-0.03223468363285065,0.0032425422687083483,-0.0009536888683214784,-0.000572213320992887,-0.000572213320992887
0.8238861560821533,0.0009536888683214784,-0.03376058489084244,0.0032425422687083483,-0.0009536888683214784,-0.000572213320992887,-0.000572213320992887
0.8439476490020752,0.0013351644156500697,-0.03452353551983833,0.0032425422687083483,-0.0009536888683214784,-0.0009536888683214784,-0.000572213320992887
0.8639974594116211,0.0013351644156500697,-0.03528648987412453,0.0032425422687083483,-0.0009536888683214784,-0.0009536888683214784,-0.0009536888683214784
0.8843898773193359,0.0013351644156500697,-0.035667963325977325,0.0032425422687083483,-0.0009536888683214784,-0.0009536888683214784,-0.0009536888683214784
0.904498815536499,0.0013351644156500697,-0.03643091395497322,0.0032425422687083483,-0.0013351644156500697,-0.0009536888683214784,-0.0009536888683214784
0.9246017932891846,0.0020981156267225742,-0.03757534176111221,0.0032425422687083483,-0.0013351644156500697,-0.0013351644156500697,-0.0009536888683214784
0.9447817802429199,0.0020981156267225742,-0.03833829239010811,0.0036240178160369396,-0.0013351644156500697,-0.0009536888683214784,-0.0009536888683214784
0.9649524688720703,0.0020981156267225742,-0.0398641936480999,0.004005493130534887,-0.0013351644156500697,-0.0009536888683214784,-0.0009536888683214784
0.9850399494171143,0.0020981156267225742,-0.040627144277095795,0.004386968910694122,-0.0013351644156500697,-0.0009536888683214784,-0.0009536888683214784
1.0050828456878662,0.0020981156267225742,-0.04177157208323479,0.004386968910694122,-0.001716639962978661,-0.0009536888683214784,-0.0009536888683214784
1.025172472000122,0.0020981156267225742,-0.04253452271223068,0.004386968910694122,-0.001716639962978661,-0.0009536888683214784,-0.0009536888683214784
1.0451855659484863,0.0020981156267225742,-0.04329747334122658,0.004386968910694122,-0.001716639962978661,-0.0013351644156500697,-0.0013351644156500697
1.0652499198913574,0.0020981156267225742,-0.04406042397022247,0.004386968910694122,-0.0020981156267225742,-0.0013351644156500697,-0.0013351644156500697
1.0853731632232666,0.0020981156267225742,-0.04482337832450867,0.00476844422519207,-0.0020981156267225742,-0.0013351644156500697,-0.0013351644156500697
1.1054441928863525,0.0020981156267225742,-0.04596780240535736,0.00476844422519207,-0.0020981156267225742,-0.0013351644156500697,-0.0013351644156500697
1.1255793571472168,0.0020981156267225742,-0.046730753034353256,0.00476844422519207,-0.0020981156267225742,-0.0009536888683214784,-0.0013351644156500697
1.1463086605072021,0.0020981156267225742,-0.048638131469488144,0.005149920005351305,-0.0020981156267225742,-0.0013351644156500697,-0.001716639962978661
1.166445255279541,0.0020981156267225742,-0.04940108209848404,0.005149920005351305,-0.0020981156267225742,-0.0013351644156500697,-0.001716639962978661
1.1865661144256592,0.0020981156267225742,-0.050164032727479935,0.005149920005351305,-0.0020981156267225742,-0.0013351644156500697,-0.0020981156267225742
1.2065849304199219,0.0020981156267225742,-0.050164032727479935,0.005149920005351305,-0.0024795911740511656,-0.0013351644156500697,-0.0020981156267225742
1.2273027896881104,0.0020981156267225742,-0.05092698708176613,0.005149920005351305,-0.0024795911740511656,-0.0013351644156500697,-0.0024795911740511656
1.2474536895751953,0.0020981156267225742,-0.05283436179161072,0.005531395319849253,-0.0024795911740511656,-0.0013351644156500697,-0.002861066721379757
1.2674810886383057,0.0020981156267225742,-0.05359731614589691,0.005531395319849253,-0.0024795911740511656,-0.0013351644156500697,-0.0032425422687083483
1.2875676155090332,0.0020981156267225742,-0.05436026677489281,0.005531395319849253,-0.0024795911740511656,-0.0013351644156500697,-0.0032425422687083483
1.3077027797698975,0.0020981156267225742,-0.0551232174038887,0.005531395319849253,-0.0024795911740511656,-0.0013351644156500697,-0.0032425422687083483
1.3277227878570557,0.0020981156267225742,-0.056267641484737396,0.005531395319849253,-0.0024795911740511656,-0.0013351644156500697,-0.0032425422687083483
1.3478410243988037,0.0020981156267225742,-0.05664911866188049,0.005531395319849253,-0.0024795911740511656,-0.0013351644156500697,-0.0032425422687083483
1.3679709434509277,0.0020981156267225742,-0.05741206929087639,0.006294346414506435,-0.0024795911740511656,-0.0013351644156500697,-0.0032425422687083483
1.388078212738037,0.0020981156267225742,-0.05855649709701538,0.00667582219466567,-0.0024795911740511656,-0.0013351644156500697,-0.0032425422687083483
1.4081957340240479,0.0024795911740511656,-0.059319447726011276,0.007057297509163618,-0.0024795911740511656,-0.0013351644156500697,-0.0032425422687083483
1.4282464981079102,0.0024795911740511656,-0.06008239835500717,0.007057297509163618,-0.0024795911740511656,-0.001716639962978661,-0.0036240178160369396
1.448272705078125,0.0032425422687083483,-0.06084534898400307,0.007057297509163618,-0.002861066721379757,-0.001716639962978661,-0.0036240178160369396
1.4683811664581299,0.0032425422687083483,-0.06198977679014206,0.007057297509163618,-0.002861066721379757,-0.001716639962978661,-0.0036240178160369396
1.4884421825408936,0.0032425422687083483,-0.06275273114442825,0.007057297509163618,-0.002861066721379757,-0.001716639962978661,-0.0036240178160369396
1.5085372924804688,0.0032425422687083483,-0.06389715522527695,0.007057297509163618,-0.002861066721379757,-0.001716639962978661,-0.0036240178160369396
1.5285933017730713,0.0032425422687083483,-0.06504157930612564,0.007057297509163618,-0.002861066721379757,-0.001716639962978661,-0.0036240178160369396
1.5486741065979004,0.0032425422687083483,-0.06580453366041183,0.007438773289322853,-0.002861066721379757,-0.001716639962978661,-0.0036240178160369396
1.5687484741210938,0.0032425422687083483,-0.06656748056411743,0.007438773289322853,-0.002861066721379757,-0.0020981156267225742,-0.0036240178160369396
1.5887928009033203,0.0032425422687083483,-0.06694895774126053,0.007438773289322853,-0.002861066721379757,-0.0020981156267225742,-0.0036240178160369396
1.608875036239624,0.0032425422687083483,-0.06885633617639542,0.007438773289322853,-0.002861066721379757,-0.0020981156267225742,-0.0036240178160369396
1.6289398670196533,0.0032425422687083483,-0.07000076025724411,0.007438773289322853,-0.002861066721379757,-0.001716639962978661,-0.0036240178160369396
1.6490118503570557,0.0032425422687083483,-0.0715266615152359,0.007438773289322853,-0.002861066721379757,-0.001716639962978661,-0.004005493130534887
1.6691246032714844,0.0032425422687083483,-0.071908138692379,0.007438773289322853,-0.002861066721379757,-0.0020981156267225742,-0.004005493130534887
1.689225435256958,0.0032425422687083483,-0.07267109304666519,0.0078202486038208,-0.002861066721379757,-0.001716639962978661,-0.004005493130534887
1.7092773914337158,0.0032425422687083483,-0.07343403995037079,0.008201723918318748,-0.002861066721379757,-0.0020981156267225742,-0.004005493130534887
1.7294631004333496,0.0032425422687083483,-0.07419699430465698,0.00858320016413927,-0.002861066721379757,-0.0020981156267225742,-0.004005493130534887
1.7495527267456055,0.0032425422687083483,-0.07534141838550568,0.00858320016413927,-0.002861066721379757,-0.0020981156267225742,-0.004005493130534887
1.7696237564086914,0.0032425422687083483,-0.07610437273979187,0.00858320016413927,-0.002861066721379757,-0.0020981156267225742,-0.004005493130534887
1.7896883487701416,0.0032425422687083483,-0.07724879682064056,0.00858320016413927,-0.0032425422687083483,-0.0020981156267225742,-0.004005493130534887
1.809774398803711,0.0032425422687083483,-0.07839322835206985,0.00858320016413927,-0.002861066721379757,-0.0020981156267225742,-0.004386968910694122
1.8298404216766357,0.0032425422687083483,-0.07877469807863235,0.00858320016413927,-0.0032425422687083483,-0.0020981156267225742,-0.004386968910694122
1.8499035835266113,0.0032425422687083483,-0.07953765243291855,0.00858320016413927,-0.002861066721379757,-0.0020981156267225742,-0.004386968910694122
1.8699967861175537,0.0032425422687083483,-0.08068207651376724,0.008964675478637218,-0.0032425422687083483,-0.0020981156267225742,-0.004386968910694122
1.8901779651641846,0.0032425422687083483,-0.08182650804519653,0.009346150793135166,-0.002861066721379757,-0.0020981156267225742,-0.004386968910694122
1.9103026390075684,0.0036240178160369396,-0.08258945494890213,0.009346150793135166,-0.0032425422687083483,-0.0020981156267225742,-0.004386968910694122
1.930337905883789,0.004005493130534887,-0.08373387902975082,0.009346150793135166,-0.0032425422687083483,-0.0020981156267225742,-0.004386968910694122
1.950408935546875,0.004005493130534887,-0.08487831056118011,0.009346150793135166,-0.0032425422687083483,-0.0024795911740511656,-0.004386968910694122
1.970595359802246,0.004005493130534887,-0.08602273464202881,0.009346150793135166,-0.0032425422687083483,-0.0024795911740511656,-0.004386968910694122
1.9905731678009033,0.004005493130534887,-0.086785688996315,0.009346150793135166,-0.0032425422687083483,-0.0020981156267225742,-0.004386968910694122
2.0108962059020996,0.004005493130534887,-0.086785688996315,0.009346150793135166,-0.0032425422687083483,-0.0024795911740511656,-0.00476844422519207
2.030979633331299,0.004005493130534887,-0.0879301130771637,0.009346150793135166,-0.0032425422687083483,-0.0024795911740511656,-0.00476844422519207
2.0510480403900146,0.004005493130534887,-0.08869306743144989,0.009727626107633114,-0.0032425422687083483,-0.0024795911740511656,-0.00476844422519207
2.0711541175842285,0.004005493130534887,-0.08983749151229858,0.010490577667951584,-0.0032425422687083483,-0.0024795911740511656,-0.00476844422519207
2.091221570968628,0.004005493130534887,-0.09021896868944168,0.010490577667951584,-0.0032425422687083483,-0.0024795911740511656,-0.00476844422519207
2.1112849712371826,0.004005493130534887,-0.09136339277029037,0.010490577667951584,-0.0032425422687083483,-0.0024795911740511656,-0.00476844422519207
2.131354808807373,0.004005493130534887,-0.09250781685113907,0.010490577667951584,-0.0032425422687083483,-0.0024795911740511656,-0.00476844422519207
2.1514084339141846,0.004005493130534887,-0.09288929402828217,0.010490577667951584,-0.0032425422687083483,-0.0024795911740511656,-0.005149920005351305
2.1715047359466553,0.004005493130534887,-0.09403372555971146,0.010490577667951584,-0.0036240178160369396,-0.0024795911740511656,-0.005531395319849253
2.191563844680786,0.004005493130534887,-0.09479667246341705,0.010872052982449532,-0.0036240178160369396,-0.0024795911740511656,-0.005531395319849253
2.211637020111084,0.004005493130534887,-0.09555962681770325,0.010872052982449532,-0.0036240178160369396,-0.002861066721379757,-0.005912871100008488
2.2316787242889404,0.004005493130534887,-0.09632257372140884,0.01125352829694748,-0.0036240178160369396,-0.002861066721379757,-0.006294346414506435
2.252091884613037,0.004005493130534887,-0.09746700525283813,0.01125352829694748,-0.0036240178160369396,-0.002861066721379757,-0.007057297509163618
2.272178888320923,0.004005493130534887,-0.09861142933368683,0.011635004542768002,-0.0036240178160369396,-0.002861066721379757,-0.007057297509163618
2.2922935485839844,0.004005493130534887,-0.09937438368797302,0.011635004542768002,-0.0036240178160369396,-0.002861066721379757,-0.007057297509163618
2.312361717224121,0.004005493130534887,-0.10051880776882172,0.011635004542768002,-0.004005493130534887,-0.002861066721379757,-0.007057297509163618
2.33241605758667,0.004005493130534887,-0.10128175467252731,0.011635004542768002,-0.004005493130534887,-0.002861066721379757,-0.007057297509163618
2.3524887561798096,0.004005493130534887,-0.1024261862039566,0.011635004542768002,-0.004005493130534887,-0.002861066721379757,-0.007057297509163618
2.3727242946624756,0.004005493130534887,-0.1028076633810997,0.011635004542768002,-0.004005493130534887,-0.002861066721379757,-0.007057297509163618
2.392657995223999,0.004005493130534887,-0.1031891331076622,0.01201647985726595,-0.004005493130534887,-0.0032425422687083483,-0.007057297509163618
2.412743091583252,0.004005493130534887,-0.10471503436565399,0.012397955171763897,-0.004005493130534887,-0.002861066721379757,-0.007057297509163618
2.4328064918518066,0.004005493130534887,-0.10585946589708328,0.012397955171763897,-0.004005493130534887,-0.0032425422687083483,-0.007057297509163618
2.4529922008514404,0.004005493130534887,-0.10624094307422638,0.012397955171763897,-0.004005493130534887,-0.0032425422687083483,-0.007057297509163618
2.4729983806610107,0.004005493130534887,-0.10662241280078888,0.012397955171763897,-0.004005493130534887,-0.0032425422687083483,-0.007057297509163618
2.493084669113159,0.004005493130534887,-0.10738536715507507,0.012397955171763897,-0.004005493130534887,-0.0032425422687083483,-0.007057297509163618
2.513230562210083,0.004386968910694122,-0.10891126841306686,0.012397955171763897,-0.004005493130534887,-0.0032425422687083483,-0.007057297509163618
2.5332417488098145,0.004386968910694122,-0.11005569249391556,0.012779430486261845,-0.004005493130534887,-0.0032425422687083483,-0.007057297509163618
2.553506851196289,0.004386968910694122,-0.11081864684820175,0.012779430486261845,-0.004386968910694122,-0.0036240178160369396,-0.007438773289322853
2.573683738708496,0.004386968910694122,-0.11196307092905045,0.012779430486261845,-0.004386968910694122,-0.0036240178160369396,-0.007438773289322853
2.5937066078186035,0.004386968910694122,-0.11234454810619354,0.012779430486261845,-0.004386968910694122,-0.0036240178160369396,-0.007438773289322853
2.613844156265259,0.004386968910694122,-0.11348897218704224,0.012779430486261845,-0.004386968910694122,-0.0036240178160369396,-0.007438773289322853
2.6339352130889893,0.004386968910694122,-0.11463340371847153,0.012779430486261845,-0.004386968910694122,-0.0036240178160369396,-0.007438773289322853
2.6540143489837646,0.004386968910694122,-0.11577782779932022,0.012779430486261845,-0.00476844422519207,-0.004005493130534887,-0.007438773289322853
2.6740872859954834,0.004386968910694122,-0.11730372905731201,0.013160906732082367,-0.005531395319849253,-0.004005493130534887,-0.007438773289322853
2.6941585540771484,0.004386968910694122,-0.11768520623445511,0.013542382046580315,-0.00667582219466567,-0.004386968910694122,-0.007438773289322853
2.7142746448516846,0.00476844422519207,-0.1184481605887413,0.013542382046580315,-0.007057297509163618,-0.004386968910694122,-0.007438773289322853
2.7343244552612305,0.00476844422519207,-0.1188296303153038,0.013923857361078262,-0.007057297509163618,-0.00476844422519207,-0.007438773289322853
2.7543797492980957,0.005149920005351305,-0.11959258466959,0.013542382046580315,-0.007057297509163618,-0.005149920005351305,-0.007438773289322853
2.77445650100708,0.005149920005351305,-0.12073700875043869,0.013923857361078262,-0.007057297509163618,-0.00476844422519207,-0.007438773289322853
2.794635057449341,0.005149920005351305,-0.12188144028186798,0.013923857361078262,-0.007057297509163618,-0.00476844422519207,-0.007438773289322853
2.8146448135375977,0.005149920005351305,-0.12302586436271667,0.014686808921396732,-0.007057297509163618,-0.005149920005351305,-0.0078202486038208
2.834831476211548,0.005149920005351305,-0.12417028844356537,0.014686808921396732,-0.007057297509163618,-0.005149920005351305,-0.007438773289322853
2.85498046875,0.005149920005351305,-0.12493324279785156,0.014686808921396732,-0.007057297509163618,-0.005149920005351305,-0.0078202486038208
2.8751015663146973,0.005149920005351305,-0.12531471252441406,0.014686808921396732,-0.007057297509163618,-0.005531395319849253,-0.0078202486038208
2.895129680633545,0.005149920005351305,-0.12607766687870026,0.014686808921396732,-0.007057297509163618,-0.005531395319849253,-0.007438773289322853
2.915712594985962,0.005149920005351305,-0.12722209095954895,0.014686808921396732,-0.007057297509163618,-0.005531395319849253,-0.0078202486038208
2.9358022212982178,0.005149920005351305,-0.12836651504039764,0.014686808921396732,-0.007057297509163618,-0.005531395319849253,-0.0078202486038208
2.9558746814727783,0.005149920005351305,-0.13027389347553253,0.014686808921396732,-0.007057297509163618,-0.005531395319849253,-0.0078202486038208
2.976011037826538,0.005149920005351305,-0.13065537810325623,0.014686808921396732,-0.007057297509163618,-0.005531395319849253,-0.0078202486038208
2.9960567951202393,0.005149920005351305,-0.13179980218410492,0.01506828423589468,-0.007057297509163618,-0.005531395319849253,-0.0078202486038208
3.0161845684051514,0.005149920005351305,-0.13218127191066742,0.01506828423589468,-0.007057297509163618,-0.005531395319849253,-0.0078202486038208
3.0362470149993896,0.005149920005351305,-0.1333257108926773,0.01506828423589468,-0.007057297509163618,-0.005531395319849253,-0.0078202486038208
3.056307315826416,0.005149920005351305,-0.134470134973526,0.015449759550392628,-0.007057297509163618,-0.005912871100008488,-0.0078202486038208
3.076381206512451,0.005149920005351305,-0.1359960287809372,0.015449759550392628,-0.007057297509163618,-0.005912871100008488,-0.008201723918318748
3.0964224338531494,0.005149920005351305,-0.1363775134086609,0.015449759550392628,-0.007057297509163618,-0.005912871100008488,-0.008201723918318748
3.116595506668091,0.005531395319849253,-0.1371404528617859,0.015449759550392628,-0.007057297509163618,-0.005912871100008488,-0.008201723918318748
3.136676073074341,0.005531395319849253,-0.13752193748950958,0.015449759550392628,-0.007057297509163618,-0.005912871100008488,-0.008201723918318748
3.1567609310150146,0.005531395319849253,-0.13866636157035828,0.01583123579621315,-0.007057297509163618,-0.005912871100008488,-0.008201723918318748
3.176804304122925,0.005531395319849253,-0.13981078565120697,0.01583123579621315,-0.007057297509163618,-0.005912871100008488,-0.008201723918318748
3.1968863010406494,0.005531395319849253,-0.14095520973205566,0.01583123579621315,-0.007438773289322853,-0.005912871100008488,-0.008201723918318748
3.217003345489502,0.005912871100008488,-0.14209964871406555,0.01583123579621315,-0.007438773289322853,-0.005912871100008488,-0.00858320016413927
3.237114667892456,0.006294346414506435,-0.14286258816719055,0.016212711110711098,-0.007438773289322853,-0.006294346414506435,-0.00858320016413927
3.257148265838623,0.006294346414506435,-0.14400701224803925,0.016212711110711098,-0.007438773289322853,-0.006294346414506435,-0.00858320016413927
3.277320384979248,0.006294346414506435,-0.14476996660232544,0.016594186425209045,-0.007438773289322853,-0.005912871100008488,-0.00858320016413927
3.2974889278411865,0.006294346414506435,-0.14553292095661163,0.016594186425209045,-0.007438773289322853,-0.006294346414506435,-0.008964675478637218
3.317505359649658,0.006294346414506435,-0.14667734503746033,0.016975661739706993,-0.007438773289322853,-0.006294346414506435,-0.008964675478637218
3.3375582695007324,0.006294346414506435,-0.14705882966518402,0.016975661739706993,-0.007438773289322853,-0.006294346414506435,-0.009346150793135166
3.3577077388763428,0.006294346414506435,-0.14820325374603271,0.016975661739706993,-0.007438773289322853,-0.006294346414506435,-0.009346150793135166
3.3777713775634766,0.006294346414506435,-0.1501106321811676,0.016975661739706993,-0.007438773289322853,-0.006294346414506435,-0.009727626107633114
3.397860527038574,0.006294346414506435,-0.1504921019077301,0.016975661739706993,-0.007438773289322853,-0.006294346414506435,-0.010490577667951584
3.4179630279541016,0.006294346414506435,-0.1520180106163025,0.016975661739706993,-0.007438773289322853,-0.006294346414506435,-0.010872052982449532
3.438059091567993,0.006294346414506435,-0.152399480342865,0.016975661739706993,-0.007438773289322853,-0.006294346414506435,-0.010872052982449532
3.4581234455108643,0.006294346414506435,-0.15316243469715118,0.01735713705420494,-0.007438773289322853,-0.006294346414506435,-0.010872052982449532
3.478163957595825,0.006294346414506435,-0.15354390442371368,0.01773861236870289,-0.0078202486038208,-0.006294346414506435,-0.010872052982449532
3.4982683658599854,0.006294346414506435,-0.15468832850456238,0.01773861236870289,-0.0078202486038208,-0.006294346414506435,-0.010872052982449532
3.5183324813842773,0.006294346414506435,-0.15545128285884857,0.01773861236870289,-0.0078202486038208,-0.00667582219466567,-0.010872052982449532
3.5384273529052734,0.00667582219466567,-0.15659570693969727,0.01773861236870289,-0.0078202486038208,-0.00667582219466567,-0.010872052982449532
3.558448076248169,0.006294346414506435,-0.15735866129398346,0.01773861236870289,-0.0078202486038208,-0.00667582219466567,-0.010872052982449532
3.5785305500030518,0.00667582219466567,-0.15926603972911835,0.018120087683200836,-0.0078202486038208,-0.00667582219466567,-0.010872052982449532
3.5985989570617676,0.007438773289322853,-0.16002899408340454,0.018120087683200836,-0.008201723918318748,-0.00667582219466567,-0.010872052982449532
3.6187057495117188,0.007438773289322853,-0.16079194843769073,0.018120087683200836,-0.008201723918318748,-0.00667582219466567,-0.010872052982449532
3.6387362480163574,0.007438773289322853,-0.16155488789081573,0.01888304017484188,-0.008201723918318748,-0.00667582219466567,-0.01125352829694748
3.658811569213867,0.007438773289322853,-0.16308079659938812,0.01888304017484188,-0.008201723918318748,-0.00667582219466567,-0.01125352829694748
3.6789913177490234,0.007438773289322853,-0.16384375095367432,0.01888304017484188,-0.008201723918318748,-0.00667582219466567,-0.010872052982449532
3.6990549564361572,0.007438773289322853,-0.164988175034523,0.01888304017484188,-0.008201723918318748,-0.00667582219466567,-0.01125352829694748
3.719106674194336,0.007438773289322853,-0.1661325991153717,0.01926451548933983,-0.00858320016413927,-0.007057297509163618,-0.01125352829694748
3.73921799659729,0.007438773289322853,-0.1672770231962204,0.01926451548933983,-0.00858320016413927,-0.007057297509163618,-0.01125352829694748
3.7593491077423096,0.007438773289322853,-0.1684214472770691,0.01926451548933983,-0.00858320016413927,-0.007057297509163618,-0.01125352829694748
3.77934193611145,0.007438773289322853,-0.16880293190479279,0.019645990803837776,-0.008964675478637218,-0.007057297509163618,-0.01125352829694748
3.7994072437286377,0.007438773289322853,-0.17032882571220398,0.019645990803837776,-0.009346150793135166,-0.007057297509163618,-0.011635004542768002
3.8194739818573,0.007438773289322853,-0.17109178006649017,0.019645990803837776,-0.009727626107633114,-0.007057297509163618,-0.011635004542768002
3.839527130126953,0.007438773289322853,-0.17299915850162506,0.019645990803837776,-0.009727626107633114,-0.007057297509163618,-0.011635004542768002
3.8597679138183594,0.007438773289322853,-0.17338064312934875,0.019645990803837776,-0.010109102353453636,-0.007057297509163618,-0.011635004542768002
3.879882335662842,0.007438773289322853,-0.17414358258247375,0.019645990803837776,-0.010109102353453636,-0.007057297509163618,-0.011635004542768002
3.8999197483062744,0.007438773289322853,-0.17528800666332245,0.019645990803837776,-0.010109102353453636,-0.007438773289322853,-0.011635004542768002
3.919987916946411,0.007438773289322853,-0.17605096101760864,0.019645990803837776,-0.010109102353453636,-0.007438773289322853,-0.011635004542768002
3.940058946609497,0.007438773289322853,-0.17719538509845734,0.020027466118335724,-0.010109102353453636,-0.007438773289322853,-0.011635004542768002
3.9601497650146484,0.0078202486038208,-0.17872129380702972,0.020027466118335724,-0.010109102353453636,-0.007438773289322853,-0.01201647985726595
3.9802095890045166,0.008201723918318748,-0.1802472025156021,0.02079041674733162,-0.010109102353453636,-0.007438773289322853,-0.01201647985726595
4.000310897827148,0.008201723918318748,-0.1810101419687271,0.021553369238972664,-0.010109102353453636,-0.0078202486038208,-0.01201647985726595
4.0203704833984375,0.008201723918318748,-0.1817730963230133,0.021553369238972664,-0.010109102353453636,-0.0078202486038208,-0.01201647985726595
4.040399074554443,0.008201723918318748,-0.182154580950737,0.021553369238972664,-0.010109102353453636,-0.0078202486038208,-0.01201647985726595
4.060482740402222,0.008201723918318748,-0.1825360506772995,0.021553369238972664,-0.010109102353453636,-0.0078202486038208,-0.012397955171763897
4.080598592758179,0.008201723918318748,-0.1840619444847107,0.02193484455347061,-0.010109102353453636,-0.0078202486038208,-0.012397955171763897
4.100638151168823,0.008201723918318748,-0.1848248988389969,0.02193484455347061,-0.010109102353453636,-0.008201723918318748,-0.012397955171763897
4.12070894241333,0.008201723918318748,-0.18558785319328308,0.02193484455347061,-0.010109102353453636,-0.008201723918318748,-0.012779430486261845
4.1407530307769775,0.008201723918318748,-0.18749523162841797,0.02193484455347061,-0.010109102353453636,-0.00858320016413927,-0.013160906732082367
4.160879850387573,0.008201723918318748,-0.18825818598270416,0.02193484455347061,-0.010109102353453636,-0.00858320016413927,-0.013923857361078262
4.180921792984009,0.008201723918318748,-0.18902114033699036,0.02193484455347061,-0.010109102353453636,-0.00858320016413927,-0.014686808921396732
4.201019287109375,0.008201723918318748,-0.19054703414440155,0.02193484455347061,-0.010109102353453636,-0.008964675478637218,-0.014686808921396732
4.221216440200806,0.008201723918318748,-0.19054703414440155,0.022697795182466507,-0.010490577667951584,-0.008964675478637218,-0.014686808921396732
4.24137020111084,0.008201723918318748,-0.19207294285297394,0.023079270496964455,-0.010490577667951584,-0.008964675478637218,-0.014686808921396732
4.261415958404541,0.008201723918318748,-0.19359883666038513,0.023079270496964455,-0.010490577667951584,-0.008964675478637218,-0.014686808921396732
4.281482219696045,0.008201723918318748,-0.19474326074123383,0.023079270496964455,-0.010490577667951584,-0.008964675478637218,-0.014686808921396732
4.301513195037842,0.008201723918318748,-0.19550621509552002,0.023079270496964455,-0.010490577667951584,-0.008964675478637218,-0.014686808921396732
4.321601629257202,0.00858320016413927,-0.1962691694498062,0.023079270496964455,-0.010490577667951584,-0.009346150793135166,-0.014686808921396732
4.341698408126831,0.00858320016413927,-0.1970321238040924,0.023079270496964455,-0.010490577667951584,-0.009346150793135166,-0.014686808921396732
4.361767053604126,0.00858320016413927,-0.1985580176115036,0.023079270496964455,-0.010490577667951584,-0.009346150793135166,-0.014686808921396732
4.38180685043335,0.00858320016413927,-0.200083926320076,0.02384222112596035,-0.010490577667951584,-0.009346150793135166,-0.014686808921396732
4.4018988609313965,0.00858320016413927,-0.20084688067436218,0.02384222112596035,-0.010490577667951584,-0.009346150793135166,-0.014686808921396732
4.422066688537598,0.009346150793135166,-0.20199130475521088,0.02384222112596035,-0.010490577667951584,-0.009346150793135166,-0.014686808921396732
4.442068338394165,0.009346150793135166,-0.20237277448177338,0.02384222112596035,-0.010490577667951584,-0.009727626107633114,-0.014686808921396732
4.4621422290802,0.009346150793135166,-0.20313572883605957,0.02384222112596035,-0.010490577667951584,-0.009727626107633114,-0.01506828423589468
4.482328414916992,0.009346150793135166,-0.20466163754463196,0.024223696440458298,-0.010490577667951584,-0.009727626107633114,-0.01506828423589468
4.50234055519104,0.009346150793135166,-0.20504310727119446,0.024223696440458298,-0.010490577667951584,-0.009727626107633114,-0.01506828423589468
4.522421836853027,0.009346150793135166,-0.20695048570632935,0.024986648932099342,-0.010490577667951584,-0.009727626107633114,-0.01506828423589468
4.542510032653809,0.009346150793135166,-0.20809490978717804,0.024986648932099342,-0.010490577667951584,-0.009727626107633114,-0.01506828423589468
4.563255786895752,0.009346150793135166,-0.20962081849575043,0.02536812424659729,-0.010490577667951584,-0.010109102353453636,-0.01506828423589468
4.583311319351196,0.009346150793135166,-0.21152819693088531,0.02536812424659729,-0.010490577667951584,-0.010109102353453636,-0.01506828423589468
4.603404521942139,0.009727626107633114,-0.21229113638401031,0.025749599561095238,-0.010490577667951584,-0.010109102353453636,-0.01506828423589468
4.623653888702393,0.009727626107633114,-0.2141985148191452,0.026131074875593185,-0.010490577667951584,-0.010109102353453636,-0.01506828423589468
4.6437201499938965,0.009727626107633114,-0.2153429538011551,0.026131074875593185,-0.010490577667951584,-0.010109102353453636,-0.01506828423589468
4.663815975189209,0.009727626107633114,-0.21648737788200378,0.026131074875593185,-0.010490577667951584,-0.010109102353453636,-0.015449759550392628
4.6838719844818115,0.009727626107633114,-0.21686884760856628,0.026131074875593185,-0.010872052982449532,-0.010109102353453636,-0.015449759550392628
4.703965663909912,0.009727626107633114,-0.21763180196285248,0.026131074875593185,-0.010872052982449532,-0.010109102353453636,-0.015449759550392628
4.724053621292114,0.010109102353453636,-0.21839475631713867,0.026131074875593185,-0.010872052982449532,-0.010109102353453636,-0.015449759550392628
4.744126796722412,0.010109102353453636,-0.21915769577026367,0.026512550190091133,-0.010872052982449532,-0.010490577667951584,-0.015449759550392628
4.7641870975494385,0.010109102353453636,-0.22030213475227356,0.02689402550458908,-0.010872052982449532,-0.010490577667951584,-0.015449759550392628
4.784321069717407,0.010109102353453636,-0.22144655883312225,0.02689402550458908,-0.010872052982449532,-0.010490577667951584,-0.015449759550392628
4.804547071456909,0.010490577667951584,-0.22297245264053345,0.02689402550458908,-0.010872052982449532,-0.010490577667951584,-0.01583123579621315
4.824581146240234,0.010109102353453636,-0.22373540699481964,0.02727550081908703,-0.010872052982449532,-0.010490577667951584,-0.01583123579621315
4.844623565673828,0.010490577667951584,-0.22449836134910583,0.02727550081908703,-0.010872052982449532,-0.010490577667951584,-0.01583123579621315
4.864726781845093,0.010490577667951584,-0.22564278542995453,0.02727550081908703,-0.010872052982449532,-0.010490577667951584,-0.01583123579621315
4.8848936557769775,0.010490577667951584,-0.22793163359165192,0.02727550081908703,-0.010872052982449532,-0.010872052982449532,-0.01583123579621315
4.904953479766846,0.010490577667951584,-0.2294575423002243,0.027656977996230125,-0.010872052982449532,-0.010872052982449532,-0.01583123579621315
4.9249560832977295,0.010490577667951584,-0.2298390120267868,0.028038453310728073,-0.010872052982449532,-0.01125352829694748,-0.01583123579621315
4.945116281509399,0.010490577667951584,-0.2309834510087967,0.028038453310728073,-0.010872052982449532,-0.01125352829694748,-0.016212711110711098
4.965248107910156,0.010490577667951584,-0.2313649207353592,0.028038453310728073,-0.010872052982449532,-0.011635004542768002,-0.01583123579621315
4.9853675365448,0.010490577667951584,-0.2317463904619217,0.02841992862522602,-0.010872052982449532,-0.011635004542768002,-0.016212711110711098
5.005470514297485,0.010490577667951584,-0.23327229917049408,0.02841992862522602,-0.010872052982449532,-0.011635004542768002,-0.016212711110711098
5.02546763420105,0.010490577667951584,-0.23441672325134277,0.029182879254221916,-0.010872052982449532,-0.01201647985726595,-0.016212711110711098
5.045563697814941,0.010490577667951584,-0.23556114733219147,0.029182879254221916,-0.010872052982449532,-0.012397955171763897,-0.016212711110711098
5.065675735473633,0.010490577667951584,-0.23632410168647766,0.029182879254221916,-0.01125352829694748,-0.012779430486261845,-0.016594186425209045
5.085730791091919,0.010490577667951584,-0.23785001039505005,0.029182879254221916,-0.01125352829694748,-0.013160906732082367,-0.016975661739706993
5.105928897857666,0.010490577667951584,-0.23861294984817505,0.029182879254221916,-0.01125352829694748,-0.013160906732082367,-0.01773861236870289
5.126081705093384,0.010872052982449532,-0.23937590420246124,0.029182879254221916,-0.01125352829694748,-0.013160906732082367,-0.018120087683200836
5.146233797073364,0.010872052982449532,-0.24052032828330994,0.029564354568719864,-0.01125352829694748,-0.013160906732082367,-0.018120087683200836
5.166237115859985,0.010872052982449532,-0.24128328263759613,0.02994582988321781,-0.01125352829694748,-0.013160906732082367,-0.018120087683200836
5.1863486766815186,0.011635004542768002,-0.24357213079929352,0.02994582988321781,-0.01125352829694748,-0.013160906732082367,-0.018120087683200836
5.206532716751099,0.011635004542768002,-0.2447165697813034,0.03032730519771576,-0.01125352829694748,-0.013542382046580315,-0.018501564860343933
5.22661280632019,0.011635004542768002,-0.2462424635887146,0.03032730519771576,-0.01125352829694748,-0.013542382046580315,-0.018501564860343933
5.246681213378906,0.011635004542768002,-0.24891279637813568,0.03032730519771576,-0.01125352829694748,-0.013542382046580315,-0.018501564860343933
5.2667505741119385,0.011635004542768002,-0.2508201599121094,0.03032730519771576,-0.01125352829694748,-0.013542382046580315,-0.018501564860343933
5.2868101596832275,0.011635004542768002,-0.2508201599121094,0.03032730519771576,-0.011635004542768002,-0.013542382046580315,-0.018501564860343933
5.306927919387817,0.011635004542768002,-0.25234606862068176,0.031090257689356804,-0.011635004542768002,-0.013923857361078262,-0.018501564860343933
5.327060222625732,0.011635004542768002,-0.25272753834724426,0.03147173300385475,-0.011635004542768002,-0.013923857361078262,-0.018501564860343933
5.347103595733643,0.011635004542768002,-0.25349050760269165,0.03147173300385475,-0.011635004542768002,-0.013923857361078262,-0.018501564860343933
5.367143630981445,0.01201647985726595,-0.25387197732925415,0.03185320645570755,-0.011635004542768002,-0.013923857361078262,-0.018501564860343933
5.387230396270752,0.01201647985726595,-0.25539788603782654,0.03223468363285065,-0.011635004542768002,-0.013923857361078262,-0.018501564860343933
5.407285690307617,0.012397955171763897,-0.2573052644729614,0.03223468363285065,-0.01201647985726595,-0.013923857361078262,-0.018501564860343933
5.427379846572876,0.012397955171763897,-0.2595941126346588,0.03223468363285065,-0.01201647985726595,-0.013923857361078262,-0.018501564860343933
5.447447299957275,0.012397955171763897,-0.2603570520877838,0.03223468363285065,-0.01201647985726595,-0.013923857361078262,-0.01888304017484188
5.4675164222717285,0.012397955171763897,-0.2626459002494812,0.03223468363285065,-0.012397955171763897,-0.013923857361078262,-0.01888304017484188
5.487636089324951,0.012397955171763897,-0.2626459002494812,0.03223468363285065,-0.012397955171763897,-0.013923857361078262,-0.01888304017484188
5.507693290710449,0.012397955171763897,-0.2634088695049286,0.03223468363285065,-0.012397955171763897,-0.013923857361078262,-0.01888304017484188
5.527785301208496,0.012397955171763897,-0.265697717666626,0.03299763426184654,-0.012779430486261845,-0.013923857361078262,-0.01888304017484188
5.547894477844238,0.012397955171763897,-0.2660791873931885,0.03337911143898964,-0.013542382046580315,-0.013923857361078262,-0.01888304017484188
5.567910671234131,0.012397955171763897,-0.26760509610176086,0.03337911143898964,-0.013923857361078262,-0.013923857361078262,-0.01888304017484188
5.588403940200806,0.012397955171763897,-0.26798656582832336,0.03376058489084244,-0.013923857361078262,-0.013923857361078262,-0.01888304017484188
5.608552932739258,0.012397955171763897,-0.26913100481033325,0.03376058489084244,-0.013923857361078262,-0.013923857361078262,-0.01888304017484188
5.628701210021973,0.012397955171763897,-0.27103838324546814,0.03376058489084244,-0.013923857361078262,-0.013923857361078262,-0.01888304017484188
5.648696660995483,0.012397955171763897,-0.27218279242515564,0.034142062067985535,-0.013923857361078262,-0.013923857361078262,-0.01926451548933983
5.668785095214844,0.012779430486261845,-0.2733272314071655,0.034142062067985535,-0.013923857361078262,-0.01430533267557621,-0.01926451548933983
5.688876152038574,0.012779430486261845,-0.2740901708602905,0.034142062067985535,-0.01430533267557621,-0.01430533267557621,-0.01926451548933983
5.7089197635650635,0.012779430486261845,-0.2756160795688629,0.034142062067985535,-0.01430533267557621,-0.01430533267557621,-0.01926451548933983
5.729007959365845,0.012779430486261845,-0.2771419882774353,0.034142062067985535,-0.01430533267557621,-0.01430533267557621,-0.01926451548933983
5.749070882797241,0.013160906732082367,-0.2782863974571228,0.034142062067985535,-0.01430533267557621,-0.01430533267557621,-0.01926451548933983
5.769161939620972,0.013542382046580315,-0.2801937758922577,0.03452353551983833,-0.01430533267557621,-0.01506828423589468,-0.01926451548933983
5.789207935333252,0.013542382046580315,-0.2821011543273926,0.03452353551983833,-0.01430533267557621,-0.014686808921396732,-0.01926451548933983
5.809296607971191,0.013542382046580315,-0.28248265385627747,0.03452353551983833,-0.01430533267557621,-0.014686808921396732,-0.019645990803837776
5.829374313354492,0.013923857361078262,-0.28286412358283997,0.03528648987412453,-0.01430533267557621,-0.014686808921396732,-0.019645990803837776
5.849506378173828,0.013923857361078262,-0.28400853276252747,0.035667963325977325,-0.01430533267557621,-0.01506828423589468,-0.019645990803837776
5.869569301605225,0.013923857361078262,-0.28629741072654724,0.03643091395497322,-0.01430533267557621,-0.01506828423589468,-0.019645990803837776
5.8896636962890625,0.013923857361078262,-0.28744181990623474,0.03643091395497322,-0.01430533267557621,-0.015449759550392628,-0.019645990803837776
5.909755229949951,0.01430533267557621,-0.28858625888824463,0.03643091395497322,-0.01430533267557621,-0.015449759550392628,-0.019645990803837776
5.929837703704834,0.014686808921396732,-0.28973066806793213,0.03643091395497322,-0.014686808921396732,-0.016212711110711098,-0.020027466118335724
5.949905633926392,0.014686808921396732,-0.2924010157585144,0.03643091395497322,-0.01430533267557621,-0.016212711110711098,-0.02040894143283367
5.969965696334839,0.014686808921396732,-0.2939268946647644,0.03681239113211632,-0.014686808921396732,-0.016212711110711098,-0.02079041674733162
5.9904491901397705,0.014686808921396732,-0.2946898639202118,0.037193864583969116,-0.01430533267557621,-0.016212711110711098,-0.021171892061829567
6.010540008544922,0.014686808921396732,-0.2962157726287842,0.03757534176111221,-0.014686808921396732,-0.016212711110711098,-0.02231631986796856
6.030635356903076,0.014686808921396732,-0.2965972423553467,0.03757534176111221,-0.014686808921396732,-0.016212711110711098,-0.02193484455347061
6.0507378578186035,0.014686808921396732,-0.2965972423553467,0.03795681521296501,-0.014686808921396732,-0.016594186425209045,-0.02231631986796856
6.070782661437988,0.014686808921396732,-0.29850462079048157,0.03833829239010811,-0.014686808921396732,-0.016975661739706993,-0.02193484455347061
6.090871095657349,0.014686808921396732,-0.29926756024360657,0.03833829239010811,-0.014686808921396732,-0.016975661739706993,-0.02231631986796856
6.110946416854858,0.014686808921396732,-0.30041199922561646,0.03833829239010811,-0.014686808921396732,-0.016975661739706993,-0.02231631986796856
6.1310646533966064,0.014686808921396732,-0.30117493867874146,0.03833829239010811,-0.014686808921396732,-0.016975661739706993,-0.02231631986796856
6.151080131530762,0.014686808921396732,-0.30384528636932373,0.03833829239010811,-0.014686808921396732,-0.016975661739706993,-0.02231631986796856
6.171116352081299,0.014686808921396732,-0.30460822582244873,0.038719769567251205,-0.014686808921396732,-0.016975661739706993,-0.02231631986796856
6.191209554672241,0.014686808921396732,-0.3057526648044586,0.0394827201962471,-0.014686808921396732,-0.016975661739706993,-0.02231631986796856
6.2112860679626465,0.01506828423589468,-0.3068970739841461,0.0394827201962471,-0.01506828423589468,-0.016975661739706993,-0.02231631986796856
6.23131537437439,0.014686808921396732,-0.3084229826927185,0.0398641936480999,-0.01506828423589468,-0.016975661739706993,-0.02231631986796856
6.251402854919434,0.01506828423589468,-0.308804452419281,0.0398641936480999,-0.01506828423589468,-0.016975661739706993,-0.022697795182466507
6.271465063095093,0.01506828423589468,-0.3110933005809784,0.040245670825242996,-0.01506828423589468,-0.01735713705420494,-0.022697795182466507
6.291529417037964,0.01583123579621315,-0.3110933005809784,0.040245670825242996,-0.01506828423589468,-0.01773861236870289,-0.022697795182466507
6.311587810516357,0.01583123579621315,-0.3126192092895508,0.040245670825242996,-0.015449759550392628,-0.01773861236870289,-0.022697795182466507
6.331693887710571,0.01583123579621315,-0.3130006790161133,0.040245670825242996,-0.015449759550392628,-0.01773861236870289,-0.022697795182466507
6.3519127368927,0.01583123579621315,-0.31452658772468567,0.040627144277095795,-0.015449759550392628,-0.01735713705420494,-0.022697795182466507
6.37187123298645,0.01583123579621315,-0.31528952717781067,0.040627144277095795,-0.015449759550392628,-0.01773861236870289,-0.022697795182466507
6.392040252685547,0.01583123579621315,-0.31719690561294556,0.04100862145423889,-0.015449759550392628,-0.01773861236870289,-0.022697795182466507
6.4120588302612305,0.01583123579621315,-0.31795987486839294,0.04139009863138199,-0.01583123579621315,-0.01773861236870289,-0.022697795182466507
6.432129621505737,0.01583123579621315,-0.31948578357696533,0.04139009863138199,-0.01583123579621315,-0.018120087683200836,-0.022697795182466507
6.452188730239868,0.01583123579621315,-0.32024872303009033,0.04139009863138199,-0.01583123579621315,-0.018120087683200836,-0.022697795182466507
6.472313642501831,0.01583123579621315,-0.3213931620121002,0.04139009863138199,-0.016212711110711098,-0.018120087683200836,-0.022697795182466507
6.492490768432617,0.016212711110711098,-0.3240634799003601,0.04177157208323479,-0.016212711110711098,-0.01773861236870289,-0.022697795182466507
6.5124125480651855,0.016975661739706993,-0.3248264193534851,0.04253452271223068,-0.016594186425209045,-0.018120087683200836,-0.023079270496964455
6.53244948387146,0.016594186425209045,-0.3255893886089325,0.04253452271223068,-0.016975661739706993,-0.018120087683200836,-0.023079270496964455
6.552534341812134,0.016975661739706993,-0.32673379778862,0.04253452271223068,-0.01735713705420494,-0.018120087683200836,-0.023079270496964455
6.572671413421631,0.016975661739706993,-0.3278782367706299,0.04291599988937378,-0.01735713705420494,-0.01773861236870289,-0.023079270496964455
6.5927112102508545,0.016975661739706993,-0.33016708493232727,0.043678950518369675,-0.01735713705420494,-0.018120087683200836,-0.023079270496964455
6.612829685211182,0.016975661739706993,-0.33131152391433716,0.043678950518369675,-0.01773861236870289,-0.018120087683200836,-0.023079270496964455
6.632976770401001,0.016975661739706993,-0.33245593309402466,0.043678950518369675,-0.01773861236870289,-0.018501564860343933,-0.023079270496964455
6.653020620346069,0.016975661739706993,-0.33321890234947205,0.043678950518369675,-0.01773861236870289,-0.018501564860343933,-0.023079270496964455
6.673119306564331,0.016975661739706993,-0.33436331152915955,0.043678950518369675,-0.01773861236870289,-0.018501564860343933,-0.023460745811462402
6.693288564682007,0.01735713705420494,-0.33627068996429443,0.04406042397022247,-0.01773861236870289,-0.018501564860343933,-0.023460745811462402
6.713371515274048,0.01773861236870289,-0.3381780683994293,0.04444190114736557,-0.01773861236870289,-0.01926451548933983,-0.023460745811462402
6.733464002609253,0.01773861236870289,-0.3397039771080017,0.04444190114736557,-0.01773861236870289,-0.01888304017484188,-0.023460745811462402
6.753498554229736,0.01773861236870289,-0.3400854468345642,0.04482337832450867,-0.01773861236870289,-0.01888304017484188,-0.023460745811462402
6.773544073104858,0.01773861236870289,-0.3412298858165741,0.04482337832450867,-0.01773861236870289,-0.01888304017484188,-0.02384222112596035
6.793654441833496,0.01773861236870289,-0.3423742949962616,0.04482337832450867,-0.01773861236870289,-0.01926451548933983,-0.02384222112596035
6.813730955123901,0.01773861236870289,-0.3435187339782715,0.04482337832450867,-0.01773861236870289,-0.019645990803837776,-0.02384222112596035
6.833850145339966,0.01773861236870289,-0.344663143157959,0.04558632895350456,-0.01773861236870289,-0.020027466118335724,-0.024223696440458298
6.854212284088135,0.01773861236870289,-0.34657052159309387,0.04558632895350456,-0.01773861236870289,-0.02040894143283367,-0.024223696440458298
6.874387979507446,0.01773861236870289,-0.34771496057510376,0.04596780240535736,-0.01773861236870289,-0.02079041674733162,-0.024605173617601395
6.894396781921387,0.018120087683200836,-0.34962233901023865,0.04634927958250046,-0.018120087683200836,-0.02079041674733162,-0.024986648932099342
6.914518117904663,0.01773861236870289,-0.35076677799224854,0.04634927958250046,-0.01773861236870289,-0.02079041674733162,-0.024986648932099342
6.934600591659546,0.018120087683200836,-0.3530556261539459,0.046730753034353256,-0.018120087683200836,-0.02079041674733162,-0.02536812424659729
6.954641342163086,0.018120087683200836,-0.3542000353336334,0.046730753034353256,-0.018120087683200836,-0.02079041674733162,-0.02536812424659729
6.9748005867004395,0.018120087683200836,-0.3549630045890808,0.046730753034353256,-0.018120087683200836,-0.021171892061829567,-0.02536812424659729
6.994791269302368,0.018501564860343933,-0.3561074137687683,0.04711223021149635,-0.018120087683200836,-0.021171892061829567,-0.025749599561095238
7.01493763923645,0.01888304017484188,-0.3568703830242157,0.04749370738863945,-0.018120087683200836,-0.021553369238972664,-0.025749599561095238
7.035003185272217,0.01888304017484188,-0.3587777614593506,0.04787518084049225,-0.018120087683200836,-0.021171892061829567,-0.025749599561095238
7.0551347732543945,0.01888304017484188,-0.3606851398944855,0.048256658017635345,-0.018120087683200836,-0.021553369238972664,-0.025749599561095238
7.0751588344573975,0.01888304017484188,-0.361829549074173,0.048638131469488144,-0.018120087683200836,-0.021171892061829567,-0.025749599561095238
7.095232963562012,0.01888304017484188,-0.36259251832962036,0.048638131469488144,-0.018120087683200836,-0.021553369238972664,-0.025749599561095238
7.115294456481934,0.01888304017484188,-0.36373692750930786,0.048638131469488144,-0.018120087683200836,-0.021553369238972664,-0.026131074875593185
7.1353631019592285,0.01888304017484188,-0.36449989676475525,0.048638131469488144,-0.018501564860343933,-0.021553369238972664,-0.026131074875593185
7.155432939529419,0.01888304017484188,-0.36717021465301514,0.04901960864663124,-0.018501564860343933,-0.02193484455347061,-0.026131074875593185
7.175562858581543,0.01888304017484188,-0.36907759308815,0.04901960864663124,-0.018120087683200836,-0.02193484455347061,-0.026131074875593185
7.195660352706909,0.01926451548933983,-0.369840532541275,0.049782559275627136,-0.018501564860343933,-0.02193484455347061,-0.026131074875593185
7.215690612792969,0.01926451548933983,-0.3713664412498474,0.049782559275627136,-0.018501564860343933,-0.02193484455347061,-0.026512550190091133
7.235772371292114,0.01926451548933983,-0.3732738196849823,0.050164032727479935,-0.018501564860343933,-0.02193484455347061,-0.026512550190091133
7.255920886993408,0.019645990803837776,-0.3744182586669922,0.05054550990462303,-0.018501564860343933,-0.02193484455347061,-0.026512550190091133
7.275930643081665,0.020027466118335724,-0.3751811981201172,0.05054550990462303,-0.018501564860343933,-0.02193484455347061,-0.026512550190091133
7.295984745025635,0.020027466118335724,-0.3767071068286896,0.05092698708176613,-0.018501564860343933,-0.02193484455347061,-0.026512550190091133
7.316418170928955,0.020027466118335724,-0.3774700462818146,0.05092698708176613,-0.018501564860343933,-0.02193484455347061,-0.026512550190091133
7.336543321609497,0.020027466118335724,-0.37937742471694946,0.05092698708176613,-0.018501564860343933,-0.02193484455347061,-0.026512550190091133
7.356669187545776,0.020027466118335724,-0.38204777240753174,0.05092698708176613,-0.018501564860343933,-0.02193484455347061,-0.026512550190091133
7.376775026321411,0.020027466118335724,-0.3839551508426666,0.05130846053361893,-0.018501564860343933,-0.02231631986796856,-0.026512550190091133
7.396905183792114,0.020027466118335724,-0.3850995600223541,0.051689937710762024,-0.01888304017484188,-0.02231631986796856,-0.02689402550458908
7.417025327682495,0.02040894143283367,-0.387006938457489,0.05207141116261482,-0.01888304017484188,-0.02231631986796856,-0.02689402550458908
7.4370505809783936,0.02040894143283367,-0.3885328471660614,0.05207141116261482,-0.01888304017484188,-0.02231631986796856,-0.02689402550458908
7.457200050354004,0.02040894143283367,-0.3896772861480713,0.05245288833975792,-0.01888304017484188,-0.022697795182466507,-0.02689402550458908
7.477276086807251,0.02079041674733162,-0.3912031650543213,0.05283436179161072,-0.01888304017484188,-0.022697795182466507,-0.02689402550458908
7.497340202331543,0.02079041674733162,-0.3927290737628937,0.05283436179161072,-0.01888304017484188,-0.023079270496964455,-0.02689402550458908
7.517405986785889,0.02079041674733162,-0.3931105434894562,0.05283436179161072,-0.01888304017484188,-0.022697795182466507,-0.02689402550458908
7.537454605102539,0.02079041674733162,-0.39463645219802856,0.053215838968753815,-0.01888304017484188,-0.023079270496964455,-0.02689402550458908
7.557647705078125,0.021171892061829567,-0.39692530035972595,0.05397878959774971,-0.01888304017484188,-0.023079270496964455,-0.02689402550458908
7.577656507492065,0.021171892061829567,-0.39883267879486084,0.0551232174038887,-0.01888304017484188,-0.023460745811462402,-0.02727550081908703
7.597775936126709,0.021171892061829567,-0.3999771177768707,0.0551232174038887,-0.01926451548933983,-0.02384222112596035,-0.02727550081908703
7.618072748184204,0.021171892061829567,-0.4022659659385681,0.0551232174038887,-0.01926451548933983,-0.024223696440458298,-0.02727550081908703
7.638182163238525,0.021171892061829567,-0.404173344373703,0.0551232174038887,-0.01926451548933983,-0.024605173617601395,-0.02727550081908703
7.658334970474243,0.021553369238972664,-0.4056992530822754,0.0558861680328846,-0.01926451548933983,-0.024605173617601395,-0.02727550081908703
7.678355693817139,0.02193484455347061,-0.4076066315174103,0.0558861680328846,-0.01926451548933983,-0.024986648932099342,-0.027656977996230125
7.698471784591675,0.02193484455347061,-0.4083695709705353,0.0558861680328846,-0.01926451548933983,-0.024605173617601395,-0.027656977996230125
7.7185633182525635,0.02231631986796856,-0.41027694940567017,0.056267641484737396,-0.01926451548933983,-0.024605173617601395,-0.027656977996230125
7.738602638244629,0.02231631986796856,-0.41103988885879517,0.05703059583902359,-0.019645990803837776,-0.024605173617601395,-0.028038453310728073
7.7586798667907715,0.02231631986796856,-0.41256579756736755,0.05741206929087639,-0.019645990803837776,-0.024605173617601395,-0.028038453310728073
7.779106616973877,0.02231631986796856,-0.41447317600250244,0.05741206929087639,-0.020027466118335724,-0.024986648932099342,-0.02841992862522602
7.799238681793213,0.022697795182466507,-0.41676202416419983,0.058175019919872284,-0.020027466118335724,-0.024986648932099342,-0.02880140393972397
7.819273948669434,0.023079270496964455,-0.4190509021282196,0.058175019919872284,-0.02040894143283367,-0.024986648932099342,-0.029564354568719864
7.839330673217773,0.023079270496964455,-0.4209582805633545,0.05855649709701538,-0.021171892061829567,-0.02536812424659729,-0.02994582988321781
7.859447002410889,0.023079270496964455,-0.4228656589984894,0.05855649709701538,-0.021171892061829567,-0.024986648932099342,-0.029564354568719864
7.879621267318726,0.023079270496964455,-0.4236285984516144,0.05893797054886818,-0.021171892061829567,-0.02536812424659729,-0.02994582988321781
7.899653673171997,0.023079270496964455,-0.42515450716018677,0.059319447726011276,-0.021553369238972664,-0.02536812424659729,-0.02994582988321781
7.919722557067871,0.023079270496964455,-0.42591744661331177,0.059319447726011276,-0.021553369238972664,-0.02536812424659729,-0.02994582988321781
7.93976902961731,0.023079270496964455,-0.42706188559532166,0.06008239835500717,-0.021171892061829567,-0.02536812424659729,-0.029564354568719864
7.959949016571045,0.023460745811462402,-0.42896926403045654,0.06046387553215027,-0.021553369238972664,-0.02536812424659729,-0.02994582988321781
7.979961156845093,0.02384222112596035,-0.43011367321014404,0.06084534898400307,-0.02193484455347061,-0.02536812424659729,-0.02994582988321781
8.000039100646973,0.024223696440458298,-0.43202105164527893,0.061226826161146164,-0.021553369238972664,-0.025749599561095238,-0.02994582988321781
8.020080089569092,0.024223696440458298,-0.4339284300804138,0.06160829961299896,-0.021553369238972664,-0.025749599561095238,-0.029564354568719864
8.040169954299927,0.024223696440458298,-0.4358358085155487,0.06237125024199486,-0.021553369238972664,-0.025749599561095238,-0.029564354568719864
8.060242891311646,0.024223696440458298,-0.4373617172241211,0.06275273114442825,-0.021553369238972664,-0.025749599561095238,-0.02994582988321781
8.080302715301514,0.024605173617601395,-0.4396505653858185,0.06313420087099075,-0.021553369238972664,-0.025749599561095238,-0.029564354568719864
8.100452661514282,0.024605173617601395,-0.44155794382095337,0.06313420087099075,-0.021171892061829567,-0.026131074875593185,-0.029564354568719864
8.120542526245117,0.024986648932099342,-0.44308385252952576,0.06313420087099075,-0.021171892061829567,-0.026131074875593185,-0.029182879254221916
8.140611171722412,0.024986648932099342,-0.44384679198265076,0.06351567804813385,-0.021171892061829567,-0.026512550190091133,-0.029182879254221916
8.160654306411743,0.024986648932099342,-0.44460976123809814,0.06351567804813385,-0.021171892061829567,-0.026512550190091133,-0.029182879254221916
8.180779695510864,0.024986648932099342,-0.44689860939979553,0.06466010212898254,-0.021171892061829567,-0.02689402550458908,-0.029182879254221916
8.200865268707275,0.024986648932099342,-0.4491874575614929,0.06542305648326874,-0.021171892061829567,-0.026512550190091133,-0.029182879254221916
8.221008062362671,0.024986648932099342,-0.4503318965435028,0.06542305648326874,-0.021171892061829567,-0.02689402550458908,-0.029182879254221916
8.241001605987549,0.02536812424659729,-0.4514763057231903,0.06542305648326874,-0.02079041674733162,-0.02689402550458908,-0.029182879254221916
8.261084794998169,0.02536812424659729,-0.4533836841583252,0.06580453366041183,-0.02079041674733162,-0.02689402550458908,-0.029182879254221916
8.281150102615356,0.02536812424659729,-0.4552910625934601,0.06618601083755493,-0.02079041674733162,-0.02727550081908703,-0.029182879254221916
8.301210165023804,0.02536812424659729,-0.45681697130203247,0.06656748056411743,-0.021171892061829567,-0.02727550081908703,-0.029182879254221916
8.32125210762024,0.025749599561095238,-0.45796138048171997,0.06694895774126053,-0.02079041674733162,-0.02727550081908703,-0.029182879254221916
8.341527223587036,0.026131074875593185,-0.45986875891685486,0.06733043491840363,-0.021171892061829567,-0.027656977996230125,-0.029182879254221916
8.361504077911377,0.026512550190091133,-0.46139466762542725,0.06771191209554672,-0.021171892061829567,-0.027656977996230125,-0.029182879254221916
8.381559371948242,0.026512550190091133,-0.46292057633399963,0.06771191209554672,-0.02079041674733162,-0.027656977996230125,-0.029182879254221916
8.401577234268188,0.026131074875593185,-0.46368351578712463,0.06847485899925232,-0.02079041674733162,-0.027656977996230125,-0.02880140393972397
8.421676635742188,0.026512550190091133,-0.4655908942222595,0.06923781335353851,-0.021171892061829567,-0.027656977996230125,-0.029182879254221916
8.441737413406372,0.026512550190091133,-0.4674982726573944,0.06961929053068161,-0.02079041674733162,-0.027656977996230125,-0.029182879254221916
8.46189546585083,0.026512550190091133,-0.4686427116394043,0.07000076025724411,-0.02079041674733162,-0.027656977996230125,-0.029182879254221916
8.4819176197052,0.02689402550458908,-0.4697871506214142,0.07038223743438721,-0.02079041674733162,-0.027656977996230125,-0.029182879254221916
8.502088785171509,0.02689402550458908,-0.4716945290565491,0.0707637146115303,-0.021171892061829567,-0.027656977996230125,-0.029182879254221916
8.522113561630249,0.02727550081908703,-0.4732204079627991,0.0707637146115303,-0.021171892061829567,-0.027656977996230125,-0.029182879254221916
8.54218602180481,0.02727550081908703,-0.47474631667137146,0.0715266615152359,-0.021171892061829567,-0.027656977996230125,-0.029182879254221916
8.562226057052612,0.02727550081908703,-0.47627222537994385,0.071908138692379,-0.021171892061829567,-0.02727550081908703,-0.029564354568719864
8.58232831954956,0.02727550081908703,-0.47779813408851624,0.07267109304666519,-0.021171892061829567,-0.02727550081908703,-0.029564354568719864
8.6024329662323,0.02727550081908703,-0.4797055125236511,0.07305257022380829,-0.021171892061829567,-0.02727550081908703,-0.029564354568719864
8.622482538223267,0.027656977996230125,-0.4808499217033386,0.07305257022380829,-0.021171892061829567,-0.027656977996230125,-0.029564354568719864
8.642525434494019,0.02841992862522602,-0.482375830411911,0.07343403995037079,-0.021171892061829567,-0.027656977996230125,-0.029564354568719864
8.662792921066284,0.02841992862522602,-0.4842832088470459,0.07381551712751389,-0.021553369238972664,-0.027656977996230125,-0.02994582988321781
8.68289828300476,0.02841992862522602,-0.4865720570087433,0.07419699430465698,-0.021171892061829567,-0.027656977996230125,-0.029564354568719864
8.703094720840454,0.02841992862522602,-0.4877164959907532,0.07495994865894318,-0.021171892061829567,-0.027656977996230125,-0.02994582988321781
8.723007440567017,0.02841992862522602,-0.4892423748970032,0.07534141838550568,-0.021553369238972664,-0.027656977996230125,-0.02994582988321781
8.743224859237671,0.02880140393972397,-0.49076828360557556,0.07572289556264877,-0.021171892061829567,-0.028038453310728073,-0.02994582988321781
8.763282775878906,0.029182879254221916,-0.49305713176727295,0.07648584991693497,-0.021553369238972664,-0.02841992862522602,-0.02994582988321781
8.783318758010864,0.029182879254221916,-0.49496451020240784,0.07724879682064056,-0.021553369238972664,-0.028038453310728073,-0.02994582988321781
8.803512334823608,0.029182879254221916,-0.4964904189109802,0.07763027399778366,-0.021553369238972664,-0.028038453310728073,-0.02994582988321781
8.823731660842896,0.029182879254221916,-0.4987792670726776,0.07801175117492676,-0.021553369238972664,-0.028038453310728073,-0.02994582988321781
8.843743801116943,0.029564354568719864,-0.5006866455078125,0.07801175117492676,-0.021553369238972664,-0.02841992862522602,-0.02994582988321781
8.863802671432495,0.029564354568719864,-0.5022125840187073,0.07839322835206985,-0.021553369238972664,-0.02841992862522602,-0.02994582988321781
8.883890628814697,0.029564354568719864,-0.5037384629249573,0.08030059933662415,-0.021553369238972664,-0.02841992862522602,-0.02994582988321781
8.904009103775024,0.02994582988321781,-0.5064088106155396,0.08068207651376724,-0.021553369238972664,-0.02841992862522602,-0.02994582988321781
8.924139499664307,0.03032730519771576,-0.508316159248352,0.08144503086805344,-0.02193484455347061,-0.02880140393972397,-0.02994582988321781
8.944180250167847,0.03032730519771576,-0.5094605684280396,0.08144503086805344,-0.02193484455347061,-0.02880140393972397,-0.03032730519771576
8.964750528335571,0.03032730519771576,-0.5113679766654968,0.08220797777175903,-0.02193484455347061,-0.02880140393972397,-0.03032730519771576
8.984875917434692,0.03032730519771576,-0.5136567950248718,0.08220797777175903,-0.021553369238972664,-0.02880140393972397,-0.03032730519771576
9.00494909286499,0.030708782374858856,-0.5151827335357666,0.08258945494890213,-0.02193484455347061,-0.02880140393972397,-0.03032730519771576
9.0249764919281,0.030708782374858856,-0.5163271427154541,0.08258945494890213,-0.021553369238972664,-0.02880140393972397,-0.03032730519771576
9.045062780380249,0.031090257689356804,-0.5174715518951416,0.08335240930318832,-0.021553369238972664,-0.029182879254221916,-0.03032730519771576
9.065192937850952,0.03147173300385475,-0.5201418995857239,0.08449683338403702,-0.021553369238972664,-0.029182879254221916,-0.03032730519771576
9.085324764251709,0.03147173300385475,-0.5220493078231812,0.08525978773832321,-0.02193484455347061,-0.029182879254221916,-0.03032730519771576
9.105314016342163,0.03147173300385475,-0.5239566564559937,0.0864042118191719,-0.02193484455347061,-0.029182879254221916,-0.030708782374858856
9.125515222549438,0.03147173300385475,-0.5262455344200134,0.0879301130771637,-0.02193484455347061,-0.029564354568719864,-0.03032730519771576
9.145532131195068,0.03223468363285065,-0.5289158225059509,0.08945601433515549,-0.02231631986796856,-0.029564354568719864,-0.030708782374858856
9.165637731552124,0.032616160809993744,-0.5304417610168457,0.08945601433515549,-0.02231631986796856,-0.029564354568719864,-0.031090257689356804
9.185746431350708,0.03223468363285065,-0.5323491096496582,0.08983749151229858,-0.02231631986796856,-0.02994582988321781,-0.030708782374858856
9.205921411514282,0.032616160809993744,-0.5350194573402405,0.09098191559314728,-0.02231631986796856,-0.02994582988321781,-0.030708782374858856
9.226011753082275,0.032616160809993744,-0.536926805973053,0.09212634712457657,-0.02231631986796856,-0.02994582988321781,-0.030708782374858856
9.246449947357178,0.032616160809993744,-0.5384527444839478,0.09250781685113907,-0.02231631986796856,-0.02994582988321781,-0.031090257689356804
9.26653790473938,0.03299763426184654,-0.5407415628433228,0.09288929402828217,-0.02231631986796856,-0.02994582988321781,-0.030708782374858856
9.286654949188232,0.03337911143898964,-0.54264897108078,0.09365224838256836,-0.02231631986796856,-0.030708782374858856,-0.030708782374858856
9.30671739578247,0.03337911143898964,-0.5445563197135925,0.09441519528627396,-0.02231631986796856,-0.030708782374858856,-0.030708782374858856
9.326801538467407,0.03337911143898964,-0.5464637279510498,0.09517814964056015,-0.02231631986796856,-0.030708782374858856,-0.030708782374858856
9.346854448318481,0.03337911143898964,-0.5464637279510498,0.09555962681770325,-0.02193484455347061,-0.030708782374858856,-0.03032730519771576
9.3669593334198,0.03337911143898964,-0.5464637279510498,0.09555962681770325,-0.023460745811462402,-0.030708782374858856,-0.03223468363285065
9.386981964111328,0.03337911143898964,-0.5464637279510498,0.09555962681770325,-0.022697795182466507,-0.032616160809993744,-0.03147173300385475
9.40706491470337,0.03337911143898964,-0.5464637279510498,0.09555962681770325,-0.023079270496964455,-0.03185320645570755,-0.03185320645570755
9.427122354507446,0.03337911143898964,-0.5464637279510498,0.09555962681770325,-0.02384222112596035,-0.03185320645570755,-0.03299763426184654
9.447196006774902,0.03337911143898964,-0.5464637279510498,0.09555962681770325,-0.022697795182466507,-0.03223468363285065,-0.03185320645570755
9.467270374298096,0.03337911143898964,-0.5464637279510498,0.09555962681770325,-0.023079270496964455,-0.03185320645570755,-0.03223468363285065
9.487388610839844,0.03337911143898964,-0.5464637279510498,0.09555962681770325,-0.02231631986796856,-0.03185320645570755,-0.03147173300385475
9.507452964782715,0.03337911143898964,-0.5464637279510498,0.09555962681770325,-0.02231631986796856,-0.03185320645570755,-0.03147173300385475
9.527544498443604,0.03337911143898964,-0.5464637279510498,0.09555962681770325,-0.02231631986796856,-0.03185320645570755,-0.031090257689356804
9.547563552856445,0.03337911143898964,-0.5464637279510498,0.09555962681770325,-0.02231631986796856,-0.03185320645570755,-0.031090257689356804
9.56778073310852,0.03337911143898964,-0.5464637279510498,0.09555962681770325,-0.02231631986796856,-0.03185320645570755,-0.031090257689356804
9.587758302688599,0.03337911143898964,-0.5464637279510498,0.09555962681770325,-0.02231631986796856,-0.03185320645570755,-0.031090257689356804
9.607825994491577,0.03337911143898964,-0.5464637279510498,0.09555962681770325,-0.02231631986796856,-0.03185320645570755,-0.031090257689356804
9.628056764602661,0.03337911143898964,-0.5464637279510498,0.09555962681770325,-0.02231631986796856,-0.03185320645570755,-0.031090257689356804
9.648208379745483,0.03337911143898964,-0.5464637279510498,0.09555962681770325,-0.02231631986796856,-0.03185320645570755,-0.031090257689356804
9.668304443359375,0.03337911143898964,-0.5464637279510498,0.09555962681770325,-0.02231631986796856,-0.03185320645570755,-0.031090257689356804
9.688333511352539,0.03337911143898964,-0.5464637279510498,0.09555962681770325,-0.02231631986796856,-0.03185320645570755,-0.031090257689356804
9.708422422409058,0.03337911143898964,-0.5464637279510498,0.09555962681770325,-0.02231631986796856,-0.03185320645570755,-0.031090257689356804
9.728477478027344,0.03337911143898964,-0.5464637279510498,0.09555962681770325,-0.02231631986796856,-0.03185320645570755,-0.031090257689356804
9.748550415039062,0.03337911143898964,-0.5464637279510498,0.09555962681770325,-0.02231631986796856,-0.03185320645570755,-0.031090257689356804
9.76862359046936,0.03337911143898964,-0.5464637279510498,0.09555962681770325,-0.02231631986796856,-0.03185320645570755,-0.031090257689356804
9.788684606552124,0.03337911143898964,-0.5464637279510498,0.09555962681770325,-0.02231631986796856,-0.03185320645570755,-0.031090257689356804
9.808842897415161,0.03337911143898964,-0.5464637279510498,0.09555962681770325,-0.02231631986796856,-0.03185320645570755,-0.031090257689356804
9.82892894744873,0.03337911143898964,-0.5464637279510498,0.09555962681770325,-0.02231631986796856,-0.03185320645570755,-0.031090257689356804
9.849043369293213,0.03337911143898964,-0.5464637279510498,0.09555962681770325,-0.02231631986796856,-0.03185320645570755,-0.031090257689356804
9.869130373001099,0.03337911143898964,-0.5464637279510498,0.09555962681770325,-0.02231631986796856,-0.03185320645570755,-0.031090257689356804
9.889163255691528,0.03337911143898964,-0.5464637279510498,0.09555962681770325,-0.02231631986796856,-0.03185320645570755,-0.031090257689356804
9.909252882003784,0.03337911143898964,-0.5464637279510498,0.09555962681770325,-0.02231631986796856,-0.03185320645570755,-0.031090257689356804
9.929319143295288,0.03337911143898964,-0.5464637279510498,0.09555962681770325,-0.02231631986796856,-0.03185320645570755,-0.031090257689356804
9.94939661026001,0.03337911143898964,-0.5464637279510498,0.09555962681770325,-0.02231631986796856,-0.03185320645570755,-0.031090257689356804
9.96945333480835,0.03337911143898964,-0.5464637279510498,0.09555962681770325,-0.02231631986796856,-0.03185320645570755,-0.031090257689356804
9.98952841758728,0.03337911143898964,-0.5464637279510498,0.09555962681770325,-0.02231631986796856,-0.03185320645570755,-0.031090257689356804
10.009632349014282,0.03337911143898964,-0.5464637279510498,0.09555962681770325,-0.02231631986796856,-0.03185320645570755,-0.031090257689356804
10.02969765663147,0.03337911143898964,-0.5464637279510498,0.09555962681770325,-0.02231631986796856,-0.03185320645570755,-0.031090257689356804
10.049749374389648,0.03337911143898964,-0.5464637279510498,0.09555962681770325,-0.02231631986796856,-0.03185320645570755,-0.031090257689356804
10.069868803024292,0.03337911143898964,-0.5464637279510498,0.09555962681770325,-0.02231631986796856,-0.03185320645570755,-0.031090257689356804
10.089943408966064,0.03337911143898964,-0.5464637279510498,0.09555962681770325,-0.02231631986796856,-0.03185320645570755,-0.031090257689356804
10.109992980957031,0.03337911143898964,-0.5464637279510498,0.09555962681770325,-0.02231631986796856,-0.03185320645570755,-0.031090257689356804
10.130034923553467,0.03337911143898964,-0.5464637279510498,0.09555962681770325,-0.02231631986796856,-0.03185320645570755,-0.031090257689356804
10.150118350982666,0.03337911143898964,-0.5464637279510498,0.09555962681770325,-0.02231631986796856,-0.03185320645570755,-0.031090257689356804
10.170187711715698,0.03337911143898964,-0.5464637279510498,0.09555962681770325,-0.02231631986796856,-0.03185320645570755,-0.031090257689356804
10.19033670425415,0.03337911143898964,-0.5464637279510498,0.09555962681770325,-0.02231631986796856,-0.03185320645570755,-0.031090257689356804
10.210329294204712,0.03337911143898964,-0.5464637279510498,0.09555962681770325,-0.02231631986796856,-0.03185320645570755,-0.031090257689356804
10.230633020401001,0.03337911143898964,-0.5464637279510498,0.09555962681770325,-0.02231631986796856,-0.03185320645570755,-0.031090257689356804
10.250629186630249,0.03337911143898964,-0.5464637279510498,0.09555962681770325,-0.02231631986796856,-0.03185320645570755,-0.031090257689356804
10.270663976669312,0.03337911143898964,-0.5464637279510498,0.09555962681770325,-0.02231631986796856,-0.03185320645570755,-0.031090257689356804
10.29085636138916,0.03337911143898964,-0.5464637279510498,0.09555962681770325,-0.02231631986796856,-0.03185320645570755,-0.031090257689356804
10.310970306396484,0.03337911143898964,-0.5464637279510498,0.09555962681770325,-0.02231631986796856,-0.03185320645570755,-0.031090257689356804
10.331028938293457,0.03337911143898964,-0.5464637279510498,0.09555962681770325,-0.02231631986796856,-0.03185320645570755,-0.031090257689356804
10.351079225540161,0.03337911143898964,-0.5464637279510498,0.09555962681770325,-0.02231631986796856,-0.03185320645570755,-0.031090257689356804
10.371235370635986,0.03337911143898964,-0.5464637279510498,0.09555962681770325,-0.02231631986796856,-0.03185320645570755,-0.031090257689356804
10.391456842422485,0.03337911143898964,-0.5464637279510498,0.09555962681770325,-0.02231631986796856,-0.03185320645570755,-0.031090257689356804
10.411475419998169,0.03337911143898964,-0.5464637279510498,0.09555962681770325,-0.02231631986796856,-0.03185320645570755,-0.031090257689356804
10.431565046310425,0.03337911143898964,-0.5464637279510498,0.09555962681770325,-0.02231631986796856,-0.03185320645570755,-0.031090257689356804
10.45169472694397,0.03337911143898964,-0.5464637279510498,0.09555962681770325,-0.02231631986796856,-0.03185320645570755,-0.031090257689356804
10.47184443473816,0.03337911143898964,-0.5464637279510498,0.09555962681770325,-0.02231631986796856,-0.03185320645570755,-0.031090257689356804
10.491840839385986,0.03337911143898964,-0.5464637279510498,0.09555962681770325,-0.02231631986796856,-0.03185320645570755,-0.031090257689356804
10.511887788772583,0.03337911143898964,-0.5464637279510498,0.09555962681770325,-0.02231631986796856,-0.03185320645570755,-0.031090257689356804
10.531976699829102,0.03337911143898964,-0.5464637279510498,0.09555962681770325,-0.02231631986796856,-0.03185320645570755,-0.031090257689356804
10.552039384841919,0.03337911143898964,-0.5464637279510498,0.09555962681770325,-0.02231631986796856,-0.03185320645570755,-0.031090257689356804
10.572179555892944,0.03337911143898964,-0.5464637279510498,0.09555962681770325,-0.02231631986796856,-0.03185320645570755,-0.031090257689356804
10.592171907424927,0.03337911143898964,-0.5464637279510498,0.09555962681770325,-0.02231631986796856,-0.03185320645570755,-0.031090257689356804
10.612261295318604,0.03337911143898964,-0.5464637279510498,0.09555962681770325,-0.02231631986796856,-0.03185320645570755,-0.031090257689356804
10.63237476348877,0.03337911143898964,-0.5464637279510498,0.09555962681770325,-0.02231631986796856,-0.03185320645570755,-0.031090257689356804
10.652418851852417,0.03337911143898964,-0.5464637279510498,0.09555962681770325,-0.02231631986796856,-0.03185320645570755,-0.031090257689356804
10.672444820404053,0.03337911143898964,-0.5464637279510498,0.09555962681770325,-0.02231631986796856,-0.03185320645570755,-0.031090257689356804
10.692531824111938,0.03337911143898964,-0.5464637279510498,0.09555962681770325,-0.02231631986796856,-0.03185320645570755,-0.031090257689356804
10.712597131729126,0.03337911143898964,-0.5464637279510498,0.09555962681770325,-0.02231631986796856,-0.03185320645570755,-0.031090257689356804
10.73265790939331,0.03337911143898964,-0.5464637279510498,0.09555962681770325,-0.02231631986796856,-0.03185320645570755,-0.031090257689356804
10.752769708633423,0.03337911143898964,-0.5464637279510498,0.09555962681770325,-0.02231631986796856,-0.03185320645570755,-0.031090257689356804
10.772845268249512,0.03337911143898964,-0.5464637279510498,0.09555962681770325,-0.02231631986796856,-0.03185320645570755,-0.031090257689356804
10.792952299118042,0.03337911143898964,-0.5464637279510498,0.09555962681770325,-0.02231631986796856,-0.03185320645570755,-0.031090257689356804
10.812988519668579,0.03337911143898964,-0.5464637279510498,0.09555962681770325,-0.02231631986796856,-0.03185320645570755,-0.031090257689356804
10.833173513412476,0.03337911143898964,-0.5464637279510498,0.09555962681770325,-0.02231631986796856,-0.03185320645570755,-0.031090257689356804
10.853265523910522,0.03337911143898964,-0.5464637279510498,0.09555962681770325,-0.02231631986796856,-0.03185320645570755,-0.031090257689356804
10.873505353927612,0.03337911143898964,-0.5464637279510498,0.09555962681770325,-0.02231631986796856,-0.03185320645570755,-0.031090257689356804
10.893454790115356,0.03337911143898964,-0.5464637279510498,0.09555962681770325,-0.02231631986796856,-0.03185320645570755,-0.031090257689356804
10.91352915763855,0.03337911143898964,-0.5464637279510498,0.09555962681770325,-0.02231631986796856,-0.03185320645570755,-0.031090257689356804
10.933627367019653,0.03337911143898964,-0.5464637279510498,0.09555962681770325,-0.02231631986796856,-0.03185320645570755,-0.031090257689356804
10.95366644859314,0.03337911143898964,-0.5464637279510498,0.09555962681770325,-0.02231631986796856,-0.03185320645570755,-0.031090257689356804
10.973783016204834,0.03337911143898964,-0.5464637279510498,0.09555962681770325,-0.02231631986796856,-0.03185320645570755,-0.031090257689356804
10.993896961212158,0.03337911143898964,-0.5464637279510498,0.09555962681770325,-0.02231631986796856,-0.03185320645570755,-0.031090257689356804
11.01396918296814,0.03337911143898964,-0.5464637279510498,0.09555962681770325,-0.02231631986796856,-0.03185320645570755,-0.031090257689356804
11.033987045288086,0.03337911143898964,-0.5464637279510498,0.09555962681770325,-0.02231631986796856,-0.03185320645570755,-0.031090257689356804
11.05413269996643,0.03337911143898964,-0.5464637279510498,0.09555962681770325,-0.02231631986796856,-0.03185320645570755,-0.031090257689356804
11.074334144592285,0.03337911143898964,-0.5464637279510498,0.09555962681770325,-0.02231631986796856,-0.03185320645570755,-0.031090257689356804
11.094303369522095,0.03337911143898964,-0.5464637279510498,0.09555962681770325,-0.02231631986796856,-0.03185320645570755,-0.031090257689356804
11.114407777786255,0.03337911143898964,-0.5464637279510498,0.09555962681770325,-0.02231631986796856,-0.03185320645570755,-0.031090257689356804
11.134530782699585,0.03337911143898964,-0.5464637279510498,0.09555962681770325,-0.02231631986796856,-0.03185320645570755,-0.031090257689356804
11.154633283615112,0.03337911143898964,-0.5464637279510498,0.09555962681770325,-0.02231631986796856,-0.03185320645570755,-0.031090257689356804
11.174672365188599,0.03337911143898964,-0.5464637279510498,0.09555962681770325,-0.02231631986796856,-0.03185320645570755,-0.031090257689356804
11.194729566574097,0.03337911143898964,-0.5464637279510498,0.09555962681770325,-0.02231631986796856,-0.03185320645570755,-0.031090257689356804
11.21492075920105,0.03337911143898964,-0.5464637279510498,0.09555962681770325,-0.02231631986796856,-0.03185320645570755,-0.031090257689356804
11.234941959381104,0.03337911143898964,-0.5464637279510498,0.09555962681770325,-0.02231631986796856,-0.03185320645570755,-0.031090257689356804
11.255021810531616,0.03337911143898964,-0.5464637279510498,0.09555962681770325,-0.02231631986796856,-0.03185320645570755,-0.031090257689356804
11.27512788772583,0.03337911143898964,-0.5464637279510498,0.09555962681770325,-0.02231631986796856,-0.03185320645570755,-0.031090257689356804
11.295191764831543,0.03337911143898964,-0.5464637279510498,0.09555962681770325,-0.02231631986796856,-0.03185320645570755,-0.031090257689356804
11.315268278121948,0.03337911143898964,-0.5464637279510498,0.09555962681770325,-0.02231631986796856,-0.03185320645570755,-0.031090257689356804
11.335375308990479,0.03337911143898964,-0.5464637279510498,0.09555962681770325,-0.02231631986796856,-0.03185320645570755,-0.031090257689356804
11.355464696884155,0.03337911143898964,-0.5464637279510498,0.09555962681770325,-0.02231631986796856,-0.03185320645570755,-0.031090257689356804
11.375568151473999,0.03337911143898964,-0.5464637279510498,0.09555962681770325,-0.02231631986796856,-0.03185320645570755,-0.031090257689356804
11.395670890808105,0.03337911143898964,-0.5464637279510498,0.09555962681770325,-0.02231631986796856,-0.03185320645570755,-0.031090257689356804
11.415768384933472,0.03337911143898964,-0.5464637279510498,0.09555962681770325,-0.02231631986796856,-0.03185320645570755,-0.031090257689356804
11.435761451721191,0.03337911143898964,-0.5464637279510498,0.09555962681770325,-0.02231631986796856,-0.03185320645570755,-0.031090257689356804
11.4558687210083,0.03337911143898964,-0.5464637279510498,0.09555962681770325,-0.02231631986796856,-0.03185320645570755,-0.031090257689356804
11.475929260253906,0.03337911143898964,-0.5464637279510498,0.09555962681770325,-0.02231631986796856,-0.03185320645570755,-0.031090257689356804
11.49600100517273,0.03337911143898964,-0.5464637279510498,0.09555962681770325,-0.02231631986796856,-0.03185320645570755,-0.031090257689356804
11.51679539680481,0.03337911143898964,-0.5464637279510498,0.09555962681770325,-0.02231631986796856,-0.03185320645570755,-0.031090257689356804
11.536908864974976,0.03337911143898964,-0.5464637279510498,0.09555962681770325,-0.02231631986796856,-0.03185320645570755,-0.031090257689356804
11.557005882263184,0.03337911143898964,-0.5464637279510498,0.09555962681770325,-0.02231631986796856,-0.03185320645570755,-0.031090257689356804
11.577135562896729,0.03337911143898964,-0.5464637279510498,0.09555962681770325,-0.02231631986796856,-0.03185320645570755,-0.031090257689356804
11.598125457763672,0.03337911143898964,-0.5464637279510498,0.09555962681770325,-0.02231631986796856,-0.03185320645570755,-0.031090257689356804
11.618290901184082,0.03337911143898964,-0.5464637279510498,0.09555962681770325,-0.02231631986796856,-0.03185320645570755,-0.031090257689356804
11.63829755783081,0.03337911143898964,-0.5464637279510498,0.09555962681770325,-0.02231631986796856,-0.03185320645570755,-0.031090257689356804
11.658341884613037,0.03337911143898964,-0.5464637279510498,0.09555962681770325,-0.02231631986796856,-0.03185320645570755,-0.031090257689356804
11.678434610366821,0.03337911143898964,-0.5464637279510498,0.09555962681770325,-0.02231631986796856,-0.03185320645570755,-0.031090257689356804
11.698493719100952,0.03337911143898964,-0.5464637279510498,0.09555962681770325,-0.02231631986796856,-0.03185320645570755,-0.031090257689356804
11.718562841415405,0.03337911143898964,-0.5464637279510498,0.09555962681770325,-0.02231631986796856,-0.03185320645570755,-0.031090257689356804
11.73863434791565,0.03337911143898964,-0.5464637279510498,0.09555962681770325,-0.02231631986796856,-0.03185320645570755,-0.031090257689356804
11.75874400138855,0.03337911143898964,-0.5464637279510498,0.09555962681770325,-0.02231631986796856,-0.03185320645570755,-0.031090257689356804
11.778828382492065,0.03337911143898964,-0.5464637279510498,0.09555962681770325,-0.02231631986796856,-0.03185320645570755,-0.031090257689356804
11.798876523971558,0.03337911143898964,-0.5464637279510498,0.09555962681770325,-0.02231631986796856,-0.03185320645570755,-0.031090257689356804
11.818955898284912,0.03337911143898964,-0.5464637279510498,0.09555962681770325,-0.02231631986796856,-0.03185320645570755,-0.031090257689356804
11.83902621269226,0.03337911143898964,-0.5464637279510498,0.09555962681770325,-0.02231631986796856,-0.03185320645570755,-0.031090257689356804
11.859107732772827,0.03337911143898964,-0.5464637279510498,0.09555962681770325,-0.02231631986796856,-0.03185320645570755,-0.031090257689356804
11.879164934158325,0.03337911143898964,-0.5464637279510498,0.09555962681770325,-0.02231631986796856,-0.03185320645570755,-0.031090257689356804
11.899333238601685,0.03337911143898964,-0.5464637279510498,0.09555962681770325,-0.02231631986796856,-0.03185320645570755,-0.031090257689356804
11.919392347335815,0.03337911143898964,-0.5464637279510498,0.09555962681770325,-0.02231631986796856,-0.03185320645570755,-0.031090257689356804
11.939422845840454,0.03337911143898964,-0.5464637279510498,0.09555962681770325,-0.02231631986796856,-0.03185320645570755,-0.031090257689356804
11.95950436592102,0.03337911143898964,-0.5464637279510498,0.09555962681770325,-0.02231631986796856,-0.03185320645570755,-0.031090257689356804
11.979569911956787,0.03337911143898964,-0.5464637279510498,0.09555962681770325,-0.02231631986796856,-0.03185320645570755,-0.031090257689356804
11.99962306022644,0.03337911143898964,-0.5464637279510498,0.09555962681770325,-0.02231631986796856,-0.03185320645570755,-0.031090257689356804
12.019683122634888,0.03337911143898964,-0.5464637279510498,0.09555962681770325,-0.02231631986796856,-0.03185320645570755,-0.031090257689356804
12.039773941040039,0.03337911143898964,-0.5464637279510498,0.09555962681770325,-0.02231631986796856,-0.03185320645570755,-0.031090257689356804
12.059895992279053,0.03337911143898964,-0.5464637279510498,0.09555962681770325,-0.02231631986796856,-0.03185320645570755,-0.031090257689356804
12.079931735992432,0.03337911143898964,-0.5464637279510498,0.09555962681770325,-0.02231631986796856,-0.03185320645570755,-0.031090257689356804
12.0999915599823,0.03337911143898964,-0.5464637279510498,0.09555962681770325,-0.02231631986796856,-0.03185320645570755,-0.031090257689356804
12.120093584060669,0.03337911143898964,-0.5464637279510498,0.09555962681770325,-0.02231631986796856,-0.03185320645570755,-0.031090257689356804
12.140165090560913,0.03337911143898964,-0.5464637279510498,0.09555962681770325,-0.02231631986796856,-0.03185320645570755,-0.031090257689356804
12.160238265991211,0.03337911143898964,-0.5464637279510498,0.09555962681770325,-0.02231631986796856,-0.03185320645570755,-0.031090257689356804
12.180288791656494,0.03337911143898964,-0.5464637279510498,0.09555962681770325,-0.02231631986796856,-0.03185320645570755,-0.031090257689356804
12.200360536575317,0.03337911143898964,-0.5464637279510498,0.09555962681770325,-0.02231631986796856,-0.03185320645570755,-0.031090257689356804
12.22040057182312,0.03337911143898964,-0.5464637279510498,0.09555962681770325,-0.02231631986796856,-0.03185320645570755,-0.031090257689356804
12.240472316741943,0.03337911143898964,-0.5464637279510498,0.09555962681770325,-0.02231631986796856,-0.03185320645570755,-0.031090257689356804
12.260516881942749,0.03337911143898964,-0.5464637279510498,0.09555962681770325,-0.02231631986796856,-0.03185320645570755,-0.031090257689356804
12.280734539031982,0.03337911143898964,-0.5464637279510498,0.09555962681770325,-0.02231631986796856,-0.03185320645570755,-0.031090257689356804
12.300894737243652,0.03337911143898964,-0.5464637279510498,0.09555962681770325,-0.02231631986796856,-0.03185320645570755,-0.031090257689356804
12.32090711593628,0.03337911143898964,-0.5464637279510498,0.09555962681770325,-0.02231631986796856,-0.03185320645570755,-0.031090257689356804
12.340953350067139,0.03337911143898964,-0.5464637279510498,0.09555962681770325,-0.02231631986796856,-0.03185320645570755,-0.031090257689356804
12.361041069030762,0.03337911143898964,-0.5464637279510498,0.09555962681770325,-0.02231631986796856,-0.03185320645570755,-0.031090257689356804
12.381119728088379,0.03337911143898964,-0.5464637279510498,0.09555962681770325,-0.02231631986796856,-0.03185320645570755,-0.031090257689356804
12.401395082473755,0.03337911143898964,-0.5464637279510498,0.09555962681770325,-0.02231631986796856,-0.03185320645570755,-0.031090257689356804
12.421382904052734,0.03337911143898964,-0.5464637279510498,0.09555962681770325,-0.02231631986796856,-0.03185320645570755,-0.031090257689356804
12.441426753997803,0.03337911143898964,-0.5464637279510498,0.09555962681770325,-0.02231631986796856,-0.03185320645570755,-0.031090257689356804
12.46149492263794,0.03337911143898964,-0.5464637279510498,0.09555962681770325,-0.02231631986796856,-0.03185320645570755,-0.031090257689356804
12.48157262802124,0.03337911143898964,-0.5464637279510498,0.09555962681770325,-0.02231631986796856,-0.03185320645570755,-0.031090257689356804
12.501614809036255,0.03337911143898964,-0.5464637279510498,0.09555962681770325,-0.02231631986796856,-0.03185320645570755,-0.031090257689356804
12.521759510040283,0.03337911143898964,-0.5464637279510498,0.09555962681770325,-0.02231631986796856,-0.03185320645570755,-0.031090257689356804
12.54180908203125,0.03337911143898964,-0.5464637279510498,0.09555962681770325,-0.02231631986796856,-0.03185320645570755,-0.031090257689356804
12.561884641647339,0.03337911143898964,-0.5464637279510498,0.09555962681770325,-0.02231631986796856,-0.03185320645570755,-0.031090257689356804
12.582046031951904,0.03337911143898964,-0.5464637279510498,0.09555962681770325,-0.02231631986796856,-0.03185320645570755,-0.031090257689356804
12.60211968421936,0.03337911143898964,-0.5464637279510498,0.09555962681770325,-0.02231631986796856,-0.03185320645570755,-0.031090257689356804
12.622133255004883,0.03337911143898964,-0.5464637279510498,0.09555962681770325,-0.02231631986796856,-0.03185320645570755,-0.031090257689356804
12.64225697517395,0.03337911143898964,-0.5464637279510498,0.09555962681770325,-0.02231631986796856,-0.03185320645570755,-0.031090257689356804
12.662339687347412,0.03337911143898964,-0.5464637279510498,0.09555962681770325,-0.02231631986796856,-0.03185320645570755,-0.031090257689356804
12.682392120361328,0.03337911143898964,-0.5464637279510498,0.09555962681770325,-0.02231631986796856,-0.03185320645570755,-0.031090257689356804
12.70258641242981,0.03337911143898964,-0.5464637279510498,0.09555962681770325,-0.02231631986796856,-0.03185320645570755,-0.031090257689356804
12.722705841064453,0.03337911143898964,-0.5464637279510498,0.09555962681770325,-0.02231631986796856,-0.03185320645570755,-0.031090257689356804
12.742852449417114,0.03337911143898964,-0.5464637279510498,0.09555962681770325,-0.02231631986796856,-0.03185320645570755,-0.031090257689356804
12.762851476669312,0.03337911143898964,-0.5464637279510498,0.09555962681770325,-0.02231631986796856,-0.03185320645570755,-0.031090257689356804
12.78294038772583,0.03337911143898964,-0.5464637279510498,0.09555962681770325,-0.02231631986796856,-0.03185320645570755,-0.031090257689356804
12.803071022033691,0.03337911143898964,-0.5464637279510498,0.09555962681770325,-0.02231631986796856,-0.03185320645570755,-0.031090257689356804
12.82311224937439,0.03337911143898964,-0.5464637279510498,0.09555962681770325,-0.02231631986796856,-0.03185320645570755,-0.031090257689356804
12.843163251876831,0.03337911143898964,-0.5464637279510498,0.09555962681770325,-0.02231631986796856,-0.03185320645570755,-0.031090257689356804
12.86324405670166,0.03337911143898964,-0.5464637279510498,0.09555962681770325,-0.02231631986796856,-0.03185320645570755,-0.031090257689356804
12.883331537246704,0.03337911143898964,-0.5464637279510498,0.09555962681770325,-0.02231631986796856,-0.03185320645570755,-0.031090257689356804
12.90350341796875,0.03337911143898964,-0.5464637279510498,0.09555962681770325,-0.02231631986796856,-0.03185320645570755,-0.031090257689356804
12.923487424850464,0.03337911143898964,-0.5464637279510498,0.09555962681770325,-0.02231631986796856,-0.03185320645570755,-0.031090257689356804
12.943669080734253,0.03337911143898964,-0.5464637279510498,0.09555962681770325,-0.02231631986796856,-0.03185320645570755,-0.031090257689356804
12.963786840438843,0.03337911143898964,-0.5464637279510498,0.09555962681770325,-0.02231631986796856,-0.03185320645570755,-0.031090257689356804
12.983776092529297,0.03337911143898964,-0.5464637279510498,0.09555962681770325,-0.02231631986796856,-0.03185320645570755,-0.031090257689356804
13.003854036331177,0.03337911143898964,-0.5464637279510498,0.09555962681770325,-0.02231631986796856,-0.03185320645570755,-0.031090257689356804
13.023962259292603,0.03337911143898964,-0.5464637279510498,0.09555962681770325,-0.02231631986796856,-0.03185320645570755,-0.031090257689356804
13.044005870819092,0.03337911143898964,-0.5464637279510498,0.09555962681770325,-0.02231631986796856,-0.03185320645570755,-0.031090257689356804
13.064075231552124,0.03337911143898964,-0.5464637279510498,0.09555962681770325,-0.02231631986796856,-0.03185320645570755,-0.031090257689356804
13.084214448928833,0.03337911143898964,-0.5464637279510498,0.09555962681770325,-0.02231631986796856,-0.03185320645570755,-0.031090257689356804
13.104371786117554,0.03337911143898964,-0.5464637279510498,0.09555962681770325,-0.02231631986796856,-0.03185320645570755,-0.031090257689356804
13.12442135810852,0.03337911143898964,-0.5464637279510498,0.09555962681770325,-0.02231631986796856,-0.03185320645570755,-0.031090257689356804
13.144471883773804,0.03337911143898964,-0.5464637279510498,0.09555962681770325,-0.02231631986796856,-0.03185320645570755,-0.031090257689356804
13.164698362350464,0.03337911143898964,-0.5464637279510498,0.09555962681770325,-0.02231631986796856,-0.03185320645570755,-0.031090257689356804
13.184838771820068,0.03337911143898964,-0.5464637279510498,0.09555962681770325,-0.02231631986796856,-0.03185320645570755,-0.031090257689356804
13.204906702041626,0.03337911143898964,-0.5464637279510498,0.09555962681770325,-0.02231631986796856,-0.03185320645570755,-0.031090257689356804
13.22495722770691,0.03337911143898964,-0.5464637279510498,0.09555962681770325,-0.02231631986796856,-0.03185320645570755,-0.031090257689356804
13.245725393295288,0.03337911143898964,-0.5464637279510498,0.09555962681770325,-0.02231631986796856,-0.03185320645570755,-0.031090257689356804
13.265846014022827,0.03337911143898964,-0.5464637279510498,0.09555962681770325,-0.02231631986796856,-0.03185320645570755,-0.031090257689356804
13.285939693450928,0.03337911143898964,-0.5464637279510498,0.09555962681770325,-0.02231631986796856,-0.03185320645570755,-0.031090257689356804
13.306046724319458,0.03337911143898964,-0.5464637279510498,0.09555962681770325,-0.02231631986796856,-0.03185320645570755,-0.031090257689356804
13.326133966445923,0.03337911143898964,-0.5464637279510498,0.09555962681770325,-0.02231631986796856,-0.03185320645570755,-0.031090257689356804
13.346294403076172,0.03337911143898964,-0.5464637279510498,0.09555962681770325,-0.02231631986796856,-0.03185320645570755,-0.031090257689356804
13.366422891616821,0.03337911143898964,-0.5464637279510498,0.09555962681770325,-0.02231631986796856,-0.03185320645570755,-0.031090257689356804
13.386412382125854,0.03337911143898964,-0.5464637279510498,0.09555962681770325,-0.02231631986796856,-0.03185320645570755,-0.031090257689356804
13.406495332717896,0.03337911143898964,-0.5464637279510498,0.09555962681770325,-0.02231631986796856,-0.03185320645570755,-0.031090257689356804
13.426624059677124,0.03337911143898964,-0.5464637279510498,0.09555962681770325,-0.02231631986796856,-0.03185320645570755,-0.031090257689356804
13.446654796600342,0.03337911143898964,-0.5464637279510498,0.09555962681770325,-0.02231631986796856,-0.03185320645570755,-0.031090257689356804
13.466930866241455,0.03337911143898964,-0.5464637279510498,0.09555962681770325,-0.02231631986796856,-0.03185320645570755,-0.031090257689356804
13.487120628356934,0.03337911143898964,-0.5464637279510498,0.09555962681770325,-0.02231631986796856,-0.03185320645570755,-0.031090257689356804
13.507181644439697,0.03337911143898964,-0.5464637279510498,0.09555962681770325,-0.02231631986796856,-0.03185320645570755,-0.031090257689356804
13.527286052703857,0.03337911143898964,-0.5464637279510498,0.09555962681770325,-0.02231631986796856,-0.03185320645570755,-0.031090257689356804
13.547428131103516,0.03337911143898964,-0.5464637279510498,0.09555962681770325,-0.02231631986796856,-0.03185320645570755,-0.031090257689356804
13.567503452301025,0.03337911143898964,-0.5464637279510498,0.09555962681770325,-0.02231631986796856,-0.03185320645570755,-0.031090257689356804
13.587556600570679,0.03337911143898964,-0.5464637279510498,0.09555962681770325,-0.02231631986796856,-0.03185320645570755,-0.031090257689356804
13.607795000076294,0.03337911143898964,-0.5464637279510498,0.09555962681770325,-0.02231631986796856,-0.03185320645570755,-0.031090257689356804
13.627894163131714,0.03337911143898964,-0.5464637279510498,0.09555962681770325,-0.02231631986796856,-0.03185320645570755,-0.031090257689356804
13.648005962371826,0.03337911143898964,-0.5464637279510498,0.09555962681770325,-0.02231631986796856,-0.03185320645570755,-0.031090257689356804
13.668089151382446,0.03337911143898964,-0.5464637279510498,0.09555962681770325,-0.02231631986796856,-0.03185320645570755,-0.031090257689356804
13.68820071220398,0.03337911143898964,-0.5464637279510498,0.09555962681770325,-0.02231631986796856,-0.03185320645570755,-0.031090257689356804
13.708248615264893,0.03337911143898964,-0.5464637279510498,0.09555962681770325,-0.02231631986796856,-0.03185320645570755,-0.031090257689356804
13.728310108184814,0.03337911143898964,-0.5464637279510498,0.09555962681770325,-0.02231631986796856,-0.03185320645570755,-0.031090257689356804
