liuyurong129/humanoid-gym/humanoid/data/actual_q_20250522-034230.csv
timestamp,joint_1,joint_2,joint_3,joint_4,joint_5,joint_6
5.4836273193359375e-05,0.000572213320992887,0.16231784224510193,-0.08220797777175903,-0.00019073777366429567,0.00019073777366429567,0.00019073777366429567
0.020328283309936523,0.000572213320992887,0.13942931592464447,-0.0722896158695221,-0.00019073777366429567,0.000572213320992887,0.00019073777366429567
0.04040646553039551,-0.00019073777366429567,0.1192111074924469,-0.06313420087099075,-0.00019073777366429567,0.002861066721379757,0.00019073777366429567
0.06048846244812012,0.00019073777366429567,0.10624094307422638,-0.05741206929087639,-0.00019073777366429567,0.000572213320992887,0.00019073777366429567
0.0805671215057373,-0.00019073777366429567,0.09594109654426575,-0.05054550990462303,-0.00019073777366429567,0.000572213320992887,0.00019073777366429567
0.10063529014587402,-0.00019073777366429567,0.08487831056118011,-0.04406042397022247,-0.00019073777366429567,0.000572213320992887,0.00019073777366429567
0.12076187133789062,-0.00019073777366429567,0.08220797777175903,-0.04139009863138199,-0.00019073777366429567,0.000572213320992887,0.00019073777366429567
0.1414165496826172,-0.00019073777366429567,0.08449683338403702,-0.04253452271223068,-0.00019073777366429567,0.00019073777366429567,0.00019073777366429567
0.16157317161560059,-0.00019073777366429567,0.08449683338403702,-0.04329747334122658,-0.00019073777366429567,0.00019073777366429567,0.00019073777366429567
0.18161487579345703,-0.000572213320992887,0.08220797777175903,-0.04329747334122658,-0.00019073777366429567,0.000572213320992887,0.00019073777366429567
0.2017042636871338,-0.000572213320992887,0.08068207651376724,-0.04329747334122658,-0.00019073777366429567,0.0009536888683214784,0.00019073777366429567
0.22177720069885254,-0.0009536888683214784,0.08068207651376724,-0.04291599988937378,-0.00019073777366429567,0.000572213320992887,0.00019073777366429567
0.2421705722808838,-0.0020981156267225742,0.08182650804519653,-0.042153049260377884,-0.00019073777366429567,0.0009536888683214784,0.00019073777366429567
0.26223134994506836,-0.0024795911740511656,0.08182650804519653,-0.04177157208323479,-0.00019073777366429567,0.0009536888683214784,0.00019073777366429567
0.2823026180267334,-0.0024795911740511656,0.08182650804519653,-0.04177157208323479,-0.00019073777366429567,0.000572213320992887,0.00019073777366429567
0.30239152908325195,-0.0032425422687083483,0.08182650804519653,-0.04177157208323479,-0.00019073777366429567,0.000572213320992887,0.00019073777366429567
0.32245826721191406,-0.004386968910694122,0.08144503086805344,-0.04177157208323479,-0.00019073777366429567,0.000572213320992887,0.00019073777366429567
0.3427128791809082,-0.00476844422519207,0.08068207651376724,-0.04139009863138199,-0.00019073777366429567,0.000572213320992887,0.00019073777366429567
0.3628108501434326,-0.005149920005351305,0.08068207651376724,-0.04100862145423889,-0.00019073777366429567,0.00019073777366429567,0.00019073777366429567
0.38288021087646484,-0.005912871100008488,0.08068207651376724,-0.04100862145423889,-0.00019073777366429567,0.000572213320992887,0.00019073777366429567
0.40299201011657715,-0.00667582219466567,0.08068207651376724,-0.04100862145423889,-0.000572213320992887,0.000572213320992887,0.00019073777366429567
0.4230983257293701,-0.007438773289322853,0.08030059933662415,-0.040627144277095795,-0.000572213320992887,0.000572213320992887,0.00019073777366429567
0.4433104991912842,-0.007438773289322853,0.08030059933662415,-0.04100862145423889,-0.000572213320992887,0.000572213320992887,0.00019073777366429567
0.46338820457458496,-0.0078202486038208,0.07953765243291855,-0.040245670825242996,-0.000572213320992887,0.000572213320992887,0.00019073777366429567
0.4834611415863037,-0.0078202486038208,0.07953765243291855,-0.0398641936480999,-0.000572213320992887,0.000572213320992887,0.00019073777366429567
0.5035853385925293,-0.008201723918318748,0.07953765243291855,-0.0398641936480999,-0.000572213320992887,0.000572213320992887,0.00019073777366429567
0.5236234664916992,-0.008964675478637218,0.07915617525577545,-0.0394827201962471,-0.000572213320992887,0.000572213320992887,0.00019073777366429567
0.5439214706420898,-0.009727626107633114,0.07877469807863235,-0.0394827201962471,-0.000572213320992887,0.0009536888683214784,0.00019073777366429567
0.5639963150024414,-0.010109102353453636,0.07839322835206985,-0.039101243019104004,-0.0009536888683214784,0.000572213320992887,0.00019073777366429567
0.584144115447998,-0.010109102353453636,0.07839322835206985,-0.039101243019104004,-0.0009536888683214784,0.00019073777366429567,0.00019073777366429567
0.6044692993164062,-0.01125352829694748,0.07839322835206985,-0.039101243019104004,-0.0009536888683214784,0.000572213320992887,0.00019073777366429567
0.6245551109313965,-0.01201647985726595,0.07801175117492676,-0.038719769567251205,-0.0009536888683214784,0.000572213320992887,0.00019073777366429567
0.6446347236633301,-0.01201647985726595,0.07763027399778366,-0.038719769567251205,-0.0009536888683214784,0.000572213320992887,0.00019073777366429567
0.6647202968597412,-0.012779430486261845,0.07763027399778366,-0.038719769567251205,-0.0009536888683214784,0.000572213320992887,0.00019073777366429567
0.6848001480102539,-0.012779430486261845,0.07763027399778366,-0.038719769567251205,-0.0009536888683214784,0.00019073777366429567,0.00019073777366429567
0.7048938274383545,-0.013542382046580315,0.07763027399778366,-0.038719769567251205,-0.0013351644156500697,0.000572213320992887,0.00019073777366429567
0.7250232696533203,-0.01430533267557621,0.07724879682064056,-0.03795681521296501,-0.0013351644156500697,0.000572213320992887,0.00019073777366429567
0.7450485229492188,-0.014686808921396732,0.07648584991693497,-0.03757534176111221,-0.0013351644156500697,0.000572213320992887,0.00019073777366429567
0.7652137279510498,-0.014686808921396732,0.07648584991693497,-0.03757534176111221,-0.0013351644156500697,0.00019073777366429567,0.00019073777366429567
0.7852976322174072,-0.01506828423589468,0.07648584991693497,-0.037193864583969116,-0.001716639962978661,0.000572213320992887,0.00019073777366429567
0.8053488731384277,-0.01583123579621315,0.07610437273979187,-0.037193864583969116,-0.001716639962978661,0.000572213320992887,0.00019073777366429567
0.8254437446594238,-0.016975661739706993,0.07572289556264877,-0.03681239113211632,-0.0020981156267225742,0.000572213320992887,0.00019073777366429567
0.8455498218536377,-0.016975661739706993,0.07572289556264877,-0.03681239113211632,-0.0020981156267225742,0.000572213320992887,0.00019073777366429567
0.8656258583068848,-0.01735713705420494,0.07572289556264877,-0.03681239113211632,-0.0024795911740511656,0.00019073777366429567,0.00019073777366429567
0.8857417106628418,-0.01773861236870289,0.07534141838550568,-0.03681239113211632,-0.0024795911740511656,0.00019073777366429567,0.00019073777366429567
0.9058248996734619,-0.01926451548933983,0.07534141838550568,-0.03681239113211632,-0.002861066721379757,0.00019073777366429567,0.00019073777366429567
0.925978422164917,-0.01926451548933983,0.07495994865894318,-0.03643091395497322,-0.002861066721379757,0.00019073777366429567,0.00019073777366429567
0.946058988571167,-0.020027466118335724,0.07457847148180008,-0.03604944050312042,-0.0032425422687083483,0.00019073777366429567,0.00019073777366429567
0.9660995006561279,-0.02040894143283367,0.07419699430465698,-0.035667963325977325,-0.0032425422687083483,0.00019073777366429567,0.00019073777366429567
0.9864621162414551,-0.021171892061829567,0.07419699430465698,-0.035667963325977325,-0.0032425422687083483,0.000572213320992887,0.00019073777366429567
1.0064811706542969,-0.02231631986796856,0.07343403995037079,-0.03528648987412453,-0.0036240178160369396,0.00019073777366429567,0.00019073777366429567
1.0265707969665527,-0.02193484455347061,0.07343403995037079,-0.03528648987412453,-0.0036240178160369396,0.00019073777366429567,0.00019073777366429567
1.046633243560791,-0.02231631986796856,0.07343403995037079,-0.03490501269698143,-0.0036240178160369396,0.00019073777366429567,0.00019073777366429567
1.0667319297790527,-0.02231631986796856,0.07343403995037079,-0.03490501269698143,-0.004005493130534887,0.00019073777366429567,0.00019073777366429567
1.087346076965332,-0.02384222112596035,0.07343403995037079,-0.03452353551983833,-0.004005493130534887,0.00019073777366429567,0.00019073777366429567
1.1074247360229492,-0.024605173617601395,0.07305257022380829,-0.03452353551983833,-0.004005493130534887,0.00019073777366429567,0.00019073777366429567
1.127589225769043,-0.024223696440458298,0.0722896158695221,-0.034142062067985535,-0.004386968910694122,0.00019073777366429567,0.00019073777366429567
1.1476914882659912,-0.02536812424659729,0.071908138692379,-0.03376058489084244,-0.004386968910694122,0.00019073777366429567,0.00019073777366429567
1.1677556037902832,-0.025749599561095238,0.0715266615152359,-0.03376058489084244,-0.00476844422519207,0.00019073777366429567,0.00019073777366429567
1.1878023147583008,-0.026512550190091133,0.0715266615152359,-0.03337911143898964,-0.00476844422519207,0.00019073777366429567,0.00019073777366429567
1.2079112529754639,-0.02727550081908703,0.0711451917886734,-0.03337911143898964,-0.005149920005351305,0.00019073777366429567,0.00019073777366429567
1.2279510498046875,-0.02727550081908703,0.0711451917886734,-0.03337911143898964,-0.005531395319849253,0.00019073777366429567,0.00019073777366429567
1.2480430603027344,-0.027656977996230125,0.0711451917886734,-0.03337911143898964,-0.005912871100008488,0.00019073777366429567,0.00019073777366429567
1.2681312561035156,-0.02880140393972397,0.0711451917886734,-0.03299763426184654,-0.006294346414506435,0.00019073777366429567,0.00019073777366429567
1.2882616519927979,-0.029182879254221916,0.0707637146115303,-0.032616160809993744,-0.00667582219466567,0.00019073777366429567,0.00019073777366429567
1.3083484172821045,-0.029182879254221916,0.07038223743438721,-0.032616160809993744,-0.00667582219466567,0.00019073777366429567,0.00019073777366429567
1.3284096717834473,-0.029564354568719864,0.07000076025724411,-0.032616160809993744,-0.00667582219466567,0.00019073777366429567,0.00019073777366429567
1.3485054969787598,-0.029564354568719864,0.07000076025724411,-0.032616160809993744,-0.007057297509163618,0.00019073777366429567,0.00019073777366429567
1.3685808181762695,-0.03032730519771576,0.06961929053068161,-0.03223468363285065,-0.007057297509163618,0.00019073777366429567,0.00019073777366429567
1.3888001441955566,-0.03147173300385475,0.06923781335353851,-0.03147173300385475,-0.007057297509163618,0.00019073777366429567,0.00019073777366429567
1.4088826179504395,-0.03185320645570755,0.06923781335353851,-0.03147173300385475,-0.007438773289322853,0.00019073777366429567,0.00019073777366429567
1.4289579391479492,-0.03185320645570755,0.06923781335353851,-0.03147173300385475,-0.007057297509163618,0.00019073777366429567,0.00019073777366429567
1.4490728378295898,-0.03299763426184654,0.06885633617639542,-0.03147173300385475,-0.007438773289322853,-0.00019073777366429567,0.00019073777366429567
1.469240665435791,-0.034142062067985535,0.06809338182210922,-0.031090257689356804,-0.007438773289322853,0.00019073777366429567,0.00019073777366429567
1.489245891571045,-0.03452353551983833,0.06809338182210922,-0.031090257689356804,-0.007438773289322853,0.00019073777366429567,0.000572213320992887
1.5093388557434082,-0.03490501269698143,0.06809338182210922,-0.030708782374858856,-0.007438773289322853,-0.00019073777366429567,0.000572213320992887
1.5294361114501953,-0.03528648987412453,0.06809338182210922,-0.030708782374858856,-0.0078202486038208,-0.00019073777366429567,0.00019073777366429567
1.5497791767120361,-0.03604944050312042,0.06809338182210922,-0.03032730519771576,-0.0078202486038208,0.00019073777366429567,0.00019073777366429567
1.5698766708374023,-0.03681239113211632,0.06771191209554672,-0.02994582988321781,-0.0078202486038208,0.00019073777366429567,0.00019073777366429567
1.589937448501587,-0.03643091395497322,0.06694895774126053,-0.029564354568719864,-0.0078202486038208,-0.00019073777366429567,0.00019073777366429567
1.610095500946045,-0.03681239113211632,0.06618601083755493,-0.029564354568719864,-0.0078202486038208,-0.00019073777366429567,0.000572213320992887
1.6301977634429932,-0.03681239113211632,0.06618601083755493,-0.02880140393972397,-0.0078202486038208,-0.00019073777366429567,0.000572213320992887
1.6502561569213867,-0.03795681521296501,0.06618601083755493,-0.02880140393972397,-0.008201723918318748,-0.00019073777366429567,0.000572213320992887
1.670335054397583,-0.038719769567251205,0.06580453366041183,-0.02880140393972397,-0.008201723918318748,0.00019073777366429567,0.000572213320992887
1.6903977394104004,-0.039101243019104004,0.06580453366041183,-0.02841992862522602,-0.008201723918318748,-0.00019073777366429567,0.000572213320992887
1.710489273071289,-0.0398641936480999,0.06580453366041183,-0.02841992862522602,-0.008201723918318748,-0.00019073777366429567,0.00019073777366429567
1.730628490447998,-0.040245670825242996,0.06542305648326874,-0.02841992862522602,-0.00858320016413927,-0.00019073777366429567,0.00019073777366429567
1.7507057189941406,-0.04100862145423889,0.06504157930612564,-0.02841992862522602,-0.00858320016413927,-0.00019073777366429567,0.000572213320992887
1.7708003520965576,-0.04177157208323479,0.06504157930612564,-0.028038453310728073,-0.008964675478637218,-0.00019073777366429567,0.00019073777366429567
1.7908620834350586,-0.04177157208323479,0.06504157930612564,-0.027656977996230125,-0.008964675478637218,-0.00019073777366429567,0.000572213320992887
1.811126708984375,-0.042153049260377884,0.06466010212898254,-0.02727550081908703,-0.009346150793135166,-0.000572213320992887,0.000572213320992887
1.831249475479126,-0.04291599988937378,0.06389715522527695,-0.02689402550458908,-0.009346150793135166,-0.00019073777366429567,0.000572213320992887
1.8512978553771973,-0.043678950518369675,0.06389715522527695,-0.026512550190091133,-0.009727626107633114,-0.00019073777366429567,0.000572213320992887
1.8714544773101807,-0.04406042397022247,0.06389715522527695,-0.026512550190091133,-0.010490577667951584,-0.00019073777366429567,0.000572213320992887
1.8915235996246338,-0.04406042397022247,0.06351567804813385,-0.026512550190091133,-0.010490577667951584,-0.000572213320992887,0.000572213320992887
1.9119057655334473,-0.04406042397022247,0.06313420087099075,-0.026512550190091133,-0.010872052982449532,-0.000572213320992887,0.00019073777366429567
1.9320683479309082,-0.045204851776361465,0.06275273114442825,-0.026131074875593185,-0.010872052982449532,-0.000572213320992887,0.00019073777366429567
1.9520866870880127,-0.04596780240535736,0.06313420087099075,-0.026131074875593185,-0.010872052982449532,-0.00019073777366429567,0.00019073777366429567
1.9722025394439697,-0.04634927958250046,0.06275273114442825,-0.026131074875593185,-0.01125352829694748,-0.00019073777366429567,0.00019073777366429567
1.9923169612884521,-0.04711223021149635,0.06237125024199486,-0.025749599561095238,-0.01125352829694748,-0.00019073777366429567,0.00019073777366429567
2.012430429458618,-0.048256658017635345,0.06198977679014206,-0.024986648932099342,-0.01125352829694748,-0.000572213320992887,0.00019073777366429567
2.032521963119507,-0.048638131469488144,0.06160829961299896,-0.024605173617601395,-0.01125352829694748,-0.0009536888683214784,0.000572213320992887
2.052600383758545,-0.04940108209848404,0.06160829961299896,-0.024605173617601395,-0.011635004542768002,-0.0009536888683214784,0.000572213320992887
2.072718381881714,-0.050164032727479935,0.061226826161146164,-0.024605173617601395,-0.011635004542768002,-0.0009536888683214784,0.000572213320992887
2.092802047729492,-0.05054550990462303,0.06084534898400307,-0.024223696440458298,-0.011635004542768002,-0.0009536888683214784,0.000572213320992887
2.113856792449951,-0.05130846053361893,0.06084534898400307,-0.024605173617601395,-0.011635004542768002,-0.000572213320992887,0.00019073777366429567
2.1339614391326904,-0.05130846053361893,0.06084534898400307,-0.024223696440458298,-0.01201647985726595,-0.0009536888683214784,0.000572213320992887
2.1540379524230957,-0.05130846053361893,0.06084534898400307,-0.024223696440458298,-0.01201647985726595,-0.0009536888683214784,0.000572213320992887
2.174151659011841,-0.05207141116261482,0.06046387553215027,-0.024223696440458298,-0.012397955171763897,-0.0009536888683214784,0.000572213320992887
2.1941895484924316,-0.05245288833975792,0.05970092490315437,-0.02384222112596035,-0.012397955171763897,-0.0009536888683214784,0.000572213320992887
2.214712619781494,-0.05359731614589691,0.05893797054886818,-0.023460745811462402,-0.012779430486261845,-0.000572213320992887,0.000572213320992887
2.234880208969116,-0.05397878959774971,0.05855649709701538,-0.023079270496964455,-0.013160906732082367,-0.0013351644156500697,0.000572213320992887
2.254931926727295,-0.05436026677489281,0.05893797054886818,-0.023079270496964455,-0.013923857361078262,-0.0013351644156500697,0.000572213320992887
2.275009870529175,-0.0555046908557415,0.05893797054886818,-0.022697795182466507,-0.01430533267557621,-0.0013351644156500697,0.000572213320992887
2.295095682144165,-0.05664911866188049,0.05855649709701538,-0.02231631986796856,-0.01430533267557621,-0.0013351644156500697,0.00019073777366429567
2.3151774406433105,-0.05664911866188049,0.05855649709701538,-0.02231631986796856,-0.014686808921396732,-0.0013351644156500697,0.000572213320992887
2.3352670669555664,-0.05703059583902359,0.057793546468019485,-0.02231631986796856,-0.014686808921396732,-0.001716639962978661,0.000572213320992887
2.3553781509399414,-0.057793546468019485,0.057793546468019485,-0.02193484455347061,-0.014686808921396732,-0.0013351644156500697,0.000572213320992887
2.3754427433013916,-0.05855649709701538,0.057793546468019485,-0.02193484455347061,-0.014686808921396732,-0.0013351644156500697,0.00019073777366429567
2.395630359649658,-0.05893797054886818,0.05741206929087639,-0.021171892061829567,-0.014686808921396732,-0.0013351644156500697,0.000572213320992887
2.415618658065796,-0.05893797054886818,0.05664911866188049,-0.021171892061829567,-0.01506828423589468,-0.001716639962978661,0.000572213320992887
2.435697317123413,-0.05970092490315437,0.05664911866188049,-0.02079041674733162,-0.01506828423589468,-0.001716639962978661,0.000572213320992887
2.455824613571167,-0.06046387553215027,0.05664911866188049,-0.02079041674733162,-0.01506828423589468,-0.001716639962978661,0.000572213320992887
2.4759132862091064,-0.061226826161146164,0.056267641484737396,-0.02040894143283367,-0.01506828423589468,-0.001716639962978661,0.000572213320992887
2.4960694313049316,-0.06160829961299896,0.0558861680328846,-0.02040894143283367,-0.01506828423589468,-0.001716639962978661,0.000572213320992887
2.516112804412842,-0.06237125024199486,0.0555046908557415,-0.020027466118335724,-0.01506828423589468,-0.0020981156267225742,0.000572213320992887
2.5361897945404053,-0.06313420087099075,0.0555046908557415,-0.020027466118335724,-0.015449759550392628,-0.0020981156267225742,0.000572213320992887
2.556281089782715,-0.06313420087099075,0.0555046908557415,-0.019645990803837776,-0.015449759550392628,-0.0024795911740511656,0.000572213320992887
2.5764732360839844,-0.06389715522527695,0.054741740226745605,-0.01926451548933983,-0.015449759550392628,-0.0024795911740511656,0.000572213320992887
2.596571207046509,-0.06504157930612564,0.05436026677489281,-0.01888304017484188,-0.01583123579621315,-0.0020981156267225742,0.000572213320992887
2.6166226863861084,-0.06580453366041183,0.05397878959774971,-0.01888304017484188,-0.01583123579621315,-0.0024795911740511656,0.000572213320992887
2.636714220046997,-0.06618601083755493,0.05359731614589691,-0.018501564860343933,-0.01583123579621315,-0.002861066721379757,0.000572213320992887
2.6568117141723633,-0.06618601083755493,0.05359731614589691,-0.018501564860343933,-0.01583123579621315,-0.0032425422687083483,0.000572213320992887
2.6769495010375977,-0.06656748056411743,0.05359731614589691,-0.018501564860343933,-0.016212711110711098,-0.0032425422687083483,0.000572213320992887
2.697040319442749,-0.06733043491840363,0.05359731614589691,-0.018120087683200836,-0.016212711110711098,-0.002861066721379757,0.000572213320992887
2.7171683311462402,-0.06809338182210922,0.05359731614589691,-0.018120087683200836,-0.016212711110711098,-0.0024795911740511656,0.000572213320992887
2.7371981143951416,-0.06847485899925232,0.05283436179161072,-0.01773861236870289,-0.016594186425209045,-0.002861066721379757,0.000572213320992887
2.7572760581970215,-0.06885633617639542,0.05245288833975792,-0.01773861236870289,-0.016975661739706993,-0.002861066721379757,0.000572213320992887
2.7775373458862305,-0.07038223743438721,0.051689937710762024,-0.01735713705420494,-0.01735713705420494,-0.0032425422687083483,0.000572213320992887
2.7976417541503906,-0.0711451917886734,0.051689937710762024,-0.016975661739706993,-0.01773861236870289,-0.0032425422687083483,0.000572213320992887
2.817714214324951,-0.0711451917886734,0.051689937710762024,-0.016975661739706993,-0.018120087683200836,-0.0032425422687083483,0.000572213320992887
2.837806224822998,-0.0715266615152359,0.05130846053361893,-0.016594186425209045,-0.018120087683200836,-0.0036240178160369396,0.000572213320992887
2.857900619506836,-0.07267109304666519,0.05130846053361893,-0.016594186425209045,-0.018120087683200836,-0.0032425422687083483,0.000572213320992887
2.8779430389404297,-0.07305257022380829,0.05054550990462303,-0.016594186425209045,-0.018501564860343933,-0.0032425422687083483,0.000572213320992887
2.8980400562286377,-0.07305257022380829,0.05054550990462303,-0.016212711110711098,-0.018120087683200836,-0.0036240178160369396,0.000572213320992887
2.918119430541992,-0.07343403995037079,0.05054550990462303,-0.016212711110711098,-0.018501564860343933,-0.0036240178160369396,0.000572213320992887
2.938281774520874,-0.07343403995037079,0.05054550990462303,-0.01583123579621315,-0.018501564860343933,-0.0036240178160369396,0.000572213320992887
2.95837664604187,-0.07457847148180008,0.049782559275627136,-0.015449759550392628,-0.018501564860343933,-0.0032425422687083483,0.000572213320992887
2.978518486022949,-0.07495994865894318,0.04940108209848404,-0.01506828423589468,-0.018501564860343933,-0.0032425422687083483,0.000572213320992887
2.9985549449920654,-0.07572289556264877,0.04940108209848404,-0.014686808921396732,-0.01888304017484188,-0.0036240178160369396,0.000572213320992887
3.018617630004883,-0.07648584991693497,0.04940108209848404,-0.014686808921396732,-0.01888304017484188,-0.0036240178160369396,0.000572213320992887
3.038736581802368,-0.07763027399778366,0.048638131469488144,-0.013923857361078262,-0.01888304017484188,-0.0036240178160369396,0.000572213320992887
3.05888032913208,-0.07801175117492676,0.048256658017635345,-0.013923857361078262,-0.01888304017484188,-0.0036240178160369396,0.000572213320992887
3.0789296627044678,-0.07877469807863235,0.048256658017635345,-0.013923857361078262,-0.01926451548933983,-0.004005493130534887,0.000572213320992887
3.0989911556243896,-0.07953765243291855,0.04749370738863945,-0.013542382046580315,-0.01926451548933983,-0.0036240178160369396,0.0009536888683214784
3.11934494972229,-0.07991912961006165,0.04711223021149635,-0.012779430486261845,-0.01926451548933983,-0.004005493130534887,0.000572213320992887
3.1394217014312744,-0.08068207651376724,0.046730753034353256,-0.012397955171763897,-0.019645990803837776,-0.004005493130534887,0.0009536888683214784
3.159475326538086,-0.08106355369091034,0.046730753034353256,-0.01201647985726595,-0.019645990803837776,-0.004005493130534887,0.0009536888683214784
3.1795754432678223,-0.08182650804519653,0.04634927958250046,-0.01201647985726595,-0.020027466118335724,-0.004005493130534887,0.0009536888683214784
3.199699878692627,-0.08258945494890213,0.04634927958250046,-0.011635004542768002,-0.020027466118335724,-0.004005493130534887,0.0009536888683214784
3.2197682857513428,-0.08297093212604523,0.04634927958250046,-0.011635004542768002,-0.02040894143283367,-0.004005493130534887,0.0009536888683214784
3.239847421646118,-0.08411535620689392,0.04558632895350456,-0.011635004542768002,-0.02040894143283367,-0.004005493130534887,0.0009536888683214784
3.260002851486206,-0.08564125746488571,0.04482337832450867,-0.01125352829694748,-0.021171892061829567,-0.004005493130534887,0.0009536888683214784
3.2801218032836914,-0.08602273464202881,0.04444190114736557,-0.010490577667951584,-0.02193484455347061,-0.004386968910694122,0.0009536888683214784
3.300184488296509,-0.086785688996315,0.04444190114736557,-0.010490577667951584,-0.02193484455347061,-0.004386968910694122,0.0009536888683214784
3.320467472076416,-0.0875486359000206,0.04406042397022247,-0.009727626107633114,-0.02193484455347061,-0.004386968910694122,0.0009536888683214784
3.340343952178955,-0.0875486359000206,0.043678950518369675,-0.009727626107633114,-0.02231631986796856,-0.00476844422519207,0.0009536888683214784
3.3604519367218018,-0.0883115902543068,0.04329747334122658,-0.009727626107633114,-0.02231631986796856,-0.00476844422519207,0.0013351644156500697
3.3805220127105713,-0.08869306743144989,0.04329747334122658,-0.009727626107633114,-0.02231631986796856,-0.00476844422519207,0.0013351644156500697
3.400639295578003,-0.08983749151229858,0.04253452271223068,-0.009727626107633114,-0.022697795182466507,-0.004386968910694122,0.0013351644156500697
3.4207370281219482,-0.09060044586658478,0.042153049260377884,-0.008964675478637218,-0.022697795182466507,-0.004386968910694122,0.0013351644156500697
3.4415805339813232,-0.09174486994743347,0.042153049260377884,-0.00858320016413927,-0.022697795182466507,-0.00476844422519207,0.0013351644156500697
3.461716651916504,-0.09250781685113907,0.04177157208323479,-0.008201723918318748,-0.022697795182466507,-0.005149920005351305,0.0013351644156500697
3.4817802906036377,-0.09288929402828217,0.04139009863138199,-0.0078202486038208,-0.022697795182466507,-0.005531395319849253,0.001716639962978661
3.5018723011016846,-0.09327077120542526,0.04139009863138199,-0.0078202486038208,-0.023079270496964455,-0.006294346414506435,0.0020981156267225742
3.522003173828125,-0.09403372555971146,0.04100862145423889,-0.007438773289322853,-0.023079270496964455,-0.006294346414506435,0.0020981156267225742
3.5422983169555664,-0.09479667246341705,0.040627144277095795,-0.007438773289322853,-0.023079270496964455,-0.005912871100008488,0.0020981156267225742
3.5624468326568604,-0.09517814964056015,0.040245670825242996,-0.007057297509163618,-0.023460745811462402,-0.006294346414506435,0.0020981156267225742
3.5825064182281494,-0.09517814964056015,0.040245670825242996,-0.00667582219466567,-0.023460745811462402,-0.006294346414506435,0.0024795911740511656
3.602590799331665,-0.09632257372140884,0.0394827201962471,-0.006294346414506435,-0.02384222112596035,-0.006294346414506435,0.0024795911740511656
3.6226894855499268,-0.09708552807569504,0.0394827201962471,-0.006294346414506435,-0.02384222112596035,-0.006294346414506435,0.0024795911740511656
3.6427788734436035,-0.09784847497940063,0.0394827201962471,-0.006294346414506435,-0.024223696440458298,-0.006294346414506435,0.0024795911740511656
3.6628689765930176,-0.09899290651082993,0.039101243019104004,-0.005912871100008488,-0.024223696440458298,-0.00667582219466567,0.0024795911740511656
3.6831698417663574,-0.09975585341453552,0.039101243019104004,-0.005912871100008488,-0.024605173617601395,-0.00667582219466567,0.002861066721379757
3.7032651901245117,-0.10013733059167862,0.03833829239010811,-0.005531395319849253,-0.024986648932099342,-0.00667582219466567,0.002861066721379757
3.723451852798462,-0.10051880776882172,0.03795681521296501,-0.005149920005351305,-0.02536812424659729,-0.00667582219466567,0.002861066721379757
3.7435462474823,-0.10166323184967041,0.037193864583969116,-0.00476844422519207,-0.02536812424659729,-0.006294346414506435,0.002861066721379757
3.7635796070098877,-0.10204470902681351,0.037193864583969116,-0.004386968910694122,-0.025749599561095238,-0.006294346414506435,0.002861066721379757
3.7837603092193604,-0.10204470902681351,0.037193864583969116,-0.004386968910694122,-0.025749599561095238,-0.006294346414506435,0.002861066721379757
3.803774356842041,-0.10204470902681351,0.037193864583969116,-0.004386968910694122,-0.025749599561095238,-0.00667582219466567,0.002861066721379757
3.8238699436187744,-0.1028076633810997,0.03643091395497322,-0.004005493130534887,-0.025749599561095238,-0.006294346414506435,0.002861066721379757
3.8439078330993652,-0.1039520874619484,0.03604944050312042,-0.0036240178160369396,-0.026131074875593185,-0.00667582219466567,0.002861066721379757
3.8640527725219727,-0.10433356463909149,0.03604944050312042,-0.0036240178160369396,-0.026131074875593185,-0.00667582219466567,0.002861066721379757
3.884110689163208,-0.10433356463909149,0.035667963325977325,-0.0036240178160369396,-0.026131074875593185,-0.006294346414506435,0.002861066721379757
3.90484356880188,-0.10509651154279709,0.03528648987412453,-0.0032425422687083483,-0.026131074875593185,-0.00667582219466567,0.002861066721379757
3.9250407218933105,-0.10624094307422638,0.03490501269698143,-0.0024795911740511656,-0.026512550190091133,-0.006294346414506435,0.002861066721379757
3.945110559463501,-0.10700388997793198,0.034142062067985535,-0.0020981156267225742,-0.026512550190091133,-0.00667582219466567,0.002861066721379757
3.9651618003845215,-0.10814831405878067,0.034142062067985535,-0.0020981156267225742,-0.026512550190091133,-0.00667582219466567,0.002861066721379757
3.985245704650879,-0.10891126841306686,0.034142062067985535,-0.001716639962978661,-0.026512550190091133,-0.00667582219466567,0.002861066721379757
4.005335330963135,-0.10929274559020996,0.03376058489084244,-0.0013351644156500697,-0.026512550190091133,-0.00667582219466567,0.002861066721379757
4.025430679321289,-0.10929274559020996,0.03299763426184654,-0.0013351644156500697,-0.02689402550458908,-0.007057297509163618,0.002861066721379757
4.0455162525177,-0.10967422276735306,0.03299763426184654,-0.0009536888683214784,-0.02689402550458908,-0.00667582219466567,0.002861066721379757
4.065611839294434,-0.11005569249391556,0.03299763426184654,-0.000572213320992887,-0.02689402550458908,-0.00667582219466567,0.002861066721379757
4.085691213607788,-0.11081864684820175,0.03223468363285065,-0.00019073777366429567,-0.02727550081908703,-0.006294346414506435,0.002861066721379757
4.10575532913208,-0.11158160120248795,0.03223468363285065,0.00019073777366429567,-0.02727550081908703,-0.006294346414506435,0.002861066721379757
4.12584114074707,-0.11196307092905045,0.03185320645570755,0.000572213320992887,-0.027656977996230125,-0.00667582219466567,0.002861066721379757
4.145895481109619,-0.11272602528333664,0.03185320645570755,0.000572213320992887,-0.027656977996230125,-0.007057297509163618,0.0032425422687083483
4.1659626960754395,-0.11387044936418533,0.03147173300385475,0.000572213320992887,-0.028038453310728073,-0.00667582219466567,0.0032425422687083483
4.1860785484313965,-0.11463340371847153,0.030708782374858856,0.0009536888683214784,-0.02841992862522602,-0.00667582219466567,0.002861066721379757
4.206158638000488,-0.11463340371847153,0.030708782374858856,0.0009536888683214784,-0.02880140393972397,-0.007057297509163618,0.0032425422687083483
4.22668719291687,-0.11539635062217712,0.02994582988321781,0.0013351644156500697,-0.029182879254221916,-0.00667582219466567,0.002861066721379757
4.246801137924194,-0.11654078215360641,0.02994582988321781,0.0020981156267225742,-0.029182879254221916,-0.00667582219466567,0.002861066721379757
4.2669103145599365,-0.11654078215360641,0.02994582988321781,0.0024795911740511656,-0.029564354568719864,-0.00667582219466567,0.0032425422687083483
4.28704309463501,-0.11654078215360641,0.029564354568719864,0.002861066721379757,-0.029564354568719864,-0.007057297509163618,0.002861066721379757
4.307182550430298,-0.11692225188016891,0.02880140393972397,0.002861066721379757,-0.029564354568719864,-0.007057297509163618,0.0032425422687083483
4.327204942703247,-0.11768520623445511,0.02880140393972397,0.002861066721379757,-0.029564354568719864,-0.007057297509163618,0.0032425422687083483
4.347306489944458,-0.1188296303153038,0.02841992862522602,0.002861066721379757,-0.02994582988321781,-0.006294346414506435,0.0032425422687083483
4.367395401000977,-0.1188296303153038,0.028038453310728073,0.0032425422687083483,-0.02994582988321781,-0.00667582219466567,0.002861066721379757
4.387436389923096,-0.1199740618467331,0.028038453310728073,0.004005493130534887,-0.02994582988321781,-0.00667582219466567,0.0032425422687083483
4.407521486282349,-0.12111848592758179,0.027656977996230125,0.004386968910694122,-0.02994582988321781,-0.00667582219466567,0.0032425422687083483
4.427599906921387,-0.12188144028186798,0.02689402550458908,0.00476844422519207,-0.03032730519771576,-0.007057297509163618,0.0032425422687083483
4.447675466537476,-0.12226291000843048,0.02689402550458908,0.00476844422519207,-0.03032730519771576,-0.007057297509163618,0.0032425422687083483
4.467756748199463,-0.12264438718557358,0.026512550190091133,0.00476844422519207,-0.03032730519771576,-0.007057297509163618,0.0032425422687083483
4.487836122512817,-0.12378881871700287,0.025749599561095238,0.00476844422519207,-0.030708782374858856,-0.00667582219466567,0.0032425422687083483
4.508005619049072,-0.12417028844356537,0.025749599561095238,0.005149920005351305,-0.030708782374858856,-0.00667582219466567,0.0032425422687083483
4.528016567230225,-0.12417028844356537,0.025749599561095238,0.005531395319849253,-0.031090257689356804,-0.00667582219466567,0.0032425422687083483
4.548108100891113,-0.12493324279785156,0.024986648932099342,0.005912871100008488,-0.031090257689356804,-0.007057297509163618,0.0032425422687083483
4.568199634552002,-0.12607766687870026,0.024605173617601395,0.006294346414506435,-0.031090257689356804,-0.00667582219466567,0.0032425422687083483
4.588350057601929,-0.12684062123298645,0.024986648932099342,0.00667582219466567,-0.03147173300385475,-0.007057297509163618,0.0032425422687083483
4.608453035354614,-0.12760357558727264,0.024605173617601395,0.007057297509163618,-0.03185320645570755,-0.007057297509163618,0.0032425422687083483
4.628528833389282,-0.12836651504039764,0.02384222112596035,0.007057297509163618,-0.03223468363285065,-0.00667582219466567,0.0032425422687083483
4.648624420166016,-0.12912946939468384,0.023460745811462402,0.007057297509163618,-0.032616160809993744,-0.007057297509163618,0.0032425422687083483
4.668701171875,-0.12951095402240753,0.022697795182466507,0.0078202486038208,-0.03299763426184654,-0.007057297509163618,0.0032425422687083483
4.6887829303741455,-0.13103684782981873,0.022697795182466507,0.008201723918318748,-0.03337911143898964,-0.00667582219466567,0.0032425422687083483
4.708887577056885,-0.13141833245754242,0.02231631986796856,0.008201723918318748,-0.03376058489084244,-0.007057297509163618,0.0032425422687083483
4.728978633880615,-0.13141833245754242,0.02231631986796856,0.00858320016413927,-0.03376058489084244,-0.007057297509163618,0.0032425422687083483
4.74906849861145,-0.13218127191066742,0.021553369238972664,0.008964675478637218,-0.03376058489084244,-0.007057297509163618,0.0032425422687083483
4.769166469573975,-0.1329442262649536,0.021171892061829567,0.008964675478637218,-0.03376058489084244,-0.007057297509163618,0.0032425422687083483
4.789235353469849,-0.1333257108926773,0.021171892061829567,0.008964675478637218,-0.034142062067985535,-0.00667582219466567,0.0032425422687083483
4.809315919876099,-0.1348516047000885,0.02040894143283367,0.009727626107633114,-0.034142062067985535,-0.00667582219466567,0.0032425422687083483
4.8293821811676025,-0.1356145590543747,0.02040894143283367,0.010109102353453636,-0.034142062067985535,-0.007057297509163618,0.0032425422687083483
4.849607467651367,-0.1367589831352234,0.019645990803837776,0.010490577667951584,-0.03452353551983833,-0.007057297509163618,0.0032425422687083483
4.869616270065308,-0.1371404528617859,0.019645990803837776,0.010872052982449532,-0.03452353551983833,-0.007438773289322853,0.0032425422687083483
4.88970160484314,-0.13828489184379578,0.01926451548933983,0.010872052982449532,-0.03490501269698143,-0.007057297509163618,0.0032425422687083483
4.909770250320435,-0.13866636157035828,0.018501564860343933,0.01125352829694748,-0.03490501269698143,-0.007057297509163618,0.0032425422687083483
4.930291652679443,-0.13942931592464447,0.018120087683200836,0.011635004542768002,-0.03528648987412453,-0.007057297509163618,0.0032425422687083483
4.950423002243042,-0.14019227027893066,0.01773861236870289,0.01201647985726595,-0.035667963325977325,-0.007057297509163618,0.0032425422687083483
4.970503807067871,-0.14095520973205566,0.01773861236870289,0.012397955171763897,-0.03604944050312042,-0.007057297509163618,0.0032425422687083483
4.9905829429626465,-0.14209964871406555,0.01735713705420494,0.012779430486261845,-0.03643091395497322,-0.007057297509163618,0.0032425422687083483
5.01076865196228,-0.14286258816719055,0.01735713705420494,0.012779430486261845,-0.03681239113211632,-0.007438773289322853,0.0032425422687083483
5.030758857727051,-0.14362554252147675,0.016594186425209045,0.013160906732082367,-0.03681239113211632,-0.007438773289322853,0.0032425422687083483
5.050852298736572,-0.14400701224803925,0.016212711110711098,0.013160906732082367,-0.03681239113211632,-0.007438773289322853,0.0032425422687083483
5.0709288120269775,-0.14438849687576294,0.016212711110711098,0.013542382046580315,-0.037193864583969116,-0.007057297509163618,0.0032425422687083483
5.091135501861572,-0.14591439068317413,0.015449759550392628,0.01430533267557621,-0.037193864583969116,-0.007057297509163618,0.0032425422687083483
5.111252307891846,-0.14629587531089783,0.01506828423589468,0.014686808921396732,-0.03757534176111221,-0.007057297509163618,0.0032425422687083483
5.131523609161377,-0.14667734503746033,0.015449759550392628,0.01506828423589468,-0.037193864583969116,-0.007438773289322853,0.0032425422687083483
5.15164852142334,-0.14820325374603271,0.01430533267557621,0.015449759550392628,-0.03757534176111221,-0.007438773289322853,0.0032425422687083483
5.171817302703857,-0.1489662081003189,0.013923857361078262,0.015449759550392628,-0.03757534176111221,-0.007438773289322853,0.0032425422687083483
5.191949367523193,-0.1497291475534439,0.013542382046580315,0.016212711110711098,-0.03757534176111221,-0.007438773289322853,0.0036240178160369396
5.212065696716309,-0.1504921019077301,0.013160906732082367,0.016594186425209045,-0.03795681521296501,-0.007438773289322853,0.0032425422687083483
5.2321460247039795,-0.1512550562620163,0.013160906732082367,0.016594186425209045,-0.03795681521296501,-0.007057297509163618,0.0032425422687083483
5.252209901809692,-0.1520180106163025,0.012397955171763897,0.01735713705420494,-0.03795681521296501,-0.007057297509163618,0.0032425422687083483
5.272271394729614,-0.15316243469715118,0.012397955171763897,0.01735713705420494,-0.03833829239010811,-0.007438773289322853,0.0032425422687083483
5.2923760414123535,-0.15354390442371368,0.011635004542768002,0.01773861236870289,-0.03833829239010811,-0.007438773289322853,0.0032425422687083483
5.312608003616333,-0.15354390442371368,0.01125352829694748,0.01773861236870289,-0.03833829239010811,-0.007438773289322853,0.0036240178160369396
5.332787990570068,-0.15430685877799988,0.010872052982449532,0.018501564860343933,-0.038719769567251205,-0.007438773289322853,0.0036240178160369396
5.352888584136963,-0.15545128285884857,0.010109102353453636,0.01926451548933983,-0.038719769567251205,-0.007438773289322853,0.0036240178160369396
5.3729870319366455,-0.15621423721313477,0.010109102353453636,0.019645990803837776,-0.039101243019104004,-0.007438773289322853,0.0036240178160369396
5.393118858337402,-0.15697719156742096,0.010109102353453636,0.019645990803837776,-0.0394827201962471,-0.007438773289322853,0.0036240178160369396
5.413250207901001,-0.15774014592170715,0.009727626107633114,0.020027466118335724,-0.0398641936480999,-0.007438773289322853,0.0036240178160369396
5.433277130126953,-0.15888457000255585,0.008964675478637218,0.02040894143283367,-0.040627144277095795,-0.007438773289322853,0.0036240178160369396
5.453397035598755,-0.16002899408340454,0.008201723918318748,0.02079041674733162,-0.04100862145423889,-0.007438773289322853,0.0036240178160369396
5.473469257354736,-0.16041046380996704,0.008201723918318748,0.021171892061829567,-0.04100862145423889,-0.007438773289322853,0.0036240178160369396
5.4935901165008545,-0.16041046380996704,0.008201723918318748,0.021553369238972664,-0.04100862145423889,-0.007438773289322853,0.0036240178160369396
5.51365852355957,-0.16117341816425323,0.0078202486038208,0.02193484455347061,-0.04139009863138199,-0.0078202486038208,0.0036240178160369396
5.533731460571289,-0.16193637251853943,0.007057297509163618,0.02193484455347061,-0.04139009863138199,-0.007438773289322853,0.0036240178160369396
5.553820610046387,-0.16308079659938812,0.006294346414506435,0.022697795182466507,-0.04139009863138199,-0.007057297509163618,0.0036240178160369396
5.573940992355347,-0.16384375095367432,0.005912871100008488,0.022697795182466507,-0.04177157208323479,-0.007438773289322853,0.0036240178160369396
5.594017267227173,-0.164988175034523,0.005912871100008488,0.023079270496964455,-0.04177157208323479,-0.0078202486038208,0.0036240178160369396
5.61415433883667,-0.1657511293888092,0.005149920005351305,0.02384222112596035,-0.04177157208323479,-0.0078202486038208,0.0036240178160369396
5.634278059005737,-0.1668955534696579,0.00476844422519207,0.024223696440458298,-0.042153049260377884,-0.008201723918318748,0.0036240178160369396
5.654778003692627,-0.1676585078239441,0.004386968910694122,0.024605173617601395,-0.042153049260377884,-0.0078202486038208,0.004005493130534887
5.6748950481414795,-0.1680399775505066,0.0036240178160369396,0.024986648932099342,-0.04253452271223068,-0.008201723918318748,0.0036240178160369396
5.694976329803467,-0.1680399775505066,0.004005493130534887,0.024986648932099342,-0.04291599988937378,-0.0078202486038208,0.004005493130534887
5.715088605880737,-0.16880293190479279,0.0032425422687083483,0.02536812424659729,-0.04329747334122658,-0.0078202486038208,0.0036240178160369396
5.735344171524048,-0.16994735598564148,0.002861066721379757,0.025749599561095238,-0.043678950518369675,-0.007438773289322853,0.004005493130534887
5.755542516708374,-0.17071031033992767,0.002861066721379757,0.025749599561095238,-0.04406042397022247,-0.0078202486038208,0.004005493130534887
5.775636434555054,-0.17185473442077637,0.0024795911740511656,0.026512550190091133,-0.04444190114736557,-0.0078202486038208,0.004005493130534887
5.7957048416137695,-0.17223620414733887,0.001716639962978661,0.02689402550458908,-0.04444190114736557,-0.0078202486038208,0.004005493130534887
5.815799236297607,-0.17299915850162506,0.0009536888683214784,0.02727550081908703,-0.04444190114736557,-0.008201723918318748,0.004005493130534887
5.8358845710754395,-0.17376211285591125,0.000572213320992887,0.02727550081908703,-0.04482337832450867,-0.008201723918318748,0.004005493130534887
5.856018781661987,-0.17452506721019745,0.0009536888683214784,0.027656977996230125,-0.04482337832450867,-0.0078202486038208,0.004005493130534887
5.876198053359985,-0.17528800666332245,0.000572213320992887,0.027656977996230125,-0.04482337832450867,-0.007438773289322853,0.004005493130534887
5.896334886550903,-0.17490653693675995,0.00019073777366429567,0.028038453310728073,-0.04482337832450867,-0.0078202486038208,0.004005493130534887
5.916416168212891,-0.17681391537189484,-0.0009536888683214784,0.029564354568719864,-0.045204851776361465,-0.0078202486038208,0.004005493130534887
5.93648624420166,-0.17795833945274353,-0.0013351644156500697,0.029564354568719864,-0.045204851776361465,-0.0078202486038208,0.004005493130534887
5.956565856933594,-0.17910276353359222,-0.0013351644156500697,0.02994582988321781,-0.045204851776361465,-0.007438773289322853,0.004005493130534887
5.976701259613037,-0.1802472025156021,-0.001716639962978661,0.02994582988321781,-0.045204851776361465,-0.008201723918318748,0.004005493130534887
5.996803045272827,-0.1813916265964508,-0.0024795911740511656,0.030708782374858856,-0.045204851776361465,-0.008201723918318748,0.004005493130534887
6.016919136047363,-0.1825360506772995,-0.0032425422687083483,0.03147173300385475,-0.04558632895350456,-0.008201723918318748,0.004005493130534887
6.036964654922485,-0.1832990050315857,-0.004005493130534887,0.03185320645570755,-0.04558632895350456,-0.008201723918318748,0.004005493130534887
6.057058811187744,-0.1840619444847107,-0.004386968910694122,0.03185320645570755,-0.04596780240535736,-0.008201723918318748,0.004005493130534887
6.07714056968689,-0.1844434291124344,-0.004386968910694122,0.03223468363285065,-0.04596780240535736,-0.0078202486038208,0.004386968910694122
6.097200155258179,-0.18520638346672058,-0.00476844422519207,0.032616160809993744,-0.04596780240535736,-0.0078202486038208,0.004386968910694122
6.1172966957092285,-0.18635080754756927,-0.005531395319849253,0.03337911143898964,-0.04634927958250046,-0.008201723918318748,0.004386968910694122
6.137398719787598,-0.18749523162841797,-0.006294346414506435,0.03376058489084244,-0.046730753034353256,-0.008201723918318748,0.004386968910694122
6.1574718952178955,-0.18825818598270416,-0.00667582219466567,0.034142062067985535,-0.04711223021149635,-0.008201723918318748,0.004386968910694122
6.177553653717041,-0.18940261006355286,-0.00667582219466567,0.03490501269698143,-0.04711223021149635,-0.008201723918318748,0.004386968910694122
6.19760274887085,-0.18940261006355286,-0.007438773289322853,0.03528648987412453,-0.04787518084049225,-0.008201723918318748,0.004386968910694122
6.217693567276001,-0.19054703414440155,-0.008201723918318748,0.035667963325977325,-0.048256658017635345,-0.008201723918318748,0.004386968910694122
6.237770080566406,-0.19130998849868774,-0.00858320016413927,0.03604944050312042,-0.048638131469488144,-0.0078202486038208,0.004386968910694122
6.2580578327178955,-0.19245441257953644,-0.00858320016413927,0.03643091395497322,-0.048638131469488144,-0.008201723918318748,0.004386968910694122
6.2781431674957275,-0.19359883666038513,-0.009346150793135166,0.037193864583969116,-0.04901960864663124,-0.008201723918318748,0.004386968910694122
6.298192739486694,-0.19512474536895752,-0.009727626107633114,0.037193864583969116,-0.04901960864663124,-0.0078202486038208,0.004386968910694122
6.318304061889648,-0.1966506391763687,-0.010872052982449532,0.03795681521296501,-0.04901960864663124,-0.0078202486038208,0.00476844422519207
6.3383753299713135,-0.1966506391763687,-0.01125352829694748,0.03795681521296501,-0.04940108209848404,-0.00858320016413927,0.00476844422519207
6.358466863632202,-0.1966506391763687,-0.011635004542768002,0.03833829239010811,-0.04940108209848404,-0.00858320016413927,0.00476844422519207
6.378564119338989,-0.1977950781583786,-0.01201647985726595,0.039101243019104004,-0.04940108209848404,-0.00858320016413927,0.00476844422519207
6.3986170291900635,-0.1989395022392273,-0.01201647985726595,0.0394827201962471,-0.049782559275627136,-0.0078202486038208,0.00476844422519207
6.418713569641113,-0.200083926320076,-0.012779430486261845,0.0398641936480999,-0.050164032727479935,-0.007438773289322853,0.00476844422519207
6.438771963119507,-0.20122835040092468,-0.013923857361078262,0.040245670825242996,-0.05092698708176613,-0.007438773289322853,0.00476844422519207
6.459073305130005,-0.20199130475521088,-0.013923857361078262,0.040245670825242996,-0.051689937710762024,-0.0078202486038208,0.005149920005351305
6.479173421859741,-0.20313572883605957,-0.01430533267557621,0.04100862145423889,-0.051689937710762024,-0.008201723918318748,0.005149920005351305
6.499185800552368,-0.20389868319034576,-0.01506828423589468,0.04139009863138199,-0.051689937710762024,-0.008964675478637218,0.005149920005351305
6.519284009933472,-0.20466163754463196,-0.01583123579621315,0.04177157208323479,-0.05207141116261482,-0.00858320016413927,0.005531395319849253
6.539383172988892,-0.20542457699775696,-0.016212711110711098,0.042153049260377884,-0.05207141116261482,-0.008201723918318748,0.005531395319849253
6.559513330459595,-0.20656901597976685,-0.016212711110711098,0.04253452271223068,-0.05245288833975792,-0.0078202486038208,0.006294346414506435
6.57960057258606,-0.20771344006061554,-0.01735713705420494,0.04329747334122658,-0.05245288833975792,-0.0078202486038208,0.006294346414506435
6.599661350250244,-0.20847637951374054,-0.01735713705420494,0.043678950518369675,-0.05245288833975792,-0.0078202486038208,0.007057297509163618
6.619754076004028,-0.21038375794887543,-0.018120087683200836,0.04444190114736557,-0.05283436179161072,-0.0078202486038208,0.007057297509163618
6.639896392822266,-0.21114671230316162,-0.018501564860343933,0.04444190114736557,-0.05283436179161072,-0.00858320016413927,0.007057297509163618
6.66037392616272,-0.212672621011734,-0.01926451548933983,0.045204851776361465,-0.05283436179161072,-0.008964675478637218,0.007057297509163618
6.680503606796265,-0.2134355753660202,-0.02040894143283367,0.04634927958250046,-0.05283436179161072,-0.00858320016413927,0.007057297509163618
6.70058536529541,-0.2157244235277176,-0.021553369238972664,0.046730753034353256,-0.053215838968753815,-0.008201723918318748,0.007057297509163618
6.720669269561768,-0.21648737788200378,-0.02231631986796856,0.04749370738863945,-0.05359731614589691,-0.0078202486038208,0.007438773289322853
6.740771532058716,-0.21763180196285248,-0.02231631986796856,0.04787518084049225,-0.05359731614589691,-0.008201723918318748,0.007438773289322853
6.7609052658081055,-0.21877622604370117,-0.023460745811462402,0.048638131469488144,-0.05397878959774971,-0.00858320016413927,0.007438773289322853
6.780951738357544,-0.21877622604370117,-0.02384222112596035,0.04901960864663124,-0.05436026677489281,-0.00858320016413927,0.007438773289322853
6.801054954528809,-0.21953918039798737,-0.024223696440458298,0.049782559275627136,-0.054741740226745605,-0.00858320016413927,0.007438773289322853
6.821155548095703,-0.22106507420539856,-0.024986648932099342,0.05054550990462303,-0.0551232174038887,-0.0078202486038208,0.007438773289322853
6.841256618499756,-0.22220951318740845,-0.02536812424659729,0.05130846053361893,-0.0558861680328846,-0.0078202486038208,0.007438773289322853
6.861419439315796,-0.22335393726825714,-0.026512550190091133,0.051689937710762024,-0.0558861680328846,-0.008201723918318748,0.007438773289322853
6.88146185874939,-0.22411687672138214,-0.02689402550458908,0.05207141116261482,-0.0558861680328846,-0.008201723918318748,0.007438773289322853
6.901933670043945,-0.22526131570339203,-0.027656977996230125,0.05245288833975792,-0.056267641484737396,-0.008201723918318748,0.0078202486038208
6.922044992446899,-0.22640573978424072,-0.02880140393972397,0.053215838968753815,-0.056267641484737396,-0.00858320016413927,0.0078202486038208
6.9421422481536865,-0.22678720951080322,-0.02880140393972397,0.05359731614589691,-0.056267641484737396,-0.008201723918318748,0.007438773289322853
6.962524652481079,-0.2283131182193756,-0.029564354568719864,0.05397878959774971,-0.05664911866188049,-0.008201723918318748,0.0078202486038208
6.982648134231567,-0.2290760725736618,-0.03032730519771576,0.054741740226745605,-0.05664911866188049,-0.0078202486038208,0.0078202486038208
7.0027148723602295,-0.2302204966545105,-0.030708782374858856,0.0551232174038887,-0.05703059583902359,-0.0078202486038208,0.0078202486038208
7.022819757461548,-0.2313649207353592,-0.03147173300385475,0.0555046908557415,-0.05703059583902359,-0.008201723918318748,0.0078202486038208
7.042901992797852,-0.23250934481620789,-0.03185320645570755,0.0558861680328846,-0.05741206929087639,-0.008201723918318748,0.0078202486038208
7.0630738735198975,-0.23327229917049408,-0.032616160809993744,0.056267641484737396,-0.058175019919872284,-0.008201723918318748,0.0078202486038208
7.083183765411377,-0.23441672325134277,-0.03376058489084244,0.05703059583902359,-0.05893797054886818,-0.0078202486038208,0.0078202486038208
7.103309154510498,-0.23517967760562897,-0.03376058489084244,0.057793546468019485,-0.059319447726011276,-0.0078202486038208,0.0078202486038208
7.123416423797607,-0.23746852576732635,-0.03490501269698143,0.05893797054886818,-0.05970092490315437,-0.0078202486038208,0.0078202486038208
7.143441915512085,-0.23861294984817505,-0.035667963325977325,0.05893797054886818,-0.06008239835500717,-0.0078202486038208,0.008201723918318748
7.163658142089844,-0.23975738883018494,-0.03643091395497322,0.05970092490315437,-0.06008239835500717,-0.008201723918318748,0.008201723918318748
7.18375301361084,-0.24052032828330994,-0.037193864583969116,0.06046387553215027,-0.06008239835500717,-0.008201723918318748,0.008201723918318748
7.2038257122039795,-0.24128328263759613,-0.03795681521296501,0.06084534898400307,-0.06008239835500717,-0.008201723918318748,0.00858320016413927
7.223922252655029,-0.24280919134616852,-0.039101243019104004,0.06198977679014206,-0.06046387553215027,-0.008201723918318748,0.008964675478637218
7.244003057479858,-0.2439536154270172,-0.039101243019104004,0.06275273114442825,-0.06046387553215027,-0.0078202486038208,0.009727626107633114
7.264421463012695,-0.2447165697813034,-0.0398641936480999,0.06313420087099075,-0.06046387553215027,-0.007438773289322853,0.010109102353453636
7.2845213413238525,-0.2470054179430008,-0.04100862145423889,0.06427863240242004,-0.06084534898400307,-0.007438773289322853,0.010490577667951584
7.304579257965088,-0.247768372297287,-0.04177157208323479,0.06466010212898254,-0.061226826161146164,-0.008201723918318748,0.010490577667951584
7.324679136276245,-0.24891279637813568,-0.04291599988937378,0.06542305648326874,-0.06160829961299896,-0.00858320016413927,0.010490577667951584
7.34478759765625,-0.2500572204589844,-0.043678950518369675,0.06656748056411743,-0.06160829961299896,-0.00858320016413927,0.010490577667951584
7.3649983406066895,-0.25196459889411926,-0.04482337832450867,0.06694895774126053,-0.06237125024199486,-0.0078202486038208,0.010872052982449532
7.385126113891602,-0.25349050760269165,-0.04634927958250046,0.06847485899925232,-0.06313420087099075,-0.007438773289322853,0.010490577667951584
7.4051899909973145,-0.25501641631126404,-0.04749370738863945,0.06885633617639542,-0.06351567804813385,-0.007057297509163618,0.010490577667951584
7.425272464752197,-0.25616082549095154,-0.048256658017635345,0.06961929053068161,-0.06389715522527695,-0.0078202486038208,0.010490577667951584
7.445437431335449,-0.25654229521751404,-0.048638131469488144,0.07038223743438721,-0.06389715522527695,-0.008201723918318748,0.010872052982449532
7.4658873081207275,-0.2588311731815338,-0.04940108209848404,0.0707637146115303,-0.06427863240242004,-0.0078202486038208,0.010872052982449532
7.486045837402344,-0.2603570520877838,-0.05054550990462303,0.071908138692379,-0.06427863240242004,-0.007438773289322853,0.010872052982449532
7.506321430206299,-0.2615014910697937,-0.05207141116261482,0.07267109304666519,-0.06504157930612564,-0.007057297509163618,0.010872052982449532
7.5264105796813965,-0.2626459002494812,-0.05359731614589691,0.07343403995037079,-0.06504157930612564,-0.007438773289322853,0.010872052982449532
7.546475648880005,-0.2634088695049286,-0.05359731614589691,0.07419699430465698,-0.06580453366041183,-0.007438773289322853,0.010872052982449532
7.566559076309204,-0.264934778213501,-0.054741740226745605,0.07457847148180008,-0.06694895774126053,-0.0078202486038208,0.010872052982449532
7.586842775344849,-0.26722362637519836,-0.0558861680328846,0.07572289556264877,-0.06733043491840363,-0.007057297509163618,0.010872052982449532
7.607107877731323,-0.26913100481033325,-0.05703059583902359,0.07648584991693497,-0.06771191209554672,-0.007057297509163618,0.010872052982449532
7.627199649810791,-0.27027541399002075,-0.05893797054886818,0.07801175117492676,-0.06771191209554672,-0.007438773289322853,0.010872052982449532
7.64726185798645,-0.27180132269859314,-0.06046387553215027,0.07877469807863235,-0.06809338182210922,-0.007438773289322853,0.010872052982449532
7.667380094528198,-0.2733272314071655,-0.06198977679014206,0.07991912961006165,-0.06809338182210922,-0.0078202486038208,0.01125352829694748
7.687427520751953,-0.2744716703891754,-0.06198977679014206,0.08030059933662415,-0.06847485899925232,-0.007438773289322853,0.01125352829694748
7.707526445388794,-0.2763790488243103,-0.06351567804813385,0.08144503086805344,-0.06885633617639542,-0.00667582219466567,0.01125352829694748
7.72760796546936,-0.2775234580039978,-0.06504157930612564,0.08297093212604523,-0.06923781335353851,-0.007057297509163618,0.01125352829694748
7.747702598571777,-0.2794308364391327,-0.06694895774126053,0.08373387902975082,-0.07000076025724411,-0.007057297509163618,0.01125352829694748
7.767807245254517,-0.2809567451477051,-0.06771191209554672,0.08487831056118011,-0.07038223743438721,-0.007057297509163618,0.01125352829694748
7.787884473800659,-0.28286412358283997,-0.06885633617639542,0.08564125746488571,-0.0711451917886734,-0.006294346414506435,0.01125352829694748
7.80795955657959,-0.28400853276252747,-0.0707637146115303,0.086785688996315,-0.0711451917886734,-0.007057297509163618,0.01125352829694748
7.828032970428467,-0.28553444147109985,-0.071908138692379,0.0875486359000206,-0.0711451917886734,-0.007057297509163618,0.01125352829694748
7.848237037658691,-0.28706035017967224,-0.07305257022380829,0.0883115902543068,-0.0715266615152359,-0.007057297509163618,0.01125352829694748
7.868345737457275,-0.28896772861480713,-0.07495994865894318,0.08983749151229858,-0.0715266615152359,-0.006294346414506435,0.011635004542768002
7.888402938842773,-0.290875107049942,-0.07572289556264877,0.09098191559314728,-0.071908138692379,-0.006294346414506435,0.011635004542768002
7.908486843109131,-0.2924010157585144,-0.07724879682064056,0.09212634712457657,-0.0722896158695221,-0.005912871100008488,0.011635004542768002
7.928566217422485,-0.2935454249382019,-0.07915617525577545,0.09288929402828217,-0.0722896158695221,-0.006294346414506435,0.011635004542768002
7.9486165046691895,-0.2946898639202118,-0.08068207651376724,0.09365224838256836,-0.07267109304666519,-0.00667582219466567,0.011635004542768002
7.96871280670166,-0.2969787120819092,-0.08258945494890213,0.09555962681770325,-0.07343403995037079,-0.006294346414506435,0.01201647985726595
7.9887871742248535,-0.29850462079048157,-0.08449683338403702,0.09670405089855194,-0.07457847148180008,-0.005912871100008488,0.011635004542768002
8.009540557861328,-0.30079346895217896,-0.0864042118191719,0.09861142933368683,-0.07495994865894318,-0.005912871100008488,0.01201647985726595
8.029726266860962,-0.30270084738731384,-0.0883115902543068,0.10090028494596481,-0.07534141838550568,-0.005912871100008488,0.01201647985726595
8.049763202667236,-0.30422675609588623,-0.08983749151229858,0.10166323184967041,-0.07534141838550568,-0.005531395319849253,0.012397955171763897
8.06983757019043,-0.3057526648044586,-0.09174486994743347,0.1028076633810997,-0.07572289556264877,-0.005531395319849253,0.012397955171763897
8.08994436264038,-0.3076600432395935,-0.09403372555971146,0.10433356463909149,-0.07572289556264877,-0.006294346414506435,0.012397955171763897
8.110070705413818,-0.3107118308544159,-0.09708552807569504,0.10547798871994019,-0.07648584991693497,-0.006294346414506435,0.012779430486261845
8.130155801773071,-0.3126192092895508,-0.09937438368797302,0.10738536715507507,-0.07686731964349747,-0.005149920005351305,0.012779430486261845
8.15030026435852,-0.31376364827156067,-0.10090028494596481,0.10891126841306686,-0.07801175117492676,-0.004386968910694122,0.013160906732082367
8.170444965362549,-0.31605249643325806,-0.1031891331076622,0.11081864684820175,-0.07839322835206985,-0.0032425422687083483,0.013160906732082367
8.190544605255127,-0.31986725330352783,-0.10662241280078888,0.11310750246047974,-0.07877469807863235,-0.0032425422687083483,0.013542382046580315
8.210635423660278,-0.3229190409183502,-0.11081864684820175,0.11501488089561462,-0.07915617525577545,-0.0024795911740511656,0.013923857361078262
8.23073434829712,-0.3255893886089325,-0.11425192654132843,0.1184481605887413,-0.07953765243291855,-0.0020981156267225742,0.01430533267557621
8.250816822052002,-0.3271152675151825,-0.11577782779932022,0.1199740618467331,-0.07991912961006165,-0.001716639962978661,0.014686808921396732
8.270891189575195,-0.32978561520576477,-0.11959258466959,0.12264438718557358,-0.08030059933662415,-0.0020981156267225742,0.014686808921396732
8.290973663330078,-0.33398184180259705,-0.12378881871700287,0.12455176562070847,-0.08182650804519653,-0.0020981156267225742,0.014686808921396732
8.311389684677124,-0.3370336592197418,-0.12798504531383514,0.12722209095954895,-0.08258945494890213,-0.0009536888683214784,0.014686808921396732
8.33152723312378,-0.3389410376548767,-0.13141833245754242,0.13065537810325623,-0.08258945494890213,-0.0009536888683214784,0.01506828423589468
8.351661205291748,-0.3397039771080017,-0.1329442262649536,0.1325627565383911,-0.08297093212604523,-0.000572213320992887,0.01506828423589468
8.37169361114502,-0.3423742949962616,-0.1363775134086609,0.1356145590543747,-0.08335240930318832,0.00019073777366429567,0.015449759550392628
8.391820430755615,-0.34618905186653137,-0.14133669435977936,0.13828489184379578,-0.08411535620689392,0.000572213320992887,0.015449759550392628
8.41190481185913,-0.34962233901023865,-0.14667734503746033,0.14057374000549316,-0.08487831056118011,0.000572213320992887,0.015449759550392628
8.432001829147339,-0.35191118717193604,-0.1504921019077301,0.14400701224803925,-0.08602273464202881,0.000572213320992887,0.015449759550392628
8.452604055404663,-0.3538185656070709,-0.15316243469715118,0.14515145123004913,-0.0864042118191719,0.0009536888683214784,0.016212711110711098
8.472809314727783,-0.3587777614593506,-0.16079194843769073,0.1508735716342926,-0.086785688996315,0.0013351644156500697,0.016594186425209045
8.492940902709961,-0.36373692750930786,-0.16956588625907898,0.15430685877799988,-0.0875486359000206,0.0013351644156500697,0.016975661739706993
8.513050556182861,-0.368314653635025,-0.17681391537189484,0.16079194843769073,-0.0883115902543068,0.0009536888683214784,0.01773861236870289
8.533100366592407,-0.3709849715232849,-0.1810101419687271,0.16422522068023682,-0.08945601433515549,0.0020981156267225742,0.018120087683200836
8.553190231323242,-0.3763256371021271,-0.18978407979011536,0.17109178006649017,-0.08983749151229858,0.0013351644156500697,0.018120087683200836
8.573280811309814,-0.38090333342552185,-0.2004653960466385,0.17566949129104614,-0.09060044586658478,0.001716639962978661,0.018501564860343933
8.593338251113892,-0.3866254687309265,-0.21229113638401031,0.1825360506772995,-0.09098191559314728,0.0009536888683214784,0.01888304017484188
8.613458395004272,-0.3908216953277588,-0.22068360447883606,0.18978407979011536,-0.09174486994743347,0.0024795911740511656,0.01888304017484188
8.633506774902344,-0.3934920132160187,-0.2283131182193756,0.1970321238040924,-0.09288929402828217,0.005149920005351305,0.01926451548933983
8.653621196746826,-0.3999771177768707,-0.24204623699188232,0.20733195543289185,-0.09441519528627396,0.005912871100008488,0.01926451548933983
8.673750162124634,-0.4087510406970978,-0.2630273997783661,0.21877622604370117,-0.09517814964056015,0.007438773289322853,0.01926451548933983
8.693889617919922,-0.4179064631462097,-0.28248265385627747,0.23479819297790527,-0.09670405089855194,0.006294346414506435,0.02040894143283367
8.713979482650757,-0.4228656589984894,-0.2954528033733368,0.248531311750412,-0.09746700525283813,0.0078202486038208,0.021171892061829567
8.734039306640625,-0.42668038606643677,-0.3091859221458435,0.2634088695049286,-0.09784847497940063,0.008201723918318748,0.02231631986796856
8.754166603088379,-0.4339284300804138,-0.33131152391433716,0.28515297174453735,-0.09822995215654373,0.007438773289322853,0.022697795182466507
8.774307012557983,-0.44117647409439087,-0.3545815348625183,0.30308231711387634,-0.09899290651082993,0.00858320016413927,0.023079270496964455
8.794320583343506,-0.4488059878349304,-0.3770885765552521,0.3263523280620575,-0.10013733059167862,0.0078202486038208,0.023460745811462402
8.814412117004395,-0.4549095928668976,-0.3912031650543213,0.34733349084854126,-0.10204470902681351,0.010109102353453636,0.024605173617601395
8.834512710571289,-0.45796138048171997,-0.4064621925354004,0.3728923499584198,-0.1028076633810997,0.011635004542768002,0.026512550190091133
8.85504937171936,-0.46368351578712463,-0.42668038606643677,0.4022659659385681,-0.10433356463909149,0.013923857361078262,0.02727550081908703
8.875237464904785,-0.4697871506214142,-0.4488059878349304,0.4327840209007263,-0.10509651154279709,0.016594186425209045,0.027656977996230125
8.895311117172241,-0.47741663455963135,-0.47436484694480896,0.46063172817230225,-0.10624094307422638,0.01583123579621315,0.028038453310728073
8.915385961532593,-0.4850461483001709,-0.5029755234718323,0.49420157074928284,-0.10662241280078888,0.01583123579621315,0.02994582988321781
8.935422420501709,-0.4877164959907532,-0.5251010656356812,0.5224307775497437,-0.10776684433221817,0.018120087683200836,0.030708782374858856
8.955598831176758,-0.49038681387901306,-0.5525673031806946,0.5556191205978394,-0.10891126841306686,0.01926451548933983,0.03147173300385475
8.97568655014038,-0.49458304047584534,-0.5815594792366028,0.5853742361068726,-0.10929274559020996,0.019645990803837776,0.03223468363285065
8.995755910873413,-0.4983977973461151,-0.6090257167816162,0.6139848828315735,-0.11043716967105865,0.019645990803837776,0.034142062067985535
9.015871047973633,-0.50030517578125,-0.6322957277297974,0.6422140598297119,-0.11120012402534485,0.023079270496964455,0.03490501269698143
9.03595519065857,-0.501068115234375,-0.6513695120811462,0.6666285395622253,-0.11272602528333664,0.026131074875593185,0.037193864583969116
9.056068181991577,-0.5022125840187073,-0.6746395230293274,0.6891355514526367,-0.11310750246047974,0.02689402550458908,0.03757534176111221
9.076124906539917,-0.5022125840187073,-0.7013428211212158,0.7124055624008179,-0.11387044936418533,0.02841992862522602,0.03757534176111221
9.096409320831299,-0.5022125840187073,-0.726138710975647,0.7352941036224365,-0.11463340371847153,0.03032730519771576,0.03833829239010811
9.116499662399292,-0.5022125840187073,-0.7444495558738708,0.7528420090675354,-0.11577782779932022,0.03299763426184654,0.038719769567251205
9.136568069458008,-0.5022125840187073,-0.7574197053909302,0.7661936283111572,-0.11654078215360641,0.03452353551983833,0.038719769567251205
9.156663656234741,-0.5018310546875,-0.7726787328720093,0.7799267768859863,-0.11730372905731201,0.03528648987412453,0.0394827201962471
9.17676067352295,-0.5022125840187073,-0.7875562906265259,0.7902265787124634,-0.11730372905731201,0.03833829239010811,0.0398641936480999
9.197134256362915,-0.5022125840187073,-0.80357825756073,0.7997635006904602,-0.11768520623445511,0.03795681521296501,0.04100862145423889
9.217294216156006,-0.5022125840187073,-0.8157854676246643,0.8089188933372498,-0.11768520623445511,0.0394827201962471,0.04139009863138199
9.237322807312012,-0.5022125840187073,-0.8268482685089111,0.8146410584449768,-0.1192111074924469,0.040627144277095795,0.04177157208323479
9.25741457939148,-0.5018310546875,-0.8405813574790955,0.8226520419120789,-0.1203555315732956,0.04253452271223068,0.042153049260377884
9.277480840682983,-0.5022125840187073,-0.8516441583633423,0.8276112079620361,-0.12073700875043869,0.045204851776361465,0.042153049260377884
9.297912359237671,-0.5022125840187073,-0.8627069592475891,0.8325703740119934,-0.12149996310472488,0.046730753034353256,0.04253452271223068
9.318002462387085,-0.5018310546875,-0.8722438216209412,0.839436948299408,-0.12226291000843048,0.048638131469488144,0.04291599988937378
9.338046312332153,-0.5022125840187073,-0.8794918656349182,0.8432517051696777,-0.12340734153985977,0.05130846053361893,0.04329747334122658
9.35814118385315,-0.5018310546875,-0.8875028491020203,0.8497368097305298,-0.12378881871700287,0.05283436179161072,0.04406042397022247
9.37822437286377,-0.5018310546875,-0.8924620151519775,0.8535515666007996,-0.12378881871700287,0.05397878959774971,0.04482337832450867
9.398486852645874,-0.5018310546875,-0.8993285894393921,0.8585107326507568,-0.12417028844356537,0.0551232174038887,0.04482337832450867
9.418569087982178,-0.5018310546875,-0.9054322242736816,0.8634698987007141,-0.12417028844356537,0.056267641484737396,0.045204851776361465
9.438653469085693,-0.5018310546875,-0.9100099205970764,0.8680475950241089,-0.12455176562070847,0.05703059583902359,0.045204851776361465
9.458841800689697,-0.5018310546875,-0.9149690866470337,0.8726252913475037,-0.12455176562070847,0.05741206929087639,0.045204851776361465
9.478869199752808,-0.5018310546875,-0.9195467829704285,0.8783474564552307,-0.12455176562070847,0.06008239835500717,0.045204851776361465
9.499128818511963,-0.5018310546875,-0.924124538898468,0.8829251527786255,-0.12455176562070847,0.06198977679014206,0.04558632895350456
9.519224882125854,-0.501068115234375,-0.9290837049484253,0.8886472582817078,-0.12455176562070847,0.06198977679014206,0.04558632895350456
9.539295434951782,-0.501068115234375,-0.9321355223655701,0.8928435444831848,-0.12493324279785156,0.06466010212898254,0.04558632895350456
9.5594003200531,-0.501068115234375,-0.9370946884155273,0.8985656499862671,-0.12531471252441406,0.06733043491840363,0.04596780240535736
9.579453468322754,-0.501068115234375,-0.9420538544654846,0.9050507545471191,-0.12645913660526276,0.06961929053068161,0.04596780240535736
9.59956955909729,-0.501068115234375,-0.9458686113357544,0.9103913903236389,-0.12760357558727264,0.0722896158695221,0.04634927958250046
9.619651317596436,-0.501068115234375,-0.951972246170044,0.917639434337616,-0.12760357558727264,0.07419699430465698,0.046730753034353256
9.639721393585205,-0.501068115234375,-0.9565499424934387,0.924887478351593,-0.12798504531383514,0.07686731964349747,0.04711223021149635
9.660816431045532,-0.501068115234375,-0.962272047996521,0.9302281141281128,-0.12874799966812134,0.07915617525577545,0.04787518084049225
9.68090271949768,-0.501068115234375,-0.9699015617370605,0.9374761581420898,-0.12836651504039764,0.08030059933662415,0.048256658017635345
9.70096755027771,-0.501068115234375,-0.9744792580604553,0.9431982636451721,-0.12912946939468384,0.08220797777175903,0.048638131469488144
9.72115683555603,-0.501068115234375,-0.9817273020744324,0.9500648379325867,-0.12989242374897003,0.08449683338403702,0.04901960864663124
9.741195678710938,-0.501068115234375,-0.9885938763618469,0.9584572911262512,-0.13179980218410492,0.0871671661734581,0.04940108209848404
9.76156997680664,-0.501068115234375,-0.9969863295555115,0.9668498039245605,-0.13179980218410492,0.08945601433515549,0.04940108209848404
9.78172516822815,-0.501068115234375,-1.0049973726272583,0.9767681360244751,-0.13179980218410492,0.09060044586658478,0.04940108209848404
9.801787614822388,-0.501068115234375,-1.0114823579788208,0.9840161800384521,-0.13218127191066742,0.09212634712457657,0.049782559275627136
9.821946144104004,-0.501068115234375,-1.019874930381775,0.9935530424118042,-0.13218127191066742,0.09479667246341705,0.049782559275627136
9.842036008834839,-0.501068115234375,-1.0263599157333374,1.0004196166992188,-0.13218127191066742,0.09708552807569504,0.050164032727479935
9.862153053283691,-0.501068115234375,-1.033226490020752,1.0061417818069458,-0.13218127191066742,0.09861142933368683,0.05130846053361893
9.8822762966156,-0.501068115234375,-1.042763352394104,1.0145342350006104,-0.13218127191066742,0.10128175467252731,0.05207141116261482
9.90232539176941,-0.501068115234375,-1.0496299266815186,1.021400809288025,-0.1333257108926773,0.10471503436565399,0.05283436179161072
9.922608375549316,-0.501068115234375,-1.0587854385375977,1.0297932624816895,-0.1333257108926773,0.10624094307422638,0.05283436179161072
9.942869424819946,-0.501068115234375,-1.0652704238891602,1.0378042459487915,-0.134470134973526,0.10852979123592377,0.053215838968753815
9.962844610214233,-0.501068115234375,-1.0728999376296997,1.0442893505096436,-0.1348516047000885,0.11043716967105865,0.053215838968753815
9.9829683303833,-0.501068115234375,-1.0809109210968018,1.052681803703308,-0.1348516047000885,0.11272602528333664,0.053215838968753815
10.003038167953491,-0.501068115234375,-1.0858701467514038,1.0576409101486206,-0.135233074426651,0.11387044936418533,0.053215838968753815
10.023618459701538,-0.501068115234375,-1.0934996604919434,1.0633630752563477,-0.135233074426651,0.11463340371847153,0.05359731614589691
10.043796062469482,-0.501068115234375,-1.0999847650527954,1.0694667100906372,-0.135233074426651,0.11654078215360641,0.05359731614589691
10.06381607055664,-0.501068115234375,-1.1053253412246704,1.0736628770828247,-0.1359960287809372,0.11730372905731201,0.05397878959774971
10.08400583267212,-0.501068115234375,-1.1125733852386475,1.0793850421905518,-0.1356145590543747,0.1184481605887413,0.05397878959774971
10.10402774810791,-0.501068115234375,-1.1175326108932495,1.0851072072982788,-0.1363775134086609,0.12149996310472488,0.05436026677489281
10.124114274978638,-0.501068115234375,-1.1217288970947266,1.0893033742904663,-0.1367589831352234,0.12455176562070847,0.054741740226745605
10.144263505935669,-0.501068115234375,-1.1270694732666016,1.0946440696716309,-0.1363775134086609,0.12798504531383514,0.0555046908557415
10.164319276809692,-0.501068115234375,-1.1312657594680786,1.100366234779358,-0.1371404528617859,0.13141833245754242,0.0558861680328846
10.184559345245361,-0.501068115234375,-1.1358433961868286,1.106088399887085,-0.1371404528617859,0.1340886503458023,0.0558861680328846
10.20464825630188,-0.501068115234375,-1.1404211521148682,1.1125733852386475,-0.13790340721607208,0.1363775134086609,0.056267641484737396
10.224759578704834,-0.501068115234375,-1.1438543796539307,1.1175326108932495,-0.13828489184379578,0.13904783129692078,0.056267641484737396
10.244851112365723,-0.501068115234375,-1.1491950750350952,1.1240177154541016,-0.13828489184379578,0.14133669435977936,0.056267641484737396
10.26495623588562,-0.501068115234375,-1.1530098915100098,1.1297398805618286,-0.13828489184379578,0.14209964871406555,0.056267641484737396
10.28507137298584,-0.501068115234375,-1.1564431190490723,1.1354619264602661,-0.13828489184379578,0.14362554252147675,0.05664911866188049
10.30525279045105,-0.501068115234375,-1.1621652841567993,1.1430914402008057,-0.13828489184379578,0.14629587531089783,0.05664911866188049
10.32572317123413,-0.501068115234375,-1.1667429208755493,1.1491950750350952,-0.13904783129692078,0.1497291475534439,0.05664911866188049
10.345854997634888,-0.501068115234375,-1.1732280254364014,1.1575875282287598,-0.13866636157035828,0.1527809500694275,0.05703059583902359
10.366070032119751,-0.501068115234375,-1.1781872510910034,1.1644541025161743,-0.13904783129692078,0.15735866129398346,0.05703059583902359
10.386143684387207,-0.501068115234375,-1.1846723556518555,1.1732280254364014,-0.13904783129692078,0.15964750945568085,0.05741206929087639
10.406309604644775,-0.501068115234375,-1.1907758712768555,1.1804760694503784,-0.13904783129692078,0.16269932687282562,0.05741206929087639
10.42635464668274,-0.501068115234375,-1.19764244556427,1.1892499923706055,-0.13942931592464447,0.1680399775505066,0.057793546468019485
10.446590185165405,-0.501068115234375,-1.2052719593048096,1.198405385017395,-0.13942931592464447,0.17109178006649017,0.058175019919872284
10.46708345413208,-0.501068115234375,-1.2129014730453491,1.2060348987579346,-0.13981078565120697,0.17376211285591125,0.05893797054886818
10.487260103225708,-0.501068115234375,-1.2235828638076782,1.2174792289733887,-0.13981078565120697,0.17986571788787842,0.06008239835500717
10.507280826568604,-0.5014495849609375,-1.2315938472747803,1.2254902124404907,-0.14019227027893066,0.1832990050315857,0.06046387553215027
10.527382373809814,-0.5014495849609375,-1.2430380582809448,1.2365529537200928,-0.14019227027893066,0.18558785319328308,0.06084534898400307
10.547427415847778,-0.501068115234375,-1.2533378601074219,1.2464714050292969,-0.13981078565120697,0.18902114033699036,0.06084534898400307
10.567477703094482,-0.501068115234375,-1.2628748416900635,1.2541009187698364,-0.14057374000549316,0.19283588230609894,0.06084534898400307
10.58757758140564,-0.501068115234375,-1.2739375829696655,1.2628748416900635,-0.13981078565120697,0.19512474536895752,0.061226826161146164
10.607775926589966,-0.501068115234375,-1.2842373847961426,1.2708858251571655,-0.14019227027893066,0.1974135935306549,0.06198977679014206
10.627848148345947,-0.5014495849609375,-1.2953002452850342,1.2773709297180176,-0.14019227027893066,0.1993209719657898,0.06275273114442825
10.64795446395874,-0.501068115234375,-1.3052185773849487,1.2834744453430176,-0.14019227027893066,0.2004653960466385,0.06351567804813385
10.668025732040405,-0.5014495849609375,-1.3128480911254883,1.2880522012710571,-0.14095520973205566,0.20313572883605957,0.06389715522527695
10.68814730644226,-0.5014495849609375,-1.3216220140457153,1.2922483682632446,-0.14019227027893066,0.20351719856262207,0.06389715522527695
10.708186864852905,-0.5014495849609375,-1.3269627094268799,1.2956817150115967,-0.14019227027893066,0.20466163754463196,0.06389715522527695
10.728270530700684,-0.5014495849609375,-1.3311588764190674,1.2987334728240967,-0.14057374000549316,0.20809490978717804,0.06389715522527695
10.748401880264282,-0.5014495849609375,-1.3345922231674194,1.3017853498458862,-0.14019227027893066,0.21038375794887543,0.06389715522527695
10.768471240997314,-0.501068115234375,-1.336499571800232,1.3056000471115112,-0.14095520973205566,0.212672621011734,0.06389715522527695
10.788725137710571,-0.501068115234375,-1.3384069204330444,1.3086519241333008,-0.14019227027893066,0.2149614691734314,0.06389715522527695
10.808816909790039,-0.501068115234375,-1.339932918548584,1.3128480911254883,-0.14019227027893066,0.21801327168941498,0.06427863240242004
10.828874826431274,-0.501068115234375,-1.3403143882751465,1.3155183792114258,-0.13981078565120697,0.22030213475227356,0.06427863240242004
10.848970651626587,-0.501068115234375,-1.3418402671813965,1.3193331956863403,-0.13942931592464447,0.22144655883312225,0.06427863240242004
10.869035005569458,-0.501068115234375,-1.3433661460876465,1.3227664232254028,-0.13981078565120697,0.22373540699481964,0.06427863240242004
10.889242172241211,-0.501068115234375,-1.3448920249938965,1.3261997699737549,-0.13942931592464447,0.22526131570339203,0.06427863240242004
10.90932822227478,-0.501068115234375,-1.347562313079834,1.3307774066925049,-0.13981078565120697,0.2294575423002243,0.06427863240242004
10.929378747940063,-0.501068115234375,-1.3498512506484985,1.3353551626205444,-0.13981078565120697,0.23289081454277039,0.06427863240242004
10.949476957321167,-0.501068115234375,-1.3536659479141235,1.341458797454834,-0.13942931592464447,0.23594263195991516,0.06466010212898254
10.96961259841919,-0.501068115234375,-1.355954885482788,1.3464179039001465,-0.13981078565120697,0.24013885855674744,0.06466010212898254
10.989680528640747,-0.501068115234375,-1.359769582748413,1.352521538734436,-0.13942931592464447,0.24357213079929352,0.06466010212898254
11.009783744812012,-0.501068115234375,-1.3635843992233276,1.359006643295288,-0.13942931592464447,0.24891279637813568,0.06542305648326874
11.029856204986572,-0.501068115234375,-1.3673990964889526,1.3658732175827026,-0.13981078565120697,0.25272753834724426,0.06580453366041183
11.049935579299927,-0.501068115234375,-1.3735027313232422,1.3746471405029297,-0.13942931592464447,0.2580682039260864,0.06656748056411743
11.070013523101807,-0.501068115234375,-1.3792248964309692,1.3830395936965942,-0.13981078565120697,0.2637903392314911,0.06771191209554672
11.09013319015503,-0.501068115234375,-1.3872358798980713,1.3925764560699463,-0.13942931592464447,0.264934778213501,0.06809338182210922
11.11021876335144,-0.501068115234375,-1.3948653936386108,1.4017318487167358,-0.13942931592464447,0.26989394426345825,0.06847485899925232
11.130379915237427,-0.5014495849609375,-1.4032578468322754,1.408979892730713,-0.13942931592464447,0.2767605185508728,0.06885633617639542
11.150398254394531,-0.5018310546875,-1.41470205783844,1.41775381565094,-0.13828489184379578,0.2798123061656952,0.06961929053068161
11.170475006103516,-0.5022125840187073,-1.4230945110321045,1.4238574504852295,-0.13752193748950958,0.28477150201797485,0.0711451917886734
11.190671682357788,-0.5022125840187073,-1.4318684339523315,1.429198145866394,-0.1367589831352234,0.2904936373233795,0.0715266615152359
11.210782289505005,-0.5022125840187073,-1.4433127641677856,1.435683250427246,-0.1363775134086609,0.2935454249382019,0.0715266615152359
11.230814933776855,-0.5022125840187073,-1.4509422779083252,1.440260887145996,-0.1356145590543747,0.2977416515350342,0.0715266615152359
11.250903367996216,-0.5022125840187073,-1.4600976705551147,1.4448386430740356,-0.134470134973526,0.29964902997016907,0.071908138692379
11.270960807800293,-0.5022125840187073,-1.4669642448425293,1.4486533403396606,-0.1356145590543747,0.30498969554901123,0.071908138692379
11.291256666183472,-0.5022125840187073,-1.4734493494033813,1.4532310962677002,-0.1348516047000885,0.3103303611278534,0.0722896158695221
11.311343669891357,-0.5022125840187073,-1.4791713953018188,1.4581903219223022,-0.135233074426651,0.31414511799812317,0.07267109304666519
11.331435918807983,-0.5022125840187073,-1.4829862117767334,1.4623864889144897,-0.1348516047000885,0.31795987486839294,0.07267109304666519
11.351586103439331,-0.5022125840187073,-1.4860379695892334,1.4677271842956543,-0.1329442262649536,0.32024872303009033,0.07267109304666519
11.371827363967896,-0.5022125840187073,-1.487945318222046,1.4719233512878418,-0.1329442262649536,0.32520791888237,0.07305257022380829
11.391883611679077,-0.5022125840187073,-1.4902342557907104,1.4795528650283813,-0.13179980218410492,0.33054855465888977,0.07381551712751389
11.412009954452515,-0.5022125840187073,-1.4909971952438354,1.4845120906829834,-0.13141833245754242,0.33550775051116943,0.07495994865894318
11.432072162628174,-0.5022125840187073,-1.492904543876648,1.491378664970398,-0.13141833245754242,0.3404669165611267,0.07534141838550568
11.45218300819397,-0.5022125840187073,-1.4948118925094604,1.49786376953125,-0.13027389347553253,0.34542611241340637,0.07572289556264877
11.47225308418274,-0.5022125840187073,-1.496337890625,1.503204345703125,-0.12989242374897003,0.34962233901023865,0.07648584991693497
11.492396831512451,-0.5022125840187073,-1.4993896484375,1.508163571357727,-0.12760357558727264,0.3564889132976532,0.07763027399778366
11.512650966644287,-0.5022125840187073,-1.501678466796875,1.512359857559204,-0.12569619715213776,0.36526283621788025,0.07915617525577545
11.532747030258179,-0.5025940537452698,-1.505874752998352,1.516174554824829,-0.12302586436271667,0.3744182586669922,0.08030059933662415
11.552825450897217,-0.5037384629249573,-1.5093079805374146,1.518463373184204,-0.12188144028186798,0.38242924213409424,0.08144503086805344
11.572951316833496,-0.506790280342102,-1.5150301456451416,1.5207523107528687,-0.11959258466959,0.39845120906829834,0.08258945494890213
11.593033790588379,-0.5106050372123718,-1.5203708410263062,1.5218967199325562,-0.1184481605887413,0.41485464572906494,0.08297093212604523
11.613396406173706,-0.5159456729888916,-1.5264743566513062,1.5249484777450562,-0.11615930497646332,0.4327840209007263,0.08373387902975082
11.63351035118103,-0.5201418995857239,-1.5321965217590332,1.5287632942199707,-0.11387044936418533,0.44499123096466064,0.08564125746488571
11.65361762046814,-0.5228122472763062,-1.5371557474136353,1.5325779914855957,-0.11158160120248795,0.4533836841583252,0.0879301130771637
11.673638820648193,-0.5254825949668884,-1.5405889749526978,1.5383001565933228,-0.10776684433221817,0.45796138048171997,0.09060044586658478
11.69374704360962,-0.5277714133262634,-1.5444037914276123,1.5459296703338623,-0.10128175467252731,0.46215763688087463,0.09174486994743347
11.7138512134552,-0.5289158225059509,-1.5463111400604248,1.5527962446212769,-0.09517814964056015,0.4663538634777069,0.09327077120542526
11.733900785446167,-0.5277714133262634,-1.5482184886932373,1.5581368207931519,-0.08602273464202881,0.4709315598011017,0.09517814964056015
11.753984212875366,-0.5262455344200134,-1.5508888959884644,1.5619516372680664,-0.07724879682064056,0.47474631667137146,0.09555962681770325
11.77411437034607,-0.5235751867294312,-1.5531777143478394,1.563858985900879,-0.0722896158695221,0.4808499217033386,0.09670405089855194
11.794242143630981,-0.5205233693122864,-1.5585182905197144,1.5650033950805664,-0.06847485899925232,0.4880979657173157,0.09708552807569504
11.814292430877686,-0.5189974904060364,-1.5634775161743164,1.565384864807129,-0.06618601083755493,0.4980163276195526,0.09708552807569504
11.834373474121094,-0.5170900821685791,-1.568055272102356,1.566147804260254,-0.06656748056411743,0.5094605684280396,0.09708552807569504
11.854447841644287,-0.5182345509529114,-1.573395848274231,1.568818211555481,-0.06580453366041183,0.5159456729888916,0.09708552807569504
11.874647855758667,-0.5186160206794739,-1.578355073928833,1.5722514390945435,-0.06427863240242004,0.5224307775497437,0.09670405089855194
11.894665479660034,-0.5231937170028687,-1.580643892288208,1.5787365436553955,-0.05970092490315437,0.5254825949668884,0.09632257372140884
11.914719581604004,-0.5270084738731384,-1.5817883014678955,1.58407723903656,-0.05436026677489281,0.5239566564559937,0.09670405089855194
11.934808492660522,-0.5308232307434082,-1.5836957693099976,1.589417815208435,-0.04482337832450867,0.5205233693122864,0.09632257372140884
11.954925775527954,-0.533875048160553,-1.5859845876693726,1.593614101409912,-0.03643091395497322,0.5155642032623291,0.09670405089855194
11.975012302398682,-0.5350194573402405,-1.587891936302185,1.596665859222412,-0.02994582988321781,0.506027340888977,0.09784847497940063
11.995139360427856,-0.5334935784339905,-1.5909438133239746,1.597428798675537,-0.026131074875593185,0.5022125840187073,0.09784847497940063
12.01517915725708,-0.5312047004699707,-1.593614101409912,1.5970473289489746,-0.026131074875593185,0.5033569931983948,0.09784847497940063
12.035341739654541,-0.5270084738731384,-1.5962843894958496,1.5955214500427246,-0.027656977996230125,0.5056458115577698,0.09708552807569504
12.05549430847168,-0.5224307775497437,-1.6000992059707642,1.594377040863037,-0.028038453310728073,0.5113679766654968,0.09708552807569504
12.07595157623291,-0.5186160206794739,-1.6016250848770142,1.594377040863037,-0.028038453310728073,0.5235751867294312,0.09594109654426575
12.09605884552002,-0.5163271427154541,-1.6020065546035767,1.596665859222412,-0.02841992862522602,0.5334935784339905,0.09403372555971146
12.116113901138306,-0.5167086124420166,-1.6023880243301392,1.6008621454238892,-0.026131074875593185,0.5453193187713623,0.09060044586658478
12.136428594589233,-0.5197604298591614,-1.6020065546035767,1.6046768426895142,-0.021171892061829567,0.5483710765838623,0.08907453715801239
12.15652084350586,-0.5262455344200134,-1.6012436151504517,1.6081101894378662,-0.014686808921396732,0.5502784848213196,0.08907453715801239
12.176708698272705,-0.5315861701965332,-1.6000992059707642,1.6103990077972412,-0.009727626107633114,0.5506599545478821,0.086785688996315
12.196815967559814,-0.536926805973053,-1.6012436151504517,1.6107804775238037,-0.005912871100008488,0.5445563197135925,0.08602273464202881
12.216875791549683,-0.541886031627655,-1.6016250848770142,1.6103990077972412,-0.0024795911740511656,0.5319676399230957,0.08602273464202881
12.236990213394165,-0.5453193187713623,-1.6027694940567017,1.6096360683441162,-0.0009536888683214784,0.5197604298591614,0.0864042118191719
12.257111549377441,-0.5449378490447998,-1.6050583124160767,1.6081101894378662,-0.000572213320992887,0.5102235674858093,0.0864042118191719
12.277151584625244,-0.54112309217453,-1.6069657802581787,1.6065843105316162,-0.00019073777366429567,0.5052643418312073,0.08487831056118011
12.297248601913452,-0.5350194573402405,-1.6092545986175537,1.6050583124160767,0.000572213320992887,0.5018310546875,0.08487831056118011
12.317473411560059,-0.5289158225059509,-1.6096360683441162,1.6042953729629517,0.0009536888683214784,0.50030517578125,0.08335240930318832
12.33758807182312,-0.5197604298591614,-1.6092545986175537,1.6046768426895142,0.000572213320992887,0.5052643418312073,0.08182650804519653
12.357694864273071,-0.5125123858451843,-1.6084916591644287,1.6058213710784912,0.0013351644156500697,0.5170900821685791,0.07991912961006165
12.377760410308838,-0.5117494463920593,-1.6081101894378662,1.6092545986175537,0.0013351644156500697,0.5281528830528259,0.07648584991693497
12.397826433181763,-0.5148012638092041,-1.6069657802581787,1.6115434169769287,0.004386968910694122,0.5468451976776123,0.07305257022380829
12.41787075996399,-0.5193789601325989,-1.6050583124160767,1.6130692958831787,0.005531395319849253,0.5613412857055664,0.07000076025724411
12.437968015670776,-0.5281528830528259,-1.6031509637832642,1.6145952939987183,0.008201723918318748,0.5693522691726685,0.06847485899925232
12.458042860031128,-0.5376898050308228,-1.6023880243301392,1.6149767637252808,0.01125352829694748,0.572022557258606,0.06542305648326874
12.478144407272339,-0.5468451976776123,-1.6020065546035767,1.6145952939987183,0.01506828423589468,0.5659189820289612,0.06542305648326874
12.498231887817383,-0.5514228940010071,-1.6023880243301392,1.6134508848190308,0.01926451548933983,0.5506599545478821,0.06618601083755493
12.518286228179932,-0.5518043637275696,-1.6023880243301392,1.6111619472503662,0.019645990803837776,0.5319676399230957,0.06771191209554672
12.538366079330444,-0.5479896068572998,-1.6023880243301392,1.6096360683441162,0.019645990803837776,0.5125123858451843,0.06771191209554672
12.55844497680664,-0.54264897108078,-1.6031509637832642,1.6073472499847412,0.020027466118335724,0.501068115234375,0.06885633617639542
12.578735589981079,-0.536163866519928,-1.6031509637832642,1.6065843105316162,0.019645990803837776,0.49496451020240784,0.06809338182210922
12.59882640838623,-0.5258640646934509,-1.6031509637832642,1.6069657802581787,0.02040894143283367,0.4987792670726776,0.06809338182210922
12.618879556655884,-0.5151827335357666,-1.6020065546035767,1.6077287197113037,0.02040894143283367,0.509079098701477,0.06580453366041183
12.638962745666504,-0.5098420977592468,-1.6004806756973267,1.6084916591644287,0.02040894143283367,0.5247195959091187,0.06313420087099075
12.659068584442139,-0.5109865069389343,-1.5997177362442017,1.6092545986175537,0.02040894143283367,0.5399786233901978,0.061226826161146164
12.679148435592651,-0.5136567950248718,-1.5985733270645142,1.6096360683441162,0.02040894143283367,0.5624856948852539,0.05741206929087639
12.69923710823059,-0.5167086124420166,-1.595902919769287,1.6077287197113037,0.02079041674733162,0.5807965397834778,0.051689937710762024
12.719293594360352,-0.5170900821685791,-1.592088222503662,1.6039139032363892,0.023079270496964455,0.5773632526397705,0.05092698708176613
12.73939561843872,-0.5148012638092041,-1.58865487575531,1.5989547967910767,0.030708782374858856,0.5582894682884216,0.05130846053361893
12.75947904586792,-0.5109865069389343,-1.5844587087631226,1.591325283050537,0.03833829239010811,0.534637987613678,0.051689937710762024
12.779497385025024,-0.5037384629249573,-1.58407723903656,1.58560311794281,0.04177157208323479,0.5125123858451843,0.05359731614589691
12.79962158203125,-0.49229419231414795,-1.5836957693099976,1.576066255569458,0.04596780240535736,0.4858091175556183,0.05359731614589691
12.819673538208008,-0.4819943606853485,-1.58407723903656,1.568818211555481,0.04711223021149635,0.4724574685096741,0.0551232174038887
12.839767217636108,-0.4694056510925293,-1.5844587087631226,1.5619516372680664,0.04787518084049225,0.4640650153160095,0.056267641484737396
12.859926462173462,-0.4530022144317627,-1.5844587087631226,1.5527962446212769,0.048638131469488144,0.46177613735198975,0.0555046908557415
12.879972696304321,-0.42935073375701904,-1.5844587087631226,1.5478370189666748,0.04558632895350456,0.4720759987831116,0.05436026677489281
12.900164365768433,-0.4068436622619629,-1.5836957693099976,1.5409704446792603,0.04596780240535736,0.4835202693939209,0.05436026677489281
12.920165777206421,-0.3934920132160187,-1.5829328298568726,1.5367742776870728,0.04596780240535736,0.49191272258758545,0.05283436179161072
12.941187381744385,-0.3744182586669922,-1.5817883014678955,1.5337224006652832,0.04558632895350456,0.5018310546875,0.05283436179161072
12.961351156234741,-0.34847790002822876,-1.5794994831085205,1.5291447639465332,0.04558632895350456,0.5109865069389343,0.05130846053361893
12.981396675109863,-0.3271152675151825,-1.577592134475708,1.5245670080184937,0.04596780240535736,0.5174715518951416,0.048638131469488144
13.00147533416748,-0.3057526648044586,-1.575303316116333,1.5196079015731812,0.04558632895350456,0.5243381261825562,0.04787518084049225
13.021552801132202,-0.2927824854850769,-1.573395848274231,1.515411615371704,0.04787518084049225,0.5228122472763062,0.04749370738863945
13.041639566421509,-0.2763790488243103,-1.5730143785476685,1.512359857559204,0.04749370738863945,0.5144197940826416,0.046730753034353256
13.061721324920654,-0.25501641631126404,-1.572632908821106,1.506637692451477,0.048638131469488144,0.5109865069389343,0.04634927958250046
13.081828117370605,-0.23403525352478027,-1.571869969367981,1.50091552734375,0.04901960864663124,0.5056458115577698,0.04634927958250046
13.102654695510864,-0.212672621011734,-1.571869969367981,1.4940489530563354,0.04940108209848404,0.499542236328125,0.046730753034353256
13.12279748916626,-0.1974135935306549,-1.5714884996414185,1.4875638484954834,0.04901960864663124,0.49343863129615784,0.04711223021149635
13.142882108688354,-0.18863965570926666,-1.5714884996414185,1.4837491512298584,0.050164032727479935,0.4892423748970032,0.04787518084049225
13.163005590438843,-0.17452506721019745,-1.571107029914856,1.4791713953018188,0.049782559275627136,0.4892423748970032,0.048638131469488144
13.183140277862549,-0.15316243469715118,-1.5699626207351685,1.4753566980361938,0.050164032727479935,0.49153125286102295,0.04711223021149635
13.203150272369385,-0.1337071806192398,-1.5691996812820435,1.4711604118347168,0.05092698708176613,0.4953460097312927,0.04749370738863945
13.223247051239014,-0.11959258466959,-1.5676738023757935,1.4665827751159668,0.05207141116261482,0.4991607666015625,0.04711223021149635
13.243312358856201,-0.11081864684820175,-1.567292332649231,1.4639123678207397,0.05359731614589691,0.5014495849609375,0.046730753034353256
13.263380527496338,-0.09784847497940063,-1.566529393196106,1.4600976705551147,0.05359731614589691,0.5033569931983948,0.04596780240535736
13.283419132232666,-0.08258945494890213,-1.5657663345336914,1.4555199146270752,0.054741740226745605,0.5029755234718323,0.04558632895350456
13.303489685058594,-0.06809338182210922,-1.564621925354004,1.4513237476348877,0.0555046908557415,0.5033569931983948,0.04558632895350456
13.32365608215332,-0.05054550990462303,-1.564621925354004,1.4459830522537231,0.0551232174038887,0.5041199326515198,0.045204851776361465
13.343750476837158,-0.0394827201962471,-1.5642404556274414,1.441023826599121,0.0558861680328846,0.4983977973461151,0.045204851776361465
13.363812923431396,-0.03223468363285065,-1.5642404556274414,1.437209129333496,0.05703059583902359,0.49343863129615784,0.04558632895350456
13.384056568145752,-0.022697795182466507,-1.5634775161743164,1.433012843132019,0.05664911866188049,0.4869535267353058,0.04596780240535736
13.404247760772705,-0.0078202486038208,-1.562333106994629,1.4280537366867065,0.05703059583902359,0.4861905872821808,0.045204851776361465
13.42452096939087,0.007438773289322853,-1.5619516372680664,1.4238574504852295,0.058175019919872284,0.4854276478290558,0.04482337832450867
13.444645404815674,0.01506828423589468,-1.5611886978149414,1.41775381565094,0.05970092490315437,0.4850461483001709,0.04482337832450867
13.464677095413208,0.021553369238972664,-1.5604257583618164,1.4135576486587524,0.06046387553215027,0.4846646785736084,0.045204851776361465
13.48476791381836,0.02994582988321781,-1.560044288635254,1.4078354835510254,0.06084534898400307,0.4858091175556183,0.04482337832450867
13.50489068031311,0.0398641936480999,-1.559281349182129,1.4032578468322754,0.06275273114442825,0.4884794354438782,0.04482337832450867
13.524909019470215,0.04901960864663124,-1.5588998794555664,1.3979171514511108,0.06313420087099075,0.4880979657173157,0.045204851776361465
13.54502272605896,0.0551232174038887,-1.5581368207931519,1.3918135166168213,0.06466010212898254,0.482375830411911,0.04482337832450867
13.565133333206177,0.05970092490315437,-1.5577553510665894,1.3872358798980713,0.06542305648326874,0.4804684519767761,0.04482337832450867
13.58522081375122,0.06656748056411743,-1.5569924116134644,1.3799878358840942,0.06542305648326874,0.4732204079627991,0.045204851776361465
13.605376243591309,0.07457847148180008,-1.5562294721603394,1.3735027313232422,0.06694895774126053,0.4690241813659668,0.04482337832450867
13.625598669052124,0.08487831056118011,-1.5554665327072144,1.3677805662155151,0.06961929053068161,0.46215763688087463,0.04558632895350456
13.64572024345398,0.09441519528627396,-1.5539406538009644,1.3593881130218506,0.06961929053068161,0.45834288001060486,0.04482337832450867
13.665781497955322,0.09975585341453552,-1.5527962446212769,1.354047417640686,0.0711451917886734,0.4518577754497528,0.04558632895350456
13.685929298400879,0.10509651154279709,-1.5520333051681519,1.3471808433532715,0.0715266615152359,0.44728007912635803,0.04558632895350456
13.706077337265015,0.11539635062217712,-1.5508888959884644,1.339932918548584,0.071908138692379,0.44575417041778564,0.04558632895350456
13.726107120513916,0.12874799966812134,-1.5497443675994873,1.3345922231674194,0.07267109304666519,0.44537270069122314,0.045204851776361465
13.746233224868774,0.13981078565120697,-1.5482184886932373,1.3277256488800049,0.07343403995037079,0.44384679198265076,0.04558632895350456
13.7662935256958,0.14553292095661163,-1.5474555492401123,1.3235293626785278,0.07495994865894318,0.4396505653858185,0.04558632895350456
13.786438703536987,0.1512550562620163,-1.5466926097869873,1.3189517259597778,0.07534141838550568,0.4365987777709961,0.04558632895350456
13.806556940078735,0.15774014592170715,-1.5455482006072998,1.3151369094848633,0.07534141838550568,0.439269095659256,0.04558632895350456
13.8266122341156,0.16346226632595062,-1.5447852611541748,1.3132295608520508,0.07648584991693497,0.4377431869506836,0.045204851776361465
13.84669542312622,0.1676585078239441,-1.5444037914276123,1.3117036819458008,0.07648584991693497,0.4377431869506836,0.04558632895350456
13.866773128509521,0.1680399775505066,-1.5436408519744873,1.3105592727661133,0.07763027399778366,0.4362172782421112,0.04558632895350456
13.886851787567139,0.1680399775505066,-1.5428777933120728,1.3094148635864258,0.07839322835206985,0.4354543387889862,0.04558632895350456
13.90702748298645,0.1676585078239441,-1.5421148538589478,1.3082703351974487,0.07877469807863235,0.43087664246559143,0.04558632895350456
13.927379846572876,0.1672770231962204,-1.5421148538589478,1.3082703351974487,0.07915617525577545,0.4240100681781769,0.04558632895350456
13.947438955307007,0.1668955534696579,-1.5417333841323853,1.3067444562911987,0.08030059933662415,0.41676202416419983,0.04558632895350456
13.967526912689209,0.1665140837430954,-1.5417333841323853,1.3059815168380737,0.08030059933662415,0.41447317600250244,0.04596780240535736
13.987648963928223,0.1653696447610855,-1.5417333841323853,1.3044556379318237,0.08068207651376724,0.41027694940567017,0.04596780240535736
