liuyurong129/humanoid-gym/humanoid/data/actual_q_20250522-041055.csv
timestamp,joint_1,joint_2,joint_3,joint_4,joint_5,joint_6
0.00017023086547851562,0.000572213320992887,0.15316243469715118,-0.07801175117492676,0.00019073777366429567,-0.001716639962978661,-0.00019073777366429567
0.020241737365722656,0.00019073777366429567,0.12951095402240753,-0.06733043491840363,-0.00019073777366429567,0.0013351644156500697,-0.00019073777366429567
0.040326833724975586,0.00019073777366429567,0.11234454810619354,-0.06046387553215027,-0.00019073777366429567,0.0013351644156500697,-0.00019073777366429567
0.060399770736694336,0.00019073777366429567,0.10166323184967041,-0.05436026677489281,-0.00019073777366429567,0.000572213320992887,-0.00019073777366429567
0.08049869537353516,-0.00019073777366429567,0.08983749151229858,-0.046730753034353256,0.00019073777366429567,0.000572213320992887,-0.00019073777366429567
0.10057592391967773,0.00019073777366429567,0.07877469807863235,-0.039101243019104004,-0.00019073777366429567,0.000572213320992887,-0.00019073777366429567
0.12065553665161133,0.00019073777366429567,0.071908138692379,-0.035667963325977325,0.00019073777366429567,0.000572213320992887,-0.00019073777366429567
0.1408369541168213,-0.00019073777366429567,0.06618601083755493,-0.030708782374858856,0.00019073777366429567,0.000572213320992887,-0.00019073777366429567
0.16081809997558594,-0.00019073777366429567,0.061226826161146164,-0.02994582988321781,-0.00019073777366429567,0.000572213320992887,-0.00019073777366429567
0.1809077262878418,-0.00019073777366429567,0.05703059583902359,-0.02727550081908703,-0.00019073777366429567,0.000572213320992887,-0.000572213320992887
0.20104551315307617,-0.00019073777366429567,0.054741740226745605,-0.024605173617601395,0.00019073777366429567,0.000572213320992887,-0.000572213320992887
0.22115564346313477,-0.00019073777366429567,0.05245288833975792,-0.021553369238972664,-0.00019073777366429567,0.00019073777366429567,-0.000572213320992887
0.24124646186828613,-0.000572213320992887,0.050164032727479935,-0.018120087683200836,-0.00019073777366429567,0.00019073777366429567,-0.0009536888683214784
0.2613108158111572,-0.000572213320992887,0.048638131469488144,-0.016594186425209045,-0.00019073777366429567,0.00019073777366429567,-0.0013351644156500697
0.28145647048950195,-0.0009536888683214784,0.045204851776361465,-0.013160906732082367,0.00019073777366429567,0.00019073777366429567,-0.002861066721379757
0.3015437126159668,-0.001716639962978661,0.042153049260377884,-0.010872052982449532,0.00019073777366429567,0.00019073777366429567,-0.0032425422687083483
0.32169175148010254,-0.0024795911740511656,0.03795681521296501,-0.0078202486038208,0.00019073777366429567,0.00019073777366429567,-0.0032425422687083483
0.3417990207672119,-0.0036240178160369396,0.03452353551983833,-0.004386968910694122,0.00019073777366429567,-0.00019073777366429567,-0.0036240178160369396
0.36186814308166504,-0.00476844422519207,0.03223468363285065,-0.002861066721379757,0.00019073777366429567,-0.0009536888683214784,-0.0036240178160369396
0.3819425106048584,-0.005912871100008488,0.028038453310728073,0.0009536888683214784,0.00019073777366429567,-0.0009536888683214784,-0.004005493130534887
0.4020259380340576,-0.00667582219466567,0.024223696440458298,0.005149920005351305,0.00019073777366429567,-0.0013351644156500697,-0.004386968910694122
0.4222908020019531,-0.0078202486038208,0.020027466118335724,0.0078202486038208,0.00019073777366429567,-0.0024795911740511656,-0.005912871100008488
0.4424264430999756,-0.00858320016413927,0.01506828423589468,0.013160906732082367,0.00019073777366429567,-0.0032425422687083483,-0.006294346414506435
0.4629809856414795,-0.008964675478637218,0.010872052982449532,0.015449759550392628,0.00019073777366429567,-0.004005493130534887,-0.00667582219466567
0.48314332962036133,-0.010109102353453636,0.00667582219466567,0.02040894143283367,0.00019073777366429567,-0.004005493130534887,-0.00667582219466567
0.5031518936157227,-0.010872052982449532,0.0020981156267225742,0.022697795182466507,0.00019073777366429567,-0.00476844422519207,-0.007057297509163618
0.5233132839202881,-0.012397955171763897,-0.002861066721379757,0.02689402550458908,0.00019073777366429567,-0.005149920005351305,-0.007057297509163618
0.543384313583374,-0.013160906732082367,-0.005531395319849253,0.02880140393972397,0.00019073777366429567,-0.006294346414506435,-0.007438773289322853
0.564598798751831,-0.013923857361078262,-0.010109102353453636,0.032616160809993744,0.00019073777366429567,-0.007057297509163618,-0.0078202486038208
0.5847017765045166,-0.01506828423589468,-0.014686808921396732,0.037193864583969116,0.00019073777366429567,-0.007438773289322853,-0.008201723918318748
0.6049087047576904,-0.01583123579621315,-0.01926451548933983,0.040245670825242996,0.00019073777366429567,-0.007438773289322853,-0.00858320016413927
0.6250157356262207,-0.01735713705420494,-0.02384222112596035,0.04329747334122658,0.00019073777366429567,-0.007438773289322853,-0.009346150793135166
0.6451592445373535,-0.018501564860343933,-0.027656977996230125,0.04749370738863945,0.00019073777366429567,-0.0078202486038208,-0.010490577667951584
0.6652607917785645,-0.01926451548933983,-0.031090257689356804,0.050164032727479935,0.00019073777366429567,-0.0078202486038208,-0.010872052982449532
0.6856305599212646,-0.021553369238972664,-0.03604944050312042,0.05397878959774971,0.00019073777366429567,-0.0078202486038208,-0.01125352829694748
0.7057371139526367,-0.02231631986796856,-0.04139009863138199,0.058175019919872284,0.00019073777366429567,-0.008201723918318748,-0.011635004542768002
0.7258152961730957,-0.02231631986796856,-0.046730753034353256,0.06046387553215027,0.000572213320992887,-0.00858320016413927,-0.01201647985726595
0.7460088729858398,-0.023460745811462402,-0.051689937710762024,0.06427863240242004,0.000572213320992887,-0.009727626107633114,-0.012779430486261845
0.7661571502685547,-0.024223696440458298,-0.05436026677489281,0.06694895774126053,0.000572213320992887,-0.010490577667951584,-0.013542382046580315
0.7862026691436768,-0.025749599561095238,-0.05893797054886818,0.07000076025724411,0.000572213320992887,-0.010872052982449532,-0.013923857361078262
0.8062951564788818,-0.02727550081908703,-0.06313420087099075,0.07381551712751389,0.000572213320992887,-0.010872052982449532,-0.01430533267557621
0.8264167308807373,-0.02841992862522602,-0.06618601083755493,0.07572289556264877,0.000572213320992887,-0.010872052982449532,-0.01430533267557621
0.8464791774749756,-0.029182879254221916,-0.07038223743438721,0.07915617525577545,0.000572213320992887,-0.012397955171763897,-0.014686808921396732
0.866572380065918,-0.02994582988321781,-0.07610437273979187,0.08220797777175903,0.0009536888683214784,-0.01506828423589468,-0.014686808921396732
0.8869631290435791,-0.03147173300385475,-0.08258945494890213,0.08525978773832321,0.0009536888683214784,-0.01506828423589468,-0.01506828423589468
0.9070961475372314,-0.03299763426184654,-0.0879301130771637,0.09021896868944168,0.0013351644156500697,-0.015449759550392628,-0.01583123579621315
0.9271769523620605,-0.03490501269698143,-0.09174486994743347,0.09327077120542526,0.001716639962978661,-0.015449759550392628,-0.016594186425209045
0.9472761154174805,-0.03681239113211632,-0.09708552807569504,0.09784847497940063,0.0020981156267225742,-0.015449759550392628,-0.01773861236870289
0.9673781394958496,-0.03757534176111221,-0.10509651154279709,0.10090028494596481,0.0024795911740511656,-0.016212711110711098,-0.018501564860343933
0.9874107837677002,-0.039101243019104004,-0.11196307092905045,0.10471503436565399,0.002861066721379757,-0.016594186425209045,-0.01888304017484188
1.0075359344482422,-0.040245670825242996,-0.11615930497646332,0.10891126841306686,0.002861066721379757,-0.016975661739706993,-0.01926451548933983
1.0277416706085205,-0.04100862145423889,-0.1192111074924469,0.11081864684820175,0.0032425422687083483,-0.01773861236870289,-0.02079041674733162
1.047828197479248,-0.04329747334122658,-0.12569619715213776,0.11501488089561462,0.0032425422687083483,-0.01773861236870289,-0.02193484455347061
1.0679347515106201,-0.04406042397022247,-0.1329442262649536,0.11768520623445511,0.0032425422687083483,-0.01773861236870289,-0.02231631986796856
1.0879948139190674,-0.045204851776361465,-0.14057374000549316,0.12226291000843048,0.0036240178160369396,-0.018120087683200836,-0.02231631986796856
1.1081104278564453,-0.046730753034353256,-0.14515145123004913,0.12645913660526276,0.0036240178160369396,-0.018120087683200836,-0.022697795182466507
1.1283159255981445,-0.048256658017635345,-0.1493476778268814,0.12912946939468384,0.0036240178160369396,-0.018501564860343933,-0.023079270496964455
1.1484174728393555,-0.049782559275627136,-0.15583276748657227,0.1337071806192398,0.004005493130534887,-0.018501564860343933,-0.02384222112596035
1.1684632301330566,-0.05130846053361893,-0.1646067053079605,0.1363775134086609,0.004005493130534887,-0.01888304017484188,-0.02536812424659729
1.1885552406311035,-0.05245288833975792,-0.17185473442077637,0.14019227027893066,0.004005493130534887,-0.01888304017484188,-0.025749599561095238
1.2086350917816162,-0.05283436179161072,-0.17566949129104614,0.14248111844062805,0.004386968910694122,-0.01926451548933983,-0.026131074875593185
1.2287085056304932,-0.054741740226745605,-0.1825360506772995,0.14629587531089783,0.00476844422519207,-0.019645990803837776,-0.026512550190091133
1.2488093376159668,-0.056267641484737396,-0.19130998849868774,0.1493476778268814,0.005149920005351305,-0.019645990803837776,-0.027656977996230125
1.2690787315368652,-0.05855649709701538,-0.20160982012748718,0.152399480342865,0.005531395319849253,-0.02079041674733162,-0.029182879254221916
1.2892968654632568,-0.06008239835500717,-0.20771344006061554,0.15659570693969727,0.00667582219466567,-0.02231631986796856,-0.02994582988321781
1.309295415878296,-0.061226826161146164,-0.212672621011734,0.16002899408340454,0.007057297509163618,-0.022697795182466507,-0.03032730519771576
1.3293745517730713,-0.06313420087099075,-0.21953918039798737,0.164988175034523,0.007438773289322853,-0.023079270496964455,-0.030708782374858856
1.3494484424591064,-0.06504157930612564,-0.22793163359165192,0.16918440163135529,0.007438773289322853,-0.023460745811462402,-0.031090257689356804
1.369502305984497,-0.06694895774126053,-0.23670557141304016,0.17223620414733887,0.007438773289322853,-0.02384222112596035,-0.03223468363285065
1.389604091644287,-0.06847485899925232,-0.24357213079929352,0.17719538509845734,0.007438773289322853,-0.024986648932099342,-0.032616160809993744
1.4096758365631104,-0.06923781335353851,-0.247768372297287,0.1802472025156021,0.007438773289322853,-0.024986648932099342,-0.03299763426184654
1.4297497272491455,-0.071908138692379,-0.25577935576438904,0.18520638346672058,0.0078202486038208,-0.02536812424659729,-0.03337911143898964
1.449854850769043,-0.07343403995037079,-0.2641718089580536,0.18940261006355286,0.0078202486038208,-0.02536812424659729,-0.03376058489084244
1.469904899597168,-0.07419699430465698,-0.273708701133728,0.19245441257953644,0.0078202486038208,-0.026131074875593185,-0.034142062067985535
1.4899919033050537,-0.07610437273979187,-0.2809567451477051,0.1974135935306549,0.008201723918318748,-0.026131074875593185,-0.03452353551983833
1.5100808143615723,-0.07763027399778366,-0.28629741072654724,0.20122835040092468,0.008201723918318748,-0.026131074875593185,-0.03528648987412453
1.5303099155426025,-0.07953765243291855,-0.2924010157585144,0.20542457699775696,0.00858320016413927,-0.026131074875593185,-0.03643091395497322
1.5504510402679443,-0.08106355369091034,-0.30193790793418884,0.21038375794887543,0.008964675478637218,-0.026512550190091133,-0.037193864583969116
1.5704822540283203,-0.08258945494890213,-0.3103303611278534,0.2138170450925827,0.009346150793135166,-0.026512550190091133,-0.03757534176111221
1.5905859470367432,-0.08487831056118011,-0.31719690561294556,0.21877622604370117,0.009727626107633114,-0.026512550190091133,-0.03795681521296501
1.6106536388397217,-0.0864042118191719,-0.3217746317386627,0.22259098291397095,0.010490577667951584,-0.026512550190091133,-0.03833829239010811
1.6307058334350586,-0.0879301130771637,-0.32520791888237,0.22793163359165192,0.010872052982449532,-0.02727550081908703,-0.0398641936480999
1.6507954597473145,-0.08945601433515549,-0.32978561520576477,0.23327229917049408,0.010872052982449532,-0.027656977996230125,-0.040245670825242996
1.6708555221557617,-0.09136339277029037,-0.33512628078460693,0.23594263195991516,0.010872052982449532,-0.02841992862522602,-0.04100862145423889
1.6909384727478027,-0.09327077120542526,-0.3400854468345642,0.23937590420246124,0.010872052982449532,-0.029564354568719864,-0.04100862145423889
1.7110307216644287,-0.09441519528627396,-0.343137264251709,0.24319066107273102,0.01125352829694748,-0.02994582988321781,-0.04139009863138199
1.731078863143921,-0.09517814964056015,-0.34847790002822876,0.2466239482164383,0.01125352829694748,-0.03032730519771576,-0.042153049260377884
1.7511780261993408,-0.09708552807569504,-0.3576333224773407,0.25120165944099426,0.011635004542768002,-0.031090257689356804,-0.04329747334122658
1.7714180946350098,-0.09975585341453552,-0.36717021465301514,0.25463491678237915,0.011635004542768002,-0.03185320645570755,-0.04444190114736557
1.7914021015167236,-0.1024261862039566,-0.3763256371021271,0.2592126429080963,0.01201647985726595,-0.03299763426184654,-0.045204851776361465
1.8114969730377197,-0.1031891331076622,-0.38204777240753174,0.2637903392314911,0.012397955171763897,-0.03337911143898964,-0.04596780240535736
1.8315303325653076,-0.10547798871994019,-0.3885328471660614,0.26798656582832336,0.013160906732082367,-0.03337911143898964,-0.04787518084049225
1.8516206741333008,-0.10776684433221817,-0.39730677008628845,0.2740901708602905,0.013923857361078262,-0.03376058489084244,-0.048638131469488144
1.871739387512207,-0.10929274559020996,-0.4064621925354004,0.2775234580039978,0.014686808921396732,-0.03376058489084244,-0.04901960864663124
1.8918132781982422,-0.11158160120248795,-0.41638055443763733,0.28286412358283997,0.014686808921396732,-0.03528648987412453,-0.04940108209848404
1.9118995666503906,-0.11272602528333664,-0.422102689743042,0.28744181990623474,0.01506828423589468,-0.03490501269698143,-0.050164032727479935
1.9319860935211182,-0.11463340371847153,-0.42820629477500916,0.2920195460319519,0.01506828423589468,-0.03528648987412453,-0.05130846053361893
1.9520668983459473,-0.11654078215360641,-0.4365987777709961,0.2977416515350342,0.015449759550392628,-0.035667963325977325,-0.05207141116261482
1.972135066986084,-0.1188296303153038,-0.44575417041778564,0.30422675609588623,0.01583123579621315,-0.03681239113211632,-0.05283436179161072
1.9922170639038086,-0.12188144028186798,-0.45643550157546997,0.3091859221458435,0.015449759550392628,-0.03757534176111221,-0.053215838968753815
2.012345552444458,-0.12455176562070847,-0.4655908942222595,0.31643396615982056,0.015449759550392628,-0.03795681521296501,-0.05397878959774971
2.0324549674987793,-0.12531471252441406,-0.4713130295276642,0.3221561014652252,0.016212711110711098,-0.038719769567251205,-0.0558861680328846
2.05269718170166,-0.12760357558727264,-0.47741663455963135,0.3278782367706299,0.016212711110711098,-0.04100862145423889,-0.05664911866188049
2.0728306770324707,-0.12951095402240753,-0.4861905872821808,0.33512628078460693,0.016594186425209045,-0.04139009863138199,-0.05741206929087639
2.092928171157837,-0.13179980218410492,-0.4953460097312927,0.3397039771080017,0.01735713705420494,-0.04177157208323479,-0.058175019919872284
2.1130807399749756,-0.1340886503458023,-0.5045014023780823,0.34618905186653137,0.01773861236870289,-0.04444190114736557,-0.059319447726011276
2.1331496238708496,-0.135233074426651,-0.5109865069389343,0.35191118717193604,0.018501564860343933,-0.04406042397022247,-0.05970092490315437
2.1535611152648926,-0.1367589831352234,-0.5170900821685791,0.3572518527507782,0.018501564860343933,-0.04406042397022247,-0.06008239835500717
2.173736572265625,-0.13866636157035828,-0.5235751867294312,0.36411839723587036,0.01888304017484188,-0.04444190114736557,-0.06046387553215027
2.193758726119995,-0.14095520973205566,-0.5304417610168457,0.3694590628147125,0.01888304017484188,-0.045204851776361465,-0.06084534898400307
2.213822841644287,-0.14362554252147675,-0.5376898050308228,0.3763256371021271,0.01888304017484188,-0.04482337832450867,-0.06160829961299896
2.2339179515838623,-0.14515145123004913,-0.54264897108078,0.38242924213409424,0.01926451548933983,-0.04482337832450867,-0.06313420087099075
2.255174398422241,-0.14705882966518402,-0.5491340756416321,0.3892957866191864,0.01888304017484188,-0.04482337832450867,-0.06427863240242004
2.275238275527954,-0.1501106321811676,-0.5567635893821716,0.39845120906829834,0.01926451548933983,-0.04444190114736557,-0.06542305648326874
2.295336961746216,-0.152399480342865,-0.5621042251586914,0.403410404920578,0.01926451548933983,-0.04482337832450867,-0.06733043491840363
2.315444231033325,-0.15545128285884857,-0.5701152086257935,0.41256579756736755,0.01926451548933983,-0.045204851776361465,-0.06771191209554672
2.335498809814453,-0.15774014592170715,-0.5766003131866455,0.4194323718547821,0.020027466118335724,-0.045204851776361465,-0.06847485899925232
2.355597496032715,-0.16079194843769073,-0.5849927663803101,0.42935073375701904,0.020027466118335724,-0.045204851776361465,-0.0707637146115303
2.3757762908935547,-0.16346226632595062,-0.5926222801208496,0.4381246566772461,0.02040894143283367,-0.04558632895350456,-0.07267109304666519
2.3964591026306152,-0.1676585078239441,-0.6017776727676392,0.4484245181083679,0.021171892061829567,-0.046730753034353256,-0.07534141838550568
2.416567802429199,-0.17032882571220398,-0.6113145351409912,0.46063172817230225,0.02193484455347061,-0.048638131469488144,-0.07572289556264877
2.437802314758301,-0.17338064312934875,-0.622377336025238,0.4724574685096741,0.02231631986796856,-0.04901960864663124,-0.07801175117492676
2.457883358001709,-0.17643244564533234,-0.6334401369094849,0.4865720570087433,0.022697795182466507,-0.05054550990462303,-0.07915617525577545
2.4779746532440186,-0.1806286722421646,-0.6437399983406067,0.4972533881664276,0.023079270496964455,-0.051689937710762024,-0.08030059933662415
2.4980640411376953,-0.18520638346672058,-0.657473087310791,0.5132753252983093,0.023079270496964455,-0.05245288833975792,-0.08297093212604523
2.5182089805603027,-0.18863965570926666,-0.6692988276481628,0.5277714133262634,0.02384222112596035,-0.05245288833975792,-0.08487831056118011
2.5397462844848633,-0.19130998849868774,-0.6815060377120972,0.5445563197135925,0.024223696440458298,-0.05245288833975792,-0.0864042118191719
2.5598344802856445,-0.1966506391763687,-0.6956206560134888,0.5636301040649414,0.024605173617601395,-0.05245288833975792,-0.0879301130771637
2.5799033641815186,-0.20275425910949707,-0.7101167440414429,0.5815594792366028,0.024986648932099342,-0.05283436179161072,-0.09060044586658478
2.600550413131714,-0.21000228822231293,-0.7291905283927917,0.6052109599113464,0.02536812424659729,-0.05397878959774971,-0.09327077120542526
2.6206259727478027,-0.2153429538011551,-0.7455939650535583,0.6273365616798401,0.025749599561095238,-0.05436026677489281,-0.09441519528627396
2.640678644180298,-0.21992065012454987,-0.7631418108940125,0.6517509818077087,0.026131074875593185,-0.05283436179161072,-0.09708552807569504
2.6607773303985596,-0.22640573978424072,-0.7856488823890686,0.6822690367698669,0.026512550190091133,-0.05359731614589691,-0.09975585341453552
2.680845022201538,-0.23479819297790527,-0.810826301574707,0.7127870321273804,0.02689402550458908,-0.05664911866188049,-0.1035706102848053
2.7009501457214355,-0.2443350851535797,-0.838674008846283,0.7509346008300781,0.02689402550458908,-0.05703059583902359,-0.10738536715507507
2.7210211753845215,-0.25234606862068176,-0.8661402463912964,0.7894636392593384,0.02841992862522602,-0.057793546468019485,-0.11234454810619354
2.7410776615142822,-0.2615014910697937,-0.8974212408065796,0.8348592519760132,0.03032730519771576,-0.05703059583902359,-0.1184481605887413
2.7611711025238037,-0.2733272314071655,-0.9313725233078003,0.8791103959083557,0.030708782374858856,-0.056267641484737396,-0.12455176562070847
2.781224250793457,-0.28706035017967224,-0.9653238654136658,0.9225986003875732,0.034142062067985535,-0.056267641484737396,-0.1333257108926773
2.8013124465942383,-0.30041199922561646,-0.997367799282074,0.9653238654136658,0.0394827201962471,-0.06237125024199486,-0.14591439068317413
2.821392297744751,-0.308041512966156,-1.021400809288025,0.9935530424118042,0.046730753034353256,-0.06694895774126053,-0.16041046380996704
2.841506004333496,-0.3118562698364258,-1.0336079597473145,1.0095750093460083,0.05741206929087639,-0.08144503086805344,-0.17833982408046722
2.861637830734253,-0.3133821487426758,-1.0362783670425415,1.0141527652740479,0.0715266615152359,-0.09861142933368683,-0.1989395022392273
2.8816964626312256,-0.31376364827156067,-1.0305562019348145,1.0122454166412354,0.0871671661734581,-0.11272602528333664,-0.22030213475227356
2.9017860889434814,-0.3133821487426758,-1.0267413854599,1.0118639469146729,0.09937438368797302,-0.12149996310472488,-0.23899443447589874
2.921851396560669,-0.3126192092895508,-1.0233081579208374,1.0126268863677979,0.10624094307422638,-0.12340734153985977,-0.2569237947463989
2.942042350769043,-0.3107118308544159,-1.019874930381775,1.0145342350006104,0.11196307092905045,-0.12188144028186798,-0.2744716703891754
2.962158203125,-0.3084229826927185,-1.0183489322662354,1.0141527652740479,0.1184481605887413,-0.12073700875043869,-0.290112167596817
2.9821815490722656,-0.30422675609588623,-1.0183489322662354,1.0141527652740479,0.12722209095954895,-0.12073700875043869,-0.30422675609588623
3.0022695064544678,-0.30270084738731384,-1.0187304019927979,1.0133898258209229,0.1348516047000885,-0.1203555315732956,-0.31681543588638306
3.0223474502563477,-0.30231937766075134,-1.0183489322662354,1.0122454166412354,0.14057374000549316,-0.1180666834115982,-0.3286411762237549
3.043714761734009,-0.30231937766075134,-1.0179674625396729,1.0114823579788208,0.14667734503746033,-0.1188296303153038,-0.3389410376548767
3.0638058185577393,-0.30003052949905396,-1.0172045230865479,1.0111008882522583,0.1516365259885788,-0.12226291000843048,-0.34962233901023865
3.083936929702759,-0.29850462079048157,-1.0156786441802979,1.0114823579788208,0.15506981313228607,-0.12912946939468384,-0.3557259440422058
3.1044325828552246,-0.29812315106391907,-1.0137712955474854,1.0111008882522583,0.15812161564826965,-0.13141833245754242,-0.36335545778274536
3.1245288848876953,-0.2958342730998993,-1.0126268863677979,1.0111008882522583,0.16079194843769073,-0.1329442262649536,-0.3709849715232849
3.1445748805999756,-0.2943083941936493,-1.0118639469146729,1.0099564790725708,0.16231784224510193,-0.1329442262649536,-0.3774700462818146
3.1646487712860107,-0.291638046503067,-1.0114823579788208,1.0088120698928833,0.164988175034523,-0.13103684782981873,-0.3839551508426666
3.184743642807007,-0.28973066806793213,-1.0107194185256958,1.0076676607131958,0.1661325991153717,-0.12912946939468384,-0.3904402256011963
3.2048282623291016,-0.28667888045310974,-1.0103379487991333,1.0061417818069458,0.16880293190479279,-0.12607766687870026,-0.39806973934173584
3.2249910831451416,-0.28362706303596497,-1.0099564790725708,1.0049973726272583,0.17032882571220398,-0.12378881871700287,-0.4022659659385681
3.245105504989624,-0.28362706303596497,-1.0084306001663208,1.0046159029006958,0.17299915850162506,-0.12226291000843048,-0.4068436622619629
3.265232801437378,-0.28324559330940247,-1.0072861909866333,1.0030899047851562,0.17376211285591125,-0.12073700875043869,-0.41180285811424255
3.2853171825408936,-0.2821011543273926,-1.0053788423538208,1.0019454956054688,0.17643244564533234,-0.12111848592758179,-0.4179064631462097
3.305410861968994,-0.2805752754211426,-1.0038528442382812,1.0011825561523438,0.17681391537189484,-0.12340734153985977,-0.4209582805633545
3.325587272644043,-0.2794308364391327,-1.0034713745117188,1.0008010864257812,0.17986571788787842,-0.12340734153985977,-0.42629891633987427
3.3458094596862793,-0.2779049277305603,-1.0034713745117188,0.9992752075195312,0.1802472025156021,-0.12340734153985977,-0.42820629477500916
3.3659679889678955,-0.2759975492954254,-1.0027084350585938,0.9985122680664062,0.1813916265964508,-0.12226291000843048,-0.4331654906272888
3.3859925270080566,-0.2740901708602905,-1.0019454956054688,0.9969863295555115,0.182917520403862,-0.1192111074924469,-0.4362172782421112
3.406081438064575,-0.27218279242515564,-1.0015640258789062,0.995841920375824,0.1832990050315857,-0.11501488089561462,-0.440032035112381
3.4261908531188965,-0.26913100481033325,-1.0004196166992188,0.9946975111961365,0.1836804747581482,-0.11196307092905045,-0.44460976123809814
3.44632625579834,-0.26798656582832336,-0.9996566772460938,0.9927901029586792,0.1836804747581482,-0.11043716967105865,-0.44728007912635803
3.466449022293091,-0.26798656582832336,-0.9985122680664062,0.9912642240524292,0.1840619444847107,-0.10776684433221817,-0.4518577754497528
3.486492872238159,-0.26684215664863586,-0.997367799282074,0.9893568158149719,0.1840619444847107,-0.10738536715507507,-0.4552910625934601
3.5065622329711914,-0.2660791873931885,-0.996604859828949,0.9878309369087219,0.18673227727413177,-0.10776684433221817,-0.45757991075515747
3.5266475677490234,-0.2653162479400635,-0.9962233901023865,0.9870679974555969,0.18825818598270416,-0.10814831405878067,-0.46025025844573975
3.5470893383026123,-0.264934778213501,-0.995078980922699,0.9859235286712646,0.19016556441783905,-0.10814831405878067,-0.46253910660743713
3.567243814468384,-0.2634088695049286,-0.9939345121383667,0.9851605892181396,0.19092851877212524,-0.10776684433221817,-0.465209424495697
3.5872809886932373,-0.2618829607963562,-0.9924086332321167,0.9843976497650146,0.19130998849868774,-0.10547798871994019,-0.4690241813659668
3.6078953742980957,-0.2611200213432312,-0.9916456937789917,0.9840161800384521,0.19169145822525024,-0.1031891331076622,-0.4720759987831116
3.6279847621917725,-0.2599755823612213,-0.9905012845993042,0.9824903011322021,0.19207294285297394,-0.10051880776882172,-0.47550925612449646
3.648045301437378,-0.2588311731815338,-0.9889753460884094,0.9809643626213074,0.19245441257953644,-0.09899290651082993,-0.4797055125236511
3.668236494064331,-0.2584496736526489,-0.9882124066352844,0.9790570139884949,0.19436179101467133,-0.09784847497940063,-0.4812313914299011
3.688263177871704,-0.2569237947463989,-0.9878309369087219,0.9775310754776001,0.1958876997232437,-0.09670405089855194,-0.4842832088470459
3.7093241214752197,-0.2569237947463989,-0.9870679974555969,0.9760051965713501,0.1985580176115036,-0.09632257372140884,-0.4873350262641907
3.7294299602508545,-0.2569237947463989,-0.9863049983978271,0.9740977883338928,0.1993209719657898,-0.09517814964056015,-0.4888609051704407
3.7495269775390625,-0.25539788603782654,-0.9851605892181396,0.9729533791542053,0.20122835040092468,-0.09517814964056015,-0.49343863129615784
3.769611120223999,-0.25463491678237915,-0.9843976497650146,0.9718089699745178,0.20237277448177338,-0.09479667246341705,-0.4957274794578552
3.7896814346313477,-0.25463491678237915,-0.9832532405853271,0.9706645011901855,0.20275425910949707,-0.09327077120542526,-0.4983977973461151
3.810088634490967,-0.25349050760269165,-0.9824903011322021,0.969520092010498,0.20428015291690826,-0.09212634712457657,-0.5022125840187073
3.8301799297332764,-0.25272753834724426,-0.9817273020744324,0.967994213104248,0.20580606162548065,-0.09021896868944168,-0.5052643418312073
3.850234031677246,-0.25234606862068176,-0.9805828928947449,0.9668498039245605,0.20618753135204315,-0.0875486359000206,-0.5064088106155396
3.8703277111053467,-0.25158312916755676,-0.9798199534416199,0.9657053351402283,0.20771344006061554,-0.08602273464202881,-0.5086976289749146
3.890437364578247,-0.25158312916755676,-0.9790570139884949,0.9645609259605408,0.20923933386802673,-0.08487831056118011,-0.5109865069389343
3.9105594158172607,-0.25120165944099426,-0.9779125452041626,0.9634165167808533,0.20962081849575043,-0.08373387902975082,-0.5125123858451843
3.930633306503296,-0.2504386901855469,-0.9767681360244751,0.9618905782699585,0.20962081849575043,-0.08335240930318832,-0.5140383243560791
3.9506869316101074,-0.24967575073242188,-0.9756237268447876,0.9603646993637085,0.21000228822231293,-0.08144503086805344,-0.5167086124420166
3.970764398574829,-0.24967575073242188,-0.9748607873916626,0.959220290184021,0.21152819693088531,-0.08030059933662415,-0.5201418995857239
3.9909467697143555,-0.24929426610469818,-0.9744792580604553,0.9573128819465637,0.21229113638401031,-0.07763027399778366,-0.5228122472763062
4.011053085327148,-0.24929426610469818,-0.9737163186073303,0.9565499424934387,0.2138170450925827,-0.07610437273979187,-0.5247195959091187
4.031198501586914,-0.2473868876695633,-0.9729533791542053,0.955024003982544,0.2149614691734314,-0.07610437273979187,-0.5266270041465759
4.051225662231445,-0.2473868876695633,-0.9714275002479553,0.953498125076294,0.21648737788200378,-0.07495994865894318,-0.5296788215637207
4.071292161941528,-0.2473868876695633,-0.9706645011901855,0.9523537158966064,0.21725031733512878,-0.07457847148180008,-0.5312047004699707
4.091387987136841,-0.2473868876695633,-0.970283031463623,0.9508277773857117,0.21839475631713867,-0.07343403995037079,-0.5319676399230957
4.11142897605896,-0.2473868876695633,-0.9691386222839355,0.9489204287528992,0.21953918039798737,-0.0707637146115303,-0.5342565178871155
4.1315412521362305,-0.2473868876695633,-0.967994213104248,0.9466315507888794,0.22106507420539856,-0.0707637146115303,-0.5357823967933655
4.151573181152344,-0.2473868876695633,-0.967231273651123,0.9454871416091919,0.22220951318740845,-0.07000076025724411,-0.5380712747573853
4.171696424484253,-0.2473868876695633,-0.967231273651123,0.9447242021560669,0.22411687672138214,-0.06885633617639542,-0.5399786233901978
4.191831111907959,-0.2473868876695633,-0.9668498039245605,0.9435797929763794,0.22564278542995453,-0.06809338182210922,-0.541886031627655
4.212589740753174,-0.2473868876695633,-0.9660868048667908,0.9428167939186096,0.22755016386508942,-0.06694895774126053,-0.5445563197135925
4.232632160186768,-0.2473868876695633,-0.9649423956871033,0.9416723847389221,0.2286945879459381,-0.06694895774126053,-0.5472266674041748
4.25275444984436,-0.2473868876695633,-0.9641794562339783,0.9405279755592346,0.2294575423002243,-0.06694895774126053,-0.5495155453681946
4.272895336151123,-0.2473868876695633,-0.9630350470542908,0.9393835067749023,0.2309834510087967,-0.06618601083755493,-0.5514228940010071
4.29297137260437,-0.247768372297287,-0.962272047996521,0.9386205673217773,0.23250934481620789,-0.06504157930612564,-0.5540932416915894
4.313210725784302,-0.2473868876695633,-0.9618905782699585,0.9370946884155273,0.23327229917049408,-0.06313420087099075,-0.5563820600509644
4.333219051361084,-0.2473868876695633,-0.9611276388168335,0.9355688095092773,0.23517967760562897,-0.06084534898400307,-0.5582894682884216
4.353780269622803,-0.2473868876695633,-0.959983229637146,0.9340428709983826,0.23632410168647766,-0.05855649709701538,-0.5590524077415466
4.373891592025757,-0.2473868876695633,-0.959220290184021,0.9332799315452576,0.23708705604076385,-0.05664911866188049,-0.5621042251586914
4.3940043449401855,-0.2473868876695633,-0.9588387608528137,0.9325169920921326,0.23861294984817505,-0.05436026677489281,-0.5651560425758362
4.414120674133301,-0.2473868876695633,-0.9580758213996887,0.9317540526390076,0.23975738883018494,-0.05207141116261482,-0.5655375123023987
4.434212684631348,-0.2473868876695633,-0.9576943516731262,0.9306095838546753,0.24052032828330994,-0.051689937710762024,-0.5666819214820862
4.454599380493164,-0.2473868876695633,-0.9573128819465637,0.9302281141281128,0.24280919134616852,-0.051689937710762024,-0.5693522691726685
4.474807500839233,-0.2473868876695633,-0.9569314122200012,0.9290837049484253,0.24319066107273102,-0.05207141116261482,-0.5701152086257935
4.4948296546936035,-0.2473868876695633,-0.9565499424934387,0.9279392957687378,0.24357213079929352,-0.05130846053361893,-0.5716410875320435
4.51491641998291,-0.247768372297287,-0.9565499424934387,0.9275577664375305,0.2443350851535797,-0.05130846053361893,-0.5735484957695007
4.535058259963989,-0.2473868876695633,-0.9557870030403137,0.9260318875312805,0.2458609938621521,-0.05054550990462303,-0.5739299654960632
4.555321216583252,-0.2473868876695633,-0.9546425342559814,0.9237430095672607,0.2473868876695633,-0.048256658017635345,-0.5758373141288757
4.57541823387146,-0.2473868876695633,-0.9538795948028564,0.9222171306610107,0.24891279637813568,-0.04749370738863945,-0.5773632526397705
4.595494985580444,-0.2473868876695633,-0.953498125076294,0.9210727214813232,0.25120165944099426,-0.04634927958250046,-0.5804150700569153
4.615618944168091,-0.2473868876695633,-0.952735185623169,0.9199283123016357,0.25272753834724426,-0.043678950518369675,-0.5827038884162903
4.635759115219116,-0.2473868876695633,-0.951972246170044,0.918402373790741,0.25463491678237915,-0.04291599988937378,-0.5849927663803101
4.655864953994751,-0.2473868876695633,-0.951209306716919,0.916113555431366,0.2569237947463989,-0.04177157208323479,-0.5861371755599976
4.6759631633758545,-0.2473868876695633,-0.9504463076591492,0.9134432077407837,0.2592126429080963,-0.040245670825242996,-0.5884260535240173
4.696035146713257,-0.2473868876695633,-0.9496833682060242,0.9122987985610962,0.2615014910697937,-0.040245670825242996,-0.5903334021568298
4.7161545753479,-0.2473868876695633,-0.9500648379325867,0.9115357995033264,0.2622644305229187,-0.0398641936480999,-0.5914778113365173
4.73625636100769,-0.2473868876695633,-0.9500648379325867,0.9107728600502014,0.2622644305229187,-0.0394827201962471,-0.5922408103942871
4.756576776504517,-0.2473868876695633,-0.9496833682060242,0.9096284508705139,0.2626459002494812,-0.039101243019104004,-0.5926222801208496
4.776677846908569,-0.247768372297287,-0.9489204287528992,0.9096284508705139,0.2641718089580536,-0.03757534176111221,-0.5952925682067871
4.796720027923584,-0.247768372297287,-0.9481574892997742,0.9084840416908264,0.2660791873931885,-0.03604944050312042,-0.5979629158973694
4.81684684753418,-0.247768372297287,-0.9473945498466492,0.9069581031799316,0.26684215664863586,-0.03337911143898964,-0.5998703241348267
4.836942672729492,-0.247768372297287,-0.9466315507888794,0.9061951637268066,0.26913100481033325,-0.03223468363285065,-0.6017776727676392
4.857109546661377,-0.247768372297287,-0.9454871416091919,0.9054322242736816,0.26989394426345825,-0.03147173300385475,-0.6029220819473267
4.877283096313477,-0.247768372297287,-0.9454871416091919,0.9046692848205566,0.27180132269859314,-0.02880140393972397,-0.6052109599113464
4.897358179092407,-0.2481498420238495,-0.9443427324295044,0.9042877554893494,0.273708701133728,-0.026131074875593185,-0.6078813076019287
4.917611598968506,-0.248531311750412,-0.9439612627029419,0.9039062857627869,0.2759975492954254,-0.025749599561095238,-0.6105515956878662
4.937716484069824,-0.24967575073242188,-0.9431982636451721,0.9031433463096619,0.2779049277305603,-0.024605173617601395,-0.6113145351409912
4.957808971405029,-0.2500572204589844,-0.9420538544654846,0.9016174674034119,0.2809567451477051,-0.023079270496964455,-0.612840473651886
4.977904319763184,-0.2508201599121094,-0.9412909150123596,0.9004730582237244,0.2821011543273926,-0.023460745811462402,-0.614366352558136
4.997968673706055,-0.2508201599121094,-0.9412909150123596,0.8993285894393921,0.28439003229141235,-0.023460745811462402,-0.6158922910690308
5.018135070800781,-0.25158312916755676,-0.9412909150123596,0.8974212408065796,0.28629741072654724,-0.02193484455347061,-0.6174181699752808
5.03821325302124,-0.25196459889411926,-0.9401465058326721,0.8955138325691223,0.28820478916168213,-0.02079041674733162,-0.6185625791549683
5.0587379932403564,-0.25196459889411926,-0.9393835067749023,0.8947508931159973,0.28934919834136963,-0.019645990803837776,-0.620088517665863
5.078822135925293,-0.25196459889411926,-0.9393835067749023,0.8939879536628723,0.2904936373233795,-0.018501564860343933,-0.6227588057518005
5.098905324935913,-0.25196459889411926,-0.9390020370483398,0.8939879536628723,0.2924010157585144,-0.016594186425209045,-0.6250476837158203
5.118997812271118,-0.25196459889411926,-0.9378576278686523,0.8939879536628723,0.2935454249382019,-0.016212711110711098,-0.6250476837158203
5.1390979290008545,-0.25234606862068176,-0.9370946884155273,0.8939879536628723,0.2946898639202118,-0.01506828423589468,-0.6254291534423828
5.159163236618042,-0.25310903787612915,-0.9363317489624023,0.8928435444831848,0.2958342730998993,-0.013542382046580315,-0.6261920928955078
5.179245233535767,-0.25310903787612915,-0.9351872801780701,0.89131760597229,0.2965972423553467,-0.012397955171763897,-0.6277180314064026
5.199367523193359,-0.25425344705581665,-0.9351872801780701,0.88979172706604,0.29850462079048157,-0.01125352829694748,-0.6300068497657776
5.219425439834595,-0.25425344705581665,-0.9351872801780701,0.8886472582817078,0.30079346895217896,-0.010109102353453636,-0.6326771974563599
5.239490032196045,-0.25425344705581665,-0.9351872801780701,0.8875028491020203,0.30308231711387634,-0.010109102353453636,-0.6349660754203796
5.259568691253662,-0.25501641631126404,-0.9351872801780701,0.8867399096488953,0.30384528636932373,-0.008201723918318748,-0.6361104846000671
5.279631853103638,-0.25501641631126404,-0.9351872801780701,0.8863584399223328,0.30498969554901123,-0.007057297509163618,-0.6364919543266296
5.299724340438843,-0.25501641631126404,-0.9344243407249451,0.8852140307426453,0.3065156042575836,-0.005149920005351305,-0.6368734240531921
5.319801568984985,-0.25501641631126404,-0.9336614012718201,0.8836880922317505,0.3076600432395935,-0.0032425422687083483,-0.6372548937797546
5.340034008026123,-0.25501641631126404,-0.9328984618186951,0.882543683052063,0.3091859221458435,-0.0032425422687083483,-0.6380178332328796
5.3601226806640625,-0.25501641631126404,-0.9325169920921326,0.8821622133255005,0.3099488914012909,-0.0020981156267225742,-0.6395437717437744
5.3801915645599365,-0.25501641631126404,-0.9325169920921326,0.8813992738723755,0.3103303611278534,-0.0013351644156500697,-0.6403067111968994
5.400271892547607,-0.25539788603782654,-0.9321355223655701,0.8802548050880432,0.3114747703075409,0.000572213320992887,-0.6418325901031494
5.420353651046753,-0.25577935576438904,-0.9317540526390076,0.8791103959083557,0.3122377395629883,0.000572213320992887,-0.6433585286140442
5.4404137134552,-0.2569237947463989,-0.9317540526390076,0.8775845170021057,0.31414511799812317,0.0009536888683214784,-0.6441214680671692
5.460506439208984,-0.2573052644729614,-0.9317540526390076,0.8764400482177734,0.31528952717781067,0.0009536888683214784,-0.6448844075202942
5.480568885803223,-0.2576867341995239,-0.9313725233078003,0.8756771087646484,0.31719690561294556,0.00019073777366429567,-0.647173285484314
5.500685691833496,-0.2584496736526489,-0.9309910535812378,0.8745326995849609,0.31910428404808044,0.0009536888683214784,-0.649462103843689
5.520735740661621,-0.2599755823612213,-0.9302281141281128,0.8737697601318359,0.3217746317386627,0.0009536888683214784,-0.6528953909873962
5.540905714035034,-0.2599755823612213,-0.9298466444015503,0.8730067610740662,0.3240634799003601,0.0013351644156500697,-0.6548027992248535
5.5609962940216064,-0.2599755823612213,-0.9294651746749878,0.8730067610740662,0.325970858335495,0.001716639962978661,-0.6555657386779785
5.581049680709839,-0.2599755823612213,-0.9290837049484253,0.8730067610740662,0.3282597064971924,0.0036240178160369396,-0.6570916175842285
5.601219177246094,-0.2599755823612213,-0.9283207654953003,0.8722438216209412,0.33016708493232727,0.005912871100008488,-0.6593804955482483
5.621301174163818,-0.2599755823612213,-0.9275577664375305,0.8718623518943787,0.33245593309402466,0.008201723918318748,-0.6616693139076233
5.64147686958313,-0.2599755823612213,-0.9275577664375305,0.8710994124412537,0.33360037207603455,0.010872052982449532,-0.6624323129653931
5.661576986312866,-0.2599755823612213,-0.927176296710968,0.8699550032615662,0.33512628078460693,0.013160906732082367,-0.6631952524185181
5.681601285934448,-0.2599755823612213,-0.9267948269844055,0.8688105344772339,0.3370336592197418,0.014686808921396732,-0.6631952524185181
5.701694011688232,-0.2603570520877838,-0.9267948269844055,0.8680475950241089,0.3389410376548767,0.01583123579621315,-0.6647211313247681
5.721799850463867,-0.2611200213432312,-0.9267948269844055,0.8680475950241089,0.3404669165611267,0.01583123579621315,-0.6666285395622253
5.7419047355651855,-0.2615014910697937,-0.9267948269844055,0.8676661252975464,0.3408484160900116,0.01735713705420494,-0.6670100092887878
5.762000799179077,-0.2618829607963562,-0.926413357257843,0.8676661252975464,0.3416113555431366,0.018501564860343933,-0.6673914790153503
5.7820844650268555,-0.2622644305229187,-0.9252689480781555,0.8669031858444214,0.3435187339782715,0.019645990803837776,-0.6692988276481628
5.802218675613403,-0.2622644305229187,-0.9245060086250305,0.8661402463912964,0.34504464268684387,0.02040894143283367,-0.6696802973747253
5.822345733642578,-0.2622644305229187,-0.924887478351593,0.8657587766647339,0.34695202112197876,0.02079041674733162,-0.6700618267059326
5.842369318008423,-0.2622644305229187,-0.924887478351593,0.8646143078804016,0.34847790002822876,0.023079270496964455,-0.6704432964324951
5.862476348876953,-0.2622644305229187,-0.924887478351593,0.8634698987007141,0.34962233901023865,0.024223696440458298,-0.6719691753387451
5.88260293006897,-0.2626459002494812,-0.924887478351593,0.8623254895210266,0.35152971744537354,0.02536812424659729,-0.6742580533027649
5.902661085128784,-0.2634088695049286,-0.9245060086250305,0.8619440197944641,0.3530556261539459,0.026512550190091133,-0.6757839322090149
5.922825574874878,-0.2641718089580536,-0.9245060086250305,0.8615625500679016,0.3553444743156433,0.02689402550458908,-0.6788357496261597
5.942976713180542,-0.2653162479400635,-0.9245060086250305,0.8607995510101318,0.3572518527507782,0.027656977996230125,-0.6799801588058472
5.963104963302612,-0.266460657119751,-0.9233615398406982,0.8604180812835693,0.3595407009124756,0.027656977996230125,-0.6815060377120972
5.983200550079346,-0.26684215664863586,-0.9225986003875732,0.8596551418304443,0.3622110188007355,0.027656977996230125,-0.6818875670433044
6.003354549407959,-0.26760509610176086,-0.9225986003875732,0.8592736721038818,0.36411839723587036,0.02841992862522602,-0.6830319762229919
6.023447275161743,-0.26760509610176086,-0.9222171306610107,0.8585107326507568,0.36640727519989014,0.029182879254221916,-0.6853207945823669
6.043691635131836,-0.26760509610176086,-0.9214541912078857,0.8577477931976318,0.36717021465301514,0.031090257689356804,-0.6860837936401367
6.063851833343506,-0.26760509610176086,-0.9214541912078857,0.8569847941398621,0.368314653635025,0.03299763426184654,-0.6868467330932617
6.083959579467773,-0.26760509610176086,-0.9214541912078857,0.8562218546867371,0.3702220320701599,0.03528648987412453,-0.6883726119995117
6.104010581970215,-0.26760509610176086,-0.9210727214813232,0.8562218546867371,0.3713664412498474,0.03757534176111221,-0.6887540817260742
6.124087810516357,-0.26760509610176086,-0.9206912517547607,0.8562218546867371,0.3721294105052948,0.03757534176111221,-0.6887540817260742
6.144517183303833,-0.26798656582832336,-0.9206912517547607,0.8558403849601746,0.3740367889404297,0.03833829239010811,-0.6887540817260742
6.164636850357056,-0.26836803555488586,-0.9206912517547607,0.8554589152336121,0.3751811981201172,0.0398641936480999,-0.6891355514526367
6.185096740722656,-0.26951247453689575,-0.9206912517547607,0.8550774455070496,0.3770885765552521,0.040245670825242996,-0.689517080783844
6.205246448516846,-0.26989394426345825,-0.9206912517547607,0.8539330363273621,0.37823301553726196,0.04177157208323479,-0.690280020236969
6.225350856781006,-0.26989394426345825,-0.9206912517547607,0.8531700372695923,0.37861448526382446,0.04253452271223068,-0.6914244294166565
6.24540376663208,-0.27027541399002075,-0.9206912517547607,0.8524070978164673,0.37861448526382446,0.04291599988937378,-0.6921873688697815
6.265465497970581,-0.27103838324546814,-0.9206912517547607,0.8512626886367798,0.37937742471694946,0.04482337832450867,-0.693331778049469
6.2855589389801025,-0.27180132269859314,-0.9206912517547607,0.8497368097305298,0.38090333342552185,0.04596780240535736,-0.6948577165603638
6.305765628814697,-0.27218279242515564,-0.9206912517547607,0.8493552803993225,0.38281071186065674,0.04787518084049225,-0.6963835954666138
6.325796127319336,-0.2725642919540405,-0.9206912517547607,0.84897381067276,0.3854810297489166,0.04711223021149635,-0.6963835954666138
6.345951080322266,-0.272945761680603,-0.9206912517547607,0.8485923409461975,0.3877699077129364,0.04749370738863945,-0.6971465349197388
6.366018533706665,-0.2740901708602905,-0.9203097820281982,0.848210871219635,0.3900587558746338,0.049782559275627136,-0.698291003704071
6.386282920837402,-0.2740901708602905,-0.9199283123016357,0.848210871219635,0.3927290737628937,0.051689937710762024,-0.700579822063446
6.406396150588989,-0.2744716703891754,-0.9195467829704285,0.848210871219635,0.3934920132160187,0.05283436179161072,-0.7013428211212158
6.426448106765747,-0.2744716703891754,-0.9195467829704285,0.848210871219635,0.39463645219802856,0.05436026677489281,-0.7036316394805908
6.44662880897522,-0.2744716703891754,-0.9195467829704285,0.848210871219635,0.39616236090660095,0.0558861680328846,-0.7043945789337158
6.466693878173828,-0.2744716703891754,-0.9195467829704285,0.8478294014930725,0.39806973934173584,0.05703059583902359,-0.7047760486602783
6.486965656280518,-0.2744716703891754,-0.919165313243866,0.84744793176651,0.4003585875034332,0.057793546468019485,-0.7063019871711731
6.507094144821167,-0.2744716703891754,-0.919165313243866,0.8470664620399475,0.4007400572299957,0.05893797054886818,-0.7070649266242981
6.52712869644165,-0.2744716703891754,-0.919165313243866,0.846684992313385,0.4011215269565582,0.059319447726011276,-0.7074463963508606
6.547219276428223,-0.2744716703891754,-0.919165313243866,0.8463035225868225,0.4018844962120056,0.06008239835500717,-0.7074463963508606
6.567384243011475,-0.2752346098423004,-0.919165313243866,0.8455405235290527,0.4026474356651306,0.061226826161146164,-0.7078278660774231
6.587378025054932,-0.2763790488243103,-0.9187838435173035,0.8447775840759277,0.404173344373703,0.06198977679014206,-0.7082093358039856
6.607473850250244,-0.2767605185508728,-0.9187838435173035,0.8440146446228027,0.4060807228088379,0.06389715522527695,-0.7093538045883179
6.627573013305664,-0.2767605185508728,-0.9187838435173035,0.8432517051696777,0.4083695709705353,0.06427863240242004,-0.7112611532211304
6.6476452350616455,-0.2779049277305603,-0.9187838435173035,0.8428702354431152,0.41065841913223267,0.06466010212898254,-0.7124055624008179
6.667784214019775,-0.2786678969860077,-0.918402373790741,0.8428702354431152,0.41294726729393005,0.06466010212898254,-0.7135500311851501
6.6882383823394775,-0.2786678969860077,-0.918402373790741,0.8424887657165527,0.41523614525794983,0.06504157930612564,-0.7146944403648376
6.708316087722778,-0.2786678969860077,-0.918402373790741,0.841725766658783,0.4171435236930847,0.06809338182210922,-0.7146944403648376
6.728440046310425,-0.2786678969860077,-0.917639434337616,0.841725766658783,0.4190509021282196,0.07038223743438721,-0.7150759100914001
6.74849796295166,-0.2786678969860077,-0.917639434337616,0.8413442969322205,0.4205767810344696,0.0722896158695221,-0.7154573798179626
6.768564462661743,-0.2790493667125702,-0.9172579646110535,0.840962827205658,0.4224841594696045,0.07495994865894318,-0.7162203192710876
6.788637161254883,-0.2798123061656952,-0.9172579646110535,0.840962827205658,0.4236285984516144,0.07763027399778366,-0.7177462577819824
6.8087217807769775,-0.2801937758922577,-0.9172579646110535,0.8405813574790955,0.42515450716018677,0.07877469807863235,-0.7192721366882324
6.828919172286987,-0.2809567451477051,-0.9172579646110535,0.8405813574790955,0.42706188559532166,0.07877469807863235,-0.7192721366882324
6.849072456359863,-0.2813382148742676,-0.9172579646110535,0.8398184180259705,0.42858776450157166,0.07877469807863235,-0.7200350761413574
6.869166374206543,-0.28286412358283997,-0.9172579646110535,0.839436948299408,0.43049514293670654,0.07877469807863235,-0.7204165458679199
6.889292240142822,-0.28400853276252747,-0.9172579646110535,0.838674008846283,0.43125811219215393,0.07877469807863235,-0.7215610146522522
6.909334182739258,-0.28439003229141235,-0.9172579646110535,0.8375295400619507,0.4327840209007263,0.07839322835206985,-0.7223239541053772
6.929434061050415,-0.28477150201797485,-0.9172579646110535,0.8367666006088257,0.4346913993358612,0.07953765243291855,-0.7227054238319397
6.949494361877441,-0.28477150201797485,-0.9172579646110535,0.8367666006088257,0.4358358085155487,0.07877469807863235,-0.7230868935585022
6.969589471817017,-0.28477150201797485,-0.917639434337616,0.8367666006088257,0.4381246566772461,0.07991912961006165,-0.7238498330116272
6.989652156829834,-0.28477150201797485,-0.9172579646110535,0.8367666006088257,0.440032035112381,0.08144503086805344,-0.725375771522522
7.009742498397827,-0.28515297174453735,-0.9172579646110535,0.8367666006088257,0.44232088327407837,0.08411535620689392,-0.726901650428772
7.029822111129761,-0.28591591119766235,-0.9172579646110535,0.8367666006088257,0.44460976123809814,0.0864042118191719,-0.7280460596084595
7.05006742477417,-0.28591591119766235,-0.9172579646110535,0.8363851308822632,0.44537270069122314,0.0875486359000206,-0.7295719981193542
7.070167779922485,-0.28629741072654724,-0.917639434337616,0.8360036611557007,0.44613564014434814,0.08869306743144989,-0.7307164072990417
7.090207576751709,-0.28667888045310974,-0.9172579646110535,0.8352407217025757,0.4484245181083679,0.08907453715801239,-0.7314793467521667
7.110324144363403,-0.28782328963279724,-0.9172579646110535,0.8344777822494507,0.4503318965435028,0.08983749151229858,-0.732623815536499
7.130410671234131,-0.28896772861480713,-0.9172579646110535,0.8337147831916809,0.4526207447052002,0.09212634712457657,-0.733386754989624
7.150408029556274,-0.28896772861480713,-0.9172579646110535,0.8333333134651184,0.4530022144317627,0.09212634712457657,-0.7337682247161865
7.170499801635742,-0.28896772861480713,-0.917639434337616,0.8333333134651184,0.4545281231403351,0.09174486994743347,-0.734149694442749
7.190556287765503,-0.28896772861480713,-0.917639434337616,0.8333333134651184,0.45681697130203247,0.09288929402828217,-0.7345311641693115
7.21063756942749,-0.28896772861480713,-0.9172579646110535,0.8333333134651184,0.45872434973716736,0.09403372555971146,-0.7352941036224365
7.230814695358276,-0.28896772861480713,-0.917639434337616,0.8333333134651184,0.46063172817230225,0.09670405089855194,-0.7372015118598938
7.251341819763184,-0.28896772861480713,-0.917639434337616,0.8333333134651184,0.46177613735198975,0.09861142933368683,-0.7383459210395813
7.271419525146484,-0.28934919834136963,-0.917639434337616,0.8333333134651184,0.46368351578712463,0.10051880776882172,-0.7406347990036011
7.291486740112305,-0.28973066806793213,-0.917639434337616,0.8325703740119934,0.4648279547691345,0.1028076633810997,-0.7410162687301636
7.311600685119629,-0.290875107049942,-0.9172579646110535,0.8321889042854309,0.4671168029308319,0.10471503436565399,-0.7413977384567261
7.331650495529175,-0.290875107049942,-0.917639434337616,0.8318074345588684,0.4682612419128418,0.10509651154279709,-0.7413977384567261
7.352011203765869,-0.2912565767765045,-0.917639434337616,0.8314259648323059,0.4697871506214142,0.10433356463909149,-0.7417792081832886
7.372198104858398,-0.2912565767765045,-0.917639434337616,0.8314259648323059,0.4713130295276642,0.10471503436565399,-0.7417792081832886
7.3922154903411865,-0.2912565767765045,-0.917639434337616,0.8314259648323059,0.4720759987831116,0.10509651154279709,-0.7421606779098511
7.412297487258911,-0.2912565767765045,-0.917639434337616,0.8314259648323059,0.4736018776893616,0.10585946589708328,-0.7429236173629761
7.432353734970093,-0.2920195460319519,-0.917639434337616,0.8314259648323059,0.47474631667137146,0.10814831405878067,-0.7444495558738708
7.452441692352295,-0.2924010157585144,-0.917639434337616,0.8314259648323059,0.47550925612449646,0.10929274559020996,-0.7452124953269958
7.472509860992432,-0.2931639552116394,-0.917639434337616,0.8310444951057434,0.47589075565338135,0.10929274559020996,-0.7455939650535583
7.492640018463135,-0.2931639552116394,-0.917639434337616,0.8306630253791809,0.47741663455963135,0.10967422276735306,-0.7459754347801208
7.512693166732788,-0.2939268946647644,-0.917639434337616,0.8302815556526184,0.4797055125236511,0.11005569249391556,-0.7459754347801208
7.532963037490845,-0.2950713336467743,-0.917639434337616,0.8299000263214111,0.481612890958786,0.11081864684820175,-0.7471198439598083
7.553525447845459,-0.2965972423553467,-0.917639434337616,0.8291370868682861,0.483138769865036,0.11272602528333664,-0.7478827834129333
7.573589563369751,-0.2973601818084717,-0.917639434337616,0.8291370868682861,0.4842832088470459,0.11348897218704224,-0.7482643127441406
7.593663692474365,-0.2973601818084717,-0.917639434337616,0.8287556171417236,0.4865720570087433,0.11539635062217712,-0.7482643127441406
7.613729953765869,-0.2973601818084717,-0.917639434337616,0.8287556171417236,0.4884794354438782,0.11615930497646332,-0.7482643127441406
7.634286642074585,-0.2977416515350342,-0.917639434337616,0.8287556171417236,0.49038681387901306,0.11692225188016891,-0.7486457824707031
7.6544013023376465,-0.2977416515350342,-0.917639434337616,0.8287556171417236,0.49114975333213806,0.1188296303153038,-0.7486457824707031
7.674449920654297,-0.2977416515350342,-0.917639434337616,0.8287556171417236,0.49153125286102295,0.12073700875043869,-0.7490272521972656
7.694511413574219,-0.29850462079048157,-0.9180209040641785,0.8283741474151611,0.49305713176727295,0.12340734153985977,-0.7494087219238281
7.714616537094116,-0.29850462079048157,-0.9180209040641785,0.8283741474151611,0.49382010102272034,0.12417028844356537,-0.7494087219238281
7.734648704528809,-0.29850462079048157,-0.918402373790741,0.8283741474151611,0.4953460097312927,0.12493324279785156,-0.7501716613769531
7.754735946655273,-0.29850462079048157,-0.9187838435173035,0.8283741474151611,0.4968718886375427,0.12531471252441406,-0.7509346008300781
7.774815559387207,-0.29888609051704407,-0.919165313243866,0.8279926776885986,0.4980163276195526,0.12531471252441406,-0.7520790696144104
7.795360565185547,-0.29926756024360657,-0.9195467829704285,0.8268482685089111,0.4983977973461151,0.12607766687870026,-0.7528420090675354
7.815483570098877,-0.30003052949905396,-0.9195467829704285,0.8264667987823486,0.499542236328125,0.12684062123298645,-0.7539864182472229
7.835580110549927,-0.30041199922561646,-0.9195467829704285,0.8264667987823486,0.5014495849609375,0.12760357558727264,-0.7558938264846802
7.855963945388794,-0.30155640840530396,-0.9195467829704285,0.8264667987823486,0.5029755234718323,0.12874799966812134,-0.7562752962112427
7.876054763793945,-0.30308231711387634,-0.9195467829704285,0.8264667987823486,0.5052643418312073,0.13065537810325623,-0.7566567659378052
7.896908521652222,-0.30384528636932373,-0.9195467829704285,0.8264667987823486,0.5064088106155396,0.13179980218410492,-0.7566567659378052
7.9306252002716064,-0.30384528636932373,-0.9195467829704285,0.8264667987823486,0.506790280342102,0.13179980218410492,-0.7566567659378052
7.950681447982788,-0.3057526648044586,-0.9195467829704285,0.8264667987823486,0.5098420977592468,0.13141833245754242,-0.7585641145706177
7.970788478851318,-0.3057526648044586,-0.9195467829704285,0.8264667987823486,0.5113679766654968,0.13141833245754242,-0.7593270540237427
7.990854740142822,-0.3057526648044586,-0.9195467829704285,0.8264667987823486,0.5128938555717468,0.13218127191066742,-0.7597085237503052
8.010938167572021,-0.3057526648044586,-0.9195467829704285,0.8264667987823486,0.5132753252983093,0.1337071806192398,-0.7600900530815125
8.030987739562988,-0.3057526648044586,-0.9195467829704285,0.8260852694511414,0.5140383243560791,0.1359960287809372,-0.760471522808075
8.051176309585571,-0.3057526648044586,-0.9199283123016357,0.8253223299980164,0.5159456729888916,0.13790340721607208,-0.7608529925346375
8.071207523345947,-0.3057526648044586,-0.9199283123016357,0.8245593905448914,0.5170900821685791,0.13904783129692078,-0.7612344622612
8.09133005142212,-0.3057526648044586,-0.9199283123016357,0.8237964510917664,0.5189974904060364,0.13942931592464447,-0.7631418108940125
8.1114661693573,-0.3057526648044586,-0.9199283123016357,0.8234149813652039,0.5201418995857239,0.13942931592464447,-0.7642862796783447
8.131609916687012,-0.3057526648044586,-0.9206912517547607,0.8234149813652039,0.5209048390388489,0.13942931592464447,-0.7639048099517822
8.151694059371948,-0.3057526648044586,-0.9214541912078857,0.8234149813652039,0.5212863087654114,0.14019227027893066,-0.7639048099517822
8.171857357025146,-0.3057526648044586,-0.9218356609344482,0.8234149813652039,0.5228122472763062,0.14133669435977936,-0.7642862796783447
8.191853761672974,-0.3057526648044586,-0.9218356609344482,0.8234149813652039,0.5239566564559937,0.14248111844062805,-0.7639048099517822
8.211971044540405,-0.3057526648044586,-0.9218356609344482,0.8234149813652039,0.5247195959091187,0.14324407279491425,-0.7642862796783447
8.232032775878906,-0.3057526648044586,-0.9218356609344482,0.8234149813652039,0.5258640646934509,0.14476996660232544,-0.7642862796783447
8.252114295959473,-0.3061341345310211,-0.9218356609344482,0.8234149813652039,0.5277714133262634,0.14667734503746033,-0.7650492191314697
8.272233724594116,-0.3068970739841461,-0.9218356609344482,0.8234149813652039,0.5285343527793884,0.14820325374603271,-0.7650492191314697
8.292303085327148,-0.3076600432395935,-0.9218356609344482,0.8234149813652039,0.5308232307434082,0.1501106321811676,-0.7665750980377197
8.312416315078735,-0.308041512966156,-0.9218356609344482,0.8234149813652039,0.5319676399230957,0.1508735716342926,-0.7665750980377197
8.332525730133057,-0.3084229826927185,-0.9218356609344482,0.8234149813652039,0.5334935784339905,0.1512550562620163,-0.7665750980377197
8.352719783782959,-0.3091859221458435,-0.9222171306610107,0.8234149813652039,0.5350194573402405,0.152399480342865,-0.7669565677642822
8.373135566711426,-0.3103303611278534,-0.9229800701141357,0.8234149813652039,0.5357823967933655,0.15354390442371368,-0.7669565677642822
8.393249273300171,-0.3110933005809784,-0.9229800701141357,0.8234149813652039,0.5373083353042603,0.15468832850456238,-0.7669565677642822
8.413530588150024,-0.3110933005809784,-0.9229800701141357,0.8234149813652039,0.5392156839370728,0.15468832850456238,-0.7673380374908447
8.43374514579773,-0.3110933005809784,-0.9233615398406982,0.8234149813652039,0.54112309217453,0.15468832850456238,-0.7673380374908447
8.453752279281616,-0.3118562698364258,-0.9233615398406982,0.8234149813652039,0.543411910533905,0.15621423721313477,-0.7673380374908447
8.47386622428894,-0.3122377395629883,-0.9233615398406982,0.8234149813652039,0.5437933802604675,0.15850308537483215,-0.767719566822052
8.494028806686401,-0.3130006790161133,-0.9233615398406982,0.8234149813652039,0.5453193187713623,0.16002899408340454,-0.767719566822052
8.514089345932007,-0.3130006790161133,-0.9237430095672607,0.8234149813652039,0.5464637279510498,0.16079194843769073,-0.7681010365486145
8.534158945083618,-0.3130006790161133,-0.9237430095672607,0.8234149813652039,0.5479896068572998,0.16079194843769073,-0.768482506275177
8.55423355102539,-0.3130006790161133,-0.9237430095672607,0.8234149813652039,0.5491340756416321,0.16079194843769073,-0.769245445728302
8.574383735656738,-0.3133821487426758,-0.9237430095672607,0.8230335116386414,0.5498970150947571,0.16079194843769073,-0.770008385181427
8.594527244567871,-0.3133821487426758,-0.9237430095672607,0.8230335116386414,0.5506599545478821,0.16231784224510193,-0.770771324634552
8.614574193954468,-0.3133821487426758,-0.9237430095672607,0.8230335116386414,0.5514228940010071,0.16422522068023682,-0.7711527943611145
8.634678840637207,-0.31376364827156067,-0.924124538898468,0.8230335116386414,0.5525673031806946,0.1653696447610855,-0.7711527943611145
8.654792547225952,-0.31414511799812317,-0.924124538898468,0.8230335116386414,0.5537117719650269,0.1668955534696579,-0.7715343236923218
8.67488718032837,-0.31414511799812317,-0.924887478351593,0.8230335116386414,0.5548561811447144,0.1676585078239441,-0.7719157934188843
8.694984912872314,-0.31528952717781067,-0.924887478351593,0.8230335116386414,0.5563820600509644,0.1684214472770691,-0.7722972631454468
8.715114116668701,-0.31528952717781067,-0.924887478351593,0.8226520419120789,0.5575265288352966,0.1680399775505066,-0.7722972631454468
8.735142469406128,-0.31567102670669556,-0.924887478351593,0.8222705721855164,0.5582894682884216,0.1684214472770691,-0.7730602025985718
8.755273580551147,-0.31643396615982056,-0.924887478351593,0.8222705721855164,0.5590524077415466,0.1684214472770691,-0.7742046117782593
8.775332927703857,-0.31795987486839294,-0.924887478351593,0.8222705721855164,0.5601968169212341,0.16956588625907898,-0.7745860815048218
8.795595169067383,-0.31795987486839294,-0.9252689480781555,0.8222705721855164,0.5613412857055664,0.16956588625907898,-0.7745860815048218
8.815726041793823,-0.31834134459495544,-0.9252689480781555,0.8222705721855164,0.5628671646118164,0.17032882571220398,-0.7749675512313843
8.835832357406616,-0.31834134459495544,-0.925650417804718,0.8222705721855164,0.5647745728492737,0.17185473442077637,-0.7749675512313843
8.855892896652222,-0.31834134459495544,-0.9260318875312805,0.8222705721855164,0.5655375123023987,0.17338064312934875,-0.7749675512313843
8.875961065292358,-0.31834134459495544,-0.9260318875312805,0.8222705721855164,0.5655375123023987,0.17566949129104614,-0.7753490209579468
8.89602541923523,-0.31834134459495544,-0.9260318875312805,0.8222705721855164,0.5666819214820862,0.17719538509845734,-0.7761120200157166
8.916203022003174,-0.31834134459495544,-0.9260318875312805,0.8222705721855164,0.5678263306617737,0.17948424816131592,-0.7768749594688416
8.936254262924194,-0.31872281432151794,-0.9267948269844055,0.8218890428543091,0.5693522691726685,0.182154580950737,-0.7776378989219666
8.956310987472534,-0.31948578357696533,-0.927176296710968,0.8222705721855164,0.5708781480789185,0.182917520403862,-0.7784008383750916
8.976481914520264,-0.32024872303009033,-0.927176296710968,0.8215075731277466,0.5724040865898132,0.182154580950737,-0.7784008383750916
8.996533632278442,-0.32024872303009033,-0.9275577664375305,0.8211261034011841,0.5731670260429382,0.182154580950737,-0.7784008383750916
9.016718864440918,-0.32024872303009033,-0.9279392957687378,0.8211261034011841,0.5743114352226257,0.1810101419687271,-0.7784008383750916
9.036839008331299,-0.32063019275665283,-0.9283207654953003,0.8211261034011841,0.5758373141288757,0.1810101419687271,-0.778782308101654
9.056925296783447,-0.32063019275665283,-0.9283207654953003,0.8211261034011841,0.576218843460083,0.1810101419687271,-0.778782308101654
9.07709527015686,-0.32063019275665283,-0.9283207654953003,0.8211261034011841,0.5766003131866455,0.1825360506772995,-0.7791637778282166
9.097113370895386,-0.32063019275665283,-0.9287022352218628,0.8211261034011841,0.5773632526397705,0.1832990050315857,-0.7795453071594238
9.11718201637268,-0.32101166248321533,-0.9290837049484253,0.8211261034011841,0.579270601272583,0.1844434291124344,-0.7799267768859863
9.1372811794281,-0.3217746317386627,-0.9298466444015503,0.8211261034011841,0.580033540725708,0.1848248988389969,-0.7806897163391113
9.157402753829956,-0.3236820101737976,-0.9302281141281128,0.8207446336746216,0.5804150700569153,0.1844434291124344,-0.7822155952453613
9.177510261535645,-0.3248264193534851,-0.9313725233078003,0.8207446336746216,0.5807965397834778,0.1848248988389969,-0.7825970649719238
9.197641849517822,-0.3263523280620575,-0.9321355223655701,0.8203631639480591,0.5819409489631653,0.1844434291124344,-0.7825970649719238
9.217719793319702,-0.3278782367706299,-0.9321355223655701,0.8203631639480591,0.5834668278694153,0.1840619444847107,-0.7825970649719238
9.237799644470215,-0.3278782367706299,-0.9325169920921326,0.8203631639480591,0.5842298269271851,0.1836804747581482,-0.7829785346984863
9.257977962493896,-0.3278782367706299,-0.9325169920921326,0.8203631639480591,0.5857557058334351,0.1844434291124344,-0.7829785346984863
9.27814269065857,-0.3278782367706299,-0.9321355223655701,0.8203631639480591,0.5872815847396851,0.18711376190185547,-0.7833600640296936
9.298232078552246,-0.3278782367706299,-0.9321355223655701,0.8203631639480591,0.5880445837974548,0.19130998849868774,-0.7837415337562561
9.318304777145386,-0.3274967670440674,-0.9325169920921326,0.8203631639480591,0.5888075232505798,0.19512474536895752,-0.7848859429359436
9.338438272476196,-0.3274967670440674,-0.9325169920921326,0.8203631639480591,0.5899519324302673,0.1977950781583786,-0.7860303521156311
9.358527660369873,-0.3274967670440674,-0.9325169920921326,0.8203631639480591,0.5918593406677246,0.1989395022392273,-0.7860303521156311
9.378597974777222,-0.3274967670440674,-0.9325169920921326,0.8207446336746216,0.5937666893005371,0.1989395022392273,-0.7860303521156311
9.398686408996582,-0.3274967670440674,-0.9325169920921326,0.8211261034011841,0.5952925682067871,0.1989395022392273,-0.7860303521156311
9.418739318847656,-0.3274967670440674,-0.9325169920921326,0.8211261034011841,0.5968185067176819,0.1993209719657898,-0.7864118218421936
9.438827276229858,-0.3274967670440674,-0.9332799315452576,0.8211261034011841,0.5983443856239319,0.200083926320076,-0.7864118218421936
9.458915710449219,-0.3274967670440674,-0.9336614012718201,0.8211261034011841,0.5991073250770569,0.20084688067436218,-0.7864118218421936
9.478990316390991,-0.3274967670440674,-0.9340428709983826,0.8211261034011841,0.5994887948036194,0.20122835040092468,-0.7867932915687561
9.499107837677002,-0.3274967670440674,-0.9340428709983826,0.8211261034011841,0.5998703241348267,0.20160982012748718,-0.7875562906265259
9.519261598587036,-0.3274967670440674,-0.9340428709983826,0.8211261034011841,0.6006332635879517,0.20237277448177338,-0.7894636392593384
9.53929853439331,-0.3278782367706299,-0.9340428709983826,0.8211261034011841,0.6021591424942017,0.20313572883605957,-0.7898451089859009
9.559439897537231,-0.3278782367706299,-0.9340428709983826,0.8211261034011841,0.6033035516738892,0.20504310727119446,-0.7898451089859009
9.579565286636353,-0.3278782367706299,-0.9340428709983826,0.8211261034011841,0.6040665507316589,0.20580606162548065,-0.7898451089859009
9.599658966064453,-0.3274967670440674,-0.9344243407249451,0.8211261034011841,0.6052109599113464,0.20618753135204315,-0.7898451089859009
9.619727849960327,-0.3274967670440674,-0.9344243407249451,0.8215075731277466,0.6063553690910339,0.20733195543289185,-0.7898451089859009
9.63981294631958,-0.3278782367706299,-0.9344243407249451,0.8211261034011841,0.6074998378753662,0.20885786414146423,-0.7898451089859009
9.659892797470093,-0.3278782367706299,-0.9348058104515076,0.8215075731277466,0.6090257167816162,0.21000228822231293,-0.7898451089859009
9.679969072341919,-0.3278782367706299,-0.9351872801780701,0.8215075731277466,0.6097886562347412,0.21076524257659912,-0.7898451089859009
9.700042963027954,-0.3286411762237549,-0.9351872801780701,0.8215075731277466,0.6101701259613037,0.21114671230316162,-0.7898451089859009
9.72012448310852,-0.3290226459503174,-0.9355688095092773,0.8215075731277466,0.6101701259613037,0.21114671230316162,-0.7902265787124634
9.740415573120117,-0.32978561520576477,-0.9355688095092773,0.8215075731277466,0.6109330654144287,0.21190966665744781,-0.7898451089859009
9.760528564453125,-0.33054855465888977,-0.9363317489624023,0.8215075731277466,0.612077534198761,0.21229113638401031,-0.7898451089859009
9.78058385848999,-0.33131152391433716,-0.9363317489624023,0.8215075731277466,0.613603413105011,0.2134355753660202,-0.7898451089859009
9.800663471221924,-0.33207446336746216,-0.9370946884155273,0.8218890428543091,0.6147478222846985,0.2145799994468689,-0.7902265787124634
9.82073974609375,-0.33283740282058716,-0.9374761581420898,0.8222705721855164,0.6166552305221558,0.2149614691734314,-0.7902265787124634
9.841092586517334,-0.33321890234947205,-0.9374761581420898,0.8222705721855164,0.6177996397018433,0.2149614691734314,-0.7902265787124634
9.861210584640503,-0.33512628078460693,-0.9374761581420898,0.8222705721855164,0.6181811094284058,0.21686884760856628,-0.7902265787124634
9.881247997283936,-0.33474478125572205,-0.9374761581420898,0.8222705721855164,0.620088517665863,0.21763180196285248,-0.7909895181655884
9.901329755783081,-0.33474478125572205,-0.9378576278686523,0.8222705721855164,0.621614396572113,0.21801327168941498,-0.7909895181655884
9.921423196792603,-0.33474478125572205,-0.9382390975952148,0.8222705721855164,0.6219958662986755,0.21915769577026367,-0.7909895181655884
9.941807746887207,-0.33474478125572205,-0.9382390975952148,0.8222705721855164,0.6231403350830078,0.22030213475227356,-0.7913710474967957
9.96210265159607,-0.33474478125572205,-0.9386205673217773,0.8222705721855164,0.6239032745361328,0.22030213475227356,-0.7913710474967957
9.982174634933472,-0.33474478125572205,-0.9386205673217773,0.8226520419120789,0.6246662139892578,0.22144655883312225,-0.7925154566764832
10.002318382263184,-0.33474478125572205,-0.9386205673217773,0.8226520419120789,0.6254291534423828,0.22297245264053345,-0.7928969264030457
10.022396326065063,-0.33474478125572205,-0.9386205673217773,0.8222705721855164,0.6258106231689453,0.22449836134910583,-0.7928969264030457
10.042481660842896,-0.33474478125572205,-0.9386205673217773,0.8226520419120789,0.6265735626220703,0.22526131570339203,-0.7928969264030457
10.062640905380249,-0.33474478125572205,-0.9393835067749023,0.8222705721855164,0.6273365616798401,0.22602425515651703,-0.7928969264030457
10.082772254943848,-0.33474478125572205,-0.9405279755592346,0.8222705721855164,0.6277180314064026,0.22755016386508942,-0.7928969264030457
10.102889776229858,-0.33474478125572205,-0.9416723847389221,0.8226520419120789,0.6280995011329651,0.2283131182193756,-0.7928969264030457
10.122950315475464,-0.33474478125572205,-0.9416723847389221,0.8222705721855164,0.6284809708595276,0.2283131182193756,-0.7928969264030457
10.143042087554932,-0.33512628078460693,-0.9416723847389221,0.8222705721855164,0.6292439103126526,0.2283131182193756,-0.7932783961296082
10.163135528564453,-0.33512628078460693,-0.9416723847389221,0.8222705721855164,0.6303883194923401,0.2286945879459381,-0.7932783961296082
10.183350086212158,-0.33588922023773193,-0.9416723847389221,0.8226520419120789,0.6322957277297974,0.2298390120267868,-0.7932783961296082
10.203540086746216,-0.33588922023773193,-0.9416723847389221,0.8222705721855164,0.6322957277297974,0.2302204966545105,-0.7932783961296082
10.223585844039917,-0.33665215969085693,-0.9416723847389221,0.8222705721855164,0.6326771974563599,0.2298390120267868,-0.7932783961296082
10.24372386932373,-0.3370336592197418,-0.9420538544654846,0.8222705721855164,0.6322957277297974,0.2298390120267868,-0.7936598658561707
10.264313697814941,-0.3374151289463043,-0.9424353241920471,0.8222705721855164,0.6326771974563599,0.2294575423002243,-0.7936598658561707
10.28441309928894,-0.3377965986728668,-0.9424353241920471,0.8222705721855164,0.6326771974563599,0.2298390120267868,-0.7936598658561707
10.304473400115967,-0.3385595381259918,-0.9424353241920471,0.8226520419120789,0.6334401369094849,0.2313649207353592,-0.7940413355827332
10.324550151824951,-0.3393225073814392,-0.9424353241920471,0.8226520419120789,0.6357290148735046,0.23327229917049408,-0.7944228053092957
10.344619035720825,-0.3393225073814392,-0.9428167939186096,0.8226520419120789,0.6372548937797546,0.23403525352478027,-0.7944228053092957
10.364713191986084,-0.3393225073814392,-0.9428167939186096,0.8226520419120789,0.6387808322906494,0.23479819297790527,-0.7944228053092957
10.3847975730896,-0.3393225073814392,-0.9435797929763794,0.8226520419120789,0.6399252414703369,0.23556114733219147,-0.7948042750358582
10.404877185821533,-0.3393225073814392,-0.9443427324295044,0.8226520419120789,0.6403067111968994,0.23556114733219147,-0.7951858043670654
10.424932479858398,-0.3397039771080017,-0.9447242021560669,0.8226520419120789,0.6403067111968994,0.23594263195991516,-0.7963302135467529
10.44502305984497,-0.3400854468345642,-0.9458686113357544,0.8226520419120789,0.6403067111968994,0.23594263195991516,-0.7974746227264404
10.465088129043579,-0.3404669165611267,-0.9462500810623169,0.8226520419120789,0.6406881809234619,0.23632410168647766,-0.7978560924530029
10.485182762145996,-0.3412298858165741,-0.9462500810623169,0.8226520419120789,0.6422140598297119,0.23594263195991516,-0.7978560924530029
10.505269527435303,-0.3416113555431366,-0.9462500810623169,0.8226520419120789,0.6445029377937317,0.23594263195991516,-0.7978560924530029
10.525362968444824,-0.3423742949962616,-0.9462500810623169,0.8226520419120789,0.6467918157577515,0.23670557141304016,-0.7978560924530029
10.545456171035767,-0.3423742949962616,-0.9462500810623169,0.8230335116386414,0.647936224937439,0.23746852576732635,-0.7978560924530029
10.565590143203735,-0.3423742949962616,-0.9466315507888794,0.8234149813652039,0.648699164390564,0.23785001039505005,-0.7982375621795654
10.585754632949829,-0.3423742949962616,-0.9466315507888794,0.8234149813652039,0.6498435735702515,0.23937590420246124,-0.7982375621795654
10.605751991271973,-0.3423742949962616,-0.9466315507888794,0.8234149813652039,0.6506065726280212,0.24128328263759613,-0.7986190319061279
10.625840902328491,-0.3423742949962616,-0.9466315507888794,0.8237964510917664,0.6513695120811462,0.24319066107273102,-0.7986190319061279
10.645926237106323,-0.3423742949962616,-0.9470130205154419,0.8245593905448914,0.6517509818077087,0.24357213079929352,-0.7990005612373352
10.666073083877563,-0.3427557647228241,-0.9470130205154419,0.8245593905448914,0.6532768607139587,0.2443350851535797,-0.7993820309638977
10.686088800430298,-0.3435187339782715,-0.9470130205154419,0.8249408602714539,0.6540398001670837,0.2450980395078659,-0.7997635006904602
10.70616888999939,-0.3442816734313965,-0.9477760195732117,0.8249408602714539,0.654421329498291,0.2454795092344284,-0.8001449704170227
10.726256370544434,-0.3442816734313965,-0.9477760195732117,0.8249408602714539,0.655184268951416,0.2458609938621521,-0.8001449704170227
10.746393918991089,-0.344663143157959,-0.9485389590263367,0.8249408602714539,0.6555657386779785,0.2450980395078659,-0.8001449704170227
10.766525983810425,-0.344663143157959,-0.9489204287528992,0.8249408602714539,0.655947208404541,0.2454795092344284,-0.8001449704170227
10.786609172821045,-0.344663143157959,-0.9496833682060242,0.8249408602714539,0.656710147857666,0.2462424635887146,-0.8001449704170227
10.806759357452393,-0.344663143157959,-0.9496833682060242,0.8249408602714539,0.6578545570373535,0.247768372297287,-0.8001449704170227
10.826873302459717,-0.344663143157959,-0.9496833682060242,0.8249408602714539,0.6586175560951233,0.2481498420238495,-0.8001449704170227
10.846921920776367,-0.34504464268684387,-0.9496833682060242,0.8249408602714539,0.6593804955482483,0.2504386901855469,-0.8005264401435852
10.867130041122437,-0.34657052159309387,-0.9496833682060242,0.8249408602714539,0.6609063744544983,0.25196459889411926,-0.8005264401435852
10.88725209236145,-0.34733349084854126,-0.9496833682060242,0.8249408602714539,0.6620507836341858,0.25310903787612915,-0.8005264401435852
10.907476425170898,-0.34847790002822876,-0.9500648379325867,0.8249408602714539,0.6628137826919556,0.25425344705581665,-0.8005264401435852
10.927613735198975,-0.34885939955711365,-0.9500648379325867,0.8249408602714539,0.6635767221450806,0.25425344705581665,-0.8005264401435852
10.947697877883911,-0.34924086928367615,-0.9508277773857117,0.8249408602714539,0.6647211313247681,0.25463491678237915,-0.8005264401435852
10.967804908752441,-0.34924086928367615,-0.951209306716919,0.8249408602714539,0.6658655405044556,0.25501641631126404,-0.8005264401435852
10.987901210784912,-0.34924086928367615,-0.9515907764434814,0.8249408602714539,0.6662470698356628,0.25501641631126404,-0.8005264401435852
11.007995843887329,-0.34924086928367615,-0.951972246170044,0.8249408602714539,0.6670100092887878,0.2569237947463989,-0.8009079098701477
11.028074026107788,-0.34924086928367615,-0.951972246170044,0.8253223299980164,0.6677729487419128,0.2584496736526489,-0.8009079098701477
11.048108100891113,-0.34924086928367615,-0.951972246170044,0.8253223299980164,0.6692988276481628,0.2599755823612213,-0.8009079098701477
11.068198919296265,-0.34924086928367615,-0.951972246170044,0.8253223299980164,0.6696802973747253,0.2618829607963562,-0.8009079098701477
11.088368654251099,-0.34924086928367615,-0.951972246170044,0.8253223299980164,0.6700618267059326,0.2626459002494812,-0.8012893795967102
11.108457565307617,-0.34924086928367615,-0.9523537158966064,0.8253223299980164,0.6704432964324951,0.2626459002494812,-0.8012893795967102
11.128594398498535,-0.34924086928367615,-0.952735185623169,0.8253223299980164,0.6715877056121826,0.2630273997783661,-0.8012893795967102
11.148653268814087,-0.34924086928367615,-0.9538795948028564,0.8253223299980164,0.6723506450653076,0.2626459002494812,-0.8016708493232727
11.168708324432373,-0.34924086928367615,-0.955024003982544,0.8253223299980164,0.6731135845184326,0.2634088695049286,-0.8016708493232727
11.188774347305298,-0.34924086928367615,-0.9561684727668762,0.8253223299980164,0.6738765835762024,0.2641718089580536,-0.8016708493232727
11.208890199661255,-0.34924086928367615,-0.9569314122200012,0.8253223299980164,0.6738765835762024,0.2641718089580536,-0.8016708493232727
11.228955507278442,-0.34924086928367615,-0.9569314122200012,0.8253223299980164,0.6746395230293274,0.2641718089580536,-0.8020523190498352
11.24914813041687,-0.34924086928367615,-0.9569314122200012,0.8257037997245789,0.6757839322090149,0.2645532786846161,-0.8020523190498352
11.269235372543335,-0.34924086928367615,-0.9565499424934387,0.8260852694511414,0.6769283413887024,0.2653162479400635,-0.8020523190498352
11.289300680160522,-0.34924086928367615,-0.9565499424934387,0.8272297382354736,0.6776912808418274,0.26684215664863586,-0.8024337887763977
11.309406518936157,-0.34924086928367615,-0.9561684727668762,0.8272297382354736,0.6780728101730347,0.26798656582832336,-0.8024337887763977
11.329547643661499,-0.34924086928367615,-0.9561684727668762,0.8272297382354736,0.6788357496261597,0.26874953508377075,-0.802815318107605
11.349588394165039,-0.34924086928367615,-0.9561684727668762,0.8272297382354736,0.6795986890792847,0.26913100481033325,-0.80357825756073
11.369662284851074,-0.34924086928367615,-0.9565499424934387,0.8272297382354736,0.6803616285324097,0.26951247453689575,-0.8039597272872925
11.389787197113037,-0.34924086928367615,-0.9569314122200012,0.8272297382354736,0.6807430982589722,0.26951247453689575,-0.8039597272872925
11.40989065170288,-0.34924086928367615,-0.9569314122200012,0.8272297382354736,0.6807430982589722,0.26951247453689575,-0.8039597272872925
11.429949522018433,-0.34924086928367615,-0.9569314122200012,0.8272297382354736,0.6811245679855347,0.26989394426345825,-0.8039597272872925
11.45004153251648,-0.34962233901023865,-0.9569314122200012,0.8272297382354736,0.6815060377120972,0.27027541399002075,-0.8039597272872925
11.470117092132568,-0.34962233901023865,-0.9573128819465637,0.8272297382354736,0.6818875670433044,0.27103838324546814,-0.804341197013855
11.490361452102661,-0.34962233901023865,-0.9573128819465637,0.8272297382354736,0.6822690367698669,0.27180132269859314,-0.804341197013855
11.51050591468811,-0.35038527846336365,-0.9580758213996887,0.8272297382354736,0.6830319762229919,0.27218279242515564,-0.804341197013855
11.530522346496582,-0.35076677799224854,-0.9580758213996887,0.8272297382354736,0.6841763854026794,0.273708701133728,-0.804341197013855
11.55060362815857,-0.35152971744537354,-0.9584572911262512,0.8272297382354736,0.6845578551292419,0.273708701133728,-0.804341197013855
11.57068157196045,-0.35191118717193604,-0.9588387608528137,0.8276112079620361,0.6853207945823669,0.2733272314071655,-0.8047226667404175
11.59100341796875,-0.35229265689849854,-0.959220290184021,0.8276112079620361,0.6872282028198242,0.273708701133728,-0.8047226667404175
11.611087083816528,-0.3530556261539459,-0.959220290184021,0.8276112079620361,0.6879911422729492,0.2744716703891754,-0.8047226667404175
11.631144046783447,-0.3534370958805084,-0.959220290184021,0.8276112079620361,0.6879911422729492,0.2744716703891754,-0.8047226667404175
11.6512291431427,-0.3538185656070709,-0.959220290184021,0.8279926776885986,0.6887540817260742,0.2748531401157379,-0.8047226667404175
11.671385288238525,-0.3538185656070709,-0.9596017599105835,0.8287556171417236,0.689517080783844,0.2763790488243103,-0.8047226667404175
11.691532611846924,-0.3534370958805084,-0.959983229637146,0.8287556171417236,0.6906614899635315,0.2790493667125702,-0.8047226667404175
11.711691856384277,-0.3534370958805084,-0.9603646993637085,0.8287556171417236,0.6914244294166565,0.2809567451477051,-0.8047226667404175
11.731959581375122,-0.3534370958805084,-0.9603646993637085,0.8287556171417236,0.691805899143219,0.2809567451477051,-0.8047226667404175
11.752106428146362,-0.3534370958805084,-0.960746169090271,0.8287556171417236,0.691805899143219,0.2809567451477051,-0.8047226667404175
11.772124290466309,-0.3538185656070709,-0.9611276388168335,0.8287556171417236,0.6921873688697815,0.2813382148742676,-0.8047226667404175
11.792338609695435,-0.3538185656070709,-0.9611276388168335,0.8287556171417236,0.692568838596344,0.2813382148742676,-0.8047226667404175
11.81237244606018,-0.3542000353336334,-0.9611276388168335,0.8287556171417236,0.6929503083229065,0.2809567451477051,-0.8047226667404175
11.832817792892456,-0.3549630045890808,-0.9611276388168335,0.8287556171417236,0.6937133073806763,0.2809567451477051,-0.8047226667404175
11.852923154830933,-0.3553444743156433,-0.9611276388168335,0.8287556171417236,0.6948577165603638,0.2813382148742676,-0.80510413646698
11.87300729751587,-0.3557259440422058,-0.961509108543396,0.8291370868682861,0.6960021257400513,0.2821011543273926,-0.80510413646698
11.893210172653198,-0.3557259440422058,-0.962272047996521,0.8295185565948486,0.6963835954666138,0.2821011543273926,-0.80510413646698
11.913321733474731,-0.3557259440422058,-0.9626535177230835,0.8295185565948486,0.6967650651931763,0.28324559330940247,-0.80510413646698
11.93335747718811,-0.3557259440422058,-0.9630350470542908,0.8295185565948486,0.6971465349197388,0.28362706303596497,-0.80510413646698
11.953472375869751,-0.3557259440422058,-0.9634165167808533,0.8295185565948486,0.6979095339775085,0.28400853276252747,-0.8054856061935425
11.973582744598389,-0.3557259440422058,-0.9634165167808533,0.8295185565948486,0.6986724734306335,0.28591591119766235,-0.805867075920105
11.993807315826416,-0.3564889132976532,-0.9634165167808533,0.8295185565948486,0.6994354128837585,0.28744181990623474,-0.805867075920105
12.013997077941895,-0.3564889132976532,-0.9641794562339783,0.8295185565948486,0.699816882610321,0.28858625888824463,-0.8062485456466675
12.034110069274902,-0.3564889132976532,-0.9645609259605408,0.8299000263214111,0.7001983523368835,0.28896772861480713,-0.8070115447044373
12.054152011871338,-0.3564889132976532,-0.9649423956871033,0.8299000263214111,0.700579822063446,0.28858625888824463,-0.8077744841575623
12.074256181716919,-0.3568703830242157,-0.9660868048667908,0.8295185565948486,0.7009612917900085,0.28858625888824463,-0.8077744841575623
12.094465732574463,-0.3568703830242157,-0.967231273651123,0.8299000263214111,0.7013428211212158,0.28858625888824463,-0.8077744841575623
12.114551544189453,-0.3568703830242157,-0.9676127433776855,0.8299000263214111,0.7017242908477783,0.28858625888824463,-0.8081559538841248
12.134557008743286,-0.3568703830242157,-0.9676127433776855,0.8299000263214111,0.7021057605743408,0.28820478916168213,-0.8081559538841248
12.154661178588867,-0.3572518527507782,-0.9676127433776855,0.8302815556526184,0.7032501697540283,0.28896772861480713,-0.8081559538841248
12.174782991409302,-0.3576333224773407,-0.9676127433776855,0.8310444951057434,0.7043945789337158,0.290112167596817,-0.8081559538841248
12.19481635093689,-0.3587777614593506,-0.9676127433776855,0.8318074345588684,0.7051575779914856,0.2920195460319519,-0.8081559538841248
12.214994192123413,-0.3587777614593506,-0.9676127433776855,0.8318074345588684,0.7063019871711731,0.2931639552116394,-0.8081559538841248
12.235036611557007,-0.3587777614593506,-0.9676127433776855,0.8318074345588684,0.7070649266242981,0.2935454249382019,-0.8081559538841248
12.255184888839722,-0.3587777614593506,-0.9676127433776855,0.8318074345588684,0.7070649266242981,0.2931639552116394,-0.8081559538841248
12.275206327438354,-0.3587777614593506,-0.9683756828308105,0.8318074345588684,0.7070649266242981,0.2927824854850769,-0.8081559538841248
12.295346736907959,-0.3587777614593506,-0.968757152557373,0.8314259648323059,0.7070649266242981,0.2935454249382019,-0.8081559538841248
12.315373420715332,-0.3587777614593506,-0.9691386222839355,0.8314259648323059,0.7070649266242981,0.2931639552116394,-0.8081559538841248
12.335550785064697,-0.3587777614593506,-0.9691386222839355,0.8314259648323059,0.7070649266242981,0.2931639552116394,-0.8081559538841248
12.355531692504883,-0.3591592311859131,-0.969520092010498,0.8314259648323059,0.7070649266242981,0.2931639552116394,-0.8081559538841248
12.375612497329712,-0.3599221706390381,-0.969520092010498,0.8314259648323059,0.7070649266242981,0.2935454249382019,-0.8081559538841248
12.395744323730469,-0.361066609621048,-0.969520092010498,0.8314259648323059,0.7070649266242981,0.2939268946647644,-0.8081559538841248
12.415773868560791,-0.361829549074173,-0.9699015617370605,0.8314259648323059,0.7070649266242981,0.2946898639202118,-0.8081559538841248
12.435890436172485,-0.361829549074173,-0.9699015617370605,0.8314259648323059,0.7074463963508606,0.2946898639202118,-0.8081559538841248
12.456052303314209,-0.361829549074173,-0.9706645011901855,0.8314259648323059,0.7085908055305481,0.2950713336467743,-0.8081559538841248
12.476119041442871,-0.361829549074173,-0.9710460305213928,0.8318074345588684,0.7097352743148804,0.2954528033733368,-0.8081559538841248
12.496218204498291,-0.361829549074173,-0.9710460305213928,0.8314259648323059,0.7104982137680054,0.2954528033733368,-0.8081559538841248
12.51630687713623,-0.361829549074173,-0.9714275002479553,0.8314259648323059,0.7108796834945679,0.2958342730998993,-0.8085374236106873
12.536377429962158,-0.361829549074173,-0.9714275002479553,0.8318074345588684,0.7116426229476929,0.2962157726287842,-0.8085374236106873
12.556446313858032,-0.361829549074173,-0.9714275002479553,0.8318074345588684,0.7124055624008179,0.2969787120819092,-0.8085374236106873
12.576688766479492,-0.361829549074173,-0.9714275002479553,0.8318074345588684,0.7143129706382751,0.2977416515350342,-0.8085374236106873
12.596763372421265,-0.361829549074173,-0.9714275002479553,0.8321889042854309,0.7146944403648376,0.29812315106391907,-0.8081559538841248
12.61691403388977,-0.361829549074173,-0.9718089699745178,0.8329518437385559,0.7150759100914001,0.29850462079048157,-0.8085374236106873
12.636935710906982,-0.361829549074173,-0.9718089699745178,0.8333333134651184,0.7158388495445251,0.29926756024360657,-0.8085374236106873
12.657029867172241,-0.361829549074173,-0.9721904397010803,0.8333333134651184,0.7166017889976501,0.30041199922561646,-0.8085374236106873
12.677143573760986,-0.361829549074173,-0.9729533791542053,0.8333333134651184,0.7177462577819824,0.30270084738731384,-0.8085374236106873
12.69723129272461,-0.361829549074173,-0.9737163186073303,0.8333333134651184,0.7185091972351074,0.30498969554901123,-0.8085374236106873
12.717317342758179,-0.361829549074173,-0.9737163186073303,0.8333333134651184,0.7188906669616699,0.30498969554901123,-0.8085374236106873
12.737367391586304,-0.3622110188007355,-0.9737163186073303,0.8333333134651184,0.7188906669616699,0.30422675609588623,-0.8085374236106873
12.7574622631073,-0.3622110188007355,-0.9740977883338928,0.8333333134651184,0.7192721366882324,0.30460822582244873,-0.8085374236106873
12.777508020401001,-0.36297398805618286,-0.9744792580604553,0.8329518437385559,0.7207980751991272,0.3061341345310211,-0.8085374236106873
12.797610998153687,-0.36297398805618286,-0.9752422571182251,0.8318074345588684,0.7230868935585022,0.308041512966156,-0.8085374236106873
12.817691802978516,-0.36297398805618286,-0.9760051965713501,0.8295185565948486,0.724612832069397,0.308041512966156,-0.8081559538841248
12.83779764175415,-0.36297398805618286,-0.9771496057510376,0.8272297382354736,0.725375771522522,0.3076600432395935,-0.8081559538841248
12.857950448989868,-0.36259251832962036,-0.9790570139884949,0.8245593905448914,0.726138710975647,0.3072785437107086,-0.8077744841575623
12.877973794937134,-0.361066609621048,-0.9809643626213074,0.8211261034011841,0.7280460596084595,0.3057526648044586,-0.8073930144309998
12.89807391166687,-0.3603036403656006,-0.9821087718009949,0.8188372850418091,0.7299534678459167,0.3057526648044586,-0.80663001537323
12.918133974075317,-0.3583962619304657,-0.9840161800384521,0.8157854676246643,0.7310978770256042,0.30422675609588623,-0.80357825756073
12.938241720199585,-0.3568703830242157,-0.9851605892181396,0.8134965896606445,0.733386754989624,0.30422675609588623,-0.8005264401435852
12.958302021026611,-0.3549630045890808,-0.9866865277290344,0.8100633025169373,0.7360570430755615,0.30384528636932373,-0.7993820309638977
12.978379726409912,-0.3542000353336334,-0.9882124066352844,0.8073930144309998,0.7383459210395813,0.30498969554901123,-0.7967116832733154
12.998514175415039,-0.3526741564273834,-0.9893568158149719,0.804341197013855,0.7402533292770386,0.30537116527557373,-0.7944228053092957
13.018572330474854,-0.35076677799224854,-0.9908827543258667,0.8009079098701477,0.7417792081832886,0.30537116527557373,-0.7925154566764832
13.038923978805542,-0.34885939955711365,-0.9920271635055542,0.7978560924530029,0.7440680265426636,0.30537116527557373,-0.7902265787124634
13.059142589569092,-0.34771496057510376,-0.9939345121383667,0.7940413355827332,0.7455939650535583,0.30537116527557373,-0.7875562906265259
13.079164505004883,-0.34580758213996887,-0.9962233901023865,0.7902265787124634,0.7478827834129333,0.30384528636932373,-0.7845044732093811
13.099242925643921,-0.343900203704834,-0.9985122680664062,0.7871748208999634,0.7513160705566406,0.30270084738731384,-0.7806897163391113
13.119311571121216,-0.3419928252696991,-1.0011825561523438,0.7833600640296936,0.7532234787940979,0.30003052949905396,-0.7776378989219666
13.139397144317627,-0.3400854468345642,-1.0030899047851562,0.7810711860656738,0.7558938264846802,0.2962157726287842,-0.7742046117782593
13.159479856491089,-0.3385595381259918,-1.0057603120803833,0.7784008383750916,0.7578011751174927,0.2939268946647644,-0.7722972631454468
13.179744243621826,-0.33665215969085693,-1.0072861909866333,0.775730550289154,0.760471522808075,0.2935454249382019,-0.769245445728302
13.199840307235718,-0.33436331152915955,-1.0084306001663208,0.7730602025985718,0.76276034116745,0.2924010157585144,-0.7658121585845947
13.21989393234253,-0.33360037207603455,-1.0099564790725708,0.7703898549079895,0.7658121585845947,0.2927824854850769,-0.7639048099517822
13.239980220794678,-0.33169299364089966,-1.0118639469146729,0.768482506275177,0.767719566822052,0.2935454249382019,-0.7612344622612
13.260148048400879,-0.32940414547920227,-1.0141527652740479,0.7661936283111572,0.7688639760017395,0.291638046503067,-0.7574197053909302
13.28015685081482,-0.3274967670440674,-1.0152971744537354,0.7646677494049072,0.7703898549079895,0.290112167596817,-0.7543678879737854
13.30024266242981,-0.325970858335495,-1.0175859928131104,0.7616159319877625,0.7730602025985718,0.28820478916168213,-0.7520790696144104
13.320309400558472,-0.3240634799003601,-1.0202564001083374,0.7585641145706177,0.7753490209579468,0.28706035017967224,-0.7486457824707031
13.34039831161499,-0.3221561014652252,-1.021400809288025,0.7578011751174927,0.7784008383750916,0.28667888045310974,-0.7463569045066833
13.360475063323975,-0.32024872303009033,-1.022926688194275,0.7555122971534729,0.7810711860656738,0.28439003229141235,-0.7429236173629761
13.380697250366211,-0.31910428404808044,-1.0248340368270874,0.7532234787940979,0.7829785346984863,0.28362706303596497,-0.7398717999458313
13.400693893432617,-0.31719690561294556,-1.0263599157333374,0.7509346008300781,0.7852674126625061,0.2821011543273926,-0.7383459210395813
13.421762943267822,-0.31490805745124817,-1.027885913848877,0.7478827834129333,0.7875562906265259,0.2798123061656952,-0.734912633895874
13.441845417022705,-0.3126192092895508,-1.0297932624816895,0.7463569045066833,0.7894636392593384,0.2786678969860077,-0.7310978770256042
13.461923599243164,-0.3103303611278534,-1.0320820808410645,0.7444495558738708,0.7917525172233582,0.2744716703891754,-0.728427529335022
13.482082843780518,-0.3084229826927185,-1.0343708992004395,0.7433050870895386,0.7932783961296082,0.2725642919540405,-0.7257572412490845
13.50209665298462,-0.30537116527557373,-1.0362783670425415,0.7417792081832886,0.7951858043670654,0.27141985297203064,-0.7223239541053772
13.522230625152588,-0.30460822582244873,-1.038185715675354,0.7410162687301636,0.7974746227264404,0.26913100481033325,-0.7196536064147949
13.542397260665894,-0.30270084738731384,-1.0393301248550415,0.7402533292770386,0.7986190319061279,0.26874953508377075,-0.7169833183288574
13.562543392181396,-0.30155640840530396,-1.0408560037612915,0.7394903302192688,0.8020523190498352,0.26913100481033325,-0.7139315009117126
13.582544088363647,-0.30003052949905396,-1.042000412940979,0.7391088604927063,0.804341197013855,0.26684215664863586,-0.7120240926742554
13.602620363235474,-0.29812315106391907,-1.0435264110565186,0.7379644513130188,0.8054856061935425,0.2645532786846161,-0.7093538045883179
13.622663736343384,-0.2962157726287842,-1.0450522899627686,0.7368200421333313,0.8073930144309998,0.2645532786846161,-0.7063019871711731
13.642755508422852,-0.2943083941936493,-1.0465781688690186,0.735675573348999,0.8085374236106873,0.2622644305229187,-0.7028687000274658
13.662832260131836,-0.2920195460319519,-1.047722578048706,0.7352941036224365,0.8104447722434998,0.2615014910697937,-0.7009612917900085
13.68289589881897,-0.290112167596817,-1.049248456954956,0.734149694442749,0.811589241027832,0.2603570520877838,-0.697528064250946
13.703084230422974,-0.28820478916168213,-1.050774335861206,0.7337682247161865,0.8127336502075195,0.2611200213432312,-0.6940947771072388
13.723097801208496,-0.28706035017967224,-1.0523003339767456,0.733386754989624,0.813878059387207,0.2588311731815338,-0.691805899143219
13.743342161178589,-0.28515297174453735,-1.0538262128829956,0.7330052852630615,0.8161669373512268,0.25654229521751404,-0.6898985505104065
13.763356924057007,-0.28362706303596497,-1.054970622062683,0.732623815536499,0.8184558153152466,0.25539788603782654,-0.6868467330932617
13.783432483673096,-0.2821011543273926,-1.0568779706954956,0.7318608164787292,0.8199816942214966,0.25425344705581665,-0.6841763854026794
13.803610563278198,-0.2805752754211426,-1.0584038496017456,0.7318608164787292,0.8222705721855164,0.25234606862068176,-0.6826505064964294
13.823666095733643,-0.2786678969860077,-1.0599298477172852,0.7310978770256042,0.8234149813652039,0.24967575073242188,-0.6792172193527222
13.843836545944214,-0.2767605185508728,-1.0610742568969727,0.7307164072990417,0.8253223299980164,0.24891279637813568,-0.6769283413887024
13.863942861557007,-0.2752346098423004,-1.0622186660766602,0.7307164072990417,0.8268482685089111,0.2470054179430008,-0.6750209927558899
13.883994340896606,-0.2733272314071655,-1.0633630752563477,0.7307164072990417,0.8272297382354736,0.2466239482164383,-0.6723506450653076
13.904103517532349,-0.27180132269859314,-1.0641260147094727,0.7307164072990417,0.8283741474151611,0.2454795092344284,-0.6689173579216003
13.924179792404175,-0.27065691351890564,-1.0652704238891602,0.7299534678459167,0.8310444951057434,0.2443350851535797,-0.6670100092887878
13.944396734237671,-0.26913100481033325,-1.0664149522781372,0.7299534678459167,0.8325703740119934,0.24204623699188232,-0.6639581918716431
13.964540719985962,-0.26836803555488586,-1.0675593614578247,0.7299534678459167,0.8337147831916809,0.24166475236415863,-0.6605249047279358
13.984618663787842,-0.26684215664863586,-1.0694667100906372,0.7299534678459167,0.8348592519760132,0.23899443447589874,-0.6597619652748108
14.00469708442688,-0.264934778213501,-1.0709925889968872,0.7299534678459167,0.8360036611557007,0.23556114733219147,-0.657473087310791
14.02476954460144,-0.2630273997783661,-1.0725184679031372,0.7299534678459167,0.837911069393158,0.23441672325134277,-0.6548027992248535
14.044904470443726,-0.2615014910697937,-1.0736628770828247,0.7299534678459167,0.8382925391197205,0.23327229917049408,-0.6521324515342712
14.065077066421509,-0.2607385218143463,-1.0736628770828247,0.7299534678459167,0.838674008846283,0.23212787508964539,-0.6498435735702515
14.08536982536316,-0.2588311731815338,-1.0748074054718018,0.7299534678459167,0.8405813574790955,0.2313649207353592,-0.647936224937439
14.105539798736572,-0.2580682039260864,-1.0755703449249268,0.7299534678459167,0.8421072959899902,0.2317463904619217,-0.6445029377937317
14.126178503036499,-0.25654229521751404,-1.0763332843780518,0.7299534678459167,0.8443961143493652,0.2290760725736618,-0.6410696506500244
14.146268367767334,-0.25501641631126404,-1.0774776935577393,0.7299534678459167,0.8451590538024902,0.22564278542995453,-0.6391623020172119
14.166347980499268,-0.25425344705581665,-1.0786221027374268,0.7299534678459167,0.8463035225868225,0.22297245264053345,-0.6372548937797546
14.186702489852905,-0.25310903787612915,-1.0797665119171143,0.7299534678459167,0.846684992313385,0.21953918039798737,-0.6349660754203796
14.206790447235107,-0.25234606862068176,-1.0805294513702393,0.7299534678459167,0.848210871219635,0.21839475631713867,-0.6342030763626099
14.226895332336426,-0.25158312916755676,-1.0816738605499268,0.7299534678459167,0.84897381067276,0.21725031733512878,-0.6326771974563599
14.246964454650879,-0.2500572204589844,-1.0820554494857788,0.7303349375724792,0.8497368097305298,0.21648737788200378,-0.6303883194923401
14.267045974731445,-0.24929426610469818,-1.0828183889389038,0.7310978770256042,0.8508812189102173,0.2145799994468689,-0.6277180314064026
14.287131547927856,-0.2473868876695633,-1.0839627981185913,0.7314793467521667,0.8524070978164673,0.2130540907382965,-0.6250476837158203
14.307231903076172,-0.2470054179430008,-1.0851072072982788,0.7314793467521667,0.8531700372695923,0.21190966665744781,-0.622377336025238
14.327404975891113,-0.2462424635887146,-1.0854886770248413,0.7318608164787292,0.8531700372695923,0.21000228822231293,-0.6212329268455505
14.347916841506958,-0.2443350851535797,-1.0862516164779663,0.7318608164787292,0.8539330363273621,0.20771344006061554,-0.6181811094284058
14.368009567260742,-0.24357213079929352,-1.0873960256576538,0.7318608164787292,0.8554589152336121,0.20695048570632935,-0.615129292011261
14.388088941574097,-0.24204623699188232,-1.0877774953842163,0.7322422862052917,0.8566033244132996,0.20504310727119446,-0.613603413105011
14.408243417739868,-0.24013885855674744,-1.0885404348373413,0.7322422862052917,0.8569847941398621,0.20237277448177338,-0.6116960644721985
14.42833137512207,-0.23937590420246124,-1.0896848440170288,0.732623815536499,0.8577477931976318,0.20084688067436218,-0.6097886562347412
14.448612451553345,-0.23899443447589874,-1.0904479026794434,0.733386754989624,0.8581292629241943,0.1985580176115036,-0.6078813076019287
