liuyurong129/humanoid-gym/humanoid/data/actual_q_20250522-231435.csv
timestamp,joint_1,joint_2,joint_3,joint_4,joint_5,joint_6
4.458427429199219e-05,0.00019073777366429567,0.17376211285591125,-0.086785688996315,-0.00019073777366429567,-0.00019073777366429567,-0.00019073777366429567
0.02011895179748535,0.000572213320992887,0.15316243469715118,-0.07839322835206985,-0.00019073777366429567,-0.0009536888683214784,-0.00019073777366429567
0.04018688201904297,-0.00019073777366429567,0.12798504531383514,-0.06847485899925232,-0.00019073777366429567,0.000572213320992887,-0.00019073777366429567
0.06023836135864258,0.00019073777366429567,0.11158160120248795,-0.06046387553215027,-0.00019073777366429567,0.0013351644156500697,-0.00019073777366429567
0.08036255836486816,0.000572213320992887,0.10738536715507507,-0.058175019919872284,-0.00019073777366429567,0.00019073777366429567,-0.00019073777366429567
0.10044217109680176,0.0036240178160369396,0.10013733059167862,-0.05245288833975792,-0.00019073777366429567,0.00019073777366429567,-0.00019073777366429567
0.12052106857299805,0.0078202486038208,0.09555962681770325,-0.04711223021149635,-0.00019073777366429567,-0.000572213320992887,-0.000572213320992887
0.1405961513519287,0.009727626107633114,0.09098191559314728,-0.0398641936480999,-0.000572213320992887,0.00019073777366429567,-0.0013351644156500697
0.16066813468933105,0.01125352829694748,0.08945601433515549,-0.037193864583969116,-0.000572213320992887,0.0013351644156500697,-0.0024795911740511656
0.18073177337646484,0.01430533267557621,0.08602273464202881,-0.03147173300385475,-0.000572213320992887,0.0013351644156500697,-0.0036240178160369396
0.20079755783081055,0.018120087683200836,0.07953765243291855,-0.02689402550458908,-0.000572213320992887,0.00858320016413927,-0.004005493130534887
0.22089242935180664,0.02193484455347061,0.07839322835206985,-0.02231631986796856,-0.0013351644156500697,0.0078202486038208,-0.005912871100008488
0.2410125732421875,0.025749599561095238,0.07381551712751389,-0.01735713705420494,-0.001716639962978661,0.010490577667951584,-0.00667582219466567
0.261059045791626,0.028038453310728073,0.0711451917886734,-0.013160906732082367,-0.002861066721379757,0.011635004542768002,-0.00667582219466567
0.2811746597290039,0.03223468363285065,0.06733043491840363,-0.007438773289322853,-0.004386968910694122,0.016212711110711098,-0.0078202486038208
0.3012115955352783,0.03604944050312042,0.06351567804813385,-0.002861066721379757,-0.004386968910694122,0.018120087683200836,-0.0078202486038208
0.3214111328125,0.03833829239010811,0.06046387553215027,0.0036240178160369396,-0.005149920005351305,0.01888304017484188,-0.008964675478637218
0.34142303466796875,0.042153049260377884,0.054741740226745605,0.008964675478637218,-0.005912871100008488,0.023460745811462402,-0.010872052982449532
0.3614921569824219,0.048638131469488144,0.05245288833975792,0.014686808921396732,-0.0078202486038208,0.022697795182466507,-0.011635004542768002
0.381561279296875,0.051689937710762024,0.04558632895350456,0.023460745811462402,-0.008201723918318748,0.026512550190091133,-0.013542382046580315
0.4016427993774414,0.05397878959774971,0.04100862145423889,0.028038453310728073,-0.00858320016413927,0.02880140393972397,-0.014686808921396732
0.42179203033447266,0.061226826161146164,0.03643091395497322,0.03604944050312042,-0.009727626107633114,0.03032730519771576,-0.016212711110711098
0.4418325424194336,0.06656748056411743,0.02880140393972397,0.04291599988937378,-0.010872052982449532,0.03337911143898964,-0.01735713705420494
0.4619426727294922,0.06923781335353851,0.023079270496964455,0.05245288833975792,-0.012397955171763897,0.03681239113211632,-0.019645990803837776
0.48198962211608887,0.07495994865894318,0.013160906732082367,0.06084534898400307,-0.012397955171763897,0.04444190114736557,-0.023079270496964455
0.5020642280578613,0.08068207651376724,0.0078202486038208,0.06847485899925232,-0.015449759550392628,0.04444190114736557,-0.023460745811462402
0.5221381187438965,0.08487831056118011,-0.002861066721379757,0.07877469807863235,-0.015449759550392628,0.05054550990462303,-0.026512550190091133
0.5422177314758301,0.0879301130771637,-0.01201647985726595,0.0871671661734581,-0.016212711110711098,0.0551232174038887,-0.03032730519771576
0.5623278617858887,0.09441519528627396,-0.020027466118335724,0.09746700525283813,-0.018120087683200836,0.05703059583902359,-0.03185320645570755
0.5823407173156738,0.10013733059167862,-0.03299763426184654,0.10585946589708328,-0.01888304017484188,0.06237125024199486,-0.03337911143898964
0.6024234294891357,0.1028076633810997,-0.04253452271223068,0.11959258466959,-0.020027466118335724,0.06466010212898254,-0.03643091395497322
0.6224925518035889,0.11043716967105865,-0.059319447726011276,0.13179980218410492,-0.019645990803837776,0.071908138692379,-0.03833829239010811
0.6425583362579346,0.1180666834115982,-0.06961929053068161,0.14362554252147675,-0.02193484455347061,0.071908138692379,-0.040627144277095795
0.6626286506652832,0.12340734153985977,-0.0871671661734581,0.16079194843769073,-0.02231631986796856,0.07953765243291855,-0.043678950518369675
0.682701587677002,0.12798504531383514,-0.1024261862039566,0.17261768877506256,-0.023460745811462402,0.08258945494890213,-0.04634927958250046
0.7028577327728271,0.1359960287809372,-0.11692225188016891,0.18940261006355286,-0.02536812424659729,0.0864042118191719,-0.05092698708176613
0.7228412628173828,0.14209964871406555,-0.1356145590543747,0.20389868319034576,-0.02536812424659729,0.08945601433515549,-0.05359731614589691
0.7429203987121582,0.14591439068317413,-0.1493476778268814,0.22182802855968475,-0.02689402550458908,0.09670405089855194,-0.05893797054886818
0.7630476951599121,0.152399480342865,-0.17452506721019745,0.24166475236415863,-0.025749599561095238,0.10433356463909149,-0.06160829961299896
0.783090353012085,0.15774014592170715,-0.19092851877212524,0.25616082549095154,-0.026131074875593185,0.10738536715507507,-0.06389715522527695
0.8031585216522217,0.16079194843769073,-0.21190966665744781,0.2771419882774353,-0.02689402550458908,0.11158160120248795,-0.06847485899925232
0.8232319355010986,0.16193637251853943,-0.23212787508964539,0.2924010157585144,-0.026131074875593185,0.11692225188016891,-0.071908138692379
0.8432986736297607,0.1665140837430954,-0.2500572204589844,0.3122377395629883,-0.02727550081908703,0.11692225188016891,-0.07686731964349747
0.8634238243103027,0.1680399775505066,-0.2733272314071655,0.32978561520576477,-0.024986648932099342,0.1192111074924469,-0.08106355369091034
0.8835279941558838,0.1680399775505066,-0.28782328963279724,0.34618905186653137,-0.026131074875593185,0.12302586436271667,-0.086785688996315
0.903583288192749,0.16956588625907898,-0.309567391872406,0.36564430594444275,-0.023079270496964455,0.12417028844356537,-0.09250781685113907
0.9236507415771484,0.17071031033992767,-0.3248264193534851,0.37937742471694946,-0.023460745811462402,0.12378881871700287,-0.09517814964056015
0.9438838958740234,0.16994735598564148,-0.3408484160900116,0.39692530035972595,-0.02231631986796856,0.12645913660526276,-0.1031891331076622
0.9639229774475098,0.16994735598564148,-0.3606851398944855,0.41218432784080505,-0.021553369238972664,0.12684062123298645,-0.10967422276735306
0.9840800762176514,0.16994735598564148,-0.3717479109764099,0.42896926403045654,-0.02079041674733162,0.12874799966812134,-0.11425192654132843
1.0041470527648926,0.17032882571220398,-0.3896772861480713,0.44499123096466064,-0.016594186425209045,0.12760357558727264,-0.12149996310472488
1.0242128372192383,0.16994735598564148,-0.4011215269565582,0.46025025844573975,-0.01773861236870289,0.12874799966812134,-0.12760357558727264
1.0443034172058105,0.17032882571220398,-0.41485464572906494,0.47665369510650635,-0.014686808921396732,0.12722209095954895,-0.1367589831352234
1.0643725395202637,0.16994735598564148,-0.42858776450157166,0.49114975333213806,-0.013160906732082367,0.12722209095954895,-0.14133669435977936
1.0844659805297852,0.17032882571220398,-0.4381246566772461,0.5071717500686646,-0.010872052982449532,0.12798504531383514,-0.14782176911830902
1.1045007705688477,0.17032882571220398,-0.4514763057231903,0.5235751867294312,-0.008201723918318748,0.12645913660526276,-0.152399480342865
1.1245756149291992,0.17109178006649017,-0.46215763688087463,0.5422675013542175,-0.008201723918318748,0.12722209095954895,-0.16002899408340454
1.1446559429168701,0.17147326469421387,-0.47398337721824646,0.5628671646118164,-0.006294346414506435,0.12645913660526276,-0.1684214472770691
1.1647610664367676,0.17223620414733887,-0.4869535267353058,0.5869001150131226,-0.005149920005351305,0.12607766687870026,-0.17681391537189484
1.184882402420044,0.17261768877506256,-0.4953460097312927,0.6044480204582214,-0.0032425422687083483,0.12722209095954895,-0.19245441257953644
1.2049190998077393,0.17261768877506256,-0.5121309161186218,0.6261920928955078,-0.0036240178160369396,0.12722209095954895,-0.20428015291690826
1.2249817848205566,0.17338064312934875,-0.5231937170028687,0.6368734240531921,-0.0024795911740511656,0.12874799966812134,-0.22144655883312225
1.2450404167175293,0.17414358258247375,-0.5365453362464905,0.6532768607139587,-0.0013351644156500697,0.13103684782981873,-0.23632410168647766
1.265244483947754,0.17414358258247375,-0.5544747114181519,0.6654840707778931,-0.0009536888683214784,0.13141833245754242,-0.25425344705581665
1.2854397296905518,0.17414358258247375,-0.5663004517555237,0.6761654019355774,-0.001716639962978661,0.1359960287809372,-0.27103838324546814
1.3054451942443848,0.17414358258247375,-0.5766003131866455,0.6883726119995117,-0.0009536888683214784,0.13866636157035828,-0.28400853276252747
1.3255038261413574,0.17376211285591125,-0.5830853581428528,0.700579822063446,-0.00019073777366429567,0.13828489184379578,-0.30117493867874146
1.3456544876098633,0.17185473442077637,-0.5930037498474121,0.7116426229476929,0.00476844422519207,0.14095520973205566,-0.31414511799812317
1.3657033443450928,0.16918440163135529,-0.6017776727676392,0.7204165458679199,0.01430533267557621,0.14438849687576294,-0.3236820101737976
1.3857800960540771,0.1684214472770691,-0.6086442470550537,0.7272831201553345,0.02079041674733162,0.14476996660232544,-0.33093002438545227
1.4058425426483154,0.1680399775505066,-0.6174181699752808,0.7337682247161865,0.02231631986796856,0.14629587531089783,-0.3442816734313965
1.4260473251342773,0.1672770231962204,-0.6265735626220703,0.7398717999458313,0.023460745811462402,0.14591439068317413,-0.3557259440422058
1.4460585117340088,0.1672770231962204,-0.6345845460891724,0.7494087219238281,0.02689402550458908,0.14629587531089783,-0.36449989676475525
1.4661297798156738,0.1668955534696579,-0.6387808322906494,0.7551308274269104,0.029564354568719864,0.14591439068317413,-0.3740367889404297
1.4861786365509033,0.1665140837430954,-0.6399252414703369,0.761997401714325,0.035667963325977325,0.14629587531089783,-0.38281071186065674
1.5063040256500244,0.1657511293888092,-0.6456473469734192,0.770008385181427,0.048638131469488144,0.14820325374603271,-0.3866254687309265
1.5263638496398926,0.1646067053079605,-0.6509880423545837,0.7734416723251343,0.0558861680328846,0.1508735716342926,-0.3931105434894562
1.5464591979980469,0.16384375095367432,-0.6536583304405212,0.7791637778282166,0.061226826161146164,0.15430685877799988,-0.39921414852142334
1.5665366649627686,0.16269932687282562,-0.6582360863685608,0.7822155952453613,0.06046387553215027,0.15430685877799988,-0.4083695709705353
1.5866320133209229,0.16269932687282562,-0.6658655405044556,0.7864118218421936,0.06198977679014206,0.15659570693969727,-0.4171435236930847
1.6066908836364746,0.16269932687282562,-0.6727321147918701,0.7898451089859009,0.06580453366041183,0.15659570693969727,-0.4194323718547821
1.626779317855835,0.16155488789081573,-0.6700618267059326,0.7959487438201904,0.06923781335353851,0.15621423721313477,-0.4232471287250519
1.6468567848205566,0.15964750945568085,-0.6715877056121826,0.7993820309638977,0.07457847148180008,0.1489662081003189,-0.43125811219215393
1.66693115234375,0.15964750945568085,-0.6738765835762024,0.8012893795967102,0.08487831056118011,0.1512550562620163,-0.4339284300804138
1.6870567798614502,0.15964750945568085,-0.6761654019355774,0.80510413646698,0.09517814964056015,0.1527809500694275,-0.4339284300804138
1.7071151733398438,0.15964750945568085,-0.6803616285324097,0.805867075920105,0.09670405089855194,0.1512550562620163,-0.439269095659256
1.7271850109100342,0.15964750945568085,-0.6853207945823669,0.8070115447044373,0.09632257372140884,0.152399480342865,-0.44422826170921326
1.7472527027130127,0.15964750945568085,-0.691042959690094,0.8077744841575623,0.09708552807569504,0.15354390442371368,-0.4495689272880554
1.7673156261444092,0.15964750945568085,-0.692568838596344,0.8104447722434998,0.09746700525283813,0.152399480342865,-0.4530022144317627
1.7873897552490234,0.15964750945568085,-0.6898985505104065,0.8119707107543945,0.10051880776882172,0.1508735716342926,-0.45681697130203247
1.807462215423584,0.15926603972911835,-0.6872282028198242,0.8180742859840393,0.10891126841306686,0.1504921019077301,-0.45796138048171997
1.8275401592254639,0.15774014592170715,-0.6887540817260742,0.8207446336746216,0.11730372905731201,0.15354390442371368,-0.45796138048171997
1.8476147651672363,0.15697719156742096,-0.6898985505104065,0.8184558153152466,0.12607766687870026,0.15583276748657227,-0.45948728919029236
1.8676979541778564,0.15659570693969727,-0.689517080783844,0.8226520419120789,0.12760357558727264,0.15812161564826965,-0.46063172817230225
1.887772560119629,0.15659570693969727,-0.6940947771072388,0.8196002244949341,0.12455176562070847,0.15659570693969727,-0.4648279547691345
1.9078679084777832,0.15659570693969727,-0.7001983523368835,0.8165484070777893,0.12340734153985977,0.15735866129398346,-0.4713130295276642
1.9279305934906006,0.15659570693969727,-0.7055390477180481,0.8165484070777893,0.12378881871700287,0.15735866129398346,-0.4720759987831116
1.9480199813842773,0.15735866129398346,-0.7017242908477783,0.8188372850418091,0.12264438718557358,0.1504921019077301,-0.47627222537994385
1.9681053161621094,0.15659570693969727,-0.699053943157196,0.8184558153152466,0.12455176562070847,0.14667734503746033,-0.481612890958786
1.988206148147583,0.15392538905143738,-0.6971465349197388,0.8230335116386414,0.135233074426651,0.1527809500694275,-0.4797055125236511
2.008253574371338,0.15468832850456238,-0.6986724734306335,0.8222705721855164,0.14400701224803925,0.15468832850456238,-0.47856107354164124
2.028343439102173,0.15468832850456238,-0.6971465349197388,0.8222705721855164,0.14438849687576294,0.15506981313228607,-0.47932401299476624
2.0484132766723633,0.15468832850456238,-0.6986724734306335,0.8211261034011841,0.14438849687576294,0.15545128285884857,-0.4804684519767761
2.0684852600097656,0.15583276748657227,-0.7017242908477783,0.8207446336746216,0.14362554252147675,0.15583276748657227,-0.4839017391204834
2.0885558128356934,0.15812161564826965,-0.7055390477180481,0.8199816942214966,0.14286258816719055,0.15430685877799988,-0.4858091175556183
2.108625888824463,0.15812161564826965,-0.7017242908477783,0.8207446336746216,0.14248111844062805,0.1527809500694275,-0.4869535267353058
2.1287009716033936,0.15735866129398346,-0.6971465349197388,0.8226520419120789,0.14400701224803925,0.1497291475534439,-0.4873350262641907
2.1487483978271484,0.15659570693969727,-0.698291003704071,0.8226520419120789,0.1520180106163025,0.15316243469715118,-0.4869535267353058
2.168835163116455,0.15430685877799988,-0.6967650651931763,0.8245593905448914,0.15926603972911835,0.15735866129398346,-0.4865720570087433
2.18891978263855,0.15354390442371368,-0.697528064250946,0.8237964510917664,0.16002899408340454,0.15697719156742096,-0.4877164959907532
2.209031820297241,0.15354390442371368,-0.7001983523368835,0.8222705721855164,0.15926603972911835,0.15659570693969727,-0.49000534415245056
2.2292392253875732,0.15354390442371368,-0.7043945789337158,0.8203631639480591,0.15659570693969727,0.15621423721313477,-0.49114975333213806
2.2492258548736572,0.15583276748657227,-0.7055390477180481,0.8207446336746216,0.15468832850456238,0.15316243469715118,-0.4957274794578552
2.269300699234009,0.15659570693969727,-0.7024872303009033,0.8203631639480591,0.15354390442371368,0.14820325374603271,-0.4964904189109802
2.289358377456665,0.15621423721313477,-0.6979095339775085,0.8234149813652039,0.15506981313228607,0.14820325374603271,-0.4972533881664276
2.309462070465088,0.15545128285884857,-0.6944762468338013,0.8260852694511414,0.16079194843769073,0.1512550562620163,-0.4968718886375427
2.329756736755371,0.15545128285884857,-0.6971465349197388,0.8241779208183289,0.1661325991153717,0.15545128285884857,-0.4968718886375427
2.34989595413208,0.15545128285884857,-0.6940947771072388,0.8257037997245789,0.1684214472770691,0.15812161564826965,-0.4961089491844177
2.3699069023132324,0.15545128285884857,-0.6960021257400513,0.8237964510917664,0.1661325991153717,0.15697719156742096,-0.4972533881664276
2.3900258541107178,0.15583276748657227,-0.7001983523368835,0.8211261034011841,0.16117341816425323,0.15697719156742096,-0.4999237060546875
2.4100747108459473,0.15583276748657227,-0.7059205174446106,0.8192187547683716,0.16117341816425323,0.15774014592170715,-0.5025940537452698
2.4301323890686035,0.15583276748657227,-0.7028687000274658,0.8211261034011841,0.15964750945568085,0.152399480342865,-0.5025940537452698
2.4502053260803223,0.15506981313228607,-0.698291003704071,0.8203631639480591,0.15964750945568085,0.14591439068317413,-0.5052643418312073
2.4702703952789307,0.1520180106163025,-0.6967650651931763,0.8245593905448914,0.1657511293888092,0.1508735716342926,-0.5041199326515198
2.4903385639190674,0.152399480342865,-0.6979095339775085,0.8237964510917664,0.17223620414733887,0.15316243469715118,-0.5033569931983948
2.5104029178619385,0.152399480342865,-0.6967650651931763,0.8234149813652039,0.17566949129104614,0.15430685877799988,-0.501068115234375
2.5305068492889404,0.1527809500694275,-0.697528064250946,0.8215075731277466,0.17528800666332245,0.15430685877799988,-0.5014495849609375
2.55061674118042,0.15354390442371368,-0.7001983523368835,0.8188372850418091,0.17223620414733887,0.15468832850456238,-0.5025940537452698
2.5706839561462402,0.15583276748657227,-0.7051575779914856,0.8165484070777893,0.17109178006649017,0.15774014592170715,-0.5041199326515198
2.590775489807129,0.15774014592170715,-0.7055390477180481,0.8154039978981018,0.16918440163135529,0.15506981313228607,-0.5045014023780823
2.6108415126800537,0.15735866129398346,-0.699053943157196,0.8180742859840393,0.1665140837430954,0.1504921019077301,-0.5048828721046448
2.6309051513671875,0.15545128285884857,-0.6986724734306335,0.8173113465309143,0.16956588625907898,0.1489662081003189,-0.5052643418312073
2.650989055633545,0.15316243469715118,-0.6956206560134888,0.8188372850418091,0.17757686972618103,0.15812161564826965,-0.5045014023780823
2.671025514602661,0.15354390442371368,-0.6952391862869263,0.8192187547683716,0.17986571788787842,0.15659570693969727,-0.5025940537452698
2.6911115646362305,0.15316243469715118,-0.6971465349197388,0.8188372850418091,0.17948424816131592,0.15697719156742096,-0.5041199326515198
2.7111778259277344,0.15354390442371368,-0.699816882610321,0.8157854676246643,0.17833982408046722,0.15697719156742096,-0.5037384629249573
2.7312541007995605,0.15354390442371368,-0.700579822063446,0.8150225281715393,0.17147326469421387,0.15354390442371368,-0.5045014023780823
2.751319408416748,0.15430685877799988,-0.7024872303009033,0.8150225281715393,0.1672770231962204,0.14820325374603271,-0.5064088106155396
2.7714107036590576,0.15583276748657227,-0.6971465349197388,0.8173113465309143,0.1676585078239441,0.14705882966518402,-0.5056458115577698
2.7914743423461914,0.15545128285884857,-0.691805899143219,0.8207446336746216,0.17032882571220398,0.14820325374603271,-0.5052643418312073
2.811516523361206,0.15430685877799988,-0.693331778049469,0.8192187547683716,0.17681391537189484,0.15316243469715118,-0.5052643418312073
2.83160400390625,0.15430685877799988,-0.6921873688697815,0.8192187547683716,0.1817730963230133,0.15735866129398346,-0.5025940537452698
2.851691246032715,0.15468832850456238,-0.6944762468338013,0.8192187547683716,0.1810101419687271,0.15888457000255585,-0.5048828721046448
2.87176251411438,0.15468832850456238,-0.697528064250946,0.8169298768043518,0.17910276353359222,0.16079194843769073,-0.5048828721046448
2.8919408321380615,0.15621423721313477,-0.7017242908477783,0.8142595291137695,0.17032882571220398,0.15850308537483215,-0.5056458115577698
2.9119253158569336,0.15545128285884857,-0.7021057605743408,0.8154039978981018,0.1676585078239441,0.15316243469715118,-0.5094605684280396
2.9320192337036133,0.15545128285884857,-0.698291003704071,0.8157854676246643,0.1684214472770691,0.14667734503746033,-0.509079098701477
2.952195405960083,0.15316243469715118,-0.6937133073806763,0.8199816942214966,0.17185473442077637,0.14744029939174652,-0.5086976289749146
2.972240686416626,0.1512550562620163,-0.6898985505104065,0.8230335116386414,0.17719538509845734,0.1508735716342926,-0.5071717500686646
2.9923439025878906,0.152399480342865,-0.6929503083229065,0.8196002244949341,0.1836804747581482,0.1508735716342926,-0.506027340888977
3.01240611076355,0.152399480342865,-0.691805899143219,0.8234149813652039,0.1836804747581482,0.15697719156742096,-0.5048828721046448
3.0324411392211914,0.1527809500694275,-0.6952391862869263,0.8207446336746216,0.182917520403862,0.15774014592170715,-0.5056458115577698
3.05249285697937,0.15316243469715118,-0.6986724734306335,0.8157854676246643,0.17528800666332245,0.15774014592170715,-0.506027340888977
3.072582960128784,0.15468832850456238,-0.7032501697540283,0.8134965896606445,0.17299915850162506,0.15735866129398346,-0.5106050372123718
3.0926618576049805,0.15583276748657227,-0.7009612917900085,0.8169298768043518,0.16994735598564148,0.1527809500694275,-0.5094605684280396
3.112786293029785,0.15506981313228607,-0.6960021257400513,0.8157854676246643,0.16994735598564148,0.1497291475534439,-0.5109865069389343
3.1328227519989014,0.152399480342865,-0.6921873688697815,0.8207446336746216,0.17605096101760864,0.15354390442371368,-0.508316159248352
3.1529619693756104,0.1516365259885788,-0.6940947771072388,0.8199816942214966,0.1825360506772995,0.15583276748657227,-0.506790280342102
3.1730310916900635,0.1516365259885788,-0.692568838596344,0.8184558153152466,0.18635080754756927,0.15812161564826965,-0.5045014023780823
3.193037509918213,0.152399480342865,-0.693331778049469,0.8188372850418091,0.18558785319328308,0.15812161564826965,-0.5056458115577698
3.2131221294403076,0.1527809500694275,-0.6952391862869263,0.8154039978981018,0.1817730963230133,0.15735866129398346,-0.5056458115577698
3.2331905364990234,0.1527809500694275,-0.699816882610321,0.813115119934082,0.17566949129104614,0.15659570693969727,-0.5094605684280396
3.2533116340637207,0.15430685877799988,-0.7013428211212158,0.8134965896606445,0.17528800666332245,0.15583276748657227,-0.5117494463920593
3.273500442504883,0.15545128285884857,-0.6979095339775085,0.8150225281715393,0.17376211285591125,0.1497291475534439,-0.5113679766654968
3.2934978008270264,0.15316243469715118,-0.6940947771072388,0.8157854676246643,0.17681391537189484,0.1512550562620163,-0.5106050372123718
3.3135836124420166,0.152399480342865,-0.6929503083229065,0.8180742859840393,0.1817730963230133,0.15735866129398346,-0.5086976289749146
3.3336308002471924,0.152399480342865,-0.693331778049469,0.8169298768043518,0.18635080754756927,0.15774014592170715,-0.5071717500686646
3.353764295578003,0.152399480342865,-0.6940947771072388,0.8165484070777893,0.18596932291984558,0.15812161564826965,-0.506027340888977
3.3738906383514404,0.152399480342865,-0.6956206560134888,0.8112077713012695,0.18596932291984558,0.15850308537483215,-0.506027340888977
3.393908977508545,0.15316243469715118,-0.6971465349197388,0.8100633025169373,0.182917520403862,0.15812161564826965,-0.5064088106155396
3.4139816761016846,0.15506981313228607,-0.6986724734306335,0.8100633025169373,0.17833982408046722,0.1512550562620163,-0.5079346895217896
3.434502363204956,0.15545128285884857,-0.6956206560134888,0.8127336502075195,0.17948424816131592,0.1489662081003189,-0.5071717500686646
3.454589605331421,0.15506981313228607,-0.692568838596344,0.8150225281715393,0.1806286722421646,0.1497291475534439,-0.5064088106155396
3.4746994972229004,0.15316243469715118,-0.691805899143219,0.8146410584449768,0.18520638346672058,0.15392538905143738,-0.5056458115577698
3.4947478771209717,0.152399480342865,-0.6914244294166565,0.8150225281715393,0.18978407979011536,0.15812161564826965,-0.5037384629249573
3.5148847103118896,0.1527809500694275,-0.6944762468338013,0.8146410584449768,0.18902114033699036,0.15812161564826965,-0.5048828721046448
3.534914016723633,0.15316243469715118,-0.698291003704071,0.8134965896606445,0.1848248988389969,0.15926603972911835,-0.5048828721046448
3.555018663406372,0.15545128285884857,-0.7051575779914856,0.8104447722434998,0.17719538509845734,0.15774014592170715,-0.5064088106155396
3.5750608444213867,0.15659570693969727,-0.7021057605743408,0.8119707107543945,0.17185473442077637,0.1508735716342926,-0.5079346895217896
3.5951638221740723,0.15545128285884857,-0.697528064250946,0.8119707107543945,0.17071031033992767,0.14858472347259521,-0.5094605684280396
3.6152396202087402,0.15430685877799988,-0.6937133073806763,0.8161669373512268,0.17643244564533234,0.152399480342865,-0.5079346895217896
3.6353063583374023,0.152399480342865,-0.693331778049469,0.8180742859840393,0.182917520403862,0.15850308537483215,-0.506027340888977
3.6553964614868164,0.152399480342865,-0.6921873688697815,0.8173113465309143,0.18749523162841797,0.15774014592170715,-0.5045014023780823
3.6754636764526367,0.152399480342865,-0.6921873688697815,0.8180742859840393,0.18635080754756927,0.15850308537483215,-0.5052643418312073
3.695603370666504,0.152399480342865,-0.6948577165603638,0.8146410584449768,0.18558785319328308,0.15926603972911835,-0.5052643418312073
3.715632677078247,0.1527809500694275,-0.697528064250946,0.812352180480957,0.17681391537189484,0.15850308537483215,-0.5056458115577698
3.7357025146484375,0.15354390442371368,-0.700579822063446,0.8112077713012695,0.17261768877506256,0.15621423721313477,-0.5113679766654968
3.755777359008789,0.15506981313228607,-0.698291003704071,0.813115119934082,0.17147326469421387,0.1512550562620163,-0.5102235674858093
3.7758450508117676,0.15506981313228607,-0.6944762468338013,0.8180742859840393,0.17185473442077637,0.14782176911830902,-0.509079098701477
3.7959201335906982,0.15506981313228607,-0.6921873688697815,0.8245593905448914,0.17566949129104614,0.14705882966518402,-0.507553219795227
3.815971851348877,0.15506981313228607,-0.6948577165603638,0.8222705721855164,0.17986571788787842,0.1489662081003189,-0.5056458115577698
3.83607816696167,0.15430685877799988,-0.6940947771072388,0.8203631639480591,0.1825360506772995,0.1512550562620163,-0.5041199326515198
3.856238603591919,0.15468832850456238,-0.6921873688697815,0.8222705721855164,0.182154580950737,0.15392538905143738,-0.5041199326515198
3.8763108253479004,0.15468832850456238,-0.6967650651931763,0.8176928162574768,0.17528800666332245,0.1508735716342926,-0.5048828721046448
3.896540880203247,0.15621423721313477,-0.7040131092071533,0.8142595291137695,0.17338064312934875,0.1508735716342926,-0.508316159248352
3.916578531265259,0.15774014592170715,-0.7085908055305481,0.8142595291137695,0.17261768877506256,0.1512550562620163,-0.506790280342102
3.936685800552368,0.15735866129398346,-0.7017242908477783,0.8150225281715393,0.1661325991153717,0.14057374000549316,-0.5079346895217896
3.9567089080810547,0.15545128285884857,-0.6948577165603638,0.8169298768043518,0.1672770231962204,0.13942931592464447,-0.5106050372123718
3.9768025875091553,0.1527809500694275,-0.6914244294166565,0.8207446336746216,0.17528800666332245,0.14782176911830902,-0.507553219795227
3.9968864917755127,0.15468832850456238,-0.6944762468338013,0.8188372850418091,0.182917520403862,0.1501106321811676,-0.5071717500686646
4.016982078552246,0.15468832850456238,-0.6937133073806763,0.8207446336746216,0.182917520403862,0.15354390442371368,-0.5052643418312073
4.037045001983643,0.15468832850456238,-0.6967650651931763,0.8199816942214966,0.1832990050315857,0.15583276748657227,-0.5064088106155396
4.057117700576782,0.15468832850456238,-0.699816882610321,0.8154039978981018,0.1806286722421646,0.15926603972911835,-0.5064088106155396
4.077240228652954,0.15659570693969727,-0.7051575779914856,0.8119707107543945,0.17299915850162506,0.15888457000255585,-0.509079098701477
4.097284555435181,0.15735866129398346,-0.7040131092071533,0.8150225281715393,0.17147326469421387,0.15392538905143738,-0.5113679766654968
4.1173415184021,0.15621423721313477,-0.697528064250946,0.8150225281715393,0.17071031033992767,0.1504921019077301,-0.5121309161186218
4.137438535690308,0.15392538905143738,-0.693331778049469,0.8199816942214966,0.17566949129104614,0.15316243469715118,-0.5106050372123718
4.157508850097656,0.1516365259885788,-0.690280020236969,0.8230335116386414,0.1832990050315857,0.15735866129398346,-0.5086976289749146
4.177608013153076,0.1516365259885788,-0.6921873688697815,0.8199816942214966,0.18749523162841797,0.15812161564826965,-0.5056458115577698
4.197657346725464,0.1520180106163025,-0.691042959690094,0.8230335116386414,0.18711376190185547,0.16041046380996704,-0.5056458115577698
4.217750549316406,0.152399480342865,-0.6948577165603638,0.8196002244949341,0.18596932291984558,0.16041046380996704,-0.5064088106155396
4.237807035446167,0.152399480342865,-0.6960021257400513,0.8146410584449768,0.17986571788787842,0.16002899408340454,-0.5064088106155396
4.257929563522339,0.15316243469715118,-0.699816882610321,0.813115119934082,0.17338064312934875,0.15735866129398346,-0.5117494463920593
4.277976036071777,0.15392538905143738,-0.699816882610321,0.8157854676246643,0.17185473442077637,0.1508735716342926,-0.5106050372123718
4.29804253578186,0.15430685877799988,-0.6963835954666138,0.8199816942214966,0.17261768877506256,0.14820325374603271,-0.5106050372123718
4.318108081817627,0.15392538905143738,-0.6929503083229065,0.8272297382354736,0.17719538509845734,0.14591439068317413,-0.5094605684280396
4.338155269622803,0.1527809500694275,-0.6952391862869263,0.8237964510917664,0.182917520403862,0.14705882966518402,-0.507553219795227
4.3582375049591064,0.15316243469715118,-0.692568838596344,0.8237964510917664,0.1848248988389969,0.1501106321811676,-0.5052643418312073
4.378325939178467,0.15392538905143738,-0.692568838596344,0.8245593905448914,0.1832990050315857,0.1504921019077301,-0.5056458115577698
4.398386240005493,0.15468832850456238,-0.6967650651931763,0.8188372850418091,0.1806286722421646,0.1493476778268814,-0.5056458115577698
4.418518781661987,0.15545128285884857,-0.7032501697540283,0.8161669373512268,0.17490653693675995,0.1504921019077301,-0.5094605684280396
4.438547372817993,0.15774014592170715,-0.7043945789337158,0.8173113465309143,0.17376211285591125,0.14820325374603271,-0.5098420977592468
4.458618402481079,0.15735866129398346,-0.6994354128837585,0.8173113465309143,0.17071031033992767,0.14476996660232544,-0.5094605684280396
4.478684902191162,0.15697719156742096,-0.6944762468338013,0.8203631639480591,0.17299915850162506,0.14476996660232544,-0.5094605684280396
4.498763799667358,0.15430685877799988,-0.6898985505104065,0.8249408602714539,0.1802472025156021,0.1508735716342926,-0.507553219795227
4.518807888031006,0.15354390442371368,-0.6948577165603638,0.8211261034011841,0.1848248988389969,0.15316243469715118,-0.5048828721046448
4.538876533508301,0.15354390442371368,-0.6921873688697815,0.8237964510917664,0.18520638346672058,0.15735866129398346,-0.5048828721046448
4.558948993682861,0.15354390442371368,-0.6937133073806763,0.8230335116386414,0.1844434291124344,0.15735866129398346,-0.5052643418312073
4.5790205001831055,0.15354390442371368,-0.699053943157196,0.8180742859840393,0.17795833945274353,0.15583276748657227,-0.506027340888977
4.599086761474609,0.15392538905143738,-0.7059205174446106,0.8146410584449768,0.17528800666332245,0.15774014592170715,-0.5098420977592468
4.619173288345337,0.15621423721313477,-0.7036316394805908,0.8180742859840393,0.17414358258247375,0.15583276748657227,-0.5086976289749146
4.639311790466309,0.15468832850456238,-0.6986724734306335,0.8157854676246643,0.16956588625907898,0.14591439068317413,-0.5106050372123718
4.6595213413238525,0.1520180106163025,-0.6971465349197388,0.8180742859840393,0.17605096101760864,0.1512550562620163,-0.509079098701477
4.67952823638916,0.152399480342865,-0.6960021257400513,0.8192187547683716,0.1832990050315857,0.15583276748657227,-0.507553219795227
4.699612617492676,0.152399480342865,-0.6948577165603638,0.8192187547683716,0.18635080754756927,0.15659570693969727,-0.5041199326515198
4.719760417938232,0.152399480342865,-0.6963835954666138,0.8165484070777893,0.1844434291124344,0.15812161564826965,-0.5056458115577698
4.739866495132446,0.152399480342865,-0.698291003704071,0.8161669373512268,0.1806286722421646,0.15850308537483215,-0.506027340888977
4.76001238822937,0.15392538905143738,-0.699816882610321,0.8161669373512268,0.17490653693675995,0.15812161564826965,-0.508316159248352
4.780049085617065,0.15545128285884857,-0.6994354128837585,0.8154039978981018,0.17376211285591125,0.15430685877799988,-0.5109865069389343
4.800120830535889,0.15468832850456238,-0.6948577165603638,0.8173113465309143,0.17414358258247375,0.15316243469715118,-0.5109865069389343
4.820202589035034,0.152399480342865,-0.6944762468338013,0.8180742859840393,0.17910276353359222,0.15621423721313477,-0.5094605684280396
4.840263366699219,0.152399480342865,-0.6929503083229065,0.8188372850418091,0.1840619444847107,0.15964750945568085,-0.5079346895217896
4.8603596687316895,0.152399480342865,-0.693331778049469,0.8188372850418091,0.1848248988389969,0.15850308537483215,-0.5048828721046448
4.880408048629761,0.152399480342865,-0.6963835954666138,0.8161669373512268,0.1832990050315857,0.15850308537483215,-0.5056458115577698
4.900485515594482,0.152399480342865,-0.6994354128837585,0.8142595291137695,0.1806286722421646,0.15774014592170715,-0.5056458115577698
4.920621395111084,0.1527809500694275,-0.7013428211212158,0.8134965896606445,0.17528800666332245,0.15621423721313477,-0.5071717500686646
4.940677881240845,0.1527809500694275,-0.700579822063446,0.813878059387207,0.17261768877506256,0.1512550562620163,-0.5086976289749146
4.960734605789185,0.1527809500694275,-0.6944762468338013,0.8169298768043518,0.17414358258247375,0.1516365259885788,-0.5086976289749146
4.980864524841309,0.152399480342865,-0.6883726119995117,0.8215075731277466,0.17948424816131592,0.15354390442371368,-0.507553219795227
5.000886917114258,0.152399480342865,-0.691805899143219,0.8188372850418091,0.1844434291124344,0.15697719156742096,-0.507553219795227
5.020974636077881,0.152399480342865,-0.6891355514526367,0.8215075731277466,0.18749523162841797,0.15964750945568085,-0.5045014023780823
5.041085243225098,0.1527809500694275,-0.691042959690094,0.8222705721855164,0.18596932291984558,0.16041046380996704,-0.506027340888977
5.0611937046051025,0.1527809500694275,-0.6952391862869263,0.8165484070777893,0.1832990050315857,0.16308079659938812,-0.506027340888977
5.08124852180481,0.1527809500694275,-0.699816882610321,0.8119707107543945,0.17490653693675995,0.16193637251853943,-0.5079346895217896
5.101300477981567,0.15468832850456238,-0.699816882610321,0.8150225281715393,0.17223620414733887,0.15812161564826965,-0.5106050372123718
5.12142276763916,0.15545128285884857,-0.6979095339775085,0.8150225281715393,0.17147326469421387,0.14858472347259521,-0.5106050372123718
5.141475200653076,0.15316243469715118,-0.6937133073806763,0.8192187547683716,0.17338064312934875,0.1489662081003189,-0.5098420977592468
5.161553382873535,0.1516365259885788,-0.691042959690094,0.8218890428543091,0.17872129380702972,0.1516365259885788,-0.509079098701477
5.18161416053772,0.152399480342865,-0.6929503083229065,0.8184558153152466,0.1848248988389969,0.1512550562620163,-0.5079346895217896
5.201697111129761,0.152399480342865,-0.6914244294166565,0.8218890428543091,0.1840619444847107,0.15621423721313477,-0.506027340888977
5.221811294555664,0.1527809500694275,-0.6940947771072388,0.8188372850418091,0.1832990050315857,0.15735866129398346,-0.5079346895217896
5.241863012313843,0.15354390442371368,-0.6979095339775085,0.8150225281715393,0.17719538509845734,0.15735866129398346,-0.508316159248352
5.261938810348511,0.15545128285884857,-0.7032501697540283,0.8127336502075195,0.17376211285591125,0.15697719156742096,-0.5117494463920593
5.282050609588623,0.15659570693969727,-0.7009612917900085,0.8154039978981018,0.17032882571220398,0.1501106321811676,-0.5109865069389343
5.302095890045166,0.15621423721313477,-0.6963835954666138,0.8154039978981018,0.16880293190479279,0.14667734503746033,-0.5121309161186218
5.322148323059082,0.15430685877799988,-0.692568838596344,0.8211261034011841,0.17452506721019745,0.14744029939174652,-0.5102235674858093
5.342337369918823,0.1527809500694275,-0.6948577165603638,0.8207446336746216,0.17986571788787842,0.1508735716342926,-0.5079346895217896
5.3623740673065186,0.1527809500694275,-0.692568838596344,0.8199816942214966,0.1832990050315857,0.1516365259885788,-0.5048828721046448
5.382399320602417,0.15316243469715118,-0.6929503083229065,0.8199816942214966,0.182917520403862,0.152399480342865,-0.5056458115577698
5.402505159378052,0.15354390442371368,-0.6963835954666138,0.8165484070777893,0.1813916265964508,0.152399480342865,-0.5056458115577698
5.42258358001709,0.15430685877799988,-0.7013428211212158,0.813878059387207,0.17414358258247375,0.1527809500694275,-0.5071717500686646
5.4426515102386475,0.15774014592170715,-0.7028687000274658,0.8150225281715393,0.17147326469421387,0.1512550562620163,-0.5106050372123718
5.462764501571655,0.15774014592170715,-0.699053943157196,0.8150225281715393,0.1680399775505066,0.14782176911830902,-0.5098420977592468
5.483036518096924,0.15774014592170715,-0.6948577165603638,0.8188372850418091,0.16994735598564148,0.14782176911830902,-0.5094605684280396
5.503119945526123,0.15735866129398346,-0.6906614899635315,0.8241779208183289,0.17719538509845734,0.1520180106163025,-0.5079346895217896
5.5231873989105225,0.15697719156742096,-0.6952391862869263,0.8196002244949341,0.182154580950737,0.152399480342865,-0.5045014023780823
5.543268442153931,0.15506981313228607,-0.6921873688697815,0.8199816942214966,0.1832990050315857,0.15774014592170715,-0.5048828721046448
5.563352108001709,0.15468832850456238,-0.6921873688697815,0.8218890428543091,0.1825360506772995,0.15697719156742096,-0.5048828721046448
5.583417177200317,0.15468832850456238,-0.6979095339775085,0.8176928162574768,0.17376211285591125,0.15468832850456238,-0.5052643418312073
5.603562355041504,0.15468832850456238,-0.7066834568977356,0.813115119934082,0.17490653693675995,0.15583276748657227,-0.5094605684280396
5.623586654663086,0.15468832850456238,-0.7093538045883179,0.8119707107543945,0.17376211285591125,0.15621423721313477,-0.508316159248352
5.643665790557861,0.15468832850456238,-0.7028687000274658,0.811589241027832,0.164988175034523,0.14286258816719055,-0.5098420977592468
5.66373872756958,0.15316243469715118,-0.6960021257400513,0.8161669373512268,0.1657511293888092,0.14171816408634186,-0.5128938555717468
5.683812379837036,0.1527809500694275,-0.6948577165603638,0.8165484070777893,0.17299915850162506,0.14705882966518402,-0.5121309161186218
5.703941583633423,0.15430685877799988,-0.692568838596344,0.8165484070777893,0.1813916265964508,0.15354390442371368,-0.5117494463920593
5.723981618881226,0.15468832850456238,-0.6929503083229065,0.8176928162574768,0.1806286722421646,0.15774014592170715,-0.509079098701477
5.744165897369385,0.15545128285884857,-0.6963835954666138,0.8169298768043518,0.1813916265964508,0.16079194843769073,-0.5113679766654968
5.764177322387695,0.15659570693969727,-0.699053943157196,0.813878059387207,0.17795833945274353,0.1653696447610855,-0.5113679766654968
5.784259796142578,0.15812161564826965,-0.7021057605743408,0.8104447722434998,0.16918440163135529,0.16231784224510193,-0.5140383243560791
5.804316759109497,0.15659570693969727,-0.7013428211212158,0.812352180480957,0.1665140837430954,0.15735866129398346,-0.5155642032623291
5.824396371841431,0.15506981313228607,-0.6960021257400513,0.8134965896606445,0.1680399775505066,0.1520180106163025,-0.5155642032623291
5.844475269317627,0.152399480342865,-0.689517080783844,0.8196002244949341,0.17414358258247375,0.15545128285884857,-0.5144197940826416
5.864520072937012,0.1508735716342926,-0.6906614899635315,0.8188372850418091,0.1813916265964508,0.15850308537483215,-0.5117494463920593
5.884626865386963,0.1504921019077301,-0.6887540817260742,0.8203631639480591,0.18711376190185547,0.16193637251853943,-0.509079098701477
5.90472149848938,0.1508735716342926,-0.691042959690094,0.8203631639480591,0.18673227727413177,0.16308079659938812,-0.5094605684280396
5.924803972244263,0.1508735716342926,-0.6944762468338013,0.8176928162574768,0.18558785319328308,0.16308079659938812,-0.5094605684280396
5.944876670837402,0.1527809500694275,-0.6963835954666138,0.811589241027832,0.17948424816131592,0.16231784224510193,-0.5094605684280396
5.964937925338745,0.15354390442371368,-0.6986724734306335,0.8104447722434998,0.17414358258247375,0.15545128285884857,-0.5144197940826416
5.985028982162476,0.15354390442371368,-0.697528064250946,0.812352180480957,0.17223620414733887,0.1527809500694275,-0.5136567950248718
6.005078077316284,0.15316243469715118,-0.690280020236969,0.8165484070777893,0.17605096101760864,0.15545128285884857,-0.5125123858451843
6.025167226791382,0.1520180106163025,-0.6818875670433044,0.8218890428543091,0.1817730963230133,0.15774014592170715,-0.5117494463920593
6.045244455337524,0.1520180106163025,-0.6872282028198242,0.8184558153152466,0.18711376190185547,0.15964750945568085,-0.5117494463920593
6.065338850021362,0.1512550562620163,-0.6876096725463867,0.8207446336746216,0.19130998849868774,0.1653696447610855,-0.507553219795227
6.085464000701904,0.1520180106163025,-0.692568838596344,0.8199816942214966,0.19054703414440155,0.1680399775505066,-0.509079098701477
6.1055006980896,0.152399480342865,-0.6952391862869263,0.8173113465309143,0.18863965570926666,0.1680399775505066,-0.509079098701477
6.1255879402160645,0.152399480342865,-0.699816882610321,0.8096818327903748,0.17872129380702972,0.1668955534696579,-0.5094605684280396
6.14563512802124,0.152399480342865,-0.699053943157196,0.8112077713012695,0.17376211285591125,0.15926603972911835,-0.5144197940826416
6.165729999542236,0.1520180106163025,-0.6956206560134888,0.813115119934082,0.17528800666332245,0.152399480342865,-0.5140383243560791
6.1858227252960205,0.1512550562620163,-0.6879911422729492,0.8188372850418091,0.17948424816131592,0.15506981313228607,-0.5121309161186218
6.205863952636719,0.1493476778268814,-0.6811245679855347,0.8230335116386414,0.18520638346672058,0.15812161564826965,-0.5117494463920593
6.225935697555542,0.14782176911830902,-0.6845578551292419,0.8199816942214966,0.19207294285297394,0.16117341816425323,-0.5102235674858093
6.246370792388916,0.14820325374603271,-0.690280020236969,0.8215075731277466,0.19474326074123383,0.16994735598564148,-0.5086976289749146
6.266443967819214,0.1489662081003189,-0.6948577165603638,0.8199816942214966,0.19245441257953644,0.17147326469421387,-0.5086976289749146
6.286509037017822,0.1504921019077301,-0.699053943157196,0.8146410584449768,0.18635080754756927,0.1676585078239441,-0.5094605684280396
6.306588172912598,0.1527809500694275,-0.7021057605743408,0.8096818327903748,0.17490653693675995,0.15812161564826965,-0.5128938555717468
6.326720714569092,0.152399480342865,-0.7009612917900085,0.810826301574707,0.17261768877506256,0.15545128285884857,-0.5132753252983093
6.34676718711853,0.152399480342865,-0.692568838596344,0.8157854676246643,0.17605096101760864,0.15392538905143738,-0.5128938555717468
6.36682915687561,0.1520180106163025,-0.6826505064964294,0.8230335116386414,0.182154580950737,0.15697719156742096,-0.5117494463920593
6.386926889419556,0.1512550562620163,-0.6799801588058472,0.8249408602714539,0.18863965570926666,0.16079194843769073,-0.5106050372123718
6.406972885131836,0.1493476778268814,-0.6815060377120972,0.8253223299980164,0.19512474536895752,0.1676585078239441,-0.5071717500686646
6.427105665206909,0.1497291475534439,-0.691042959690094,0.8218890428543091,0.1981765478849411,0.17872129380702972,-0.5071717500686646
6.447139263153076,0.1504921019077301,-0.6944762468338013,0.8207446336746216,0.19474326074123383,0.17719538509845734,-0.5071717500686646
6.467207193374634,0.1504921019077301,-0.6994354128837585,0.8154039978981018,0.1836804747581482,0.1684214472770691,-0.508316159248352
6.4872753620147705,0.1501106321811676,-0.7001983523368835,0.811589241027832,0.17185473442077637,0.1527809500694275,-0.5140383243560791
6.507341623306274,0.1497291475534439,-0.6979095339775085,0.813115119934082,0.17719538509845734,0.152399480342865,-0.5117494463920593
6.52738618850708,0.1493476778268814,-0.6872282028198242,0.8218890428543091,0.1813916265964508,0.15354390442371368,-0.5109865069389343
6.547466516494751,0.1493476778268814,-0.6765468716621399,0.8295185565948486,0.18520638346672058,0.15621423721313477,-0.5109865069389343
6.567548751831055,0.1489662081003189,-0.6723506450653076,0.8314259648323059,0.19054703414440155,0.15774014592170715,-0.5106050372123718
6.5876123905181885,0.1493476778268814,-0.6685358881950378,0.8360036611557007,0.19474326074123383,0.16079194843769073,-0.508316159248352
6.607736110687256,0.1493476778268814,-0.6723506450653076,0.8348592519760132,0.19550621509552002,0.1661325991153717,-0.509079098701477
6.627810478210449,0.1504921019077301,-0.6807430982589722,0.8314259648323059,0.19474326074123383,0.1684214472770691,-0.509079098701477
6.647914171218872,0.1504921019077301,-0.6868467330932617,0.8260852694511414,0.19321736693382263,0.1668955534696579,-0.5098420977592468
6.667970657348633,0.1504921019077301,-0.6921873688697815,0.8253223299980164,0.182154580950737,0.15812161564826965,-0.5121309161186218
6.688068389892578,0.1504921019077301,-0.6952391862869263,0.8234149813652039,0.1810101419687271,0.14820325374603271,-0.5144197940826416
6.708139181137085,0.1504921019077301,-0.6898985505104065,0.8249408602714539,0.182154580950737,0.14591439068317413,-0.5128938555717468
6.728208780288696,0.1501106321811676,-0.6887540817260742,0.8264667987823486,0.18635080754756927,0.14705882966518402,-0.5117494463920593
6.7482750415802,0.1501106321811676,-0.6857023239135742,0.8283741474151611,0.19550621509552002,0.15621423721313477,-0.5109865069389343
6.768311977386475,0.1508735716342926,-0.6906614899635315,0.8264667987823486,0.1970321238040924,0.15850308537483215,-0.5064088106155396
6.788400888442993,0.152399480342865,-0.6944762468338013,0.8257037997245789,0.1966506391763687,0.16308079659938812,-0.5086976289749146
6.808468341827393,0.1527809500694275,-0.6971465349197388,0.8241779208183289,0.19169145822525024,0.16422522068023682,-0.5079346895217896
6.828554153442383,0.1527809500694275,-0.699816882610321,0.8180742859840393,0.1836804747581482,0.16155488789081573,-0.5086976289749146
6.848626136779785,0.15354390442371368,-0.7036316394805908,0.8157854676246643,0.17605096101760864,0.1493476778268814,-0.5128938555717468
6.868696451187134,0.15354390442371368,-0.6994354128837585,0.8203631639480591,0.17643244564533234,0.14858472347259521,-0.5109865069389343
6.888765811920166,0.1527809500694275,-0.6914244294166565,0.8245593905448914,0.17986571788787842,0.1504921019077301,-0.5109865069389343
6.908805847167969,0.1520180106163025,-0.692568838596344,0.8230335116386414,0.1844434291124344,0.15354390442371368,-0.508316159248352
6.928884983062744,0.152399480342865,-0.6914244294166565,0.8237964510917664,0.19245441257953644,0.15888457000255585,-0.506027340888977
6.948953151702881,0.1527809500694275,-0.6948577165603638,0.8241779208183289,0.19092851877212524,0.16308079659938812,-0.5056458115577698
6.969023942947388,0.152399480342865,-0.699816882610321,0.8215075731277466,0.18787670135498047,0.16269932687282562,-0.5056458115577698
6.98909592628479,0.1527809500694275,-0.7032501697540283,0.8146410584449768,0.182917520403862,0.16269932687282562,-0.5056458115577698
7.009143590927124,0.1527809500694275,-0.7036316394805908,0.8154039978981018,0.17185473442077637,0.15583276748657227,-0.507553219795227
7.029230117797852,0.15354390442371368,-0.7043945789337158,0.8154039978981018,0.16956588625907898,0.14362554252147675,-0.5121309161186218
7.049287796020508,0.15354390442371368,-0.6956206560134888,0.8199816942214966,0.17185473442077637,0.14591439068317413,-0.5106050372123718
7.069371223449707,0.1527809500694275,-0.689517080783844,0.8241779208183289,0.17719538509845734,0.14782176911830902,-0.5086976289749146
7.0895795822143555,0.15316243469715118,-0.6914244294166565,0.8215075731277466,0.18520638346672058,0.15583276748657227,-0.507553219795227
7.109569549560547,0.15354390442371368,-0.693331778049469,0.8253223299980164,0.18940261006355286,0.1661325991153717,-0.5033569931983948
7.129631280899048,0.15354390442371368,-0.697528064250946,0.8237964510917664,0.19054703414440155,0.16880293190479279,-0.5045014023780823
7.149702310562134,0.15354390442371368,-0.7009612917900085,0.8196002244949341,0.18635080754756927,0.1668955534696579,-0.5048828721046448
7.16978120803833,0.15392538905143738,-0.7040131092071533,0.8142595291137695,0.17605096101760864,0.16269932687282562,-0.5064088106155396
7.189836502075195,0.15430685877799988,-0.7036316394805908,0.8150225281715393,0.17071031033992767,0.1527809500694275,-0.5106050372123718
7.210010766983032,0.15430685877799988,-0.6979095339775085,0.8176928162574768,0.17261768877506256,0.14667734503746033,-0.5106050372123718
7.2300286293029785,0.1520180106163025,-0.6891355514526367,0.8245593905448914,0.17757686972618103,0.1497291475534439,-0.5098420977592468
7.250157117843628,0.1512550562620163,-0.6837949156761169,0.8272297382354736,0.1844434291124344,0.15468832850456238,-0.508316159248352
7.270211696624756,0.1512550562620163,-0.6860837936401367,0.8272297382354736,0.19169145822525024,0.16002899408340454,-0.506027340888977
7.290226459503174,0.1516365259885788,-0.691805899143219,0.8253223299980164,0.19512474536895752,0.17071031033992767,-0.506027340888977
7.31033730506897,0.152399480342865,-0.6963835954666138,0.8234149813652039,0.19016556441783905,0.1661325991153717,-0.506027340888977
7.3304197788238525,0.152399480342865,-0.7009612917900085,0.8165484070777893,0.1817730963230133,0.16269932687282562,-0.507553219795227
7.350577116012573,0.1527809500694275,-0.7055390477180481,0.8112077713012695,0.17109178006649017,0.15545128285884857,-0.5128938555717468
7.370598077774048,0.1527809500694275,-0.7055390477180481,0.812352180480957,0.16918440163135529,0.14667734503746033,-0.5128938555717468
7.390988111495972,0.152399480342865,-0.6921873688697815,0.8203631639480591,0.17109178006649017,0.14553292095661163,-0.5121309161186218
7.411066293716431,0.1520180106163025,-0.6780728101730347,0.8279926776885986,0.17757686972618103,0.14705882966518402,-0.5117494463920593
7.431135654449463,0.1520180106163025,-0.6738765835762024,0.8325703740119934,0.1844434291124344,0.1512550562620163,-0.5106050372123718
7.451282739639282,0.1520180106163025,-0.6696802973747253,0.8371480703353882,0.19016556441783905,0.15812161564826965,-0.5071717500686646
7.4713170528411865,0.152399480342865,-0.6757839322090149,0.8352407217025757,0.19512474536895752,0.1665140837430954,-0.507553219795227
7.491395711898804,0.152399480342865,-0.6864652633666992,0.8302815556526184,0.19321736693382263,0.1676585078239441,-0.508316159248352
7.511494874954224,0.152399480342865,-0.699053943157196,0.8215075731277466,0.19016556441783905,0.1668955534696579,-0.5098420977592468
7.531583070755005,0.152399480342865,-0.7059205174446106,0.8184558153152466,0.182917520403862,0.164988175034523,-0.5113679766654968
7.55172061920166,0.152399480342865,-0.7127870321273804,0.813878059387207,0.16918440163135529,0.14782176911830902,-0.5170900821685791
7.5717644691467285,0.152399480342865,-0.7055390477180481,0.8215075731277466,0.17338064312934875,0.14782176911830902,-0.5148012638092041
7.591926097869873,0.1520180106163025,-0.6879911422729492,0.8257037997245789,0.17872129380702972,0.14858472347259521,-0.5117494463920593
7.612008571624756,0.1508735716342926,-0.6784542798995972,0.8272297382354736,0.18673227727413177,0.15506981313228607,-0.5113679766654968
7.6320531368255615,0.1489662081003189,-0.6677729487419128,0.8318074345588684,0.19512474536895752,0.16269932687282562,-0.5079346895217896
7.652134656906128,0.14820325374603271,-0.6689173579216003,0.8318074345588684,0.20695048570632935,0.17261768877506256,-0.509079098701477
7.67218279838562,0.14858472347259521,-0.6769283413887024,0.8264667987823486,0.20466163754463196,0.17643244564533234,-0.5052643418312073
7.692323446273804,0.14820325374603271,-0.6857023239135742,0.8218890428543091,0.2004653960466385,0.17452506721019745,-0.5056458115577698
7.71235466003418,0.1489662081003189,-0.6952391862869263,0.8169298768043518,0.18825818598270416,0.1646067053079605,-0.5056458115577698
7.732452392578125,0.1501106321811676,-0.7051575779914856,0.8096818327903748,0.17757686972618103,0.15316243469715118,-0.5113679766654968
7.752574920654297,0.1504921019077301,-0.7047760486602783,0.813115119934082,0.17414358258247375,0.14515145123004913,-0.5094605684280396
7.772636651992798,0.1504921019077301,-0.6879911422729492,0.8207446336746216,0.17566949129104614,0.13828489184379578,-0.5079346895217896
7.792760610580444,0.1501106321811676,-0.6723506450653076,0.8287556171417236,0.17948424816131592,0.14171816408634186,-0.507553219795227
7.812772035598755,0.1504921019077301,-0.6631952524185181,0.8333333134651184,0.1840619444847107,0.14705882966518402,-0.5048828721046448
7.832891941070557,0.1504921019077301,-0.655947208404541,0.839436948299408,0.19092851877212524,0.14744029939174652,-0.5018310546875
7.852992057800293,0.1504921019077301,-0.656710147857666,0.839436948299408,0.19474326074123383,0.15774014592170715,-0.5022125840187073
7.873028993606567,0.1512550562620163,-0.6601434350013733,0.837911069393158,0.19321736693382263,0.16041046380996704,-0.5014495849609375
7.893110990524292,0.1527809500694275,-0.6689173579216003,0.8299000263214111,0.19092851877212524,0.15621423721313477,-0.5022125840187073
7.913143873214722,0.15316243469715118,-0.6811245679855347,0.8257037997245789,0.18520638346672058,0.15545128285884857,-0.5045014023780823
7.933231353759766,0.15354390442371368,-0.692568838596344,0.8234149813652039,0.1813916265964508,0.15316243469715118,-0.5064088106155396
7.95331883430481,0.15430685877799988,-0.6914244294166565,0.8253223299980164,0.17833982408046722,0.14324407279491425,-0.5056458115577698
7.973422288894653,0.1527809500694275,-0.6841763854026794,0.8253223299980164,0.17833982408046722,0.1371404528617859,-0.5071717500686646
7.9934844970703125,0.1520180106163025,-0.6811245679855347,0.8302815556526184,0.1844434291124344,0.14248111844062805,-0.5045014023780823
8.013545036315918,0.1512550562620163,-0.6795986890792847,0.8314259648323059,0.19283588230609894,0.14820325374603271,-0.5033569931983948
8.033607959747314,0.1501106321811676,-0.6845578551292419,0.8302815556526184,0.19550621509552002,0.1512550562620163,-0.5029755234718323
8.053703308105469,0.1504921019077301,-0.6940947771072388,0.8272297382354736,0.1981765478849411,0.16079194843769073,-0.5025940537452698
8.073740005493164,0.152399480342865,-0.699816882610321,0.8249408602714539,0.1958876997232437,0.16308079659938812,-0.5025940537452698
8.093820810317993,0.15354390442371368,-0.700579822063446,0.8215075731277466,0.1848248988389969,0.15735866129398346,-0.5033569931983948
8.113876819610596,0.15430685877799988,-0.7013428211212158,0.8142595291137695,0.17414358258247375,0.14476996660232544,-0.5106050372123718
8.133960247039795,0.15354390442371368,-0.6971465349197388,0.8196002244949341,0.17643244564533234,0.14667734503746033,-0.5064088106155396
8.15454626083374,0.15316243469715118,-0.6898985505104065,0.8276112079620361,0.1832990050315857,0.152399480342865,-0.506790280342102
8.174768924713135,0.152399480342865,-0.6826505064964294,0.8348592519760132,0.19169145822525024,0.15888457000255585,-0.5052643418312073
8.194952249526978,0.152399480342865,-0.6815060377120972,0.8352407217025757,0.1974135935306549,0.16117341816425323,-0.5025940537452698
8.21489429473877,0.152399480342865,-0.6826505064964294,0.8371480703353882,0.20160982012748718,0.1657511293888092,-0.5045014023780823
8.235004663467407,0.152399480342865,-0.692568838596344,0.8325703740119934,0.20275425910949707,0.17452506721019745,-0.5025940537452698
8.25503659248352,0.1520180106163025,-0.6956206560134888,0.8310444951057434,0.2004653960466385,0.17566949129104614,-0.5014495849609375
8.275114297866821,0.1516365259885788,-0.7036316394805908,0.8222705721855164,0.18863965570926666,0.1680399775505066,-0.5025940537452698
8.295159578323364,0.1508735716342926,-0.7028687000274658,0.8211261034011841,0.1817730963230133,0.15545128285884857,-0.5056458115577698
8.315274477005005,0.1504921019077301,-0.697528064250946,0.8218890428543091,0.1825360506772995,0.1493476778268814,-0.5056458115577698
8.335327625274658,0.1501106321811676,-0.690280020236969,0.8295185565948486,0.18558785319328308,0.1512550562620163,-0.5041199326515198
8.355462789535522,0.1501106321811676,-0.6811245679855347,0.837911069393158,0.19321736693382263,0.15774014592170715,-0.5041199326515198
8.375584840774536,0.1501106321811676,-0.6822690367698669,0.837911069393158,0.1993209719657898,0.15812161564826965,-0.50030517578125
8.395605325698853,0.1497291475534439,-0.6853207945823669,0.837911069393158,0.20504310727119446,0.16384375095367432,-0.5014495849609375
8.415676593780518,0.1497291475534439,-0.692568838596344,0.8337147831916809,0.20771344006061554,0.17757686972618103,-0.5006866455078125
8.43572473526001,0.1504921019077301,-0.6986724734306335,0.8310444951057434,0.2004653960466385,0.17299915850162506,-0.5014495849609375
8.45583462715149,0.1501106321811676,-0.7024872303009033,0.8241779208183289,0.18787670135498047,0.16308079659938812,-0.5052643418312073
8.475902795791626,0.1501106321811676,-0.7047760486602783,0.8211261034011841,0.17833982408046722,0.1504921019077301,-0.5094605684280396
8.496008157730103,0.1504921019077301,-0.697528064250946,0.8253223299980164,0.1802472025156021,0.1493476778268814,-0.5079346895217896
8.516136884689331,0.1501106321811676,-0.6876096725463867,0.8329518437385559,0.182917520403862,0.1497291475534439,-0.5079346895217896
8.536164999008179,0.1501106321811676,-0.6795986890792847,0.839436948299408,0.18940261006355286,0.15354390442371368,-0.506790280342102
8.556228876113892,0.1501106321811676,-0.6769283413887024,0.8424887657165527,0.1958876997232437,0.15850308537483215,-0.5029755234718323
8.576284646987915,0.1501106321811676,-0.6807430982589722,0.8421072959899902,0.20199130475521088,0.16880293190479279,-0.5041199326515198
8.596355438232422,0.1504921019077301,-0.690280020236969,0.8375295400619507,0.20275425910949707,0.17566949129104614,-0.5037384629249573
8.616492748260498,0.1504921019077301,-0.7013428211212158,0.8306630253791809,0.200083926320076,0.17605096101760864,-0.5056458115577698
8.636529207229614,0.1504921019077301,-0.7093538045883179,0.8237964510917664,0.19245441257953644,0.17528800666332245,-0.507553219795227
8.656625270843506,0.1504921019077301,-0.7131685614585876,0.8218890428543091,0.17528800666332245,0.15850308537483215,-0.5109865069389343
8.676786184310913,0.1501106321811676,-0.7085908055305481,0.8196002244949341,0.17795833945274353,0.15545128285884857,-0.5148012638092041
8.696898937225342,0.1501106321811676,-0.6952391862869263,0.8279926776885986,0.1813916265964508,0.15812161564826965,-0.5079346895217896
8.71693730354309,0.1497291475534439,-0.6883726119995117,0.8287556171417236,0.19016556441783905,0.16269932687282562,-0.5094605684280396
8.737024784088135,0.14782176911830902,-0.6807430982589722,0.8337147831916809,0.1997024416923523,0.1684214472770691,-0.5056458115577698
8.757166385650635,0.14782176911830902,-0.6864652633666992,0.8299000263214111,0.21000228822231293,0.1836804747581482,-0.509079098701477
8.777239322662354,0.14858472347259521,-0.6948577165603638,0.8249408602714539,0.20733195543289185,0.18711376190185547,-0.506790280342102
8.797329425811768,0.14820325374603271,-0.7063019871711731,0.8173113465309143,0.20199130475521088,0.182154580950737,-0.5098420977592468
8.817363262176514,0.1493476778268814,-0.7127870321273804,0.8093003630638123,0.19054703414440155,0.17490653693675995,-0.5117494463920593
8.837501287460327,0.1508735716342926,-0.7196536064147949,0.8009079098701477,0.17071031033992767,0.15468832850456238,-0.5178530812263489
8.857555389404297,0.1504921019077301,-0.7146944403648376,0.7993820309638977,0.17376211285591125,0.15774014592170715,-0.5197604298591614
8.877794742584229,0.1504921019077301,-0.6967650651931763,0.8062485456466675,0.17414358258247375,0.15697719156742096,-0.5178530812263489
8.897769451141357,0.1493476778268814,-0.6792172193527222,0.8112077713012695,0.1832990050315857,0.16117341816425323,-0.5201418995857239
8.917819738388062,0.1489662081003189,-0.6647211313247681,0.812352180480957,0.18863965570926666,0.1684214472770691,-0.5205233693122864
8.937885761260986,0.14820325374603271,-0.6643396615982056,0.811589241027832,0.200083926320076,0.17605096101760864,-0.5224307775497437
8.95792841911316,0.14820325374603271,-0.6712062358856201,0.8077744841575623,0.20618753135204315,0.18787670135498047,-0.5224307775497437
8.978046655654907,0.1493476778268814,-0.6776912808418274,0.8031967878341675,0.20237277448177338,0.182917520403862,-0.5228122472763062
8.998108863830566,0.14858472347259521,-0.6853207945823669,0.8001449704170227,0.19054703414440155,0.17223620414733887,-0.5235751867294312
9.018178224563599,0.14858472347259521,-0.6929503083229065,0.7936598658561707,0.17833982408046722,0.15545128285884857,-0.5308232307434082
9.038256883621216,0.14820325374603271,-0.6914244294166565,0.7936598658561707,0.17948424816131592,0.1497291475534439,-0.5292973518371582
9.058322429656982,0.14782176911830902,-0.6776912808418274,0.8024337887763977,0.182917520403862,0.14629587531089783,-0.5292973518371582
9.078389883041382,0.14744029939174652,-0.6624323129653931,0.8142595291137695,0.18825818598270416,0.14476996660232544,-0.5300602912902832
9.098556995391846,0.14705882966518402,-0.654421329498291,0.8199816942214966,0.1958876997232437,0.1497291475534439,-0.5289158225059509
9.118619203567505,0.14591439068317413,-0.6475547552108765,0.8257037997245789,0.1993209719657898,0.1501106321811676,-0.5251010656356812
9.13869023323059,0.14553292095661163,-0.647936224937439,0.8264667987823486,0.20389868319034576,0.15774014592170715,-0.5273899435997009
9.158758640289307,0.14591439068317413,-0.6517509818077087,0.8245593905448914,0.20504310727119446,0.16117341816425323,-0.5270084738731384
9.178832292556763,0.14591439068317413,-0.6612878441810608,0.8180742859840393,0.20466163754463196,0.16041046380996704,-0.5292973518371582
9.198967695236206,0.14667734503746033,-0.6731135845184326,0.8142595291137695,0.1974135935306549,0.15774014592170715,-0.5312047004699707
9.219060182571411,0.1501106321811676,-0.6826505064964294,0.8127336502075195,0.19245441257953644,0.1504921019077301,-0.5319676399230957
9.239109516143799,0.1512550562620163,-0.6811245679855347,0.8142595291137695,0.19054703414440155,0.14400701224803925,-0.5300602912902832
9.25918984413147,0.1512550562620163,-0.6769283413887024,0.8150225281715393,0.19092851877212524,0.14095520973205566,-0.5300602912902832
9.279338359832764,0.1501106321811676,-0.6761654019355774,0.8192187547683716,0.1993209719657898,0.1508735716342926,-0.5262455344200134
9.299362659454346,0.1504921019077301,-0.6776912808418274,0.8196002244949341,0.20809490978717804,0.15621423721313477,-0.5220493078231812
9.319437026977539,0.1504921019077301,-0.6795986890792847,0.8192187547683716,0.20923933386802673,0.15888457000255585,-0.5201418995857239
9.33948564529419,0.1508735716342926,-0.6841763854026794,0.8192187547683716,0.20504310727119446,0.16231784224510193,-0.5197604298591614
9.359567403793335,0.15316243469715118,-0.6876096725463867,0.8142595291137695,0.20275425910949707,0.16117341816425323,-0.5201418995857239
9.379722595214844,0.15316243469715118,-0.6921873688697815,0.8119707107543945,0.19130998849868774,0.15697719156742096,-0.5201418995857239
9.399746894836426,0.15354390442371368,-0.6952391862869263,0.8093003630638123,0.1848248988389969,0.14629587531089783,-0.5228122472763062
9.419817447662354,0.15354390442371368,-0.691042959690094,0.8134965896606445,0.182917520403862,0.14324407279491425,-0.5201418995857239
9.440020084381104,0.1520180106163025,-0.6891355514526367,0.8134965896606445,0.18787670135498047,0.14553292095661163,-0.5189974904060364
9.460105895996094,0.1516365259885788,-0.6864652633666992,0.8165484070777893,0.1974135935306549,0.1512550562620163,-0.5170900821685791
