liuyurong129/humanoid-gym/humanoid/data/actual_q_20250522-053933.csv
timestamp,joint_1,joint_2,joint_3,joint_4,joint_5,joint_6
0.0002009868621826172,0.000572213320992887,0.17032882571220398,-0.0864042118191719,0.00019073777366429567,0.00019073777366429567,-0.000572213320992887
0.02028942108154297,0.000572213320992887,0.14858472347259521,-0.07610437273979187,0.00019073777366429567,-0.002861066721379757,-0.000572213320992887
0.04033780097961426,-0.00019073777366429567,0.12417028844356537,-0.06504157930612564,0.00019073777366429567,0.0013351644156500697,-0.000572213320992887
0.06041240692138672,0.00019073777366429567,0.10929274559020996,-0.05893797054886818,-0.00019073777366429567,0.0009536888683214784,-0.000572213320992887
0.08048105239868164,0.00019073777366429567,0.09975585341453552,-0.05283436179161072,-0.00019073777366429567,0.000572213320992887,-0.000572213320992887
0.10052871704101562,0.00019073777366429567,0.09479667246341705,-0.050164032727479935,0.00019073777366429567,0.000572213320992887,-0.000572213320992887
0.12084126472473145,-0.00019073777366429567,0.09327077120542526,-0.04787518084049225,0.00019073777366429567,0.000572213320992887,-0.000572213320992887
0.14092350006103516,-0.00019073777366429567,0.09365224838256836,-0.04787518084049225,0.00019073777366429567,0.000572213320992887,-0.000572213320992887
0.16099882125854492,-0.00019073777366429567,0.09288929402828217,-0.04787518084049225,0.00019073777366429567,0.000572213320992887,-0.000572213320992887
0.18105053901672363,-0.000572213320992887,0.09098191559314728,-0.048256658017635345,0.00019073777366429567,0.00019073777366429567,-0.000572213320992887
0.2011406421661377,-0.000572213320992887,0.08907453715801239,-0.048256658017635345,0.00019073777366429567,0.00019073777366429567,-0.000572213320992887
0.22124266624450684,-0.0013351644156500697,0.0883115902543068,-0.04749370738863945,0.00019073777366429567,0.00019073777366429567,-0.000572213320992887
0.24127864837646484,-0.0024795911740511656,0.0883115902543068,-0.04711223021149635,0.000572213320992887,0.00019073777366429567,-0.000572213320992887
0.2613673210144043,-0.0036240178160369396,0.0871671661734581,-0.046730753034353256,0.000572213320992887,0.00019073777366429567,-0.000572213320992887
0.2814302444458008,-0.004386968910694122,0.08602273464202881,-0.04634927958250046,0.0009536888683214784,-0.00019073777366429567,-0.000572213320992887
0.30150651931762695,-0.005149920005351305,0.08564125746488571,-0.04634927958250046,0.0009536888683214784,-0.00019073777366429567,-0.000572213320992887
0.32163238525390625,-0.005531395319849253,0.08487831056118011,-0.04596780240535736,0.0013351644156500697,-0.00019073777366429567,-0.000572213320992887
0.341724157333374,-0.005912871100008488,0.08373387902975082,-0.04558632895350456,0.001716639962978661,-0.000572213320992887,-0.000572213320992887
0.36179637908935547,-0.00667582219466567,0.08297093212604523,-0.045204851776361465,0.0020981156267225742,-0.000572213320992887,-0.000572213320992887
0.3818361759185791,-0.0078202486038208,0.08182650804519653,-0.045204851776361465,0.0024795911740511656,-0.000572213320992887,-0.000572213320992887
0.4018988609313965,-0.0078202486038208,0.08030059933662415,-0.04482337832450867,0.002861066721379757,-0.0009536888683214784,-0.000572213320992887
0.42197561264038086,-0.008201723918318748,0.07953765243291855,-0.04444190114736557,0.0032425422687083483,-0.0013351644156500697,-0.000572213320992887
0.4420204162597656,-0.008964675478637218,0.07839322835206985,-0.04406042397022247,0.0032425422687083483,-0.0013351644156500697,-0.000572213320992887
0.4621009826660156,-0.009727626107633114,0.07763027399778366,-0.043678950518369675,0.0036240178160369396,-0.0013351644156500697,-0.000572213320992887
0.4822540283203125,-0.010490577667951584,0.07648584991693497,-0.04329747334122658,0.0036240178160369396,-0.0020981156267225742,-0.000572213320992887
0.5022528171539307,-0.011635004542768002,0.07534141838550568,-0.04291599988937378,0.004005493130534887,-0.0024795911740511656,-0.000572213320992887
0.5223128795623779,-0.01201647985726595,0.07457847148180008,-0.04291599988937378,0.004005493130534887,-0.0024795911740511656,-0.000572213320992887
0.5424847602844238,-0.012779430486261845,0.07343403995037079,-0.04291599988937378,0.004386968910694122,-0.0032425422687083483,-0.000572213320992887
0.5625021457672119,-0.013923857361078262,0.07267109304666519,-0.042153049260377884,0.004386968910694122,-0.0036240178160369396,-0.000572213320992887
0.5825672149658203,-0.014686808921396732,0.071908138692379,-0.04177157208323479,0.00476844422519207,-0.0036240178160369396,-0.000572213320992887
0.6027748584747314,-0.01506828423589468,0.0711451917886734,-0.04139009863138199,0.005149920005351305,-0.004005493130534887,-0.000572213320992887
0.6228811740875244,-0.01506828423589468,0.07000076025724411,-0.04100862145423889,0.006294346414506435,-0.004005493130534887,-0.000572213320992887
0.642927885055542,-0.015449759550392628,0.06923781335353851,-0.040627144277095795,0.007057297509163618,-0.004386968910694122,-0.000572213320992887
0.6630628108978271,-0.016975661739706993,0.06809338182210922,-0.0398641936480999,0.007057297509163618,-0.004386968910694122,-0.000572213320992887
0.683107852935791,-0.018120087683200836,0.06694895774126053,-0.0394827201962471,0.007438773289322853,-0.005149920005351305,-0.000572213320992887
0.7032325267791748,-0.01888304017484188,0.06618601083755493,-0.039101243019104004,0.007438773289322853,-0.006294346414506435,-0.000572213320992887
0.7233157157897949,-0.019645990803837776,0.06504157930612564,-0.038719769567251205,0.007438773289322853,-0.00667582219466567,-0.000572213320992887
0.7433834075927734,-0.020027466118335724,0.06389715522527695,-0.038719769567251205,0.0078202486038208,-0.007057297509163618,-0.000572213320992887
0.763434886932373,-0.021171892061829567,0.06313420087099075,-0.038719769567251205,0.008201723918318748,-0.007057297509163618,-0.000572213320992887
0.783515453338623,-0.02193484455347061,0.06160829961299896,-0.03833829239010811,0.008201723918318748,-0.007057297509163618,-0.000572213320992887
0.8036515712738037,-0.02231631986796856,0.06046387553215027,-0.03757534176111221,0.008964675478637218,-0.007438773289322853,-0.000572213320992887
0.8237996101379395,-0.02231631986796856,0.06008239835500717,-0.03681239113211632,0.009346150793135166,-0.007438773289322853,-0.000572213320992887
0.8437895774841309,-0.022697795182466507,0.05893797054886818,-0.03643091395497322,0.010490577667951584,-0.0078202486038208,-0.000572213320992887
0.8638763427734375,-0.023460745811462402,0.05741206929087639,-0.035667963325977325,0.010872052982449532,-0.0078202486038208,-0.000572213320992887
0.8839788436889648,-0.024605173617601395,0.056267641484737396,-0.035667963325977325,0.010872052982449532,-0.0078202486038208,-0.000572213320992887
0.9040131568908691,-0.02536812424659729,0.0555046908557415,-0.03528648987412453,0.01125352829694748,-0.0078202486038208,-0.000572213320992887
0.9241209030151367,-0.026131074875593185,0.054741740226745605,-0.03528648987412453,0.011635004542768002,-0.008201723918318748,-0.000572213320992887
0.9441993236541748,-0.02727550081908703,0.05359731614589691,-0.03452353551983833,0.011635004542768002,-0.008201723918318748,-0.000572213320992887
0.9644360542297363,-0.027656977996230125,0.05283436179161072,-0.034142062067985535,0.01201647985726595,-0.008201723918318748,-0.0009536888683214784
0.9844660758972168,-0.02841992862522602,0.051689937710762024,-0.03337911143898964,0.012397955171763897,-0.008964675478637218,-0.000572213320992887
1.0044770240783691,-0.029182879254221916,0.05054550990462303,-0.03337911143898964,0.012779430486261845,-0.010109102353453636,-0.000572213320992887
1.0247175693511963,-0.029564354568719864,0.04940108209848404,-0.03299763426184654,0.01430533267557621,-0.010872052982449532,-0.000572213320992887
1.044748067855835,-0.029564354568719864,0.048638131469488144,-0.032616160809993744,0.014686808921396732,-0.011635004542768002,-0.0009536888683214784
1.0647780895233154,-0.029564354568719864,0.04711223021149635,-0.032616160809993744,0.014686808921396732,-0.012397955171763897,-0.000572213320992887
1.0850551128387451,-0.031090257689356804,0.04596780240535736,-0.03185320645570755,0.01506828423589468,-0.014686808921396732,-0.000572213320992887
1.1051764488220215,-0.03185320645570755,0.04444190114736557,-0.03147173300385475,0.01506828423589468,-0.014686808921396732,-0.000572213320992887
1.1253480911254883,-0.03299763426184654,0.04291599988937378,-0.031090257689356804,0.01583123579621315,-0.01506828423589468,-0.000572213320992887
1.1454720497131348,-0.03452353551983833,0.04139009863138199,-0.03032730519771576,0.016212711110711098,-0.01506828423589468,-0.0009536888683214784
1.165522575378418,-0.03604944050312042,0.040245670825242996,-0.029564354568719864,0.01735713705420494,-0.01506828423589468,-0.000572213320992887
1.1856489181518555,-0.03681239113211632,0.0394827201962471,-0.029182879254221916,0.018501564860343933,-0.01583123579621315,-0.000572213320992887
1.2057373523712158,-0.03681239113211632,0.03795681521296501,-0.02841992862522602,0.01888304017484188,-0.016975661739706993,-0.0009536888683214784
1.2258036136627197,-0.03681239113211632,0.037193864583969116,-0.028038453310728073,0.01888304017484188,-0.018120087683200836,-0.0009536888683214784
1.2464911937713623,-0.037193864583969116,0.035667963325977325,-0.027656977996230125,0.01926451548933983,-0.018120087683200836,-0.0009536888683214784
1.2666151523590088,-0.03795681521296501,0.034142062067985535,-0.02689402550458908,0.01926451548933983,-0.01773861236870289,-0.0009536888683214784
1.2867026329040527,-0.038719769567251205,0.03337911143898964,-0.026512550190091133,0.019645990803837776,-0.01773861236870289,-0.0009536888683214784
1.306828498840332,-0.0398641936480999,0.03223468363285065,-0.026512550190091133,0.020027466118335724,-0.018120087683200836,-0.0009536888683214784
1.326913833618164,-0.04100862145423889,0.031090257689356804,-0.025749599561095238,0.021171892061829567,-0.018120087683200836,-0.0009536888683214784
1.3469865322113037,-0.04177157208323479,0.02994582988321781,-0.024986648932099342,0.02193484455347061,-0.018120087683200836,-0.0009536888683214784
1.3670437335968018,-0.04177157208323479,0.02880140393972397,-0.024605173617601395,0.02231631986796856,-0.018120087683200836,-0.0009536888683214784
1.3871536254882812,-0.04253452271223068,0.02727550081908703,-0.024223696440458298,0.02231631986796856,-0.01926451548933983,-0.0009536888683214784
1.407442331314087,-0.04329747334122658,0.026131074875593185,-0.02384222112596035,0.022697795182466507,-0.01888304017484188,-0.0013351644156500697
1.427382230758667,-0.04406042397022247,0.024986648932099342,-0.023079270496964455,0.023079270496964455,-0.01888304017484188,-0.0013351644156500697
1.4474732875823975,-0.04482337832450867,0.023460745811462402,-0.022697795182466507,0.02384222112596035,-0.01926451548933983,-0.0020981156267225742
1.4676482677459717,-0.04596780240535736,0.02193484455347061,-0.02193484455347061,0.024223696440458298,-0.01926451548933983,-0.0024795911740511656
1.4878132343292236,-0.04634927958250046,0.021171892061829567,-0.021553369238972664,0.024986648932099342,-0.01926451548933983,-0.0024795911740511656
1.5078785419464111,-0.04711223021149635,0.020027466118335724,-0.021171892061829567,0.025749599561095238,-0.019645990803837776,-0.0024795911740511656
1.5280139446258545,-0.048256658017635345,0.018120087683200836,-0.02079041674733162,0.025749599561095238,-0.019645990803837776,-0.0024795911740511656
1.5480883121490479,-0.04901960864663124,0.01735713705420494,-0.02040894143283367,0.026131074875593185,-0.02040894143283367,-0.0024795911740511656
1.5681462287902832,-0.04940108209848404,0.016594186425209045,-0.020027466118335724,0.026131074875593185,-0.021171892061829567,-0.0024795911740511656
1.5882337093353271,-0.05054550990462303,0.015449759550392628,-0.020027466118335724,0.026512550190091133,-0.022697795182466507,-0.0024795911740511656
1.6083018779754639,-0.05130846053361893,0.013923857361078262,-0.01888304017484188,0.026512550190091133,-0.023460745811462402,-0.0024795911740511656
1.628404140472412,-0.05130846053361893,0.013160906732082367,-0.018501564860343933,0.02689402550458908,-0.02384222112596035,-0.0024795911740511656
1.6484782695770264,-0.051689937710762024,0.01125352829694748,-0.018120087683200836,0.02727550081908703,-0.024986648932099342,-0.0024795911740511656
1.6685969829559326,-0.05245288833975792,0.009727626107633114,-0.01735713705420494,0.027656977996230125,-0.024986648932099342,-0.002861066721379757
1.688654899597168,-0.05359731614589691,0.008201723918318748,-0.016975661739706993,0.02841992862522602,-0.024605173617601395,-0.002861066721379757
1.7086963653564453,-0.05436026677489281,0.005912871100008488,-0.016594186425209045,0.029564354568719864,-0.024605173617601395,-0.002861066721379757
1.7287952899932861,-0.0558861680328846,0.00476844422519207,-0.016212711110711098,0.02994582988321781,-0.024986648932099342,-0.002861066721379757
1.7488563060760498,-0.05664911866188049,0.0036240178160369396,-0.015449759550392628,0.03032730519771576,-0.02536812424659729,-0.002861066721379757
1.768937110900879,-0.05664911866188049,0.002861066721379757,-0.014686808921396732,0.030708782374858856,-0.026131074875593185,-0.002861066721379757
1.789191722869873,-0.057793546468019485,0.001716639962978661,-0.013923857361078262,0.03147173300385475,-0.026131074875593185,-0.002861066721379757
1.8092834949493408,-0.05855649709701538,-0.00019073777366429567,-0.013160906732082367,0.03185320645570755,-0.026131074875593185,-0.002861066721379757
1.8293981552124023,-0.05893797054886818,-0.0013351644156500697,-0.01201647985726595,0.03299763426184654,-0.026131074875593185,-0.002861066721379757
1.849445104598999,-0.05893797054886818,-0.002861066721379757,-0.01201647985726595,0.03376058489084244,-0.026131074875593185,-0.002861066721379757
1.8695180416107178,-0.06008239835500717,-0.004386968910694122,-0.011635004542768002,0.03376058489084244,-0.026131074875593185,-0.002861066721379757
1.8895845413208008,-0.06084534898400307,-0.005912871100008488,-0.010872052982449532,0.034142062067985535,-0.026131074875593185,-0.0032425422687083483
1.909644603729248,-0.06160829961299896,-0.007057297509163618,-0.010490577667951584,0.034142062067985535,-0.02689402550458908,-0.002861066721379757
1.9297707080841064,-0.06313420087099075,-0.008964675478637218,-0.009727626107633114,0.03452353551983833,-0.02689402550458908,-0.0032425422687083483
1.9499244689941406,-0.06389715522527695,-0.010872052982449532,-0.009346150793135166,0.03490501269698143,-0.02727550081908703,-0.0032425422687083483
1.9700655937194824,-0.06466010212898254,-0.01201647985726595,-0.00858320016413927,0.03604944050312042,-0.028038453310728073,-0.0032425422687083483
1.9900879859924316,-0.06618601083755493,-0.013923857361078262,-0.0078202486038208,0.037193864583969116,-0.02880140393972397,-0.002861066721379757
2.010176420211792,-0.06656748056411743,-0.016594186425209045,-0.00667582219466567,0.03757534176111221,-0.02994582988321781,-0.0032425422687083483
2.0302329063415527,-0.06694895774126053,-0.01773861236870289,-0.006294346414506435,0.03795681521296501,-0.030708782374858856,-0.0032425422687083483
2.050307512283325,-0.06733043491840363,-0.01888304017484188,-0.005912871100008488,0.03833829239010811,-0.03185320645570755,-0.0032425422687083483
2.0704877376556396,-0.06847485899925232,-0.021171892061829567,-0.005531395319849253,0.039101243019104004,-0.032616160809993744,-0.0032425422687083483
2.090583086013794,-0.06923781335353851,-0.023460745811462402,-0.004386968910694122,0.040245670825242996,-0.03337911143898964,-0.0032425422687083483
2.110649347305298,-0.07000076025724411,-0.024986648932099342,-0.004005493130534887,0.04177157208323479,-0.03376058489084244,-0.0032425422687083483
2.1307151317596436,-0.0711451917886734,-0.026512550190091133,-0.0032425422687083483,0.04177157208323479,-0.03490501269698143,-0.0032425422687083483
2.1507883071899414,-0.0722896158695221,-0.029564354568719864,-0.0020981156267225742,0.04177157208323479,-0.03490501269698143,-0.0032425422687083483
2.1708736419677734,-0.07343403995037079,-0.03185320645570755,-0.0013351644156500697,0.042153049260377884,-0.03490501269698143,-0.0032425422687083483
2.190965175628662,-0.07305257022380829,-0.03376058489084244,-0.00019073777366429567,0.043678950518369675,-0.03528648987412453,-0.0032425422687083483
2.2116031646728516,-0.07305257022380829,-0.03604944050312042,0.000572213320992887,0.045204851776361465,-0.03681239113211632,-0.0032425422687083483
2.2316792011260986,-0.07381551712751389,-0.03795681521296501,0.0013351644156500697,0.045204851776361465,-0.037193864583969116,-0.0032425422687083483
2.2517712116241455,-0.07457847148180008,-0.0394827201962471,0.0024795911740511656,0.04596780240535736,-0.03757534176111221,-0.0036240178160369396
2.2718076705932617,-0.07534141838550568,-0.04100862145423889,0.002861066721379757,0.04634927958250046,-0.03757534176111221,-0.0036240178160369396
2.29189133644104,-0.07648584991693497,-0.04291599988937378,0.0036240178160369396,0.04787518084049225,-0.03795681521296501,-0.0036240178160369396
2.311958074569702,-0.07724879682064056,-0.045204851776361465,0.00476844422519207,0.04901960864663124,-0.040627144277095795,-0.0036240178160369396
2.332036256790161,-0.07839322835206985,-0.046730753034353256,0.005531395319849253,0.04940108209848404,-0.04177157208323479,-0.0036240178160369396
2.3521976470947266,-0.07915617525577545,-0.04901960864663124,0.00667582219466567,0.049782559275627136,-0.04291599988937378,-0.0036240178160369396
2.372281551361084,-0.07991912961006165,-0.05130846053361893,0.008201723918318748,0.050164032727479935,-0.04329747334122658,-0.0036240178160369396
2.3923397064208984,-0.08068207651376724,-0.05436026677489281,0.008964675478637218,0.05207141116261482,-0.043678950518369675,-0.0036240178160369396
2.412396192550659,-0.08106355369091034,-0.05703059583902359,0.009727626107633114,0.05245288833975792,-0.04444190114736557,-0.0036240178160369396
2.4324796199798584,-0.08182650804519653,-0.059319447726011276,0.010872052982449532,0.05245288833975792,-0.04444190114736557,-0.0036240178160369396
2.452630043029785,-0.08258945494890213,-0.06084534898400307,0.011635004542768002,0.05283436179161072,-0.04406042397022247,-0.004005493130534887
2.472665548324585,-0.08335240930318832,-0.06198977679014206,0.012397955171763897,0.053215838968753815,-0.04482337832450867,-0.004005493130534887
2.492792844772339,-0.08487831056118011,-0.06389715522527695,0.013160906732082367,0.05359731614589691,-0.04482337832450867,-0.004005493130534887
2.512911319732666,-0.08564125746488571,-0.06580453366041183,0.01430533267557621,0.05436026677489281,-0.04482337832450867,-0.004005493130534887
2.5329742431640625,-0.0864042118191719,-0.06847485899925232,0.01506828423589468,0.0558861680328846,-0.04558632895350456,-0.004386968910694122
2.5530779361724854,-0.0875486359000206,-0.0711451917886734,0.016212711110711098,0.05664911866188049,-0.04558632895350456,-0.004386968910694122
2.5736083984375,-0.0875486359000206,-0.07343403995037079,0.01735713705420494,0.05703059583902359,-0.04634927958250046,-0.00476844422519207
2.593761682510376,-0.0875486359000206,-0.07572289556264877,0.018120087683200836,0.059319447726011276,-0.04787518084049225,-0.005149920005351305
2.6138570308685303,-0.0875486359000206,-0.07724879682064056,0.019645990803837776,0.06008239835500717,-0.048638131469488144,-0.005531395319849253
2.6338918209075928,-0.0883115902543068,-0.08030059933662415,0.02079041674733162,0.06008239835500717,-0.04901960864663124,-0.005912871100008488
2.6539762020111084,-0.08907453715801239,-0.08258945494890213,0.02231631986796856,0.06046387553215027,-0.04901960864663124,-0.005912871100008488
2.6740782260894775,-0.09021896868944168,-0.08449683338403702,0.023079270496964455,0.061226826161146164,-0.050164032727479935,-0.005912871100008488
2.6941535472869873,-0.09098191559314728,-0.0864042118191719,0.02384222112596035,0.06275273114442825,-0.05054550990462303,-0.006294346414506435
2.7142295837402344,-0.09212634712457657,-0.0883115902543068,0.024605173617601395,0.06427863240242004,-0.05130846053361893,-0.005912871100008488
2.7343151569366455,-0.09288929402828217,-0.08945601433515549,0.025749599561095238,0.06427863240242004,-0.051689937710762024,-0.006294346414506435
2.7551422119140625,-0.09365224838256836,-0.09098191559314728,0.026512550190091133,0.06504157930612564,-0.05245288833975792,-0.006294346414506435
2.775221824645996,-0.09479667246341705,-0.09403372555971146,0.028038453310728073,0.06733043491840363,-0.053215838968753815,-0.006294346414506435
2.7953484058380127,-0.09517814964056015,-0.09670405089855194,0.02880140393972397,0.06809338182210922,-0.05245288833975792,-0.006294346414506435
2.8153436183929443,-0.09517814964056015,-0.09899290651082993,0.02994582988321781,0.06809338182210922,-0.053215838968753815,-0.006294346414506435
2.8354086875915527,-0.09594109654426575,-0.10166323184967041,0.031090257689356804,0.06923781335353851,-0.053215838968753815,-0.006294346414506435
2.855496406555176,-0.09708552807569504,-0.1039520874619484,0.03299763426184654,0.0707637146115303,-0.05283436179161072,-0.006294346414506435
2.875565528869629,-0.09784847497940063,-0.10547798871994019,0.034142062067985535,0.0715266615152359,-0.053215838968753815,-0.006294346414506435
2.8956217765808105,-0.09899290651082993,-0.10738536715507507,0.035667963325977325,0.0715266615152359,-0.05397878959774971,-0.006294346414506435
2.9157228469848633,-0.10013733059167862,-0.11043716967105865,0.03757534176111221,0.0722896158695221,-0.0555046908557415,-0.006294346414506435
2.9357798099517822,-0.10090028494596481,-0.11387044936418533,0.039101243019104004,0.07419699430465698,-0.05703059583902359,-0.00667582219466567
2.955839157104492,-0.10204470902681351,-0.11730372905731201,0.040245670825242996,0.07534141838550568,-0.05855649709701538,-0.006294346414506435
2.975961446762085,-0.1024261862039566,-0.1203555315732956,0.042153049260377884,0.07610437273979187,-0.06084534898400307,-0.00667582219466567
2.9959990978240967,-0.1024261862039566,-0.12188144028186798,0.04329747334122658,0.07686731964349747,-0.06198977679014206,-0.00667582219466567
3.016056537628174,-0.1031891331076622,-0.12455176562070847,0.04482337832450867,0.07877469807863235,-0.06313420087099075,-0.00667582219466567
3.036137819290161,-0.1039520874619484,-0.12760357558727264,0.04596780240535736,0.07877469807863235,-0.06313420087099075,-0.00667582219466567
3.0562198162078857,-0.10509651154279709,-0.13103684782981873,0.048638131469488144,0.07953765243291855,-0.06313420087099075,-0.00667582219466567
3.0763235092163086,-0.10547798871994019,-0.134470134973526,0.049782559275627136,0.08030059933662415,-0.06427863240242004,-0.00667582219466567
3.096355676651001,-0.10624094307422638,-0.1367589831352234,0.051689937710762024,0.08220797777175903,-0.06542305648326874,-0.007057297509163618
3.116511344909668,-0.10700388997793198,-0.13866636157035828,0.05397878959774971,0.08297093212604523,-0.06771191209554672,-0.00667582219466567
3.1367671489715576,-0.10814831405878067,-0.14095520973205566,0.0555046908557415,0.08297093212604523,-0.06809338182210922,-0.007057297509163618
3.1568315029144287,-0.10929274559020996,-0.14248111844062805,0.05664911866188049,0.08411535620689392,-0.06961929053068161,-0.007057297509163618
3.1768579483032227,-0.10929274559020996,-0.14476996660232544,0.05855649709701538,0.08602273464202881,-0.07038223743438721,-0.007057297509163618
3.1969707012176514,-0.10967422276735306,-0.14820325374603271,0.06046387553215027,0.086785688996315,-0.0711451917886734,-0.007057297509163618
3.2171597480773926,-0.10967422276735306,-0.1520180106163025,0.06160829961299896,0.086785688996315,-0.0711451917886734,-0.007057297509163618
3.23714542388916,-0.11043716967105865,-0.15506981313228607,0.06275273114442825,0.0879301130771637,-0.0711451917886734,-0.007057297509163618
3.257181167602539,-0.11158160120248795,-0.15812161564826965,0.06504157930612564,0.08945601433515549,-0.0711451917886734,-0.007057297509163618
3.27724289894104,-0.11196307092905045,-0.16002899408340454,0.06656748056411743,0.09060044586658478,-0.071908138692379,-0.007057297509163618
3.2973110675811768,-0.11272602528333664,-0.16384375095367432,0.06885633617639542,0.09098191559314728,-0.07267109304666519,-0.007438773289322853
3.3173742294311523,-0.11387044936418533,-0.1672770231962204,0.0707637146115303,0.09250781685113907,-0.07381551712751389,-0.007438773289322853
3.3374760150909424,-0.11501488089561462,-0.17071031033992767,0.07305257022380829,0.09441519528627396,-0.07534141838550568,-0.007438773289322853
3.3576061725616455,-0.11615930497646332,-0.17376211285591125,0.07534141838550568,0.09517814964056015,-0.07610437273979187,-0.0078202486038208
3.3776304721832275,-0.11654078215360641,-0.17757686972618103,0.07801175117492676,0.09632257372140884,-0.07763027399778366,-0.0078202486038208
3.397749423980713,-0.11654078215360641,-0.17986571788787842,0.08068207651376724,0.09784847497940063,-0.07877469807863235,-0.0078202486038208
3.4178595542907715,-0.11692225188016891,-0.182154580950737,0.08297093212604523,0.09822995215654373,-0.07953765243291855,-0.0078202486038208
3.437852621078491,-0.11692225188016891,-0.1840619444847107,0.08411535620689392,0.10051880776882172,-0.07953765243291855,-0.008201723918318748
3.457930088043213,-0.11768520623445511,-0.18635080754756927,0.08602273464202881,0.1028076633810997,-0.07877469807863235,-0.008201723918318748
3.4780352115631104,-0.1188296303153038,-0.18978407979011536,0.0883115902543068,0.10433356463909149,-0.07877469807863235,-0.00858320016413927
3.4980902671813965,-0.11959258466959,-0.19283588230609894,0.08983749151229858,0.10509651154279709,-0.07877469807863235,-0.00858320016413927
3.5181825160980225,-0.12111848592758179,-0.19512474536895752,0.09174486994743347,0.10509651154279709,-0.08030059933662415,-0.00858320016413927
3.538311004638672,-0.12188144028186798,-0.1966506391763687,0.09365224838256836,0.10547798871994019,-0.08297093212604523,-0.008964675478637218
3.5584704875946045,-0.12226291000843048,-0.1989395022392273,0.09555962681770325,0.10700388997793198,-0.08449683338403702,-0.009346150793135166
3.578627586364746,-0.12226291000843048,-0.20199130475521088,0.09784847497940063,0.10891126841306686,-0.08602273464202881,-0.009727626107633114
3.5986616611480713,-0.12340734153985977,-0.20504310727119446,0.10090028494596481,0.10929274559020996,-0.0864042118191719,-0.009727626107633114
3.6187973022460938,-0.12417028844356537,-0.20695048570632935,0.1035706102848053,0.11005569249391556,-0.0864042118191719,-0.010490577667951584
3.638827085494995,-0.12417028844356537,-0.20885786414146423,0.10547798871994019,0.11158160120248795,-0.0875486359000206,-0.010490577667951584
3.6588900089263916,-0.12417028844356537,-0.21114671230316162,0.10700388997793198,0.11272602528333664,-0.0875486359000206,-0.010490577667951584
3.6790385246276855,-0.12493324279785156,-0.2149614691734314,0.10929274559020996,0.11272602528333664,-0.0883115902543068,-0.010872052982449532
3.6990585327148438,-0.12531471252441406,-0.21686884760856628,0.11081864684820175,0.11348897218704224,-0.08869306743144989,-0.010872052982449532
3.7191269397735596,-0.12607766687870026,-0.21801327168941498,0.11234454810619354,0.11463340371847153,-0.08869306743144989,-0.010872052982449532
3.7391998767852783,-0.12684062123298645,-0.22182802855968475,0.11425192654132843,0.11615930497646332,-0.09060044586658478,-0.010872052982449532
3.759300708770752,-0.12760357558727264,-0.22373540699481964,0.11692225188016891,0.11730372905731201,-0.09288929402828217,-0.01125352829694748
3.7794954776763916,-0.12836651504039764,-0.22526131570339203,0.1188296303153038,0.1192111074924469,-0.09403372555971146,-0.01125352829694748
3.799504518508911,-0.12951095402240753,-0.22793163359165192,0.12111848592758179,0.12188144028186798,-0.09594109654426575,-0.01125352829694748
3.8195502758026123,-0.12989242374897003,-0.2309834510087967,0.12455176562070847,0.12340734153985977,-0.09746700525283813,-0.011635004542768002
3.8396341800689697,-0.13141833245754242,-0.23556114733219147,0.12760357558727264,0.12455176562070847,-0.09784847497940063,-0.011635004542768002
3.859678268432617,-0.13103684782981873,-0.23937590420246124,0.13027389347553253,0.12607766687870026,-0.09822995215654373,-0.01201647985726595
3.8797836303710938,-0.13103684782981873,-0.24280919134616852,0.1333257108926773,0.12836651504039764,-0.09937438368797302,-0.012397955171763897
3.899883508682251,-0.13141833245754242,-0.2450980395078659,0.1363775134086609,0.12989242374897003,-0.10051880776882172,-0.012779430486261845
3.9199867248535156,-0.13141833245754242,-0.2470054179430008,0.13828489184379578,0.13141833245754242,-0.10166323184967041,-0.013160906732082367
3.9400253295898438,-0.13179980218410492,-0.24967575073242188,0.14057374000549316,0.13179980218410492,-0.1024261862039566,-0.013542382046580315
3.9601049423217773,-0.1329442262649536,-0.25310903787612915,0.14400701224803925,0.1325627565383911,-0.1028076633810997,-0.013542382046580315
3.9801838397979736,-0.1340886503458023,-0.25654229521751404,0.14782176911830902,0.1348516047000885,-0.1031891331076622,-0.013923857361078262
4.000235557556152,-0.134470134973526,-0.2592126429080963,0.1508735716342926,0.1359960287809372,-0.10471503436565399,-0.013923857361078262
4.020277261734009,-0.1356145590543747,-0.2622644305229187,0.15392538905143738,0.1371404528617859,-0.10547798871994019,-0.013923857361078262
4.040366888046265,-0.1363775134086609,-0.2645532786846161,0.15850308537483215,0.13904783129692078,-0.10700388997793198,-0.013923857361078262
4.060499429702759,-0.1367589831352234,-0.26684215664863586,0.16193637251853943,0.13904783129692078,-0.10814831405878067,-0.01430533267557621
4.080498695373535,-0.1367589831352234,-0.27065691351890564,0.1653696447610855,0.14019227027893066,-0.10967422276735306,-0.01430533267557621
4.100620269775391,-0.13752193748950958,-0.2748531401157379,0.16994735598564148,0.14248111844062805,-0.10967422276735306,-0.01430533267557621
4.120654106140137,-0.13828489184379578,-0.2786678969860077,0.17261768877506256,0.14324407279491425,-0.11005569249391556,-0.01430533267557621
4.140726327896118,-0.13866636157035828,-0.2821011543273926,0.17528800666332245,0.14629587531089783,-0.11196307092905045,-0.014686808921396732
4.160878658294678,-0.13866636157035828,-0.28515297174453735,0.17833982408046722,0.1493476778268814,-0.11387044936418533,-0.01430533267557621
4.18096137046814,-0.13866636157035828,-0.28782328963279724,0.1825360506772995,0.1512550562620163,-0.11577782779932022,-0.014686808921396732
4.201070070266724,-0.13904783129692078,-0.28934919834136963,0.18596932291984558,0.152399480342865,-0.11654078215360641,-0.014686808921396732
4.221105575561523,-0.13981078565120697,-0.2912565767765045,0.18940261006355286,0.15430685877799988,-0.11768520623445511,-0.014686808921396732
4.24122428894043,-0.14095520973205566,-0.2935454249382019,0.19359883666038513,0.15621423721313477,-0.1203555315732956,-0.01506828423589468
4.261309623718262,-0.14171816408634186,-0.2969787120819092,0.1981765478849411,0.15774014592170715,-0.12111848592758179,-0.01506828423589468
4.281361818313599,-0.14171816408634186,-0.30117493867874146,0.20160982012748718,0.15812161564826965,-0.12302586436271667,-0.01583123579621315
4.3015666007995605,-0.14286258816719055,-0.30460822582244873,0.20580606162548065,0.15850308537483215,-0.12455176562070847,-0.01583123579621315
4.321621417999268,-0.14362554252147675,-0.308041512966156,0.21038375794887543,0.16155488789081573,-0.12607766687870026,-0.01583123579621315
4.341793775558472,-0.14400701224803925,-0.3103303611278534,0.2138170450925827,0.16384375095367432,-0.12798504531383514,-0.016594186425209045
4.361862659454346,-0.14400701224803925,-0.31414511799812317,0.21686884760856628,0.1653696447610855,-0.12951095402240753,-0.01735713705420494
4.382138967514038,-0.14400701224803925,-0.31681543588638306,0.22220951318740845,0.1657511293888092,-0.13103684782981873,-0.018501564860343933
4.402223348617554,-0.14515145123004913,-0.32024872303009033,0.22755016386508942,0.1676585078239441,-0.13141833245754242,-0.018501564860343933
4.422288417816162,-0.14591439068317413,-0.3229190409183502,0.230601966381073,0.16956588625907898,-0.13141833245754242,-0.018501564860343933
4.442336320877075,-0.14591439068317413,-0.3255893886089325,0.23289081454277039,0.17109178006649017,-0.1329442262649536,-0.01926451548933983
4.462417125701904,-0.14591439068317413,-0.3278782367706299,0.23556114733219147,0.17490653693675995,-0.134470134973526,-0.020027466118335724
4.482483863830566,-0.14629587531089783,-0.32978561520576477,0.23861294984817505,0.17719538509845734,-0.1363775134086609,-0.02079041674733162
4.5025951862335205,-0.14667734503746033,-0.33207446336746216,0.24242770671844482,0.17986571788787842,-0.1371404528617859,-0.02193484455347061
4.522648096084595,-0.14782176911830902,-0.33512628078460693,0.2458609938621521,0.1810101419687271,-0.13790340721607208,-0.02193484455347061
4.54273533821106,-0.14858472347259521,-0.3385595381259918,0.2500572204589844,0.1832990050315857,-0.13981078565120697,-0.02231631986796856
4.562790870666504,-0.1493476778268814,-0.3408484160900116,0.25387197732925415,0.1844434291124344,-0.14019227027893066,-0.02231631986796856
4.582982778549194,-0.1493476778268814,-0.3427557647228241,0.2569237947463989,0.18635080754756927,-0.14400701224803925,-0.02231631986796856
4.602941989898682,-0.1501106321811676,-0.34580758213996887,0.2615014910697937,0.18902114033699036,-0.14629587531089783,-0.02231631986796856
4.6230247020721436,-0.1504921019077301,-0.34885939955711365,0.26722362637519836,0.19130998849868774,-0.14782176911830902,-0.02231631986796856
4.643152236938477,-0.1508735716342926,-0.35191118717193604,0.27141985297203064,0.19321736693382263,-0.1497291475534439,-0.023079270496964455
4.663196086883545,-0.1512550562620163,-0.3545815348625183,0.2752346098423004,0.19512474536895752,-0.1512550562620163,-0.023079270496964455
4.683448791503906,-0.1520180106163025,-0.3576333224773407,0.2813382148742676,0.1981765478849411,-0.1527809500694275,-0.024223696440458298
4.703524589538574,-0.15316243469715118,-0.3603036403656006,0.28744181990623474,0.200083926320076,-0.15468832850456238,-0.024605173617601395
4.723618030548096,-0.15316243469715118,-0.3614480793476105,0.291638046503067,0.20237277448177338,-0.15506981313228607,-0.025749599561095238
4.743655204772949,-0.15316243469715118,-0.36297398805618286,0.2954528033733368,0.20504310727119446,-0.15774014592170715,-0.025749599561095238
4.763749837875366,-0.15316243469715118,-0.36602577567100525,0.29964902997016907,0.20656901597976685,-0.15888457000255585,-0.026131074875593185
4.783810615539551,-0.15354390442371368,-0.36907759308815,0.30270084738731384,0.20885786414146423,-0.15926603972911835,-0.026512550190091133
4.803871154785156,-0.15354390442371368,-0.3725108802318573,0.3057526648044586,0.21000228822231293,-0.16002899408340454,-0.026512550190091133
4.824039936065674,-0.15354390442371368,-0.3759441375732422,0.308804452419281,0.21229113638401031,-0.16117341816425323,-0.02727550081908703
4.844152212142944,-0.15430685877799988,-0.37975889444351196,0.3133821487426758,0.2157244235277176,-0.16269932687282562,-0.02841992862522602
4.864271879196167,-0.15430685877799988,-0.38357365131378174,0.31681543588638306,0.21801327168941498,-0.1657511293888092,-0.029564354568719864
4.884274005889893,-0.15545128285884857,-0.387006938457489,0.32101166248321533,0.22068360447883606,-0.1676585078239441,-0.03032730519771576
4.904627084732056,-0.15583276748657227,-0.3900587558746338,0.3271152675151825,0.22487983107566833,-0.17223620414733887,-0.03032730519771576
4.924727201461792,-0.15621423721313477,-0.3927290737628937,0.33283740282058716,0.2290760725736618,-0.17643244564533234,-0.031090257689356804
4.944786548614502,-0.15659570693969727,-0.39616236090660095,0.3400854468345642,0.23365376889705658,-0.17795833945274353,-0.03223468363285065
4.964803695678711,-0.15659570693969727,-0.39883267879486084,0.34657052159309387,0.23708705604076385,-0.1802472025156021,-0.032616160809993744
4.984905958175659,-0.15659570693969727,-0.4003585875034332,0.3534370958805084,0.24013885855674744,-0.182917520403862,-0.03299763426184654
5.004988193511963,-0.15774014592170715,-0.4022659659385681,0.3595407009124756,0.24319066107273102,-0.1836804747581482,-0.03337911143898964
5.025074481964111,-0.15774014592170715,-0.404173344373703,0.36335545778274536,0.2454795092344284,-0.1844434291124344,-0.03337911143898964
5.0451836585998535,-0.15812161564826965,-0.4068436622619629,0.36717021465301514,0.2481498420238495,-0.18520638346672058,-0.03376058489084244
5.065289258956909,-0.15850308537483215,-0.4091325104236603,0.3702220320701599,0.25120165944099426,-0.18749523162841797,-0.034142062067985535
5.085340976715088,-0.15850308537483215,-0.41065841913223267,0.3721294105052948,0.25387197732925415,-0.18978407979011536,-0.03452353551983833
5.105362415313721,-0.15850308537483215,-0.41218432784080505,0.3732738196849823,0.25654229521751404,-0.19207294285297394,-0.03490501269698143
5.125621318817139,-0.15926603972911835,-0.41485464572906494,0.3740367889404297,0.2611200213432312,-0.19436179101467133,-0.03604944050312042
5.145704746246338,-0.16002899408340454,-0.4190509021282196,0.3763256371021271,0.264934778213501,-0.1970321238040924,-0.03681239113211632
5.165904998779297,-0.16041046380996704,-0.4232471287250519,0.37937742471694946,0.27065691351890564,-0.200083926320076,-0.03833829239010811
5.18593692779541,-0.16041046380996704,-0.42744335532188416,0.38281071186065674,0.2752346098423004,-0.20389868319034576,-0.039101243019104004
5.20603346824646,-0.16041046380996704,-0.4331654906272888,0.3908216953277588,0.2821011543273926,-0.20809490978717804,-0.040627144277095795
5.2260847091674805,-0.16002899408340454,-0.4373617172241211,0.3999771177768707,0.28820478916168213,-0.21190966665744781,-0.04139009863138199
5.246158838272095,-0.16002899408340454,-0.44193941354751587,0.40951400995254517,0.2954528033733368,-0.21763180196285248,-0.04329747334122658
5.266286611557007,-0.15964750945568085,-0.44689860939979553,0.4217212200164795,0.30270084738731384,-0.22144655883312225,-0.04482337832450867
5.286380052566528,-0.15926603972911835,-0.4522392749786377,0.4362172782421112,0.3091859221458435,-0.22335393726825714,-0.04634927958250046
5.30646824836731,-0.15926603972911835,-0.45681697130203247,0.4491874575614929,0.31528952717781067,-0.22640573978424072,-0.048638131469488144
5.326562166213989,-0.15964750945568085,-0.45986875891685486,0.45757991075515747,0.31834134459495544,-0.22755016386508942,-0.05054550990462303
5.346707820892334,-0.15964750945568085,-0.46139466762542725,0.4640650153160095,0.3213931620121002,-0.2283131182193756,-0.051689937710762024
5.366828203201294,-0.15964750945568085,-0.46177613735198975,0.4682612419128418,0.3236820101737976,-0.2290760725736618,-0.05207141116261482
5.386880874633789,-0.16002899408340454,-0.46177613735198975,0.4682612419128418,0.3255893886089325,-0.2290760725736618,-0.05245288833975792
5.406942129135132,-0.16041046380996704,-0.46177613735198975,0.4678797721862793,0.3282597064971924,-0.2309834510087967,-0.053215838968753815
5.427022933959961,-0.16002899408340454,-0.46292057633399963,0.4671168029308319,0.33207446336746216,-0.23403525352478027,-0.053215838968753815
5.447153806686401,-0.16041046380996704,-0.4648279547691345,0.4667353332042694,0.33474478125572205,-0.23556114733219147,-0.05436026677489281
5.467229843139648,-0.16041046380996704,-0.4659723937511444,0.4667353332042694,0.3377965986728668,-0.23708705604076385,-0.056267641484737396
5.4872887134552,-0.16041046380996704,-0.4667353332042694,0.4671168029308319,0.3423742949962616,-0.24090181291103363,-0.058175019919872284
5.507334470748901,-0.16041046380996704,-0.4667353332042694,0.4671168029308319,0.34771496057510376,-0.2439536154270172,-0.05970092490315437
5.52745246887207,-0.15964750945568085,-0.4667353332042694,0.4674982726573944,0.3545815348625183,-0.2470054179430008,-0.06046387553215027
5.547587633132935,-0.15812161564826965,-0.4671168029308319,0.4682612419128418,0.361066609621048,-0.25501641631126404,-0.06313420087099075
5.567610740661621,-0.15621423721313477,-0.4667353332042694,0.4682612419128418,0.369840532541275,-0.2595941126346588,-0.06542305648326874
5.587671279907227,-0.1520180106163025,-0.4667353332042694,0.4682612419128418,0.38014039397239685,-0.26684215664863586,-0.06809338182210922
5.607782363891602,-0.14629587531089783,-0.4667353332042694,0.4701686203479767,0.3923476040363312,-0.2763790488243103,-0.07267109304666519
5.627815008163452,-0.13828489184379578,-0.4667353332042694,0.4728389382362366,0.4072251319885254,-0.28629741072654724,-0.07724879682064056
5.648045301437378,-0.13027389347553253,-0.4663538634777069,0.47894254326820374,0.42629891633987427,-0.2958342730998993,-0.08335240930318832
5.66826868057251,-0.12531471252441406,-0.4648279547691345,0.4892423748970032,0.44575417041778564,-0.30498969554901123,-0.09136339277029037
5.688260793685913,-0.12378881871700287,-0.46292057633399963,0.4972533881664276,0.4671168029308319,-0.3099488914012909,-0.09822995215654373
5.708296537399292,-0.12493324279785156,-0.45986875891685486,0.5037384629249573,0.483138769865036,-0.3130006790161133,-0.10662241280078888
5.728380918502808,-0.12798504531383514,-0.45719844102859497,0.5064088106155396,0.49305713176727295,-0.31528952717781067,-0.11387044936418533
5.748441457748413,-0.13141833245754242,-0.4541466534137726,0.506027340888977,0.4983977973461151,-0.31795987486839294,-0.11692225188016891
5.768542528152466,-0.1329442262649536,-0.4518577754497528,0.5041199326515198,0.5018310546875,-0.3274967670440674,-0.1184481605887413
5.78873610496521,-0.1348516047000885,-0.4522392749786377,0.501068115234375,0.5064088106155396,-0.33321890234947205,-0.1199740618467331
5.808840751647949,-0.1359960287809372,-0.4530022144317627,0.4968718886375427,0.5113679766654968,-0.33588922023773193,-0.1203555315732956
5.8289031982421875,-0.1356145590543747,-0.4549095928668976,0.49229419231414795,0.5182345509529114,-0.3377965986728668,-0.12417028844356537
5.848952054977417,-0.12989242374897003,-0.4549095928668976,0.48962387442588806,0.5289158225059509,-0.3442816734313965,-0.12874799966812134
5.869065523147583,-0.1188296303153038,-0.4545281231403351,0.4888609051704407,0.5415045619010925,-0.35191118717193604,-0.1333257108926773
5.88912296295166,-0.10471503436565399,-0.4530022144317627,0.49153125286102295,0.5552376508712769,-0.3595407009124756,-0.13904783129692078
5.9092090129852295,-0.09250781685113907,-0.4503318965435028,0.4961089491844177,0.5655375123023987,-0.361066609621048,-0.14400701224803925
5.92977237701416,-0.08564125746488571,-0.44651713967323303,0.5041199326515198,0.576981782913208,-0.3587777614593506,-0.1489662081003189
5.949879884719849,-0.08449683338403702,-0.44232088327407837,0.5121309161186218,0.5827038884162903,-0.3538185656070709,-0.15316243469715118
5.970199823379517,-0.08564125746488571,-0.438506156206131,0.5163271427154541,0.5830853581428528,-0.34771496057510376,-0.15545128285884857
5.990630149841309,-0.0875486359000206,-0.4350728690624237,0.5174715518951416,0.5823224186897278,-0.3412298858165741,-0.15774014592170715
6.01080584526062,-0.08983749151229858,-0.43240252137184143,0.5170900821685791,0.5823224186897278,-0.3442816734313965,-0.15774014592170715
6.030828952789307,-0.09327077120542526,-0.43240252137184143,0.5155642032623291,0.5834668278694153,-0.3545815348625183,-0.15774014592170715
6.050872564315796,-0.09632257372140884,-0.4335469603538513,0.5128938555717468,0.5857557058334351,-0.36449989676475525,-0.15774014592170715
6.070958614349365,-0.10013733059167862,-0.4365987777709961,0.5086976289749146,0.5876630544662476,-0.36640727519989014,-0.15812161564826965
6.091047525405884,-0.10509651154279709,-0.4388876259326935,0.5022125840187073,0.5918593406677246,-0.36488136649131775,-0.16193637251853943
6.111087083816528,-0.10700388997793198,-0.4365987777709961,0.4976348578929901,0.6033035516738892,-0.368314653635025,-0.16956588625907898
6.131165027618408,-0.10433356463909149,-0.43240252137184143,0.4964904189109802,0.6174181699752808,-0.3767071068286896,-0.17376211285591125
6.151325941085815,-0.09746700525283813,-0.42668038606643677,0.4964904189109802,0.6315327882766724,-0.38319218158721924,-0.17910276353359222
6.171386241912842,-0.09060044586658478,-0.4205767810344696,0.4957274794578552,0.6425955891609192,-0.38319218158721924,-0.18902114033699036
6.191415548324585,-0.09021896868944168,-0.41371023654937744,0.49420157074928284,0.655184268951416,-0.3759441375732422,-0.20084688067436218
6.211499214172363,-0.09250781685113907,-0.4076066315174103,0.49000534415245056,0.6628137826919556,-0.3709849715232849,-0.21114671230316162
6.231614112854004,-0.09479667246341705,-0.4045548141002655,0.4861905872821808,0.6673914790153503,-0.36373692750930786,-0.21801327168941498
6.251654863357544,-0.09784847497940063,-0.403410404920578,0.482375830411911,0.6712062358856201,-0.36373692750930786,-0.22068360447883606
6.271744251251221,-0.10204470902681351,-0.4037918746471405,0.47741663455963135,0.6742580533027649,-0.3732738196849823,-0.22182802855968475
6.291812419891357,-0.10700388997793198,-0.4064621925354004,0.4724574685096741,0.6773098111152649,-0.37861448526382446,-0.22297245264053345
6.311866521835327,-0.11196307092905045,-0.4076066315174103,0.46215763688087463,0.6807430982589722,-0.38281071186065674,-0.22793163359165192
6.33193564414978,-0.11120012402534485,-0.4076066315174103,0.45910581946372986,0.6891355514526367,-0.3912031650543213,-0.23327229917049408
6.352020740509033,-0.10929274559020996,-0.4079881012439728,0.45872434973716736,0.699816882610321,-0.39845120906829834,-0.23441672325134277
6.372088670730591,-0.10700388997793198,-0.4083695709705353,0.45910581946372986,0.7024872303009033,-0.39845120906829834,-0.23594263195991516
6.392158269882202,-0.1028076633810997,-0.4079881012439728,0.46063172817230225,0.7028687000274658,-0.3919661343097687,-0.23785001039505005
6.412224769592285,-0.09670405089855194,-0.4056992530822754,0.4659723937511444,0.7040131092071533,-0.3858625292778015,-0.23975738883018494
6.432294607162476,-0.09555962681770325,-0.4022659659385681,0.4716945290565491,0.7135500311851501,-0.3854810297489166,-0.2470054179430008
6.452380657196045,-0.09975585341453552,-0.39921414852142334,0.4728389382362366,0.7219424843788147,-0.38090333342552185,-0.25310903787612915
6.47251033782959,-0.10776684433221817,-0.39387351274490356,0.4732204079627991,0.725375771522522,-0.3763256371021271,-0.2595941126346588
6.492603063583374,-0.11539635062217712,-0.3908216953277588,0.4709315598011017,0.7272831201553345,-0.3763256371021271,-0.2622644305229187
6.5126752853393555,-0.12111848592758179,-0.3889143168926239,0.4674982726573944,0.7299534678459167,-0.38052186369895935,-0.2626459002494812
6.532737970352173,-0.12607766687870026,-0.3877699077129364,0.46330204606056213,0.7318608164787292,-0.3854810297489166,-0.2630273997783661
6.55321192741394,-0.13179980218410492,-0.3877699077129364,0.4560540020465851,0.733386754989624,-0.3908216953277588,-0.264934778213501
6.573364734649658,-0.134470134973526,-0.3877699077129364,0.44766154885292053,0.7345311641693115,-0.39425498247146606,-0.26684215664863586
6.593396902084351,-0.134470134973526,-0.3892957866191864,0.44308385252952576,0.7387273907661438,-0.4011215269565582,-0.26874953508377075
6.613490104675293,-0.13218127191066742,-0.3900587558746338,0.44117647409439087,0.7421606779098511,-0.4056992530822754,-0.26951247453689575
6.633540391921997,-0.12951095402240753,-0.3900587558746338,0.44117647409439087,0.7440680265426636,-0.403410404920578,-0.26989394426345825
6.653607606887817,-0.12684062123298645,-0.3900587558746338,0.44308385252952576,0.7440680265426636,-0.39578089118003845,-0.27065691351890564
6.673673629760742,-0.12226291000843048,-0.3896772861480713,0.44613564014434814,0.7436865568161011,-0.3919661343097687,-0.27141985297203064
6.693838119506836,-0.11539635062217712,-0.3896772861480713,0.4533836841583252,0.7467383742332458,-0.3931105434894562,-0.2752346098423004
6.713963508605957,-0.11730372905731201,-0.3896772861480713,0.45681697130203247,0.760471522808075,-0.3877699077129364,-0.28477150201797485
6.734062194824219,-0.12684062123298645,-0.3892957866191864,0.45643550157546997,0.7711527943611145,-0.3858625292778015,-0.2943083941936493
6.754125595092773,-0.13790340721607208,-0.3885328471660614,0.4526207447052002,0.7833600640296936,-0.38281071186065674,-0.30346378684043884
6.7741968631744385,-0.14286258816719055,-0.3866254687309265,0.44613564014434814,0.7928969264030457,-0.3854810297489166,-0.3103303611278534
6.794253349304199,-0.14400701224803925,-0.3850995600223541,0.4388876259326935,0.7986190319061279,-0.39425498247146606,-0.3133821487426758
6.814309120178223,-0.14362554252147675,-0.3854810297489166,0.4358358085155487,0.804341197013855,-0.404936283826828,-0.31528952717781067
6.834413290023804,-0.14209964871406555,-0.3866254687309265,0.4339284300804138,0.8081559538841248,-0.41256579756736755,-0.31605249643325806
6.85459303855896,-0.13981078565120697,-0.3873884081840515,0.4339284300804138,0.8100633025169373,-0.41371023654937744,-0.31757840514183044
6.874593019485474,-0.13790340721607208,-0.387006938457489,0.4350728690624237,0.8100633025169373,-0.4056992530822754,-0.31986725330352783
6.8946709632873535,-0.134470134973526,-0.3866254687309265,0.4373617172241211,0.8096818327903748,-0.39616236090660095,-0.32024872303009033
6.914777517318726,-0.12951095402240753,-0.3866254687309265,0.44079500436782837,0.8100633025169373,-0.3927290737628937,-0.3221561014652252
6.934909820556641,-0.12645913660526276,-0.387006938457489,0.44537270069122314,0.8196002244949341,-0.3934920132160187,-0.3274967670440674
6.955021381378174,-0.13065537810325623,-0.3866254687309265,0.44728007912635803,0.8318074345588684,-0.3896772861480713,-0.33398184180259705
6.975027084350586,-0.13942931592464447,-0.386243999004364,0.44537270069122314,0.8421072959899902,-0.3866254687309265,-0.3442816734313965
6.995144844055176,-0.13942931592464447,-0.3847180902957916,0.44117647409439087,0.8504997491836548,-0.3885328471660614,-0.35191118717193604
7.015249013900757,-0.1333257108926773,-0.38281071186065674,0.4365987777709961,0.8596551418304443,-0.39883267879486084,-0.3580147922039032
7.035329341888428,-0.12645913660526276,-0.38242924213409424,0.4354543387889862,0.8657587766647339,-0.40951400995254517,-0.3622110188007355
7.055374383926392,-0.11692225188016891,-0.38319218158721924,0.4350728690624237,0.8714808821678162,-0.41256579756736755,-0.36488136649131775
7.075585842132568,-0.10776684433221817,-0.38357365131378174,0.4362172782421112,0.8749141693115234,-0.41027694940567017,-0.36717021465301514
7.095675230026245,-0.10051880776882172,-0.38319218158721924,0.439269095659256,0.8775845170021057,-0.4030289053916931,-0.369840532541275
7.1156907081604,-0.09555962681770325,-0.38319218158721924,0.44384679198265076,0.8787289261817932,-0.39578089118003845,-0.3721294105052948
7.135794162750244,-0.09670405089855194,-0.38281071186065674,0.4514763057231903,0.881017804145813,-0.3915846347808838,-0.3744182586669922
7.155916929244995,-0.10471503436565399,-0.38166627287864685,0.45796138048171997,0.8829251527786255,-0.3873884081840515,-0.3747997283935547
7.17598295211792,-0.11768520623445511,-0.38090333342552185,0.46063172817230225,0.882543683052063,-0.38204777240753174,-0.3767071068286896
7.196011543273926,-0.1348516047000885,-0.37937742471694946,0.46025025844573975,0.8821622133255005,-0.3767071068286896,-0.37861448526382446
7.216120958328247,-0.1493476778268814,-0.3767071068286896,0.45643550157546997,0.8821622133255005,-0.37823301553726196,-0.37899595499038696
7.236236095428467,-0.16079194843769073,-0.3744182586669922,0.4522392749786377,0.881780743598938,-0.38357365131378174,-0.37937742471694946
7.2563157081604,-0.1653696447610855,-0.3744182586669922,0.44766154885292053,0.882543683052063,-0.39425498247146606,-0.37899595499038696
7.276348829269409,-0.1657511293888092,-0.3747997283935547,0.44499123096466064,0.8829251527786255,-0.39806973934173584,-0.37937742471694946
7.29643177986145,-0.1646067053079605,-0.3770885765552521,0.44422826170921326,0.884069561958313,-0.3995956480503082,-0.37975889444351196
7.316541433334351,-0.16308079659938812,-0.3778515160083771,0.44422826170921326,0.8867399096488953,-0.39654383063316345,-0.38052186369895935
7.336597681045532,-0.15926603972911835,-0.3770885765552521,0.44460976123809814,0.8878843188285828,-0.3908216953277588,-0.38128480315208435
7.356656551361084,-0.15545128285884857,-0.3774700462818146,0.44575417041778564,0.8875028491020203,-0.38319218158721924,-0.38204777240753174
7.376738548278809,-0.14744029939174652,-0.3774700462818146,0.4488059878349304,0.8878843188285828,-0.38090333342552185,-0.38242924213409424
7.3968505859375,-0.14133669435977936,-0.37937742471694946,0.4507133662700653,0.8909361362457275,-0.38052186369895935,-0.386243999004364
7.416972398757935,-0.14362554252147675,-0.38090333342552185,0.4530022144317627,0.9008545279502869,-0.3770885765552521,-0.39425498247146606
7.437059164047241,-0.1493476778268814,-0.38357365131378174,0.4556725323200226,0.9092469811439514,-0.3759441375732422,-0.4022659659385681
7.457110166549683,-0.1508735716342926,-0.3858625292778015,0.45757991075515747,0.919165313243866,-0.3736552894115448,-0.4083695709705353
7.477181434631348,-0.14820325374603271,-0.3866254687309265,0.45796138048171997,0.924124538898468,-0.3740367889404297,-0.41256579756736755
7.497272491455078,-0.14209964871406555,-0.3866254687309265,0.45834288001060486,0.9245060086250305,-0.3763256371021271,-0.41676202416419983
7.517357110977173,-0.13141833245754242,-0.387006938457489,0.45986875891685486,0.927176296710968,-0.37861448526382446,-0.4194323718547821
7.5375213623046875,-0.1192111074924469,-0.387006938457489,0.46253910660743713,0.9321355223655701,-0.37823301553726196,-0.4240100681781769
7.55759334564209,-0.11615930497646332,-0.3873884081840515,0.4682612419128418,0.9378576278686523,-0.3755626678466797,-0.42820629477500916
7.5776636600494385,-0.12226291000843048,-0.3877699077129364,0.47512778639793396,0.9451056718826294,-0.3686961233615875,-0.43163958191871643
7.597910642623901,-0.1356145590543747,-0.3873884081840515,0.4812313914299011,0.9496833682060242,-0.3603036403656006,-0.4369802474975586
7.617862939834595,-0.15354390442371368,-0.3854810297489166,0.4804684519767761,0.9496833682060242,-0.3442816734313965,-0.44155794382095337
7.638087272644043,-0.17147326469421387,-0.38357365131378174,0.47589075565338135,0.9485389590263367,-0.33474478125572205,-0.44460976123809814
7.658160209655762,-0.1813916265964508,-0.38052186369895935,0.4716945290565491,0.9466315507888794,-0.33512628078460693,-0.44460976123809814
7.678220272064209,-0.18673227727413177,-0.37975889444351196,0.465209424495697,0.9458686113357544,-0.34771496057510376,-0.44422826170921326
7.698328971862793,-0.18825818598270416,-0.37975889444351196,0.45834288001060486,0.9462500810623169,-0.3622110188007355,-0.44460976123809814
7.718424558639526,-0.18787670135498047,-0.38357365131378174,0.4552910625934601,0.9496833682060242,-0.3694590628147125,-0.44346532225608826
7.738465309143066,-0.18635080754756927,-0.387006938457489,0.4545281231403351,0.9504463076591492,-0.3721294105052948,-0.44384679198265076
7.758622646331787,-0.1836804747581482,-0.3866254687309265,0.4549095928668976,0.952735185623169,-0.36793315410614014,-0.44460976123809814
7.778656482696533,-0.1806286722421646,-0.3858625292778015,0.45643550157546997,0.952735185623169,-0.3603036403656006,-0.44460976123809814
7.798694372177124,-0.17757686972618103,-0.3854810297489166,0.45834288001060486,0.952735185623169,-0.34885939955711365,-0.44575417041778564
7.818774700164795,-0.16994735598564148,-0.3854810297489166,0.46025025844573975,0.9531166553497314,-0.3408484160900116,-0.44689860939979553
7.838840961456299,-0.16041046380996704,-0.3873884081840515,0.45948728919029236,0.952735185623169,-0.3385595381259918,-0.44766154885292053
7.8589324951171875,-0.15964750945568085,-0.3912031650543213,0.45719844102859497,0.953498125076294,-0.33588922023773193,-0.4510948359966278
7.878991365432739,-0.1661325991153717,-0.3919661343097687,0.45719844102859497,0.960746169090271,-0.3381780683994293,-0.4549095928668976
7.899113655090332,-0.1676585078239441,-0.39463645219802856,0.45986875891685486,0.969520092010498,-0.3423742949962616,-0.45719844102859497
7.919275522232056,-0.1665140837430954,-0.39768826961517334,0.46139466762542725,0.9740977883338928,-0.34618905186653137,-0.45986875891685486
7.939284563064575,-0.1657511293888092,-0.39730677008628845,0.46215763688087463,0.9748607873916626,-0.34809643030166626,-0.46025025844573975
7.9593634605407715,-0.16269932687282562,-0.39692530035972595,0.46330204606056213,0.9748607873916626,-0.34771496057510376,-0.46063172817230225
7.979441404342651,-0.15774014592170715,-0.39692530035972595,0.4648279547691345,0.9752422571182251,-0.34504464268684387,-0.46101319789886475
7.999513387680054,-0.1501106321811676,-0.39730677008628845,0.4663538634777069,0.9760051965713501,-0.3442816734313965,-0.46177613735198975
8.019723653793335,-0.14438849687576294,-0.39806973934173584,0.4678797721862793,0.9782940149307251,-0.3377965986728668,-0.4648279547691345
8.039898872375488,-0.14858472347259521,-0.3995956480503082,0.4694056510925293,0.9847791194915771,-0.33016708493232727,-0.4686427116394043
8.060019731521606,-0.15812161564826965,-0.39883267879486084,0.4697871506214142,0.9878309369087219,-0.3240634799003601,-0.4724574685096741
8.080222368240356,-0.16155488789081573,-0.39654383063316345,0.464446485042572,0.9878309369087219,-0.31834134459495544,-0.47627222537994385
8.100246667861938,-0.15812161564826965,-0.3934920132160187,0.45948728919029236,0.9866865277290344,-0.31719690561294556,-0.47627222537994385
8.12034010887146,-0.1508735716342926,-0.3908216953277588,0.4495689272880554,0.9870679974555969,-0.31795987486839294,-0.47627222537994385
8.140376806259155,-0.13904783129692078,-0.3885328471660614,0.440032035112381,0.9855420589447021,-0.32024872303009033,-0.47665369510650635
8.16047215461731,-0.12836651504039764,-0.3889143168926239,0.4373617172241211,0.9912642240524292,-0.33360037207603455,-0.47665369510650635
8.180527448654175,-0.1188296303153038,-0.3927290737628937,0.4377431869506836,0.9962233901023865,-0.33550775051116943,-0.47856107354164124
8.200655937194824,-0.11196307092905045,-0.39501792192459106,0.440032035112381,0.9977492690086365,-0.32940414547920227,-0.47932401299476624
8.220874309539795,-0.10929274559020996,-0.39425498247146606,0.44308385252952576,0.9981307983398438,-0.3244449496269226,-0.47932401299476624
8.240864038467407,-0.10929274559020996,-0.3927290737628937,0.44728007912635803,0.9981307983398438,-0.31605249643325806,-0.4800869822502136
8.260950088500977,-0.11387044936418533,-0.3915846347808838,0.4526207447052002,0.9977492690086365,-0.309567391872406,-0.4800869822502136
8.281012058258057,-0.12340734153985977,-0.3896772861480713,0.4560540020465851,0.9969863295555115,-0.30498969554901123,-0.4804684519767761
8.30105996131897,-0.13752193748950958,-0.3873884081840515,0.4549095928668976,0.9946975111961365,-0.30460822582244873,-0.4800869822502136
8.321129083633423,-0.1527809500694275,-0.3843366205692291,0.4522392749786377,0.9939345121383667,-0.308804452419281,-0.4804684519767761
8.341220617294312,-0.1653696447610855,-0.38166627287864685,0.44384679198265076,0.9935530424118042,-0.3126192092895508,-0.4804684519767761
8.361286640167236,-0.17223620414733887,-0.37975889444351196,0.4346913993358612,0.9935530424118042,-0.3133821487426758,-0.4804684519767761
8.381331443786621,-0.17490653693675995,-0.37861448526382446,0.42668038606643677,0.9935530424118042,-0.31757840514183044,-0.4812313914299011
8.401420831680298,-0.17452506721019745,-0.37975889444351196,0.4217212200164795,0.9946975111961365,-0.3271152675151825,-0.4800869822502136
8.421509742736816,-0.17338064312934875,-0.38166627287864685,0.4198138415813446,0.995841920375824,-0.32940414547920227,-0.4804684519767761
8.441568374633789,-0.17185473442077637,-0.38204777240753174,0.4201953113079071,0.996604859828949,-0.325970858335495,-0.4808499217033386
8.46161413192749,-0.16956588625907898,-0.38166627287864685,0.4217212200164795,0.996604859828949,-0.31681543588638306,-0.481612890958786
8.48169732093811,-0.1665140837430954,-0.38166627287864685,0.4243915379047394,0.9954604506492615,-0.3107118308544159,-0.482375830411911
8.501763343811035,-0.16117341816425323,-0.38204777240753174,0.43011367321014404,0.9954604506492615,-0.3103303611278534,-0.482375830411911
8.521813154220581,-0.15964750945568085,-0.386243999004364,0.4335469603538513,0.995841920375824,-0.3091859221458435,-0.483138769865036
8.541878938674927,-0.1646067053079605,-0.3889143168926239,0.4350728690624237,0.9985122680664062,-0.30155640840530396,-0.4842832088470459
8.561983585357666,-0.17109178006649017,-0.3892957866191864,0.4354543387889862,1.0015640258789062,-0.2977416515350342,-0.4869535267353058
8.582062005996704,-0.17147326469421387,-0.3904402256011963,0.4350728690624237,1.0057603120803833,-0.30041199922561646,-0.4869535267353058
8.602191925048828,-0.1653696447610855,-0.3912031650543213,0.4339284300804138,1.0091935396194458,-0.309567391872406,-0.4854276478290558
8.62218689918518,-0.15621423721313477,-0.3923476040363312,0.4339284300804138,1.0103379487991333,-0.31567102670669556,-0.4858091175556183
8.642271518707275,-0.14667734503746033,-0.39387351274490356,0.4350728690624237,1.0111008882522583,-0.31795987486839294,-0.4854276478290558
8.662445783615112,-0.13790340721607208,-0.39501792192459106,0.4377431869506836,1.0122454166412354,-0.31834134459495544,-0.4858091175556183
8.682435989379883,-0.12989242374897003,-0.39539939165115356,0.44079500436782837,1.0152971744537354,-0.31605249643325806,-0.4861905872821808
8.702545166015625,-0.12531471252441406,-0.39578089118003845,0.44689860939979553,1.0179674625396729,-0.3114747703075409,-0.4865720570087433
8.722620964050293,-0.12645913660526276,-0.39578089118003845,0.4545281231403351,1.0179674625396729,-0.3076600432395935,-0.4865720570087433
8.742670059204102,-0.13218127191066742,-0.39501792192459106,0.45910581946372986,1.0179674625396729,-0.30155640840530396,-0.4869535267353058
8.762752771377563,-0.14400701224803925,-0.39387351274490356,0.46139466762542725,1.0175859928131104,-0.2943083941936493,-0.4869535267353058
8.782817840576172,-0.15774014592170715,-0.3923476040363312,0.46025025844573975,1.0164415836334229,-0.2904936373233795,-0.4869535267353058
8.802961826324463,-0.17109178006649017,-0.3908216953277588,0.45643550157546997,1.0152971744537354,-0.2935454249382019,-0.4865720570087433
8.822962284088135,-0.1802472025156021,-0.3896772861480713,0.4518577754497528,1.0137712955474854,-0.29926756024360657,-0.4869535267353058
8.843139886856079,-0.1844434291124344,-0.3889143168926239,0.44346532225608826,1.0137712955474854,-0.30537116527557373,-0.4865720570087433
8.86320424079895,-0.1844434291124344,-0.3889143168926239,0.4373617172241211,1.0141527652740479,-0.309567391872406,-0.4861905872821808
8.883219003677368,-0.1840619444847107,-0.3904402256011963,0.4339284300804138,1.0152971744537354,-0.31605249643325806,-0.4861905872821808
8.903318166732788,-0.182154580950737,-0.3912031650543213,0.4327840209007263,1.0168230533599854,-0.31834134459495544,-0.4865720570087433
8.923372030258179,-0.17948424816131592,-0.3915846347808838,0.4335469603538513,1.0175859928131104,-0.3130006790161133,-0.4869535267353058
8.94355320930481,-0.17757686972618103,-0.3915846347808838,0.4362172782421112,1.0168230533599854,-0.30498969554901123,-0.4869535267353058
8.96352767944336,-0.17490653693675995,-0.3912031650543213,0.438506156206131,1.0168230533599854,-0.29850462079048157,-0.4873350262641907
8.983713865280151,-0.1672770231962204,-0.3927290737628937,0.44308385252952576,1.0164415836334229,-0.29850462079048157,-0.4873350262641907
9.003866910934448,-0.1657511293888092,-0.39616236090660095,0.44537270069122314,1.0168230533599854,-0.2950713336467743,-0.4880979657173157
9.023909091949463,-0.1684214472770691,-0.39730677008628845,0.44766154885292053,1.0179674625396729,-0.291638046503067,-0.49038681387901306
9.044104099273682,-0.17299915850162506,-0.3995956480503082,0.4491874575614929,1.019874930381775,-0.290112167596817,-0.49229419231414795
9.064168453216553,-0.17299915850162506,-0.4003585875034332,0.4495689272880554,1.0225452184677124,-0.2927824854850769,-0.49343863129615784
9.084285497665405,-0.1684214472770691,-0.4011215269565582,0.4495689272880554,1.0233081579208374,-0.2969787120819092,-0.49343863129615784
9.10430121421814,-0.15964750945568085,-0.4011215269565582,0.4507133662700653,1.0233081579208374,-0.30041199922561646,-0.49267566204071045
9.12447452545166,-0.14820325374603271,-0.4015030264854431,0.4530022144317627,1.024452567100525,-0.30384528636932373,-0.49267566204071045
9.144611835479736,-0.13828489184379578,-0.4022659659385681,0.45948728919029236,1.02521550655365,-0.3061341345310211,-0.49305713176727295
9.164689779281616,-0.1337071806192398,-0.403410404920578,0.4663538634777069,1.028648853302002,-0.30270084738731384,-0.49305713176727295
9.184805870056152,-0.134470134973526,-0.4037918746471405,0.47436484694480896,1.030937671661377,-0.29964902997016907,-0.49343863129615784
9.204919576644897,-0.14133669435977936,-0.403410404920578,0.482375830411911,1.0305562019348145,-0.28896772861480713,-0.49420157074928284
9.224945306777954,-0.1501106321811676,-0.4030289053916931,0.4846646785736084,1.0297932624816895,-0.2798123061656952,-0.49458304047584534
9.245014429092407,-0.16117341816425323,-0.4026474356651306,0.4839017391204834,1.027885913848877,-0.2752346098423004,-0.49458304047584534
9.265084981918335,-0.17185473442077637,-0.3999771177768707,0.4804684519767761,1.0271228551864624,-0.2775234580039978,-0.49458304047584534
9.285179853439331,-0.17833982408046722,-0.39883267879486084,0.47436484694480896,1.0263599157333374,-0.28477150201797485,-0.49420157074928284
9.305281400680542,-0.182154580950737,-0.39921414852142334,0.4663538634777069,1.025978446006775,-0.28896772861480713,-0.49382010102272034
9.325340509414673,-0.182154580950737,-0.3995956480503082,0.45834288001060486,1.0255969762802124,-0.2927824854850769,-0.49382010102272034
9.345527648925781,-0.1813916265964508,-0.4015030264854431,0.4522392749786377,1.0267413854599,-0.30117493867874146,-0.49382010102272034
9.3655686378479,-0.17986571788787842,-0.4026474356651306,0.4495689272880554,1.028648853302002,-0.3072785437107086,-0.49382010102272034
9.385624885559082,-0.17681391537189484,-0.403410404920578,0.4495689272880554,1.0305562019348145,-0.3057526648044586,-0.49382010102272034
9.405998229980469,-0.17414358258247375,-0.4030289053916931,0.4514763057231903,1.029411792755127,-0.2969787120819092,-0.49458304047584534
9.426076650619507,-0.17223620414733887,-0.4030289053916931,0.4549095928668976,1.0290303230285645,-0.28782328963279724,-0.49420157074928284
9.446186304092407,-0.1676585078239441,-0.403410404920578,0.45948728919029236,1.0282673835754395,-0.28667888045310974,-0.49496451020240784
9.466241598129272,-0.164988175034523,-0.403410404920578,0.46063172817230225,1.0282673835754395,-0.2809567451477051,-0.49458304047584534
9.48631763458252,-0.16880293190479279,-0.403410404920578,0.45719844102859497,1.028648853302002,-0.2786678969860077,-0.49496451020240784
9.506397485733032,-0.17414358258247375,-0.403410404920578,0.4522392749786377,1.028648853302002,-0.2752346098423004,-0.4968718886375427
9.526485681533813,-0.17376211285591125,-0.403410404920578,0.44766154885292053,1.0290303230285645,-0.28400853276252747,-0.4968718886375427
9.546515464782715,-0.1665140837430954,-0.4053177833557129,0.44728007912635803,1.0297932624816895,-0.2927824854850769,-0.4961089491844177
9.566676139831543,-0.15888457000255585,-0.4083695709705353,0.44766154885292053,1.029411792755127,-0.2977416515350342,-0.4953460097312927
9.586758375167847,-0.1512550562620163,-0.40989547967910767,0.4491874575614929,1.0297932624816895,-0.2973601818084717,-0.49496451020240784
9.606858015060425,-0.14400701224803925,-0.41027694940567017,0.4518577754497528,1.0305562019348145,-0.2939268946647644,-0.49496451020240784
9.626985788345337,-0.1371404528617859,-0.41027694940567017,0.4556725323200226,1.031700611114502,-0.28820478916168213,-0.4957274794578552
9.647031545639038,-0.134470134973526,-0.41027694940567017,0.46368351578712463,1.0328450202941895,-0.28439003229141235,-0.4957274794578552
9.667124271392822,-0.13790340721607208,-0.40989547967910767,0.4697871506214142,1.032463550567627,-0.2786678969860077,-0.4964904189109802
9.687157154083252,-0.14515145123004913,-0.4091325104236603,0.4724574685096741,1.0320820808410645,-0.273708701133728,-0.4968718886375427
9.707278966903687,-0.15774014592170715,-0.4079881012439728,0.4732204079627991,1.030937671661377,-0.26798656582832336,-0.4968718886375427
9.727375745773315,-0.16956588625907898,-0.4064621925354004,0.4705500900745392,1.029411792755127,-0.26951247453689575,-0.4968718886375427
9.74747920036316,-0.17872129380702972,-0.4053177833557129,0.4655908942222595,1.028648853302002,-0.27180132269859314,-0.4968718886375427
9.767512321472168,-0.18596932291984558,-0.404173344373703,0.45757991075515747,1.0275044441223145,-0.2744716703891754,-0.4964904189109802
9.78769063949585,-0.18978407979011536,-0.4037918746471405,0.4484245181083679,1.0275044441223145,-0.2782863974571228,-0.4972533881664276
9.807780742645264,-0.19169145822525024,-0.4045548141002655,0.44117647409439087,1.0290303230285645,-0.28629741072654724,-0.4961089491844177
9.827909469604492,-0.19130998849868774,-0.4064621925354004,0.438506156206131,1.029411792755127,-0.2969787120819092,-0.4964904189109802
9.84791898727417,-0.19054703414440155,-0.4076066315174103,0.4388876259326935,1.0313191413879395,-0.2954528033733368,-0.4961089491844177
9.868131399154663,-0.18902114033699036,-0.4072251319885254,0.440032035112381,1.0305562019348145,-0.28515297174453735,-0.4968718886375427
9.888248920440674,-0.18787670135498047,-0.4072251319885254,0.44270238280296326,1.0297932624816895,-0.2771419882774353,-0.4968718886375427
9.908362627029419,-0.1840619444847107,-0.4072251319885254,0.44651713967323303,1.028648853302002,-0.27218279242515564,-0.4968718886375427
9.928386926651001,-0.17681391537189484,-0.4079881012439728,0.4488059878349304,1.028648853302002,-0.2744716703891754,-0.4968718886375427
9.94850206375122,-0.17414358258247375,-0.41065841913223267,0.4488059878349304,1.028648853302002,-0.26913100481033325,-0.4972533881664276
9.968552112579346,-0.17605096101760864,-0.41142138838768005,0.4499503970146179,1.029411792755127,-0.27027541399002075,-0.4972533881664276
9.988630294799805,-0.17605096101760864,-0.41409170627593994,0.4533836841583252,1.032463550567627,-0.2771419882774353,-0.4972533881664276
10.008779525756836,-0.17490653693675995,-0.41523614525794983,0.45681697130203247,1.033989429473877,-0.28286412358283997,-0.4976348578929901
10.028846740722656,-0.17223620414733887,-0.41561761498451233,0.46139466762542725,1.0351338386535645,-0.28477150201797485,-0.4972533881664276
10.048904418945312,-0.1684214472770691,-0.41485464572906494,0.4671168029308319,1.0343708992004395,-0.28439003229141235,-0.4972533881664276
10.068981647491455,-0.16193637251853943,-0.41371023654937744,0.4713130295276642,1.032463550567627,-0.28362706303596497,-0.4976348578929901
10.089110374450684,-0.15888457000255585,-0.41371023654937744,0.4716945290565491,1.0328450202941895,-0.2752346098423004,-0.4968718886375427
10.109185934066772,-0.16384375095367432,-0.41371023654937744,0.4674982726573944,1.032463550567627,-0.2634088695049286,-0.4983977973461151
10.12935209274292,-0.17605096101760864,-0.41371023654937744,0.45986875891685486,1.0336079597473145,-0.25654229521751404,-0.4999237060546875
10.149335861206055,-0.1802472025156021,-0.41218432784080505,0.4522392749786377,1.0328450202941895,-0.2595941126346588,-0.5014495849609375
10.169448614120483,-0.17490653693675995,-0.41180285811424255,0.4488059878349304,1.033989429473877,-0.2733272314071655,-0.501068115234375
10.189554214477539,-0.1668955534696579,-0.41256579756736755,0.44651713967323303,1.035896897315979,-0.28629741072654724,-0.4987792670726776
10.209609746932983,-0.16002899408340454,-0.41332876682281494,0.44651713967323303,1.0362783670425415,-0.290112167596817,-0.4976348578929901
10.229650974273682,-0.15354390442371368,-0.41332876682281494,0.44766154885292053,1.035896897315979,-0.28782328963279724,-0.4972533881664276
10.249753952026367,-0.14744029939174652,-0.41256579756736755,0.4510948359966278,1.035896897315979,-0.2817196846008301,-0.4972533881664276
10.26980996131897,-0.14248111844062805,-0.41218432784080505,0.45643550157546997,1.0370413064956665,-0.2748531401157379,-0.4976348578929901
10.289880275726318,-0.14133669435977936,-0.41256579756736755,0.46215763688087463,1.0385671854019165,-0.2725642919540405,-0.4983977973461151
10.309980392456055,-0.14667734503746033,-0.41256579756736755,0.4663538634777069,1.038948655128479,-0.26684215664863586,-0.4980163276195526
10.330100774765015,-0.15697719156742096,-0.41142138838768005,0.4682612419128418,1.0385671854019165,-0.2603570520877838,-0.4983977973461151
10.350159168243408,-0.17109178006649017,-0.41027694940567017,0.4674982726573944,1.036659836769104,-0.25539788603782654,-0.4987792670726776
10.370237588882446,-0.1848248988389969,-0.4091325104236603,0.46292057633399963,1.0355154275894165,-0.2576867341995239,-0.4987792670726776
10.390303134918213,-0.19283588230609894,-0.4087510406970978,0.4552910625934601,1.0343708992004395,-0.2595941126346588,-0.4976348578929901
10.410367012023926,-0.1970321238040924,-0.4083695709705353,0.44460976123809814,1.0320820808410645,-0.2645532786846161,-0.4972533881664276
10.430885076522827,-0.1962691694498062,-0.4083695709705353,0.4369802474975586,1.0320820808410645,-0.2744716703891754,-0.4972533881664276
10.451005220413208,-0.19474326074123383,-0.41065841913223267,0.43240252137184143,1.033989429473877,-0.28362706303596497,-0.4964904189109802
10.471165180206299,-0.19321736693382263,-0.41142138838768005,0.43163958191871643,1.036659836769104,-0.28629741072654724,-0.4968718886375427
10.491225719451904,-0.19016556441783905,-0.41065841913223267,0.43240252137184143,1.038185715675354,-0.2794308364391327,-0.4968718886375427
10.511285781860352,-0.18863965570926666,-0.41027694940567017,0.4350728690624237,1.036659836769104,-0.26913100481033325,-0.4980163276195526
10.531341314315796,-0.18711376190185547,-0.41027694940567017,0.4388876259326935,1.036659836769104,-0.2599755823612213,-0.4976348578929901
10.551393032073975,-0.1806286722421646,-0.41065841913223267,0.44346532225608826,1.035896897315979,-0.2592126429080963,-0.4976348578929901
10.571459293365479,-0.17833982408046722,-0.41294726729393005,0.44613564014434814,1.0355154275894165,-0.2580682039260864,-0.4976348578929901
10.59155821800232,-0.1806286722421646,-0.41485464572906494,0.44537270069122314,1.0355154275894165,-0.2573052644729614,-0.4972533881664276
10.611644506454468,-0.182154580950737,-0.41485464572906494,0.44651713967323303,1.036659836769104,-0.2630273997783661,-0.4980163276195526
10.631768941879272,-0.17833982408046722,-0.41599908471107483,0.44766154885292053,1.0385671854019165,-0.273708701133728,-0.4968718886375427
10.651793479919434,-0.17109178006649017,-0.41599908471107483,0.4507133662700653,1.038948655128479,-0.2801937758922577,-0.4968718886375427
10.67187786102295,-0.16193637251853943,-0.41676202416419983,0.4549095928668976,1.038948655128479,-0.28286412358283997,-0.4961089491844177
10.69193983078003,-0.15316243469715118,-0.41676202416419983,0.46139466762542725,1.0378042459487915,-0.28286412358283997,-0.4953460097312927
10.711996078491211,-0.14591439068317413,-0.41676202416419983,0.4690241813659668,1.0385671854019165,-0.2813382148742676,-0.49420157074928284
10.732115030288696,-0.14515145123004913,-0.41676202416419983,0.47703516483306885,1.039711594581604,-0.2733272314071655,-0.49420157074928284
10.752198696136475,-0.1489662081003189,-0.41638055443763733,0.4835202693939209,1.0393301248550415,-0.2611200213432312,-0.4953460097312927
10.772301197052002,-0.15392538905143738,-0.41561761498451233,0.4854276478290558,1.038948655128479,-0.25234606862068176,-0.4964904189109802
10.792340517044067,-0.16002899408340454,-0.41409170627593994,0.4846646785736084,1.038185715675354,-0.2500572204589844,-0.4968718886375427
10.812443017959595,-0.1672770231962204,-0.41332876682281494,0.4819943606853485,1.0378042459487915,-0.25387197732925415,-0.4968718886375427
10.8325355052948,-0.17376211285591125,-0.41332876682281494,0.47665369510650635,1.0362783670425415,-0.2592126429080963,-0.4961089491844177
10.852644681930542,-0.17719538509845734,-0.41371023654937744,0.4674982726573944,1.0351338386535645,-0.2603570520877838,-0.4961089491844177
10.872690200805664,-0.17566949129104614,-0.41371023654937744,0.4560540020465851,1.033989429473877,-0.2641718089580536,-0.49496451020240784
10.892850160598755,-0.17261768877506256,-0.41447317600250244,0.44804301857948303,1.0351338386535645,-0.2759975492954254,-0.49382010102272034
10.912942171096802,-0.17071031033992767,-0.41599908471107483,0.44460976123809814,1.036659836769104,-0.28629741072654724,-0.49382010102272034
10.932954549789429,-0.1676585078239441,-0.41599908471107483,0.44460976123809814,1.0378042459487915,-0.28439003229141235,-0.49382010102272034
10.953007698059082,-0.1653696447610855,-0.41561761498451233,0.44575417041778564,1.038185715675354,-0.2752346098423004,-0.49382010102272034
10.973117589950562,-0.16422522068023682,-0.41485464572906494,0.4491874575614929,1.036659836769104,-0.26684215664863586,-0.49458304047584534
10.99316930770874,-0.16231784224510193,-0.41447317600250244,0.4560540020465851,1.0362783670425415,-0.2603570520877838,-0.49420157074928284
11.013319492340088,-0.1646067053079605,-0.41447317600250244,0.45872434973716736,1.0362783670425415,-0.2573052644729614,-0.49420157074928284
11.0336012840271,-0.17032882571220398,-0.41447317600250244,0.45719844102859497,1.0355154275894165,-0.25539788603782654,-0.49458304047584534
11.053691864013672,-0.17719538509845734,-0.41332876682281494,0.4499503970146179,1.0351338386535645,-0.24929426610469818,-0.49496451020240784
11.073755502700806,-0.17795833945274353,-0.41142138838768005,0.439269095659256,1.033989429473877,-0.25463491678237915,-0.49458304047584534
11.09382438659668,-0.17185473442077637,-0.41065841913223267,0.4343098998069763,1.033989429473877,-0.26798656582832336,-0.49343863129615784
11.113923072814941,-0.16346226632595062,-0.41142138838768005,0.43202105164527893,1.0351338386535645,-0.28400853276252747,-0.49305713176727295
11.134086608886719,-0.15697719156742096,-0.41409170627593994,0.43202105164527893,1.0362783670425415,-0.28706035017967224,-0.49305713176727295
11.154138803482056,-0.1516365259885788,-0.41371023654937744,0.4327840209007263,1.037422776222229,-0.2821011543273926,-0.49343863129615784
11.174194097518921,-0.14782176911830902,-0.41256579756736755,0.4358358085155487,1.0378042459487915,-0.27180132269859314,-0.49382010102272034
11.194381952285767,-0.14553292095661163,-0.41142138838768005,0.44193941354751587,1.037422776222229,-0.2634088695049286,-0.49382010102272034
11.214404821395874,-0.14782176911830902,-0.41103988885879517,0.4491874575614929,1.037422776222229,-0.2611200213432312,-0.49382010102272034
11.234487295150757,-0.15735866129398346,-0.41065841913223267,0.4541466534137726,1.036659836769104,-0.2588311731815338,-0.49382010102272034
11.2547128200531,-0.1680399775505066,-0.40951400995254517,0.4552910625934601,1.0355154275894165,-0.25463491678237915,-0.49458304047584534
11.274851560592651,-0.17910276353359222,-0.4076066315174103,0.4522392749786377,1.0343708992004395,-0.25349050760269165,-0.49420157074928284
11.294893741607666,-0.18863965570926666,-0.4064621925354004,0.44728007912635803,1.033989429473877,-0.2569237947463989,-0.49382010102272034
11.314976692199707,-0.19245441257953644,-0.4053177833557129,0.439269095659256,1.031700611114502,-0.2595941126346588,-0.49382010102272034
11.335230112075806,-0.19283588230609894,-0.4037918746471405,0.43049514293670654,1.031700611114502,-0.2653162479400635,-0.49382010102272034
11.355316877365112,-0.19054703414440155,-0.404936283826828,0.42629891633987427,1.033226490020752,-0.272945761680603,-0.49305713176727295
11.375434875488281,-0.18825818598270416,-0.4068436622619629,0.4247730076313019,1.0351338386535645,-0.2794308364391327,-0.49343863129615784
11.395469665527344,-0.18558785319328308,-0.4072251319885254,0.42515450716018677,1.036659836769104,-0.2756160795688629,-0.49343863129615784
11.41559100151062,-0.182154580950737,-0.4064621925354004,0.42668038606643677,1.0362783670425415,-0.26760509610176086,-0.49420157074928284
11.435635566711426,-0.17986571788787842,-0.4064621925354004,0.43049514293670654,1.035896897315979,-0.2607385218143463,-0.49420157074928284
11.455708026885986,-0.17566949129104614,-0.4064621925354004,0.4369802474975586,1.0355154275894165,-0.2599755823612213,-0.49420157074928284
11.475833415985107,-0.17376211285591125,-0.40951400995254517,0.44384679198265076,1.0362783670425415,-0.2611200213432312,-0.49382010102272034
11.495893001556396,-0.17681391537189484,-0.41180285811424255,0.44804301857948303,1.0355154275894165,-0.25539788603782654,-0.49420157074928284
11.515985250473022,-0.182917520403862,-0.41180285811424255,0.4484245181083679,1.035896897315979,-0.2508201599121094,-0.49458304047584534
11.536014318466187,-0.1844434291124344,-0.41142138838768005,0.44346532225608826,1.0355154275894165,-0.25120165944099426,-0.49420157074928284
11.556157112121582,-0.17795833945274353,-0.41142138838768005,0.4396505653858185,1.0355154275894165,-0.2615014910697937,-0.49420157074928284
11.57621955871582,-0.1665140837430954,-0.41142138838768005,0.438506156206131,1.0362783670425415,-0.2756160795688629,-0.49229419231414795
11.596269130706787,-0.15354390442371368,-0.41371023654937744,0.4388876259326935,1.0370413064956665,-0.28248265385627747,-0.49191272258758545
11.616457223892212,-0.14209964871406555,-0.41447317600250244,0.4404135048389435,1.037422776222229,-0.28439003229141235,-0.49114975333213806
11.636574983596802,-0.1337071806192398,-0.41409170627593994,0.44308385252952576,1.0393301248550415,-0.2798123061656952,-0.49153125286102295
11.657278299331665,-0.12798504531383514,-0.41371023654937744,0.44766154885292053,1.0400930643081665,-0.272945761680603,-0.49191272258758545
11.677359104156494,-0.12722209095954895,-0.41332876682281494,0.4537651538848877,1.0400930643081665,-0.2660791873931885,-0.49343863129615784
11.697446823120117,-0.12989242374897003,-0.41256579756736755,0.45757991075515747,1.0400930643081665,-0.2618829607963562,-0.49382010102272034
11.717573165893555,-0.1363775134086609,-0.41142138838768005,0.46063172817230225,1.039711594581604,-0.2607385218143463,-0.49343863129615784
11.737586498260498,-0.14667734503746033,-0.40989547967910767,0.46063172817230225,1.038948655128479,-0.2615014910697937,-0.49343863129615784
11.757652521133423,-0.15926603972911835,-0.4087510406970978,0.45872434973716736,1.0378042459487915,-0.264934778213501,-0.49305713176727295
11.777766704559326,-0.17185473442077637,-0.4072251319885254,0.4499503970146179,1.0362783670425415,-0.264934778213501,-0.49305713176727295
11.797943592071533,-0.17681391537189484,-0.4053177833557129,0.4373617172241211,1.034752368927002,-0.264934778213501,-0.49267566204071045
11.817960977554321,-0.17910276353359222,-0.4053177833557129,0.43087664246559143,1.033226490020752,-0.27141985297203064,-0.49343863129615784
11.838032960891724,-0.1813916265964508,-0.4064621925354004,0.42591744661331177,1.0362783670425415,-0.2821011543273926,-0.4888609051704407
11.858101606369019,-0.1825360506772995,-0.40951400995254517,0.4240100681781769,1.036659836769104,-0.2809567451477051,-0.49000534415245056
11.878188371658325,-0.1836804747581482,-0.41065841913223267,0.4240100681781769,1.0370413064956665,-0.2798123061656952,-0.4892423748970032
11.89829707145691,-0.18520638346672058,-0.41065841913223267,0.4247730076313019,1.0362783670425415,-0.27218279242515564,-0.4892423748970032
11.918400049209595,-0.18749523162841797,-0.41027694940567017,0.42553597688674927,1.0355154275894165,-0.2641718089580536,-0.48962387442588806
11.938432216644287,-0.18978407979011536,-0.41027694940567017,0.42591744661331177,1.034752368927002,-0.2626459002494812,-0.48962387442588806
11.958491802215576,-0.19092851877212524,-0.41065841913223267,0.42553597688674927,1.034752368927002,-0.2653162479400635,-0.48962387442588806
11.978580474853516,-0.19321736693382263,-0.41103988885879517,0.42515450716018677,1.034752368927002,-0.26989394426345825,-0.4892423748970032
11.998786926269531,-0.19550621509552002,-0.41180285811424255,0.4243915379047394,1.0351338386535645,-0.27141985297203064,-0.4892423748970032
12.018866300582886,-0.1966506391763687,-0.41294726729393005,0.4243915379047394,1.0355154275894165,-0.27218279242515564,-0.4892423748970032
12.038997173309326,-0.1974135935306549,-0.41371023654937744,0.4243915379047394,1.0351338386535645,-0.27027541399002075,-0.4892423748970032
12.059065103530884,-0.1993209719657898,-0.41371023654937744,0.4243915379047394,1.034752368927002,-0.26874953508377075,-0.4892423748970032
12.079314947128296,-0.20160982012748718,-0.41371023654937744,0.4243915379047394,1.034752368927002,-0.26874953508377075,-0.4892423748970032
12.099436044692993,-0.20351719856262207,-0.41409170627593994,0.4243915379047394,1.034752368927002,-0.26913100481033325,-0.4888609051704407
12.119624614715576,-0.20428015291690826,-0.41485464572906494,0.4240100681781769,1.034752368927002,-0.26951247453689575,-0.4884794354438782
12.139731884002686,-0.20504310727119446,-0.41485464572906494,0.4236285984516144,1.0343708992004395,-0.26874953508377075,-0.4888609051704407
12.159893035888672,-0.20733195543289185,-0.41599908471107483,0.4232471287250519,1.033989429473877,-0.26951247453689575,-0.4880979657173157
12.17992639541626,-0.20885786414146423,-0.41599908471107483,0.4232471287250519,1.0343708992004395,-0.26874953508377075,-0.4880979657173157
12.199975490570068,-0.21114671230316162,-0.41676202416419983,0.4232471287250519,1.033989429473877,-0.26874953508377075,-0.4880979657173157
12.220226526260376,-0.212672621011734,-0.4171435236930847,0.4228656589984894,1.0328450202941895,-0.26874953508377075,-0.4873350262641907
12.240236043930054,-0.2145799994468689,-0.4171435236930847,0.4224841594696045,1.0328450202941895,-0.26913100481033325,-0.4861905872821808
12.260327577590942,-0.21686884760856628,-0.4171435236930847,0.422102689743042,1.0328450202941895,-0.26951247453689575,-0.4861905872821808
12.280528783798218,-0.21839475631713867,-0.4186694025993347,0.422102689743042,1.032463550567627,-0.26913100481033325,-0.4861905872821808
12.300611734390259,-0.22030213475227356,-0.4194323718547821,0.422102689743042,1.032463550567627,-0.26874953508377075,-0.4861905872821808
12.32071042060852,-0.22220951318740845,-0.4201953113079071,0.421339750289917,1.032463550567627,-0.26874953508377075,-0.4858091175556183
12.340744495391846,-0.22411687672138214,-0.4209582805633545,0.421339750289917,1.032463550567627,-0.26913100481033325,-0.4858091175556183
12.360855102539062,-0.22602425515651703,-0.4224841594696045,0.421339750289917,1.032463550567627,-0.26874953508377075,-0.4861905872821808
12.3809175491333,-0.2286945879459381,-0.4232471287250519,0.421339750289917,1.031700611114502,-0.26874953508377075,-0.4858091175556183
12.400973320007324,-0.23212787508964539,-0.42515450716018677,0.421339750289917,1.031700611114502,-0.26874953508377075,-0.4854276478290558
12.421061754226685,-0.23403525352478027,-0.42629891633987427,0.4209582805633545,1.031700611114502,-0.26874953508377075,-0.4854276478290558
12.441119909286499,-0.23556114733219147,-0.42782482504844666,0.4201953113079071,1.0313191413879395,-0.26874953508377075,-0.4854276478290558
12.461167573928833,-0.23785001039505005,-0.42858776450157166,0.4198138415813446,1.0313191413879395,-0.26913100481033325,-0.4850461483001709
12.481224060058594,-0.24052032828330994,-0.43049514293670654,0.4194323718547821,1.0313191413879395,-0.26913100481033325,-0.4850461483001709
12.50131630897522,-0.24242770671844482,-0.43125811219215393,0.4194323718547821,1.0313191413879395,-0.26913100481033325,-0.4850461483001709
12.521379947662354,-0.2443350851535797,-0.4327840209007263,0.4194323718547821,1.0313191413879395,-0.26874953508377075,-0.4846646785736084
12.541435718536377,-0.2481498420238495,-0.4335469603538513,0.4194323718547821,1.030937671661377,-0.26874953508377075,-0.4850461483001709
12.5614914894104,-0.2504386901855469,-0.4335469603538513,0.4190509021282196,1.030174732208252,-0.26874953508377075,-0.4839017391204834
12.581623554229736,-0.25272753834724426,-0.4335469603538513,0.4186694025993347,1.030174732208252,-0.26951247453689575,-0.483138769865036
12.601670980453491,-0.25501641631126404,-0.4335469603538513,0.4182879328727722,1.0297932624816895,-0.26874953508377075,-0.4827573001384735
12.621723890304565,-0.2569237947463989,-0.4346913993358612,0.4179064631462097,1.028648853302002,-0.26874953508377075,-0.482375830411911
12.641829013824463,-0.2595941126346588,-0.4362172782421112,0.4175249934196472,1.028648853302002,-0.26874953508377075,-0.4819943606853485
12.661926507949829,-0.2615014910697937,-0.4377431869506836,0.4175249934196472,1.028648853302002,-0.26836803555488586,-0.481612890958786
12.682027578353882,-0.2626459002494812,-0.44079500436782837,0.4171435236930847,1.028648853302002,-0.26874953508377075,-0.481612890958786
12.702117443084717,-0.264934778213501,-0.44346532225608826,0.4171435236930847,1.028648853302002,-0.26836803555488586,-0.4812313914299011
12.722164154052734,-0.26836803555488586,-0.44613564014434814,0.4171435236930847,1.0282673835754395,-0.26798656582832336,-0.4804684519767761
12.74225115776062,-0.27180132269859314,-0.44804301857948303,0.4171435236930847,1.027885913848877,-0.26836803555488586,-0.4800869822502136
12.762304067611694,-0.2752346098423004,-0.4507133662700653,0.41676202416419983,1.027885913848877,-0.26989394426345825,-0.47932401299476624
12.782376766204834,-0.2779049277305603,-0.4514763057231903,0.41599908471107483,1.0282673835754395,-0.26874953508377075,-0.47856107354164124
12.802484035491943,-0.2809567451477051,-0.4533836841583252,0.41561761498451233,1.027885913848877,-0.26913100481033325,-0.47894254326820374
12.82273817062378,-0.28477150201797485,-0.4556725323200226,0.41523614525794983,1.0275044441223145,-0.26836803555488586,-0.47817960381507874
12.84293532371521,-0.290112167596817,-0.45910581946372986,0.41523614525794983,1.0271228551864624,-0.26760509610176086,-0.47817960381507874
12.862997770309448,-0.2958342730998993,-0.46253910660743713,0.41485464572906494,1.0263599157333374,-0.26836803555488586,-0.47779813408851624
12.88301396369934,-0.30193790793418884,-0.4663538634777069,0.41485464572906494,1.025978446006775,-0.26836803555488586,-0.47741663455963135
12.90309453010559,-0.308041512966156,-0.4709315598011017,0.41447317600250244,1.025978446006775,-0.26874953508377075,-0.47703516483306885
12.923160076141357,-0.3118562698364258,-0.47589075565338135,0.41409170627593994,1.0255969762802124,-0.26836803555488586,-0.47703516483306885
12.94324541091919,-0.31605249643325806,-0.483138769865036,0.41371023654937744,1.02521550655365,-0.26722362637519836,-0.47589075565338135
12.963990449905396,-0.3233005404472351,-0.4953460097312927,0.41409170627593994,1.0248340368270874,-0.264934778213501,-0.47474631667137146
12.98408842086792,-0.32978561520576477,-0.5125123858451843,0.41485464572906494,1.0248340368270874,-0.2634088695049286,-0.4736018776893616
13.004191637039185,-0.3370336592197418,-0.534637987613678,0.4182879328727722,1.0248340368270874,-0.2630273997783661,-0.4701686203479767
13.024477005004883,-0.343900203704834,-0.5621042251586914,0.4224841594696045,1.0248340368270874,-0.2630273997783661,-0.4663538634777069
13.044456720352173,-0.34542611241340637,-0.5853742361068726,0.42782482504844666,1.024452567100525,-0.2641718089580536,-0.46330204606056213
13.0645592212677,-0.34580758213996887,-0.6017776727676392,0.43125811219215393,1.025978446006775,-0.27027541399002075,-0.46177613735198975
13.08466386795044,-0.3442816734313965,-0.6086442470550537,0.4331654906272888,1.027885913848877,-0.2763790488243103,-0.45910581946372986
13.104714393615723,-0.3427557647228241,-0.613603413105011,0.4362172782421112,1.028648853302002,-0.27180132269859314,-0.45910581946372986
13.12483024597168,-0.3416113555431366,-0.6189440488815308,0.4404135048389435,1.028648853302002,-0.2634088695049286,-0.45948728919029236
13.14494252204895,-0.3408484160900116,-0.6246662139892578,0.44575417041778564,1.028648853302002,-0.2588311731815338,-0.45948728919029236
13.165002822875977,-0.3404669165611267,-0.6372548937797546,0.4560540020465851,1.028648853302002,-0.2580682039260864,-0.45948728919029236
13.185110807418823,-0.3423742949962616,-0.6525139212608337,0.4705500900745392,1.028648853302002,-0.25654229521751404,-0.45643550157546997
13.20518708229065,-0.34657052159309387,-0.6685358881950378,0.4850461483001709,1.0282673835754395,-0.25539788603782654,-0.4533836841583252
13.225251913070679,-0.3549630045890808,-0.691042959690094,0.5029755234718323,1.0290303230285645,-0.24891279637813568,-0.4507133662700653
13.245368957519531,-0.361829549074173,-0.7124055624008179,0.5216678380966187,1.030174732208252,-0.2470054179430008,-0.44804301857948303
13.265454769134521,-0.3694590628147125,-0.7364385724067688,0.5415045619010925,1.0320820808410645,-0.24967575073242188,-0.44499123096466064
13.285529136657715,-0.3747997283935547,-0.7555122971534729,0.5617227554321289,1.032463550567627,-0.24891279637813568,-0.4404135048389435
13.305651664733887,-0.3774700462818146,-0.7738231420516968,0.5804150700569153,1.0320820808410645,-0.2462424635887146,-0.4365987777709961
13.32573127746582,-0.37823301553726196,-0.7906080484390259,0.6029220819473267,1.031700611114502,-0.2443350851535797,-0.4327840209007263
13.345821857452393,-0.3767071068286896,-0.8054856061935425,0.622377336025238,1.0313191413879395,-0.23670557141304016,-0.42782482504844666
13.365849494934082,-0.3755626678466797,-0.8188372850418091,0.6387808322906494,1.032463550567627,-0.22716869413852692,-0.4243915379047394
13.386023998260498,-0.3751811981201172,-0.8318074345588684,0.6521324515342712,1.0328450202941895,-0.2134355753660202,-0.4209582805633545
13.406051397323608,-0.3751811981201172,-0.841725766658783,0.6570916175842285,1.033226490020752,-0.20542457699775696,-0.41599908471107483
13.426121711730957,-0.3778515160083771,-0.8501182794570923,0.6586175560951233,1.0336079597473145,-0.1974135935306549,-0.41294726729393005
13.446301698684692,-0.38281071186065674,-0.8562218546867371,0.657473087310791,1.0362783670425415,-0.1993209719657898,-0.4072251319885254
13.466318130493164,-0.3866254687309265,-0.8623254895210266,0.6540398001670837,1.038948655128479,-0.20504310727119446,-0.4003585875034332
13.48640775680542,-0.3881513774394989,-0.8657587766647339,0.6528953909873962,1.0408560037612915,-0.21114671230316162,-0.3904402256011963
13.506448745727539,-0.3885328471660614,-0.8684290647506714,0.6521324515342712,1.042763352394104,-0.2149614691734314,-0.38319218158721924
13.526511192321777,-0.3881513774394989,-0.8695735335350037,0.6525139212608337,1.0435264110565186,-0.21648737788200378,-0.37975889444351196
13.54662799835205,-0.3866254687309265,-0.8691920638084412,0.6528953909873962,1.043144941329956,-0.2130540907382965,-0.37937742471694946
13.566841840744019,-0.38357365131378174,-0.8691920638084412,0.6540398001670837,1.0435264110565186,-0.20809490978717804,-0.37899595499038696
13.586984157562256,-0.3778515160083771,-0.8707179427146912,0.6536583304405212,1.0435264110565186,-0.20122835040092468,-0.3778515160083771
13.607107639312744,-0.3740367889404297,-0.8737697601318359,0.649462103843689,1.043144941329956,-0.18635080754756927,-0.3744182586669922
13.627134323120117,-0.3751811981201172,-0.8775845170021057,0.6433585286140442,1.042763352394104,-0.17261768877506256,-0.3702220320701599
13.64722990989685,-0.38242924213409424,-0.8829251527786255,0.6387808322906494,1.0423818826675415,-0.16880293190479279,-0.36411839723587036
13.66742205619812,-0.3885328471660614,-0.8878843188285828,0.6368734240531921,1.042763352394104,-0.17452506721019745,-0.3553444743156433
13.687398195266724,-0.3881513774394989,-0.8901731967926025,0.6372548937797546,1.043144941329956,-0.1844434291124344,-0.3442816734313965
13.70748519897461,-0.3881513774394989,-0.890554666519165,0.6387808322906494,1.042763352394104,-0.18596932291984558,-0.33588922023773193
13.727595567703247,-0.3889143168926239,-0.8901731967926025,0.6403067111968994,1.0408560037612915,-0.1813916265964508,-0.33474478125572205
13.74768590927124,-0.3892957866191864,-0.88979172706604,0.6425955891609192,1.0393301248550415,-0.17719538509845734,-0.33245593309402466
13.767740249633789,-0.3854810297489166,-0.8901731967926025,0.6445029377937317,1.0385671854019165,-0.17185473442077637,-0.3282597064971924
13.787844181060791,-0.38281071186065674,-0.8928435444831848,0.6410696506500244,1.0378042459487915,-0.16269932687282562,-0.325970858335495
13.808005332946777,-0.38242924213409424,-0.8966583013534546,0.6357290148735046,1.035896897315979,-0.1516365259885788,-0.32101166248321533
13.828150033950806,-0.3850995600223541,-0.9016174674034119,0.6338216066360474,1.0355154275894165,-0.1501106321811676,-0.3133821487426758
13.848241806030273,-0.3854810297489166,-0.9069581031799316,0.6376363635063171,1.035896897315979,-0.164988175034523,-0.30193790793418884
13.868295192718506,-0.3843366205692291,-0.9084840416908264,0.6410696506500244,1.0362783670425415,-0.17261768877506256,-0.290875107049942
13.888532876968384,-0.38319218158721924,-0.9081025123596191,0.6483176946640015,1.0351338386535645,-0.17490653693675995,-0.28439003229141235
13.908620595932007,-0.38242924213409424,-0.9065766334533691,0.6563286781311035,1.0320820808410645,-0.1680399775505066,-0.2790493667125702
13.92876386642456,-0.37899595499038696,-0.9069581031799316,0.6597619652748108,1.029411792755127,-0.16002899408340454,-0.2748531401157379
13.948793888092041,-0.37975889444351196,-0.9073395729064941,0.656710147857666,1.02521550655365,-0.14171816408634186,-0.27180132269859314
13.969273805618286,-0.38128480315208435,-0.9077210426330566,0.6521324515342712,1.02216374874115,-0.13027389347553253,-0.26951247453689575
13.989407300949097,-0.3843366205692291,-0.9092469811439514,0.6448844075202942,1.0217822790145874,-0.13141833245754242,-0.26836803555488586
14.009492874145508,-0.3889143168926239,-0.9126802682876587,0.6380178332328796,1.0225452184677124,-0.13828489184379578,-0.264934778213501
14.029523372650146,-0.386243999004364,-0.9164950251579285,0.6387808322906494,1.0225452184677124,-0.15850308537483215,-0.2576867341995239
14.049623727798462,-0.38319218158721924,-0.9195467829704285,0.6403067111968994,1.022926688194275,-0.16346226632595062,-0.24929426610469818
14.069679975509644,-0.38204777240753174,-0.9195467829704285,0.6445029377937317,1.0217822790145874,-0.16193637251853943,-0.2470054179430008
14.089795589447021,-0.37975889444351196,-0.9180209040641785,0.648699164390564,1.0206378698349,-0.15506981313228607,-0.2462424635887146
14.109843254089355,-0.3763256371021271,-0.9180209040641785,0.655184268951416,1.0194933414459229,-0.14820325374603271,-0.2454795092344284
14.129904747009277,-0.3763256371021271,-0.919165313243866,0.6582360863685608,1.0160601139068604,-0.1367589831352234,-0.24128328263759613
14.149987697601318,-0.3770885765552521,-0.9195467829704285,0.6578545570373535,1.0149157047271729,-0.12951095402240753,-0.24128328263759613
14.170061588287354,-0.37899595499038696,-0.9195467829704285,0.6555657386779785,1.0130083560943604,-0.12798504531383514,-0.24052032828330994
