liuyurong129/humanoid-gym/humanoid/data/actual_q_20250521-002936.csv
timestamp,joint_1,joint_2,joint_3,joint_4,joint_5,joint_6
0.00015997886657714844,0.00019073777366429567,0.17414358258247375,-0.0871671661734581,-0.00019073777366429567,0.00019073777366429567,-0.000572213320992887
0.020259857177734375,0.00019073777366429567,0.15392538905143738,-0.07839322835206985,-0.00019073777366429567,0.00019073777366429567,-0.000572213320992887
0.04032254219055176,-0.00019073777366429567,0.13027389347553253,-0.06847485899925232,-0.00019073777366429567,0.0009536888683214784,-0.000572213320992887
0.06036877632141113,-0.00019073777366429567,0.11387044936418533,-0.06084534898400307,-0.00019073777366429567,0.0024795911740511656,-0.000572213320992887
0.0804908275604248,-0.00019073777366429567,0.10967422276735306,-0.05970092490315437,-0.00019073777366429567,0.000572213320992887,-0.00019073777366429567
0.10055279731750488,-0.00019073777366429567,0.11005569249391556,-0.05970092490315437,-0.00019073777366429567,0.000572213320992887,-0.00019073777366429567
0.1207129955291748,-0.00019073777366429567,0.11196307092905045,-0.059319447726011276,0.00019073777366429567,0.00019073777366429567,-0.00019073777366429567
0.1407325267791748,-0.00019073777366429567,0.11196307092905045,-0.058175019919872284,0.00019073777366429567,0.00019073777366429567,-0.00019073777366429567
0.16080927848815918,-0.00019073777366429567,0.11158160120248795,-0.058175019919872284,0.00019073777366429567,0.000572213320992887,-0.00019073777366429567
0.18096923828125,-0.00019073777366429567,0.11158160120248795,-0.058175019919872284,0.00019073777366429567,0.000572213320992887,-0.00019073777366429567
0.20094537734985352,-0.00019073777366429567,0.11081864684820175,-0.05855649709701538,0.00019073777366429567,0.0009536888683214784,-0.00019073777366429567
0.22103595733642578,-0.00019073777366429567,0.10967422276735306,-0.058175019919872284,0.00019073777366429567,0.0009536888683214784,-0.00019073777366429567
0.24109911918640137,-0.00019073777366429567,0.10967422276735306,-0.05741206929087639,0.00019073777366429567,0.000572213320992887,-0.00019073777366429567
0.26117682456970215,-0.00019073777366429567,0.10967422276735306,-0.05741206929087639,0.00019073777366429567,0.000572213320992887,-0.00019073777366429567
0.2812204360961914,-0.00019073777366429567,0.10967422276735306,-0.05741206929087639,0.00019073777366429567,0.000572213320992887,-0.00019073777366429567
0.30130887031555176,-0.00019073777366429567,0.10929274559020996,-0.05741206929087639,0.00019073777366429567,0.000572213320992887,-0.00019073777366429567
0.32147693634033203,-0.00019073777366429567,0.10852979123592377,-0.05703059583902359,0.00019073777366429567,0.000572213320992887,-0.00019073777366429567
0.34150266647338867,-0.00019073777366429567,0.10852979123592377,-0.05703059583902359,0.000572213320992887,0.000572213320992887,0.00019073777366429567
0.3615550994873047,-0.00019073777366429567,0.10852979123592377,-0.056267641484737396,0.000572213320992887,0.000572213320992887,0.00019073777366429567
0.3817176818847656,-0.00019073777366429567,0.10776684433221817,-0.0558861680328846,0.000572213320992887,0.000572213320992887,0.00019073777366429567
0.40172672271728516,-0.00019073777366429567,0.10738536715507507,-0.0555046908557415,0.000572213320992887,0.000572213320992887,0.000572213320992887
0.4217822551727295,-0.00019073777366429567,0.10738536715507507,-0.0555046908557415,0.0009536888683214784,0.000572213320992887,0.000572213320992887
0.44185853004455566,-0.00019073777366429567,0.10662241280078888,-0.0555046908557415,0.0009536888683214784,0.000572213320992887,0.0009536888683214784
0.4619293212890625,-0.00019073777366429567,0.10624094307422638,-0.0551232174038887,0.0013351644156500697,0.000572213320992887,0.0009536888683214784
0.48200035095214844,-0.00019073777366429567,0.10547798871994019,-0.0551232174038887,0.001716639962978661,0.000572213320992887,0.0009536888683214784
0.5020492076873779,-0.00019073777366429567,0.10547798871994019,-0.054741740226745605,0.001716639962978661,0.000572213320992887,0.0009536888683214784
0.5221576690673828,-0.00019073777366429567,0.10547798871994019,-0.05436026677489281,0.0020981156267225742,0.000572213320992887,0.0013351644156500697
0.5422542095184326,-0.00019073777366429567,0.10509651154279709,-0.05397878959774971,0.0024795911740511656,0.000572213320992887,0.0013351644156500697
0.5624463558197021,-0.00019073777366429567,0.10471503436565399,-0.05359731614589691,0.002861066721379757,0.000572213320992887,0.0013351644156500697
0.5824005603790283,-0.00019073777366429567,0.10433356463909149,-0.05359731614589691,0.002861066721379757,0.000572213320992887,0.0013351644156500697
0.6025471687316895,-0.00019073777366429567,0.10433356463909149,-0.05359731614589691,0.0032425422687083483,0.000572213320992887,0.001716639962978661
0.6225628852844238,-0.00019073777366429567,0.1035706102848053,-0.053215838968753815,0.0032425422687083483,0.000572213320992887,0.001716639962978661
0.6426496505737305,-0.00019073777366429567,0.1031891331076622,-0.053215838968753815,0.0036240178160369396,0.0009536888683214784,0.0020981156267225742
0.6626923084259033,-0.00019073777366429567,0.1028076633810997,-0.053215838968753815,0.0036240178160369396,0.000572213320992887,0.0020981156267225742
0.6827878952026367,-0.00019073777366429567,0.1024261862039566,-0.053215838968753815,0.0036240178160369396,0.000572213320992887,0.0024795911740511656
0.7028598785400391,-0.000572213320992887,0.10204470902681351,-0.05245288833975792,0.004005493130534887,0.000572213320992887,0.0024795911740511656
0.722926139831543,-0.000572213320992887,0.10166323184967041,-0.05207141116261482,0.004005493130534887,0.000572213320992887,0.002861066721379757
0.7431700229644775,-0.000572213320992887,0.10166323184967041,-0.051689937710762024,0.004005493130534887,0.0009536888683214784,0.0032425422687083483
0.7632672786712646,-0.000572213320992887,0.10128175467252731,-0.05130846053361893,0.004386968910694122,0.0009536888683214784,0.004005493130534887
0.7833244800567627,-0.000572213320992887,0.10090028494596481,-0.05130846053361893,0.004386968910694122,0.000572213320992887,0.004005493130534887
0.8033850193023682,-0.000572213320992887,0.10013733059167862,-0.05130846053361893,0.00476844422519207,0.000572213320992887,0.004386968910694122
0.8238029479980469,-0.000572213320992887,0.10013733059167862,-0.05130846053361893,0.005149920005351305,0.0009536888683214784,0.004386968910694122
0.8438961505889893,-0.000572213320992887,0.09937438368797302,-0.05092698708176613,0.005531395319849253,0.0009536888683214784,0.004386968910694122
0.8639795780181885,-0.0009536888683214784,0.09899290651082993,-0.050164032727479935,0.00667582219466567,0.0009536888683214784,0.004386968910694122
0.8840489387512207,-0.0009536888683214784,0.09899290651082993,-0.050164032727479935,0.00667582219466567,0.000572213320992887,0.00476844422519207
0.9040942192077637,-0.0013351644156500697,0.09822995215654373,-0.049782559275627136,0.007057297509163618,0.0009536888683214784,0.00476844422519207
0.9242048263549805,-0.001716639962978661,0.09784847497940063,-0.04940108209848404,0.007057297509163618,0.0009536888683214784,0.00476844422519207
0.9443662166595459,-0.001716639962978661,0.09784847497940063,-0.04940108209848404,0.007057297509163618,0.000572213320992887,0.00476844422519207
0.9643797874450684,-0.001716639962978661,0.09746700525283813,-0.04940108209848404,0.007438773289322853,0.0009536888683214784,0.00476844422519207
0.9844307899475098,-0.0024795911740511656,0.09746700525283813,-0.04901960864663124,0.007438773289322853,0.0009536888683214784,0.005149920005351305
1.004504919052124,-0.0024795911740511656,0.09708552807569504,-0.048638131469488144,0.007438773289322853,0.0009536888683214784,0.005149920005351305
1.024582862854004,-0.0024795911740511656,0.09632257372140884,-0.048256658017635345,0.007438773289322853,0.0009536888683214784,0.005149920005351305
1.0446527004241943,-0.0024795911740511656,0.09594109654426575,-0.04787518084049225,0.0078202486038208,0.0009536888683214784,0.005149920005351305
1.0648126602172852,-0.0024795911740511656,0.09555962681770325,-0.04787518084049225,0.0078202486038208,0.0009536888683214784,0.005531395319849253
1.0849084854125977,-0.0024795911740511656,0.09517814964056015,-0.04787518084049225,0.0078202486038208,0.0009536888683214784,0.005531395319849253
1.1049816608428955,-0.0024795911740511656,0.09517814964056015,-0.04749370738863945,0.008201723918318748,0.0009536888683214784,0.005531395319849253
1.1250462532043457,-0.0024795911740511656,0.09441519528627396,-0.04711223021149635,0.00858320016413927,0.0009536888683214784,0.005531395319849253
1.1451246738433838,-0.0024795911740511656,0.09441519528627396,-0.04711223021149635,0.008964675478637218,0.0009536888683214784,0.005912871100008488
1.1652014255523682,-0.0024795911740511656,0.09403372555971146,-0.046730753034353256,0.009346150793135166,0.0009536888683214784,0.006294346414506435
1.185286045074463,-0.0024795911740511656,0.09327077120542526,-0.04634927958250046,0.009727626107633114,0.0009536888683214784,0.00667582219466567
1.2053601741790771,-0.0024795911740511656,0.09288929402828217,-0.04596780240535736,0.010109102353453636,0.0009536888683214784,0.007057297509163618
1.2257256507873535,-0.0024795911740511656,0.09288929402828217,-0.04596780240535736,0.010490577667951584,0.0009536888683214784,0.0078202486038208
1.2458298206329346,-0.002861066721379757,0.09212634712457657,-0.04558632895350456,0.010872052982449532,0.0009536888683214784,0.008201723918318748
1.2659084796905518,-0.002861066721379757,0.09174486994743347,-0.045204851776361465,0.010872052982449532,0.0009536888683214784,0.008201723918318748
1.2859692573547363,-0.002861066721379757,0.09136339277029037,-0.045204851776361465,0.010872052982449532,0.0009536888683214784,0.008201723918318748
1.306053876876831,-0.0036240178160369396,0.09060044586658478,-0.04482337832450867,0.01125352829694748,0.0009536888683214784,0.008201723918318748
1.3261196613311768,-0.004005493130534887,0.09060044586658478,-0.04482337832450867,0.01125352829694748,0.0009536888683214784,0.00858320016413927
1.3461720943450928,-0.004386968910694122,0.09021896868944168,-0.04406042397022247,0.01125352829694748,0.0009536888683214784,0.00858320016413927
1.3662221431732178,-0.004386968910694122,0.09021896868944168,-0.04406042397022247,0.011635004542768002,0.0009536888683214784,0.00858320016413927
1.3863027095794678,-0.004386968910694122,0.08983749151229858,-0.043678950518369675,0.011635004542768002,0.0009536888683214784,0.008964675478637218
1.406383752822876,-0.004386968910694122,0.08983749151229858,-0.04329747334122658,0.01201647985726595,0.0009536888683214784,0.008964675478637218
1.4264771938323975,-0.004386968910694122,0.08907453715801239,-0.04329747334122658,0.01201647985726595,0.0009536888683214784,0.008964675478637218
1.4465610980987549,-0.004386968910694122,0.0883115902543068,-0.04329747334122658,0.012397955171763897,0.0009536888683214784,0.009346150793135166
1.4666235446929932,-0.004386968910694122,0.0879301130771637,-0.04291599988937378,0.012779430486261845,0.0009536888683214784,0.009346150793135166
1.4867053031921387,-0.004386968910694122,0.0879301130771637,-0.04291599988937378,0.013923857361078262,0.0009536888683214784,0.009727626107633114
1.506770372390747,-0.004386968910694122,0.0879301130771637,-0.04253452271223068,0.01430533267557621,0.0009536888683214784,0.010109102353453636
1.5268397331237793,-0.004386968910694122,0.0871671661734581,-0.042153049260377884,0.014686808921396732,0.0009536888683214784,0.010490577667951584
1.5469110012054443,-0.004386968910694122,0.086785688996315,-0.04139009863138199,0.014686808921396732,0.0009536888683214784,0.01125352829694748
1.5669798851013184,-0.004386968910694122,0.086785688996315,-0.04100862145423889,0.014686808921396732,0.0009536888683214784,0.011635004542768002
1.5870962142944336,-0.00476844422519207,0.08602273464202881,-0.04100862145423889,0.01506828423589468,0.0009536888683214784,0.011635004542768002
1.6071786880493164,-0.004386968910694122,0.08564125746488571,-0.04100862145423889,0.01506828423589468,0.0013351644156500697,0.011635004542768002
1.6272368431091309,-0.004386968910694122,0.08564125746488571,-0.04100862145423889,0.01506828423589468,0.0009536888683214784,0.01201647985726595
1.647413730621338,-0.00476844422519207,0.08487831056118011,-0.04100862145423889,0.015449759550392628,0.0013351644156500697,0.01201647985726595
1.667419195175171,-0.00476844422519207,0.08487831056118011,-0.040627144277095795,0.015449759550392628,0.0009536888683214784,0.01201647985726595
1.6875276565551758,-0.00476844422519207,0.08411535620689392,-0.0398641936480999,0.01583123579621315,0.0009536888683214784,0.01201647985726595
1.7075979709625244,-0.00476844422519207,0.08373387902975082,-0.0394827201962471,0.01583123579621315,0.0009536888683214784,0.01201647985726595
1.7276678085327148,-0.00476844422519207,0.08373387902975082,-0.039101243019104004,0.016594186425209045,0.0013351644156500697,0.01201647985726595
1.7477355003356934,-0.00476844422519207,0.08297093212604523,-0.039101243019104004,0.016975661739706993,0.0013351644156500697,0.01201647985726595
1.7677943706512451,-0.005531395319849253,0.08258945494890213,-0.039101243019104004,0.01735713705420494,0.0013351644156500697,0.01201647985726595
1.7879002094268799,-0.005531395319849253,0.08258945494890213,-0.038719769567251205,0.018120087683200836,0.0013351644156500697,0.01201647985726595
1.8080809116363525,-0.005531395319849253,0.08258945494890213,-0.038719769567251205,0.018120087683200836,0.0013351644156500697,0.012397955171763897
1.828277587890625,-0.005531395319849253,0.08182650804519653,-0.038719769567251205,0.018501564860343933,0.0009536888683214784,0.012397955171763897
1.8483061790466309,-0.005531395319849253,0.08068207651376724,-0.03833829239010811,0.018501564860343933,0.0009536888683214784,0.012397955171763897
1.868344783782959,-0.005531395319849253,0.08068207651376724,-0.03795681521296501,0.018501564860343933,0.0013351644156500697,0.012397955171763897
1.8883891105651855,-0.005531395319849253,0.08068207651376724,-0.03757534176111221,0.01888304017484188,0.0013351644156500697,0.012397955171763897
1.9084734916687012,-0.005531395319849253,0.08068207651376724,-0.037193864583969116,0.01888304017484188,0.0013351644156500697,0.012397955171763897
1.9285304546356201,-0.005531395319849253,0.07991912961006165,-0.03681239113211632,0.01888304017484188,0.0013351644156500697,0.012779430486261845
1.948608636856079,-0.005531395319849253,0.07953765243291855,-0.03681239113211632,0.01926451548933983,0.0013351644156500697,0.012779430486261845
1.9687135219573975,-0.005531395319849253,0.07877469807863235,-0.03681239113211632,0.01926451548933983,0.0013351644156500697,0.012779430486261845
1.9887371063232422,-0.005912871100008488,0.07839322835206985,-0.03681239113211632,0.01926451548933983,0.0013351644156500697,0.012779430486261845
2.008805274963379,-0.005912871100008488,0.07801175117492676,-0.03643091395497322,0.019645990803837776,0.0013351644156500697,0.012779430486261845
2.0288798809051514,-0.00667582219466567,0.07801175117492676,-0.035667963325977325,0.019645990803837776,0.0013351644156500697,0.012779430486261845
2.0489609241485596,-0.00667582219466567,0.07763027399778366,-0.035667963325977325,0.020027466118335724,0.0013351644156500697,0.013160906732082367
2.0690500736236572,-0.00667582219466567,0.07763027399778366,-0.03528648987412453,0.02040894143283367,0.0013351644156500697,0.013160906732082367
2.089136838912964,-0.00667582219466567,0.07724879682064056,-0.03490501269698143,0.021171892061829567,0.0013351644156500697,0.013160906732082367
2.109241247177124,-0.00667582219466567,0.07648584991693497,-0.03490501269698143,0.02193484455347061,0.0013351644156500697,0.013542382046580315
2.129251718521118,-0.00667582219466567,0.07572289556264877,-0.03452353551983833,0.02193484455347061,0.0013351644156500697,0.013542382046580315
2.1493327617645264,-0.00667582219466567,0.07572289556264877,-0.03452353551983833,0.02231631986796856,0.001716639962978661,0.013923857361078262
2.1695034503936768,-0.00667582219466567,0.07534141838550568,-0.03376058489084244,0.02231631986796856,0.001716639962978661,0.013923857361078262
2.189531087875366,-0.00667582219466567,0.07534141838550568,-0.03376058489084244,0.022697795182466507,0.001716639962978661,0.01430533267557621
2.209662675857544,-0.00667582219466567,0.07534141838550568,-0.03337911143898964,0.022697795182466507,0.0013351644156500697,0.014686808921396732
2.229746103286743,-0.007057297509163618,0.07419699430465698,-0.03337911143898964,0.022697795182466507,0.001716639962978661,0.01506828423589468
2.2498092651367188,-0.007438773289322853,0.07343403995037079,-0.03299763426184654,0.023079270496964455,0.001716639962978661,0.01506828423589468
2.269857883453369,-0.007438773289322853,0.07343403995037079,-0.03299763426184654,0.023079270496964455,0.001716639962978661,0.015449759550392628
2.290009021759033,-0.007438773289322853,0.07343403995037079,-0.03299763426184654,0.023460745811462402,0.001716639962978661,0.015449759550392628
2.310105323791504,-0.007438773289322853,0.07305257022380829,-0.032616160809993744,0.02384222112596035,0.001716639962978661,0.015449759550392628
2.3301591873168945,-0.007438773289322853,0.07305257022380829,-0.03223468363285065,0.02384222112596035,0.001716639962978661,0.015449759550392628
2.3502275943756104,-0.007438773289322853,0.0722896158695221,-0.03185320645570755,0.024223696440458298,0.001716639962978661,0.01583123579621315
2.370277166366577,-0.007438773289322853,0.071908138692379,-0.03147173300385475,0.024223696440458298,0.0020981156267225742,0.01583123579621315
2.3903708457946777,-0.007438773289322853,0.0715266615152359,-0.03147173300385475,0.024605173617601395,0.0020981156267225742,0.01583123579621315
2.4104721546173096,-0.007438773289322853,0.0711451917886734,-0.03147173300385475,0.024986648932099342,0.0020981156267225742,0.01583123579621315
2.4306209087371826,-0.007438773289322853,0.0711451917886734,-0.031090257689356804,0.02536812424659729,0.001716639962978661,0.016212711110711098
2.4506168365478516,-0.007438773289322853,0.0707637146115303,-0.030708782374858856,0.02536812424659729,0.0020981156267225742,0.016212711110711098
2.4707250595092773,-0.007438773289322853,0.07000076025724411,-0.030708782374858856,0.025749599561095238,0.0020981156267225742,0.016212711110711098
2.490842819213867,-0.007438773289322853,0.06961929053068161,-0.03032730519771576,0.025749599561095238,0.0020981156267225742,0.016594186425209045
2.5108864307403564,-0.007438773289322853,0.06923781335353851,-0.02994582988321781,0.025749599561095238,0.0020981156267225742,0.016594186425209045
2.5309410095214844,-0.0078202486038208,0.06885633617639542,-0.029564354568719864,0.026131074875593185,0.0020981156267225742,0.016594186425209045
2.551020383834839,-0.0078202486038208,0.06885633617639542,-0.029564354568719864,0.026131074875593185,0.0020981156267225742,0.016975661739706993
2.5711114406585693,-0.0078202486038208,0.06809338182210922,-0.02880140393972397,0.026131074875593185,0.0020981156267225742,0.016975661739706993
2.5912599563598633,-0.0078202486038208,0.06809338182210922,-0.02880140393972397,0.026512550190091133,0.0020981156267225742,0.01735713705420494
2.6112682819366455,-0.0078202486038208,0.06809338182210922,-0.02880140393972397,0.026512550190091133,0.0020981156267225742,0.01773861236870289
2.6314170360565186,-0.0078202486038208,0.06771191209554672,-0.02880140393972397,0.02689402550458908,0.0020981156267225742,0.01773861236870289
2.6514525413513184,-0.0078202486038208,0.06656748056411743,-0.02841992862522602,0.02689402550458908,0.0020981156267225742,0.018501564860343933
2.671513319015503,-0.0078202486038208,0.06618601083755493,-0.02841992862522602,0.02727550081908703,0.0020981156267225742,0.01888304017484188
2.691624641418457,-0.0078202486038208,0.06618601083755493,-0.028038453310728073,0.02727550081908703,0.0020981156267225742,0.01888304017484188
2.7117347717285156,-0.008201723918318748,0.06580453366041183,-0.027656977996230125,0.027656977996230125,0.0020981156267225742,0.01926451548933983
2.731825590133667,-0.008201723918318748,0.06542305648326874,-0.02727550081908703,0.028038453310728073,0.0020981156267225742,0.01926451548933983
2.7518699169158936,-0.00858320016413927,0.06504157930612564,-0.026512550190091133,0.02880140393972397,0.0024795911740511656,0.01926451548933983
2.7720489501953125,-0.00858320016413927,0.06504157930612564,-0.026512550190091133,0.029182879254221916,0.0024795911740511656,0.01926451548933983
2.7921321392059326,-0.00858320016413927,0.06466010212898254,-0.026512550190091133,0.029564354568719864,0.0024795911740511656,0.01926451548933983
2.812209367752075,-0.00858320016413927,0.06389715522527695,-0.026512550190091133,0.029564354568719864,0.0024795911740511656,0.01926451548933983
2.832256317138672,-0.00858320016413927,0.06389715522527695,-0.026512550190091133,0.02994582988321781,0.0024795911740511656,0.019645990803837776
2.8523683547973633,-0.00858320016413927,0.06351567804813385,-0.026131074875593185,0.02994582988321781,0.0024795911740511656,0.019645990803837776
2.8724498748779297,-0.008964675478637218,0.06313420087099075,-0.02536812424659729,0.03032730519771576,0.002861066721379757,0.019645990803837776
2.892533540725708,-0.008964675478637218,0.06275273114442825,-0.02536812424659729,0.03032730519771576,0.002861066721379757,0.019645990803837776
2.9125850200653076,-0.009727626107633114,0.06237125024199486,-0.024986648932099342,0.03032730519771576,0.002861066721379757,0.020027466118335724
2.9326579570770264,-0.009727626107633114,0.06198977679014206,-0.024605173617601395,0.030708782374858856,0.002861066721379757,0.020027466118335724
2.9527504444122314,-0.009727626107633114,0.061226826161146164,-0.024605173617601395,0.030708782374858856,0.002861066721379757,0.020027466118335724
2.9728405475616455,-0.009727626107633114,0.06084534898400307,-0.024605173617601395,0.031090257689356804,0.0024795911740511656,0.020027466118335724
2.9929301738739014,-0.009727626107633114,0.06084534898400307,-0.024223696440458298,0.03147173300385475,0.002861066721379757,0.020027466118335724
3.013007164001465,-0.009727626107633114,0.06084534898400307,-0.024223696440458298,0.03185320645570755,0.002861066721379757,0.020027466118335724
3.03305983543396,-0.009727626107633114,0.06008239835500717,-0.02384222112596035,0.032616160809993744,0.0032425422687083483,0.02040894143283367
3.053154230117798,-0.009727626107633114,0.059319447726011276,-0.023460745811462402,0.03299763426184654,0.0032425422687083483,0.02040894143283367
3.073216199874878,-0.009727626107633114,0.05893797054886818,-0.023460745811462402,0.03299763426184654,0.0032425422687083483,0.02040894143283367
3.0932745933532715,-0.009727626107633114,0.05893797054886818,-0.023079270496964455,0.03337911143898964,0.0032425422687083483,0.02040894143283367
3.113389492034912,-0.009727626107633114,0.05893797054886818,-0.023079270496964455,0.03337911143898964,0.0032425422687083483,0.02079041674733162
3.1334667205810547,-0.009727626107633114,0.05855649709701538,-0.022697795182466507,0.03337911143898964,0.0032425422687083483,0.02079041674733162
3.1535398960113525,-0.009727626107633114,0.058175019919872284,-0.02231631986796856,0.03337911143898964,0.0032425422687083483,0.02079041674733162
3.17366361618042,-0.009727626107633114,0.057793546468019485,-0.02231631986796856,0.03376058489084244,0.0032425422687083483,0.02079041674733162
3.1937081813812256,-0.009727626107633114,0.05741206929087639,-0.02193484455347061,0.03376058489084244,0.0032425422687083483,0.021171892061829567
3.2137656211853027,-0.009727626107633114,0.05664911866188049,-0.02193484455347061,0.03376058489084244,0.0032425422687083483,0.021553369238972664
3.233812093734741,-0.010109102353453636,0.05664911866188049,-0.02193484455347061,0.034142062067985535,0.0032425422687083483,0.02193484455347061
3.253894090652466,-0.010109102353453636,0.056267641484737396,-0.021171892061829567,0.034142062067985535,0.0032425422687083483,0.02193484455347061
3.273958921432495,-0.010109102353453636,0.0558861680328846,-0.021171892061829567,0.034142062067985535,0.0032425422687083483,0.02231631986796856
3.2940776348114014,-0.010490577667951584,0.0558861680328846,-0.02079041674733162,0.034142062067985535,0.0036240178160369396,0.022697795182466507
3.314131736755371,-0.010872052982449532,0.0555046908557415,-0.02079041674733162,0.03452353551983833,0.0036240178160369396,0.022697795182466507
3.334296941757202,-0.010872052982449532,0.054741740226745605,-0.02040894143283367,0.03452353551983833,0.0032425422687083483,0.022697795182466507
3.3543357849121094,-0.010872052982449532,0.05359731614589691,-0.02040894143283367,0.03490501269698143,0.0032425422687083483,0.023079270496964455
3.3743677139282227,-0.010872052982449532,0.05359731614589691,-0.020027466118335724,0.03528648987412453,0.0032425422687083483,0.023079270496964455
3.394460439682007,-0.010872052982449532,0.05359731614589691,-0.020027466118335724,0.035667963325977325,0.0036240178160369396,0.023079270496964455
3.4145336151123047,-0.010872052982449532,0.05359731614589691,-0.01926451548933983,0.03643091395497322,0.0036240178160369396,0.023079270496964455
3.4346139430999756,-0.010872052982449532,0.053215838968753815,-0.01888304017484188,0.03681239113211632,0.0036240178160369396,0.023460745811462402
3.454664468765259,-0.01125352829694748,0.05283436179161072,-0.01888304017484188,0.037193864583969116,0.0036240178160369396,0.023460745811462402
3.4750027656555176,-0.011635004542768002,0.05245288833975792,-0.018501564860343933,0.037193864583969116,0.0036240178160369396,0.023460745811462402
3.4951047897338867,-0.01201647985726595,0.051689937710762024,-0.018501564860343933,0.037193864583969116,0.0036240178160369396,0.023460745811462402
3.515193462371826,-0.01201647985726595,0.05130846053361893,-0.018501564860343933,0.03757534176111221,0.0036240178160369396,0.02384222112596035
3.5352938175201416,-0.01201647985726595,0.05130846053361893,-0.018120087683200836,0.03757534176111221,0.0036240178160369396,0.02384222112596035
3.5554020404815674,-0.01201647985726595,0.05092698708176613,-0.018120087683200836,0.03795681521296501,0.0036240178160369396,0.02384222112596035
3.5754594802856445,-0.01201647985726595,0.05054550990462303,-0.01735713705420494,0.03795681521296501,0.0036240178160369396,0.02384222112596035
3.595529556274414,-0.01201647985726595,0.05054550990462303,-0.01735713705420494,0.03795681521296501,0.004005493130534887,0.024223696440458298
3.615665912628174,-0.01201647985726595,0.049782559275627136,-0.016975661739706993,0.03833829239010811,0.0036240178160369396,0.024223696440458298
3.6357529163360596,-0.01201647985726595,0.04940108209848404,-0.016975661739706993,0.038719769567251205,0.004005493130534887,0.024605173617601395
3.6558187007904053,-0.01201647985726595,0.04940108209848404,-0.016594186425209045,0.038719769567251205,0.0036240178160369396,0.024605173617601395
3.6759135723114014,-0.01201647985726595,0.04940108209848404,-0.016594186425209045,0.0394827201962471,0.0036240178160369396,0.024986648932099342
3.695997953414917,-0.01201647985726595,0.048638131469488144,-0.016212711110711098,0.0398641936480999,0.004005493130534887,0.02536812424659729
3.716097831726074,-0.01201647985726595,0.048256658017635345,-0.016212711110711098,0.040245670825242996,0.004005493130534887,0.026512550190091133
3.7361674308776855,-0.01201647985726595,0.048256658017635345,-0.01583123579621315,0.040627144277095795,0.004005493130534887,0.02689402550458908
3.7562146186828613,-0.012397955171763897,0.04749370738863945,-0.01583123579621315,0.040627144277095795,0.004005493130534887,0.02689402550458908
3.776299238204956,-0.012397955171763897,0.046730753034353256,-0.01506828423589468,0.04100862145423889,0.004005493130534887,0.02727550081908703
3.7963619232177734,-0.012397955171763897,0.04634927958250046,-0.014686808921396732,0.04100862145423889,0.004005493130534887,0.02727550081908703
3.8164408206939697,-0.012397955171763897,0.04634927958250046,-0.014686808921396732,0.04100862145423889,0.004005493130534887,0.02727550081908703
3.836495876312256,-0.012779430486261845,0.04634927958250046,-0.01430533267557621,0.04139009863138199,0.004005493130534887,0.02727550081908703
3.856600284576416,-0.012779430486261845,0.04596780240535736,-0.013923857361078262,0.04139009863138199,0.004005493130534887,0.02727550081908703
3.8766753673553467,-0.012779430486261845,0.045204851776361465,-0.013923857361078262,0.04139009863138199,0.004005493130534887,0.027656977996230125
3.8967480659484863,-0.012779430486261845,0.04482337832450867,-0.013542382046580315,0.04177157208323479,0.004005493130534887,0.027656977996230125
3.916834592819214,-0.012779430486261845,0.04444190114736557,-0.013160906732082367,0.04177157208323479,0.004005493130534887,0.027656977996230125
3.936919689178467,-0.012779430486261845,0.04406042397022247,-0.012779430486261845,0.04177157208323479,0.004005493130534887,0.027656977996230125
3.957000494003296,-0.012779430486261845,0.04406042397022247,-0.012397955171763897,0.042153049260377884,0.004005493130534887,0.027656977996230125
3.977051258087158,-0.012779430486261845,0.043678950518369675,-0.01201647985726595,0.042153049260377884,0.004005493130534887,0.028038453310728073
3.9971022605895996,-0.012779430486261845,0.04329747334122658,-0.01201647985726595,0.04253452271223068,0.004386968910694122,0.028038453310728073
4.017183303833008,-0.012779430486261845,0.04291599988937378,-0.01201647985726595,0.04329747334122658,0.004005493130534887,0.028038453310728073
4.037255048751831,-0.012779430486261845,0.042153049260377884,-0.011635004542768002,0.043678950518369675,0.004005493130534887,0.028038453310728073
4.057315826416016,-0.013160906732082367,0.042153049260377884,-0.011635004542768002,0.04444190114736557,0.004386968910694122,0.02841992862522602
4.077570915222168,-0.013160906732082367,0.04177157208323479,-0.011635004542768002,0.04444190114736557,0.004386968910694122,0.02841992862522602
4.097653388977051,-0.013160906732082367,0.04139009863138199,-0.010872052982449532,0.04444190114736557,0.004386968910694122,0.02880140393972397
4.1177308559417725,-0.013923857361078262,0.04139009863138199,-0.010490577667951584,0.04482337832450867,0.00476844422519207,0.029182879254221916
4.137817144393921,-0.013923857361078262,0.04100862145423889,-0.010490577667951584,0.04482337832450867,0.004386968910694122,0.029564354568719864
4.157867908477783,-0.013923857361078262,0.040245670825242996,-0.010490577667951584,0.04482337832450867,0.004386968910694122,0.02994582988321781
4.177937030792236,-0.013923857361078262,0.0398641936480999,-0.009727626107633114,0.045204851776361465,0.004386968910694122,0.02994582988321781
4.198025226593018,-0.013923857361078262,0.0398641936480999,-0.010109102353453636,0.045204851776361465,0.004386968910694122,0.03032730519771576
4.21807599067688,-0.013923857361078262,0.0394827201962471,-0.009727626107633114,0.045204851776361465,0.00476844422519207,0.03032730519771576
4.238153696060181,-0.013923857361078262,0.039101243019104004,-0.009727626107633114,0.04558632895350456,0.00476844422519207,0.03032730519771576
4.25828218460083,-0.013923857361078262,0.039101243019104004,-0.009727626107633114,0.04558632895350456,0.00476844422519207,0.03032730519771576
4.278287887573242,-0.01430533267557621,0.038719769567251205,-0.009346150793135166,0.04596780240535736,0.00476844422519207,0.03032730519771576
4.298360824584961,-0.013923857361078262,0.03833829239010811,-0.009346150793135166,0.04634927958250046,0.00476844422519207,0.03032730519771576
4.318456172943115,-0.013923857361078262,0.03795681521296501,-0.00858320016413927,0.046730753034353256,0.00476844422519207,0.03032730519771576
4.338505744934082,-0.01430533267557621,0.037193864583969116,-0.00858320016413927,0.04711223021149635,0.00476844422519207,0.03032730519771576
4.358581304550171,-0.01430533267557621,0.037193864583969116,-0.008201723918318748,0.04749370738863945,0.00476844422519207,0.030708782374858856
4.3787522315979,-0.014686808921396732,0.037193864583969116,-0.0078202486038208,0.04787518084049225,0.005149920005351305,0.030708782374858856
4.398866176605225,-0.014686808921396732,0.03681239113211632,-0.0078202486038208,0.048256658017635345,0.005149920005351305,0.030708782374858856
4.418959140777588,-0.014686808921396732,0.03604944050312042,-0.007438773289322853,0.048256658017635345,0.00476844422519207,0.030708782374858856
4.439018487930298,-0.014686808921396732,0.03604944050312042,-0.007438773289322853,0.048638131469488144,0.00476844422519207,0.031090257689356804
4.459038734436035,-0.014686808921396732,0.03604944050312042,-0.007438773289322853,0.048638131469488144,0.00476844422519207,0.031090257689356804
4.4791343212127686,-0.014686808921396732,0.03528648987412453,-0.007438773289322853,0.048638131469488144,0.005149920005351305,0.031090257689356804
4.499200344085693,-0.014686808921396732,0.03490501269698143,-0.00667582219466567,0.048638131469488144,0.005149920005351305,0.031090257689356804
4.5192551612854,-0.014686808921396732,0.03452353551983833,-0.006294346414506435,0.04901960864663124,0.005149920005351305,0.031090257689356804
4.539304494857788,-0.014686808921396732,0.034142062067985535,-0.006294346414506435,0.04901960864663124,0.005149920005351305,0.031090257689356804
4.5593907833099365,-0.014686808921396732,0.034142062067985535,-0.006294346414506435,0.04901960864663124,0.005149920005351305,0.03147173300385475
4.5794525146484375,-0.014686808921396732,0.03376058489084244,-0.005912871100008488,0.04901960864663124,0.005149920005351305,0.03147173300385475
4.5995941162109375,-0.014686808921396732,0.03299763426184654,-0.005912871100008488,0.04940108209848404,0.005149920005351305,0.03185320645570755
4.619674921035767,-0.014686808921396732,0.03299763426184654,-0.005531395319849253,0.04940108209848404,0.005531395319849253,0.03185320645570755
4.63976526260376,-0.014686808921396732,0.03299763426184654,-0.005531395319849253,0.04940108209848404,0.005531395319849253,0.03185320645570755
4.659942865371704,-0.014686808921396732,0.032616160809993744,-0.005149920005351305,0.049782559275627136,0.005531395319849253,0.03223468363285065
4.679900884628296,-0.014686808921396732,0.03223468363285065,-0.00476844422519207,0.050164032727479935,0.005149920005351305,0.03223468363285065
4.699956178665161,-0.014686808921396732,0.03185320645570755,-0.004386968910694122,0.05054550990462303,0.005531395319849253,0.032616160809993744
4.720031499862671,-0.014686808921396732,0.03185320645570755,-0.004386968910694122,0.05130846053361893,0.005531395319849253,0.032616160809993744
4.740189790725708,-0.014686808921396732,0.03147173300385475,-0.004005493130534887,0.051689937710762024,0.005531395319849253,0.03337911143898964
4.760266542434692,-0.014686808921396732,0.031090257689356804,-0.004005493130534887,0.05207141116261482,0.005531395319849253,0.03376058489084244
4.780331373214722,-0.014686808921396732,0.030708782374858856,-0.004005493130534887,0.05207141116261482,0.005531395319849253,0.034142062067985535
4.800415992736816,-0.01506828423589468,0.02994582988321781,-0.0036240178160369396,0.05207141116261482,0.005531395319849253,0.034142062067985535
4.820514440536499,-0.01506828423589468,0.02994582988321781,-0.0032425422687083483,0.05207141116261482,0.005912871100008488,0.03452353551983833
4.840561866760254,-0.01506828423589468,0.02994582988321781,-0.0032425422687083483,0.05207141116261482,0.005912871100008488,0.03452353551983833
4.860623598098755,-0.01506828423589468,0.029182879254221916,-0.002861066721379757,0.05245288833975792,0.005912871100008488,0.03452353551983833
4.880739450454712,-0.01506828423589468,0.02880140393972397,-0.0024795911740511656,0.05245288833975792,0.006294346414506435,0.03452353551983833
4.9008095264434814,-0.01506828423589468,0.028038453310728073,-0.0024795911740511656,0.05283436179161072,0.006294346414506435,0.03490501269698143
4.9208760261535645,-0.01506828423589468,0.028038453310728073,-0.0020981156267225742,0.05283436179161072,0.006294346414506435,0.03490501269698143
4.94098162651062,-0.015449759550392628,0.028038453310728073,-0.0020981156267225742,0.05283436179161072,0.00667582219466567,0.03490501269698143
4.961377859115601,-0.01583123579621315,0.027656977996230125,-0.001716639962978661,0.053215838968753815,0.00667582219466567,0.03490501269698143
4.981537342071533,-0.01583123579621315,0.02689402550458908,-0.0013351644156500697,0.053215838968753815,0.007057297509163618,0.03528648987412453
5.001603841781616,-0.01583123579621315,0.026512550190091133,-0.0009536888683214784,0.05359731614589691,0.007057297509163618,0.03528648987412453
5.021695613861084,-0.01583123579621315,0.026131074875593185,-0.000572213320992887,0.05397878959774971,0.00667582219466567,0.035667963325977325
5.041776657104492,-0.01583123579621315,0.025749599561095238,-0.00019073777366429567,0.05436026677489281,0.007057297509163618,0.03604944050312042
5.061833143234253,-0.01583123579621315,0.025749599561095238,-0.00019073777366429567,0.054741740226745605,0.007057297509163618,0.03643091395497322
5.081924676895142,-0.01583123579621315,0.025749599561095238,0.00019073777366429567,0.0551232174038887,0.007057297509163618,0.03681239113211632
5.10198974609375,-0.016212711110711098,0.024605173617601395,0.000572213320992887,0.0555046908557415,0.007057297509163618,0.03757534176111221
5.122061491012573,-0.016212711110711098,0.024605173617601395,0.000572213320992887,0.0555046908557415,0.007057297509163618,0.03757534176111221
5.142110109329224,-0.016594186425209045,0.024605173617601395,0.000572213320992887,0.0558861680328846,0.007057297509163618,0.03795681521296501
5.162200689315796,-0.016975661739706993,0.02384222112596035,0.0009536888683214784,0.0558861680328846,0.007438773289322853,0.03795681521296501
5.182263135910034,-0.016975661739706993,0.023460745811462402,0.0013351644156500697,0.0558861680328846,0.007438773289322853,0.03795681521296501
5.202308416366577,-0.016975661739706993,0.022697795182466507,0.001716639962978661,0.056267641484737396,0.007057297509163618,0.03795681521296501
5.222471475601196,-0.016975661739706993,0.022697795182466507,0.0020981156267225742,0.056267641484737396,0.007438773289322853,0.03795681521296501
5.2425501346588135,-0.016975661739706993,0.022697795182466507,0.0024795911740511656,0.05664911866188049,0.007438773289322853,0.03795681521296501
5.262630462646484,-0.016975661739706993,0.02231631986796856,0.002861066721379757,0.05664911866188049,0.007438773289322853,0.03833829239010811
5.282670736312866,-0.016975661739706993,0.02193484455347061,0.002861066721379757,0.05664911866188049,0.0078202486038208,0.03833829239010811
5.302757978439331,-0.016975661739706993,0.021171892061829567,0.0032425422687083483,0.05703059583902359,0.0078202486038208,0.03833829239010811
5.322887420654297,-0.016975661739706993,0.02079041674733162,0.0032425422687083483,0.05741206929087639,0.007438773289322853,0.03833829239010811
5.342906951904297,-0.016975661739706993,0.02040894143283367,0.0032425422687083483,0.057793546468019485,0.007438773289322853,0.03833829239010811
5.362962484359741,-0.016975661739706993,0.02040894143283367,0.004005493130534887,0.058175019919872284,0.007438773289322853,0.03833829239010811
5.3831329345703125,-0.016975661739706993,0.02040894143283367,0.004005493130534887,0.05893797054886818,0.0078202486038208,0.038719769567251205
5.40321159362793,-0.016975661739706993,0.019645990803837776,0.00476844422519207,0.059319447726011276,0.0078202486038208,0.038719769567251205
5.423215627670288,-0.016975661739706993,0.019645990803837776,0.00476844422519207,0.059319447726011276,0.0078202486038208,0.038719769567251205
5.443904638290405,-0.016975661739706993,0.01926451548933983,0.00476844422519207,0.05970092490315437,0.007438773289322853,0.038719769567251205
5.463987350463867,-0.016975661739706993,0.018501564860343933,0.00476844422519207,0.05970092490315437,0.007438773289322853,0.039101243019104004
5.484055995941162,-0.016975661739706993,0.018501564860343933,0.005149920005351305,0.05970092490315437,0.007438773289322853,0.039101243019104004
5.504108190536499,-0.016975661739706993,0.018120087683200836,0.005149920005351305,0.05970092490315437,0.0078202486038208,0.039101243019104004
5.5242626667022705,-0.016975661739706993,0.01735713705420494,0.005531395319849253,0.05970092490315437,0.0078202486038208,0.039101243019104004
5.544347763061523,-0.016975661739706993,0.016975661739706993,0.006294346414506435,0.06008239835500717,0.0078202486038208,0.039101243019104004
5.564470052719116,-0.016975661739706993,0.016594186425209045,0.006294346414506435,0.06008239835500717,0.0078202486038208,0.0394827201962471
5.584590911865234,-0.01735713705420494,0.016594186425209045,0.006294346414506435,0.06008239835500717,0.0078202486038208,0.0394827201962471
5.604655027389526,-0.01735713705420494,0.016212711110711098,0.00667582219466567,0.06046387553215027,0.0078202486038208,0.0398641936480999
5.624725818634033,-0.01773861236870289,0.015449759550392628,0.007057297509163618,0.06046387553215027,0.0078202486038208,0.0398641936480999
5.644763469696045,-0.018120087683200836,0.015449759550392628,0.007057297509163618,0.06046387553215027,0.008201723918318748,0.0398641936480999
5.664800643920898,-0.018120087683200836,0.015449759550392628,0.007057297509163618,0.06084534898400307,0.0078202486038208,0.040627144277095795
5.684877395629883,-0.018120087683200836,0.014686808921396732,0.007057297509163618,0.061226826161146164,0.0078202486038208,0.04100862145423889
5.704963445663452,-0.018120087683200836,0.01430533267557621,0.007438773289322853,0.061226826161146164,0.0078202486038208,0.04100862145423889
5.7250657081604,-0.018120087683200836,0.01430533267557621,0.008201723918318748,0.06160829961299896,0.0078202486038208,0.04139009863138199
5.74515175819397,-0.018120087683200836,0.013923857361078262,0.008201723918318748,0.06198977679014206,0.008201723918318748,0.04139009863138199
5.765260934829712,-0.018120087683200836,0.013542382046580315,0.008201723918318748,0.06237125024199486,0.008201723918318748,0.04139009863138199
5.785365581512451,-0.018120087683200836,0.013160906732082367,0.008201723918318748,0.06313420087099075,0.008201723918318748,0.04177157208323479
5.8054211139678955,-0.018120087683200836,0.013160906732082367,0.008201723918318748,0.06313420087099075,0.008201723918318748,0.04177157208323479
5.825469732284546,-0.01888304017484188,0.012397955171763897,0.00858320016413927,0.06313420087099075,0.008201723918318748,0.04177157208323479
5.845608472824097,-0.01888304017484188,0.01201647985726595,0.008964675478637218,0.06351567804813385,0.008201723918318748,0.04177157208323479
5.865691184997559,-0.01888304017484188,0.01201647985726595,0.008964675478637218,0.06351567804813385,0.008201723918318748,0.042153049260377884
5.8857972621917725,-0.01888304017484188,0.01125352829694748,0.009346150793135166,0.06351567804813385,0.008201723918318748,0.042153049260377884
5.905856370925903,-0.01888304017484188,0.010872052982449532,0.009346150793135166,0.06351567804813385,0.008201723918318748,0.042153049260377884
5.9260499477386475,-0.01888304017484188,0.010490577667951584,0.009727626107633114,0.06389715522527695,0.008201723918318748,0.042153049260377884
5.946145296096802,-0.01888304017484188,0.010109102353453636,0.010109102353453636,0.06389715522527695,0.008201723918318748,0.04253452271223068
5.966293573379517,-0.01888304017484188,0.010109102353453636,0.010109102353453636,0.06389715522527695,0.008201723918318748,0.04253452271223068
5.986292839050293,-0.01888304017484188,0.010109102353453636,0.010490577667951584,0.06427863240242004,0.008201723918318748,0.04253452271223068
6.006565809249878,-0.01888304017484188,0.009346150793135166,0.010490577667951584,0.06427863240242004,0.008201723918318748,0.04253452271223068
6.026644945144653,-0.01888304017484188,0.00858320016413927,0.010872052982449532,0.06427863240242004,0.008201723918318748,0.04253452271223068
6.046729803085327,-0.01888304017484188,0.008201723918318748,0.010872052982449532,0.06466010212898254,0.008201723918318748,0.04291599988937378
6.066878318786621,-0.01888304017484188,0.008201723918318748,0.01125352829694748,0.06504157930612564,0.00858320016413927,0.04291599988937378
6.086925983428955,-0.01888304017484188,0.008201723918318748,0.01125352829694748,0.06542305648326874,0.00858320016413927,0.04291599988937378
6.107029438018799,-0.01888304017484188,0.0078202486038208,0.011635004542768002,0.06618601083755493,0.008201723918318748,0.04291599988937378
6.127089738845825,-0.01888304017484188,0.007438773289322853,0.01201647985726595,0.06656748056411743,0.008201723918318748,0.04291599988937378
6.147224187850952,-0.01888304017484188,0.007057297509163618,0.012397955171763897,0.06694895774126053,0.00858320016413927,0.04329747334122658
6.167231321334839,-0.01888304017484188,0.007057297509163618,0.012397955171763897,0.06694895774126053,0.00858320016413927,0.04329747334122658
6.187293767929077,-0.01888304017484188,0.00667582219466567,0.012397955171763897,0.06694895774126053,0.00858320016413927,0.043678950518369675
6.207406282424927,-0.01888304017484188,0.005912871100008488,0.012779430486261845,0.06733043491840363,0.00858320016413927,0.04406042397022247
6.227682828903198,-0.01888304017484188,0.005912871100008488,0.013160906732082367,0.06733043491840363,0.00858320016413927,0.04444190114736557
6.247790813446045,-0.01926451548933983,0.005912871100008488,0.013160906732082367,0.06733043491840363,0.00858320016413927,0.04482337832450867
6.268004894256592,-0.01926451548933983,0.005149920005351305,0.013542382046580315,0.06771191209554672,0.00858320016413927,0.045204851776361465
6.287970066070557,-0.01926451548933983,0.00476844422519207,0.013923857361078262,0.06771191209554672,0.008964675478637218,0.045204851776361465
6.308033227920532,-0.01926451548933983,0.00476844422519207,0.01430533267557621,0.06809338182210922,0.008964675478637218,0.045204851776361465
6.328108310699463,-0.01926451548933983,0.004005493130534887,0.01430533267557621,0.06809338182210922,0.008964675478637218,0.04558632895350456
6.348193407058716,-0.01926451548933983,0.0036240178160369396,0.01430533267557621,0.06847485899925232,0.008964675478637218,0.04558632895350456
6.368264436721802,-0.01926451548933983,0.0036240178160369396,0.014686808921396732,0.06847485899925232,0.008964675478637218,0.04558632895350456
6.388322114944458,-0.020027466118335724,0.0032425422687083483,0.014686808921396732,0.06885633617639542,0.008964675478637218,0.04558632895350456
6.408368825912476,-0.020027466118335724,0.002861066721379757,0.01506828423589468,0.06923781335353851,0.009346150793135166,0.04558632895350456
6.428548097610474,-0.020027466118335724,0.002861066721379757,0.01506828423589468,0.06961929053068161,0.008964675478637218,0.04558632895350456
6.448662757873535,-0.020027466118335724,0.0024795911740511656,0.015449759550392628,0.07038223743438721,0.008964675478637218,0.04596780240535736
6.468866586685181,-0.020027466118335724,0.0020981156267225742,0.015449759550392628,0.07038223743438721,0.009346150793135166,0.04596780240535736
6.488894939422607,-0.020027466118335724,0.001716639962978661,0.015449759550392628,0.0707637146115303,0.009346150793135166,0.04596780240535736
6.509209632873535,-0.020027466118335724,0.0013351644156500697,0.01583123579621315,0.0707637146115303,0.009346150793135166,0.04596780240535736
6.529287815093994,-0.020027466118335724,0.0009536888683214784,0.016212711110711098,0.0711451917886734,0.009346150793135166,0.04596780240535736
6.549423456192017,-0.020027466118335724,0.000572213320992887,0.016594186425209045,0.0711451917886734,0.009346150793135166,0.04596780240535736
6.569478511810303,-0.020027466118335724,0.000572213320992887,0.016975661739706993,0.0711451917886734,0.009346150793135166,0.04634927958250046
6.590196847915649,-0.020027466118335724,0.00019073777366429567,0.01735713705420494,0.0711451917886734,0.009346150793135166,0.04634927958250046
6.610498666763306,-0.020027466118335724,-0.00019073777366429567,0.01735713705420494,0.0715266615152359,0.009346150793135166,0.04634927958250046
6.630427122116089,-0.020027466118335724,-0.000572213320992887,0.01735713705420494,0.0715266615152359,0.009346150793135166,0.04634927958250046
6.6504926681518555,-0.020027466118335724,-0.0009536888683214784,0.01735713705420494,0.0715266615152359,0.009727626107633114,0.04634927958250046
6.670919418334961,-0.020027466118335724,-0.0013351644156500697,0.01773861236870289,0.071908138692379,0.009727626107633114,0.046730753034353256
6.691005229949951,-0.020027466118335724,-0.001716639962978661,0.018501564860343933,0.071908138692379,0.009346150793135166,0.046730753034353256
6.711166620254517,-0.020027466118335724,-0.001716639962978661,0.01888304017484188,0.0722896158695221,0.009346150793135166,0.046730753034353256
6.7312233448028564,-0.020027466118335724,-0.0024795911740511656,0.01926451548933983,0.0722896158695221,0.009346150793135166,0.046730753034353256
6.751296520233154,-0.020027466118335724,-0.0024795911740511656,0.01926451548933983,0.07305257022380829,0.009727626107633114,0.04711223021149635
6.771403789520264,-0.020027466118335724,-0.002861066721379757,0.01926451548933983,0.07343403995037079,0.009727626107633114,0.04711223021149635
6.791498422622681,-0.020027466118335724,-0.0036240178160369396,0.01926451548933983,0.07381551712751389,0.009727626107633114,0.04711223021149635
6.811537981033325,-0.020027466118335724,-0.0036240178160369396,0.019645990803837776,0.07419699430465698,0.009727626107633114,0.04749370738863945
6.831605911254883,-0.02040894143283367,-0.0036240178160369396,0.019645990803837776,0.07457847148180008,0.009727626107633114,0.04749370738863945
6.85167670249939,-0.02040894143283367,-0.004386968910694122,0.019645990803837776,0.07457847148180008,0.009727626107633114,0.04787518084049225
6.871756553649902,-0.021171892061829567,-0.004386968910694122,0.02040894143283367,0.07457847148180008,0.010109102353453636,0.048256658017635345
6.89183235168457,-0.021553369238972664,-0.00476844422519207,0.02079041674733162,0.07495994865894318,0.010109102353453636,0.048256658017635345
6.911924123764038,-0.02193484455347061,-0.00476844422519207,0.02079041674733162,0.07495994865894318,0.010490577667951584,0.048638131469488144
6.932095527648926,-0.02193484455347061,-0.005531395319849253,0.021171892061829567,0.07495994865894318,0.009727626107633114,0.048638131469488144
6.952188014984131,-0.02193484455347061,-0.006294346414506435,0.021553369238972664,0.07534141838550568,0.010109102353453636,0.04901960864663124
6.972305536270142,-0.02193484455347061,-0.00667582219466567,0.021553369238972664,0.07534141838550568,0.009727626107633114,0.04901960864663124
6.9923388957977295,-0.02193484455347061,-0.00667582219466567,0.021553369238972664,0.07572289556264877,0.010109102353453636,0.04901960864663124
7.012380361557007,-0.02193484455347061,-0.00667582219466567,0.021553369238972664,0.07572289556264877,0.010490577667951584,0.04901960864663124
7.032461881637573,-0.02193484455347061,-0.007057297509163618,0.02193484455347061,0.07610437273979187,0.010490577667951584,0.04901960864663124
7.052526950836182,-0.02193484455347061,-0.007438773289322853,0.022697795182466507,0.07610437273979187,0.010490577667951584,0.04940108209848404
7.072608947753906,-0.02193484455347061,-0.0078202486038208,0.022697795182466507,0.07648584991693497,0.010109102353453636,0.04940108209848404
7.092728853225708,-0.02193484455347061,-0.0078202486038208,0.022697795182466507,0.07686731964349747,0.010109102353453636,0.04940108209848404
7.112973690032959,-0.02193484455347061,-0.00858320016413927,0.022697795182466507,0.07724879682064056,0.010109102353453636,0.04940108209848404
7.133169412612915,-0.02193484455347061,-0.008964675478637218,0.023079270496964455,0.07801175117492676,0.010490577667951584,0.049782559275627136
7.153177976608276,-0.02193484455347061,-0.008964675478637218,0.023079270496964455,0.07801175117492676,0.010490577667951584,0.049782559275627136
7.173255443572998,-0.02193484455347061,-0.009727626107633114,0.023460745811462402,0.07801175117492676,0.010490577667951584,0.049782559275627136
7.193439960479736,-0.02193484455347061,-0.009727626107633114,0.02384222112596035,0.07801175117492676,0.010490577667951584,0.049782559275627136
7.213525295257568,-0.02193484455347061,-0.009727626107633114,0.02384222112596035,0.07839322835206985,0.010490577667951584,0.049782559275627136
7.233588457107544,-0.02193484455347061,-0.010109102353453636,0.02384222112596035,0.07839322835206985,0.010490577667951584,0.050164032727479935
7.25365138053894,-0.02193484455347061,-0.010872052982449532,0.024605173617601395,0.07839322835206985,0.010490577667951584,0.050164032727479935
7.273735761642456,-0.02193484455347061,-0.01125352829694748,0.024605173617601395,0.07877469807863235,0.010490577667951584,0.050164032727479935
7.2938148975372314,-0.02193484455347061,-0.011635004542768002,0.024986648932099342,0.07877469807863235,0.010490577667951584,0.05054550990462303
7.31389594078064,-0.02193484455347061,-0.011635004542768002,0.024986648932099342,0.07877469807863235,0.010490577667951584,0.05054550990462303
7.333989381790161,-0.02193484455347061,-0.01201647985726595,0.024986648932099342,0.07877469807863235,0.010490577667951584,0.05092698708176613
7.354058742523193,-0.02193484455347061,-0.01201647985726595,0.024986648932099342,0.07877469807863235,0.010490577667951584,0.05092698708176613
7.374228239059448,-0.02193484455347061,-0.012397955171763897,0.02536812424659729,0.07877469807863235,0.010490577667951584,0.05130846053361893
7.394314289093018,-0.02193484455347061,-0.012779430486261845,0.025749599561095238,0.07915617525577545,0.010490577667951584,0.05207141116261482
7.414374113082886,-0.02193484455347061,-0.013160906732082367,0.025749599561095238,0.07915617525577545,0.010490577667951584,0.05283436179161072
7.4344611167907715,-0.02193484455347061,-0.013542382046580315,0.025749599561095238,0.07915617525577545,0.010490577667951584,0.053215838968753815
7.454519033432007,-0.02193484455347061,-0.013923857361078262,0.025749599561095238,0.07953765243291855,0.010490577667951584,0.053215838968753815
7.488839626312256,-0.02193484455347061,-0.014686808921396732,0.02689402550458908,0.07991912961006165,0.010490577667951584,0.053215838968753815
7.508934020996094,-0.02193484455347061,-0.020027466118335724,0.03147173300385475,0.08182650804519653,0.010490577667951584,0.05397878959774971
7.52899169921875,-0.02193484455347061,-0.02231631986796856,0.032616160809993744,0.08335240930318832,0.012397955171763897,0.054741740226745605
7.549073219299316,-0.02193484455347061,-0.023079270496964455,0.032616160809993744,0.08411535620689392,0.011635004542768002,0.0555046908557415
7.56913685798645,-0.02193484455347061,-0.02193484455347061,0.03185320645570755,0.08449683338403702,0.01125352829694748,0.0558861680328846
7.589284658432007,-0.02193484455347061,-0.02231631986796856,0.03185320645570755,0.08487831056118011,0.01125352829694748,0.0558861680328846
7.60925030708313,-0.02193484455347061,-0.02231631986796856,0.03223468363285065,0.08525978773832321,0.011635004542768002,0.0558861680328846
7.6293768882751465,-0.02193484455347061,-0.02231631986796856,0.03223468363285065,0.08525978773832321,0.01125352829694748,0.056267641484737396
7.649416208267212,-0.02193484455347061,-0.02231631986796856,0.032616160809993744,0.08564125746488571,0.01125352829694748,0.056267641484737396
7.669495105743408,-0.02193484455347061,-0.02231631986796856,0.03337911143898964,0.08564125746488571,0.011635004542768002,0.056267641484737396
7.689568042755127,-0.02193484455347061,-0.022697795182466507,0.03337911143898964,0.08564125746488571,0.011635004542768002,0.056267641484737396
7.70962381362915,-0.02193484455347061,-0.022697795182466507,0.03337911143898964,0.08564125746488571,0.011635004542768002,0.05664911866188049
7.729769229888916,-0.02193484455347061,-0.023460745811462402,0.03376058489084244,0.08602273464202881,0.011635004542768002,0.05664911866188049
7.749852657318115,-0.02193484455347061,-0.023460745811462402,0.034142062067985535,0.08602273464202881,0.011635004542768002,0.05664911866188049
7.769940376281738,-0.02193484455347061,-0.023460745811462402,0.034142062067985535,0.08602273464202881,0.011635004542768002,0.05664911866188049
7.789996385574341,-0.02193484455347061,-0.02384222112596035,0.034142062067985535,0.08602273464202881,0.011635004542768002,0.05664911866188049
7.810182332992554,-0.02193484455347061,-0.024223696440458298,0.03452353551983833,0.0864042118191719,0.011635004542768002,0.05664911866188049
7.830235242843628,-0.02193484455347061,-0.024605173617601395,0.03490501269698143,0.08602273464202881,0.011635004542768002,0.05703059583902359
7.850297451019287,-0.02193484455347061,-0.024605173617601395,0.03528648987412453,0.0864042118191719,0.011635004542768002,0.05703059583902359
7.87036395072937,-0.02193484455347061,-0.02536812424659729,0.035667963325977325,0.0864042118191719,0.011635004542768002,0.05703059583902359
7.890449523925781,-0.02193484455347061,-0.025749599561095238,0.03604944050312042,0.0864042118191719,0.011635004542768002,0.05703059583902359
7.910595655441284,-0.02193484455347061,-0.026512550190091133,0.03604944050312042,0.086785688996315,0.011635004542768002,0.05703059583902359
7.930653810501099,-0.02193484455347061,-0.026512550190091133,0.03604944050312042,0.086785688996315,0.011635004542768002,0.05703059583902359
7.950728178024292,-0.02193484455347061,-0.026512550190091133,0.03604944050312042,0.086785688996315,0.011635004542768002,0.05741206929087639
7.970785856246948,-0.02193484455347061,-0.02689402550458908,0.03643091395497322,0.0871671661734581,0.011635004542768002,0.05741206929087639
7.9908459186553955,-0.02231631986796856,-0.02727550081908703,0.037193864583969116,0.0871671661734581,0.011635004542768002,0.05741206929087639
8.010965347290039,-0.02193484455347061,-0.027656977996230125,0.037193864583969116,0.0875486359000206,0.011635004542768002,0.05741206929087639
8.031013250350952,-0.02193484455347061,-0.02841992862522602,0.037193864583969116,0.0879301130771637,0.011635004542768002,0.05741206929087639
8.051143407821655,-0.02193484455347061,-0.02841992862522602,0.037193864583969116,0.0879301130771637,0.011635004542768002,0.057793546468019485
8.071210622787476,-0.02193484455347061,-0.02880140393972397,0.037193864583969116,0.08869306743144989,0.011635004542768002,0.057793546468019485
8.09125542640686,-0.02231631986796856,-0.02880140393972397,0.03757534176111221,0.08907453715801239,0.011635004542768002,0.057793546468019485
8.111315250396729,-0.02231631986796856,-0.02880140393972397,0.03795681521296501,0.08907453715801239,0.011635004542768002,0.058175019919872284
8.13146162033081,-0.02231631986796856,-0.029564354568719864,0.03833829239010811,0.08945601433515549,0.011635004542768002,0.057793546468019485
8.151479244232178,-0.02231631986796856,-0.02994582988321781,0.038719769567251205,0.08945601433515549,0.011635004542768002,0.058175019919872284
8.171574115753174,-0.02231631986796856,-0.02994582988321781,0.039101243019104004,0.08945601433515549,0.011635004542768002,0.058175019919872284
8.191615581512451,-0.02231631986796856,-0.030708782374858856,0.039101243019104004,0.08983749151229858,0.011635004542768002,0.05855649709701538
8.211693525314331,-0.02231631986796856,-0.030708782374858856,0.039101243019104004,0.08983749151229858,0.011635004542768002,0.05855649709701538
8.231783866882324,-0.02231631986796856,-0.030708782374858856,0.039101243019104004,0.09021896868944168,0.011635004542768002,0.05893797054886818
8.251838445663452,-0.02231631986796856,-0.030708782374858856,0.0394827201962471,0.09021896868944168,0.011635004542768002,0.05893797054886818
8.271896362304688,-0.02231631986796856,-0.03147173300385475,0.0394827201962471,0.09021896868944168,0.011635004542768002,0.059319447726011276
8.291990995407104,-0.02231631986796856,-0.03185320645570755,0.0394827201962471,0.09021896868944168,0.011635004542768002,0.05970092490315437
8.312057971954346,-0.02231631986796856,-0.03185320645570755,0.0398641936480999,0.09060044586658478,0.011635004542768002,0.06008239835500717
8.332125425338745,-0.02231631986796856,-0.032616160809993744,0.0398641936480999,0.09060044586658478,0.011635004542768002,0.06046387553215027
8.352165699005127,-0.02231631986796856,-0.032616160809993744,0.040245670825242996,0.09098191559314728,0.011635004542768002,0.06046387553215027
8.372251749038696,-0.02231631986796856,-0.03299763426184654,0.040245670825242996,0.09136339277029037,0.011635004542768002,0.06084534898400307
8.392316102981567,-0.02231631986796856,-0.03299763426184654,0.040245670825242996,0.09174486994743347,0.011635004542768002,0.06084534898400307
8.412395238876343,-0.022697795182466507,-0.03376058489084244,0.04100862145423889,0.09250781685113907,0.011635004542768002,0.06084534898400307
8.432443857192993,-0.022697795182466507,-0.03376058489084244,0.04100862145423889,0.09250781685113907,0.01201647985726595,0.06084534898400307
8.452515363693237,-0.023079270496964455,-0.03376058489084244,0.04139009863138199,0.09288929402828217,0.01201647985726595,0.061226826161146164
8.472671508789062,-0.023079270496964455,-0.034142062067985535,0.04139009863138199,0.09288929402828217,0.011635004542768002,0.061226826161146164
8.492836475372314,-0.023079270496964455,-0.03490501269698143,0.04139009863138199,0.09327077120542526,0.011635004542768002,0.061226826161146164
8.51282024383545,-0.023079270496964455,-0.03528648987412453,0.04139009863138199,0.09327077120542526,0.01201647985726595,0.061226826161146164
8.533169984817505,-0.023079270496964455,-0.035667963325977325,0.04177157208323479,0.09327077120542526,0.01201647985726595,0.061226826161146164
8.553245067596436,-0.023079270496964455,-0.03604944050312042,0.042153049260377884,0.09327077120542526,0.01201647985726595,0.06160829961299896
8.573315620422363,-0.023079270496964455,-0.03604944050312042,0.042153049260377884,0.09365224838256836,0.01201647985726595,0.06160829961299896
8.593431949615479,-0.023079270496964455,-0.03643091395497322,0.04253452271223068,0.09365224838256836,0.01201647985726595,0.06160829961299896
8.61353325843811,-0.023079270496964455,-0.03681239113211632,0.04291599988937378,0.09365224838256836,0.01201647985726595,0.06160829961299896
8.633694410324097,-0.023079270496964455,-0.037193864583969116,0.04329747334122658,0.09403372555971146,0.01201647985726595,0.06198977679014206
8.65369176864624,-0.023079270496964455,-0.03757534176111221,0.04329747334122658,0.09403372555971146,0.01201647985726595,0.06237125024199486
8.673762798309326,-0.023079270496964455,-0.03795681521296501,0.043678950518369675,0.09403372555971146,0.01201647985726595,0.06275273114442825
8.693830728530884,-0.023079270496964455,-0.03795681521296501,0.04406042397022247,0.09441519528627396,0.01201647985726595,0.06389715522527695
8.713883638381958,-0.023079270496964455,-0.03833829239010811,0.04406042397022247,0.09441519528627396,0.01201647985726595,0.06389715522527695
8.733956098556519,-0.023460745811462402,-0.038719769567251205,0.04406042397022247,0.09479667246341705,0.01201647985726595,0.06389715522527695
8.75400972366333,-0.023079270496964455,-0.039101243019104004,0.04444190114736557,0.09479667246341705,0.01201647985726595,0.06389715522527695
8.774085521697998,-0.023079270496964455,-0.039101243019104004,0.04444190114736557,0.09517814964056015,0.01201647985726595,0.06389715522527695
8.794167757034302,-0.023079270496964455,-0.0394827201962471,0.04444190114736557,0.09555962681770325,0.01201647985726595,0.06427863240242004
8.814229488372803,-0.023460745811462402,-0.0398641936480999,0.04444190114736557,0.09632257372140884,0.01201647985726595,0.06427863240242004
8.834313154220581,-0.023460745811462402,-0.040245670825242996,0.045204851776361465,0.09670405089855194,0.01201647985726595,0.06427863240242004
8.854435920715332,-0.023460745811462402,-0.040627144277095795,0.04558632895350456,0.09708552807569504,0.01201647985726595,0.06427863240242004
8.874537706375122,-0.024223696440458298,-0.04100862145423889,0.04596780240535736,0.09708552807569504,0.01201647985726595,0.06427863240242004
8.894588470458984,-0.024223696440458298,-0.04100862145423889,0.04634927958250046,0.09708552807569504,0.01201647985726595,0.06427863240242004
8.91464900970459,-0.024223696440458298,-0.04100862145423889,0.04634927958250046,0.09746700525283813,0.01201647985726595,0.06427863240242004
8.934753894805908,-0.024223696440458298,-0.04139009863138199,0.04634927958250046,0.09746700525283813,0.01201647985726595,0.06427863240242004
8.954834938049316,-0.024223696440458298,-0.042153049260377884,0.04634927958250046,0.09746700525283813,0.01201647985726595,0.06427863240242004
8.974904537200928,-0.024223696440458298,-0.04291599988937378,0.046730753034353256,0.09746700525283813,0.012397955171763897,0.06466010212898254
8.994967937469482,-0.024223696440458298,-0.04291599988937378,0.046730753034353256,0.09746700525283813,0.012397955171763897,0.06466010212898254
9.015072107315063,-0.024223696440458298,-0.04329747334122658,0.04711223021149635,0.09784847497940063,0.012397955171763897,0.06466010212898254
9.035207271575928,-0.024223696440458298,-0.043678950518369675,0.04749370738863945,0.09784847497940063,0.01201647985726595,0.06466010212898254
9.055238962173462,-0.024223696440458298,-0.04406042397022247,0.04787518084049225,0.09822995215654373,0.01201647985726595,0.06466010212898254
9.075329542160034,-0.024223696440458298,-0.04406042397022247,0.048256658017635345,0.09861142933368683,0.01201647985726595,0.06466010212898254
9.095439195632935,-0.024223696440458298,-0.04444190114736557,0.048256658017635345,0.09861142933368683,0.012397955171763897,0.06466010212898254
9.115496158599854,-0.024223696440458298,-0.045204851776361465,0.048256658017635345,0.09899290651082993,0.012397955171763897,0.06466010212898254
9.135540008544922,-0.024223696440458298,-0.045204851776361465,0.048256658017635345,0.09975585341453552,0.012397955171763897,0.06466010212898254
9.155648231506348,-0.024223696440458298,-0.04558632895350456,0.048256658017635345,0.10013733059167862,0.01201647985726595,0.06504157930612564
9.175712585449219,-0.024223696440458298,-0.04596780240535736,0.048638131469488144,0.10051880776882172,0.01201647985726595,0.06504157930612564
9.195780992507935,-0.024223696440458298,-0.04634927958250046,0.048638131469488144,0.10051880776882172,0.01201647985726595,0.06504157930612564
9.216095924377441,-0.024223696440458298,-0.04634927958250046,0.04940108209848404,0.10090028494596481,0.012397955171763897,0.06504157930612564
9.236204385757446,-0.024223696440458298,-0.046730753034353256,0.04940108209848404,0.10090028494596481,0.012397955171763897,0.06542305648326874
9.256281852722168,-0.024223696440458298,-0.04711223021149635,0.049782559275627136,0.10090028494596481,0.012397955171763897,0.06542305648326874
9.276321172714233,-0.024223696440458298,-0.04711223021149635,0.050164032727479935,0.10090028494596481,0.01201647985726595,0.06542305648326874
9.29653024673462,-0.024223696440458298,-0.04749370738863945,0.050164032727479935,0.10128175467252731,0.01201647985726595,0.06542305648326874
9.316606998443604,-0.024223696440458298,-0.04787518084049225,0.05054550990462303,0.10128175467252731,0.01201647985726595,0.06542305648326874
9.336771011352539,-0.024223696440458298,-0.048256658017635345,0.05054550990462303,0.10128175467252731,0.012397955171763897,0.06542305648326874
9.356749773025513,-0.024223696440458298,-0.048256658017635345,0.05092698708176613,0.10128175467252731,0.012397955171763897,0.06580453366041183
9.376834154129028,-0.024223696440458298,-0.048256658017635345,0.05092698708176613,0.10166323184967041,0.01201647985726595,0.06580453366041183
9.396883726119995,-0.024223696440458298,-0.048638131469488144,0.051689937710762024,0.10166323184967041,0.012397955171763897,0.06618601083755493
9.416962385177612,-0.024223696440458298,-0.04940108209848404,0.051689937710762024,0.10204470902681351,0.012397955171763897,0.06618601083755493
9.437014102935791,-0.024223696440458298,-0.04940108209848404,0.05207141116261482,0.10204470902681351,0.012397955171763897,0.06656748056411743
9.45708680152893,-0.024223696440458298,-0.049782559275627136,0.051689937710762024,0.10204470902681351,0.012397955171763897,0.06694895774126053
9.477163791656494,-0.024223696440458298,-0.050164032727479935,0.05207141116261482,0.1024261862039566,0.012397955171763897,0.06733043491840363
9.49727988243103,-0.024223696440458298,-0.05054550990462303,0.05245288833975792,0.1028076633810997,0.012397955171763897,0.06771191209554672
9.517327308654785,-0.024223696440458298,-0.05054550990462303,0.05245288833975792,0.1035706102848053,0.012397955171763897,0.06771191209554672
9.537410259246826,-0.024223696440458298,-0.05130846053361893,0.05283436179161072,0.10433356463909149,0.012397955171763897,0.06771191209554672
9.557494163513184,-0.024223696440458298,-0.05130846053361893,0.053215838968753815,0.10433356463909149,0.012397955171763897,0.06809338182210922
9.577613353729248,-0.024223696440458298,-0.051689937710762024,0.05359731614589691,0.10433356463909149,0.012397955171763897,0.06809338182210922
9.597670078277588,-0.024223696440458298,-0.05245288833975792,0.05359731614589691,0.10433356463909149,0.012397955171763897,0.06809338182210922
9.617968082427979,-0.024223696440458298,-0.05245288833975792,0.05359731614589691,0.10471503436565399,0.012779430486261845,0.06809338182210922
9.638096332550049,-0.024223696440458298,-0.05245288833975792,0.05359731614589691,0.10471503436565399,0.012397955171763897,0.06809338182210922
9.658123970031738,-0.024223696440458298,-0.053215838968753815,0.05397878959774971,0.10471503436565399,0.012397955171763897,0.06809338182210922
9.678172826766968,-0.024223696440458298,-0.053215838968753815,0.05397878959774971,0.10471503436565399,0.012397955171763897,0.06847485899925232
9.6982581615448,-0.024223696440458298,-0.05359731614589691,0.05436026677489281,0.10471503436565399,0.012397955171763897,0.06847485899925232
9.718320369720459,-0.024223696440458298,-0.05397878959774971,0.054741740226745605,0.10509651154279709,0.012397955171763897,0.06847485899925232
9.738391399383545,-0.024223696440458298,-0.05436026677489281,0.054741740226745605,0.10509651154279709,0.012397955171763897,0.06847485899925232
9.758464097976685,-0.024223696440458298,-0.05436026677489281,0.054741740226745605,0.10509651154279709,0.012397955171763897,0.06885633617639542
9.778566598892212,-0.024223696440458298,-0.054741740226745605,0.0551232174038887,0.10509651154279709,0.012397955171763897,0.06885633617639542
9.798689365386963,-0.024605173617601395,-0.0551232174038887,0.0555046908557415,0.10547798871994019,0.012397955171763897,0.06885633617639542
9.818798303604126,-0.024605173617601395,-0.0555046908557415,0.0558861680328846,0.10547798871994019,0.012779430486261845,0.06885633617639542
9.838886499404907,-0.024605173617601395,-0.0555046908557415,0.0558861680328846,0.10547798871994019,0.012397955171763897,0.06923781335353851
9.858984231948853,-0.024605173617601395,-0.0555046908557415,0.0558861680328846,0.10585946589708328,0.012397955171763897,0.06923781335353851
9.879159688949585,-0.024986648932099342,-0.0558861680328846,0.056267641484737396,0.10585946589708328,0.012397955171763897,0.06961929053068161
9.899190664291382,-0.024986648932099342,-0.05664911866188049,0.056267641484737396,0.10624094307422638,0.012397955171763897,0.06961929053068161
9.919780254364014,-0.024986648932099342,-0.05703059583902359,0.05664911866188049,0.10662241280078888,0.012397955171763897,0.07000076025724411
9.939859867095947,-0.024986648932099342,-0.05741206929087639,0.05664911866188049,0.10700388997793198,0.012397955171763897,0.0707637146115303
9.959966659545898,-0.024986648932099342,-0.057793546468019485,0.05703059583902359,0.10738536715507507,0.012779430486261845,0.0715266615152359
9.980032205581665,-0.024986648932099342,-0.057793546468019485,0.05703059583902359,0.10776684433221817,0.012779430486261845,0.0715266615152359
10.000279664993286,-0.024986648932099342,-0.05855649709701538,0.05703059583902359,0.10776684433221817,0.012779430486261845,0.0715266615152359
10.020417213439941,-0.024986648932099342,-0.05893797054886818,0.057793546468019485,0.10814831405878067,0.012779430486261845,0.0715266615152359
10.040500164031982,-0.024986648932099342,-0.059319447726011276,0.057793546468019485,0.10814831405878067,0.012779430486261845,0.0715266615152359
10.060542583465576,-0.024986648932099342,-0.05970092490315437,0.058175019919872284,0.10814831405878067,0.012779430486261845,0.0715266615152359
10.080615520477295,-0.024986648932099342,-0.05970092490315437,0.058175019919872284,0.10814831405878067,0.012779430486261845,0.0715266615152359
10.100717067718506,-0.024986648932099342,-0.05970092490315437,0.058175019919872284,0.10814831405878067,0.012779430486261845,0.0715266615152359
10.120794773101807,-0.024986648932099342,-0.06046387553215027,0.05855649709701538,0.10852979123592377,0.012779430486261845,0.071908138692379
10.140854358673096,-0.024986648932099342,-0.06046387553215027,0.05855649709701538,0.10852979123592377,0.012779430486261845,0.071908138692379
10.161049127578735,-0.024986648932099342,-0.06046387553215027,0.05893797054886818,0.10852979123592377,0.012779430486261845,0.071908138692379
10.181077480316162,-0.024986648932099342,-0.06084534898400307,0.05893797054886818,0.10891126841306686,0.012779430486261845,0.071908138692379
10.201124906539917,-0.024986648932099342,-0.06160829961299896,0.05893797054886818,0.10891126841306686,0.012779430486261845,0.071908138692379
10.22119688987732,-0.024986648932099342,-0.06160829961299896,0.059319447726011276,0.10891126841306686,0.012779430486261845,0.071908138692379
10.241273403167725,-0.024986648932099342,-0.06198977679014206,0.05970092490315437,0.10929274559020996,0.012779430486261845,0.071908138692379
10.261338233947754,-0.024986648932099342,-0.06198977679014206,0.06008239835500717,0.10929274559020996,0.012779430486261845,0.071908138692379
10.281408786773682,-0.024986648932099342,-0.06275273114442825,0.06046387553215027,0.10929274559020996,0.012779430486261845,0.071908138692379
10.301467657089233,-0.02536812424659729,-0.06275273114442825,0.06084534898400307,0.10967422276735306,0.012779430486261845,0.071908138692379
10.321597337722778,-0.02536812424659729,-0.06275273114442825,0.06084534898400307,0.10967422276735306,0.012779430486261845,0.0722896158695221
10.341642141342163,-0.02536812424659729,-0.06313420087099075,0.06084534898400307,0.11005569249391556,0.013160906732082367,0.0722896158695221
10.361697435379028,-0.02536812424659729,-0.06389715522527695,0.06084534898400307,0.11043716967105865,0.012779430486261845,0.0722896158695221
10.381754875183105,-0.02536812424659729,-0.06389715522527695,0.06084534898400307,0.11120012402534485,0.013160906732082367,0.0722896158695221
10.401839971542358,-0.02536812424659729,-0.06466010212898254,0.06084534898400307,0.11158160120248795,0.012779430486261845,0.0722896158695221
10.421895265579224,-0.02536812424659729,-0.06504157930612564,0.061226826161146164,0.11158160120248795,0.013160906732082367,0.0722896158695221
10.442003726959229,-0.02536812424659729,-0.06504157930612564,0.06160829961299896,0.11196307092905045,0.012779430486261845,0.0722896158695221
10.462078332901001,-0.02536812424659729,-0.06504157930612564,0.06198977679014206,0.11196307092905045,0.012779430486261845,0.07267109304666519
10.482174396514893,-0.02536812424659729,-0.06542305648326874,0.06237125024199486,0.11196307092905045,0.013160906732082367,0.07267109304666519
10.502340316772461,-0.02536812424659729,-0.06580453366041183,0.06275273114442825,0.11196307092905045,0.013160906732082367,0.07267109304666519
10.522359132766724,-0.02536812424659729,-0.06580453366041183,0.06275273114442825,0.11234454810619354,0.013160906732082367,0.07267109304666519
10.542409658432007,-0.02536812424659729,-0.06580453366041183,0.06275273114442825,0.11234454810619354,0.013160906732082367,0.07267109304666519
10.5625741481781,-0.02536812424659729,-0.06656748056411743,0.06275273114442825,0.11234454810619354,0.013160906732082367,0.07305257022380829
10.582604885101318,-0.025749599561095238,-0.06694895774126053,0.06313420087099075,0.11272602528333664,0.013160906732082367,0.07305257022380829
10.602656602859497,-0.026131074875593185,-0.06694895774126053,0.06313420087099075,0.11272602528333664,0.013923857361078262,0.07305257022380829
10.622704982757568,-0.026512550190091133,-0.06694895774126053,0.06313420087099075,0.11272602528333664,0.013923857361078262,0.07305257022380829
10.642787218093872,-0.026512550190091133,-0.06771191209554672,0.06313420087099075,0.11272602528333664,0.013542382046580315,0.07305257022380829
10.662902116775513,-0.026512550190091133,-0.06809338182210922,0.06389715522527695,0.11310750246047974,0.013542382046580315,0.07305257022380829
10.682984828948975,-0.026512550190091133,-0.06809338182210922,0.06427863240242004,0.11310750246047974,0.013923857361078262,0.07343403995037079
10.703028440475464,-0.026512550190091133,-0.06885633617639542,0.06427863240242004,0.11310750246047974,0.013923857361078262,0.07343403995037079
10.723167419433594,-0.026512550190091133,-0.06885633617639542,0.06504157930612564,0.11310750246047974,0.01430533267557621,0.07343403995037079
10.74326777458191,-0.026512550190091133,-0.06923781335353851,0.06504157930612564,0.11348897218704224,0.01430533267557621,0.07343403995037079
10.763325452804565,-0.026512550190091133,-0.06923781335353851,0.06504157930612564,0.11348897218704224,0.01430533267557621,0.07381551712751389
10.783373355865479,-0.026512550190091133,-0.06961929053068161,0.06504157930612564,0.11387044936418533,0.01430533267557621,0.07419699430465698
10.8035249710083,-0.026512550190091133,-0.07000076025724411,0.06504157930612564,0.11425192654132843,0.01430533267557621,0.07419699430465698
10.82360315322876,-0.026512550190091133,-0.07000076025724411,0.06542305648326874,0.11463340371847153,0.01430533267557621,0.07457847148180008
10.843623876571655,-0.026512550190091133,-0.07038223743438721,0.06580453366041183,0.11463340371847153,0.01430533267557621,0.07495994865894318
10.86369276046753,-0.026512550190091133,-0.0707637146115303,0.06618601083755493,0.11501488089561462,0.01430533267557621,0.07495994865894318
10.883738994598389,-0.026512550190091133,-0.0711451917886734,0.06618601083755493,0.11539635062217712,0.014686808921396732,0.07495994865894318
10.903845071792603,-0.026512550190091133,-0.0711451917886734,0.06656748056411743,0.11539635062217712,0.014686808921396732,0.07534141838550568
10.923905849456787,-0.026512550190091133,-0.071908138692379,0.06656748056411743,0.11577782779932022,0.014686808921396732,0.07534141838550568
10.94398832321167,-0.026512550190091133,-0.071908138692379,0.06694895774126053,0.11577782779932022,0.014686808921396732,0.07534141838550568
10.964060306549072,-0.026512550190091133,-0.071908138692379,0.06694895774126053,0.11577782779932022,0.014686808921396732,0.07534141838550568
10.984151601791382,-0.026512550190091133,-0.0722896158695221,0.06733043491840363,0.11577782779932022,0.014686808921396732,0.07534141838550568
11.00421667098999,-0.026512550190091133,-0.07267109304666519,0.06771191209554672,0.11615930497646332,0.014686808921396732,0.07572289556264877
11.024372816085815,-0.026512550190091133,-0.07305257022380829,0.06847485899925232,0.11615930497646332,0.014686808921396732,0.07572289556264877
11.044352769851685,-0.026512550190091133,-0.07343403995037079,0.06847485899925232,0.11654078215360641,0.014686808921396732,0.07572289556264877
11.064456701278687,-0.026512550190091133,-0.07419699430465698,0.06847485899925232,0.11654078215360641,0.014686808921396732,0.07572289556264877
11.08461594581604,-0.026512550190091133,-0.07419699430465698,0.06847485899925232,0.11654078215360641,0.014686808921396732,0.07572289556264877
11.104645729064941,-0.026512550190091133,-0.07495994865894318,0.06847485899925232,0.11692225188016891,0.014686808921396732,0.07572289556264877
11.124768257141113,-0.026512550190091133,-0.07495994865894318,0.06885633617639542,0.11692225188016891,0.014686808921396732,0.07572289556264877
11.14480710029602,-0.026512550190091133,-0.07534141838550568,0.06923781335353851,0.11730372905731201,0.014686808921396732,0.07610437273979187
11.164863109588623,-0.02689402550458908,-0.07534141838550568,0.06923781335353851,0.11768520623445511,0.014686808921396732,0.07610437273979187
11.184916496276855,-0.02689402550458908,-0.07610437273979187,0.06923781335353851,0.1180666834115982,0.014686808921396732,0.07610437273979187
11.205023765563965,-0.02727550081908703,-0.07610437273979187,0.06961929053068161,0.1188296303153038,0.014686808921396732,0.07610437273979187
11.225090742111206,-0.02727550081908703,-0.07648584991693497,0.07000076025724411,0.1192111074924469,0.014686808921396732,0.07648584991693497
11.245220184326172,-0.02727550081908703,-0.07724879682064056,0.07038223743438721,0.1192111074924469,0.014686808921396732,0.07648584991693497
11.265240669250488,-0.02727550081908703,-0.07724879682064056,0.07038223743438721,0.11959258466959,0.01506828423589468,0.07648584991693497
11.285362005233765,-0.02727550081908703,-0.07724879682064056,0.0707637146115303,0.11959258466959,0.014686808921396732,0.07686731964349747
11.30544137954712,-0.02727550081908703,-0.07763027399778366,0.0707637146115303,0.11959258466959,0.014686808921396732,0.07686731964349747
11.325500249862671,-0.02727550081908703,-0.07839322835206985,0.0707637146115303,0.11959258466959,0.014686808921396732,0.07686731964349747
11.345559358596802,-0.02727550081908703,-0.07839322835206985,0.0707637146115303,0.1199740618467331,0.014686808921396732,0.07724879682064056
11.365640640258789,-0.02727550081908703,-0.07877469807863235,0.0711451917886734,0.1199740618467331,0.014686808921396732,0.07763027399778366
11.38572072982788,-0.02727550081908703,-0.07915617525577545,0.0715266615152359,0.1199740618467331,0.014686808921396732,0.07801175117492676
11.405783891677856,-0.02727550081908703,-0.07915617525577545,0.071908138692379,0.1203555315732956,0.014686808921396732,0.07839322835206985
11.425836086273193,-0.02727550081908703,-0.07915617525577545,0.071908138692379,0.1203555315732956,0.014686808921396732,0.07877469807863235
11.44593071937561,-0.02727550081908703,-0.07953765243291855,0.0722896158695221,0.12073700875043869,0.014686808921396732,0.07915617525577545
11.4661226272583,-0.02727550081908703,-0.07991912961006165,0.07267109304666519,0.12073700875043869,0.01506828423589468,0.07915617525577545
11.486121416091919,-0.02727550081908703,-0.08030059933662415,0.07267109304666519,0.12073700875043869,0.01506828423589468,0.07915617525577545
11.506187915802002,-0.02727550081908703,-0.08030059933662415,0.07267109304666519,0.12111848592758179,0.01506828423589468,0.07915617525577545
11.526250123977661,-0.02727550081908703,-0.08068207651376724,0.07267109304666519,0.12149996310472488,0.014686808921396732,0.07915617525577545
11.546355962753296,-0.02727550081908703,-0.08144503086805344,0.07267109304666519,0.12188144028186798,0.014686808921396732,0.07915617525577545
11.566430807113647,-0.02727550081908703,-0.08144503086805344,0.07305257022380829,0.12226291000843048,0.01506828423589468,0.07915617525577545
11.586497068405151,-0.02727550081908703,-0.08144503086805344,0.07343403995037079,0.12264438718557358,0.01506828423589468,0.07915617525577545
11.6066255569458,-0.02727550081908703,-0.08144503086805344,0.07343403995037079,0.12302586436271667,0.014686808921396732,0.07953765243291855
11.626706838607788,-0.02727550081908703,-0.08220797777175903,0.07381551712751389,0.12302586436271667,0.014686808921396732,0.07953765243291855
11.646769046783447,-0.02727550081908703,-0.08258945494890213,0.07381551712751389,0.12302586436271667,0.01506828423589468,0.07953765243291855
11.666821956634521,-0.02727550081908703,-0.08258945494890213,0.07381551712751389,0.12302586436271667,0.01506828423589468,0.07953765243291855
11.68695330619812,-0.02727550081908703,-0.08258945494890213,0.07381551712751389,0.12302586436271667,0.01506828423589468,0.07953765243291855
11.707019805908203,-0.02727550081908703,-0.08258945494890213,0.07381551712751389,0.12302586436271667,0.01506828423589468,0.07953765243291855
11.727077960968018,-0.02727550081908703,-0.08258945494890213,0.07381551712751389,0.12302586436271667,0.01506828423589468,0.07953765243291855
11.747149467468262,-0.02727550081908703,-0.08297093212604523,0.07381551712751389,0.12302586436271667,0.01506828423589468,0.07953765243291855
11.767249822616577,-0.02727550081908703,-0.08335240930318832,0.07381551712751389,0.12302586436271667,0.01506828423589468,0.07953765243291855
11.787325382232666,-0.02727550081908703,-0.08335240930318832,0.07381551712751389,0.12302586436271667,0.01506828423589468,0.07953765243291855
11.807382106781006,-0.02727550081908703,-0.08335240930318832,0.07381551712751389,0.12302586436271667,0.01506828423589468,0.07953765243291855
11.827441692352295,-0.02727550081908703,-0.08335240930318832,0.07381551712751389,0.12302586436271667,0.01506828423589468,0.07915617525577545
11.847521781921387,-0.02727550081908703,-0.08373387902975082,0.07419699430465698,0.12302586436271667,0.015449759550392628,0.07915617525577545
11.867704153060913,-0.02727550081908703,-0.08373387902975082,0.07457847148180008,0.12302586436271667,0.015449759550392628,0.07915617525577545
11.887682914733887,-0.02727550081908703,-0.08373387902975082,0.07457847148180008,0.12302586436271667,0.015449759550392628,0.07915617525577545
11.907739639282227,-0.02689402550458908,-0.08373387902975082,0.07457847148180008,0.12302586436271667,0.01506828423589468,0.07915617525577545
11.927862644195557,-0.02689402550458908,-0.08411535620689392,0.07457847148180008,0.12302586436271667,0.015449759550392628,0.07915617525577545
11.947933912277222,-0.026512550190091133,-0.08449683338403702,0.07457847148180008,0.12302586436271667,0.015449759550392628,0.07915617525577545
11.968010425567627,-0.026512550190091133,-0.08449683338403702,0.07457847148180008,0.12302586436271667,0.015449759550392628,0.07915617525577545
11.988081216812134,-0.026131074875593185,-0.08449683338403702,0.07457847148180008,0.12302586436271667,0.015449759550392628,0.07915617525577545
12.00820541381836,-0.026131074875593185,-0.08449683338403702,0.07457847148180008,0.12264438718557358,0.015449759550392628,0.07915617525577545
12.028416872024536,-0.026131074875593185,-0.08449683338403702,0.07457847148180008,0.12302586436271667,0.015449759550392628,0.07915617525577545
12.048515319824219,-0.026131074875593185,-0.08449683338403702,0.07457847148180008,0.12264438718557358,0.015449759550392628,0.07915617525577545
12.06871771812439,-0.025749599561095238,-0.08449683338403702,0.07457847148180008,0.12264438718557358,0.015449759550392628,0.07915617525577545
12.088829755783081,-0.024986648932099342,-0.08487831056118011,0.07457847148180008,0.12302586436271667,0.01506828423589468,0.07877469807863235
12.108892917633057,-0.02384222112596035,-0.08487831056118011,0.07457847148180008,0.12264438718557358,0.015449759550392628,0.07877469807863235
12.129012823104858,-0.024223696440458298,-0.08564125746488571,0.07457847148180008,0.12264438718557358,0.015449759550392628,0.07877469807863235
12.149060726165771,-0.024223696440458298,-0.08564125746488571,0.07457847148180008,0.12264438718557358,0.01583123579621315,0.07877469807863235
12.169120073318481,-0.02384222112596035,-0.08564125746488571,0.07457847148180008,0.12264438718557358,0.016212711110711098,0.07877469807863235
12.189216613769531,-0.02384222112596035,-0.08564125746488571,0.07457847148180008,0.12264438718557358,0.01583123579621315,0.07877469807863235
12.209256649017334,-0.024223696440458298,-0.08602273464202881,0.07457847148180008,0.12264438718557358,0.01583123579621315,0.07877469807863235
12.22941517829895,-0.02384222112596035,-0.08602273464202881,0.07457847148180008,0.12264438718557358,0.01583123579621315,0.07877469807863235
12.249432802200317,-0.02384222112596035,-0.0864042118191719,0.07457847148180008,0.12264438718557358,0.01583123579621315,0.07839322835206985
12.26947021484375,-0.02384222112596035,-0.0864042118191719,0.07457847148180008,0.12264438718557358,0.01583123579621315,0.07839322835206985
12.289529085159302,-0.022697795182466507,-0.0864042118191719,0.07457847148180008,0.12264438718557358,0.01583123579621315,0.07801175117492676
12.309605360031128,-0.02193484455347061,-0.0864042118191719,0.07457847148180008,0.12264438718557358,0.01583123579621315,0.07801175117492676
12.329670190811157,-0.02193484455347061,-0.0864042118191719,0.07457847148180008,0.12264438718557358,0.016212711110711098,0.07763027399778366
12.349754571914673,-0.02193484455347061,-0.0864042118191719,0.07457847148180008,0.12264438718557358,0.016212711110711098,0.07686731964349747
12.369845628738403,-0.02193484455347061,-0.0864042118191719,0.07457847148180008,0.12264438718557358,0.016212711110711098,0.07648584991693497
12.389989614486694,-0.02193484455347061,-0.086785688996315,0.07457847148180008,0.12264438718557358,0.016212711110711098,0.07610437273979187
12.410112857818604,-0.02193484455347061,-0.086785688996315,0.07457847148180008,0.12264438718557358,0.016212711110711098,0.07610437273979187
12.43019437789917,-0.02193484455347061,-0.086785688996315,0.07495994865894318,0.12264438718557358,0.016212711110711098,0.07610437273979187
12.450203657150269,-0.02193484455347061,-0.0871671661734581,0.07457847148180008,0.12264438718557358,0.016212711110711098,0.07572289556264877
12.470334529876709,-0.021553369238972664,-0.0875486359000206,0.07495994865894318,0.12264438718557358,0.016212711110711098,0.07572289556264877
12.49041485786438,-0.021553369238972664,-0.0875486359000206,0.07457847148180008,0.12264438718557358,0.016212711110711098,0.07572289556264877
12.510498523712158,-0.02079041674733162,-0.0875486359000206,0.07457847148180008,0.12264438718557358,0.016212711110711098,0.07572289556264877
12.53061819076538,-0.02079041674733162,-0.0875486359000206,0.07457847148180008,0.12264438718557358,0.016212711110711098,0.07572289556264877
12.55068302154541,-0.02079041674733162,-0.0875486359000206,0.07495994865894318,0.12264438718557358,0.016594186425209045,0.07534141838550568
12.570780277252197,-0.020027466118335724,-0.0875486359000206,0.07495994865894318,0.12264438718557358,0.016212711110711098,0.07534141838550568
12.590894222259521,-0.019645990803837776,-0.0879301130771637,0.07495994865894318,0.12226291000843048,0.016594186425209045,0.07534141838550568
12.610991954803467,-0.020027466118335724,-0.0879301130771637,0.07495994865894318,0.12226291000843048,0.016594186425209045,0.07495994865894318
12.631062507629395,-0.019645990803837776,-0.08869306743144989,0.07495994865894318,0.12226291000843048,0.016975661739706993,0.07495994865894318
12.651150465011597,-0.01926451548933983,-0.08869306743144989,0.07534141838550568,0.12226291000843048,0.01735713705420494,0.07495994865894318
12.671240091323853,-0.01888304017484188,-0.08869306743144989,0.07534141838550568,0.12226291000843048,0.016975661739706993,0.07457847148180008
12.691310405731201,-0.01888304017484188,-0.08869306743144989,0.07534141838550568,0.12226291000843048,0.016975661739706993,0.07457847148180008
12.7113676071167,-0.01888304017484188,-0.08869306743144989,0.07534141838550568,0.12226291000843048,0.01735713705420494,0.07419699430465698
12.731545686721802,-0.018501564860343933,-0.08869306743144989,0.07534141838550568,0.12226291000843048,0.01773861236870289,0.07419699430465698
12.751574277877808,-0.018501564860343933,-0.08869306743144989,0.07534141838550568,0.12188144028186798,0.01773861236870289,0.07381551712751389
12.77162480354309,-0.01773861236870289,-0.08907453715801239,0.07534141838550568,0.12188144028186798,0.01735713705420494,0.07343403995037079
12.791787147521973,-0.01773861236870289,-0.08945601433515549,0.07534141838550568,0.12188144028186798,0.01735713705420494,0.07343403995037079
12.811867952346802,-0.01773861236870289,-0.08983749151229858,0.07534141838550568,0.12188144028186798,0.01773861236870289,0.07267109304666519
12.83196759223938,-0.01735713705420494,-0.08983749151229858,0.07534141838550568,0.12149996310472488,0.01773861236870289,0.07267109304666519
12.852006435394287,-0.016594186425209045,-0.08983749151229858,0.07534141838550568,0.12149996310472488,0.01773861236870289,0.07267109304666519
12.872381925582886,-0.016594186425209045,-0.08983749151229858,0.07534141838550568,0.12149996310472488,0.018120087683200836,0.0722896158695221
12.892520189285278,-0.016594186425209045,-0.08983749151229858,0.07534141838550568,0.12111848592758179,0.018120087683200836,0.0722896158695221
12.912598609924316,-0.016594186425209045,-0.09021896868944168,0.07534141838550568,0.12111848592758179,0.018120087683200836,0.0722896158695221
12.932661056518555,-0.016594186425209045,-0.09060044586658478,0.07534141838550568,0.12111848592758179,0.018120087683200836,0.071908138692379
12.952897548675537,-0.01583123579621315,-0.09060044586658478,0.07534141838550568,0.12073700875043869,0.018120087683200836,0.071908138692379
12.972984790802002,-0.015449759550392628,-0.09098191559314728,0.07534141838550568,0.12073700875043869,0.018120087683200836,0.071908138692379
12.993050575256348,-0.015449759550392628,-0.09060044586658478,0.07534141838550568,0.12073700875043869,0.018120087683200836,0.071908138692379
13.013097524642944,-0.014686808921396732,-0.09098191559314728,0.07534141838550568,0.1203555315732956,0.018501564860343933,0.0715266615152359
13.033253908157349,-0.014686808921396732,-0.09098191559314728,0.07534141838550568,0.1203555315732956,0.018501564860343933,0.0715266615152359
13.053257465362549,-0.014686808921396732,-0.09098191559314728,0.07534141838550568,0.1203555315732956,0.018501564860343933,0.0715266615152359
13.073319673538208,-0.014686808921396732,-0.09174486994743347,0.07534141838550568,0.1203555315732956,0.018501564860343933,0.0711451917886734
13.093470096588135,-0.014686808921396732,-0.09174486994743347,0.07534141838550568,0.1203555315732956,0.018501564860343933,0.0711451917886734
13.11350965499878,-0.01430533267557621,-0.09174486994743347,0.07534141838550568,0.1199740618467331,0.018501564860343933,0.0711451917886734
13.133578538894653,-0.01430533267557621,-0.09174486994743347,0.07534141838550568,0.1199740618467331,0.018501564860343933,0.0711451917886734
13.153650045394897,-0.013923857361078262,-0.09174486994743347,0.07534141838550568,0.1199740618467331,0.018501564860343933,0.0707637146115303
13.173723936080933,-0.013923857361078262,-0.09174486994743347,0.07534141838550568,0.1199740618467331,0.018501564860343933,0.0707637146115303
13.193774461746216,-0.013542382046580315,-0.09174486994743347,0.07534141838550568,0.1199740618467331,0.018501564860343933,0.07038223743438721
13.213845014572144,-0.013542382046580315,-0.09174486994743347,0.07534141838550568,0.1199740618467331,0.018501564860343933,0.07038223743438721
13.233935594558716,-0.013160906732082367,-0.09212634712457657,0.07534141838550568,0.1199740618467331,0.018501564860343933,0.07000076025724411
13.254001379013062,-0.012779430486261845,-0.09212634712457657,0.07534141838550568,0.11959258466959,0.018501564860343933,0.06961929053068161
13.274069547653198,-0.012397955171763897,-0.09212634712457657,0.07534141838550568,0.11959258466959,0.018501564860343933,0.06961929053068161
13.294212102890015,-0.012397955171763897,-0.09288929402828217,0.07534141838550568,0.11959258466959,0.018501564860343933,0.06923781335353851
13.314312934875488,-0.01201647985726595,-0.09288929402828217,0.07534141838550568,0.11959258466959,0.01888304017484188,0.06847485899925232
13.334408283233643,-0.011635004542768002,-0.09288929402828217,0.07534141838550568,0.11959258466959,0.01888304017484188,0.06847485899925232
13.354517221450806,-0.011635004542768002,-0.09288929402828217,0.07534141838550568,0.11959258466959,0.01888304017484188,0.06847485899925232
13.37452507019043,-0.011635004542768002,-0.09327077120542526,0.07534141838550568,0.11959258466959,0.018501564860343933,0.06847485899925232
13.394662380218506,-0.011635004542768002,-0.09365224838256836,0.07534141838550568,0.11959258466959,0.018501564860343933,0.06809338182210922
13.414727210998535,-0.011635004542768002,-0.09365224838256836,0.07534141838550568,0.1192111074924469,0.018501564860343933,0.06809338182210922
13.43481993675232,-0.01125352829694748,-0.09403372555971146,0.07534141838550568,0.1192111074924469,0.018501564860343933,0.06809338182210922
13.454880237579346,-0.01125352829694748,-0.09365224838256836,0.07534141838550568,0.1192111074924469,0.01888304017484188,0.06771191209554672
13.475028038024902,-0.010490577667951584,-0.09365224838256836,0.07572289556264877,0.1192111074924469,0.018501564860343933,0.06771191209554672
13.495072603225708,-0.010109102353453636,-0.09403372555971146,0.07572289556264877,0.1192111074924469,0.018501564860343933,0.06771191209554672
13.515142440795898,-0.009727626107633114,-0.09403372555971146,0.07534141838550568,0.1192111074924469,0.018501564860343933,0.06771191209554672
13.535199880599976,-0.009727626107633114,-0.09403372555971146,0.07534141838550568,0.1188296303153038,0.01888304017484188,0.06733043491840363
13.55528736114502,-0.009727626107633114,-0.09403372555971146,0.07534141838550568,0.1188296303153038,0.01888304017484188,0.06733043491840363
13.575357437133789,-0.009727626107633114,-0.09403372555971146,0.07534141838550568,0.1184481605887413,0.01888304017484188,0.06694895774126053
13.59551739692688,-0.009346150793135166,-0.09403372555971146,0.07572289556264877,0.1184481605887413,0.01888304017484188,0.06694895774126053
13.615607500076294,-0.009346150793135166,-0.09479667246341705,0.07572289556264877,0.1184481605887413,0.018501564860343933,0.06694895774126053
13.63597297668457,-0.009346150793135166,-0.09479667246341705,0.07534141838550568,0.1184481605887413,0.018501564860343933,0.06656748056411743
13.65606164932251,-0.00858320016413927,-0.09517814964056015,0.07534141838550568,0.1180666834115982,0.018501564860343933,0.06618601083755493
13.676145792007446,-0.007438773289322853,-0.09517814964056015,0.07572289556264877,0.1180666834115982,0.01888304017484188,0.06580453366041183
13.69623064994812,-0.007438773289322853,-0.09517814964056015,0.07572289556264877,0.11730372905731201,0.01926451548933983,0.06542305648326874
13.71626591682434,-0.007438773289322853,-0.09517814964056015,0.07572289556264877,0.11615930497646332,0.01926451548933983,0.06504157930612564
13.73643183708191,-0.007438773289322853,-0.09594109654426575,0.07572289556264877,0.11577782779932022,0.01926451548933983,0.06466010212898254
13.756528615951538,-0.007438773289322853,-0.09594109654426575,0.07572289556264877,0.11577782779932022,0.01888304017484188,0.06466010212898254
13.776607990264893,-0.007438773289322853,-0.09594109654426575,0.07572289556264877,0.11577782779932022,0.01888304017484188,0.06466010212898254
13.796650171279907,-0.007438773289322853,-0.09594109654426575,0.07572289556264877,0.11577782779932022,0.01888304017484188,0.06466010212898254
13.816723585128784,-0.007438773289322853,-0.09594109654426575,0.07572289556264877,0.11539635062217712,0.01888304017484188,0.06427863240242004
13.836819648742676,-0.007057297509163618,-0.09594109654426575,0.07572289556264877,0.11577782779932022,0.01926451548933983,0.06427863240242004
13.856888055801392,-0.006294346414506435,-0.09594109654426575,0.07572289556264877,0.11539635062217712,0.01888304017484188,0.06427863240242004
13.876954555511475,-0.006294346414506435,-0.09632257372140884,0.07572289556264877,0.11539635062217712,0.01888304017484188,0.06389715522527695
13.897000551223755,-0.006294346414506435,-0.09632257372140884,0.07572289556264877,0.11539635062217712,0.01888304017484188,0.06389715522527695
13.917125940322876,-0.005912871100008488,-0.09670405089855194,0.07572289556264877,0.11539635062217712,0.01888304017484188,0.06389715522527695
13.937183380126953,-0.005531395319849253,-0.09708552807569504,0.07572289556264877,0.11539635062217712,0.01888304017484188,0.06389715522527695
