liuyurong129/humanoid-gym/humanoid/data/actual_q_20250521-000454.csv
timestamp,joint_1,joint_2,joint_3,joint_4,joint_5,joint_6
2.7418136596679688e-05,-0.00019073777366429567,0.002861066721379757,-0.0013351644156500697,-0.00019073777366429567,0.00019073777366429567,-0.00019073777366429567
0.020104169845581055,-0.00019073777366429567,0.0024795911740511656,-0.0013351644156500697,-0.00019073777366429567,0.000572213320992887,-0.00019073777366429567
0.04015755653381348,-0.00019073777366429567,0.001716639962978661,-0.0013351644156500697,-0.00019073777366429567,0.00019073777366429567,-0.00019073777366429567
0.060218095779418945,-0.00019073777366429567,0.001716639962978661,-0.0013351644156500697,-0.00019073777366429567,0.00019073777366429567,-0.00019073777366429567
0.08029413223266602,-0.00019073777366429567,0.000572213320992887,-0.000572213320992887,-0.00019073777366429567,0.00019073777366429567,-0.00019073777366429567
0.10036134719848633,0.00019073777366429567,-0.0013351644156500697,0.0009536888683214784,-0.00019073777366429567,0.00019073777366429567,-0.00019073777366429567
0.12079715728759766,0.00019073777366429567,-0.0032425422687083483,0.0020981156267225742,-0.00019073777366429567,0.00019073777366429567,-0.00019073777366429567
0.14093804359436035,0.000572213320992887,-0.00476844422519207,0.0032425422687083483,-0.00019073777366429567,0.00019073777366429567,-0.00019073777366429567
0.16103219985961914,0.000572213320992887,-0.005531395319849253,0.004386968910694122,0.00019073777366429567,0.00019073777366429567,-0.00019073777366429567
0.1810777187347412,0.000572213320992887,-0.00667582219466567,0.00476844422519207,0.00019073777366429567,0.00019073777366429567,0.00019073777366429567
0.20130634307861328,0.000572213320992887,-0.00858320016413927,0.006294346414506435,0.00019073777366429567,0.00019073777366429567,0.00019073777366429567
0.22144317626953125,0.000572213320992887,-0.010109102353453636,0.007438773289322853,0.00019073777366429567,0.000572213320992887,0.00019073777366429567
0.24147272109985352,0.000572213320992887,-0.01125352829694748,0.00858320016413927,0.000572213320992887,0.000572213320992887,0.00019073777366429567
0.26152634620666504,0.000572213320992887,-0.011635004542768002,0.009346150793135166,0.000572213320992887,0.000572213320992887,0.00019073777366429567
0.28173279762268066,0.0009536888683214784,-0.013160906732082367,0.010109102353453636,0.0009536888683214784,0.00019073777366429567,0.00019073777366429567
0.3018655776977539,0.0009536888683214784,-0.01430533267557621,0.01125352829694748,0.0013351644156500697,0.00019073777366429567,0.00019073777366429567
0.3219294548034668,0.0009536888683214784,-0.01583123579621315,0.012779430486261845,0.001716639962978661,0.00019073777366429567,0.00019073777366429567
0.341998815536499,0.001716639962978661,-0.016594186425209045,0.013160906732082367,0.0020981156267225742,0.00019073777366429567,0.000572213320992887
0.3620426654815674,0.0020981156267225742,-0.018120087683200836,0.013923857361078262,0.002861066721379757,0.00019073777366429567,0.000572213320992887
0.38211870193481445,0.0020981156267225742,-0.01926451548933983,0.01506828423589468,0.0032425422687083483,0.00019073777366429567,0.000572213320992887
0.4021894931793213,0.0020981156267225742,-0.02079041674733162,0.01583123579621315,0.0036240178160369396,0.00019073777366429567,0.000572213320992887
0.42224860191345215,0.0020981156267225742,-0.02193484455347061,0.016975661739706993,0.0036240178160369396,0.00019073777366429567,0.000572213320992887
0.4422948360443115,0.0024795911740511656,-0.024223696440458298,0.018120087683200836,0.004005493130534887,0.00019073777366429567,0.000572213320992887
0.46241021156311035,0.0024795911740511656,-0.02536812424659729,0.01926451548933983,0.004386968910694122,0.00019073777366429567,0.000572213320992887
0.4824519157409668,0.0024795911740511656,-0.026512550190091133,0.02040894143283367,0.00476844422519207,0.00019073777366429567,0.000572213320992887
0.5025210380554199,0.0024795911740511656,-0.02689402550458908,0.021553369238972664,0.005149920005351305,0.00019073777366429567,0.0009536888683214784
0.5225708484649658,0.002861066721379757,-0.02880140393972397,0.022697795182466507,0.006294346414506435,0.000572213320992887,0.0009536888683214784
0.5427753925323486,0.0024795911740511656,-0.02994582988321781,0.02384222112596035,0.007057297509163618,0.00019073777366429567,0.0009536888683214784
0.5627524852752686,0.002861066721379757,-0.031090257689356804,0.024986648932099342,0.007057297509163618,0.00019073777366429567,0.0009536888683214784
0.5828299522399902,0.002861066721379757,-0.03223468363285065,0.02536812424659729,0.007438773289322853,0.000572213320992887,0.0009536888683214784
0.6028766632080078,0.002861066721379757,-0.03376058489084244,0.026131074875593185,0.007438773289322853,0.00019073777366429567,0.0009536888683214784
0.6229603290557861,0.002861066721379757,-0.03528648987412453,0.02727550081908703,0.0078202486038208,0.00019073777366429567,0.0013351644156500697
0.6430327892303467,0.0032425422687083483,-0.03643091395497322,0.028038453310728073,0.0078202486038208,0.00019073777366429567,0.0013351644156500697
0.6631639003753662,0.0032425422687083483,-0.03795681521296501,0.029182879254221916,0.008201723918318748,0.00019073777366429567,0.0013351644156500697
0.6832034587860107,0.004005493130534887,-0.038719769567251205,0.02994582988321781,0.00858320016413927,0.000572213320992887,0.001716639962978661
0.7038242816925049,0.004005493130534887,-0.0398641936480999,0.030708782374858856,0.009346150793135166,0.000572213320992887,0.0024795911740511656
0.7239158153533936,0.004386968910694122,-0.04100862145423889,0.03185320645570755,0.010109102353453636,0.000572213320992887,0.0024795911740511656
0.7439751625061035,0.00476844422519207,-0.04177157208323479,0.032616160809993744,0.010490577667951584,0.000572213320992887,0.0032425422687083483
0.7640378475189209,0.00476844422519207,-0.04329747334122658,0.034142062067985535,0.010872052982449532,0.000572213320992887,0.0036240178160369396
0.7840933799743652,0.00476844422519207,-0.04482337832450867,0.03490501269698143,0.010872052982449532,0.000572213320992887,0.0036240178160369396
0.8041794300079346,0.00476844422519207,-0.04634927958250046,0.03643091395497322,0.01125352829694748,0.000572213320992887,0.0036240178160369396
0.824244499206543,0.00476844422519207,-0.04749370738863945,0.037193864583969116,0.011635004542768002,0.000572213320992887,0.0036240178160369396
0.8443865776062012,0.00476844422519207,-0.048256658017635345,0.03833829239010811,0.011635004542768002,0.000572213320992887,0.0036240178160369396
0.8644454479217529,0.00476844422519207,-0.050164032727479935,0.0394827201962471,0.01201647985726595,0.00019073777366429567,0.0036240178160369396
0.8844923973083496,0.00476844422519207,-0.05054550990462303,0.0398641936480999,0.012397955171763897,0.000572213320992887,0.0036240178160369396
0.9045999050140381,0.00476844422519207,-0.051689937710762024,0.04139009863138199,0.013160906732082367,0.000572213320992887,0.0036240178160369396
0.9246463775634766,0.005149920005351305,-0.053215838968753815,0.042153049260377884,0.01430533267557621,0.000572213320992887,0.0036240178160369396
0.9447131156921387,0.005149920005351305,-0.0551232174038887,0.04329747334122658,0.014686808921396732,0.000572213320992887,0.004005493130534887
0.9647619724273682,0.005531395319849253,-0.05664911866188049,0.04406042397022247,0.014686808921396732,0.000572213320992887,0.004005493130534887
0.9848508834838867,0.006294346414506435,-0.057793546468019485,0.04482337832450867,0.01506828423589468,0.00019073777366429567,0.004005493130534887
1.004927635192871,0.00667582219466567,-0.05855649709701538,0.04596780240535736,0.015449759550392628,0.00019073777366429567,0.004386968910694122
1.0250422954559326,0.00667582219466567,-0.05970092490315437,0.04711223021149635,0.015449759550392628,0.000572213320992887,0.004386968910694122
1.0450608730316162,0.007057297509163618,-0.06084534898400307,0.048256658017635345,0.01583123579621315,0.000572213320992887,0.004386968910694122
1.0651981830596924,0.00667582219466567,-0.06198977679014206,0.048638131469488144,0.016212711110711098,0.000572213320992887,0.004386968910694122
1.0853872299194336,0.007057297509163618,-0.06313420087099075,0.049782559275627136,0.016975661739706993,0.000572213320992887,0.004386968910694122
1.1053919792175293,0.00667582219466567,-0.06504157930612564,0.05130846053361893,0.01773861236870289,0.000572213320992887,0.00476844422519207
1.1254382133483887,0.007057297509163618,-0.06694895774126053,0.05245288833975792,0.018501564860343933,0.000572213320992887,0.00476844422519207
1.1455929279327393,0.007057297509163618,-0.06809338182210922,0.05359731614589691,0.018501564860343933,0.000572213320992887,0.005149920005351305
1.165693998336792,0.007057297509163618,-0.06923781335353851,0.054741740226745605,0.01888304017484188,0.00019073777366429567,0.005149920005351305
1.1857781410217285,0.007057297509163618,-0.07038223743438721,0.0555046908557415,0.01888304017484188,0.000572213320992887,0.005531395319849253
1.2058875560760498,0.007057297509163618,-0.0711451917886734,0.05664911866188049,0.01926451548933983,0.000572213320992887,0.005531395319849253
1.2259318828582764,0.007438773289322853,-0.07267109304666519,0.05703059583902359,0.019645990803837776,0.000572213320992887,0.006294346414506435
1.2460105419158936,0.0078202486038208,-0.07419699430465698,0.05893797054886818,0.020027466118335724,0.000572213320992887,0.007438773289322853
1.2661473751068115,0.008201723918318748,-0.07572289556264877,0.05970092490315437,0.021171892061829567,0.0009536888683214784,0.0078202486038208
1.2861826419830322,0.008201723918318748,-0.07686731964349747,0.06046387553215027,0.02193484455347061,0.000572213320992887,0.0078202486038208
1.3062407970428467,0.008201723918318748,-0.07839322835206985,0.06084534898400307,0.02231631986796856,0.000572213320992887,0.0078202486038208
1.3264074325561523,0.008201723918318748,-0.07991912961006165,0.06237125024199486,0.022697795182466507,0.000572213320992887,0.0078202486038208
1.346426248550415,0.00858320016413927,-0.08182650804519653,0.06351567804813385,0.022697795182466507,0.000572213320992887,0.008201723918318748
1.3664817810058594,0.008964675478637218,-0.08258945494890213,0.06466010212898254,0.023079270496964455,0.000572213320992887,0.008201723918318748
1.3865318298339844,0.008964675478637218,-0.08373387902975082,0.06580453366041183,0.023460745811462402,0.000572213320992887,0.008201723918318748
1.4066534042358398,0.008964675478637218,-0.08487831056118011,0.06694895774126053,0.02384222112596035,0.0009536888683214784,0.008201723918318748
1.4269134998321533,0.008964675478637218,-0.0864042118191719,0.06847485899925232,0.024605173617601395,0.0009536888683214784,0.008201723918318748
1.446845293045044,0.008964675478637218,-0.0875486359000206,0.06923781335353851,0.02536812424659729,0.000572213320992887,0.00858320016413927
1.4669053554534912,0.008964675478637218,-0.08869306743144989,0.06961929053068161,0.025749599561095238,0.000572213320992887,0.008964675478637218
1.487372875213623,0.009346150793135166,-0.09021896868944168,0.0707637146115303,0.025749599561095238,0.00019073777366429567,0.009346150793135166
1.5074501037597656,0.009727626107633114,-0.09174486994743347,0.071908138692379,0.026131074875593185,0.000572213320992887,0.010490577667951584
1.527512550354004,0.010109102353453636,-0.09250781685113907,0.07305257022380829,0.026131074875593185,0.000572213320992887,0.010872052982449532
1.5475738048553467,0.010109102353453636,-0.09403372555971146,0.07343403995037079,0.026512550190091133,0.000572213320992887,0.01125352829694748
1.567627191543579,0.010109102353453636,-0.09594109654426575,0.07457847148180008,0.026512550190091133,0.0009536888683214784,0.01125352829694748
1.5877492427825928,0.010109102353453636,-0.09746700525283813,0.07572289556264877,0.02689402550458908,0.0009536888683214784,0.01125352829694748
1.607787847518921,0.010109102353453636,-0.09899290651082993,0.07686731964349747,0.02727550081908703,0.000572213320992887,0.01125352829694748
1.6278610229492188,0.010490577667951584,-0.09937438368797302,0.07763027399778366,0.027656977996230125,0.000572213320992887,0.01125352829694748
1.6479215621948242,0.010490577667951584,-0.10090028494596481,0.07877469807863235,0.02880140393972397,0.00019073777366429567,0.01125352829694748
1.6680371761322021,0.010872052982449532,-0.1031891331076622,0.08068207651376724,0.029564354568719864,0.000572213320992887,0.01125352829694748
1.6881160736083984,0.01125352829694748,-0.10433356463909149,0.08220797777175903,0.02994582988321781,0.0009536888683214784,0.011635004542768002
1.7081797122955322,0.01125352829694748,-0.10547798871994019,0.08297093212604523,0.02994582988321781,0.0009536888683214784,0.011635004542768002
1.72822904586792,0.011635004542768002,-0.10624094307422638,0.08335240930318832,0.03032730519771576,0.0009536888683214784,0.011635004542768002
1.7483901977539062,0.01201647985726595,-0.10776684433221817,0.08487831056118011,0.03032730519771576,0.000572213320992887,0.011635004542768002
1.7684080600738525,0.01201647985726595,-0.10967422276735306,0.08602273464202881,0.031090257689356804,0.000572213320992887,0.011635004542768002
1.7884798049926758,0.01201647985726595,-0.11158160120248795,0.086785688996315,0.03147173300385475,0.0009536888683214784,0.011635004542768002
1.8085532188415527,0.01201647985726595,-0.11272602528333664,0.0879301130771637,0.032616160809993744,0.0009536888683214784,0.01201647985726595
1.8286290168762207,0.01201647985726595,-0.11387044936418533,0.08869306743144989,0.03299763426184654,0.0009536888683214784,0.01201647985726595
1.8487272262573242,0.012397955171763897,-0.11463340371847153,0.08983749151229858,0.03337911143898964,0.0009536888683214784,0.01201647985726595
1.8687570095062256,0.012397955171763897,-0.11577782779932022,0.09021896868944168,0.03337911143898964,0.000572213320992887,0.01201647985726595
1.8888027667999268,0.013160906732082367,-0.11692225188016891,0.09174486994743347,0.03376058489084244,0.0009536888683214784,0.01201647985726595
1.908886432647705,0.013160906732082367,-0.1184481605887413,0.09250781685113907,0.03376058489084244,0.0009536888683214784,0.012397955171763897
1.9289581775665283,0.013160906732082367,-0.11959258466959,0.09365224838256836,0.034142062067985535,0.0009536888683214784,0.01201647985726595
1.94901442527771,0.01430533267557621,-0.12073700875043869,0.09479667246341705,0.03452353551983833,0.0009536888683214784,0.012397955171763897
1.969191551208496,0.01430533267557621,-0.12188144028186798,0.09555962681770325,0.03452353551983833,0.0009536888683214784,0.012397955171763897
1.989196538925171,0.01430533267557621,-0.12340734153985977,0.09708552807569504,0.03490501269698143,0.0009536888683214784,0.012397955171763897
2.0092873573303223,0.01430533267557621,-0.12455176562070847,0.09822995215654373,0.03528648987412453,0.0013351644156500697,0.012397955171763897
2.029473304748535,0.01430533267557621,-0.12531471252441406,0.09899290651082993,0.03643091395497322,0.0009536888683214784,0.012779430486261845
2.0494654178619385,0.01430533267557621,-0.12607766687870026,0.09975585341453552,0.03681239113211632,0.0009536888683214784,0.012779430486261845
2.069584369659424,0.01430533267557621,-0.12798504531383514,0.10051880776882172,0.037193864583969116,0.0009536888683214784,0.013160906732082367
2.089667797088623,0.01430533267557621,-0.13027389347553253,0.10204470902681351,0.037193864583969116,0.0013351644156500697,0.013160906732082367
2.109734058380127,0.014686808921396732,-0.13141833245754242,0.1028076633810997,0.03757534176111221,0.0009536888683214784,0.013542382046580315
2.129784345626831,0.01506828423589468,-0.13141833245754242,0.1035706102848053,0.03757534176111221,0.0013351644156500697,0.01430533267557621
2.149855136871338,0.01506828423589468,-0.1325627565383911,0.10471503436565399,0.03795681521296501,0.0013351644156500697,0.014686808921396732
2.1699323654174805,0.01506828423589468,-0.1340886503458023,0.10585946589708328,0.038719769567251205,0.0009536888683214784,0.014686808921396732
2.190007448196411,0.01506828423589468,-0.1359960287809372,0.10700388997793198,0.0394827201962471,0.0013351644156500697,0.014686808921396732
2.2101118564605713,0.01506828423589468,-0.1371404528617859,0.10700388997793198,0.040627144277095795,0.0013351644156500697,0.014686808921396732
2.2301833629608154,0.015449759550392628,-0.13866636157035828,0.10814831405878067,0.04100862145423889,0.0013351644156500697,0.01506828423589468
2.250243902206421,0.015449759550392628,-0.14019227027893066,0.10929274559020996,0.04139009863138199,0.0009536888683214784,0.015449759550392628
2.270322322845459,0.016212711110711098,-0.14133669435977936,0.11081864684820175,0.04139009863138199,0.0009536888683214784,0.015449759550392628
2.29038143157959,0.016594186425209045,-0.14248111844062805,0.11196307092905045,0.04177157208323479,0.0013351644156500697,0.015449759550392628
2.3104333877563477,0.016594186425209045,-0.14438849687576294,0.11310750246047974,0.042153049260377884,0.0013351644156500697,0.015449759550392628
2.3305165767669678,0.016975661739706993,-0.14553292095661163,0.11425192654132843,0.04253452271223068,0.0020981156267225742,0.015449759550392628
2.350614547729492,0.016975661739706993,-0.14667734503746033,0.11501488089561462,0.043678950518369675,0.0020981156267225742,0.01583123579621315
2.3706846237182617,0.01735713705420494,-0.14820325374603271,0.11539635062217712,0.04444190114736557,0.0020981156267225742,0.01583123579621315
2.390739679336548,0.016975661739706993,-0.1489662081003189,0.11654078215360641,0.04444190114736557,0.001716639962978661,0.01583123579621315
2.410802125930786,0.01735713705420494,-0.1497291475534439,0.11768520623445511,0.04482337832450867,0.001716639962978661,0.016212711110711098
2.4309282302856445,0.01735713705420494,-0.1516365259885788,0.1188296303153038,0.045204851776361465,0.001716639962978661,0.016212711110711098
2.450972318649292,0.01735713705420494,-0.1527809500694275,0.11959258466959,0.04558632895350456,0.001716639962978661,0.016594186425209045
2.471038341522217,0.01773861236870289,-0.15392538905143738,0.12073700875043869,0.04558632895350456,0.0020981156267225742,0.016594186425209045
2.4910879135131836,0.018501564860343933,-0.15583276748657227,0.12188144028186798,0.04634927958250046,0.0020981156267225742,0.016975661739706993
2.5111725330352783,0.01926451548933983,-0.15659570693969727,0.12302586436271667,0.046730753034353256,0.001716639962978661,0.01735713705420494
2.531248092651367,0.01926451548933983,-0.15774014592170715,0.12455176562070847,0.04749370738863945,0.0020981156267225742,0.01773861236870289
2.551304578781128,0.01926451548933983,-0.15926603972911835,0.12531471252441406,0.048256658017635345,0.0020981156267225742,0.018120087683200836
2.571367025375366,0.01926451548933983,-0.16117341816425323,0.12607766687870026,0.048638131469488144,0.0024795911740511656,0.018501564860343933
2.5914790630340576,0.01926451548933983,-0.16231784224510193,0.12722209095954895,0.048638131469488144,0.0020981156267225742,0.018501564860343933
2.61153244972229,0.01926451548933983,-0.16308079659938812,0.12798504531383514,0.04901960864663124,0.0020981156267225742,0.01888304017484188
2.6316006183624268,0.01926451548933983,-0.1646067053079605,0.12912946939468384,0.04940108209848404,0.001716639962978661,0.01888304017484188
2.6516618728637695,0.01926451548933983,-0.1657511293888092,0.12951095402240753,0.04940108209848404,0.0020981156267225742,0.01888304017484188
2.671797275543213,0.019645990803837776,-0.1668955534696579,0.13103684782981873,0.049782559275627136,0.0020981156267225742,0.01888304017484188
2.6918833255767822,0.019645990803837776,-0.1684214472770691,0.13179980218410492,0.050164032727479935,0.0024795911740511656,0.01888304017484188
2.7119436264038086,0.02040894143283367,-0.16918440163135529,0.1329442262649536,0.05130846053361893,0.0024795911740511656,0.01926451548933983
2.732008457183838,0.021171892061829567,-0.17071031033992767,0.1333257108926773,0.051689937710762024,0.0020981156267225742,0.01926451548933983
2.7520699501037598,0.021171892061829567,-0.17185473442077637,0.1340886503458023,0.05207141116261482,0.0020981156267225742,0.01926451548933983
2.772207260131836,0.021171892061829567,-0.17338064312934875,0.135233074426651,0.05207141116261482,0.0024795911740511656,0.01926451548933983
2.792203903198242,0.021171892061829567,-0.17452506721019745,0.1359960287809372,0.05245288833975792,0.002861066721379757,0.01926451548933983
2.8122572898864746,0.021171892061829567,-0.17605096101760864,0.1367589831352234,0.05245288833975792,0.002861066721379757,0.019645990803837776
2.8323309421539307,0.021171892061829567,-0.17795833945274353,0.13828489184379578,0.05283436179161072,0.002861066721379757,0.019645990803837776
2.8524253368377686,0.021553369238972664,-0.17872129380702972,0.13904783129692078,0.053215838968753815,0.0024795911740511656,0.019645990803837776
2.8724846839904785,0.021553369238972664,-0.17986571788787842,0.14019227027893066,0.05359731614589691,0.0024795911740511656,0.019645990803837776
2.8926103115081787,0.021553369238972664,-0.1810101419687271,0.14095520973205566,0.05397878959774971,0.0024795911740511656,0.020027466118335724
2.9126386642456055,0.021553369238972664,-0.1825360506772995,0.14209964871406555,0.05436026677489281,0.002861066721379757,0.020027466118335724
2.932811975479126,0.021553369238972664,-0.1844434291124344,0.14362554252147675,0.0555046908557415,0.0032425422687083483,0.020027466118335724
2.952911615371704,0.02193484455347061,-0.18558785319328308,0.14438849687576294,0.0558861680328846,0.002861066721379757,0.020027466118335724
2.9729666709899902,0.022697795182466507,-0.18673227727413177,0.14591439068317413,0.056267641484737396,0.0024795911740511656,0.020027466118335724
2.9930241107940674,0.022697795182466507,-0.18673227727413177,0.14629587531089783,0.05664911866188049,0.002861066721379757,0.02040894143283367
3.0130884647369385,0.022697795182466507,-0.18978407979011536,0.14744029939174652,0.05664911866188049,0.002861066721379757,0.02040894143283367
3.0331742763519287,0.023460745811462402,-0.19130998849868774,0.14858472347259521,0.05703059583902359,0.002861066721379757,0.02040894143283367
3.0534000396728516,0.023460745811462402,-0.19283588230609894,0.1497291475534439,0.05741206929087639,0.0032425422687083483,0.02079041674733162
3.07338809967041,0.023460745811462402,-0.19398032128810883,0.1504921019077301,0.05855649709701538,0.0032425422687083483,0.021171892061829567
3.093430995941162,0.02384222112596035,-0.1958876997232437,0.1512550562620163,0.059319447726011276,0.0032425422687083483,0.021553369238972664
3.1135146617889404,0.02384222112596035,-0.1970321238040924,0.152399480342865,0.05970092490315437,0.002861066721379757,0.02231631986796856
3.1336236000061035,0.024605173617601395,-0.1977950781583786,0.15392538905143738,0.05970092490315437,0.002861066721379757,0.02231631986796856
3.1537065505981445,0.024605173617601395,-0.1989395022392273,0.15468832850456238,0.06008239835500717,0.002861066721379757,0.02231631986796856
3.1737287044525146,0.024605173617601395,-0.20084688067436218,0.15583276748657227,0.06008239835500717,0.002861066721379757,0.022697795182466507
3.193798780441284,0.024605173617601395,-0.20122835040092468,0.15659570693969727,0.06046387553215027,0.0036240178160369396,0.022697795182466507
3.213886260986328,0.024986648932099342,-0.20351719856262207,0.15812161564826965,0.06084534898400307,0.0032425422687083483,0.022697795182466507
3.2339634895324707,0.02536812424659729,-0.20313572883605957,0.15888457000255585,0.06160829961299896,0.0032425422687083483,0.022697795182466507
3.254084825515747,0.025749599561095238,-0.20542457699775696,0.16041046380996704,0.06237125024199486,0.002861066721379757,0.022697795182466507
3.2741408348083496,0.025749599561095238,-0.20656901597976685,0.16079194843769073,0.06313420087099075,0.0032425422687083483,0.023079270496964455
3.294240951538086,0.025749599561095238,-0.20733195543289185,0.16231784224510193,0.06313420087099075,0.0032425422687083483,0.023079270496964455
3.3142948150634766,0.026512550190091133,-0.20809490978717804,0.16308079659938812,0.06351567804813385,0.0032425422687083483,0.023079270496964455
3.3343920707702637,0.026512550190091133,-0.20847637951374054,0.16422522068023682,0.06351567804813385,0.0032425422687083483,0.023079270496964455
3.354451894760132,0.026512550190091133,-0.21038375794887543,0.1646067053079605,0.06389715522527695,0.0032425422687083483,0.023460745811462402
3.374565362930298,0.026512550190091133,-0.21152819693088531,0.1661325991153717,0.06427863240242004,0.0036240178160369396,0.023460745811462402
3.3946101665496826,0.02689402550458908,-0.2130540907382965,0.1668955534696579,0.06466010212898254,0.0032425422687083483,0.02384222112596035
3.414689064025879,0.02689402550458908,-0.2141985148191452,0.1672770231962204,0.06504157930612564,0.0032425422687083483,0.02384222112596035
3.4347479343414307,0.02727550081908703,-0.2153429538011551,0.16880293190479279,0.06618601083755493,0.0032425422687083483,0.024223696440458298
3.4548895359039307,0.027656977996230125,-0.21801327168941498,0.17032882571220398,0.06694895774126053,0.0032425422687083483,0.024605173617601395
3.474963665008545,0.02841992862522602,-0.21915769577026367,0.17109178006649017,0.06733043491840363,0.0036240178160369396,0.02536812424659729
3.4950203895568848,0.02880140393972397,-0.21953918039798737,0.17185473442077637,0.06733043491840363,0.0032425422687083483,0.026512550190091133
3.5150909423828125,0.02880140393972397,-0.22182802855968475,0.17261768877506256,0.06771191209554672,0.0036240178160369396,0.02689402550458908
3.535167932510376,0.02880140393972397,-0.22297245264053345,0.17376211285591125,0.06809338182210922,0.004005493130534887,0.02689402550458908
3.555232048034668,0.02880140393972397,-0.22411687672138214,0.17566949129104614,0.06847485899925232,0.0036240178160369396,0.02689402550458908
3.575303316116333,0.02880140393972397,-0.22564278542995453,0.17605096101760864,0.06885633617639542,0.0036240178160369396,0.02689402550458908
3.5953521728515625,0.02880140393972397,-0.22716869413852692,0.17719538509845734,0.07000076025724411,0.0036240178160369396,0.02727550081908703
3.61543345451355,0.029182879254221916,-0.2283131182193756,0.17795833945274353,0.0707637146115303,0.0036240178160369396,0.02727550081908703
3.6356277465820312,0.029564354568719864,-0.2298390120267868,0.17948424816131592,0.0707637146115303,0.0036240178160369396,0.02727550081908703
3.655607223510742,0.029564354568719864,-0.2298390120267868,0.17986571788787842,0.0711451917886734,0.004005493130534887,0.02727550081908703
3.675717830657959,0.029564354568719864,-0.2317463904619217,0.1813916265964508,0.0711451917886734,0.004005493130534887,0.02727550081908703
3.695794105529785,0.02994582988321781,-0.23365376889705658,0.182154580950737,0.0715266615152359,0.004005493130534887,0.027656977996230125
3.7158429622650146,0.02994582988321781,-0.23441672325134277,0.1832990050315857,0.071908138692379,0.004005493130534887,0.027656977996230125
3.7359020709991455,0.030708782374858856,-0.23632410168647766,0.1836804747581482,0.0722896158695221,0.0036240178160369396,0.027656977996230125
3.755964517593384,0.031090257689356804,-0.23708705604076385,0.1848248988389969,0.07305257022380829,0.0036240178160369396,0.027656977996230125
3.776048183441162,0.031090257689356804,-0.23823148012161255,0.18558785319328308,0.07419699430465698,0.0036240178160369396,0.028038453310728073
3.796123504638672,0.03147173300385475,-0.23975738883018494,0.18711376190185547,0.07457847148180008,0.004386968910694122,0.028038453310728073
3.8162269592285156,0.03185320645570755,-0.24052032828330994,0.18825818598270416,0.07495994865894318,0.004386968910694122,0.02841992862522602
3.836273670196533,0.03185320645570755,-0.24204623699188232,0.18940261006355286,0.07495994865894318,0.004005493130534887,0.029182879254221916
3.8563232421875,0.03185320645570755,-0.24280919134616852,0.19016556441783905,0.07534141838550568,0.004005493130534887,0.029564354568719864
3.8764538764953613,0.03185320645570755,-0.2439536154270172,0.19169145822525024,0.07572289556264877,0.0036240178160369396,0.02994582988321781
3.8965728282928467,0.03185320645570755,-0.2450980395078659,0.19283588230609894,0.07648584991693497,0.004005493130534887,0.02994582988321781
3.9166042804718018,0.03223468363285065,-0.2466239482164383,0.19398032128810883,0.07763027399778366,0.0036240178160369396,0.02994582988321781
3.936659574508667,0.032616160809993744,-0.248531311750412,0.19474326074123383,0.07839322835206985,0.004386968910694122,0.03032730519771576
3.9567413330078125,0.03337911143898964,-0.24967575073242188,0.1962691694498062,0.07877469807863235,0.004005493130534887,0.03032730519771576
3.976815938949585,0.03376058489084244,-0.2508201599121094,0.1970321238040924,0.07877469807863235,0.004005493130534887,0.03032730519771576
3.9969377517700195,0.03376058489084244,-0.25272753834724426,0.1977950781583786,0.07877469807863235,0.004386968910694122,0.03032730519771576
4.017024040222168,0.03376058489084244,-0.25463491678237915,0.1985580176115036,0.07915617525577545,0.004386968910694122,0.03032730519771576
4.037128448486328,0.03376058489084244,-0.25539788603782654,0.1997024416923523,0.07915617525577545,0.004386968910694122,0.03032730519771576
4.057306528091431,0.034142062067985535,-0.2569237947463989,0.2004653960466385,0.07953765243291855,0.004005493130534887,0.03032730519771576
4.077382564544678,0.034142062067985535,-0.2573052644729614,0.20122835040092468,0.08030059933662415,0.004005493130534887,0.030708782374858856
4.097440958023071,0.034142062067985535,-0.2588311731815338,0.20199130475521088,0.08106355369091034,0.004005493130534887,0.030708782374858856
4.117526531219482,0.03490501269698143,-0.2592126429080963,0.20351719856262207,0.08182650804519653,0.004005493130534887,0.030708782374858856
4.137601852416992,0.03604944050312042,-0.2611200213432312,0.20428015291690826,0.08220797777175903,0.004005493130534887,0.030708782374858856
4.157662391662598,0.03604944050312042,-0.2615014910697937,0.20504310727119446,0.08258945494890213,0.00476844422519207,0.030708782374858856
4.17771053314209,0.03604944050312042,-0.2634088695049286,0.20618753135204315,0.08258945494890213,0.00476844422519207,0.030708782374858856
4.197789907455444,0.03604944050312042,-0.2653162479400635,0.20733195543289185,0.08335240930318832,0.005531395319849253,0.030708782374858856
4.217908620834351,0.03604944050312042,-0.266460657119751,0.20847637951374054,0.08373387902975082,0.00476844422519207,0.031090257689356804
4.238003253936768,0.03604944050312042,-0.26760509610176086,0.20885786414146423,0.08449683338403702,0.004386968910694122,0.031090257689356804
4.2580389976501465,0.03604944050312042,-0.26913100481033325,0.20962081849575043,0.08564125746488571,0.004005493130534887,0.03147173300385475
4.278095245361328,0.03604944050312042,-0.27141985297203064,0.21114671230316162,0.08564125746488571,0.004386968910694122,0.03147173300385475
4.298157215118408,0.03643091395497322,-0.27180132269859314,0.21229113638401031,0.08602273464202881,0.004386968910694122,0.03147173300385475
4.318228483200073,0.037193864583969116,-0.2733272314071655,0.212672621011734,0.08602273464202881,0.00476844422519207,0.03185320645570755
4.338301420211792,0.037193864583969116,-0.2733272314071655,0.2134355753660202,0.0864042118191719,0.005149920005351305,0.03185320645570755
4.3583900928497314,0.03757534176111221,-0.2752346098423004,0.2145799994468689,0.0864042118191719,0.005149920005351305,0.03185320645570755
4.378483772277832,0.03795681521296501,-0.2759975492954254,0.2157244235277176,0.086785688996315,0.00476844422519207,0.03223468363285065
4.398587703704834,0.03795681521296501,-0.2779049277305603,0.21648737788200378,0.0871671661734581,0.00476844422519207,0.03299763426184654
4.4185950756073,0.03795681521296501,-0.2790493667125702,0.21763180196285248,0.0879301130771637,0.00476844422519207,0.034142062067985535
4.438655138015747,0.03833829239010811,-0.2805752754211426,0.21877622604370117,0.08869306743144989,0.00476844422519207,0.034142062067985535
4.458732843399048,0.03833829239010811,-0.2821011543273926,0.21992065012454987,0.08945601433515549,0.005149920005351305,0.034142062067985535
4.4787983894348145,0.039101243019104004,-0.28362706303596497,0.22106507420539856,0.08983749151229858,0.00476844422519207,0.03452353551983833
4.498860836029053,0.039101243019104004,-0.28553444147109985,0.22182802855968475,0.08983749151229858,0.00476844422519207,0.03452353551983833
4.518911600112915,0.039101243019104004,-0.28629741072654724,0.22297245264053345,0.09021896868944168,0.00476844422519207,0.03452353551983833
4.538989305496216,0.0394827201962471,-0.28820478916168213,0.22411687672138214,0.09060044586658478,0.00476844422519207,0.03452353551983833
4.559052467346191,0.0398641936480999,-0.28820478916168213,0.22526131570339203,0.09098191559314728,0.005149920005351305,0.03490501269698143
4.579145193099976,0.040245670825242996,-0.290112167596817,0.22602425515651703,0.09174486994743347,0.005149920005351305,0.03490501269698143
4.599235773086548,0.040245670825242996,-0.2912565767765045,0.22716869413852692,0.09288929402828217,0.005149920005351305,0.03490501269698143
4.619317531585693,0.04100862145423889,-0.2924010157585144,0.2283131182193756,0.09365224838256836,0.005149920005351305,0.03528648987412453
4.639425277709961,0.04139009863138199,-0.2939268946647644,0.2294575423002243,0.09365224838256836,0.00476844422519207,0.03528648987412453
4.659473896026611,0.04139009863138199,-0.2954528033733368,0.2302204966545105,0.09403372555971146,0.00476844422519207,0.035667963325977325
4.6795244216918945,0.04139009863138199,-0.2977416515350342,0.2309834510087967,0.09441519528627396,0.005912871100008488,0.03604944050312042
4.699774265289307,0.04177157208323479,-0.29850462079048157,0.23212787508964539,0.09517814964056015,0.005531395319849253,0.037193864583969116
4.719862937927246,0.042153049260377884,-0.30079346895217896,0.23289081454277039,0.09632257372140884,0.005149920005351305,0.037193864583969116
4.7399351596832275,0.04253452271223068,-0.30117493867874146,0.23365376889705658,0.09708552807569504,0.005531395319849253,0.03757534176111221
4.760071039199829,0.04291599988937378,-0.30231937766075134,0.23441672325134277,0.09746700525283813,0.005149920005351305,0.03757534176111221
4.780149936676025,0.04329747334122658,-0.30308231711387634,0.23556114733219147,0.09746700525283813,0.005531395319849253,0.03757534176111221
4.800237417221069,0.04329747334122658,-0.30460822582244873,0.23594263195991516,0.09784847497940063,0.005531395319849253,0.03757534176111221
4.820258617401123,0.04329747334122658,-0.3061341345310211,0.23746852576732635,0.09784847497940063,0.005912871100008488,0.03757534176111221
4.840304613113403,0.043678950518369675,-0.3076600432395935,0.23785001039505005,0.09861142933368683,0.005912871100008488,0.03757534176111221
4.8603880405426025,0.043678950518369675,-0.308804452419281,0.23937590420246124,0.09975585341453552,0.005912871100008488,0.03795681521296501
4.880474090576172,0.043678950518369675,-0.3099488914012909,0.24013885855674744,0.10051880776882172,0.005531395319849253,0.03795681521296501
4.900538682937622,0.04406042397022247,-0.3103303611278534,0.24166475236415863,0.10090028494596481,0.005149920005351305,0.03795681521296501
4.920611143112183,0.04444190114736557,-0.3114747703075409,0.24242770671844482,0.10090028494596481,0.005531395319849253,0.03795681521296501
4.9406578540802,0.04444190114736557,-0.3130006790161133,0.24357213079929352,0.10128175467252731,0.005912871100008488,0.03795681521296501
4.960755825042725,0.04482337832450867,-0.31605249643325806,0.2447165697813034,0.10128175467252731,0.00667582219466567,0.03833829239010811
4.980859756469727,0.04558632895350456,-0.31719690561294556,0.2458609938621521,0.10166323184967041,0.006294346414506435,0.03833829239010811
5.000985383987427,0.04596780240535736,-0.31910428404808044,0.2462424635887146,0.1024261862039566,0.006294346414506435,0.03833829239010811
5.021015405654907,0.04596780240535736,-0.32101166248321533,0.2470054179430008,0.1028076633810997,0.006294346414506435,0.03833829239010811
5.041118144989014,0.04634927958250046,-0.3217746317386627,0.247768372297287,0.1035706102848053,0.006294346414506435,0.03833829239010811
5.0612077713012695,0.04634927958250046,-0.3233005404472351,0.24967575073242188,0.10471503436565399,0.006294346414506435,0.038719769567251205
5.08130955696106,0.04634927958250046,-0.3236820101737976,0.2504386901855469,0.10471503436565399,0.00667582219466567,0.03833829239010811
5.101351499557495,0.046730753034353256,-0.3244449496269226,0.25158312916755676,0.10509651154279709,0.00667582219466567,0.038719769567251205
5.12141489982605,0.046730753034353256,-0.3255893886089325,0.25234606862068176,0.10509651154279709,0.00667582219466567,0.039101243019104004
5.141464948654175,0.04749370738863945,-0.3286411762237549,0.25387197732925415,0.10547798871994019,0.006294346414506435,0.039101243019104004
5.161527395248413,0.048638131469488144,-0.32978561520576477,0.25501641631126404,0.10624094307422638,0.00667582219466567,0.0394827201962471
5.181634187698364,0.048638131469488144,-0.33245593309402466,0.25616082549095154,0.10700388997793198,0.00667582219466567,0.0394827201962471
5.2017176151275635,0.048638131469488144,-0.33398184180259705,0.2569237947463989,0.10776684433221817,0.007438773289322853,0.0394827201962471
5.221784591674805,0.048638131469488144,-0.33550775051116943,0.2580682039260864,0.10814831405878067,0.007057297509163618,0.0398641936480999
5.2418553829193115,0.048638131469488144,-0.33588922023773193,0.2584496736526489,0.10852979123592377,0.007057297509163618,0.040245670825242996
5.261904716491699,0.04901960864663124,-0.3370336592197418,0.2595941126346588,0.10891126841306686,0.006294346414506435,0.04100862145423889
5.281993865966797,0.049782559275627136,-0.3377965986728668,0.2607385218143463,0.10929274559020996,0.006294346414506435,0.04139009863138199
5.302061319351196,0.05054550990462303,-0.3389410376548767,0.2622644305229187,0.10967422276735306,0.006294346414506435,0.04139009863138199
5.322137832641602,0.05054550990462303,-0.3400854468345642,0.2626459002494812,0.11043716967105865,0.007057297509163618,0.04139009863138199
5.342182397842407,0.05054550990462303,-0.3412298858165741,0.2634088695049286,0.11081864684820175,0.0078202486038208,0.04139009863138199
5.362285375595093,0.05092698708176613,-0.3423742949962616,0.2641718089580536,0.11158160120248795,0.0078202486038208,0.04177157208323479
5.382329702377319,0.05092698708176613,-0.3442816734313965,0.2653162479400635,0.11196307092905045,0.007057297509163618,0.04177157208323479
5.402414321899414,0.05092698708176613,-0.34618905186653137,0.266460657119751,0.11234454810619354,0.00667582219466567,0.04177157208323479
5.422468662261963,0.05092698708176613,-0.34618905186653137,0.26722362637519836,0.11272602528333664,0.006294346414506435,0.042153049260377884
5.442628383636475,0.051689937710762024,-0.34733349084854126,0.26798656582832336,0.11310750246047974,0.005912871100008488,0.042153049260377884
5.462720632553101,0.05207141116261482,-0.34847790002822876,0.26913100481033325,0.11348897218704224,0.007057297509163618,0.042153049260377884
5.482848644256592,0.05245288833975792,-0.35076677799224854,0.27103838324546814,0.11387044936418533,0.007438773289322853,0.042153049260377884
5.502880811691284,0.05283436179161072,-0.35152971744537354,0.27141985297203064,0.11463340371847153,0.008201723918318748,0.042153049260377884
5.5229692459106445,0.05283436179161072,-0.3534370958805084,0.2725642919540405,0.11539635062217712,0.007438773289322853,0.04253452271223068
5.543072462081909,0.05283436179161072,-0.3553444743156433,0.2733272314071655,0.11577782779932022,0.007438773289322853,0.04253452271223068
5.56312894821167,0.053215838968753815,-0.3561074137687683,0.2744716703891754,0.11615930497646332,0.00667582219466567,0.04291599988937378
5.583188533782959,0.053215838968753815,-0.3568703830242157,0.2752346098423004,0.11654078215360641,0.00667582219466567,0.04329747334122658
5.603250503540039,0.05397878959774971,-0.3580147922039032,0.2763790488243103,0.11654078215360641,0.006294346414506435,0.043678950518369675
5.623355150222778,0.05397878959774971,-0.3603036403656006,0.2779049277305603,0.11692225188016891,0.007057297509163618,0.04444190114736557
5.64340353012085,0.054741740226745605,-0.3614480793476105,0.2790493667125702,0.11768520623445511,0.0078202486038208,0.04482337832450867
5.663483142852783,0.0551232174038887,-0.36373692750930786,0.2798123061656952,0.1188296303153038,0.007438773289322853,0.04482337832450867
5.683603048324585,0.0555046908557415,-0.36526283621788025,0.2809567451477051,0.1199740618467331,0.007438773289322853,0.045204851776361465
5.7037718296051025,0.0558861680328846,-0.36755168437957764,0.2821011543273926,0.1203555315732956,0.00667582219466567,0.045204851776361465
5.723798036575317,0.056267641484737396,-0.368314653635025,0.28324559330940247,0.12111848592758179,0.007057297509163618,0.045204851776361465
5.743844270706177,0.056267641484737396,-0.368314653635025,0.28362706303596497,0.12188144028186798,0.00667582219466567,0.045204851776361465
5.763903617858887,0.056267641484737396,-0.3694590628147125,0.28439003229141235,0.12302586436271667,0.007438773289322853,0.045204851776361465
5.784024953842163,0.05703059583902359,-0.3709849715232849,0.28591591119766235,0.12340734153985977,0.007438773289322853,0.04558632895350456
5.804131031036377,0.057793546468019485,-0.3717479109764099,0.28667888045310974,0.12378881871700287,0.007057297509163618,0.04558632895350456
5.824182033538818,0.058175019919872284,-0.3736552894115448,0.28744181990623474,0.12378881871700287,0.007438773289322853,0.04558632895350456
5.844286918640137,0.058175019919872284,-0.3759441375732422,0.28858625888824463,0.12417028844356537,0.007438773289322853,0.04558632895350456
5.864441633224487,0.058175019919872284,-0.37823301553726196,0.28934919834136963,0.12455176562070847,0.0078202486038208,0.04558632895350456
5.88445520401001,0.058175019919872284,-0.38014039397239685,0.2904936373233795,0.12531471252441406,0.007057297509163618,0.04558632895350456
5.904530763626099,0.058175019919872284,-0.38090333342552185,0.2912565767765045,0.12684062123298645,0.007057297509163618,0.04558632895350456
5.924571752548218,0.05855649709701538,-0.38166627287864685,0.2920195460319519,0.12722209095954895,0.007057297509163618,0.04596780240535736
5.944657802581787,0.05893797054886818,-0.38281071186065674,0.2935454249382019,0.12722209095954895,0.00667582219466567,0.04596780240535736
5.964723587036133,0.059319447726011276,-0.38319218158721924,0.2950713336467743,0.12760357558727264,0.007438773289322853,0.04596780240535736
5.984791040420532,0.059319447726011276,-0.38357365131378174,0.2954528033733368,0.12798504531383514,0.007438773289322853,0.04596780240535736
6.004866123199463,0.06008239835500717,-0.3843366205692291,0.2962157726287842,0.12874799966812134,0.007438773289322853,0.04596780240535736
6.024964809417725,0.06046387553215027,-0.3858625292778015,0.2973601818084717,0.12912946939468384,0.007438773289322853,0.04596780240535736
6.045079469680786,0.06046387553215027,-0.3881513774394989,0.29888609051704407,0.13027389347553253,0.007057297509163618,0.04634927958250046
6.065150022506714,0.06084534898400307,-0.3900587558746338,0.29964902997016907,0.13103684782981873,0.007438773289322853,0.04634927958250046
6.085294008255005,0.061226826161146164,-0.3912031650543213,0.30003052949905396,0.13103684782981873,0.007057297509163618,0.04634927958250046
6.105309247970581,0.061226826161146164,-0.3923476040363312,0.30117493867874146,0.13141833245754242,0.007057297509163618,0.046730753034353256
6.125384569168091,0.06160829961299896,-0.39425498247146606,0.30193790793418884,0.13141833245754242,0.007438773289322853,0.046730753034353256
6.145449638366699,0.06237125024199486,-0.39578089118003845,0.30346378684043884,0.13179980218410492,0.007057297509163618,0.046730753034353256
6.165500640869141,0.06313420087099075,-0.39654383063316345,0.30422675609588623,0.13218127191066742,0.007438773289322853,0.04711223021149635
6.185570955276489,0.06313420087099075,-0.39730677008628845,0.30537116527557373,0.1329442262649536,0.007057297509163618,0.04711223021149635
6.206312656402588,0.06313420087099075,-0.39845120906829834,0.3061341345310211,0.1340886503458023,0.007438773289322853,0.04711223021149635
6.226456165313721,0.06351567804813385,-0.3999771177768707,0.3076600432395935,0.134470134973526,0.0078202486038208,0.04749370738863945
6.246497631072998,0.06389715522527695,-0.4018844962120056,0.308804452419281,0.1348516047000885,0.0078202486038208,0.048256658017635345
6.266572713851929,0.06466010212898254,-0.4030289053916931,0.309567391872406,0.135233074426651,0.007057297509163618,0.048638131469488144
6.28703498840332,0.06504157930612564,-0.4045548141002655,0.3103303611278534,0.1359960287809372,0.00667582219466567,0.04901960864663124
6.307155609130859,0.06504157930612564,-0.4072251319885254,0.3118562698364258,0.1371404528617859,0.007057297509163618,0.04901960864663124
6.3272011280059814,0.06542305648326874,-0.4091325104236603,0.3126192092895508,0.13752193748950958,0.0078202486038208,0.04901960864663124
6.347275733947754,0.06542305648326874,-0.41065841913223267,0.31376364827156067,0.13828489184379578,0.008201723918318748,0.04901960864663124
6.367413759231567,0.06542305648326874,-0.41218432784080505,0.31490805745124817,0.13828489184379578,0.008201723918318748,0.04940108209848404
6.387497186660767,0.06618601083755493,-0.41409170627593994,0.31643396615982056,0.13866636157035828,0.00667582219466567,0.04940108209848404
6.407563209533691,0.06656748056411743,-0.41485464572906494,0.31681543588638306,0.13904783129692078,0.007438773289322853,0.04940108209848404
6.427632808685303,0.06733043491840363,-0.41599908471107483,0.31795987486839294,0.13942931592464447,0.007057297509163618,0.049782559275627136
6.447680234909058,0.06733043491840363,-0.41676202416419983,0.31834134459495544,0.13942931592464447,0.0078202486038208,0.049782559275627136
6.467841386795044,0.06771191209554672,-0.4186694025993347,0.31986725330352783,0.14019227027893066,0.008201723918318748,0.049782559275627136
6.487890720367432,0.06847485899925232,-0.4194323718547821,0.32101166248321533,0.14133669435977936,0.00858320016413927,0.049782559275627136
6.507960557937622,0.06847485899925232,-0.4209582805633545,0.3217746317386627,0.14171816408634186,0.0078202486038208,0.050164032727479935
6.528334856033325,0.06847485899925232,-0.4224841594696045,0.3225375711917877,0.14248111844062805,0.0078202486038208,0.050164032727479935
6.548415422439575,0.06885633617639542,-0.4240100681781769,0.3244449496269226,0.14286258816719055,0.0078202486038208,0.05054550990462303
6.568478584289551,0.06923781335353851,-0.42629891633987427,0.32520791888237,0.14362554252147675,0.007438773289322853,0.05054550990462303
6.588560581207275,0.06961929053068161,-0.42744335532188416,0.325970858335495,0.14438849687576294,0.0078202486038208,0.05092698708176613
6.608605146408081,0.06961929053068161,-0.42896926403045654,0.32673379778862,0.14553292095661163,0.0078202486038208,0.05092698708176613
6.628744840621948,0.07038223743438721,-0.43125811219215393,0.3278782367706299,0.14591439068317413,0.008201723918318748,0.051689937710762024
6.648815393447876,0.0707637146115303,-0.43202105164527893,0.3290226459503174,0.14629587531089783,0.0078202486038208,0.05245288833975792
6.66892409324646,0.0707637146115303,-0.4331654906272888,0.32978561520576477,0.14667734503746033,0.007438773289322853,0.05283436179161072
6.688934803009033,0.0715266615152359,-0.4339284300804138,0.33131152391433716,0.14744029939174652,0.008201723918318748,0.05283436179161072
6.709035873413086,0.0722896158695221,-0.4354543387889862,0.33283740282058716,0.1489662081003189,0.007438773289322853,0.053215838968753815
6.72910213470459,0.07267109304666519,-0.4358358085155487,0.33436331152915955,0.1497291475534439,0.008201723918318748,0.053215838968753815
6.749157905578613,0.07267109304666519,-0.4373617172241211,0.33512628078460693,0.1497291475534439,0.008201723918318748,0.053215838968753815
6.769221782684326,0.07305257022380829,-0.439269095659256,0.33588922023773193,0.1501106321811676,0.00858320016413927,0.053215838968753815
6.78931736946106,0.07343403995037079,-0.44079500436782837,0.3370336592197418,0.1504921019077301,0.008201723918318748,0.053215838968753815
6.8094282150268555,0.07343403995037079,-0.44308385252952576,0.3381780683994293,0.1508735716342926,0.0078202486038208,0.053215838968753815
6.829468727111816,0.07343403995037079,-0.44422826170921326,0.3389410376548767,0.1520180106163025,0.007438773289322853,0.05359731614589691
6.84954309463501,0.07381551712751389,-0.44613564014434814,0.3397039771080017,0.1527809500694275,0.007438773289322853,0.05359731614589691
6.869726657867432,0.07419699430465698,-0.44766154885292053,0.3404669165611267,0.15316243469715118,0.0078202486038208,0.05359731614589691
6.889803647994995,0.07495994865894318,-0.4484245181083679,0.3419928252696991,0.15354390442371368,0.0078202486038208,0.05359731614589691
6.909876585006714,0.07534141838550568,-0.4503318965435028,0.343137264251709,0.15392538905143738,0.0078202486038208,0.05397878959774971
6.929936647415161,0.07572289556264877,-0.4514763057231903,0.344663143157959,0.15430685877799988,0.00858320016413927,0.05397878959774971
6.949989557266235,0.07572289556264877,-0.4522392749786377,0.34580758213996887,0.15506981313228607,0.00858320016413927,0.05397878959774971
6.970076084136963,0.07572289556264877,-0.4526207447052002,0.34695202112197876,0.15621423721313477,0.008201723918318748,0.05397878959774971
6.990145444869995,0.07610437273979187,-0.4537651538848877,0.34771496057510376,0.15659570693969727,0.008201723918318748,0.05397878959774971
7.010211944580078,0.07686731964349747,-0.4556725323200226,0.34885939955711365,0.15735866129398346,0.007438773289322853,0.05436026677489281
7.0303566455841064,0.07763027399778366,-0.45872434973716736,0.35000380873680115,0.15774014592170715,0.007438773289322853,0.054741740226745605
7.050461292266846,0.07763027399778366,-0.46101319789886475,0.35152971744537354,0.15812161564826965,0.008201723918318748,0.054741740226745605
7.070526599884033,0.07801175117492676,-0.46253910660743713,0.35229265689849854,0.15850308537483215,0.008201723918318748,0.054741740226745605
7.090581893920898,0.07839322835206985,-0.4640650153160095,0.3530556261539459,0.15926603972911835,0.00858320016413927,0.0551232174038887
7.110639333724976,0.07991912961006165,-0.4659723937511444,0.3542000353336334,0.16041046380996704,0.0078202486038208,0.0555046908557415
7.130730867385864,0.07991912961006165,-0.4667353332042694,0.3553444743156433,0.16079194843769073,0.0078202486038208,0.056267641484737396
7.150805711746216,0.07991912961006165,-0.4671168029308319,0.3564889132976532,0.16117341816425323,0.0078202486038208,0.056267641484737396
7.170877695083618,0.07991912961006165,-0.4678797721862793,0.3572518527507782,0.16155488789081573,0.008201723918318748,0.056267641484737396
7.1910271644592285,0.07991912961006165,-0.4690241813659668,0.3583962619304657,0.16193637251853943,0.00858320016413927,0.056267641484737396
7.211102247238159,0.08068207651376724,-0.4709315598011017,0.3595407009124756,0.16269932687282562,0.008201723918318748,0.056267641484737396
7.231196641921997,0.08106355369091034,-0.4724574685096741,0.3603036403656006,0.16422522068023682,0.008201723918318748,0.05664911866188049
7.2512431144714355,0.08144503086805344,-0.4736018776893616,0.361066609621048,0.1646067053079605,0.0078202486038208,0.05664911866188049
7.2712976932525635,0.08182650804519653,-0.47589075565338135,0.3622110188007355,0.164988175034523,0.008201723918318748,0.05664911866188049
7.2913734912872314,0.08182650804519653,-0.47817960381507874,0.36297398805618286,0.1653696447610855,0.008201723918318748,0.05664911866188049
7.311439037322998,0.08258945494890213,-0.4797055125236511,0.36449989676475525,0.1657511293888092,0.008201723918318748,0.05664911866188049
7.331506729125977,0.08297093212604523,-0.4804684519767761,0.36526283621788025,0.1661325991153717,0.008201723918318748,0.05664911866188049
7.351566553115845,0.08297093212604523,-0.4812313914299011,0.36640727519989014,0.1680399775505066,0.008201723918318748,0.05703059583902359
7.37164831161499,0.08373387902975082,-0.4827573001384735,0.36755168437957764,0.1684214472770691,0.008201723918318748,0.05703059583902359
7.391712427139282,0.08411535620689392,-0.4842832088470459,0.3686961233615875,0.16880293190479279,0.008201723918318748,0.05703059583902359
7.411781549453735,0.08411535620689392,-0.4854276478290558,0.36907759308815,0.16918440163135529,0.0078202486038208,0.05703059583902359
7.431841611862183,0.08487831056118011,-0.4869535267353058,0.369840532541275,0.16956588625907898,0.008201723918318748,0.05703059583902359
7.452070713043213,0.08525978773832321,-0.4892423748970032,0.3713664412498474,0.17071031033992767,0.008964675478637218,0.05703059583902359
7.472152948379517,0.08525978773832321,-0.49076828360557556,0.3728923499584198,0.17185473442077637,0.008201723918318748,0.05741206929087639
7.49228572845459,0.08602273464202881,-0.49153125286102295,0.3740367889404297,0.17223620414733887,0.00858320016413927,0.05741206929087639
7.512342214584351,0.0864042118191719,-0.49343863129615784,0.3744182586669922,0.17299915850162506,0.00858320016413927,0.05741206929087639
7.532405138015747,0.0871671661734581,-0.49496451020240784,0.3759441375732422,0.17376211285591125,0.008201723918318748,0.05741206929087639
7.55248236656189,0.0871671661734581,-0.4964904189109802,0.3770885765552521,0.17490653693675995,0.00858320016413927,0.05741206929087639
7.572552919387817,0.0875486359000206,-0.4980163276195526,0.3770885765552521,0.17566949129104614,0.008964675478637218,0.057793546468019485
7.5926291942596436,0.0879301130771637,-0.4999237060546875,0.37861448526382446,0.17605096101760864,0.008201723918318748,0.057793546468019485
7.612704753875732,0.0879301130771637,-0.5014495849609375,0.37975889444351196,0.17605096101760864,0.00858320016413927,0.058175019919872284
7.632790803909302,0.0883115902543068,-0.5033569931983948,0.38090333342552185,0.17681391537189484,0.00858320016413927,0.058175019919872284
7.652851819992065,0.0883115902543068,-0.5033569931983948,0.38166627287864685,0.17719538509845734,0.008201723918318748,0.05855649709701538
7.672898292541504,0.08907453715801239,-0.5041199326515198,0.38281071186065674,0.17795833945274353,0.0078202486038208,0.05855649709701538
7.692956924438477,0.08983749151229858,-0.506027340888977,0.3839551508426666,0.17948424816131592,0.008201723918318748,0.05893797054886818
7.713062047958374,0.09021896868944168,-0.509079098701477,0.3854810297489166,0.17986571788787842,0.008964675478637218,0.06008239835500717
7.7331249713897705,0.09021896868944168,-0.5109865069389343,0.387006938457489,0.1802472025156021,0.009346150793135166,0.06046387553215027
7.753177881240845,0.09021896868944168,-0.5125123858451843,0.3881513774394989,0.1806286722421646,0.009346150793135166,0.06046387553215027
7.7733070850372314,0.09098191559314728,-0.5140383243560791,0.3889143168926239,0.1813916265964508,0.009346150793135166,0.06084534898400307
7.793345928192139,0.09212634712457657,-0.5155642032623291,0.3900587558746338,0.182917520403862,0.00858320016413927,0.06084534898400307
7.813385486602783,0.09212634712457657,-0.5174715518951416,0.3912031650543213,0.1832990050315857,0.00858320016413927,0.061226826161146164
7.833427667617798,0.09212634712457657,-0.5186160206794739,0.3919661343097687,0.1832990050315857,0.008964675478637218,0.061226826161146164
7.853488922119141,0.09288929402828217,-0.5205233693122864,0.3931105434894562,0.1836804747581482,0.009727626107633114,0.061226826161146164
7.873643636703491,0.09441519528627396,-0.5228122472763062,0.39425498247146606,0.1840619444847107,0.008964675478637218,0.061226826161146164
7.893680572509766,0.09441519528627396,-0.5247195959091187,0.39578089118003845,0.1844434291124344,0.010109102353453636,0.06160829961299896
7.913780689239502,0.09441519528627396,-0.5262455344200134,0.39654383063316345,0.18520638346672058,0.009346150793135166,0.06160829961299896
7.933808088302612,0.09441519528627396,-0.5277714133262634,0.39768826961517334,0.18635080754756927,0.009727626107633114,0.06160829961299896
7.954376220703125,0.09479667246341705,-0.5289158225059509,0.39883267879486084,0.18711376190185547,0.009727626107633114,0.06237125024199486
7.974547863006592,0.09555962681770325,-0.5308232307434082,0.4003585875034332,0.18787670135498047,0.008964675478637218,0.06351567804813385
7.994561433792114,0.09555962681770325,-0.5319676399230957,0.4015030264854431,0.18863965570926666,0.009346150793135166,0.06389715522527695
8.01461148262024,0.09632257372140884,-0.5331120491027832,0.4018844962120056,0.18940261006355286,0.009727626107633114,0.06389715522527695
8.034670352935791,0.09632257372140884,-0.534637987613678,0.4030289053916931,0.19054703414440155,0.010109102353453636,0.06389715522527695
8.054784059524536,0.09708552807569504,-0.5357823967933655,0.4037918746471405,0.19092851877212524,0.010109102353453636,0.06389715522527695
8.0748770236969,0.09746700525283813,-0.5380712747573853,0.404936283826828,0.19130998849868774,0.010109102353453636,0.06389715522527695
8.094915866851807,0.09746700525283813,-0.5395971536636353,0.4053177833557129,0.19169145822525024,0.010109102353453636,0.06427863240242004
8.115069150924683,0.09784847497940063,-0.5407415628433228,0.4056992530822754,0.19207294285297394,0.010109102353453636,0.06427863240242004
8.135119199752808,0.09822995215654373,-0.541886031627655,0.4068436622619629,0.19245441257953644,0.009727626107633114,0.06427863240242004
8.155219078063965,0.09937438368797302,-0.5430304408073425,0.4083695709705353,0.19398032128810883,0.009727626107633114,0.06427863240242004
8.175292730331421,0.10013733059167862,-0.5449378490447998,0.4091325104236603,0.19474326074123383,0.010490577667951584,0.06427863240242004
8.19551134109497,0.10051880776882172,-0.5464637279510498,0.41065841913223267,0.19512474536895752,0.010109102353453636,0.06427863240242004
8.215590476989746,0.10128175467252731,-0.5487525463104248,0.41218432784080505,0.1962691694498062,0.010490577667951584,0.06466010212898254
8.235659122467041,0.10128175467252731,-0.5506599545478821,0.41332876682281494,0.1974135935306549,0.01125352829694748,0.06427863240242004
8.255727767944336,0.10166323184967041,-0.5521858334541321,0.41409170627593994,0.1981765478849411,0.010872052982449532,0.06466010212898254
8.275876998901367,0.10166323184967041,-0.5540932416915894,0.41523614525794983,0.1985580176115036,0.010872052982449532,0.06466010212898254
8.295956134796143,0.10204470902681351,-0.5563820600509644,0.4171435236930847,0.1993209719657898,0.010490577667951584,0.06466010212898254
8.31601881980896,0.1024261862039566,-0.5579079985618591,0.4182879328727722,0.1997024416923523,0.010109102353453636,0.06466010212898254
8.336168050765991,0.1024261862039566,-0.5594338774681091,0.4194323718547821,0.20122835040092468,0.010109102353453636,0.06466010212898254
8.356205701828003,0.1028076633810997,-0.5601968169212341,0.4201953113079071,0.20199130475521088,0.01125352829694748,0.06466010212898254
8.37630581855774,0.1035706102848053,-0.5617227554321289,0.421339750289917,0.20237277448177338,0.010872052982449532,0.06504157930612564
8.39635968208313,0.10433356463909149,-0.5640115737915039,0.4224841594696045,0.20313572883605957,0.010872052982449532,0.06504157930612564
8.416426181793213,0.10471503436565399,-0.5651560425758362,0.4232471287250519,0.20389868319034576,0.011635004542768002,0.06466010212898254
8.436479091644287,0.10471503436565399,-0.5663004517555237,0.4240100681781769,0.20504310727119446,0.010872052982449532,0.06504157930612564
8.456584215164185,0.10585946589708328,-0.5682078003883362,0.42515450716018677,0.20580606162548065,0.010872052982449532,0.06504157930612564
8.47663426399231,0.10662241280078888,-0.570496678352356,0.42668038606643677,0.20618753135204315,0.010872052982449532,0.06542305648326874
8.4967041015625,0.10662241280078888,-0.5716410875320435,0.42706188559532166,0.20618753135204315,0.010872052982449532,0.06542305648326874
8.516928434371948,0.10662241280078888,-0.5727855563163757,0.42782482504844666,0.20656901597976685,0.010872052982449532,0.06542305648326874
8.537007331848145,0.10776684433221817,-0.5750743746757507,0.42935073375701904,0.20733195543289185,0.01125352829694748,0.06542305648326874
8.557077884674072,0.10891126841306686,-0.576981782913208,0.43087664246559143,0.20885786414146423,0.010872052982449532,0.06542305648326874
8.577135562896729,0.10852979123592377,-0.578507661819458,0.43163958191871643,0.20962081849575043,0.01125352829694748,0.06618601083755493
8.597192287445068,0.10891126841306686,-0.580033540725708,0.4327840209007263,0.21000228822231293,0.01125352829694748,0.06618601083755493
8.617281198501587,0.10929274559020996,-0.5819409489631653,0.4343098998069763,0.21000228822231293,0.01125352829694748,0.06618601083755493
8.63744330406189,0.10967422276735306,-0.5838482975959778,0.4350728690624237,0.21076524257659912,0.01125352829694748,0.06694895774126053
8.65747594833374,0.11005569249391556,-0.5853742361068726,0.4362172782421112,0.21190966665744781,0.010872052982449532,0.06771191209554672
8.677531242370605,0.11043716967105865,-0.5865186452865601,0.4365987777709961,0.212672621011734,0.01125352829694748,0.06809338182210922
8.69777250289917,0.11081864684820175,-0.5884260535240173,0.4373617172241211,0.2134355753660202,0.01125352829694748,0.06809338182210922
8.717958211898804,0.11196307092905045,-0.5907148718833923,0.4388876259326935,0.2138170450925827,0.010872052982449532,0.06809338182210922
8.737949848175049,0.11234454810619354,-0.5918593406677246,0.440032035112381,0.2145799994468689,0.011635004542768002,0.06809338182210922
8.758026123046875,0.11272602528333664,-0.5933852195739746,0.44117647409439087,0.2157244235277176,0.010872052982449532,0.06847485899925232
8.778073787689209,0.11310750246047974,-0.5952925682067871,0.44232088327407837,0.21686884760856628,0.01201647985726595,0.06847485899925232
8.798160791397095,0.11387044936418533,-0.5971999764442444,0.44422826170921326,0.21725031733512878,0.01125352829694748,0.06847485899925232
8.818224668502808,0.11425192654132843,-0.5987258553504944,0.44537270069122314,0.21763180196285248,0.01125352829694748,0.06847485899925232
8.838280200958252,0.11463340371847153,-0.5998703241348267,0.44575417041778564,0.21801327168941498,0.01125352829694748,0.06847485899925232
8.858389616012573,0.11577782779932022,-0.6017776727676392,0.44689860939979553,0.21877622604370117,0.011635004542768002,0.06847485899925232
8.878494262695312,0.11615930497646332,-0.6036850810050964,0.44804301857948303,0.21992065012454987,0.01125352829694748,0.06885633617639542
8.89858078956604,0.11615930497646332,-0.6055924296379089,0.4495689272880554,0.22068360447883606,0.011635004542768002,0.06885633617639542
8.918640375137329,0.11615930497646332,-0.6071183085441589,0.4499503970146179,0.22106507420539856,0.011635004542768002,0.06885633617639542
8.938736200332642,0.11692225188016891,-0.6090257167816162,0.4510948359966278,0.22144655883312225,0.011635004542768002,0.06885633617639542
8.958881378173828,0.11692225188016891,-0.6109330654144287,0.4522392749786377,0.22220951318740845,0.011635004542768002,0.06885633617639542
8.978901624679565,0.11730372905731201,-0.612840473651886,0.4541466534137726,0.22373540699481964,0.01125352829694748,0.06923781335353851
8.998959302902222,0.1180666834115982,-0.615129292011261,0.4549095928668976,0.22487983107566833,0.01125352829694748,0.06961929053068161
9.019016742706299,0.1188296303153038,-0.6170367002487183,0.45643550157546997,0.22526131570339203,0.011635004542768002,0.0707637146115303
9.039108276367188,0.1192111074924469,-0.619325578212738,0.45757991075515747,0.22602425515651703,0.011635004542768002,0.0711451917886734
9.059167861938477,0.11959258466959,-0.620851457118988,0.45834288001060486,0.22716869413852692,0.01201647985726595,0.0711451917886734
9.07935118675232,0.12073700875043869,-0.6227588057518005,0.46025025844573975,0.22793163359165192,0.01125352829694748,0.0715266615152359
9.099540948867798,0.12149996310472488,-0.6246662139892578,0.46139466762542725,0.2286945879459381,0.011635004542768002,0.0715266615152359
9.119720935821533,0.12149996310472488,-0.6265735626220703,0.46292057633399963,0.2290760725736618,0.01201647985726595,0.0715266615152359
9.139755010604858,0.12188144028186798,-0.6277180314064026,0.464446485042572,0.2298390120267868,0.01201647985726595,0.0715266615152359
9.159811973571777,0.12340734153985977,-0.6296253800392151,0.4655908942222595,0.2317463904619217,0.010872052982449532,0.071908138692379
9.179852962493896,0.12340734153985977,-0.6319142580032349,0.4667353332042694,0.23250934481620789,0.012397955171763897,0.071908138692379
9.199949741363525,0.12378881871700287,-0.6342030763626099,0.4678797721862793,0.23327229917049408,0.012397955171763897,0.071908138692379
9.220008611679077,0.12455176562070847,-0.6361104846000671,0.4694056510925293,0.23403525352478027,0.011635004542768002,0.071908138692379
9.240111112594604,0.12531471252441406,-0.6376363635063171,0.4701686203479767,0.23556114733219147,0.011635004542768002,0.071908138692379
9.260141611099243,0.12569619715213776,-0.6399252414703369,0.4716945290565491,0.23594263195991516,0.01201647985726595,0.0722896158695221
9.28021240234375,0.12607766687870026,-0.6414511203765869,0.4724574685096741,0.23632410168647766,0.011635004542768002,0.071908138692379
9.300301313400269,0.12645913660526276,-0.6437399983406067,0.47398337721824646,0.23708705604076385,0.01201647985726595,0.0722896158695221
9.320345640182495,0.12684062123298645,-0.6456473469734192,0.47474631667137146,0.23785001039505005,0.012397955171763897,0.0722896158695221
9.340423822402954,0.12760357558727264,-0.6475547552108765,0.47627222537994385,0.23937590420246124,0.011635004542768002,0.0722896158695221
9.360501527786255,0.12836651504039764,-0.649462103843689,0.47741663455963135,0.24013885855674744,0.012397955171763897,0.0722896158695221
9.380582571029663,0.12874799966812134,-0.6513695120811462,0.47932401299476624,0.24128328263759613,0.012779430486261845,0.0722896158695221
9.400646924972534,0.12951095402240753,-0.6532768607139587,0.4808499217033386,0.24280919134616852,0.011635004542768002,0.07267109304666519
9.420721769332886,0.12989242374897003,-0.6548027992248535,0.481612890958786,0.24319066107273102,0.012397955171763897,0.07267109304666519
9.440804481506348,0.13065537810325623,-0.656710147857666,0.4827573001384735,0.24357213079929352,0.011635004542768002,0.07267109304666519
9.46088719367981,0.13103684782981873,-0.6593804955482483,0.4846646785736084,0.2443350851535797,0.013160906732082367,0.07267109304666519
9.480961084365845,0.13141833245754242,-0.6612878441810608,0.4858091175556183,0.2450980395078659,0.012779430486261845,0.07267109304666519
9.50100302696228,0.13179980218410492,-0.6631952524185181,0.4869535267353058,0.2466239482164383,0.012779430486261845,0.07267109304666519
9.521058320999146,0.1325627565383911,-0.6654840707778931,0.4880979657173157,0.247768372297287,0.013160906732082367,0.07305257022380829
9.541201829910278,0.1333257108926773,-0.6677729487419128,0.4892423748970032,0.248531311750412,0.013160906732082367,0.07305257022380829
9.56129503250122,0.1337071806192398,-0.6704432964324951,0.49076828360557556,0.2504386901855469,0.013160906732082367,0.07305257022380829
9.581393957138062,0.1340886503458023,-0.6723506450653076,0.49191272258758545,0.25120165944099426,0.013160906732082367,0.07343403995037079
9.601395606994629,0.1340886503458023,-0.6734950542449951,0.49267566204071045,0.25158312916755676,0.013923857361078262,0.07305257022380829
9.621564149856567,0.1348516047000885,-0.6754024624824524,0.49382010102272034,0.25234606862068176,0.013923857361078262,0.07343403995037079
9.64154577255249,0.1359960287809372,-0.6776912808418274,0.4953460097312927,0.25349050760269165,0.013923857361078262,0.07381551712751389
9.66164517402649,0.1363775134086609,-0.6799801588058472,0.4972533881664276,0.25463491678237915,0.01506828423589468,0.07419699430465698
9.68167495727539,0.13828489184379578,-0.6815060377120972,0.4983977973461151,0.25577935576438904,0.014686808921396732,0.07457847148180008
9.701729536056519,0.13828489184379578,-0.6837949156761169,0.4999237060546875,0.2580682039260864,0.01583123579621315,0.07495994865894318
9.72180700302124,0.13828489184379578,-0.6860837936401367,0.501068115234375,0.2588311731815338,0.016212711110711098,0.07495994865894318
9.741871356964111,0.13866636157035828,-0.6883726119995117,0.5025940537452698,0.2592126429080963,0.016212711110711098,0.07534141838550568
9.7619469165802,0.13904783129692078,-0.689517080783844,0.5033569931983948,0.2599755823612213,0.01583123579621315,0.07534141838550568
9.78204345703125,0.13981078565120697,-0.6921873688697815,0.5048828721046448,0.2618829607963562,0.015449759550392628,0.07534141838550568
9.802154779434204,0.14057374000549316,-0.6948577165603638,0.506027340888977,0.2622644305229187,0.016212711110711098,0.07572289556264877
9.822232723236084,0.14133669435977936,-0.6971465349197388,0.507553219795227,0.2630273997783661,0.015449759550392628,0.07572289556264877
9.842262029647827,0.14209964871406555,-0.699053943157196,0.5086976289749146,0.2641718089580536,0.01583123579621315,0.07572289556264877
9.862440824508667,0.14324407279491425,-0.7013428211212158,0.5098420977592468,0.2653162479400635,0.016975661739706993,0.07572289556264877
9.882522344589233,0.14400701224803925,-0.7043945789337158,0.5125123858451843,0.2660791873931885,0.01735713705420494,0.07572289556264877
9.90258526802063,0.14553292095661163,-0.7066834568977356,0.5136567950248718,0.26684215664863586,0.016975661739706993,0.07610437273979187
9.922641038894653,0.14515145123004913,-0.7085908055305481,0.5148012638092041,0.26836803555488586,0.01773861236870289,0.07610437273979187
9.94275689125061,0.14553292095661163,-0.7112611532211304,0.5167086124420166,0.26951247453689575,0.018501564860343933,0.07610437273979187
9.96287989616394,0.14553292095661163,-0.7135500311851501,0.5182345509529114,0.27027541399002075,0.018501564860343933,0.07610437273979187
9.98293423652649,0.14591439068317413,-0.7150759100914001,0.5193789601325989,0.27180132269859314,0.018120087683200836,0.07610437273979187
10.003024578094482,0.14629587531089783,-0.7177462577819824,0.5201418995857239,0.272945761680603,0.01735713705420494,0.07648584991693497
10.023084163665771,0.14667734503746033,-0.7192721366882324,0.5209048390388489,0.273708701133728,0.016975661739706993,0.07648584991693497
10.04316258430481,0.14782176911830902,-0.7223239541053772,0.5224307775497437,0.2744716703891754,0.016975661739706993,0.07648584991693497
10.063227891921997,0.14858472347259521,-0.724612832069397,0.5239566564559937,0.2756160795688629,0.01735713705420494,0.07686731964349747
10.083314895629883,0.1493476778268814,-0.7265201807022095,0.5258640646934509,0.2771419882774353,0.018120087683200836,0.07686731964349747
10.10335898399353,0.1504921019077301,-0.7280460596084595,0.5273899435997009,0.2779049277305603,0.018501564860343933,0.07724879682064056
10.12348461151123,0.1508735716342926,-0.7303349375724792,0.5296788215637207,0.2798123061656952,0.01888304017484188,0.07763027399778366
10.143591403961182,0.1516365259885788,-0.733386754989624,0.5319676399230957,0.2809567451477051,0.01888304017484188,0.07839322835206985
10.163678169250488,0.152399480342865,-0.7352941036224365,0.5331120491027832,0.2817196846008301,0.018120087683200836,0.07915617525577545
10.183744668960571,0.152399480342865,-0.7375829815864563,0.534637987613678,0.28362706303596497,0.018120087683200836,0.07953765243291855
10.203999042510986,0.1527809500694275,-0.7406347990036011,0.5365453362464905,0.28515297174453735,0.018120087683200836,0.07991912961006165
10.224102020263672,0.15392538905143738,-0.7440680265426636,0.5384527444839478,0.28667888045310974,0.018120087683200836,0.07953765243291855
10.244148254394531,0.15468832850456238,-0.7467383742332458,0.5399786233901978,0.28820478916168213,0.01888304017484188,0.07991912961006165
10.264204502105713,0.15545128285884857,-0.7486457824707031,0.54112309217453,0.28858625888824463,0.018120087683200836,0.07991912961006165
10.284413576126099,0.15621423721313477,-0.7509346008300781,0.54264897108078,0.28934919834136963,0.018501564860343933,0.07991912961006165
10.304498672485352,0.15697719156742096,-0.7539864182472229,0.5445563197135925,0.2904936373233795,0.01888304017484188,0.07991912961006165
10.324608325958252,0.15774014592170715,-0.7562752962112427,0.5460822582244873,0.2924010157585144,0.018501564860343933,0.08030059933662415
10.344676494598389,0.15812161564826965,-0.7578011751174927,0.5472266674041748,0.2931639552116394,0.018501564860343933,0.08030059933662415
10.36472749710083,0.15926603972911835,-0.7608529925346375,0.5495155453681946,0.2950713336467743,0.018501564860343933,0.08030059933662415
10.384820461273193,0.16002899408340454,-0.7642862796783447,0.5518043637275696,0.2962157726287842,0.018501564860343933,0.08030059933662415
10.404984951019287,0.16002899408340454,-0.7665750980377197,0.5529488325119019,0.2965972423553467,0.01888304017484188,0.08030059933662415
10.424976825714111,0.16041046380996704,-0.7681010365486145,0.5537117719650269,0.2977416515350342,0.018501564860343933,0.08030059933662415
10.445130109786987,0.16079194843769073,-0.770771324634552,0.5552376508712769,0.29926756024360657,0.018501564860343933,0.08068207651376724
10.465418815612793,0.16117341816425323,-0.7734416723251343,0.5571450591087341,0.30117493867874146,0.018501564860343933,0.08068207651376724
10.485424757003784,0.16231784224510193,-0.775730550289154,0.5594338774681091,0.30270084738731384,0.018120087683200836,0.08068207651376724
10.5054771900177,0.16269932687282562,-0.778019368648529,0.5613412857055664,0.30384528636932373,0.018501564860343933,0.08106355369091034
10.525532007217407,0.16384375095367432,-0.7806897163391113,0.5632486343383789,0.30498969554901123,0.018501564860343933,0.08106355369091034
10.545716762542725,0.164988175034523,-0.7833600640296936,0.5643930435180664,0.3068970739841461,0.01888304017484188,0.08144503086805344
10.565844535827637,0.1653696447610855,-0.7864118218421936,0.5663004517555237,0.308041512966156,0.01888304017484188,0.08182650804519653
10.586061000823975,0.1661325991153717,-0.7890821695327759,0.5678263306617737,0.3091859221458435,0.01888304017484188,0.08182650804519653
10.60611605644226,0.1668955534696579,-0.7909895181655884,0.5685893297195435,0.3103303611278534,0.018501564860343933,0.08220797777175903
10.626575946807861,0.1668955534696579,-0.7932783961296082,0.5701152086257935,0.3114747703075409,0.018501564860343933,0.08258945494890213
10.646656036376953,0.1676585078239441,-0.7963302135467529,0.5724040865898132,0.3122377395629883,0.01926451548933983,0.08258945494890213
10.666724681854248,0.1684214472770691,-0.7986190319061279,0.5743114352226257,0.31414511799812317,0.018501564860343933,0.08258945494890213
10.686793327331543,0.16918440163135529,-0.8009079098701477,0.576218843460083,0.31490805745124817,0.018120087683200836,0.08297093212604523
10.706878185272217,0.17032882571220398,-0.8039597272872925,0.5788891315460205,0.31605249643325806,0.018120087683200836,0.08297093212604523
10.72696828842163,0.17109178006649017,-0.8073930144309998,0.5815594792366028,0.31795987486839294,0.01926451548933983,0.08297093212604523
10.747037649154663,0.17261768877506256,-0.8096818327903748,0.5830853581428528,0.31872281432151794,0.018501564860343933,0.08297093212604523
10.767113447189331,0.17376211285591125,-0.8119707107543945,0.5842298269271851,0.32024872303009033,0.018501564860343933,0.08297093212604523
10.78719973564148,0.17414358258247375,-0.8146410584449768,0.5861371755599976,0.3217746317386627,0.01888304017484188,0.08297093212604523
10.80728006362915,0.17452506721019745,-0.8173113465309143,0.5880445837974548,0.3233005404472351,0.01888304017484188,0.08297093212604523
10.827347993850708,0.17490653693675995,-0.8203631639480591,0.5903334021568298,0.3244449496269226,0.01926451548933983,0.08297093212604523
10.847431421279907,0.17528800666332245,-0.8226520419120789,0.5922408103942871,0.325970858335495,0.01888304017484188,0.08335240930318832
10.867493629455566,0.17528800666332245,-0.8249408602714539,0.5937666893005371,0.3271152675151825,0.018501564860343933,0.08297093212604523
10.88765001296997,0.17566949129104614,-0.8272297382354736,0.5952925682067871,0.32940414547920227,0.018501564860343933,0.08335240930318832
10.907736539840698,0.17681391537189484,-0.8302815556526184,0.5979629158973694,0.33054855465888977,0.018120087683200836,0.08335240930318832
10.92782211303711,0.17757686972618103,-0.8329518437385559,0.5994887948036194,0.33245593309402466,0.018501564860343933,0.08335240930318832
10.947892189025879,0.17833982408046722,-0.8356221914291382,0.6006332635879517,0.33360037207603455,0.018501564860343933,0.08335240930318832
10.967955827713013,0.17986571788787842,-0.837911069393158,0.6017776727676392,0.33436331152915955,0.01926451548933983,0.08335240930318832
10.988041400909424,0.1813916265964508,-0.8405813574790955,0.6040665507316589,0.33588922023773193,0.018501564860343933,0.08335240930318832
11.008120775222778,0.1817730963230133,-0.8443961143493652,0.6063553690910339,0.3374151289463043,0.01888304017484188,0.08335240930318832
11.028162956237793,0.1817730963230133,-0.8470664620399475,0.6078813076019287,0.3385595381259918,0.01926451548933983,0.08335240930318832
11.048222780227661,0.1825360506772995,-0.8504997491836548,0.6105515956878662,0.3400854468345642,0.018501564860343933,0.08335240930318832
11.068309307098389,0.1832990050315857,-0.8539330363273621,0.6124590039253235,0.3412298858165741,0.018501564860343933,0.08335240930318832
11.088374137878418,0.1840619444847107,-0.8573662638664246,0.615129292011261,0.3419928252696991,0.01888304017484188,0.08335240930318832
11.108444690704346,0.1848248988389969,-0.8600366115570068,0.6162737607955933,0.3442816734313965,0.018120087683200836,0.08335240930318832
11.128501892089844,0.18596932291984558,-0.8630884289741516,0.619325578212738,0.34695202112197876,0.018501564860343933,0.08335240930318832
11.148831605911255,0.18711376190185547,-0.8665217161178589,0.6219958662986755,0.34847790002822876,0.018501564860343933,0.08373387902975082
11.168916463851929,0.18902114033699036,-0.8699550032615662,0.6250476837158203,0.35076677799224854,0.018501564860343933,0.08373387902975082
11.18905782699585,0.18863965570926666,-0.8726252913475037,0.6273365616798401,0.3526741564273834,0.019645990803837776,0.08373387902975082
11.20906114578247,0.18940261006355286,-0.8760585784912109,0.6300068497657776,0.3549630045890808,0.01926451548933983,0.08335240930318832
11.229132413864136,0.18940261006355286,-0.8794918656349182,0.6330586671829224,0.3568703830242157,0.01888304017484188,0.08335240930318832
11.249216794967651,0.18978407979011536,-0.883306622505188,0.6357290148735046,0.3591592311859131,0.01888304017484188,0.08335240930318832
11.269296646118164,0.19054703414440155,-0.8863584399223328,0.6387808322906494,0.3606851398944855,0.018120087683200836,0.08373387902975082
11.289377689361572,0.19092851877212524,-0.8886472582817078,0.6410696506500244,0.36297398805618286,0.018120087683200836,0.08373387902975082
11.309425592422485,0.19169145822525024,-0.8924620151519775,0.6437399983406067,0.36526283621788025,0.018120087683200836,0.08373387902975082
11.32951283454895,0.19245441257953644,-0.8962767720222473,0.6467918157577515,0.36755168437957764,0.019645990803837776,0.08373387902975082
11.349592447280884,0.19398032128810883,-0.8997100591659546,0.6498435735702515,0.369840532541275,0.019645990803837776,0.08373387902975082
11.369771957397461,0.19398032128810883,-0.9023804068565369,0.6517509818077087,0.3717479109764099,0.019645990803837776,0.08373387902975082
11.389751434326172,0.1958876997232437,-0.9054322242736816,0.654421329498291,0.3740367889404297,0.019645990803837776,0.08373387902975082
11.40985894203186,0.1962691694498062,-0.9100099205970764,0.6578545570373535,0.3755626678466797,0.01926451548933983,0.08373387902975082
11.429940462112427,0.1970321238040924,-0.9134432077407837,0.6620507836341858,0.37823301553726196,0.01888304017484188,0.08373387902975082
11.449985027313232,0.1974135935306549,-0.9164950251579285,0.6651026010513306,0.38052186369895935,0.018501564860343933,0.08373387902975082
11.470049142837524,0.1981765478849411,-0.9203097820281982,0.6685358881950378,0.38281071186065674,0.01888304017484188,0.08373387902975082
11.490139961242676,0.1981765478849411,-0.9210727214813232,0.6689173579216003,0.3839551508426666,0.02231631986796856,0.08373387902975082
11.510217189788818,0.1977950781583786,-0.9206912517547607,0.6685358881950378,0.3839551508426666,0.02040894143283367,0.08373387902975082
11.53028655052185,0.1977950781583786,-0.9210727214813232,0.6685358881950378,0.3839551508426666,0.01926451548933983,0.08373387902975082
11.550345659255981,0.1962691694498062,-0.9214541912078857,0.6685358881950378,0.3839551508426666,0.019645990803837776,0.08373387902975082
11.570471048355103,0.1958876997232437,-0.9214541912078857,0.6685358881950378,0.3839551508426666,0.01888304017484188,0.08373387902975082
11.59051251411438,0.19474326074123383,-0.9218356609344482,0.6685358881950378,0.38357365131378174,0.018501564860343933,0.08335240930318832
11.610575675964355,0.19436179101467133,-0.9218356609344482,0.6685358881950378,0.38357365131378174,0.018501564860343933,0.08335240930318832
11.630626440048218,0.19321736693382263,-0.9222171306610107,0.6685358881950378,0.38357365131378174,0.018501564860343933,0.08335240930318832
11.650723218917847,0.19245441257953644,-0.9229800701141357,0.6685358881950378,0.38357365131378174,0.01926451548933983,0.08335240930318832
11.67079496383667,0.19130998849868774,-0.9233615398406982,0.6685358881950378,0.38357365131378174,0.01926451548933983,0.08335240930318832
11.69087839126587,0.19054703414440155,-0.9229800701141357,0.6685358881950378,0.38319218158721924,0.018501564860343933,0.08335240930318832
11.710936546325684,0.18863965570926666,-0.9237430095672607,0.6685358881950378,0.38319218158721924,0.018501564860343933,0.08297093212604523
11.731018543243408,0.18825818598270416,-0.9237430095672607,0.6685358881950378,0.38319218158721924,0.018501564860343933,0.08335240930318832
11.751128196716309,0.18787670135498047,-0.924124538898468,0.6685358881950378,0.38319218158721924,0.018120087683200836,0.08335240930318832
11.771173477172852,0.18635080754756927,-0.924124538898468,0.6685358881950378,0.38281071186065674,0.018120087683200836,0.08297093212604523
11.791218280792236,0.18596932291984558,-0.924887478351593,0.6685358881950378,0.38242924213409424,0.018120087683200836,0.08297093212604523
11.811301946640015,0.1840619444847107,-0.9252689480781555,0.6685358881950378,0.38204777240753174,0.018501564860343933,0.08297093212604523
11.831518173217773,0.1840619444847107,-0.9252689480781555,0.6685358881950378,0.38204777240753174,0.018120087683200836,0.08297093212604523
11.851589918136597,0.182917520403862,-0.925650417804718,0.6685358881950378,0.38166627287864685,0.018120087683200836,0.08258945494890213
11.87165880203247,0.182154580950737,-0.925650417804718,0.6685358881950378,0.38166627287864685,0.018120087683200836,0.08258945494890213
11.891704082489014,0.1813916265964508,-0.9260318875312805,0.6685358881950378,0.38166627287864685,0.01773861236870289,0.08258945494890213
11.911816835403442,0.1810101419687271,-0.9260318875312805,0.6685358881950378,0.38128480315208435,0.016594186425209045,0.08258945494890213
11.931861639022827,0.17986571788787842,-0.9267948269844055,0.6685358881950378,0.38090333342552185,0.016975661739706993,0.08220797777175903
11.951998233795166,0.17910276353359222,-0.927176296710968,0.6685358881950378,0.38090333342552185,0.01735713705420494,0.08182650804519653
11.971991777420044,0.17833982408046722,-0.927176296710968,0.6685358881950378,0.38052186369895935,0.01773861236870289,0.08144503086805344
11.992079973220825,0.17643244564533234,-0.9275577664375305,0.6685358881950378,0.38014039397239685,0.01773861236870289,0.08144503086805344
12.012150764465332,0.17566949129104614,-0.9279392957687378,0.6685358881950378,0.37937742471694946,0.018120087683200836,0.08106355369091034
12.032224893569946,0.17452506721019745,-0.9279392957687378,0.6685358881950378,0.37823301553726196,0.01735713705420494,0.08068207651376724
12.0523202419281,0.17414358258247375,-0.9279392957687378,0.6685358881950378,0.3778515160083771,0.016212711110711098,0.08030059933662415
12.072920799255371,0.17261768877506256,-0.9287022352218628,0.6685358881950378,0.3774700462818146,0.015449759550392628,0.08030059933662415
12.093116283416748,0.17185473442077637,-0.9290837049484253,0.6685358881950378,0.3774700462818146,0.01583123579621315,0.07991912961006165
12.113112211227417,0.17147326469421387,-0.9298466444015503,0.6685358881950378,0.3774700462818146,0.01583123579621315,0.07991912961006165
12.133196830749512,0.16994735598564148,-0.9298466444015503,0.6685358881950378,0.3770885765552521,0.01583123579621315,0.07953765243291855
12.153245449066162,0.16918440163135529,-0.9302281141281128,0.6685358881950378,0.3767071068286896,0.01583123579621315,0.07953765243291855
12.173330783843994,0.1684214472770691,-0.9302281141281128,0.6685358881950378,0.3763256371021271,0.01583123579621315,0.07915617525577545
12.193397760391235,0.1672770231962204,-0.9302281141281128,0.6685358881950378,0.3759441375732422,0.01583123579621315,0.07915617525577545
12.21346402168274,0.1665140837430954,-0.9309910535812378,0.6685358881950378,0.3755626678466797,0.015449759550392628,0.07877469807863235
12.233520030975342,0.1657511293888092,-0.9313725233078003,0.6685358881950378,0.3747997283935547,0.014686808921396732,0.07877469807863235
12.25360631942749,0.1646067053079605,-0.9317540526390076,0.6685358881950378,0.3744182586669922,0.01430533267557621,0.07839322835206985
12.273675680160522,0.16422522068023682,-0.9321355223655701,0.6685358881950378,0.3740367889404297,0.014686808921396732,0.07839322835206985
12.293796300888062,0.16346226632595062,-0.9321355223655701,0.6685358881950378,0.3740367889404297,0.015449759550392628,0.07801175117492676
12.313888788223267,0.16269932687282562,-0.9321355223655701,0.6685358881950378,0.3736552894115448,0.015449759550392628,0.07724879682064056
12.333953857421875,0.16155488789081573,-0.9325169920921326,0.6685358881950378,0.3736552894115448,0.01506828423589468,0.07648584991693497
12.354043006896973,0.16002899408340454,-0.9332799315452576,0.6685358881950378,0.3732738196849823,0.01430533267557621,0.07610437273979187
12.374104976654053,0.15964750945568085,-0.9336614012718201,0.6685358881950378,0.3732738196849823,0.01430533267557621,0.07610437273979187
12.394261837005615,0.15926603972911835,-0.9336614012718201,0.6685358881950378,0.3732738196849823,0.012779430486261845,0.07610437273979187
12.414272785186768,0.15735866129398346,-0.9340428709983826,0.6685358881950378,0.3728923499584198,0.012397955171763897,0.07572289556264877
12.43443250656128,0.15697719156742096,-0.9344243407249451,0.6685358881950378,0.3725108802318573,0.012779430486261845,0.07534141838550568
12.454469680786133,0.15545128285884857,-0.9344243407249451,0.6685358881950378,0.3725108802318573,0.012779430486261845,0.07534141838550568
12.474548578262329,0.15468832850456238,-0.9344243407249451,0.6685358881950378,0.3717479109764099,0.012397955171763897,0.07534141838550568
12.494756937026978,0.15354390442371368,-0.9351872801780701,0.6685358881950378,0.3706035017967224,0.012397955171763897,0.07534141838550568
12.514755010604858,0.152399480342865,-0.9355688095092773,0.6685358881950378,0.3702220320701599,0.013160906732082367,0.07495994865894318
12.534815549850464,0.152399480342865,-0.9355688095092773,0.6685358881950378,0.3702220320701599,0.01125352829694748,0.07495994865894318
12.554861545562744,0.1512550562620163,-0.9363317489624023,0.6685358881950378,0.369840532541275,0.01125352829694748,0.07495994865894318
12.574947595596313,0.1497291475534439,-0.9363317489624023,0.6685358881950378,0.3694590628147125,0.011635004542768002,0.07457847148180008
12.595065355300903,0.1497291475534439,-0.9367132186889648,0.6685358881950378,0.36907759308815,0.01201647985726595,0.07419699430465698
12.615115880966187,0.1489662081003189,-0.9370946884155273,0.6685358881950378,0.36907759308815,0.012397955171763897,0.07381551712751389
12.635268449783325,0.14782176911830902,-0.9374761581420898,0.6685358881950378,0.368314653635025,0.012397955171763897,0.07343403995037079
12.655332803726196,0.14667734503746033,-0.9378576278686523,0.6685358881950378,0.36755168437957764,0.011635004542768002,0.07267109304666519
12.675400972366333,0.14515145123004913,-0.9378576278686523,0.6685358881950378,0.36678874492645264,0.01125352829694748,0.07267109304666519
12.695470809936523,0.14476996660232544,-0.9382390975952148,0.6685358881950378,0.36678874492645264,0.010872052982449532,0.07267109304666519
12.715517044067383,0.14476996660232544,-0.9382390975952148,0.6685358881950378,0.36640727519989014,0.010490577667951584,0.07267109304666519
12.735610723495483,0.14286258816719055,-0.9386205673217773,0.6685358881950378,0.36640727519989014,0.01125352829694748,0.0722896158695221
12.755672454833984,0.14248111844062805,-0.9393835067749023,0.6685358881950378,0.36602577567100525,0.01125352829694748,0.071908138692379
12.77576756477356,0.14209964871406555,-0.9393835067749023,0.6685358881950378,0.36602577567100525,0.011635004542768002,0.071908138692379
12.79582667350769,0.14095520973205566,-0.9393835067749023,0.6685358881950378,0.36564430594444275,0.011635004542768002,0.071908138692379
12.815918445587158,0.13942931592464447,-0.9397650361061096,0.6685358881950378,0.36564430594444275,0.010490577667951584,0.071908138692379
12.836063385009766,0.13790340721607208,-0.9401465058326721,0.6685358881950378,0.36526283621788025,0.010872052982449532,0.0715266615152359
12.85614538192749,0.13790340721607208,-0.9405279755592346,0.6685358881950378,0.36526283621788025,0.010490577667951584,0.0715266615152359
12.876164674758911,0.13752193748950958,-0.9405279755592346,0.6685358881950378,0.36488136649131775,0.009346150793135166,0.0715266615152359
12.896255016326904,0.1371404528617859,-0.9405279755592346,0.6685358881950378,0.36449989676475525,0.009727626107633114,0.0715266615152359
12.916316270828247,0.1359960287809372,-0.9412909150123596,0.6685358881950378,0.36373692750930786,0.01125352829694748,0.0711451917886734
12.936387777328491,0.1356145590543747,-0.9416723847389221,0.6685358881950378,0.36297398805618286,0.01201647985726595,0.0707637146115303
12.956442594528198,0.1348516047000885,-0.9416723847389221,0.6685358881950378,0.36259251832962036,0.01125352829694748,0.0707637146115303
12.976655721664429,0.1333257108926773,-0.9416723847389221,0.6685358881950378,0.36259251832962036,0.010872052982449532,0.0707637146115303
12.996768236160278,0.13218127191066742,-0.9424353241920471,0.6685358881950378,0.3622110188007355,0.010109102353453636,0.07038223743438721
13.016818284988403,0.13065537810325623,-0.9424353241920471,0.6685358881950378,0.3622110188007355,0.009727626107633114,0.07000076025724411
13.036882877349854,0.13065537810325623,-0.9424353241920471,0.6685358881950378,0.361829549074173,0.008201723918318748,0.07000076025724411
13.057093858718872,0.13027389347553253,-0.9428167939186096,0.6685358881950378,0.3614480793476105,0.008201723918318748,0.06961929053068161
13.077081441879272,0.12951095402240753,-0.9431982636451721,0.6685358881950378,0.361066609621048,0.009346150793135166,0.06923781335353851
13.097142934799194,0.12836651504039764,-0.9435797929763794,0.6685358881950378,0.3599221706390381,0.010490577667951584,0.06847485899925232
13.117197513580322,0.12722209095954895,-0.9443427324295044,0.6685358881950378,0.3591592311859131,0.010872052982449532,0.06809338182210922
13.137323379516602,0.12645913660526276,-0.9443427324295044,0.6685358881950378,0.3587777614593506,0.010109102353453636,0.06771191209554672
13.15742564201355,0.12531471252441406,-0.9447242021560669,0.6685358881950378,0.3587777614593506,0.009346150793135166,0.06809338182210922
13.177520751953125,0.12340734153985977,-0.9447242021560669,0.6685358881950378,0.3587777614593506,0.00858320016413927,0.06771191209554672
13.197679042816162,0.12302586436271667,-0.9447242021560669,0.6685358881950378,0.3583962619304657,0.0078202486038208,0.06771191209554672
13.2177095413208,0.12302586436271667,-0.9454871416091919,0.6685358881950378,0.3583962619304657,0.007438773289322853,0.06771191209554672
13.237889766693115,0.12226291000843048,-0.9458686113357544,0.6689173579216003,0.3580147922039032,0.008201723918318748,0.06733043491840363
13.25788402557373,0.12188144028186798,-0.9462500810623169,0.6689173579216003,0.3576333224773407,0.008964675478637218,0.06694895774126053
13.277944803237915,0.12111848592758179,-0.9466315507888794,0.6685358881950378,0.3572518527507782,0.010109102353453636,0.06694895774126053
13.297995805740356,0.12073700875043869,-0.9466315507888794,0.6685358881950378,0.3568703830242157,0.009727626107633114,0.06656748056411743
13.318074464797974,0.1188296303153038,-0.9466315507888794,0.6689173579216003,0.3561074137687683,0.010109102353453636,0.06618601083755493
13.338136434555054,0.1180666834115982,-0.9466315507888794,0.6689173579216003,0.3557259440422058,0.008201723918318748,0.06542305648326874
13.358201742172241,0.11730372905731201,-0.9470130205154419,0.6689173579216003,0.3553444743156433,0.00667582219466567,0.06542305648326874
13.378265857696533,0.11577782779932022,-0.9477760195732117,0.6689173579216003,0.3553444743156433,0.007438773289322853,0.06504157930612564
13.398382663726807,0.11577782779932022,-0.9481574892997742,0.6689173579216003,0.3549630045890808,0.007057297509163618,0.06466010212898254
13.418433427810669,0.11577782779932022,-0.9489204287528992,0.6689173579216003,0.3545815348625183,0.007057297509163618,0.06466010212898254
13.438522338867188,0.11539635062217712,-0.9489204287528992,0.6689173579216003,0.3545815348625183,0.008201723918318748,0.06427863240242004
13.45856237411499,0.11463340371847153,-0.9489204287528992,0.6689173579216003,0.3542000353336334,0.00858320016413927,0.06427863240242004
13.478681802749634,0.11387044936418533,-0.9489204287528992,0.6689173579216003,0.3534370958805084,0.00858320016413927,0.06389715522527695
13.498762130737305,0.11234454810619354,-0.9493018984794617,0.6689173579216003,0.3530556261539459,0.00858320016413927,0.06389715522527695
13.518830060958862,0.11158160120248795,-0.9500648379325867,0.6692988276481628,0.35229265689849854,0.007438773289322853,0.06389715522527695
13.53891658782959,0.11043716967105865,-0.9500648379325867,0.6692988276481628,0.35191118717193604,0.006294346414506435,0.06389715522527695
13.55908727645874,0.10852979123592377,-0.9500648379325867,0.6692988276481628,0.35152971744537354,0.00667582219466567,0.06351567804813385
13.579198360443115,0.10852979123592377,-0.9508277773857117,0.6692988276481628,0.35114824771881104,0.007057297509163618,0.06351567804813385
13.599267482757568,0.10852979123592377,-0.9508277773857117,0.6692988276481628,0.35114824771881104,0.007057297509163618,0.06351567804813385
13.619358539581299,0.10814831405878067,-0.9508277773857117,0.6692988276481628,0.35076677799224854,0.007057297509163618,0.06313420087099075
13.63938856124878,0.10776684433221817,-0.951209306716919,0.6692988276481628,0.35076677799224854,0.007438773289322853,0.06275273114442825
13.659473419189453,0.10662241280078888,-0.951972246170044,0.6692988276481628,0.35038527846336365,0.00858320016413927,0.06237125024199486
13.679540157318115,0.10585946589708328,-0.951972246170044,0.6692988276481628,0.35000380873680115,0.0078202486038208,0.06237125024199486
13.699633836746216,0.10509651154279709,-0.951972246170044,0.6692988276481628,0.35000380873680115,0.007057297509163618,0.06198977679014206
13.719715118408203,0.1035706102848053,-0.9523537158966064,0.6692988276481628,0.34962233901023865,0.007438773289322853,0.06160829961299896
13.73978304862976,0.1031891331076622,-0.952735185623169,0.6692988276481628,0.34885939955711365,0.006294346414506435,0.061226826161146164
13.75986909866333,0.10166323184967041,-0.9531166553497314,0.6692988276481628,0.34847790002822876,0.00667582219466567,0.06084534898400307
13.780030250549316,0.10128175467252731,-0.9531166553497314,0.6692988276481628,0.34771496057510376,0.006294346414506435,0.06084534898400307
13.800061225891113,0.10128175467252731,-0.9538795948028564,0.6692988276481628,0.34771496057510376,0.00667582219466567,0.06046387553215027
13.820117950439453,0.10128175467252731,-0.9538795948028564,0.6696802973747253,0.34771496057510376,0.007057297509163618,0.06046387553215027
13.840196132659912,0.10051880776882172,-0.9538795948028564,0.6692988276481628,0.34733349084854126,0.007057297509163618,0.06008239835500717
13.860283613204956,0.09975585341453552,-0.954261064529419,0.6692988276481628,0.34733349084854126,0.00667582219466567,0.06008239835500717
13.880351543426514,0.09899290651082993,-0.9546425342559814,0.6692988276481628,0.34695202112197876,0.007438773289322853,0.06008239835500717
13.900417566299438,0.09822995215654373,-0.955024003982544,0.6692988276481628,0.34695202112197876,0.007057297509163618,0.05970092490315437
13.920469045639038,0.09670405089855194,-0.955024003982544,0.6692988276481628,0.34657052159309387,0.006294346414506435,0.05970092490315437
13.940671920776367,0.09594109654426575,-0.9554055333137512,0.6692988276481628,0.34657052159309387,0.00667582219466567,0.059319447726011276
13.960659742355347,0.09517814964056015,-0.9557870030403137,0.6692988276481628,0.34618905186653137,0.006294346414506435,0.059319447726011276
13.980730533599854,0.09479667246341705,-0.9561684727668762,0.6696802973747253,0.34504464268684387,0.005912871100008488,0.05893797054886818
14.000827550888062,0.09403372555971146,-0.9561684727668762,0.6692988276481628,0.3442816734313965,0.006294346414506435,0.058175019919872284
14.02091360092163,0.09365224838256836,-0.9565499424934387,0.6692988276481628,0.343900203704834,0.005531395319849253,0.05741206929087639
14.041008949279785,0.09327077120542526,-0.9569314122200012,0.6696802973747253,0.3435187339782715,0.006294346414506435,0.05703059583902359
14.061062574386597,0.09250781685113907,-0.9569314122200012,0.6696802973747253,0.3435187339782715,0.00667582219466567,0.05703059583902359
14.08121132850647,0.09098191559314728,-0.9569314122200012,0.6696802973747253,0.343137264251709,0.00667582219466567,0.05664911866188049
14.101264238357544,0.08983749151229858,-0.9573128819465637,0.6696802973747253,0.3427557647228241,0.00667582219466567,0.05664911866188049
14.121321678161621,0.08869306743144989,-0.9576943516731262,0.6696802973747253,0.3427557647228241,0.005531395319849253,0.056267641484737396
14.141419887542725,0.0871671661734581,-0.9584572911262512,0.6696802973747253,0.3423742949962616,0.004386968910694122,0.056267641484737396
14.161502361297607,0.086785688996315,-0.9584572911262512,0.6696802973747253,0.3419928252696991,0.004005493130534887,0.056267641484737396
14.181564569473267,0.086785688996315,-0.9588387608528137,0.6696802973747253,0.3416113555431366,0.0036240178160369396,0.056267641484737396
14.20161247253418,0.0864042118191719,-0.959220290184021,0.6696802973747253,0.3404669165611267,0.004005493130534887,0.0558861680328846
14.221750736236572,0.08602273464202881,-0.959220290184021,0.6696802973747253,0.3400854468345642,0.00476844422519207,0.0555046908557415
14.24184513092041,0.08525978773832321,-0.959220290184021,0.6696802973747253,0.3400854468345642,0.005149920005351305,0.0555046908557415
14.261911392211914,0.08449683338403702,-0.9596017599105835,0.6696802973747253,0.3397039771080017,0.006294346414506435,0.0551232174038887
14.28197169303894,0.08373387902975082,-0.959983229637146,0.6696802973747253,0.3397039771080017,0.005149920005351305,0.0551232174038887
