liuyurong129/humanoid-gym/humanoid/data/actual_q_20250521-003639.csv
timestamp,joint_1,joint_2,joint_3,joint_4,joint_5,joint_6
3.24249267578125e-05,0.00019073777366429567,0.17414358258247375,-0.0871671661734581,0.00019073777366429567,0.00019073777366429567,-0.00019073777366429567
0.020139694213867188,0.000572213320992887,0.15430685877799988,-0.07877469807863235,-0.00019073777366429567,-0.00019073777366429567,-0.000572213320992887
0.040220022201538086,0.00019073777366429567,0.13065537810325623,-0.06771191209554672,-0.00019073777366429567,0.00019073777366429567,-0.00019073777366429567
0.0603334903717041,0.00019073777366429567,0.11348897218704224,-0.061226826161146164,-0.00019073777366429567,0.0020981156267225742,-0.00019073777366429567
0.08048129081726074,-0.00019073777366429567,0.10776684433221817,-0.05741206929087639,0.00019073777366429567,-0.00019073777366429567,-0.00019073777366429567
0.10055112838745117,-0.000572213320992887,0.10700388997793198,-0.05855649709701538,0.00019073777366429567,0.00019073777366429567,-0.00019073777366429567
0.12057924270629883,-0.0009536888683214784,0.10929274559020996,-0.058175019919872284,0.00019073777366429567,-0.00019073777366429567,0.00019073777366429567
0.140763521194458,-0.002861066721379757,0.10967422276735306,-0.057793546468019485,0.000572213320992887,-0.00019073777366429567,0.00019073777366429567
0.16080141067504883,-0.00476844422519207,0.10967422276735306,-0.05741206929087639,0.000572213320992887,0.00019073777366429567,0.00019073777366429567
0.18101096153259277,-0.005531395319849253,0.10967422276735306,-0.057793546468019485,0.0009536888683214784,0.00019073777366429567,0.00019073777366429567
0.20093512535095215,-0.00667582219466567,0.10891126841306686,-0.057793546468019485,0.0013351644156500697,0.00019073777366429567,0.000572213320992887
0.22105836868286133,-0.0078202486038208,0.10852979123592377,-0.057793546468019485,0.001716639962978661,0.00019073777366429567,0.000572213320992887
0.2411332130432129,-0.008964675478637218,0.10891126841306686,-0.057793546468019485,0.002861066721379757,0.00019073777366429567,0.0009536888683214784
0.2611818313598633,-0.009727626107633114,0.10891126841306686,-0.057793546468019485,0.0032425422687083483,0.00019073777366429567,0.0013351644156500697
0.28122544288635254,-0.011635004542768002,0.10852979123592377,-0.057793546468019485,0.0036240178160369396,0.00019073777366429567,0.0013351644156500697
0.3013112545013428,-0.012779430486261845,0.10852979123592377,-0.057793546468019485,0.004005493130534887,-0.00019073777366429567,0.001716639962978661
0.3214266300201416,-0.013542382046580315,0.10776684433221817,-0.057793546468019485,0.004386968910694122,0.00019073777366429567,0.0020981156267225742
0.3414790630340576,-0.01506828423589468,0.10776684433221817,-0.05741206929087639,0.005149920005351305,0.00019073777366429567,0.002861066721379757
0.3615734577178955,-0.016594186425209045,0.10776684433221817,-0.05741206929087639,0.006294346414506435,0.00019073777366429567,0.0036240178160369396
0.38163018226623535,-0.01773861236870289,0.10738536715507507,-0.05741206929087639,0.007057297509163618,0.00019073777366429567,0.004386968910694122
0.4017021656036377,-0.019645990803837776,0.10738536715507507,-0.05741206929087639,0.007438773289322853,0.00019073777366429567,0.00476844422519207
0.42177844047546387,-0.021553369238972664,0.10738536715507507,-0.05741206929087639,0.0078202486038208,0.00019073777366429567,0.00476844422519207
0.44188451766967773,-0.02231631986796856,0.10700388997793198,-0.05741206929087639,0.008201723918318748,0.00019073777366429567,0.005149920005351305
0.4619786739349365,-0.022697795182466507,0.10662241280078888,-0.05741206929087639,0.00858320016413927,-0.00019073777366429567,0.005149920005351305
0.4820091724395752,-0.024223696440458298,0.10662241280078888,-0.05741206929087639,0.010109102353453636,-0.00019073777366429567,0.005531395319849253
0.5020675659179688,-0.02536812424659729,0.10662241280078888,-0.05741206929087639,0.010490577667951584,-0.00019073777366429567,0.006294346414506435
0.5222561359405518,-0.02689402550458908,0.10624094307422638,-0.05741206929087639,0.010872052982449532,-0.00019073777366429567,0.007438773289322853
0.5422556400299072,-0.02841992862522602,0.10624094307422638,-0.05741206929087639,0.01125352829694748,0.00019073777366429567,0.008201723918318748
0.5623226165771484,-0.029564354568719864,0.10585946589708328,-0.05741206929087639,0.011635004542768002,0.00019073777366429567,0.00858320016413927
0.5824201107025146,-0.029564354568719864,0.10547798871994019,-0.05741206929087639,0.01201647985726595,0.00019073777366429567,0.008964675478637218
0.6025269031524658,-0.030708782374858856,0.10547798871994019,-0.05741206929087639,0.012779430486261845,0.00019073777366429567,0.009346150793135166
0.62255859375,-0.032616160809993744,0.10509651154279709,-0.05741206929087639,0.01430533267557621,0.00019073777366429567,0.009727626107633114
0.6426353454589844,-0.034142062067985535,0.10509651154279709,-0.05703059583902359,0.01506828423589468,0.00019073777366429567,0.010872052982449532
0.6627309322357178,-0.03604944050312042,0.10471503436565399,-0.05664911866188049,0.01583123579621315,0.00019073777366429567,0.01201647985726595
0.6828222274780273,-0.03681239113211632,0.10471503436565399,-0.05664911866188049,0.016212711110711098,0.00019073777366429567,0.01201647985726595
0.7028927803039551,-0.03681239113211632,0.10471503436565399,-0.056267641484737396,0.016594186425209045,-0.000572213320992887,0.01201647985726595
0.7237637042999268,-0.03795681521296501,0.10471503436565399,-0.056267641484737396,0.01773861236870289,-0.00019073777366429567,0.012397955171763897
0.7438516616821289,-0.0394827201962471,0.10433356463909149,-0.056267641484737396,0.018501564860343933,0.00019073777366429567,0.012397955171763897
0.7640049457550049,-0.04139009863138199,0.10433356463909149,-0.056267641484737396,0.01888304017484188,0.00019073777366429567,0.012779430486261845
0.7840025424957275,-0.042153049260377884,0.1035706102848053,-0.056267641484737396,0.01926451548933983,0.00019073777366429567,0.012779430486261845
0.8043496608734131,-0.04329747334122658,0.1031891331076622,-0.056267641484737396,0.019645990803837776,0.00019073777366429567,0.013160906732082367
0.8244409561157227,-0.04444190114736557,0.1028076633810997,-0.056267641484737396,0.020027466118335724,-0.00019073777366429567,0.013542382046580315
0.8445076942443848,-0.04482337832450867,0.1024261862039566,-0.056267641484737396,0.021171892061829567,-0.00019073777366429567,0.01430533267557621
0.8646016120910645,-0.04634927958250046,0.1024261862039566,-0.0558861680328846,0.02231631986796856,-0.00019073777366429567,0.01506828423589468
0.8849501609802246,-0.04787518084049225,0.1024261862039566,-0.0558861680328846,0.022697795182466507,0.00019073777366429567,0.015449759550392628
0.9050564765930176,-0.04940108209848404,0.1024261862039566,-0.0555046908557415,0.022697795182466507,0.00019073777366429567,0.01583123579621315
0.9251065254211426,-0.049782559275627136,0.1024261862039566,-0.0555046908557415,0.023460745811462402,-0.00019073777366429567,0.01583123579621315
0.9451816082000732,-0.05130846053361893,0.1024261862039566,-0.0555046908557415,0.024223696440458298,-0.00019073777366429567,0.016212711110711098
0.9652416706085205,-0.05207141116261482,0.10166323184967041,-0.0555046908557415,0.024986648932099342,-0.000572213320992887,0.016975661739706993
0.9853582382202148,-0.05283436179161072,0.10166323184967041,-0.0555046908557415,0.025749599561095238,-0.00019073777366429567,0.016975661739706993
1.00559663772583,-0.05397878959774971,0.10128175467252731,-0.0555046908557415,0.025749599561095238,0.00019073777366429567,0.01773861236870289
1.0254933834075928,-0.054741740226745605,0.10128175467252731,-0.0555046908557415,0.026131074875593185,0.00019073777366429567,0.018501564860343933
1.045548677444458,-0.056267641484737396,0.10128175467252731,-0.0555046908557415,0.026512550190091133,0.00019073777366429567,0.01888304017484188
1.0656352043151855,-0.057793546468019485,0.10051880776882172,-0.0555046908557415,0.026512550190091133,0.00019073777366429567,0.01926451548933983
1.085710048675537,-0.05893797054886818,0.10051880776882172,-0.0555046908557415,0.02689402550458908,-0.00019073777366429567,0.01926451548933983
1.1057751178741455,-0.059319447726011276,0.10051880776882172,-0.0555046908557415,0.02727550081908703,-0.00019073777366429567,0.019645990803837776
1.1260223388671875,-0.06084534898400307,0.10051880776882172,-0.0555046908557415,0.02880140393972397,-0.000572213320992887,0.020027466118335724
1.1461431980133057,-0.06198977679014206,0.10013733059167862,-0.0555046908557415,0.029564354568719864,0.00019073777366429567,0.020027466118335724
1.16624116897583,-0.06313420087099075,0.09975585341453552,-0.0551232174038887,0.02994582988321781,0.00019073777366429567,0.02040894143283367
1.1862709522247314,-0.06427863240242004,0.09937438368797302,-0.0551232174038887,0.03032730519771576,0.00019073777366429567,0.02040894143283367
1.2063381671905518,-0.06580453366041183,0.09937438368797302,-0.0551232174038887,0.030708782374858856,0.00019073777366429567,0.02079041674733162
1.2264654636383057,-0.06618601083755493,0.09937438368797302,-0.0551232174038887,0.031090257689356804,-0.000572213320992887,0.021553369238972664
1.2465507984161377,-0.06694895774126053,0.09899290651082993,-0.0551232174038887,0.03185320645570755,-0.00019073777366429567,0.02193484455347061
1.2666616439819336,-0.06809338182210922,0.09822995215654373,-0.05436026677489281,0.03337911143898964,-0.00019073777366429567,0.022697795182466507
1.2870023250579834,-0.06923781335353851,0.09822995215654373,-0.05436026677489281,0.03376058489084244,0.00019073777366429567,0.023079270496964455
1.3070917129516602,-0.07038223743438721,0.09822995215654373,-0.05436026677489281,0.03376058489084244,0.000572213320992887,0.023460745811462402
1.3272290229797363,-0.0715266615152359,0.09784847497940063,-0.05436026677489281,0.034142062067985535,0.00019073777366429567,0.02384222112596035
1.3472669124603271,-0.07267109304666519,0.09784847497940063,-0.05436026677489281,0.03452353551983833,0.00019073777366429567,0.024223696440458298
1.3673462867736816,-0.07343403995037079,0.09746700525283813,-0.05436026677489281,0.03490501269698143,-0.000572213320992887,0.024605173617601395
1.38740873336792,-0.07381551712751389,0.09746700525283813,-0.05436026677489281,0.03604944050312042,-0.000572213320992887,0.024986648932099342
1.4075582027435303,-0.07457847148180008,0.09746700525283813,-0.05436026677489281,0.037193864583969116,-0.00019073777366429567,0.02689402550458908
1.4275708198547363,-0.07610437273979187,0.09708552807569504,-0.05397878959774971,0.037193864583969116,0.00019073777366429567,0.02727550081908703
1.447688102722168,-0.07724879682064056,0.09708552807569504,-0.05397878959774971,0.03757534176111221,0.00019073777366429567,0.02727550081908703
1.4677295684814453,-0.07839322835206985,0.09670405089855194,-0.05359731614589691,0.03795681521296501,0.00019073777366429567,0.027656977996230125
1.4878251552581787,-0.07915617525577545,0.09632257372140884,-0.05359731614589691,0.038719769567251205,0.00019073777366429567,0.027656977996230125
1.507925271987915,-0.08030059933662415,0.09632257372140884,-0.05359731614589691,0.0398641936480999,-0.000572213320992887,0.028038453310728073
1.528017282485962,-0.08068207651376724,0.09594109654426575,-0.05359731614589691,0.04100862145423889,-0.0009536888683214784,0.02841992862522602
1.5480847358703613,-0.08144503086805344,0.09517814964056015,-0.05359731614589691,0.04139009863138199,-0.000572213320992887,0.029564354568719864
1.5681490898132324,-0.08258945494890213,0.09517814964056015,-0.05359731614589691,0.04177157208323479,-0.00019073777366429567,0.02994582988321781
1.588216781616211,-0.08411535620689392,0.09517814964056015,-0.05359731614589691,0.04177157208323479,0.000572213320992887,0.02994582988321781
1.6083111763000488,-0.08525978773832321,0.09517814964056015,-0.05359731614589691,0.042153049260377884,0.000572213320992887,0.03032730519771576
1.6284165382385254,-0.08602273464202881,0.09517814964056015,-0.05359731614589691,0.04291599988937378,0.00019073777366429567,0.03032730519771576
1.6484806537628174,-0.086785688996315,0.09517814964056015,-0.053215838968753815,0.04444190114736557,-0.00019073777366429567,0.030708782374858856
1.6688458919525146,-0.0879301130771637,0.09441519528627396,-0.053215838968753815,0.04482337832450867,-0.000572213320992887,0.031090257689356804
1.68898344039917,-0.0883115902543068,0.09403372555971146,-0.053215838968753815,0.045204851776361465,-0.000572213320992887,0.031090257689356804
1.709049940109253,-0.08983749151229858,0.09403372555971146,-0.053215838968753815,0.04558632895350456,-0.00019073777366429567,0.03147173300385475
1.7291409969329834,-0.09060044586658478,0.09365224838256836,-0.053215838968753815,0.04596780240535736,0.000572213320992887,0.03147173300385475
1.7491626739501953,-0.09212634712457657,0.09327077120542526,-0.053215838968753815,0.046730753034353256,0.000572213320992887,0.03185320645570755
1.769277811050415,-0.09288929402828217,0.09327077120542526,-0.05283436179161072,0.04787518084049225,0.000572213320992887,0.032616160809993744
1.789332389831543,-0.09365224838256836,0.09288929402828217,-0.05245288833975792,0.048638131469488144,-0.00019073777366429567,0.03376058489084244
1.8093864917755127,-0.09479667246341705,0.09288929402828217,-0.05245288833975792,0.048638131469488144,-0.000572213320992887,0.03452353551983833
1.829521656036377,-0.09517814964056015,0.09288929402828217,-0.05207141116261482,0.04901960864663124,-0.000572213320992887,0.03490501269698143
1.8496088981628418,-0.09594109654426575,0.09212634712457657,-0.05207141116261482,0.04940108209848404,-0.00019073777366429567,0.03490501269698143
1.8696725368499756,-0.09708552807569504,0.09212634712457657,-0.05207141116261482,0.049782559275627136,0.000572213320992887,0.03528648987412453
1.8897380828857422,-0.09822995215654373,0.09212634712457657,-0.05207141116261482,0.05054550990462303,0.000572213320992887,0.035667963325977325
1.909982681274414,-0.09937438368797302,0.09174486994743347,-0.05207141116261482,0.051689937710762024,0.000572213320992887,0.03643091395497322
1.9300851821899414,-0.10013733059167862,0.09098191559314728,-0.05130846053361893,0.05207141116261482,0.00019073777366429567,0.03757534176111221
1.9501614570617676,-0.10166323184967041,0.09098191559314728,-0.05130846053361893,0.05245288833975792,0.00019073777366429567,0.03795681521296501
1.970273733139038,-0.10204470902681351,0.09098191559314728,-0.05130846053361893,0.05283436179161072,-0.00019073777366429567,0.03833829239010811
1.9903056621551514,-0.1024261862039566,0.09060044586658478,-0.05130846053361893,0.053215838968753815,-0.00019073777366429567,0.03833829239010811
2.01055908203125,-0.1039520874619484,0.09021896868944168,-0.05130846053361893,0.05397878959774971,0.00019073777366429567,0.03833829239010811
2.030538320541382,-0.10433356463909149,0.09021896868944168,-0.05130846053361893,0.05436026677489281,0.0009536888683214784,0.03833829239010811
2.050776958465576,-0.10547798871994019,0.09021896868944168,-0.05130846053361893,0.0555046908557415,0.000572213320992887,0.038719769567251205
2.070873975753784,-0.10700388997793198,0.08983749151229858,-0.05130846053361893,0.056267641484737396,0.000572213320992887,0.039101243019104004
2.090989828109741,-0.10852979123592377,0.08983749151229858,-0.05092698708176613,0.05664911866188049,0.00019073777366429567,0.039101243019104004
2.111018180847168,-0.10929274559020996,0.08983749151229858,-0.05092698708176613,0.05703059583902359,-0.00019073777366429567,0.0394827201962471
2.131098747253418,-0.10967422276735306,0.08907453715801239,-0.05054550990462303,0.05741206929087639,-0.000572213320992887,0.0398641936480999
2.1511714458465576,-0.11005569249391556,0.08869306743144989,-0.050164032727479935,0.05893797054886818,-0.00019073777366429567,0.040627144277095795
2.1712489128112793,-0.11081864684820175,0.08869306743144989,-0.050164032727479935,0.05970092490315437,0.000572213320992887,0.04139009863138199
2.191291332244873,-0.11196307092905045,0.0883115902543068,-0.050164032727479935,0.05970092490315437,0.0009536888683214784,0.04177157208323479
2.211374282836914,-0.11348897218704224,0.0879301130771637,-0.050164032727479935,0.06008239835500717,0.0009536888683214784,0.04177157208323479
2.2314484119415283,-0.11463340371847153,0.0879301130771637,-0.050164032727479935,0.06046387553215027,0.00019073777366429567,0.042153049260377884
2.251539468765259,-0.11539635062217712,0.0879301130771637,-0.050164032727479935,0.061226826161146164,-0.00019073777366429567,0.04253452271223068
2.2715814113616943,-0.11654078215360641,0.0879301130771637,-0.049782559275627136,0.06198977679014206,-0.00019073777366429567,0.04291599988937378
2.2916839122772217,-0.11692225188016891,0.0875486359000206,-0.049782559275627136,0.06313420087099075,-0.00019073777366429567,0.04329747334122658
2.3117423057556152,-0.11730372905731201,0.086785688996315,-0.04940108209848404,0.06351567804813385,0.00019073777366429567,0.04406042397022247
2.331800937652588,-0.1184481605887413,0.086785688996315,-0.04940108209848404,0.06389715522527695,0.0009536888683214784,0.04482337832450867
2.3523077964782715,-0.1199740618467331,0.0864042118191719,-0.04940108209848404,0.06427863240242004,0.0009536888683214784,0.045204851776361465
2.372422933578491,-0.12073700875043869,0.08602273464202881,-0.04940108209848404,0.06466010212898254,0.0009536888683214784,0.04558632895350456
2.3924832344055176,-0.12188144028186798,0.08602273464202881,-0.04901960864663124,0.06618601083755493,0.000572213320992887,0.04558632895350456
2.4125328063964844,-0.12264438718557358,0.08602273464202881,-0.04901960864663124,0.06733043491840363,0.00019073777366429567,0.04596780240535736
2.4327127933502197,-0.12378881871700287,0.08564125746488571,-0.04901960864663124,0.06771191209554672,0.00019073777366429567,0.04634927958250046
2.452815532684326,-0.12417028844356537,0.08487831056118011,-0.04901960864663124,0.06809338182210922,0.00019073777366429567,0.04634927958250046
2.4729437828063965,-0.12455176562070847,0.08487831056118011,-0.048638131469488144,0.06847485899925232,0.000572213320992887,0.046730753034353256
2.492955207824707,-0.12531471252441406,0.08487831056118011,-0.048256658017635345,0.06885633617639542,0.0009536888683214784,0.046730753034353256
2.5132036209106445,-0.12684062123298645,0.08487831056118011,-0.048256658017635345,0.07000076025724411,0.0009536888683214784,0.04711223021149635
2.533310651779175,-0.12798504531383514,0.08449683338403702,-0.04787518084049225,0.0707637146115303,0.0009536888683214784,0.04749370738863945
2.553384780883789,-0.12912946939468384,0.08373387902975082,-0.04787518084049225,0.0711451917886734,0.000572213320992887,0.04901960864663124
2.5735228061676025,-0.13027389347553253,0.08373387902975082,-0.04787518084049225,0.0715266615152359,0.000572213320992887,0.04940108209848404
2.5935468673706055,-0.13141833245754242,0.08373387902975082,-0.04787518084049225,0.071908138692379,0.00019073777366429567,0.04940108209848404
2.613603353500366,-0.13141833245754242,0.08297093212604523,-0.04787518084049225,0.07267109304666519,0.000572213320992887,0.049782559275627136
2.633676052093506,-0.13218127191066742,0.08297093212604523,-0.04749370738863945,0.07419699430465698,0.000572213320992887,0.050164032727479935
2.653823137283325,-0.1337071806192398,0.08297093212604523,-0.04711223021149635,0.07495994865894318,0.001716639962978661,0.05092698708176613
2.673915147781372,-0.135233074426651,0.08258945494890213,-0.04711223021149635,0.07534141838550568,0.001716639962978661,0.05092698708176613
2.6939921379089355,-0.1359960287809372,0.08258945494890213,-0.04711223021149635,0.07572289556264877,0.0013351644156500697,0.05207141116261482
2.7140285968780518,-0.1367589831352234,0.08220797777175903,-0.04711223021149635,0.07610437273979187,0.0009536888683214784,0.053215838968753815
2.734133720397949,-0.13752193748950958,0.08182650804519653,-0.046730753034353256,0.07763027399778366,0.0009536888683214784,0.05359731614589691
2.754199504852295,-0.13866636157035828,0.08144503086805344,-0.046730753034353256,0.07839322835206985,0.0009536888683214784,0.05359731614589691
2.7742581367492676,-0.13866636157035828,0.08068207651376724,-0.04634927958250046,0.07839322835206985,0.0009536888683214784,0.05397878959774971
2.7943081855773926,-0.13942931592464447,0.08068207651376724,-0.04596780240535736,0.07877469807863235,0.0013351644156500697,0.05397878959774971
2.8143982887268066,-0.14095520973205566,0.08068207651376724,-0.04596780240535736,0.07915617525577545,0.001716639962978661,0.05436026677489281
2.8345541954040527,-0.14171816408634186,0.08068207651376724,-0.04596780240535736,0.07953765243291855,0.0020981156267225742,0.05436026677489281
2.8545708656311035,-0.14248111844062805,0.08068207651376724,-0.04596780240535736,0.07991912961006165,0.0013351644156500697,0.0551232174038887
2.8746557235717773,-0.14324407279491425,0.08030059933662415,-0.04596780240535736,0.08068207651376724,0.0013351644156500697,0.0558861680328846
2.894747734069824,-0.14400701224803925,0.07953765243291855,-0.04558632895350456,0.08182650804519653,0.0013351644156500697,0.05664911866188049
2.9148502349853516,-0.14438849687576294,0.07953765243291855,-0.045204851776361465,0.08220797777175903,0.0009536888683214784,0.05664911866188049
2.934889078140259,-0.14591439068317413,0.07953765243291855,-0.045204851776361465,0.08258945494890213,0.001716639962978661,0.05664911866188049
2.9551076889038086,-0.14591439068317413,0.07915617525577545,-0.045204851776361465,0.08297093212604523,0.0020981156267225742,0.05664911866188049
2.9751861095428467,-0.14629587531089783,0.07877469807863235,-0.04482337832450867,0.08373387902975082,0.0020981156267225742,0.05703059583902359
2.99532151222229,-0.14705882966518402,0.07839322835206985,-0.04482337832450867,0.08449683338403702,0.0020981156267225742,0.05703059583902359
3.015343189239502,-0.14820325374603271,0.07839322835206985,-0.04482337832450867,0.08564125746488571,0.0020981156267225742,0.05741206929087639
3.035482168197632,-0.1493476778268814,0.07839322835206985,-0.04482337832450867,0.08564125746488571,0.0020981156267225742,0.05741206929087639
3.055521249771118,-0.1501106321811676,0.07763027399778366,-0.04444190114736557,0.08602273464202881,0.0020981156267225742,0.057793546468019485
3.0756101608276367,-0.1512550562620163,0.07724879682064056,-0.04406042397022247,0.0864042118191719,0.001716639962978661,0.058175019919872284
3.0956716537475586,-0.1520180106163025,0.07763027399778366,-0.04406042397022247,0.0864042118191719,0.001716639962978661,0.05855649709701538
3.1157779693603516,-0.15316243469715118,0.07763027399778366,-0.04406042397022247,0.086785688996315,0.0020981156267225742,0.05970092490315437
3.1358470916748047,-0.15354390442371368,0.07686731964349747,-0.043678950518369675,0.0875486359000206,0.0020981156267225742,0.06084534898400307
3.155977725982666,-0.15354390442371368,0.07648584991693497,-0.043678950518369675,0.0883115902543068,0.0020981156267225742,0.061226826161146164
3.175997495651245,-0.15430685877799988,0.07648584991693497,-0.043678950518369675,0.08945601433515549,0.0020981156267225742,0.061226826161146164
3.1960816383361816,-0.15545128285884857,0.07610437273979187,-0.04329747334122658,0.08983749151229858,0.0020981156267225742,0.06160829961299896
3.216162919998169,-0.15621423721313477,0.07572289556264877,-0.04329747334122658,0.08983749151229858,0.0024795911740511656,0.06160829961299896
3.2362706661224365,-0.15659570693969727,0.07572289556264877,-0.04291599988937378,0.09060044586658478,0.0024795911740511656,0.06237125024199486
3.256329298019409,-0.15812161564826965,0.07572289556264877,-0.04291599988937378,0.09098191559314728,0.0020981156267225742,0.06389715522527695
3.276385545730591,-0.15888457000255585,0.07534141838550568,-0.04291599988937378,0.09250781685113907,0.0020981156267225742,0.06427863240242004
3.296461820602417,-0.16002899408340454,0.07534141838550568,-0.04291599988937378,0.09327077120542526,0.0024795911740511656,0.06427863240242004
3.3165042400360107,-0.16041046380996704,0.07495994865894318,-0.04291599988937378,0.09365224838256836,0.0024795911740511656,0.06427863240242004
3.3366005420684814,-0.16079194843769073,0.07419699430465698,-0.042153049260377884,0.09403372555971146,0.0024795911740511656,0.06466010212898254
3.356659173965454,-0.16155488789081573,0.07419699430465698,-0.042153049260377884,0.09441519528627396,0.002861066721379757,0.06504157930612564
3.376732587814331,-0.16269932687282562,0.07343403995037079,-0.042153049260377884,0.09479667246341705,0.0024795911740511656,0.06504157930612564
3.3972203731536865,-0.16346226632595062,0.07343403995037079,-0.04177157208323479,0.09517814964056015,0.0032425422687083483,0.06542305648326874
3.4174184799194336,-0.1646067053079605,0.07343403995037079,-0.04177157208323479,0.09632257372140884,0.002861066721379757,0.06542305648326874
3.4374988079071045,-0.1653696447610855,0.07343403995037079,-0.04177157208323479,0.09708552807569504,0.0024795911740511656,0.06618601083755493
3.457517385482788,-0.1661325991153717,0.07343403995037079,-0.04139009863138199,0.09746700525283813,0.002861066721379757,0.06694895774126053
3.4775948524475098,-0.1668955534696579,0.07305257022380829,-0.04139009863138199,0.09784847497940063,0.002861066721379757,0.06771191209554672
3.4976882934570312,-0.1676585078239441,0.07267109304666519,-0.04100862145423889,0.09822995215654373,0.002861066721379757,0.06809338182210922
3.5177550315856934,-0.1680399775505066,0.071908138692379,-0.04100862145423889,0.09937438368797302,0.002861066721379757,0.06847485899925232
3.5378265380859375,-0.1680399775505066,0.0722896158695221,-0.04100862145423889,0.10051880776882172,0.002861066721379757,0.06847485899925232
3.557879686355591,-0.16918440163135529,0.0715266615152359,-0.04100862145423889,0.10090028494596481,0.002861066721379757,0.06885633617639542
3.577955484390259,-0.16994735598564148,0.0711451917886734,-0.040627144277095795,0.10128175467252731,0.0036240178160369396,0.06885633617639542
3.5981385707855225,-0.17071031033992767,0.0711451917886734,-0.040627144277095795,0.10128175467252731,0.0032425422687083483,0.06923781335353851
3.6181557178497314,-0.17185473442077637,0.0711451917886734,-0.040627144277095795,0.10166323184967041,0.0032425422687083483,0.07000076025724411
3.6386306285858154,-0.17299915850162506,0.0707637146115303,-0.040245670825242996,0.10204470902681351,0.002861066721379757,0.0715266615152359
3.6587471961975098,-0.17338064312934875,0.07000076025724411,-0.0398641936480999,0.1031891331076622,0.002861066721379757,0.0715266615152359
3.678880453109741,-0.17452506721019745,0.07000076025724411,-0.0394827201962471,0.10471503436565399,0.0032425422687083483,0.071908138692379
3.698887586593628,-0.17490653693675995,0.07000076025724411,-0.0394827201962471,0.10471503436565399,0.0032425422687083483,0.071908138692379
3.71899676322937,-0.17528800666332245,0.06923781335353851,-0.039101243019104004,0.10509651154279709,0.0032425422687083483,0.071908138692379
3.739058256149292,-0.17605096101760864,0.06885633617639542,-0.039101243019104004,0.10509651154279709,0.0032425422687083483,0.0722896158695221
3.7591428756713867,-0.17719538509845734,0.06885633617639542,-0.039101243019104004,0.10585946589708328,0.0036240178160369396,0.0722896158695221
3.779189348220825,-0.17795833945274353,0.06885633617639542,-0.039101243019104004,0.10624094307422638,0.0032425422687083483,0.07267109304666519
3.7992799282073975,-0.17872129380702972,0.06847485899925232,-0.039101243019104004,0.10700388997793198,0.0032425422687083483,0.07267109304666519
3.8193557262420654,-0.17948424816131592,0.06809338182210922,-0.038719769567251205,0.10814831405878067,0.0032425422687083483,0.07305257022380829
3.839423418045044,-0.1802472025156021,0.06809338182210922,-0.039101243019104004,0.10852979123592377,0.0032425422687083483,0.07343403995037079
3.8594882488250732,-0.1802472025156021,0.06809338182210922,-0.038719769567251205,0.10852979123592377,0.0032425422687083483,0.07381551712751389
3.879612684249878,-0.1810101419687271,0.06771191209554672,-0.038719769567251205,0.10891126841306686,0.0036240178160369396,0.07419699430465698
3.8996801376342773,-0.182154580950737,0.06733043491840363,-0.038719769567251205,0.10929274559020996,0.0036240178160369396,0.07495994865894318
3.9197537899017334,-0.182154580950737,0.06694895774126053,-0.03833829239010811,0.10967422276735306,0.004005493130534887,0.07534141838550568
3.939798355102539,-0.182917520403862,0.06618601083755493,-0.03795681521296501,0.11043716967105865,0.0036240178160369396,0.07534141838550568
3.9599194526672363,-0.1840619444847107,0.06580453366041183,-0.03757534176111221,0.11196307092905045,0.0036240178160369396,0.07572289556264877
3.97996187210083,-0.1848248988389969,0.06618601083755493,-0.03757534176111221,0.11196307092905045,0.004005493130534887,0.07610437273979187
4.000075578689575,-0.18520638346672058,0.06580453366041183,-0.03757534176111221,0.11234454810619354,0.004005493130534887,0.07610437273979187
4.020476579666138,-0.18635080754756927,0.06580453366041183,-0.037193864583969116,0.11272602528333664,0.0036240178160369396,0.07648584991693497
4.040558576583862,-0.18673227727413177,0.06542305648326874,-0.03681239113211632,0.11310750246047974,0.0036240178160369396,0.07686731964349747
4.060636758804321,-0.18711376190185547,0.06504157930612564,-0.03681239113211632,0.11387044936418533,0.004005493130534887,0.07724879682064056
4.080713748931885,-0.18749523162841797,0.06504157930612564,-0.03681239113211632,0.11463340371847153,0.004005493130534887,0.07839322835206985
4.100751638412476,-0.18863965570926666,0.06504157930612564,-0.03681239113211632,0.11577782779932022,0.004005493130534887,0.07953765243291855
4.120840072631836,-0.18940261006355286,0.06466010212898254,-0.03681239113211632,0.11577782779932022,0.004005493130534887,0.07953765243291855
4.140923500061035,-0.18978407979011536,0.06389715522527695,-0.03643091395497322,0.11615930497646332,0.004005493130534887,0.07953765243291855
4.16096830368042,-0.18978407979011536,0.06389715522527695,-0.03643091395497322,0.11654078215360641,0.004005493130534887,0.07991912961006165
4.181048154830933,-0.19092851877212524,0.06389715522527695,-0.035667963325977325,0.11692225188016891,0.004005493130534887,0.08030059933662415
4.2011425495147705,-0.19169145822525024,0.06351567804813385,-0.035667963325977325,0.11768520623445511,0.00476844422519207,0.08030059933662415
4.221209526062012,-0.19245441257953644,0.06313420087099075,-0.035667963325977325,0.1192111074924469,0.00476844422519207,0.08030059933662415
4.241287708282471,-0.19359883666038513,0.06313420087099075,-0.03528648987412453,0.1199740618467331,0.004386968910694122,0.08106355369091034
4.2617926597595215,-0.19436179101467133,0.06275273114442825,-0.03528648987412453,0.1199740618467331,0.004386968910694122,0.08182650804519653
4.281892776489258,-0.19474326074123383,0.06275273114442825,-0.03528648987412453,0.1203555315732956,0.004386968910694122,0.08258945494890213
4.301977157592773,-0.1958876997232437,0.06198977679014206,-0.03490501269698143,0.12073700875043869,0.004386968910694122,0.08258945494890213
4.322033882141113,-0.1966506391763687,0.06160829961299896,-0.03452353551983833,0.12188144028186798,0.004386968910694122,0.08297093212604523
4.342193841934204,-0.1966506391763687,0.06160829961299896,-0.03452353551983833,0.12264438718557358,0.00476844422519207,0.08297093212604523
4.362298011779785,-0.1966506391763687,0.061226826161146164,-0.03452353551983833,0.12340734153985977,0.00476844422519207,0.08335240930318832
4.382369041442871,-0.1970321238040924,0.06084534898400307,-0.03452353551983833,0.12340734153985977,0.00476844422519207,0.08335240930318832
4.402445077896118,-0.1977950781583786,0.06084534898400307,-0.03452353551983833,0.12378881871700287,0.00476844422519207,0.08335240930318832
4.422495365142822,-0.1989395022392273,0.06084534898400307,-0.03376058489084244,0.12417028844356537,0.00476844422519207,0.08373387902975082
4.442588567733765,-0.1993209719657898,0.06046387553215027,-0.03337911143898964,0.12417028844356537,0.005149920005351305,0.08373387902975082
4.462709665298462,-0.200083926320076,0.06046387553215027,-0.03337911143898964,0.12493324279785156,0.005149920005351305,0.08411535620689392
4.482763767242432,-0.20122835040092468,0.05970092490315437,-0.03337911143898964,0.12607766687870026,0.005149920005351305,0.08449683338403702
4.502825975418091,-0.20199130475521088,0.05893797054886818,-0.03337911143898964,0.12722209095954895,0.005149920005351305,0.08564125746488571
4.5229339599609375,-0.20199130475521088,0.05893797054886818,-0.03337911143898964,0.12722209095954895,0.005149920005351305,0.086785688996315
4.543001174926758,-0.20237277448177338,0.05893797054886818,-0.03337911143898964,0.12760357558727264,0.005531395319849253,0.0871671661734581
4.563068866729736,-0.20389868319034576,0.05893797054886818,-0.03299763426184654,0.12798504531383514,0.005912871100008488,0.0871671661734581
4.583116292953491,-0.20389868319034576,0.05893797054886818,-0.032616160809993744,0.12836651504039764,0.006294346414506435,0.0875486359000206
4.603211402893066,-0.20389868319034576,0.05855649709701538,-0.032616160809993744,0.12951095402240753,0.005912871100008488,0.0879301130771637
4.623276472091675,-0.20466163754463196,0.057793546468019485,-0.032616160809993744,0.13065537810325623,0.005912871100008488,0.0879301130771637
4.643380165100098,-0.20504310727119446,0.05741206929087639,-0.032616160809993744,0.13065537810325623,0.006294346414506435,0.08869306743144989
4.663415431976318,-0.20580606162548065,0.05741206929087639,-0.03223468363285065,0.13103684782981873,0.006294346414506435,0.08869306743144989
4.683502435684204,-0.20656901597976685,0.05703059583902359,-0.03185320645570755,0.13103684782981873,0.006294346414506435,0.08983749151229858
4.703589200973511,-0.20733195543289185,0.05664911866188049,-0.03147173300385475,0.13141833245754242,0.006294346414506435,0.09098191559314728
4.7236597537994385,-0.20809490978717804,0.05664911866188049,-0.03147173300385475,0.13179980218410492,0.006294346414506435,0.09098191559314728
4.743837356567383,-0.20923933386802673,0.05664911866188049,-0.03147173300385475,0.13218127191066742,0.006294346414506435,0.09098191559314728
4.764019012451172,-0.21000228822231293,0.0558861680328846,-0.031090257689356804,0.1329442262649536,0.006294346414506435,0.09136339277029037
4.784031867980957,-0.21076524257659912,0.0555046908557415,-0.031090257689356804,0.1340886503458023,0.00667582219466567,0.09136339277029037
4.804107666015625,-0.21114671230316162,0.0555046908557415,-0.030708782374858856,0.134470134973526,0.00667582219466567,0.09174486994743347
4.824548244476318,-0.21114671230316162,0.0555046908557415,-0.030708782374858856,0.1348516047000885,0.00667582219466567,0.09174486994743347
4.844630718231201,-0.21190966665744781,0.054741740226745605,-0.03032730519771576,0.1356145590543747,0.00667582219466567,0.09212634712457657
4.864700078964233,-0.212672621011734,0.05436026677489281,-0.02994582988321781,0.1359960287809372,0.007057297509163618,0.09212634712457657
4.884786128997803,-0.2134355753660202,0.05397878959774971,-0.029564354568719864,0.1367589831352234,0.007057297509163618,0.09250781685113907
4.904842376708984,-0.2141985148191452,0.05359731614589691,-0.029564354568719864,0.13752193748950958,0.007057297509163618,0.09327077120542526
4.92495059967041,-0.2145799994468689,0.05359731614589691,-0.029182879254221916,0.13828489184379578,0.007057297509163618,0.09403372555971146
4.945058822631836,-0.2157244235277176,0.05359731614589691,-0.029182879254221916,0.13828489184379578,0.007057297509163618,0.09479667246341705
4.9651453495025635,-0.21648737788200378,0.05359731614589691,-0.02880140393972397,0.13866636157035828,0.007057297509163618,0.09517814964056015
4.9852423667907715,-0.21686884760856628,0.053215838968753815,-0.02880140393972397,0.13904783129692078,0.007057297509163618,0.09517814964056015
5.005419015884399,-0.21763180196285248,0.05245288833975792,-0.02841992862522602,0.13904783129692078,0.007057297509163618,0.09517814964056015
5.02545428276062,-0.21839475631713867,0.05245288833975792,-0.02841992862522602,0.13981078565120697,0.007438773289322853,0.09555962681770325
5.045496940612793,-0.21839475631713867,0.051689937710762024,-0.02841992862522602,0.14057374000549316,0.007438773289322853,0.09555962681770325
5.065727949142456,-0.21877622604370117,0.051689937710762024,-0.02841992862522602,0.14209964871406555,0.007438773289322853,0.09632257372140884
5.085811138153076,-0.21953918039798737,0.051689937710762024,-0.028038453310728073,0.14209964871406555,0.007057297509163618,0.09822995215654373
5.105993032455444,-0.22068360447883606,0.05130846053361893,-0.02727550081908703,0.14286258816719055,0.0078202486038208,0.09822995215654373
5.126018047332764,-0.22106507420539856,0.05092698708176613,-0.02689402550458908,0.14324407279491425,0.0078202486038208,0.09822995215654373
5.146060466766357,-0.22182802855968475,0.05054550990462303,-0.026512550190091133,0.14400701224803925,0.0078202486038208,0.09822995215654373
5.16617751121521,-0.22259098291397095,0.05054550990462303,-0.026512550190091133,0.14553292095661163,0.0078202486038208,0.09861142933368683
5.186237096786499,-0.22297245264053345,0.050164032727479935,-0.026512550190091133,0.14591439068317413,0.0078202486038208,0.09861142933368683
5.206341505050659,-0.22335393726825714,0.049782559275627136,-0.026512550190091133,0.14629587531089783,0.0078202486038208,0.09861142933368683
5.226629018783569,-0.22373540699481964,0.04940108209848404,-0.026512550190091133,0.14667734503746033,0.0078202486038208,0.09899290651082993
5.246711492538452,-0.22411687672138214,0.04940108209848404,-0.026131074875593185,0.14705882966518402,0.0078202486038208,0.09899290651082993
5.266796827316284,-0.22487983107566833,0.04901960864663124,-0.026131074875593185,0.14782176911830902,0.0078202486038208,0.09899290651082993
5.2868664264678955,-0.22602425515651703,0.048638131469488144,-0.026131074875593185,0.1489662081003189,0.008201723918318748,0.09899290651082993
5.307048797607422,-0.22640573978424072,0.048638131469488144,-0.02536812424659729,0.1497291475534439,0.008201723918318748,0.09937438368797302
5.327136754989624,-0.22678720951080322,0.048256658017635345,-0.02536812424659729,0.1501106321811676,0.008201723918318748,0.09975585341453552
5.347196817398071,-0.22793163359165192,0.048256658017635345,-0.024986648932099342,0.1501106321811676,0.008201723918318748,0.10013733059167862
5.367257833480835,-0.2283131182193756,0.04749370738863945,-0.024605173617601395,0.1508735716342926,0.00858320016413927,0.10051880776882172
5.387308597564697,-0.2286945879459381,0.04711223021149635,-0.024605173617601395,0.1516365259885788,0.008964675478637218,0.10090028494596481
5.407408952713013,-0.2294575423002243,0.046730753034353256,-0.024605173617601395,0.152399480342865,0.00858320016413927,0.10128175467252731
5.427483320236206,-0.2302204966545105,0.04634927958250046,-0.024223696440458298,0.15316243469715118,0.008964675478637218,0.10166323184967041
5.447541952133179,-0.2309834510087967,0.04634927958250046,-0.024223696440458298,0.15354390442371368,0.008964675478637218,0.10204470902681351
5.467638731002808,-0.2309834510087967,0.04634927958250046,-0.024223696440458298,0.15392538905143738,0.008964675478637218,0.1024261862039566
5.4877331256866455,-0.2313649207353592,0.04634927958250046,-0.024223696440458298,0.15392538905143738,0.008964675478637218,0.1024261862039566
5.507806301116943,-0.23250934481620789,0.04596780240535736,-0.02384222112596035,0.15468832850456238,0.009346150793135166,0.1028076633810997
5.527860641479492,-0.23327229917049408,0.045204851776361465,-0.023460745811462402,0.15506981313228607,0.009727626107633114,0.1028076633810997
5.548081874847412,-0.23327229917049408,0.04444190114736557,-0.023079270496964455,0.15621423721313477,0.009346150793135166,0.1031891331076622
5.56813383102417,-0.23365376889705658,0.04444190114736557,-0.023079270496964455,0.15697719156742096,0.009346150793135166,0.10433356463909149
5.5881993770599365,-0.23441672325134277,0.04444190114736557,-0.022697795182466507,0.15697719156742096,0.009727626107633114,0.10547798871994019
5.608261346817017,-0.23479819297790527,0.04444190114736557,-0.02231631986796856,0.15735866129398346,0.009727626107633114,0.10585946589708328
5.6283345222473145,-0.23517967760562897,0.04406042397022247,-0.02231631986796856,0.15774014592170715,0.010109102353453636,0.10624094307422638
5.648401737213135,-0.23594263195991516,0.04329747334122658,-0.02231631986796856,0.15812161564826965,0.010109102353453636,0.10624094307422638
5.6684815883636475,-0.23670557141304016,0.04329747334122658,-0.02193484455347061,0.15888457000255585,0.010109102353453636,0.10624094307422638
5.688539981842041,-0.23785001039505005,0.04291599988937378,-0.02193484455347061,0.16002899408340454,0.010109102353453636,0.10662241280078888
5.708608865737915,-0.23861294984817505,0.04253452271223068,-0.021553369238972664,0.16079194843769073,0.010109102353453636,0.10700388997793198
5.728682994842529,-0.23937590420246124,0.042153049260377884,-0.021171892061829567,0.16079194843769073,0.010109102353453636,0.10738536715507507
5.748764514923096,-0.23975738883018494,0.042153049260377884,-0.021171892061829567,0.16155488789081573,0.010109102353453636,0.10776684433221817
5.768839359283447,-0.24052032828330994,0.04139009863138199,-0.02079041674733162,0.16155488789081573,0.010490577667951584,0.10814831405878067
5.788916349411011,-0.24052032828330994,0.04139009863138199,-0.02079041674733162,0.16231784224510193,0.010490577667951584,0.10891126841306686
5.808980941772461,-0.24090181291103363,0.04100862145423889,-0.02040894143283367,0.16346226632595062,0.010490577667951584,0.10929274559020996
5.829040050506592,-0.24128328263759613,0.04100862145423889,-0.02040894143283367,0.16422522068023682,0.010490577667951584,0.10967422276735306
5.8491294384002686,-0.24280919134616852,0.040245670825242996,-0.020027466118335724,0.1646067053079605,0.010872052982449532,0.10967422276735306
5.869243621826172,-0.24357213079929352,0.040245670825242996,-0.020027466118335724,0.164988175034523,0.010872052982449532,0.11005569249391556
5.889349699020386,-0.24357213079929352,0.0398641936480999,-0.020027466118335724,0.1653696447610855,0.010872052982449532,0.11005569249391556
5.909393310546875,-0.2447165697813034,0.0394827201962471,-0.019645990803837776,0.1661325991153717,0.010872052982449532,0.11043716967105865
5.929439306259155,-0.2454795092344284,0.0394827201962471,-0.01926451548933983,0.1672770231962204,0.010872052982449532,0.11043716967105865
5.94954252243042,-0.2458609938621521,0.039101243019104004,-0.01888304017484188,0.1680399775505066,0.01125352829694748,0.11081864684820175
5.9696044921875,-0.2458609938621521,0.039101243019104004,-0.01888304017484188,0.1684214472770691,0.01125352829694748,0.11120012402534485
5.989678382873535,-0.2470054179430008,0.039101243019104004,-0.018501564860343933,0.16880293190479279,0.01125352829694748,0.11234454810619354
6.0097174644470215,-0.247768372297287,0.03833829239010811,-0.018501564860343933,0.16918440163135529,0.01125352829694748,0.11348897218704224
6.029806613922119,-0.247768372297287,0.03757534176111221,-0.018120087683200836,0.16994735598564148,0.010872052982449532,0.11387044936418533
6.049874305725098,-0.247768372297287,0.037193864583969116,-0.018120087683200836,0.17185473442077637,0.010872052982449532,0.11425192654132843
6.069922208786011,-0.2481498420238495,0.037193864583969116,-0.018120087683200836,0.17223620414733887,0.01125352829694748,0.11463340371847153
6.089988470077515,-0.248531311750412,0.037193864583969116,-0.018120087683200836,0.17223620414733887,0.01125352829694748,0.11577782779932022
6.11009669303894,-0.24929426610469818,0.03681239113211632,-0.01735713705420494,0.17261768877506256,0.011635004542768002,0.11654078215360641
6.130181789398193,-0.2500572204589844,0.03604944050312042,-0.016975661739706993,0.17338064312934875,0.011635004542768002,0.11692225188016891
6.150241374969482,-0.2508201599121094,0.03604944050312042,-0.016975661739706993,0.17376211285591125,0.011635004542768002,0.11692225188016891
6.170327425003052,-0.25158312916755676,0.035667963325977325,-0.016975661739706993,0.17566949129104614,0.01125352829694748,0.11730372905731201
6.190414905548096,-0.25234606862068176,0.03528648987412453,-0.016594186425209045,0.17566949129104614,0.01125352829694748,0.11768520623445511
6.210452079772949,-0.25272753834724426,0.03490501269698143,-0.016212711110711098,0.17605096101760864,0.011635004542768002,0.11768520623445511
6.230543613433838,-0.25349050760269165,0.03452353551983833,-0.016212711110711098,0.17643244564533234,0.011635004542768002,0.11768520623445511
6.250622272491455,-0.25425344705581665,0.034142062067985535,-0.01583123579621315,0.17681391537189484,0.01201647985726595,0.11768520623445511
6.270752906799316,-0.25501641631126404,0.034142062067985535,-0.015449759550392628,0.17719538509845734,0.01201647985726595,0.11768520623445511
6.290812015533447,-0.25501641631126404,0.03376058489084244,-0.01506828423589468,0.17833982408046722,0.011635004542768002,0.1180666834115982
6.310857057571411,-0.25539788603782654,0.03299763426184654,-0.014686808921396732,0.17948424816131592,0.011635004542768002,0.1184481605887413
6.330923318862915,-0.25539788603782654,0.03299763426184654,-0.01430533267557621,0.17986571788787842,0.01201647985726595,0.1188296303153038
6.351013898849487,-0.25654229521751404,0.03299763426184654,-0.013923857361078262,0.1802472025156021,0.012397955171763897,0.1199740618467331
6.371129035949707,-0.2573052644729614,0.03223468363285065,-0.013923857361078262,0.1810101419687271,0.012779430486261845,0.1203555315732956
6.391157865524292,-0.2580682039260864,0.03223468363285065,-0.013923857361078262,0.1817730963230133,0.012779430486261845,0.1203555315732956
6.411253452301025,-0.2584496736526489,0.03223468363285065,-0.013542382046580315,0.1825360506772995,0.012397955171763897,0.12073700875043869
6.43132472038269,-0.2595941126346588,0.03185320645570755,-0.013160906732082367,0.182917520403862,0.012397955171763897,0.12111848592758179
6.451398611068726,-0.2599755823612213,0.031090257689356804,-0.012779430486261845,0.1832990050315857,0.012397955171763897,0.12111848592758179
6.471437931060791,-0.2599755823612213,0.031090257689356804,-0.012397955171763897,0.1832990050315857,0.012397955171763897,0.12149996310472488
6.491536378860474,-0.2603570520877838,0.031090257689356804,-0.01201647985726595,0.1836804747581482,0.012397955171763897,0.12188144028186798
6.511611461639404,-0.2603570520877838,0.030708782374858856,-0.01201647985726595,0.1840619444847107,0.012779430486261845,0.12226291000843048
6.531667470932007,-0.2611200213432312,0.02994582988321781,-0.01201647985726595,0.1848248988389969,0.013923857361078262,0.12264438718557358
6.55180549621582,-0.2618829607963562,0.02994582988321781,-0.011635004542768002,0.18558785319328308,0.013923857361078262,0.12340734153985977
6.571894407272339,-0.2622644305229187,0.029564354568719864,-0.011635004542768002,0.18711376190185547,0.013923857361078262,0.12417028844356537
6.591965436935425,-0.2622644305229187,0.02880140393972397,-0.011635004542768002,0.18749523162841797,0.013923857361078262,0.12417028844356537
6.612010717391968,-0.2626459002494812,0.02880140393972397,-0.01125352829694748,0.18749523162841797,0.013923857361078262,0.12417028844356537
6.632365942001343,-0.2634088695049286,0.02841992862522602,-0.010872052982449532,0.18825818598270416,0.013923857361078262,0.12455176562070847
6.65248441696167,-0.2641718089580536,0.028038453310728073,-0.010490577667951584,0.18978407979011536,0.01430533267557621,0.12455176562070847
6.672546863555908,-0.2653162479400635,0.027656977996230125,-0.010490577667951584,0.19054703414440155,0.014686808921396732,0.12455176562070847
6.692599058151245,-0.2660791873931885,0.027656977996230125,-0.010109102353453636,0.19054703414440155,0.014686808921396732,0.12493324279785156
6.712720155715942,-0.266460657119751,0.02689402550458908,-0.009727626107633114,0.19092851877212524,0.014686808921396732,0.12493324279785156
6.732794284820557,-0.266460657119751,0.02689402550458908,-0.009727626107633114,0.19130998849868774,0.014686808921396732,0.12531471252441406
6.752975702285767,-0.26722362637519836,0.02689402550458908,-0.009727626107633114,0.19169145822525024,0.014686808921396732,0.12531471252441406
6.773056745529175,-0.26798656582832336,0.025749599561095238,-0.009346150793135166,0.19207294285297394,0.01506828423589468,0.12569619715213776
6.793120622634888,-0.26836803555488586,0.025749599561095238,-0.008964675478637218,0.19321736693382263,0.01583123579621315,0.12569619715213776
6.813177108764648,-0.26874953508377075,0.025749599561095238,-0.00858320016413927,0.19398032128810883,0.01583123579621315,0.12645913660526276
6.833261966705322,-0.26951247453689575,0.02536812424659729,-0.008201723918318748,0.19436179101467133,0.01583123579621315,0.12684062123298645
6.853304386138916,-0.26951247453689575,0.024986648932099342,-0.0078202486038208,0.19474326074123383,0.01583123579621315,0.12722209095954895
6.873406171798706,-0.26989394426345825,0.024605173617601395,-0.0078202486038208,0.19550621509552002,0.01583123579621315,0.12760357558727264
6.893466234207153,-0.27065691351890564,0.024605173617601395,-0.0078202486038208,0.1966506391763687,0.01583123579621315,0.12798504531383514
6.913579940795898,-0.27141985297203064,0.024605173617601395,-0.007438773289322853,0.1977950781583786,0.016212711110711098,0.12798504531383514
6.93362832069397,-0.27180132269859314,0.02384222112596035,-0.007438773289322853,0.1981765478849411,0.016212711110711098,0.12836651504039764
6.953724145889282,-0.27218279242515564,0.023460745811462402,-0.007057297509163618,0.1985580176115036,0.016212711110711098,0.12874799966812134
6.973799705505371,-0.2725642919540405,0.022697795182466507,-0.00667582219466567,0.1989395022392273,0.016212711110711098,0.12874799966812134
6.9938719272613525,-0.273708701133728,0.022697795182466507,-0.00667582219466567,0.1993209719657898,0.01735713705420494,0.12912946939468384
7.013951301574707,-0.2744716703891754,0.022697795182466507,-0.006294346414506435,0.200083926320076,0.01735713705420494,0.12912946939468384
7.034041166305542,-0.2744716703891754,0.02231631986796856,-0.006294346414506435,0.20160982012748718,0.016975661739706993,0.12951095402240753
7.054113149642944,-0.2748531401157379,0.02193484455347061,-0.005912871100008488,0.20199130475521088,0.016975661739706993,0.13065537810325623
7.074174165725708,-0.2756160795688629,0.021553369238972664,-0.005912871100008488,0.20237277448177338,0.01735713705420494,0.13179980218410492
7.094254970550537,-0.2763790488243103,0.02079041674733162,-0.005531395319849253,0.20275425910949707,0.01773861236870289,0.13218127191066742
7.114323854446411,-0.2767605185508728,0.02040894143283367,-0.005531395319849253,0.20351719856262207,0.01773861236870289,0.13218127191066742
7.134396314620972,-0.2767605185508728,0.02079041674733162,-0.005149920005351305,0.20504310727119446,0.01773861236870289,0.1325627565383911
7.154486894607544,-0.2771419882774353,0.02040894143283367,-0.004386968910694122,0.20542457699775696,0.01773861236870289,0.1329442262649536
7.174577474594116,-0.2779049277305603,0.020027466118335724,-0.004386968910694122,0.20580606162548065,0.018120087683200836,0.1329442262649536
7.194665193557739,-0.2786678969860077,0.019645990803837776,-0.004386968910694122,0.20618753135204315,0.018501564860343933,0.1333257108926773
7.214743375778198,-0.2786678969860077,0.01926451548933983,-0.004386968910694122,0.20656901597976685,0.018501564860343933,0.1337071806192398
7.2348151206970215,-0.2790493667125702,0.018501564860343933,-0.004005493130534887,0.20695048570632935,0.018120087683200836,0.134470134973526
7.254886627197266,-0.2798123061656952,0.018501564860343933,-0.004005493130534887,0.20847637951374054,0.018120087683200836,0.1356145590543747
7.274903059005737,-0.2805752754211426,0.018501564860343933,-0.0036240178160369396,0.20923933386802673,0.018501564860343933,0.1356145590543747
7.29505467414856,-0.2809567451477051,0.01773861236870289,-0.0036240178160369396,0.20923933386802673,0.018120087683200836,0.1356145590543747
7.3150835037231445,-0.2813382148742676,0.01735713705420494,-0.0032425422687083483,0.20962081849575043,0.018501564860343933,0.1356145590543747
7.335186243057251,-0.2817196846008301,0.01735713705420494,-0.0032425422687083483,0.21000228822231293,0.018501564860343933,0.1359960287809372
7.355275869369507,-0.2821011543273926,0.01735713705420494,-0.0024795911740511656,0.21038375794887543,0.018501564860343933,0.1359960287809372
7.375626802444458,-0.28286412358283997,0.016594186425209045,-0.0024795911740511656,0.21114671230316162,0.018501564860343933,0.1359960287809372
7.395749568939209,-0.28324559330940247,0.016212711110711098,-0.0020981156267225742,0.21190966665744781,0.018501564860343933,0.1363775134086609
7.4158899784088135,-0.28362706303596497,0.016212711110711098,-0.0020981156267225742,0.212672621011734,0.018501564860343933,0.1363775134086609
7.435937404632568,-0.28400853276252747,0.015449759550392628,-0.001716639962978661,0.2130540907382965,0.018501564860343933,0.1371404528617859
7.455977916717529,-0.28400853276252747,0.015449759550392628,-0.001716639962978661,0.2138170450925827,0.018501564860343933,0.1371404528617859
7.476061582565308,-0.28439003229141235,0.015449759550392628,-0.0013351644156500697,0.2138170450925827,0.018501564860343933,0.13828489184379578
7.496168375015259,-0.28477150201797485,0.01506828423589468,-0.0013351644156500697,0.2145799994468689,0.01888304017484188,0.13981078565120697
7.516205072402954,-0.28553444147109985,0.01430533267557621,-0.0009536888683214784,0.2161058932542801,0.01926451548933983,0.13981078565120697
7.536263704299927,-0.28591591119766235,0.01430533267557621,-0.00019073777366429567,0.21648737788200378,0.01888304017484188,0.14019227027893066
7.556380987167358,-0.28629741072654724,0.013923857361078262,-0.00019073777366429567,0.21686884760856628,0.018501564860343933,0.14057374000549316
7.576467990875244,-0.28667888045310974,0.013160906732082367,0.00019073777366429567,0.21725031733512878,0.018501564860343933,0.14133669435977936
7.596586465835571,-0.28706035017967224,0.013160906732082367,0.000572213320992887,0.21763180196285248,0.01888304017484188,0.14248111844062805
7.616671323776245,-0.28820478916168213,0.013160906732082367,0.000572213320992887,0.21801327168941498,0.01926451548933983,0.14248111844062805
7.636770486831665,-0.28896772861480713,0.012397955171763897,0.000572213320992887,0.21839475631713867,0.019645990803837776,0.14286258816719055
7.656909227371216,-0.28896772861480713,0.01201647985726595,0.0009536888683214784,0.21953918039798737,0.01926451548933983,0.14286258816719055
7.676965236663818,-0.28896772861480713,0.01201647985726595,0.001716639962978661,0.22030213475227356,0.01888304017484188,0.14324407279491425
7.697048902511597,-0.290112167596817,0.01125352829694748,0.0020981156267225742,0.22068360447883606,0.01888304017484188,0.14324407279491425
7.717134952545166,-0.290875107049942,0.01125352829694748,0.0024795911740511656,0.22106507420539856,0.019645990803837776,0.14324407279491425
7.73723292350769,-0.2912565767765045,0.010872052982449532,0.002861066721379757,0.22144655883312225,0.019645990803837776,0.14324407279491425
7.757367134094238,-0.290875107049942,0.010872052982449532,0.002861066721379757,0.22182802855968475,0.019645990803837776,0.14362554252147675
7.7775044441223145,-0.2912565767765045,0.010109102353453636,0.002861066721379757,0.22297245264053345,0.019645990803837776,0.14362554252147675
7.797587633132935,-0.2912565767765045,0.010109102353453636,0.002861066721379757,0.22411687672138214,0.01926451548933983,0.14362554252147675
7.817655086517334,-0.291638046503067,0.010109102353453636,0.002861066721379757,0.22449836134910583,0.01926451548933983,0.14400701224803925
7.837848663330078,-0.2924010157585144,0.009727626107633114,0.0032425422687083483,0.22487983107566833,0.020027466118335724,0.14400701224803925
7.85782790184021,-0.2931639552116394,0.008964675478637218,0.004005493130534887,0.22526131570339203,0.02040894143283367,0.14400701224803925
7.8779072761535645,-0.2935454249382019,0.008964675478637218,0.004386968910694122,0.22602425515651703,0.02079041674733162,0.14438849687576294
7.897993564605713,-0.2935454249382019,0.008201723918318748,0.00476844422519207,0.22755016386508942,0.02040894143283367,0.14476996660232544
7.918086528778076,-0.2939268946647644,0.008201723918318748,0.00476844422519207,0.22793163359165192,0.02040894143283367,0.14591439068317413
7.938111066818237,-0.2943083941936493,0.008201723918318748,0.00476844422519207,0.2283131182193756,0.02079041674733162,0.14667734503746033
7.958191871643066,-0.2954528033733368,0.0078202486038208,0.00476844422519207,0.2286945879459381,0.021171892061829567,0.14667734503746033
7.978333234786987,-0.2958342730998993,0.007438773289322853,0.005149920005351305,0.2286945879459381,0.021553369238972664,0.14667734503746033
7.998356580734253,-0.2965972423553467,0.007057297509163618,0.005149920005351305,0.2294575423002243,0.021553369238972664,0.14705882966518402
8.018959760665894,-0.2965972423553467,0.007057297509163618,0.005912871100008488,0.230601966381073,0.021171892061829567,0.14705882966518402
8.039117574691772,-0.2965972423553467,0.006294346414506435,0.005912871100008488,0.2317463904619217,0.021171892061829567,0.14744029939174652
8.05916714668274,-0.2973601818084717,0.005912871100008488,0.00667582219466567,0.23212787508964539,0.02193484455347061,0.14782176911830902
8.079241037368774,-0.29850462079048157,0.005912871100008488,0.00667582219466567,0.23212787508964539,0.02231631986796856,0.14782176911830902
8.099306344985962,-0.29850462079048157,0.005912871100008488,0.00667582219466567,0.23250934481620789,0.022697795182466507,0.14820325374603271
8.119395971298218,-0.29850462079048157,0.005531395319849253,0.007057297509163618,0.23327229917049408,0.02231631986796856,0.14858472347259521
8.139523029327393,-0.29850462079048157,0.00476844422519207,0.007057297509163618,0.23441672325134277,0.02193484455347061,0.1493476778268814
8.159607648849487,-0.29850462079048157,0.00476844422519207,0.007057297509163618,0.23517967760562897,0.02231631986796856,0.1504921019077301
8.179737329483032,-0.29888609051704407,0.004005493130534887,0.007438773289322853,0.23556114733219147,0.02231631986796856,0.1504921019077301
8.19988203048706,-0.29964902997016907,0.0036240178160369396,0.008201723918318748,0.23556114733219147,0.022697795182466507,0.1504921019077301
8.219889402389526,-0.30041199922561646,0.0036240178160369396,0.008201723918318748,0.23594263195991516,0.023079270496964455,0.1504921019077301
8.239952325820923,-0.30079346895217896,0.0036240178160369396,0.008201723918318748,0.23632410168647766,0.023079270496964455,0.1508735716342926
8.259969472885132,-0.30079346895217896,0.0032425422687083483,0.00858320016413927,0.23670557141304016,0.023079270496964455,0.1508735716342926
8.280070543289185,-0.30155640840530396,0.002861066721379757,0.00858320016413927,0.23785001039505005,0.023079270496964455,0.1508735716342926
8.300117015838623,-0.30193790793418884,0.0024795911740511656,0.008964675478637218,0.23861294984817505,0.023079270496964455,0.1508735716342926
8.320197343826294,-0.30270084738731384,0.0024795911740511656,0.008964675478637218,0.23937590420246124,0.02384222112596035,0.1512550562620163
8.3402578830719,-0.30308231711387634,0.001716639962978661,0.009346150793135166,0.23975738883018494,0.024223696440458298,0.1512550562620163
8.360360383987427,-0.30346378684043884,0.001716639962978661,0.009346150793135166,0.24013885855674744,0.024223696440458298,0.1512550562620163
8.380510568618774,-0.30384528636932373,0.0013351644156500697,0.010109102353453636,0.24052032828330994,0.02384222112596035,0.1516365259885788
8.4005708694458,-0.30384528636932373,0.000572213320992887,0.010109102353453636,0.24166475236415863,0.02384222112596035,0.1516365259885788
8.420595169067383,-0.30384528636932373,0.0009536888683214784,0.010109102353453636,0.24280919134616852,0.024223696440458298,0.1520180106163025
8.44066047668457,-0.30498969554901123,0.0009536888683214784,0.010490577667951584,0.24319066107273102,0.024605173617601395,0.152399480342865
8.460731744766235,-0.3057526648044586,0.000572213320992887,0.010490577667951584,0.24319066107273102,0.024986648932099342,0.1527809500694275
8.480810165405273,-0.3057526648044586,-0.00019073777366429567,0.010872052982449532,0.24357213079929352,0.024986648932099342,0.15354390442371368
8.500885963439941,-0.3057526648044586,-0.000572213320992887,0.01125352829694748,0.2439536154270172,0.024605173617601395,0.15392538905143738
8.520985841751099,-0.3061341345310211,-0.0009536888683214784,0.01125352829694748,0.2447165697813034,0.024605173617601395,0.15392538905143738
8.541059017181396,-0.3061341345310211,-0.0013351644156500697,0.01125352829694748,0.2450980395078659,0.024986648932099342,0.15430685877799988
8.561110258102417,-0.3061341345310211,-0.0013351644156500697,0.01201647985726595,0.2462424635887146,0.024986648932099342,0.15430685877799988
8.581163167953491,-0.3065156042575836,-0.0013351644156500697,0.01201647985726595,0.2470054179430008,0.02536812424659729,0.15468832850456238
8.601244926452637,-0.3072785437107086,-0.001716639962978661,0.012397955171763897,0.2470054179430008,0.02536812424659729,0.15468832850456238
8.621395111083984,-0.308041512966156,-0.0024795911740511656,0.012779430486261845,0.247768372297287,0.025749599561095238,0.15506981313228607
8.64140510559082,-0.308041512966156,-0.0024795911740511656,0.012779430486261845,0.248531311750412,0.02536812424659729,0.15545128285884857
8.66201138496399,-0.3084229826927185,-0.0032425422687083483,0.012779430486261845,0.24967575073242188,0.024986648932099342,0.15583276748657227
8.682122945785522,-0.3091859221458435,-0.0036240178160369396,0.013160906732082367,0.2504386901855469,0.02536812424659729,0.15659570693969727
8.70218563079834,-0.3091859221458435,-0.0036240178160369396,0.013160906732082367,0.2504386901855469,0.025749599561095238,0.15774014592170715
8.722267389297485,-0.309567391872406,-0.0036240178160369396,0.013160906732082367,0.25120165944099426,0.025749599561095238,0.15850308537483215
8.742301940917969,-0.3099488914012909,-0.004386968910694122,0.013923857361078262,0.25120165944099426,0.025749599561095238,0.15850308537483215
8.762391567230225,-0.3103303611278534,-0.004386968910694122,0.01430533267557621,0.25196459889411926,0.02536812424659729,0.15850308537483215
8.78246521949768,-0.3110933005809784,-0.00476844422519207,0.01430533267557621,0.25234606862068176,0.02536812424659729,0.15888457000255585
8.802534818649292,-0.3110933005809784,-0.00476844422519207,0.014686808921396732,0.25349050760269165,0.025749599561095238,0.15888457000255585
8.822584390640259,-0.3110933005809784,-0.005531395319849253,0.01506828423589468,0.25425344705581665,0.025749599561095238,0.15888457000255585
8.842641830444336,-0.3118562698364258,-0.005912871100008488,0.01506828423589468,0.25463491678237915,0.025749599561095238,0.15926603972911835
8.862742185592651,-0.3122377395629883,-0.00667582219466567,0.015449759550392628,0.25463491678237915,0.025749599561095238,0.15926603972911835
8.882807970046997,-0.3130006790161133,-0.00667582219466567,0.015449759550392628,0.25501641631126404,0.025749599561095238,0.16002899408340454
8.902974128723145,-0.3130006790161133,-0.00667582219466567,0.015449759550392628,0.25577935576438904,0.025749599561095238,0.16079194843769073
8.923054456710815,-0.3130006790161133,-0.00667582219466567,0.01583123579621315,0.2573052644729614,0.025749599561095238,0.16155488789081573
8.943201303482056,-0.3133821487426758,-0.007438773289322853,0.016594186425209045,0.2580682039260864,0.025749599561095238,0.16155488789081573
8.963261127471924,-0.3133821487426758,-0.0078202486038208,0.016975661739706993,0.2580682039260864,0.026131074875593185,0.16155488789081573
8.983319520950317,-0.3133821487426758,-0.0078202486038208,0.01735713705420494,0.2584496736526489,0.026512550190091133,0.16193637251853943
9.003384828567505,-0.31376364827156067,-0.008201723918318748,0.01735713705420494,0.2588311731815338,0.026131074875593185,0.16193637251853943
9.023525953292847,-0.31452658772468567,-0.00858320016413927,0.01735713705420494,0.2592126429080963,0.026131074875593185,0.16193637251853943
9.04353928565979,-0.31528952717781067,-0.008964675478637218,0.01773861236870289,0.2595941126346588,0.026131074875593185,0.16193637251853943
9.063610792160034,-0.31528952717781067,-0.009346150793135166,0.018120087683200836,0.2611200213432312,0.025749599561095238,0.16231784224510193
9.083660364151001,-0.31528952717781067,-0.009727626107633114,0.018501564860343933,0.2615014910697937,0.026131074875593185,0.16269932687282562
9.10374665260315,-0.31567102670669556,-0.009727626107633114,0.01926451548933983,0.2618829607963562,0.026131074875593185,0.16269932687282562
9.123811721801758,-0.31643396615982056,-0.010109102353453636,0.01926451548933983,0.2622644305229187,0.026512550190091133,0.16269932687282562
9.143884897232056,-0.31643396615982056,-0.010872052982449532,0.01926451548933983,0.2622644305229187,0.026512550190091133,0.16269932687282562
9.163931608200073,-0.31681543588638306,-0.010872052982449532,0.01926451548933983,0.2626459002494812,0.026512550190091133,0.16269932687282562
9.18401312828064,-0.31757840514183044,-0.010872052982449532,0.01926451548933983,0.2630273997783661,0.026131074875593185,0.16308079659938812
9.20411229133606,-0.31834134459495544,-0.011635004542768002,0.019645990803837776,0.2641718089580536,0.026512550190091133,0.16384375095367432
9.224182367324829,-0.31834134459495544,-0.011635004542768002,0.020027466118335724,0.264934778213501,0.026512550190091133,0.1657511293888092
9.244218826293945,-0.31834134459495544,-0.011635004542768002,0.02040894143283367,0.265697717666626,0.026131074875593185,0.1661325991153717
9.264330387115479,-0.31872281432151794,-0.01201647985726595,0.02079041674733162,0.265697717666626,0.026512550190091133,0.1661325991153717
9.284401893615723,-0.31910428404808044,-0.01201647985726595,0.021171892061829567,0.2660791873931885,0.02689402550458908,0.1661325991153717
9.304478883743286,-0.31948578357696533,-0.012779430486261845,0.021553369238972664,0.266460657119751,0.02727550081908703,0.1665140837430954
9.32455039024353,-0.32024872303009033,-0.013542382046580315,0.021553369238972664,0.26684215664863586,0.02727550081908703,0.1665140837430954
9.344705820083618,-0.32024872303009033,-0.013923857361078262,0.021553369238972664,0.26760509610176086,0.026512550190091133,0.1672770231962204
9.364878416061401,-0.32024872303009033,-0.013923857361078262,0.02193484455347061,0.26874953508377075,0.026512550190091133,0.1684214472770691
9.384921550750732,-0.32063019275665283,-0.013923857361078262,0.02193484455347061,0.26951247453689575,0.026512550190091133,0.16918440163135529
9.404963731765747,-0.32063019275665283,-0.013923857361078262,0.022697795182466507,0.26951247453689575,0.02689402550458908,0.16880293190479279
9.425133466720581,-0.32063019275665283,-0.01430533267557621,0.023079270496964455,0.26989394426345825,0.027656977996230125,0.16880293190479279
9.44520354270935,-0.3213931620121002,-0.01506828423589468,0.023460745811462402,0.27027541399002075,0.027656977996230125,0.16918440163135529
9.46526551246643,-0.3217746317386627,-0.015449759550392628,0.023460745811462402,0.27103838324546814,0.027656977996230125,0.16918440163135529
9.48540997505188,-0.3225375711917877,-0.016212711110711098,0.023460745811462402,0.27180132269859314,0.02727550081908703,0.16918440163135529
9.505405902862549,-0.3225375711917877,-0.016212711110711098,0.023460745811462402,0.2725642919540405,0.02727550081908703,0.16956588625907898
9.525503873825073,-0.3229190409183502,-0.016212711110711098,0.02384222112596035,0.272945761680603,0.02727550081908703,0.16956588625907898
9.545586109161377,-0.3229190409183502,-0.016212711110711098,0.024605173617601395,0.2733272314071655,0.02727550081908703,0.16956588625907898
9.565616846084595,-0.3236820101737976,-0.016975661739706993,0.024605173617601395,0.2733272314071655,0.028038453310728073,0.16956588625907898
9.585695028305054,-0.3240634799003601,-0.016975661739706993,0.024986648932099342,0.2740901708602905,0.02841992862522602,0.16994735598564148
9.60581111907959,-0.3244449496269226,-0.01735713705420494,0.024986648932099342,0.2744716703891754,0.02841992862522602,0.16994735598564148
9.625910758972168,-0.3248264193534851,-0.018120087683200836,0.024986648932099342,0.2756160795688629,0.028038453310728073,0.16994735598564148
9.645934343338013,-0.3248264193534851,-0.018120087683200836,0.02536812424659729,0.2771419882774353,0.028038453310728073,0.17032882571220398
9.666049003601074,-0.3255893886089325,-0.018501564860343933,0.025749599561095238,0.2771419882774353,0.028038453310728073,0.17032882571220398
9.686089277267456,-0.325970858335495,-0.01926451548933983,0.025749599561095238,0.2775234580039978,0.02841992862522602,0.17071031033992767
9.706159830093384,-0.325970858335495,-0.01926451548933983,0.026131074875593185,0.2782863974571228,0.02841992862522602,0.17071031033992767
9.726198196411133,-0.3263523280620575,-0.01926451548933983,0.026512550190091133,0.2790493667125702,0.02841992862522602,0.17109178006649017
9.746371269226074,-0.32673379778862,-0.019645990803837776,0.02689402550458908,0.2801937758922577,0.02841992862522602,0.17223620414733887
9.766418933868408,-0.3274967670440674,-0.02040894143283367,0.02689402550458908,0.2805752754211426,0.02841992862522602,0.17261768877506256
9.78650450706482,-0.3278782367706299,-0.02040894143283367,0.02727550081908703,0.2809567451477051,0.02841992862522602,0.17299915850162506
9.806624412536621,-0.3278782367706299,-0.021171892061829567,0.02727550081908703,0.2813382148742676,0.02841992862522602,0.17299915850162506
9.826692342758179,-0.3278782367706299,-0.021553369238972664,0.027656977996230125,0.2817196846008301,0.02841992862522602,0.17338064312934875
9.846734046936035,-0.3278782367706299,-0.021553369238972664,0.027656977996230125,0.28248265385627747,0.02880140393972397,0.17338064312934875
9.866883039474487,-0.3278782367706299,-0.02193484455347061,0.028038453310728073,0.28362706303596497,0.029182879254221916,0.17338064312934875
9.886975765228271,-0.3286411762237549,-0.02231631986796856,0.02880140393972397,0.28439003229141235,0.029182879254221916,0.17376211285591125
9.90706181526184,-0.3290226459503174,-0.022697795182466507,0.02880140393972397,0.28477150201797485,0.029182879254221916,0.17376211285591125
9.927108764648438,-0.32978561520576477,-0.023079270496964455,0.029182879254221916,0.28515297174453735,0.029182879254221916,0.17414358258247375
9.947176694869995,-0.33016708493232727,-0.023460745811462402,0.029564354568719864,0.28591591119766235,0.029182879254221916,0.17490653693675995
9.967248916625977,-0.33016708493232727,-0.023460745811462402,0.02994582988321781,0.28706035017967224,0.029182879254221916,0.17605096101760864
9.987321615219116,-0.33016708493232727,-0.023460745811462402,0.02994582988321781,0.28782328963279724,0.029182879254221916,0.17643244564533234
10.00744366645813,-0.33054855465888977,-0.02384222112596035,0.02994582988321781,0.28782328963279724,0.02994582988321781,0.17643244564533234
10.027552127838135,-0.33093002438545227,-0.024605173617601395,0.030708782374858856,0.28820478916168213,0.02994582988321781,0.17643244564533234
10.047637462615967,-0.33093002438545227,-0.024605173617601395,0.031090257689356804,0.28858625888824463,0.029564354568719864,0.17681391537189484
10.067896842956543,-0.33207446336746216,-0.024986648932099342,0.031090257689356804,0.28896772861480713,0.02994582988321781,0.17681391537189484
10.08803939819336,-0.33207446336746216,-0.025749599561095238,0.03147173300385475,0.28896772861480713,0.02994582988321781,0.17681391537189484
10.108126163482666,-0.33245593309402466,-0.025749599561095238,0.03185320645570755,0.28973066806793213,0.02994582988321781,0.17681391537189484
10.128166913986206,-0.33283740282058716,-0.026512550190091133,0.03185320645570755,0.290875107049942,0.02994582988321781,0.17719538509845734
10.148267269134521,-0.33321890234947205,-0.026512550190091133,0.03185320645570755,0.291638046503067,0.02994582988321781,0.17719538509845734
10.16843581199646,-0.33321890234947205,-0.026512550190091133,0.03185320645570755,0.2920195460319519,0.02994582988321781,0.17757686972618103
10.188506841659546,-0.33436331152915955,-0.02689402550458908,0.03223468363285065,0.2924010157585144,0.03032730519771576,0.17757686972618103
10.208758115768433,-0.33512628078460693,-0.027656977996230125,0.03299763426184654,0.2927824854850769,0.030708782374858856,0.17757686972618103
10.228870153427124,-0.33512628078460693,-0.02841992862522602,0.03337911143898964,0.2939268946647644,0.030708782374858856,0.17757686972618103
10.248968362808228,-0.33512628078460693,-0.02841992862522602,0.03376058489084244,0.2950713336467743,0.030708782374858856,0.17795833945274353
10.269004106521606,-0.33512628078460693,-0.02841992862522602,0.03376058489084244,0.2950713336467743,0.030708782374858856,0.17833982408046722
10.289011478424072,-0.33512628078460693,-0.02880140393972397,0.034142062067985535,0.2954528033733368,0.030708782374858856,0.17833982408046722
10.309112548828125,-0.33512628078460693,-0.02880140393972397,0.034142062067985535,0.2954528033733368,0.03223468363285065,0.17872129380702972
10.32917594909668,-0.33512628078460693,-0.029564354568719864,0.034142062067985535,0.2958342730998993,0.03223468363285065,0.17910276353359222
10.349231958389282,-0.33550775051116943,-0.029564354568719864,0.03490501269698143,0.2962157726287842,0.03223468363285065,0.17986571788787842
10.36931586265564,-0.33627068996429443,-0.03032730519771576,0.035667963325977325,0.2969787120819092,0.032616160809993744,0.1802472025156021
10.389410495758057,-0.33665215969085693,-0.030708782374858856,0.03604944050312042,0.2973601818084717,0.032616160809993744,0.1806286722421646
10.40947699546814,-0.3370336592197418,-0.030708782374858856,0.03604944050312042,0.29850462079048157,0.032616160809993744,0.1806286722421646
10.429542064666748,-0.3370336592197418,-0.030708782374858856,0.03604944050312042,0.29926756024360657,0.032616160809993744,0.1810101419687271
10.449622392654419,-0.3374151289463043,-0.031090257689356804,0.03604944050312042,0.29964902997016907,0.032616160809993744,0.1810101419687271
10.469688892364502,-0.3374151289463043,-0.03185320645570755,0.03681239113211632,0.30003052949905396,0.032616160809993744,0.1810101419687271
10.48973536491394,-0.3374151289463043,-0.03185320645570755,0.037193864583969116,0.30041199922561646,0.032616160809993744,0.1813916265964508
10.509879112243652,-0.3381780683994293,-0.03223468363285065,0.037193864583969116,0.30117493867874146,0.03337911143898964,0.1813916265964508
10.529969215393066,-0.3389410376548767,-0.032616160809993744,0.03757534176111221,0.30231937766075134,0.03337911143898964,0.1817730963230133
10.550093412399292,-0.3393225073814392,-0.03299763426184654,0.03795681521296501,0.30308231711387634,0.03337911143898964,0.1825360506772995
10.57011604309082,-0.3393225073814392,-0.03299763426184654,0.03795681521296501,0.30308231711387634,0.03299763426184654,0.1844434291124344
10.590160846710205,-0.3393225073814392,-0.03376058489084244,0.03795681521296501,0.30384528636932373,0.03299763426184654,0.1848248988389969
10.610255002975464,-0.3397039771080017,-0.03376058489084244,0.03833829239010811,0.30384528636932373,0.03337911143898964,0.1848248988389969
10.630369186401367,-0.3400854468345642,-0.03376058489084244,0.038719769567251205,0.30422675609588623,0.03337911143898964,0.1848248988389969
10.650431871414185,-0.3400854468345642,-0.034142062067985535,0.039101243019104004,0.30498969554901123,0.03376058489084244,0.1848248988389969
10.670485734939575,-0.3404669165611267,-0.03452353551983833,0.039101243019104004,0.3065156042575836,0.03376058489084244,0.1848248988389969
10.690585613250732,-0.3408484160900116,-0.03490501269698143,0.0394827201962471,0.3068970739841461,0.03376058489084244,0.18520638346672058
10.710652589797974,-0.3412298858165741,-0.035667963325977325,0.0394827201962471,0.3072785437107086,0.03337911143898964,0.18520638346672058
10.730741500854492,-0.3416113555431366,-0.03604944050312042,0.0394827201962471,0.3076600432395935,0.03337911143898964,0.18520638346672058
10.75078535079956,-0.3419928252696991,-0.03604944050312042,0.0398641936480999,0.3084229826927185,0.03337911143898964,0.18558785319328308
10.770892858505249,-0.3423742949962616,-0.03604944050312042,0.040245670825242996,0.3091859221458435,0.03376058489084244,0.18596932291984558
10.790952920913696,-0.3423742949962616,-0.03681239113211632,0.040245670825242996,0.3099488914012909,0.034142062067985535,0.18635080754756927
10.811033010482788,-0.3423742949962616,-0.03681239113211632,0.04100862145423889,0.3103303611278534,0.03376058489084244,0.18711376190185547
10.83112359046936,-0.3423742949962616,-0.037193864583969116,0.04100862145423889,0.3107118308544159,0.03376058489084244,0.18749523162841797
10.851296186447144,-0.3423742949962616,-0.03757534176111221,0.04139009863138199,0.3107118308544159,0.03376058489084244,0.18749523162841797
10.87135910987854,-0.3427557647228241,-0.03795681521296501,0.04139009863138199,0.3110933005809784,0.03376058489084244,0.18749523162841797
10.891388416290283,-0.343137264251709,-0.03833829239010811,0.04177157208323479,0.3114747703075409,0.03452353551983833,0.18749523162841797
10.911472797393799,-0.3435187339782715,-0.038719769567251205,0.04177157208323479,0.3122377395629883,0.034142062067985535,0.18787670135498047
10.931545495986938,-0.3442816734313965,-0.039101243019104004,0.042153049260377884,0.3130006790161133,0.034142062067985535,0.18787670135498047
10.951618671417236,-0.3442816734313965,-0.039101243019104004,0.042153049260377884,0.31376364827156067,0.034142062067985535,0.18787670135498047
10.971666097640991,-0.3442816734313965,-0.039101243019104004,0.04253452271223068,0.31414511799812317,0.03452353551983833,0.18787670135498047
10.991772174835205,-0.344663143157959,-0.0398641936480999,0.04329747334122658,0.31452658772468567,0.034142062067985535,0.18825818598270416
11.011815071105957,-0.34542611241340637,-0.040245670825242996,0.043678950518369675,0.31452658772468567,0.03490501269698143,0.18825818598270416
11.031864404678345,-0.34542611241340637,-0.040627144277095795,0.043678950518369675,0.31490805745124817,0.03490501269698143,0.18825818598270416
11.051924467086792,-0.34580758213996887,-0.04100862145423889,0.04406042397022247,0.31528952717781067,0.03490501269698143,0.18825818598270416
11.072005987167358,-0.34657052159309387,-0.04100862145423889,0.04444190114736557,0.31605249643325806,0.03528648987412453,0.18863965570926666
11.092085599899292,-0.34657052159309387,-0.04100862145423889,0.04444190114736557,0.31681543588638306,0.03490501269698143,0.18863965570926666
11.112159252166748,-0.34657052159309387,-0.04100862145423889,0.04444190114736557,0.31757840514183044,0.03490501269698143,0.18940261006355286
11.132197380065918,-0.34695202112197876,-0.042153049260377884,0.04444190114736557,0.31795987486839294,0.03490501269698143,0.18978407979011536
11.152298927307129,-0.34733349084854126,-0.04291599988937378,0.045204851776361465,0.31795987486839294,0.03528648987412453,0.19016556441783905
11.172399997711182,-0.34733349084854126,-0.04329747334122658,0.04558632895350456,0.31834134459495544,0.03528648987412453,0.19169145822525024
11.192464590072632,-0.34733349084854126,-0.04329747334122658,0.04596780240535736,0.31872281432151794,0.03528648987412453,0.19207294285297394
11.212523221969604,-0.34771496057510376,-0.04329747334122658,0.04634927958250046,0.31948578357696533,0.03528648987412453,0.19207294285297394
11.232614755630493,-0.34809643030166626,-0.043678950518369675,0.04634927958250046,0.32024872303009033,0.03528648987412453,0.19207294285297394
11.252726554870605,-0.34847790002822876,-0.04406042397022247,0.04634927958250046,0.3213931620121002,0.035667963325977325,0.19245441257953644
11.272812128067017,-0.34924086928367615,-0.04444190114736557,0.04634927958250046,0.3213931620121002,0.035667963325977325,0.19245441257953644
11.292850255966187,-0.34924086928367615,-0.04482337832450867,0.04634927958250046,0.3217746317386627,0.035667963325977325,0.19283588230609894
11.313009023666382,-0.34924086928367615,-0.045204851776361465,0.046730753034353256,0.3217746317386627,0.035667963325977325,0.19359883666038513
11.333128213882446,-0.34924086928367615,-0.04558632895350456,0.04749370738863945,0.3221561014652252,0.035667963325977325,0.19474326074123383
11.35324478149414,-0.34962233901023865,-0.04596780240535736,0.04749370738863945,0.3225375711917877,0.035667963325977325,0.19474326074123383
11.373282670974731,-0.34962233901023865,-0.04596780240535736,0.04787518084049225,0.3229190409183502,0.03643091395497322,0.19474326074123383
11.393328666687012,-0.34962233901023865,-0.04634927958250046,0.048256658017635345,0.3240634799003601,0.03643091395497322,0.19512474536895752
11.413400411605835,-0.34962233901023865,-0.04634927958250046,0.048256658017635345,0.3248264193534851,0.03643091395497322,0.19512474536895752
11.433498859405518,-0.35000380873680115,-0.04711223021149635,0.048256658017635345,0.32520791888237,0.03643091395497322,0.19512474536895752
11.453554391860962,-0.35038527846336365,-0.04711223021149635,0.048638131469488144,0.3255893886089325,0.03681239113211632,0.19512474536895752
11.473634958267212,-0.35114824771881104,-0.04749370738863945,0.048638131469488144,0.325970858335495,0.03643091395497322,0.19550621509552002
11.493709564208984,-0.35152971744537354,-0.04749370738863945,0.04901960864663124,0.3263523280620575,0.03681239113211632,0.19550621509552002
11.513911962509155,-0.35152971744537354,-0.048256658017635345,0.04940108209848404,0.32673379778862,0.03643091395497322,0.19550621509552002
11.533921241760254,-0.35152971744537354,-0.048256658017635345,0.050164032727479935,0.3282597064971924,0.03643091395497322,0.19550621509552002
11.55408263206482,-0.35152971744537354,-0.048256658017635345,0.05054550990462303,0.32940414547920227,0.03681239113211632,0.1958876997232437
11.574183702468872,-0.35191118717193604,-0.048256658017635345,0.05054550990462303,0.32940414547920227,0.037193864583969116,0.1958876997232437
11.59425139427185,-0.35229265689849854,-0.04901960864663124,0.05054550990462303,0.32978561520576477,0.03757534176111221,0.1958876997232437
11.614341974258423,-0.3526741564273834,-0.04940108209848404,0.05054550990462303,0.33016708493232727,0.03757534176111221,0.1958876997232437
11.634440660476685,-0.3534370958805084,-0.050164032727479935,0.05092698708176613,0.33093002438545227,0.03757534176111221,0.1958876997232437
11.65457010269165,-0.3534370958805084,-0.05054550990462303,0.051689937710762024,0.33169299364089966,0.03681239113211632,0.1962691694498062
11.674595832824707,-0.3534370958805084,-0.05130846053361893,0.05207141116261482,0.33169299364089966,0.037193864583969116,0.1962691694498062
11.694777250289917,-0.3534370958805084,-0.05130846053361893,0.05245288833975792,0.33169299364089966,0.037193864583969116,0.1962691694498062
11.71483039855957,-0.3530556261539459,-0.051689937710762024,0.05245288833975792,0.33207446336746216,0.03757534176111221,0.1962691694498062
11.734970808029175,-0.35229265689849854,-0.05245288833975792,0.05283436179161072,0.33207446336746216,0.03757534176111221,0.1962691694498062
11.75505542755127,-0.35114824771881104,-0.05283436179161072,0.05283436179161072,0.33207446336746216,0.03757534176111221,0.1962691694498062
11.775099992752075,-0.35114824771881104,-0.053215838968753815,0.05359731614589691,0.33207446336746216,0.03757534176111221,0.1962691694498062
11.795170783996582,-0.35076677799224854,-0.05359731614589691,0.05397878959774971,0.33207446336746216,0.03795681521296501,0.1958876997232437
11.815251350402832,-0.35000380873680115,-0.05397878959774971,0.05436026677489281,0.33207446336746216,0.03833829239010811,0.1958876997232437
11.83536434173584,-0.34924086928367615,-0.05436026677489281,0.054741740226745605,0.33207446336746216,0.03795681521296501,0.1958876997232437
11.855613708496094,-0.34924086928367615,-0.054741740226745605,0.054741740226745605,0.33207446336746216,0.03833829239010811,0.1958876997232437
11.875700235366821,-0.34847790002822876,-0.0555046908557415,0.054741740226745605,0.33207446336746216,0.03833829239010811,0.1958876997232437
11.895758390426636,-0.34809643030166626,-0.0555046908557415,0.0551232174038887,0.33207446336746216,0.038719769567251205,0.1958876997232437
11.915852546691895,-0.34733349084854126,-0.0558861680328846,0.0558861680328846,0.33207446336746216,0.038719769567251205,0.1958876997232437
11.935940265655518,-0.34657052159309387,-0.056267641484737396,0.056267641484737396,0.33207446336746216,0.039101243019104004,0.1958876997232437
11.956002235412598,-0.34618905186653137,-0.05664911866188049,0.05664911866188049,0.33207446336746216,0.0394827201962471,0.1958876997232437
11.976099491119385,-0.34618905186653137,-0.05741206929087639,0.05664911866188049,0.33207446336746216,0.040245670825242996,0.19550621509552002
11.996133804321289,-0.34580758213996887,-0.057793546468019485,0.05664911866188049,0.33207446336746216,0.040627144277095795,0.19550621509552002
12.01621389389038,-0.3442816734313965,-0.05855649709701538,0.05664911866188049,0.33207446336746216,0.040627144277095795,0.19550621509552002
12.036285638809204,-0.343900203704834,-0.059319447726011276,0.05741206929087639,0.33207446336746216,0.04100862145423889,0.19550621509552002
12.056357622146606,-0.343900203704834,-0.05970092490315437,0.057793546468019485,0.33207446336746216,0.04100862145423889,0.19550621509552002
12.076446294784546,-0.3427557647228241,-0.05970092490315437,0.058175019919872284,0.33207446336746216,0.04139009863138199,0.19550621509552002
12.096519470214844,-0.3419928252696991,-0.06008239835500717,0.05855649709701538,0.33207446336746216,0.04100862145423889,0.19512474536895752
12.116631984710693,-0.3419928252696991,-0.06046387553215027,0.05855649709701538,0.33207446336746216,0.04139009863138199,0.19512474536895752
12.136703491210938,-0.3419928252696991,-0.06084534898400307,0.05893797054886818,0.33207446336746216,0.042153049260377884,0.19512474536895752
12.156778335571289,-0.3412298858165741,-0.06160829961299896,0.05893797054886818,0.33207446336746216,0.04177157208323479,0.19512474536895752
12.17689037322998,-0.3404669165611267,-0.06160829961299896,0.05893797054886818,0.33207446336746216,0.04177157208323479,0.19512474536895752
12.196937799453735,-0.3400854468345642,-0.06198977679014206,0.05970092490315437,0.33207446336746216,0.04139009863138199,0.19512474536895752
12.217077016830444,-0.3397039771080017,-0.06275273114442825,0.06008239835500717,0.33207446336746216,0.04177157208323479,0.19474326074123383
12.237117290496826,-0.3389410376548767,-0.06275273114442825,0.06046387553215027,0.33207446336746216,0.042153049260377884,0.19436179101467133
12.25718355178833,-0.3381780683994293,-0.06313420087099075,0.06084534898400307,0.33207446336746216,0.04253452271223068,0.19436179101467133
12.27729868888855,-0.3377965986728668,-0.06351567804813385,0.06084534898400307,0.33207446336746216,0.04253452271223068,0.19436179101467133
12.297400951385498,-0.33665215969085693,-0.06389715522527695,0.061226826161146164,0.33207446336746216,0.04253452271223068,0.19436179101467133
12.317437171936035,-0.33665215969085693,-0.06466010212898254,0.061226826161146164,0.33207446336746216,0.04253452271223068,0.19398032128810883
12.337477684020996,-0.33550775051116943,-0.06466010212898254,0.06160829961299896,0.33207446336746216,0.04253452271223068,0.19398032128810883
12.357555627822876,-0.33474478125572205,-0.06504157930612564,0.06237125024199486,0.33207446336746216,0.04253452271223068,0.19321736693382263
12.37767481803894,-0.33474478125572205,-0.06504157930612564,0.06275273114442825,0.33207446336746216,0.04291599988937378,0.19321736693382263
12.397696733474731,-0.33474478125572205,-0.06580453366041183,0.06275273114442825,0.33207446336746216,0.04406042397022247,0.19245441257953644
12.41777229309082,-0.33436331152915955,-0.06618601083755493,0.06313420087099075,0.33207446336746216,0.04444190114736557,0.19207294285297394
12.43790888786316,-0.33360037207603455,-0.06694895774126053,0.06313420087099075,0.33207446336746216,0.04406042397022247,0.19207294285297394
12.457968473434448,-0.33360037207603455,-0.06694895774126053,0.06351567804813385,0.33207446336746216,0.04406042397022247,0.19207294285297394
12.47802209854126,-0.33321890234947205,-0.06771191209554672,0.06389715522527695,0.33207446336746216,0.043678950518369675,0.19169145822525024
12.498125076293945,-0.33245593309402466,-0.06771191209554672,0.06427863240242004,0.33207446336746216,0.04444190114736557,0.19130998849868774
12.518215656280518,-0.33169299364089966,-0.06809338182210922,0.06504157930612564,0.33207446336746216,0.04444190114736557,0.19130998849868774
12.53827166557312,-0.33169299364089966,-0.06885633617639542,0.06504157930612564,0.33207446336746216,0.04482337832450867,0.19092851877212524
12.558324575424194,-0.33016708493232727,-0.06923781335353851,0.06542305648326874,0.33207446336746216,0.04482337832450867,0.19092851877212524
12.578404426574707,-0.32978561520576477,-0.06961929053068161,0.06542305648326874,0.33207446336746216,0.04444190114736557,0.19092851877212524
12.598498821258545,-0.32940414547920227,-0.07000076025724411,0.06618601083755493,0.33207446336746216,0.04482337832450867,0.19054703414440155
12.618600606918335,-0.32940414547920227,-0.07038223743438721,0.06618601083755493,0.33207446336746216,0.04482337832450867,0.19016556441783905
12.638648748397827,-0.3282597064971924,-0.07000076025724411,0.06656748056411743,0.33207446336746216,0.04482337832450867,0.18978407979011536
12.658759593963623,-0.3274967670440674,-0.0711451917886734,0.06694895774126053,0.33207446336746216,0.04482337832450867,0.18940261006355286
12.67886734008789,-0.3274967670440674,-0.071908138692379,0.06733043491840363,0.33207446336746216,0.045204851776361465,0.18902114033699036
12.698979377746582,-0.3274967670440674,-0.071908138692379,0.06733043491840363,0.33207446336746216,0.045204851776361465,0.18825818598270416
12.718963146209717,-0.32673379778862,-0.0722896158695221,0.06733043491840363,0.33207446336746216,0.045204851776361465,0.18825818598270416
12.739052295684814,-0.325970858335495,-0.0722896158695221,0.06809338182210922,0.33207446336746216,0.045204851776361465,0.18825818598270416
12.759134292602539,-0.3255893886089325,-0.07305257022380829,0.06847485899925232,0.33207446336746216,0.045204851776361465,0.18825818598270416
12.779196500778198,-0.32520791888237,-0.07305257022380829,0.06885633617639542,0.33207446336746216,0.045204851776361465,0.18787670135498047
12.79926609992981,-0.3244449496269226,-0.07381551712751389,0.06885633617639542,0.33207446336746216,0.04558632895350456,0.18787670135498047
12.819361925125122,-0.3240634799003601,-0.07419699430465698,0.06885633617639542,0.33207446336746216,0.04558632895350456,0.18787670135498047
12.839421272277832,-0.3233005404472351,-0.07534141838550568,0.06923781335353851,0.33207446336746216,0.045204851776361465,0.18787670135498047
12.859512567520142,-0.3225375711917877,-0.07534141838550568,0.06923781335353851,0.33207446336746216,0.04558632895350456,0.18787670135498047
12.879568099975586,-0.3221561014652252,-0.07534141838550568,0.06961929053068161,0.33207446336746216,0.04558632895350456,0.18749523162841797
12.899814367294312,-0.3221561014652252,-0.07610437273979187,0.07000076025724411,0.33207446336746216,0.04558632895350456,0.18749523162841797
12.919889688491821,-0.3213931620121002,-0.07648584991693497,0.07038223743438721,0.33207446336746216,0.04634927958250046,0.18749523162841797
12.939998388290405,-0.32024872303009033,-0.07686731964349747,0.07038223743438721,0.33207446336746216,0.04596780240535736,0.18749523162841797
12.960052490234375,-0.32024872303009033,-0.07724879682064056,0.07038223743438721,0.33207446336746216,0.04596780240535736,0.18711376190185547
12.980148077011108,-0.32024872303009033,-0.07724879682064056,0.0707637146115303,0.33207446336746216,0.046730753034353256,0.18711376190185547
13.000222444534302,-0.31948578357696533,-0.07801175117492676,0.0711451917886734,0.33207446336746216,0.04711223021149635,0.18673227727413177
13.020320177078247,-0.31910428404808044,-0.07839322835206985,0.0715266615152359,0.33207446336746216,0.04711223021149635,0.18673227727413177
13.04041314125061,-0.31910428404808044,-0.07915617525577545,0.071908138692379,0.33207446336746216,0.04711223021149635,0.18673227727413177
13.060465574264526,-0.31834134459495544,-0.07915617525577545,0.0722896158695221,0.33207446336746216,0.046730753034353256,0.18635080754756927
13.080542087554932,-0.31719690561294556,-0.07953765243291855,0.07267109304666519,0.33207446336746216,0.046730753034353256,0.18596932291984558
13.100590705871582,-0.31719690561294556,-0.07953765243291855,0.07267109304666519,0.33169299364089966,0.04749370738863945,0.18558785319328308
13.120635747909546,-0.31681543588638306,-0.08030059933662415,0.07305257022380829,0.33207446336746216,0.048256658017635345,0.18520638346672058
13.140769720077515,-0.31567102670669556,-0.08068207651376724,0.07343403995037079,0.33207446336746216,0.048256658017635345,0.1848248988389969
13.16082501411438,-0.31490805745124817,-0.08144503086805344,0.07343403995037079,0.33207446336746216,0.048256658017635345,0.1848248988389969
13.18093204498291,-0.31490805745124817,-0.08144503086805344,0.07343403995037079,0.33207446336746216,0.048256658017635345,0.1844434291124344
13.200929403305054,-0.31490805745124817,-0.08144503086805344,0.07343403995037079,0.33207446336746216,0.048256658017635345,0.1844434291124344
13.221017360687256,-0.3130006790161133,-0.08220797777175903,0.07381551712751389,0.33207446336746216,0.04787518084049225,0.1840619444847107
13.241085529327393,-0.3130006790161133,-0.08258945494890213,0.07457847148180008,0.33207446336746216,0.048638131469488144,0.1840619444847107
13.261171102523804,-0.3130006790161133,-0.08297093212604523,0.07457847148180008,0.33169299364089966,0.04901960864663124,0.1836804747581482
13.281213283538818,-0.3126192092895508,-0.08335240930318832,0.07495994865894318,0.33207446336746216,0.04940108209848404,0.1836804747581482
13.301297426223755,-0.3118562698364258,-0.08373387902975082,0.07534141838550568,0.33207446336746216,0.04901960864663124,0.1832990050315857
13.32138991355896,-0.3114747703075409,-0.08449683338403702,0.07534141838550568,0.33207446336746216,0.04901960864663124,0.1832990050315857
13.341455459594727,-0.3107118308544159,-0.08449683338403702,0.07572289556264877,0.33207446336746216,0.04901960864663124,0.182917520403862
13.361510515213013,-0.3103303611278534,-0.08449683338403702,0.07572289556264877,0.33207446336746216,0.04901960864663124,0.182917520403862
13.38161325454712,-0.3099488914012909,-0.08525978773832321,0.07572289556264877,0.33207446336746216,0.04940108209848404,0.1825360506772995
13.401658773422241,-0.3091859221458435,-0.08564125746488571,0.07648584991693497,0.33207446336746216,0.04940108209848404,0.1817730963230133
13.421746969223022,-0.308804452419281,-0.0864042118191719,0.07686731964349747,0.33207446336746216,0.04940108209848404,0.1810101419687271
13.441789865493774,-0.308041512966156,-0.0864042118191719,0.07686731964349747,0.33207446336746216,0.04940108209848404,0.1806286722421646
13.461888313293457,-0.3076600432395935,-0.086785688996315,0.07724879682064056,0.33207446336746216,0.04901960864663124,0.1806286722421646
13.482011079788208,-0.3072785437107086,-0.086785688996315,0.07763027399778366,0.33207446336746216,0.04940108209848404,0.1806286722421646
13.502090454101562,-0.3065156042575836,-0.0875486359000206,0.07763027399778366,0.33207446336746216,0.049782559275627136,0.1802472025156021
13.52213191986084,-0.30498969554901123,-0.0875486359000206,0.07763027399778366,0.33207446336746216,0.049782559275627136,0.1802472025156021
13.54227590560913,-0.30498969554901123,-0.0879301130771637,0.07763027399778366,0.33207446336746216,0.049782559275627136,0.1802472025156021
13.562390804290771,-0.30498969554901123,-0.08869306743144989,0.07801175117492676,0.33169299364089966,0.050164032727479935,0.1802472025156021
13.582466125488281,-0.30498969554901123,-0.08869306743144989,0.07877469807863235,0.33207446336746216,0.05092698708176613,0.1802472025156021
13.602526903152466,-0.30460822582244873,-0.08945601433515549,0.07877469807863235,0.33207446336746216,0.05092698708176613,0.17986571788787842
13.622562885284424,-0.30422675609588623,-0.08983749151229858,0.07953765243291855,0.33207446336746216,0.05054550990462303,0.17986571788787842
13.642656087875366,-0.30346378684043884,-0.09021896868944168,0.07953765243291855,0.33207446336746216,0.05054550990462303,0.17948424816131592
13.662734985351562,-0.30270084738731384,-0.09098191559314728,0.07991912961006165,0.33207446336746216,0.05092698708176613,0.17948424816131592
13.682799816131592,-0.30270084738731384,-0.09098191559314728,0.07991912961006165,0.33207446336746216,0.05130846053361893,0.17910276353359222
13.70284104347229,-0.30231937766075134,-0.09174486994743347,0.07991912961006165,0.33169299364089966,0.051689937710762024,0.17872129380702972
13.722954750061035,-0.30117493867874146,-0.09174486994743347,0.08068207651376724,0.33207446336746216,0.051689937710762024,0.17833982408046722
13.74311089515686,-0.30041199922561646,-0.09212634712457657,0.08106355369091034,0.33169299364089966,0.05130846053361893,0.17795833945274353
13.76310420036316,-0.30041199922561646,-0.09250781685113907,0.08144503086805344,0.33169299364089966,0.051689937710762024,0.17757686972618103
13.783191204071045,-0.30041199922561646,-0.09288929402828217,0.08144503086805344,0.33169299364089966,0.051689937710762024,0.17719538509845734
13.803389549255371,-0.29926756024360657,-0.09365224838256836,0.08182650804519653,0.33207446336746216,0.05207141116261482,0.17719538509845734
13.823381423950195,-0.29850462079048157,-0.09403372555971146,0.08182650804519653,0.33169299364089966,0.05130846053361893,0.17681391537189484
13.843441724777222,-0.29812315106391907,-0.09403372555971146,0.08182650804519653,0.33207446336746216,0.05207141116261482,0.17681391537189484
13.863924980163574,-0.29812315106391907,-0.09441519528627396,0.08258945494890213,0.33169299364089966,0.05207141116261482,0.17643244564533234
13.884008407592773,-0.2973601818084717,-0.09517814964056015,0.08297093212604523,0.33169299364089966,0.05207141116261482,0.17643244564533234
13.904078245162964,-0.2969787120819092,-0.09555962681770325,0.08335240930318832,0.33169299364089966,0.05207141116261482,0.17643244564533234
13.924185991287231,-0.2962157726287842,-0.09594109654426575,0.08373387902975082,0.33169299364089966,0.05207141116261482,0.17605096101760864
13.944193601608276,-0.2962157726287842,-0.09632257372140884,0.08373387902975082,0.33169299364089966,0.05207141116261482,0.17643244564533234
13.964346885681152,-0.2950713336467743,-0.09708552807569504,0.08373387902975082,0.33169299364089966,0.05245288833975792,0.17605096101760864
13.984435081481934,-0.2950713336467743,-0.09708552807569504,0.08411535620689392,0.33169299364089966,0.05245288833975792,0.17605096101760864
14.004451513290405,-0.2943083941936493,-0.09708552807569504,0.08449683338403702,0.33169299364089966,0.05245288833975792,0.17605096101760864
14.024548053741455,-0.2931639552116394,-0.09822995215654373,0.08487831056118011,0.33169299364089966,0.05245288833975792,0.17566949129104614
14.044646501541138,-0.2924010157585144,-0.09861142933368683,0.08525978773832321,0.33169299364089966,0.05245288833975792,0.17566949129104614
14.06471848487854,-0.290875107049942,-0.09899290651082993,0.08525978773832321,0.33169299364089966,0.05245288833975792,0.17528800666332245
