liuyurong129/humanoid-gym/humanoid/data/actual_q_20250522-223227.csv
timestamp,joint_1,joint_2,joint_3,joint_4,joint_5,joint_6
6.747245788574219e-05,0.00019073777366429567,0.17376211285591125,-0.086785688996315,0.000572213320992887,-0.06847485899925232,-0.10509651154279709
0.02018260955810547,0.00019073777366429567,0.15316243469715118,-0.07839322835206985,0.000572213320992887,-0.06618601083755493,-0.09975585341453552
0.040195465087890625,-0.000572213320992887,0.12722209095954895,-0.06771191209554672,0.0009536888683214784,-0.056267641484737396,-0.08564125746488571
0.06024503707885742,-0.00019073777366429567,0.11158160120248795,-0.06008239835500717,0.0009536888683214784,-0.05130846053361893,-0.07724879682064056
0.08049249649047852,-0.00019073777366429567,0.10738536715507507,-0.059319447726011276,0.0009536888683214784,-0.05054550990462303,-0.07305257022380829
0.10054421424865723,-0.00019073777366429567,0.10738536715507507,-0.059319447726011276,0.0009536888683214784,-0.04787518084049225,-0.07305257022380829
0.12077832221984863,-0.00019073777366429567,0.10738536715507507,-0.05855649709701538,0.0009536888683214784,-0.04558632895350456,-0.07305257022380829
0.14078640937805176,-0.00019073777366429567,0.10662241280078888,-0.057793546468019485,0.0009536888683214784,-0.04291599988937378,-0.07267109304666519
0.16087126731872559,-0.00019073777366429567,0.10509651154279709,-0.05741206929087639,0.0009536888683214784,-0.043678950518369675,-0.071908138692379
0.180938720703125,-0.000572213320992887,0.1039520874619484,-0.057793546468019485,0.0009536888683214784,-0.04444190114736557,-0.071908138692379
0.20100736618041992,-0.00019073777366429567,0.1024261862039566,-0.057793546468019485,0.0013351644156500697,-0.045204851776361465,-0.0715266615152359
0.22110843658447266,-0.00019073777366429567,0.10013733059167862,-0.05741206929087639,0.0013351644156500697,-0.045204851776361465,-0.0711451917886734
0.24115824699401855,-0.000572213320992887,0.09975585341453552,-0.05703059583902359,0.001716639962978661,-0.04634927958250046,-0.0711451917886734
0.26123523712158203,-0.000572213320992887,0.09899290651082993,-0.05703059583902359,0.0020981156267225742,-0.04634927958250046,-0.0711451917886734
0.2813394069671631,-0.000572213320992887,0.09746700525283813,-0.05664911866188049,0.002861066721379757,-0.046730753034353256,-0.0707637146115303
0.3014717102050781,-0.0009536888683214784,0.09555962681770325,-0.056267641484737396,0.0036240178160369396,-0.046730753034353256,-0.0711451917886734
0.32156920433044434,-0.001716639962978661,0.09403372555971146,-0.0558861680328846,0.004005493130534887,-0.04634927958250046,-0.0707637146115303
0.34183311462402344,-0.0024795911740511656,0.09212634712457657,-0.0555046908557415,0.004005493130534887,-0.046730753034353256,-0.0707637146115303
0.36191534996032715,-0.002861066721379757,0.09060044586658478,-0.0555046908557415,0.004386968910694122,-0.046730753034353256,-0.0707637146115303
0.3819897174835205,-0.0024795911740511656,0.08983749151229858,-0.0555046908557415,0.00476844422519207,-0.04749370738863945,-0.0707637146115303
0.4021117687225342,-0.0032425422687083483,0.08869306743144989,-0.0555046908557415,0.005149920005351305,-0.048256658017635345,-0.0707637146115303
0.42217159271240234,-0.004386968910694122,0.086785688996315,-0.0551232174038887,0.005912871100008488,-0.048256658017635345,-0.0707637146115303
0.4422447681427002,-0.00476844422519207,0.08564125746488571,-0.0551232174038887,0.007057297509163618,-0.048638131469488144,-0.07038223743438721
0.46230387687683105,-0.005149920005351305,0.08487831056118011,-0.054741740226745605,0.007438773289322853,-0.04901960864663124,-0.07038223743438721
0.48242878913879395,-0.005531395319849253,0.08335240930318832,-0.05436026677489281,0.007438773289322853,-0.04901960864663124,-0.07038223743438721
0.5025084018707275,-0.005912871100008488,0.08220797777175903,-0.05397878959774971,0.007438773289322853,-0.04901960864663124,-0.07038223743438721
0.5225718021392822,-0.005912871100008488,0.08144503086805344,-0.05397878959774971,0.0078202486038208,-0.04940108209848404,-0.07000076025724411
0.5427901744842529,-0.00667582219466567,0.08068207651376724,-0.05359731614589691,0.0078202486038208,-0.04940108209848404,-0.07000076025724411
0.5629773139953613,-0.007438773289322853,0.07953765243291855,-0.05359731614589691,0.008201723918318748,-0.04940108209848404,-0.07000076025724411
0.5829777717590332,-0.0078202486038208,0.07763027399778366,-0.053215838968753815,0.008201723918318748,-0.04940108209848404,-0.07000076025724411
0.6030182838439941,-0.0078202486038208,0.07572289556264877,-0.053215838968753815,0.00858320016413927,-0.04940108209848404,-0.07000076025724411
0.6230795383453369,-0.0078202486038208,0.07419699430465698,-0.05359731614589691,0.009346150793135166,-0.04940108209848404,-0.06961929053068161
0.6431641578674316,-0.0078202486038208,0.07343403995037079,-0.053215838968753815,0.010109102353453636,-0.04940108209848404,-0.06961929053068161
0.6632323265075684,-0.0078202486038208,0.0722896158695221,-0.053215838968753815,0.01125352829694748,-0.049782559275627136,-0.06923781335353851
0.6832892894744873,-0.00858320016413927,0.0711451917886734,-0.053215838968753815,0.011635004542768002,-0.049782559275627136,-0.06885633617639542
0.7033708095550537,-0.009346150793135166,0.06961929053068161,-0.05245288833975792,0.011635004542768002,-0.049782559275627136,-0.06847485899925232
0.7234718799591064,-0.010109102353453636,0.06809338182210922,-0.051689937710762024,0.01201647985726595,-0.050164032727479935,-0.06771191209554672
0.7435441017150879,-0.009727626107633114,0.06771191209554672,-0.05130846053361893,0.01201647985726595,-0.05092698708176613,-0.06771191209554672
0.7638025283813477,-0.010109102353453636,0.06618601083755493,-0.05130846053361893,0.012397955171763897,-0.051689937710762024,-0.06771191209554672
0.7838883399963379,-0.010872052982449532,0.06389715522527695,-0.05130846053361893,0.012779430486261845,-0.051689937710762024,-0.06733043491840363
0.8039569854736328,-0.01125352829694748,0.06313420087099075,-0.05130846053361893,0.01430533267557621,-0.051689937710762024,-0.06733043491840363
0.8240094184875488,-0.01201647985726595,0.06275273114442825,-0.05130846053361893,0.015449759550392628,-0.051689937710762024,-0.06733043491840363
0.8441176414489746,-0.012397955171763897,0.061226826161146164,-0.05092698708176613,0.015449759550392628,-0.05207141116261482,-0.06733043491840363
0.8641786575317383,-0.012397955171763897,0.06008239835500717,-0.050164032727479935,0.01583123579621315,-0.05207141116261482,-0.06733043491840363
0.8842430114746094,-0.012779430486261845,0.05855649709701538,-0.050164032727479935,0.01583123579621315,-0.05207141116261482,-0.06733043491840363
0.904353141784668,-0.013160906732082367,0.057793546468019485,-0.049782559275627136,0.016212711110711098,-0.05207141116261482,-0.06733043491840363
0.9244403839111328,-0.013923857361078262,0.056267641484737396,-0.049782559275627136,0.016594186425209045,-0.05207141116261482,-0.06733043491840363
0.9445555210113525,-0.01430533267557621,0.0551232174038887,-0.049782559275627136,0.016975661739706993,-0.05207141116261482,-0.06733043491840363
0.9645979404449463,-0.014686808921396732,0.05436026677489281,-0.049782559275627136,0.01735713705420494,-0.05207141116261482,-0.06733043491840363
0.984825611114502,-0.014686808921396732,0.05359731614589691,-0.04940108209848404,0.018120087683200836,-0.05245288833975792,-0.06694895774126053
1.0049068927764893,-0.01506828423589468,0.05207141116261482,-0.04901960864663124,0.01888304017484188,-0.05245288833975792,-0.06694895774126053
1.0249743461608887,-0.01506828423589468,0.05054550990462303,-0.04901960864663124,0.01888304017484188,-0.05245288833975792,-0.06694895774126053
1.0450325012207031,-0.015449759550392628,0.04940108209848404,-0.048256658017635345,0.01926451548933983,-0.05245288833975792,-0.06694895774126053
1.0654215812683105,-0.016212711110711098,0.048256658017635345,-0.048256658017635345,0.01926451548933983,-0.05245288833975792,-0.06694895774126053
1.0855071544647217,-0.016975661739706993,0.04711223021149635,-0.04787518084049225,0.01926451548933983,-0.05245288833975792,-0.06694895774126053
1.1056416034698486,-0.016975661739706993,0.04634927958250046,-0.04787518084049225,0.01926451548933983,-0.05283436179161072,-0.06694895774126053
1.1256704330444336,-0.01735713705420494,0.04482337832450867,-0.04749370738863945,0.019645990803837776,-0.05283436179161072,-0.06694895774126053
1.1457839012145996,-0.018120087683200836,0.04253452271223068,-0.04749370738863945,0.020027466118335724,-0.05283436179161072,-0.06694895774126053
1.1659512519836426,-0.01888304017484188,0.04177157208323479,-0.04711223021149635,0.020027466118335724,-0.05283436179161072,-0.06656748056411743
1.1859288215637207,-0.019645990803837776,0.040245670825242996,-0.04711223021149635,0.02079041674733162,-0.05283436179161072,-0.06694895774126053
1.2060787677764893,-0.020027466118335724,0.038719769567251205,-0.046730753034353256,0.02231631986796856,-0.053215838968753815,-0.06656748056411743
1.2261247634887695,-0.02040894143283367,0.037193864583969116,-0.04596780240535736,0.022697795182466507,-0.05397878959774971,-0.06656748056411743
1.246154546737671,-0.02079041674733162,0.03643091395497322,-0.04596780240535736,0.022697795182466507,-0.05397878959774971,-0.06656748056411743
1.2662699222564697,-0.02193484455347061,0.03528648987412453,-0.04558632895350456,0.023079270496964455,-0.05397878959774971,-0.06618601083755493
1.2863349914550781,-0.02231631986796856,0.034142062067985535,-0.04558632895350456,0.023079270496964455,-0.05397878959774971,-0.06656748056411743
1.3064405918121338,-0.02193484455347061,0.03299763426184654,-0.045204851776361465,0.023460745811462402,-0.054741740226745605,-0.06618601083755493
1.3265020847320557,-0.02193484455347061,0.03185320645570755,-0.045204851776361465,0.02384222112596035,-0.0551232174038887,-0.06618601083755493
1.3466014862060547,-0.02231631986796856,0.03032730519771576,-0.04482337832450867,0.024223696440458298,-0.0558861680328846,-0.06618601083755493
1.3667585849761963,-0.02231631986796856,0.029182879254221916,-0.04444190114736557,0.024605173617601395,-0.05664911866188049,-0.06580453366041183
1.38680100440979,-0.02231631986796856,0.027656977996230125,-0.04406042397022247,0.025749599561095238,-0.05664911866188049,-0.06580453366041183
1.406944751739502,-0.023079270496964455,0.025749599561095238,-0.04406042397022247,0.026512550190091133,-0.056267641484737396,-0.06504157930612564
1.4270563125610352,-0.02384222112596035,0.024223696440458298,-0.043678950518369675,0.026512550190091133,-0.05664911866188049,-0.06427863240242004
1.44708251953125,-0.024223696440458298,0.023079270496964455,-0.04329747334122658,0.026512550190091133,-0.05664911866188049,-0.06427863240242004
1.4672064781188965,-0.024223696440458298,0.02193484455347061,-0.04329747334122658,0.026512550190091133,-0.05703059583902359,-0.06389715522527695
1.4873268604278564,-0.024986648932099342,0.02040894143283367,-0.04291599988937378,0.02689402550458908,-0.05741206929087639,-0.06389715522527695
1.5075526237487793,-0.02536812424659729,0.019645990803837776,-0.04291599988937378,0.02689402550458908,-0.058175019919872284,-0.06389715522527695
1.527536392211914,-0.026512550190091133,0.018120087683200836,-0.04291599988937378,0.02689402550458908,-0.05855649709701538,-0.06389715522527695
1.5476250648498535,-0.02689402550458908,0.01735713705420494,-0.042153049260377884,0.02727550081908703,-0.059319447726011276,-0.06351567804813385
1.5677399635314941,-0.02727550081908703,0.016212711110711098,-0.04177157208323479,0.027656977996230125,-0.059319447726011276,-0.06351567804813385
1.5877685546875,-0.02727550081908703,0.015449759550392628,-0.04139009863138199,0.027656977996230125,-0.06008239835500717,-0.06351567804813385
1.607870101928711,-0.027656977996230125,0.013542382046580315,-0.04100862145423889,0.028038453310728073,-0.05970092490315437,-0.06351567804813385
1.6279258728027344,-0.02841992862522602,0.011635004542768002,-0.040627144277095795,0.02880140393972397,-0.05970092490315437,-0.06351567804813385
1.647979736328125,-0.029182879254221916,0.010490577667951584,-0.040627144277095795,0.02994582988321781,-0.05970092490315437,-0.06351567804813385
1.6680657863616943,-0.029182879254221916,0.008964675478637218,-0.040245670825242996,0.03032730519771576,-0.05970092490315437,-0.06313420087099075
1.6884045600891113,-0.029182879254221916,0.007057297509163618,-0.0398641936480999,0.030708782374858856,-0.06008239835500717,-0.06313420087099075
1.7085096836090088,-0.029564354568719864,0.005531395319849253,-0.039101243019104004,0.030708782374858856,-0.06008239835500717,-0.06351567804813385
1.7286381721496582,-0.029564354568719864,0.00476844422519207,-0.039101243019104004,0.031090257689356804,-0.06008239835500717,-0.06313420087099075
1.7486541271209717,-0.02994582988321781,0.0032425422687083483,-0.039101243019104004,0.03147173300385475,-0.06008239835500717,-0.06313420087099075
1.7688167095184326,-0.030708782374858856,0.0013351644156500697,-0.039101243019104004,0.03223468363285065,-0.06008239835500717,-0.06313420087099075
1.7889370918273926,-0.03147173300385475,-0.00019073777366429567,-0.038719769567251205,0.03376058489084244,-0.06008239835500717,-0.06313420087099075
1.8090808391571045,-0.03147173300385475,-0.0009536888683214784,-0.038719769567251205,0.034142062067985535,-0.06008239835500717,-0.06275273114442825
1.8291809558868408,-0.03185320645570755,-0.0024795911740511656,-0.03833829239010811,0.034142062067985535,-0.06046387553215027,-0.06275273114442825
1.8493521213531494,-0.032616160809993744,-0.00476844422519207,-0.037193864583969116,0.034142062067985535,-0.06084534898400307,-0.06275273114442825
1.8694584369659424,-0.034142062067985535,-0.00667582219466567,-0.037193864583969116,0.034142062067985535,-0.06046387553215027,-0.06275273114442825
1.8895187377929688,-0.03490501269698143,-0.009346150793135166,-0.03681239113211632,0.03452353551983833,-0.06008239835500717,-0.06237125024199486
1.909604787826538,-0.035667963325977325,-0.010872052982449532,-0.03643091395497322,0.03452353551983833,-0.06084534898400307,-0.06237125024199486
1.9296798706054688,-0.03604944050312042,-0.01201647985726595,-0.03643091395497322,0.03490501269698143,-0.06084534898400307,-0.06237125024199486
1.9497411251068115,-0.03643091395497322,-0.013923857361078262,-0.03604944050312042,0.03528648987412453,-0.06160829961299896,-0.06237125024199486
1.9698219299316406,-0.03681239113211632,-0.016212711110711098,-0.035667963325977325,0.03681239113211632,-0.06198977679014206,-0.06198977679014206
1.989938497543335,-0.03681239113211632,-0.01735713705420494,-0.03490501269698143,0.037193864583969116,-0.06160829961299896,-0.06198977679014206
2.010004758834839,-0.03681239113211632,-0.018501564860343933,-0.03490501269698143,0.03757534176111221,-0.06198977679014206,-0.061226826161146164
2.030092239379883,-0.03681239113211632,-0.02040894143283367,-0.034142062067985535,0.03757534176111221,-0.06198977679014206,-0.061226826161146164
2.0501601696014404,-0.037193864583969116,-0.02231631986796856,-0.03376058489084244,0.03795681521296501,-0.06198977679014206,-0.06084534898400307
2.0702311992645264,-0.03757534176111221,-0.024223696440458298,-0.03337911143898964,0.03833829239010811,-0.06198977679014206,-0.06046387553215027
2.090456008911133,-0.038719769567251205,-0.02536812424659729,-0.03337911143898964,0.038719769567251205,-0.06198977679014206,-0.06046387553215027
2.1106395721435547,-0.039101243019104004,-0.02689402550458908,-0.03299763426184654,0.039101243019104004,-0.06275273114442825,-0.06046387553215027
2.1308066844940186,-0.0394827201962471,-0.028038453310728073,-0.032616160809993744,0.0394827201962471,-0.06351567804813385,-0.06008239835500717
2.1508536338806152,-0.040245670825242996,-0.02994582988321781,-0.032616160809993744,0.04139009863138199,-0.06389715522527695,-0.06046387553215027
2.1709437370300293,-0.04100862145423889,-0.03147173300385475,-0.03223468363285065,0.04177157208323479,-0.06351567804813385,-0.06008239835500717
2.1910791397094727,-0.04177157208323479,-0.03299763426184654,-0.03185320645570755,0.042153049260377884,-0.06427863240242004,-0.06008239835500717
2.211134195327759,-0.04177157208323479,-0.03490501269698143,-0.03147173300385475,0.04253452271223068,-0.06427863240242004,-0.06008239835500717
2.2311997413635254,-0.04177157208323479,-0.03643091395497322,-0.03147173300385475,0.04253452271223068,-0.06504157930612564,-0.06008239835500717
2.251277208328247,-0.042153049260377884,-0.03795681521296501,-0.030708782374858856,0.043678950518369675,-0.06656748056411743,-0.05970092490315437
2.271425247192383,-0.04329747334122658,-0.0394827201962471,-0.03032730519771576,0.04482337832450867,-0.06656748056411743,-0.06008239835500717
2.29154634475708,-0.04406042397022247,-0.04100862145423889,-0.02994582988321781,0.045204851776361465,-0.06694895774126053,-0.05970092490315437
2.3115484714508057,-0.04406042397022247,-0.04291599988937378,-0.029564354568719864,0.04558632895350456,-0.06771191209554672,-0.05970092490315437
2.331648826599121,-0.04406042397022247,-0.045204851776361465,-0.02880140393972397,0.04558632895350456,-0.06809338182210922,-0.05970092490315437
2.3517258167266846,-0.04444190114736557,-0.046730753034353256,-0.02841992862522602,0.04596780240535736,-0.06847485899925232,-0.05970092490315437
2.3717663288116455,-0.04444190114736557,-0.048256658017635345,-0.02841992862522602,0.04596780240535736,-0.06809338182210922,-0.059319447726011276
2.391819715499878,-0.04482337832450867,-0.04940108209848404,-0.028038453310728073,0.04634927958250046,-0.06771191209554672,-0.059319447726011276
2.4119081497192383,-0.04596780240535736,-0.05130846053361893,-0.027656977996230125,0.046730753034353256,-0.06771191209554672,-0.059319447726011276
2.432096242904663,-0.04634927958250046,-0.05397878959774971,-0.02727550081908703,0.04749370738863945,-0.06771191209554672,-0.059319447726011276
2.4520986080169678,-0.046730753034353256,-0.0558861680328846,-0.026512550190091133,0.048638131469488144,-0.06809338182210922,-0.059319447726011276
2.472175121307373,-0.04711223021149635,-0.057793546468019485,-0.026512550190091133,0.04940108209848404,-0.06809338182210922,-0.05893797054886818
2.492291212081909,-0.048256658017635345,-0.05893797054886818,-0.026131074875593185,0.04940108209848404,-0.06885633617639542,-0.05893797054886818
2.512329339981079,-0.04901960864663124,-0.06084534898400307,-0.026131074875593185,0.04940108209848404,-0.06885633617639542,-0.05893797054886818
2.532369613647461,-0.04940108209848404,-0.06313420087099075,-0.025749599561095238,0.049782559275627136,-0.06885633617639542,-0.05893797054886818
2.552462577819824,-0.04940108209848404,-0.06504157930612564,-0.024986648932099342,0.050164032727479935,-0.06885633617639542,-0.05893797054886818
2.572538375854492,-0.049782559275627136,-0.06656748056411743,-0.024223696440458298,0.05092698708176613,-0.06885633617639542,-0.05893797054886818
2.5925796031951904,-0.05054550990462303,-0.06809338182210922,-0.024223696440458298,0.05207141116261482,-0.06847485899925232,-0.05893797054886818
2.6127846240997314,-0.05130846053361893,-0.07038223743438721,-0.023460745811462402,0.05245288833975792,-0.06847485899925232,-0.05893797054886818
2.6329376697540283,-0.05130846053361893,-0.0722896158695221,-0.023079270496964455,0.05245288833975792,-0.06885633617639542,-0.05855649709701538
2.6529603004455566,-0.05130846053361893,-0.07419699430465698,-0.022697795182466507,0.05283436179161072,-0.06923781335353851,-0.05855649709701538
2.6730198860168457,-0.05130846053361893,-0.07686731964349747,-0.02231631986796856,0.05283436179161072,-0.07000076025724411,-0.05855649709701538
2.693190097808838,-0.051689937710762024,-0.07991912961006165,-0.02193484455347061,0.05283436179161072,-0.07000076025724411,-0.05855649709701538
2.713195562362671,-0.05245288833975792,-0.08182650804519653,-0.021171892061829567,0.05359731614589691,-0.07000076025724411,-0.05855649709701538
2.7332499027252197,-0.053215838968753815,-0.08373387902975082,-0.021171892061829567,0.05397878959774971,-0.07000076025724411,-0.058175019919872284
2.7534167766571045,-0.05397878959774971,-0.08602273464202881,-0.02079041674733162,0.05436026677489281,-0.07000076025724411,-0.058175019919872284
2.773536443710327,-0.05436026677489281,-0.0875486359000206,-0.02040894143283367,0.0558861680328846,-0.0707637146115303,-0.058175019919872284
2.7935783863067627,-0.054741740226745605,-0.08869306743144989,-0.020027466118335724,0.05703059583902359,-0.0707637146115303,-0.057793546468019485
2.813626527786255,-0.0555046908557415,-0.09021896868944168,-0.01926451548933983,0.05703059583902359,-0.0707637146115303,-0.05741206929087639
2.833709955215454,-0.056267641484737396,-0.09288929402828217,-0.018501564860343933,0.05703059583902359,-0.0711451917886734,-0.05703059583902359
2.8538894653320312,-0.05664911866188049,-0.09594109654426575,-0.018120087683200836,0.05703059583902359,-0.0707637146115303,-0.05703059583902359
2.873875379562378,-0.05664911866188049,-0.09899290651082993,-0.01773861236870289,0.057793546468019485,-0.0707637146115303,-0.05664911866188049
2.8940770626068115,-0.05703059583902359,-0.10204470902681351,-0.016975661739706993,0.05893797054886818,-0.0707637146115303,-0.05664911866188049
2.9141483306884766,-0.058175019919872284,-0.1039520874619484,-0.016594186425209045,0.06008239835500717,-0.0707637146115303,-0.056267641484737396
2.934211254119873,-0.05855649709701538,-0.10547798871994019,-0.016212711110711098,0.06008239835500717,-0.0707637146115303,-0.056267641484737396
2.9542291164398193,-0.05855649709701538,-0.10738536715507507,-0.01583123579621315,0.06046387553215027,-0.0715266615152359,-0.056267641484737396
2.9743103981018066,-0.05855649709701538,-0.10929274559020996,-0.015449759550392628,0.06046387553215027,-0.0715266615152359,-0.056267641484737396
2.9943747520446777,-0.05893797054886818,-0.11158160120248795,-0.01430533267557621,0.06084534898400307,-0.0715266615152359,-0.056267641484737396
3.0144338607788086,-0.05893797054886818,-0.11463340371847153,-0.013923857361078262,0.06084534898400307,-0.0711451917886734,-0.0558861680328846
3.034583568572998,-0.05970092490315437,-0.11730372905731201,-0.012779430486261845,0.06084534898400307,-0.0707637146115303,-0.0558861680328846
3.0546696186065674,-0.06084534898400307,-0.11959258466959,-0.01201647985726595,0.061226826161146164,-0.0707637146115303,-0.0558861680328846
3.074822187423706,-0.061226826161146164,-0.12188144028186798,-0.011635004542768002,0.06198977679014206,-0.0711451917886734,-0.0558861680328846
3.0948545932769775,-0.06160829961299896,-0.12417028844356537,-0.011635004542768002,0.06351567804813385,-0.071908138692379,-0.0555046908557415
3.114912748336792,-0.06275273114442825,-0.12722209095954895,-0.010872052982449532,0.06427863240242004,-0.0722896158695221,-0.0555046908557415
3.134984254837036,-0.06313420087099075,-0.13027389347553253,-0.009727626107633114,0.06427863240242004,-0.071908138692379,-0.0555046908557415
3.15503191947937,-0.06351567804813385,-0.1325627565383911,-0.009346150793135166,0.06427863240242004,-0.071908138692379,-0.0555046908557415
3.1751410961151123,-0.06427863240242004,-0.135233074426651,-0.00858320016413927,0.06466010212898254,-0.071908138692379,-0.0551232174038887
3.19529390335083,-0.06504157930612564,-0.1367589831352234,-0.007438773289322853,0.06542305648326874,-0.071908138692379,-0.0551232174038887
3.215318202972412,-0.06580453366041183,-0.13866636157035828,-0.007057297509163618,0.06618601083755493,-0.071908138692379,-0.0551232174038887
3.2353639602661133,-0.06580453366041183,-0.14133669435977936,-0.00667582219466567,0.06771191209554672,-0.0722896158695221,-0.0551232174038887
3.2554571628570557,-0.06580453366041183,-0.14438849687576294,-0.005912871100008488,0.06809338182210922,-0.07267109304666519,-0.054741740226745605
3.275517702102661,-0.06618601083755493,-0.14782176911830902,-0.005531395319849253,0.06847485899925232,-0.07343403995037079,-0.054741740226745605
3.295593738555908,-0.06618601083755493,-0.1504921019077301,-0.00476844422519207,0.06847485899925232,-0.07381551712751389,-0.05436026677489281
3.3156495094299316,-0.06694895774126053,-0.15316243469715118,-0.004005493130534887,0.06885633617639542,-0.07419699430465698,-0.05397878959774971
3.335764169692993,-0.06771191209554672,-0.15506981313228607,-0.0032425422687083483,0.06923781335353851,-0.07419699430465698,-0.05359731614589691
3.3558220863342285,-0.06809338182210922,-0.15659570693969727,-0.0024795911740511656,0.0707637146115303,-0.07419699430465698,-0.05359731614589691
3.375913143157959,-0.06885633617639542,-0.15964750945568085,-0.001716639962978661,0.0715266615152359,-0.07457847148180008,-0.05283436179161072
3.395970582962036,-0.06961929053068161,-0.16346226632595062,-0.0009536888683214784,0.071908138692379,-0.07534141838550568,-0.05245288833975792
3.4160995483398438,-0.07038223743438721,-0.1668955534696579,-0.00019073777366429567,0.0722896158695221,-0.07534141838550568,-0.05245288833975792
3.436126708984375,-0.0711451917886734,-0.16956588625907898,0.00019073777366429567,0.0722896158695221,-0.07534141838550568,-0.05245288833975792
3.4561755657196045,-0.0711451917886734,-0.17147326469421387,0.0009536888683214784,0.07343403995037079,-0.07534141838550568,-0.05245288833975792
3.4763572216033936,-0.0715266615152359,-0.17338064312934875,0.0020981156267225742,0.07457847148180008,-0.07534141838550568,-0.05245288833975792
3.4964053630828857,-0.0722896158695221,-0.17528800666332245,0.002861066721379757,0.07534141838550568,-0.07534141838550568,-0.05207141116261482
3.5165650844573975,-0.07305257022380829,-0.17833982408046722,0.004005493130534887,0.07534141838550568,-0.07495994865894318,-0.05207141116261482
3.536607503890991,-0.07305257022380829,-0.1813916265964508,0.004386968910694122,0.07572289556264877,-0.07534141838550568,-0.05207141116261482
3.55667781829834,-0.07343403995037079,-0.1844434291124344,0.005149920005351305,0.07610437273979187,-0.07610437273979187,-0.05207141116261482
3.5767662525177,-0.07343403995037079,-0.18825818598270416,0.005149920005351305,0.07686731964349747,-0.07610437273979187,-0.051689937710762024
3.596888780593872,-0.07343403995037079,-0.19245441257953644,0.00667582219466567,0.07801175117492676,-0.07610437273979187,-0.05207141116261482
3.616950035095215,-0.07419699430465698,-0.19436179101467133,0.007438773289322853,0.07877469807863235,-0.07572289556264877,-0.051689937710762024
3.6370179653167725,-0.07495994865894318,-0.1970321238040924,0.008201723918318748,0.07877469807863235,-0.07572289556264877,-0.051689937710762024
3.6571197509765625,-0.07648584991693497,-0.2004653960466385,0.008964675478637218,0.07915617525577545,-0.07610437273979187,-0.05130846053361893
3.677194833755493,-0.07724879682064056,-0.20351719856262207,0.010109102353453636,0.07915617525577545,-0.07610437273979187,-0.05130846053361893
3.6972858905792236,-0.07763027399778366,-0.20656901597976685,0.010872052982449532,0.07953765243291855,-0.07686731964349747,-0.05092698708176613
3.717336416244507,-0.07839322835206985,-0.20885786414146423,0.01125352829694748,0.07991912961006165,-0.07724879682064056,-0.05054550990462303
3.737431764602661,-0.07915617525577545,-0.21114671230316162,0.012397955171763897,0.08068207651376724,-0.07801175117492676,-0.050164032727479935
3.7575347423553467,-0.07953765243291855,-0.2149614691734314,0.013160906732082367,0.08258945494890213,-0.07801175117492676,-0.049782559275627136
3.7776191234588623,-0.07953765243291855,-0.21839475631713867,0.01430533267557621,0.08258945494890213,-0.07763027399778366,-0.04940108209848404
3.7976551055908203,-0.07991912961006165,-0.22259098291397095,0.015449759550392628,0.08297093212604523,-0.07763027399778366,-0.04901960864663124
3.817798614501953,-0.08068207651376724,-0.22564278542995453,0.016975661739706993,0.08335240930318832,-0.07763027399778366,-0.04901960864663124
3.8379573822021484,-0.08068207651376724,-0.2290760725736618,0.01773861236870289,0.08373387902975082,-0.07801175117492676,-0.04901960864663124
3.858031988143921,-0.08106355369091034,-0.2313649207353592,0.01888304017484188,0.08487831056118011,-0.07839322835206985,-0.04901960864663124
3.8781070709228516,-0.08220797777175903,-0.23441672325134277,0.019645990803837776,0.08602273464202881,-0.07801175117492676,-0.048638131469488144
3.8982365131378174,-0.08297093212604523,-0.23937590420246124,0.02079041674733162,0.0864042118191719,-0.07801175117492676,-0.048638131469488144
3.918257236480713,-0.08335240930318832,-0.24280919134616852,0.02193484455347061,0.0864042118191719,-0.07839322835206985,-0.048638131469488144
3.9384005069732666,-0.08449683338403702,-0.2473868876695633,0.023460745811462402,0.086785688996315,-0.07839322835206985,-0.048638131469488144
3.958536386489868,-0.08564125746488571,-0.2500572204589844,0.024986648932099342,0.086785688996315,-0.07801175117492676,-0.048256658017635345
3.9786722660064697,-0.08564125746488571,-0.25387197732925415,0.02536812424659729,0.0875486359000206,-0.07877469807863235,-0.048256658017635345
3.9987401962280273,-0.08564125746488571,-0.2569237947463989,0.025749599561095238,0.0879301130771637,-0.07915617525577545,-0.048256658017635345
4.018779039382935,-0.08602273464202881,-0.2603570520877838,0.026512550190091133,0.08983749151229858,-0.07915617525577545,-0.048256658017635345
4.038876533508301,-0.0864042118191719,-0.2637903392314911,0.028038453310728073,0.09021896868944168,-0.07839322835206985,-0.048256658017635345
4.059010028839111,-0.0871671661734581,-0.266460657119751,0.029182879254221916,0.09060044586658478,-0.07801175117492676,-0.04787518084049225
4.078999757766724,-0.0875486359000206,-0.26874953508377075,0.02994582988321781,0.09098191559314728,-0.07839322835206985,-0.048256658017635345
4.099073171615601,-0.0879301130771637,-0.27180132269859314,0.03185320645570755,0.09136339277029037,-0.07915617525577545,-0.04787518084049225
4.119186639785767,-0.0879301130771637,-0.2744716703891754,0.03299763426184654,0.09365224838256836,-0.07915617525577545,-0.04787518084049225
4.139230489730835,-0.0883115902543068,-0.2763790488243103,0.034142062067985535,0.09403372555971146,-0.07915617525577545,-0.04749370738863945
4.1593101024627686,-0.08907453715801239,-0.2801937758922577,0.03490501269698143,0.09403372555971146,-0.07877469807863235,-0.04749370738863945
4.179419755935669,-0.09021896868944168,-0.28439003229141235,0.037193864583969116,0.09441519528627396,-0.07839322835206985,-0.04749370738863945
4.199499607086182,-0.09021896868944168,-0.28820478916168213,0.03833829239010811,0.09517814964056015,-0.07877469807863235,-0.04749370738863945
4.219584226608276,-0.09098191559314728,-0.2912565767765045,0.0394827201962471,0.09594109654426575,-0.07915617525577545,-0.04711223021149635
4.239670276641846,-0.09250781685113907,-0.2939268946647644,0.04100862145423889,0.09746700525283813,-0.07915617525577545,-0.046730753034353256
4.259758472442627,-0.09327077120542526,-0.2962157726287842,0.04177157208323479,0.09822995215654373,-0.07953765243291855,-0.04634927958250046
4.279875993728638,-0.09288929402828217,-0.29926756024360657,0.04291599988937378,0.09822995215654373,-0.07953765243291855,-0.04558632895350456
4.299876689910889,-0.09365224838256836,-0.30270084738731384,0.04406042397022247,0.09899290651082993,-0.07953765243291855,-0.04444190114736557
4.319980621337891,-0.09403372555971146,-0.3076600432395935,0.04558632895350456,0.10013733059167862,-0.07915617525577545,-0.04444190114736557
4.340045690536499,-0.09403372555971146,-0.3118562698364258,0.046730753034353256,0.10166323184967041,-0.07915617525577545,-0.04406042397022247
4.3600945472717285,-0.09479667246341705,-0.31605249643325806,0.04749370738863945,0.10166323184967041,-0.07915617525577545,-0.04406042397022247
4.380216836929321,-0.09479667246341705,-0.31948578357696533,0.04901960864663124,0.1024261862039566,-0.07953765243291855,-0.04406042397022247
4.400254726409912,-0.09517814964056015,-0.3225375711917877,0.05092698708176613,0.1028076633810997,-0.08030059933662415,-0.04406042397022247
4.420420169830322,-0.09555962681770325,-0.3248264193534851,0.05245288833975792,0.10471503436565399,-0.07991912961006165,-0.043678950518369675
4.44042444229126,-0.09708552807569504,-0.3286411762237549,0.05359731614589691,0.10471503436565399,-0.07953765243291855,-0.043678950518369675
4.46052885055542,-0.09746700525283813,-0.33207446336746216,0.0558861680328846,0.10509651154279709,-0.07915617525577545,-0.04291599988937378
4.480634927749634,-0.09822995215654373,-0.33512628078460693,0.05703059583902359,0.10547798871994019,-0.07953765243291855,-0.04177157208323479
4.500739097595215,-0.09861142933368683,-0.3389410376548767,0.05855649709701538,0.10547798871994019,-0.08030059933662415,-0.04100862145423889
4.521273136138916,-0.09937438368797302,-0.3423742949962616,0.06008239835500717,0.10700388997793198,-0.08106355369091034,-0.04100862145423889
4.541411876678467,-0.10013733059167862,-0.34657052159309387,0.06198977679014206,0.10852979123592377,-0.08144503086805344,-0.04100862145423889
4.561472654342651,-0.10013733059167862,-0.35038527846336365,0.06351567804813385,0.10891126841306686,-0.08182650804519653,-0.040627144277095795
4.5815370082855225,-0.10013733059167862,-0.3538185656070709,0.06504157930612564,0.10929274559020996,-0.08258945494890213,-0.040627144277095795
4.6016035079956055,-0.10128175467252731,-0.3568703830242157,0.06618601083755493,0.10967422276735306,-0.08220797777175903,-0.040627144277095795
4.621698379516602,-0.10204470902681351,-0.3603036403656006,0.06847485899925232,0.11043716967105865,-0.08258945494890213,-0.040627144277095795
4.6419196128845215,-0.10204470902681351,-0.36335545778274536,0.07038223743438721,0.11196307092905045,-0.08220797777175903,-0.040627144277095795
4.661874771118164,-0.10204470902681351,-0.36640727519989014,0.07267109304666519,0.11234454810619354,-0.08297093212604523,-0.040627144277095795
4.681981563568115,-0.1024261862039566,-0.3706035017967224,0.07495994865894318,0.11272602528333664,-0.08373387902975082,-0.040245670825242996
4.702014446258545,-0.1028076633810997,-0.3744182586669922,0.07686731964349747,0.11272602528333664,-0.08487831056118011,-0.040245670825242996
4.722081661224365,-0.1031891331076622,-0.37823301553726196,0.07801175117492676,0.11310750246047974,-0.08487831056118011,-0.040245670825242996
4.742154359817505,-0.1039520874619484,-0.38319218158721924,0.08030059933662415,0.11387044936418533,-0.08449683338403702,-0.040245670825242996
4.762218713760376,-0.10433356463909149,-0.387006938457489,0.08220797777175903,0.11539635062217712,-0.08525978773832321,-0.040245670825242996
4.782281398773193,-0.10433356463909149,-0.3915846347808838,0.08373387902975082,0.11692225188016891,-0.0864042118191719,-0.0398641936480999
4.80242133140564,-0.10509651154279709,-0.39578089118003845,0.08525978773832321,0.11730372905731201,-0.08602273464202881,-0.0398641936480999
4.8225085735321045,-0.10547798871994019,-0.39921414852142334,0.0879301130771637,0.11768520623445511,-0.0864042118191719,-0.0394827201962471
4.842587471008301,-0.10624094307422638,-0.4026474356651306,0.08945601433515549,0.1203555315732956,-0.08602273464202881,-0.0394827201962471
4.862623929977417,-0.10662241280078888,-0.4064621925354004,0.09136339277029037,0.12073700875043869,-0.08602273464202881,-0.039101243019104004
4.882687330245972,-0.10738536715507507,-0.41103988885879517,0.09403372555971146,0.12188144028186798,-0.08602273464202881,-0.039101243019104004
4.902775526046753,-0.10776684433221817,-0.41485464572906494,0.09708552807569504,0.12378881871700287,-0.0864042118191719,-0.03833829239010811
4.922842741012573,-0.10814831405878067,-0.4190509021282196,0.09975585341453552,0.12417028844356537,-0.0864042118191719,-0.03757534176111221
4.942887306213379,-0.10929274559020996,-0.4228656589984894,0.1024261862039566,0.12493324279785156,-0.08602273464202881,-0.037193864583969116
4.962973594665527,-0.10929274559020996,-0.42629891633987427,0.10509651154279709,0.12684062123298645,-0.0871671661734581,-0.037193864583969116
4.983036279678345,-0.10929274559020996,-0.43011367321014404,0.10776684433221817,0.12760357558727264,-0.086785688996315,-0.03681239113211632
5.003113031387329,-0.10929274559020996,-0.4331654906272888,0.10891126841306686,0.12760357558727264,-0.086785688996315,-0.03681239113211632
5.023195743560791,-0.10929274559020996,-0.4362172782421112,0.11081864684820175,0.12798504531383514,-0.086785688996315,-0.03681239113211632
5.043282747268677,-0.10967422276735306,-0.439269095659256,0.11310750246047974,0.12912946939468384,-0.086785688996315,-0.03681239113211632
5.063357830047607,-0.10967422276735306,-0.44270238280296326,0.11539635062217712,0.13027389347553253,-0.086785688996315,-0.03643091395497322
5.083399295806885,-0.11005569249391556,-0.44689860939979553,0.1184481605887413,0.13103684782981873,-0.0864042118191719,-0.03604944050312042
5.103460788726807,-0.11043716967105865,-0.4507133662700653,0.12073700875043869,0.13103684782981873,-0.0864042118191719,-0.03604944050312042
5.123589277267456,-0.11120012402534485,-0.4537651538848877,0.12302586436271667,0.13179980218410492,-0.0871671661734581,-0.035667963325977325
5.143664598464966,-0.11158160120248795,-0.45757991075515747,0.12493324279785156,0.13218127191066742,-0.0871671661734581,-0.03528648987412453
5.163711309432983,-0.11158160120248795,-0.46177613735198975,0.12722209095954895,0.1325627565383911,-0.0875486359000206,-0.03452353551983833
5.183852672576904,-0.11196307092905045,-0.4663538634777069,0.13027389347553253,0.1348516047000885,-0.0879301130771637,-0.03376058489084244
5.203934192657471,-0.11272602528333664,-0.4701686203479767,0.1329442262649536,0.135233074426651,-0.0879301130771637,-0.03376058489084244
5.224112510681152,-0.11348897218704224,-0.47436484694480896,0.1348516047000885,0.1363775134086609,-0.0879301130771637,-0.03337911143898964
5.244133472442627,-0.11425192654132843,-0.47856107354164124,0.1371404528617859,0.13752193748950958,-0.086785688996315,-0.03337911143898964
5.264218330383301,-0.11463340371847153,-0.4819943606853485,0.13981078565120697,0.13828489184379578,-0.0879301130771637,-0.03337911143898964
5.28434419631958,-0.11463340371847153,-0.4850461483001709,0.14209964871406555,0.13866636157035828,-0.0883115902543068,-0.03337911143898964
5.304388046264648,-0.11463340371847153,-0.4888609051704407,0.14400701224803925,0.13942931592464447,-0.09021896868944168,-0.03299763426184654
5.324472427368164,-0.11463340371847153,-0.49305713176727295,0.14705882966518402,0.13981078565120697,-0.09021896868944168,-0.032616160809993744
5.344578266143799,-0.11501488089561462,-0.4972533881664276,0.1501106321811676,0.14095520973205566,-0.09021896868944168,-0.03299763426184654
5.364588499069214,-0.11615930497646332,-0.5006866455078125,0.1527809500694275,0.14248111844062805,-0.08907453715801239,-0.03299763426184654
5.3846423625946045,-0.11654078215360641,-0.5041199326515198,0.15583276748657227,0.14324407279491425,-0.08983749151229858,-0.03223468363285065
5.404721975326538,-0.11654078215360641,-0.508316159248352,0.15926603972911835,0.14400701224803925,-0.09098191559314728,-0.03223468363285065
5.4248716831207275,-0.11654078215360641,-0.5128938555717468,0.16231784224510193,0.14629587531089783,-0.09098191559314728,-0.03223468363285065
5.444886207580566,-0.11654078215360641,-0.5174715518951416,0.1653696447610855,0.14705882966518402,-0.09174486994743347,-0.03147173300385475
5.464998006820679,-0.11654078215360641,-0.5224307775497437,0.16880293190479279,0.14782176911830902,-0.09250781685113907,-0.03147173300385475
5.485085725784302,-0.11692225188016891,-0.5266270041465759,0.17261768877506256,0.1497291475534439,-0.09288929402828217,-0.03147173300385475
5.505115985870361,-0.11692225188016891,-0.5308232307434082,0.17528800666332245,0.1501106321811676,-0.09288929402828217,-0.030708782374858856
5.5251829624176025,-0.11730372905731201,-0.535400927066803,0.17872129380702972,0.1508735716342926,-0.09327077120542526,-0.03032730519771576
5.5452470779418945,-0.1184481605887413,-0.5403600931167603,0.182917520403862,0.152399480342865,-0.09327077120542526,-0.02994582988321781
5.5653345584869385,-0.1188296303153038,-0.543411910533905,0.18558785319328308,0.15354390442371368,-0.09288929402828217,-0.029564354568719864
5.585386037826538,-0.1184481605887413,-0.5476081371307373,0.18787670135498047,0.15392538905143738,-0.09365224838256836,-0.029564354568719864
5.605494260787964,-0.1188296303153038,-0.5521858334541321,0.19092851877212524,0.15430685877799988,-0.09365224838256836,-0.029182879254221916
5.625603437423706,-0.1192111074924469,-0.5567635893821716,0.19436179101467133,0.15506981313228607,-0.09327077120542526,-0.029182879254221916
5.645676374435425,-0.1188296303153038,-0.5605783462524414,0.1966506391763687,0.15697719156742096,-0.09365224838256836,-0.029182879254221916
5.665737867355347,-0.11959258466959,-0.5647745728492737,0.200083926320076,0.15735866129398346,-0.09288929402828217,-0.02880140393972397
5.685827016830444,-0.1199740618467331,-0.5693522691726685,0.20389868319034576,0.15774014592170715,-0.09327077120542526,-0.02880140393972397
5.706061840057373,-0.12111848592758179,-0.5731670260429382,0.20656901597976685,0.15850308537483215,-0.09365224838256836,-0.02841992862522602
5.726074457168579,-0.12073700875043869,-0.5766003131866455,0.20885786414146423,0.16002899408340454,-0.09365224838256836,-0.02727550081908703
5.746102571487427,-0.12111848592758179,-0.5804150700569153,0.21190966665744781,0.16155488789081573,-0.09403372555971146,-0.026512550190091133
5.766224384307861,-0.12073700875043869,-0.5838482975959778,0.2145799994468689,0.16193637251853943,-0.09441519528627396,-0.025749599561095238
5.786302089691162,-0.12111848592758179,-0.5872815847396851,0.21648737788200378,0.16384375095367432,-0.09403372555971146,-0.025749599561095238
5.806427478790283,-0.12149996310472488,-0.5914778113365173,0.21915769577026367,0.1646067053079605,-0.09365224838256836,-0.02536812424659729
5.82661247253418,-0.12188144028186798,-0.5956740379333496,0.22259098291397095,0.1653696447610855,-0.09327077120542526,-0.02536812424659729
5.8466575145721436,-0.12188144028186798,-0.5979629158973694,0.22526131570339203,0.1653696447610855,-0.09403372555971146,-0.02536812424659729
5.866709470748901,-0.12188144028186798,-0.6010147333145142,0.22755016386508942,0.1661325991153717,-0.09479667246341705,-0.024986648932099342
5.886816501617432,-0.12226291000843048,-0.6044480204582214,0.230601966381073,0.1676585078239441,-0.09555962681770325,-0.024605173617601395
5.906984806060791,-0.12264438718557358,-0.6086442470550537,0.23441672325134277,0.16918440163135529,-0.09517814964056015,-0.024605173617601395
5.9270102977752686,-0.12302586436271667,-0.6124590039253235,0.23746852576732635,0.16994735598564148,-0.09441519528627396,-0.024223696440458298
5.947082757949829,-0.12302586436271667,-0.6162737607955933,0.24052032828330994,0.17185473442077637,-0.09327077120542526,-0.024223696440458298
5.967205762863159,-0.12302586436271667,-0.6197070479393005,0.2458609938621521,0.17299915850162506,-0.09403372555971146,-0.02384222112596035
5.987276792526245,-0.12340734153985977,-0.6231403350830078,0.248531311750412,0.17414358258247375,-0.09441519528627396,-0.022697795182466507
6.007385015487671,-0.12378881871700287,-0.6254291534423828,0.25158312916755676,0.17566949129104614,-0.09479667246341705,-0.02231631986796856
6.027452230453491,-0.12378881871700287,-0.6284809708595276,0.25577935576438904,0.17643244564533234,-0.09555962681770325,-0.02193484455347061
6.04755425453186,-0.12417028844356537,-0.6322957277297974,0.2603570520877838,0.17719538509845734,-0.09517814964056015,-0.02193484455347061
6.067594528198242,-0.12378881871700287,-0.6364919543266296,0.2634088695049286,0.17795833945274353,-0.09441519528627396,-0.02193484455347061
6.087733030319214,-0.12417028844356537,-0.6391623020172119,0.266460657119751,0.17948424816131592,-0.09403372555971146,-0.021553369238972664
6.10777735710144,-0.12417028844356537,-0.6414511203765869,0.26951247453689575,0.1806286722421646,-0.09441519528627396,-0.021553369238972664
6.128403902053833,-0.12417028844356537,-0.6441214680671692,0.27103838324546814,0.1825360506772995,-0.09555962681770325,-0.021553369238972664
6.148620128631592,-0.12417028844356537,-0.647936224937439,0.2752346098423004,0.1836804747581482,-0.09479667246341705,-0.021171892061829567
6.168602466583252,-0.12417028844356537,-0.6509880423545837,0.2779049277305603,0.1840619444847107,-0.09517814964056015,-0.021171892061829567
6.188650369644165,-0.12455176562070847,-0.654421329498291,0.2813382148742676,0.1844434291124344,-0.09555962681770325,-0.02079041674733162
6.208766937255859,-0.12493324279785156,-0.6582360863685608,0.28515297174453735,0.18558785319328308,-0.09555962681770325,-0.02079041674733162
6.228853225708008,-0.12493324279785156,-0.6605249047279358,0.28744181990623474,0.18749523162841797,-0.09594109654426575,-0.02040894143283367
6.248897552490234,-0.12531471252441406,-0.6635767221450806,0.290875107049942,0.18863965570926666,-0.09594109654426575,-0.01888304017484188
6.269105434417725,-0.12607766687870026,-0.6670100092887878,0.2950713336467743,0.19130998849868774,-0.09594109654426575,-0.018501564860343933
6.289114713668823,-0.12607766687870026,-0.6708247661590576,0.29926756024360657,0.19169145822525024,-0.09670405089855194,-0.01735713705420494
6.309237957000732,-0.12607766687870026,-0.6738765835762024,0.30231937766075134,0.19207294285297394,-0.09632257372140884,-0.016975661739706993
6.329323768615723,-0.12607766687870026,-0.6773098111152649,0.3061341345310211,0.19359883666038513,-0.09708552807569504,-0.016975661739706993
6.349400281906128,-0.12607766687870026,-0.6818875670433044,0.3110933005809784,0.19550621509552002,-0.09746700525283813,-0.016212711110711098
6.369470834732056,-0.12607766687870026,-0.6853207945823669,0.31452658772468567,0.1958876997232437,-0.09670405089855194,-0.014686808921396732
6.389615058898926,-0.12607766687870026,-0.6879911422729492,0.31757840514183044,0.1977950781583786,-0.09670405089855194,-0.014686808921396732
6.409649610519409,-0.12607766687870026,-0.6921873688697815,0.3221561014652252,0.1997024416923523,-0.09708552807569504,-0.01430533267557621
6.429733991622925,-0.12645913660526276,-0.6963835954666138,0.3271152675151825,0.20122835040092468,-0.09746700525283813,-0.01430533267557621
6.449795484542847,-0.12722209095954895,-0.700579822063446,0.33054855465888977,0.20237277448177338,-0.09708552807569504,-0.01430533267557621
6.469937801361084,-0.12760357558727264,-0.7055390477180481,0.33588922023773193,0.20313572883605957,-0.09594109654426575,-0.013923857361078262
6.490015983581543,-0.12836651504039764,-0.7108796834945679,0.3412298858165741,0.20504310727119446,-0.09555962681770325,-0.013923857361078262
6.510077476501465,-0.12874799966812134,-0.7139315009117126,0.344663143157959,0.20656901597976685,-0.09594109654426575,-0.013542382046580315
6.530146598815918,-0.12874799966812134,-0.7181277275085449,0.34885939955711365,0.20809490978717804,-0.09670405089855194,-0.013542382046580315
6.5502097606658936,-0.12912946939468384,-0.7223239541053772,0.3538185656070709,0.20962081849575043,-0.09708552807569504,-0.013160906732082367
6.57035493850708,-0.12912946939468384,-0.726138710975647,0.3583962619304657,0.21000228822231293,-0.09670405089855194,-0.012779430486261845
6.590378522872925,-0.12912946939468384,-0.728427529335022,0.361829549074173,0.21038375794887543,-0.09670405089855194,-0.012779430486261845
6.610440969467163,-0.12912946939468384,-0.7310978770256042,0.36526283621788025,0.21076524257659912,-0.09632257372140884,-0.012397955171763897
6.630613327026367,-0.12912946939468384,-0.7345311641693115,0.3702220320701599,0.21229113638401031,-0.09555962681770325,-0.012397955171763897
6.650762319564819,-0.12912946939468384,-0.7372015118598938,0.3736552894115448,0.2138170450925827,-0.09632257372140884,-0.01201647985726595
6.670755863189697,-0.12912946939468384,-0.7391088604927063,0.3759441375732422,0.2141985148191452,-0.09670405089855194,-0.011635004542768002
6.6908745765686035,-0.12912946939468384,-0.7455939650535583,0.3850995600223541,0.21801327168941498,-0.09899290651082993,-0.01125352829694748
6.710932970046997,-0.12951095402240753,-0.7520790696144104,0.3927290737628937,0.22220951318740845,-0.09594109654426575,-0.009727626107633114
6.730987071990967,-0.12912946939468384,-0.7551308274269104,0.39845120906829834,0.22259098291397095,-0.09632257372140884,-0.009727626107633114
6.751136779785156,-0.12912946939468384,-0.7581826448440552,0.404936283826828,0.22487983107566833,-0.09746700525283813,-0.009346150793135166
6.771189212799072,-0.12912946939468384,-0.761997401714325,0.40989547967910767,0.22602425515651703,-0.09746700525283813,-0.008201723918318748
6.791255235671997,-0.12912946939468384,-0.7650492191314697,0.41447317600250244,0.22716869413852692,-0.09708552807569504,-0.0078202486038208
6.811320066452026,-0.12912946939468384,-0.7688639760017395,0.4201953113079071,0.2286945879459381,-0.09670405089855194,-0.007438773289322853
6.8313868045806885,-0.12912946939468384,-0.7722972631454468,0.4247730076313019,0.2294575423002243,-0.09670405089855194,-0.007057297509163618
6.8514721393585205,-0.12912946939468384,-0.7738231420516968,0.42782482504844666,0.2309834510087967,-0.09784847497940063,-0.007057297509163618
6.871527910232544,-0.12912946939468384,-0.776493489742279,0.43163958191871643,0.23327229917049408,-0.09708552807569504,-0.006294346414506435
6.891619920730591,-0.12912946939468384,-0.7803082466125488,0.4369802474975586,0.23479819297790527,-0.09632257372140884,-0.00667582219466567
6.911690711975098,-0.12912946939468384,-0.7829785346984863,0.44079500436782837,0.23594263195991516,-0.09670405089855194,-0.006294346414506435
6.931747674942017,-0.12912946939468384,-0.7852674126625061,0.44460976123809814,0.23670557141304016,-0.09708552807569504,-0.006294346414506435
6.951806306838989,-0.12912946939468384,-0.7890821695327759,0.4499503970146179,0.23899443447589874,-0.09708552807569504,-0.006294346414506435
6.971888065338135,-0.12989242374897003,-0.7940413355827332,0.45643550157546997,0.24052032828330994,-0.09708552807569504,-0.005912871100008488
6.991976499557495,-0.13103684782981873,-0.7978560924530029,0.46177613735198975,0.24166475236415863,-0.09594109654426575,-0.005912871100008488
7.012030601501465,-0.13141833245754242,-0.8020523190498352,0.4667353332042694,0.24319066107273102,-0.09555962681770325,-0.005912871100008488
7.032103776931763,-0.13141833245754242,-0.805867075920105,0.4720759987831116,0.2443350851535797,-0.09594109654426575,-0.00476844422519207
7.052180051803589,-0.13103684782981873,-0.8089188933372498,0.47550925612449646,0.2454795092344284,-0.09708552807569504,-0.004386968910694122
7.072251081466675,-0.13103684782981873,-0.8119707107543945,0.47932401299476624,0.2473868876695633,-0.09746700525283813,-0.0036240178160369396
7.092299222946167,-0.13103684782981873,-0.8150225281715393,0.4827573001384735,0.248531311750412,-0.09632257372140884,-0.0032425422687083483
7.11237907409668,-0.13103684782981873,-0.8180742859840393,0.4877164959907532,0.2508201599121094,-0.09632257372140884,-0.0032425422687083483
7.132477760314941,-0.13103684782981873,-0.8211261034011841,0.49191272258758545,0.25272753834724426,-0.09632257372140884,-0.002861066721379757
7.152500867843628,-0.13103684782981873,-0.8226520419120789,0.49496451020240784,0.25463491678237915,-0.09670405089855194,-0.002861066721379757
7.172585725784302,-0.13103684782981873,-0.8257037997245789,0.50030517578125,0.25577935576438904,-0.09632257372140884,-0.0020981156267225742
7.192653179168701,-0.13103684782981873,-0.8276112079620361,0.5037384629249573,0.2573052644729614,-0.09708552807569504,-0.0020981156267225742
7.212698459625244,-0.13103684782981873,-0.8295185565948486,0.5071717500686646,0.2595941126346588,-0.09784847497940063,-0.0009536888683214784
7.23278284072876,-0.13103684782981873,-0.8329518437385559,0.5121309161186218,0.2615014910697937,-0.09746700525283813,0.00019073777366429567
7.252861499786377,-0.13103684782981873,-0.8356221914291382,0.5155642032623291,0.2626459002494812,-0.09784847497940063,0.0013351644156500697
7.27290940284729,-0.13103684782981873,-0.8375295400619507,0.5189974904060364,0.2637903392314911,-0.09822995215654373,0.001716639962978661
7.292990684509277,-0.13103684782981873,-0.8405813574790955,0.5231937170028687,0.2660791873931885,-0.09784847497940063,0.001716639962978661
7.31308913230896,-0.13103684782981873,-0.8432517051696777,0.5277714133262634,0.26760509610176086,-0.09822995215654373,0.0024795911740511656
7.33315634727478,-0.13103684782981873,-0.8451590538024902,0.5312047004699707,0.26951247453689575,-0.09899290651082993,0.0024795911740511656
7.3531999588012695,-0.13103684782981873,-0.8478294014930725,0.5357823967933655,0.27027541399002075,-0.09822995215654373,0.004386968910694122
7.373284339904785,-0.13103684782981873,-0.8516441583633423,0.54112309217453,0.2725642919540405,-0.09899290651082993,0.004386968910694122
7.393346071243286,-0.13103684782981873,-0.8546959757804871,0.5453193187713623,0.2744716703891754,-0.09899290651082993,0.005149920005351305
7.413398265838623,-0.13103684782981873,-0.8581292629241943,0.5502784848213196,0.2767605185508728,-0.09899290651082993,0.00476844422519207
7.433498382568359,-0.13103684782981873,-0.8607995510101318,0.5548561811447144,0.2794308364391327,-0.09861142933368683,0.005531395319849253
7.453582048416138,-0.13103684782981873,-0.8649957776069641,0.5609598159790039,0.2817196846008301,-0.09822995215654373,0.005531395319849253
7.473679542541504,-0.13103684782981873,-0.8684290647506714,0.5670633912086487,0.28286412358283997,-0.09822995215654373,0.005531395319849253
7.493699073791504,-0.13103684782981873,-0.8718623518943787,0.5724040865898132,0.28515297174453735,-0.09670405089855194,0.006294346414506435
7.513784646987915,-0.13103684782981873,-0.8756771087646484,0.579270601272583,0.28591591119766235,-0.09784847497940063,0.007057297509163618
7.533855438232422,-0.13103684782981873,-0.8798733353614807,0.5842298269271851,0.28858625888824463,-0.09746700525283813,0.008201723918318748
7.553903102874756,-0.13103684782981873,-0.8829251527786255,0.5907148718833923,0.28973066806793213,-0.09822995215654373,0.008964675478637218
7.5739593505859375,-0.13103684782981873,-0.8871213793754578,0.5971999764442444,0.2924010157585144,-0.09822995215654373,0.009346150793135166
7.594170570373535,-0.13103684782981873,-0.89131760597229,0.6036850810050964,0.2943083941936493,-0.09746700525283813,0.010490577667951584
7.61426305770874,-0.13103684782981873,-0.8939879536628723,0.6086442470550537,0.2969787120819092,-0.09784847497940063,0.011635004542768002
7.634285926818848,-0.13103684782981873,-0.8970397710800171,0.614366352558136,0.2977416515350342,-0.09822995215654373,0.012397955171763897
7.654370546340942,-0.13103684782981873,-0.9012359976768494,0.621614396572113,0.30041199922561646,-0.09822995215654373,0.012397955171763897
7.674527883529663,-0.13103684782981873,-0.9061951637268066,0.6292439103126526,0.30384528636932373,-0.09975585341453552,0.012397955171763897
7.69461727142334,-0.13103684782981873,-0.9111543297767639,0.6364919543266296,0.3065156042575836,-0.09822995215654373,0.012779430486261845
7.714812755584717,-0.13141833245754242,-0.9157320261001587,0.6445029377937317,0.308804452419281,-0.09746700525283813,0.013160906732082367
7.734981536865234,-0.13141833245754242,-0.9203097820281982,0.6525139212608337,0.3118562698364258,-0.09861142933368683,0.013160906732082367
7.755005836486816,-0.13103684782981873,-0.9233615398406982,0.6582360863685608,0.31452658772468567,-0.09899290651082993,0.013542382046580315
7.77509617805481,-0.13103684782981873,-0.926413357257843,0.6647211313247681,0.31490805745124817,-0.09822995215654373,0.01506828423589468
7.795156717300415,-0.13103684782981873,-0.9294651746749878,0.6715877056121826,0.31567102670669556,-0.09784847497940063,0.015449759550392628
7.815227031707764,-0.13103684782981873,-0.9325169920921326,0.6773098111152649,0.31834134459495544,-0.09746700525283813,0.015449759550392628
7.835279941558838,-0.13103684782981873,-0.9340428709983826,0.6815060377120972,0.32024872303009033,-0.09784847497940063,0.016212711110711098
7.855328321456909,-0.13103684782981873,-0.9367132186889648,0.6868467330932617,0.3236820101737976,-0.09822995215654373,0.016594186425209045
7.875497102737427,-0.13103684782981873,-0.9401465058326721,0.6929503083229065,0.32673379778862,-0.09746700525283813,0.016975661739706993
7.895557641983032,-0.13103684782981873,-0.9428167939186096,0.6986724734306335,0.32978561520576477,-0.09746700525283813,0.01735713705420494
7.915650367736816,-0.13103684782981873,-0.9451056718826294,0.7021057605743408,0.33245593309402466,-0.09822995215654373,0.018501564860343933
7.935703277587891,-0.13103684782981873,-0.9470130205154419,0.7066834568977356,0.33627068996429443,-0.09861142933368683,0.019645990803837776
7.955795526504517,-0.13103684782981873,-0.9504463076591492,0.7116426229476929,0.3397039771080017,-0.09822995215654373,0.020027466118335724
7.9759202003479,-0.13103684782981873,-0.952735185623169,0.7154573798179626,0.3416113555431366,-0.09861142933368683,0.020027466118335724
7.996119499206543,-0.13103684782981873,-0.9546425342559814,0.7185091972351074,0.3442816734313965,-0.09975585341453552,0.020027466118335724
8.016245365142822,-0.13103684782981873,-0.9573128819465637,0.7230868935585022,0.34771496057510376,-0.10051880776882172,0.02040894143283367
8.036275863647461,-0.13103684782981873,-0.9588387608528137,0.725375771522522,0.35076677799224854,-0.10204470902681351,0.02040894143283367
8.056327104568481,-0.13103684782981873,-0.9611276388168335,0.727664589881897,0.3538185656070709,-0.1031891331076622,0.02079041674733162
8.076422691345215,-0.13103684782981873,-0.9641794562339783,0.7310978770256042,0.3587777614593506,-0.1035706102848053,0.021553369238972664
8.096509218215942,-0.13103684782981873,-0.9664682745933533,0.7345311641693115,0.361829549074173,-0.10433356463909149,0.02231631986796856
8.116586685180664,-0.13103684782981873,-0.9683756828308105,0.7368200421333313,0.36602577567100525,-0.10547798871994019,0.023079270496964455
8.136632919311523,-0.13103684782981873,-0.9714275002479553,0.7406347990036011,0.3686961233615875,-0.10624094307422638,0.02384222112596035
8.156699895858765,-0.13103684782981873,-0.9740977883338928,0.7436865568161011,0.3717479109764099,-0.10624094307422638,0.024223696440458298
8.176792621612549,-0.13103684782981873,-0.9748607873916626,0.7463569045066833,0.3759441375732422,-0.10814831405878067,0.024986648932099342
8.196853637695312,-0.13103684782981873,-0.9767681360244751,0.7501716613769531,0.37937742471694946,-0.10891126841306686,0.02689402550458908
8.217070579528809,-0.13103684782981873,-0.9786755442619324,0.7539864182472229,0.3847180902957916,-0.11005569249391556,0.027656977996230125
8.237053632736206,-0.13103684782981873,-0.9802014231681824,0.7562752962112427,0.3889143168926239,-0.11158160120248795,0.029182879254221916
8.25722885131836,-0.13103684782981873,-0.9824903011322021,0.7597085237503052,0.3931105434894562,-0.11272602528333664,0.02994582988321781
8.277274131774902,-0.13103684782981873,-0.9847791194915771,0.763523280620575,0.39730677008628845,-0.11387044936418533,0.031090257689356804
8.297374725341797,-0.13103684782981873,-0.9866865277290344,0.7654306888580322,0.4011215269565582,-0.11577782779932022,0.031090257689356804
8.317466974258423,-0.13103684782981873,-0.9893568158149719,0.768482506275177,0.4053177833557129,-0.11654078215360641,0.03147173300385475
8.337589263916016,-0.13103684782981873,-0.9916456937789917,0.7715343236923218,0.41065841913223267,-0.11730372905731201,0.03185320645570755
8.35773777961731,-0.13103684782981873,-0.9935530424118042,0.7734416723251343,0.41599908471107483,-0.1192111074924469,0.03223468363285065
8.377737283706665,-0.13103684782981873,-0.9954604506492615,0.777256429195404,0.4201953113079071,-0.1199740618467331,0.03299763426184654
8.397837400436401,-0.13103684782981873,-0.997367799282074,0.7803082466125488,0.4243915379047394,-0.12188144028186798,0.03452353551983833
8.417917728424072,-0.13103684782981873,-0.9996566772460938,0.7841230034828186,0.42973220348358154,-0.12455176562070847,0.035667963325977325
8.438024520874023,-0.13103684782981873,-1.0019454956054688,0.7879377603530884,0.4350728690624237,-0.12493324279785156,0.03757534176111221
8.458184003829956,-0.13103684782981873,-1.0053788423538208,0.7936598658561707,0.44079500436782837,-0.12569619715213776,0.038719769567251205
8.478226900100708,-0.13103684782981873,-1.0076676607131958,0.7978560924530029,0.44613564014434814,-0.12760357558727264,0.039101243019104004
8.498277425765991,-0.13065537810325623,-1.0095750093460083,0.8020523190498352,0.4507133662700653,-0.12989242374897003,0.0394827201962471
8.518352746963501,-0.13065537810325623,-1.0114823579788208,0.80663001537323,0.45719844102859497,-0.13141833245754242,0.0398641936480999
8.538525342941284,-0.13065537810325623,-1.0130083560943604,0.810826301574707,0.46292057633399963,-0.13179980218410492,0.040245670825242996
8.55858826637268,-0.13065537810325623,-1.0141527652740479,0.813115119934082,0.4690241813659668,-0.1337071806192398,0.04139009863138199
8.578622579574585,-0.13027389347553253,-1.0149157047271729,0.8161669373512268,0.47550925612449646,-0.1348516047000885,0.04253452271223068
8.598706483840942,-0.13027389347553253,-1.0160601139068604,0.8192187547683716,0.4808499217033386,-0.1371404528617859,0.04253452271223068
8.618772983551025,-0.13027389347553253,-1.0168230533599854,0.8203631639480591,0.4873350262641907,-0.13904783129692078,0.043678950518369675
8.638859748840332,-0.12989242374897003,-1.0183489322662354,0.8222705721855164,0.49420157074928284,-0.13981078565120697,0.04444190114736557
8.659014225006104,-0.13027389347553253,-1.0191118717193604,0.8234149813652039,0.5025940537452698,-0.14171816408634186,0.04634927958250046
8.679025650024414,-0.12989242374897003,-1.0202564001083374,0.8253223299980164,0.5109865069389343,-0.14400701224803925,0.046730753034353256
8.69912338256836,-0.12912946939468384,-1.021400809288025,0.8276112079620361,0.5212863087654114,-0.14705882966518402,0.04711223021149635
8.71924877166748,-0.12836651504039764,-1.0225452184677124,0.8295185565948486,0.5292973518371582,-0.14858472347259521,0.04749370738863945
8.73938798904419,-0.12798504531383514,-1.0233081579208374,0.8318074345588684,0.5380712747573853,-0.1493476778268814,0.04940108209848404
8.759459733963013,-0.12760357558727264,-1.024452567100525,0.8348592519760132,0.5472266674041748,-0.1493476778268814,0.049782559275627136
8.779523611068726,-0.12645913660526276,-1.0248340368270874,0.8363851308822632,0.5560005903244019,-0.1501106321811676,0.050164032727479935
8.799593925476074,-0.12569619715213776,-1.0255969762802124,0.838674008846283,0.5640115737915039,-0.1504921019077301,0.05092698708176613
8.819658279418945,-0.12378881871700287,-1.0271228551864624,0.840962827205658,0.5746929049491882,-0.152399480342865,0.05130846053361893
8.839760541915894,-0.12302586436271667,-1.0282673835754395,0.8428702354431152,0.5842298269271851,-0.15392538905143738,0.05397878959774971
8.859776973724365,-0.12149996310472488,-1.0297932624816895,0.8455405235290527,0.5956740379333496,-0.15430685877799988,0.05436026677489281
8.879972219467163,-0.1203555315732956,-1.0313191413879395,0.848210871219635,0.6059738993644714,-0.15506981313228607,0.056267641484737396
8.900062799453735,-0.11959258466959,-1.033226490020752,0.8508812189102173,0.6155108213424683,-0.15545128285884857,0.05703059583902359
8.92007327079773,-0.1188296303153038,-1.0343708992004395,0.8527885675430298,0.6261920928955078,-0.15735866129398346,0.05741206929087639
8.94050407409668,-0.1184481605887413,-1.0355154275894165,0.8543145060539246,0.6376363635063171,-0.15888457000255585,0.058175019919872284
8.96066427230835,-0.11692225188016891,-1.0370413064956665,0.8562218546867371,0.6521324515342712,-0.16002899408340454,0.05855649709701538
8.980729103088379,-0.11654078215360641,-1.0378042459487915,0.8581292629241943,0.6666285395622253,-0.16117341816425323,0.06008239835500717
9.000802040100098,-0.11577782779932022,-1.038185715675354,0.8596551418304443,0.6807430982589722,-0.16193637251853943,0.06198977679014206
9.020888090133667,-0.11539635062217712,-1.0385671854019165,0.8607995510101318,0.691805899143219,-0.16231784224510193,0.06466010212898254
9.041017293930054,-0.11539635062217712,-1.038948655128479,0.8623254895210266,0.7036316394805908,-0.16231784224510193,0.06542305648326874
9.061148643493652,-0.11463340371847153,-1.0393301248550415,0.8630884289741516,0.7131685614585876,-0.16269932687282562,0.06542305648326874
9.081164836883545,-0.11387044936418533,-1.0393301248550415,0.8638513684272766,0.7200350761413574,-0.16422522068023682,0.06580453366041183
9.101281642913818,-0.11348897218704224,-1.0393301248550415,0.8642328381538391,0.7291905283927917,-0.1657511293888092,0.06618601083755493
9.121336936950684,-0.11272602528333664,-1.0393301248550415,0.8649957776069641,0.7360570430755615,-0.1657511293888092,0.06771191209554672
9.141397476196289,-0.11120012402534485,-1.0393301248550415,0.8653773069381714,0.7421606779098511,-0.1653696447610855,0.06809338182210922
9.161449670791626,-0.11120012402534485,-1.0393301248550415,0.8661402463912964,0.7467383742332458,-0.164988175034523,0.06847485899925232
9.181549072265625,-0.11120012402534485,-1.0393301248550415,0.8665217161178589,0.7528420090675354,-0.16384375095367432,0.06847485899925232
9.20164942741394,-0.11120012402534485,-1.038948655128479,0.8669031858444214,0.7585641145706177,-0.16422522068023682,0.06847485899925232
9.221720457077026,-0.11081864684820175,-1.038948655128479,0.8672846555709839,0.7631418108940125,-0.16422522068023682,0.06809338182210922
9.241777896881104,-0.11081864684820175,-1.038948655128479,0.8680475950241089,0.7681010365486145,-0.164988175034523,0.06847485899925232
9.261845111846924,-0.11005569249391556,-1.038948655128479,0.8680475950241089,0.7715343236923218,-0.164988175034523,0.06847485899925232
9.281897783279419,-0.10929274559020996,-1.0378042459487915,0.8680475950241089,0.775730550289154,-0.164988175034523,0.06809338182210922
9.301984786987305,-0.10929274559020996,-1.0370413064956665,0.8680475950241089,0.7822155952453613,-0.16384375095367432,0.06809338182210922
9.32204556465149,-0.10929274559020996,-1.036659836769104,0.8680475950241089,0.7864118218421936,-0.16155488789081573,0.06809338182210922
9.342113494873047,-0.10929274559020996,-1.035896897315979,0.8684290647506714,0.7898451089859009,-0.15926603972911835,0.06809338182210922
9.362285137176514,-0.10929274559020996,-1.0355154275894165,0.8684290647506714,0.7928969264030457,-0.15850308537483215,0.06771191209554672
9.38235878944397,-0.10929274559020996,-1.034752368927002,0.8680475950241089,0.7951858043670654,-0.15888457000255585,0.06733043491840363
9.402429580688477,-0.10929274559020996,-1.034752368927002,0.8680475950241089,0.7978560924530029,-0.15888457000255585,0.06694895774126053
9.42247724533081,-0.10929274559020996,-1.033989429473877,0.8680475950241089,0.8009079098701477,-0.15926603972911835,0.06656748056411743
9.442561626434326,-0.10929274559020996,-1.0336079597473145,0.8680475950241089,0.8047226667404175,-0.15926603972911835,0.06580453366041183
9.462627649307251,-0.10929274559020996,-1.0328450202941895,0.8680475950241089,0.8077744841575623,-0.15888457000255585,0.06504157930612564
9.482680320739746,-0.10929274559020996,-1.032463550567627,0.8680475950241089,0.8093003630638123,-0.15812161564826965,0.06466010212898254
9.502941131591797,-0.10929274559020996,-1.031700611114502,0.8676661252975464,0.8112077713012695,-0.15735866129398346,0.06427863240242004
9.523024320602417,-0.10929274559020996,-1.031700611114502,0.8669031858444214,0.8119707107543945,-0.15774014592170715,0.06389715522527695
9.543138265609741,-0.10929274559020996,-1.0313191413879395,0.8665217161178589,0.812352180480957,-0.15774014592170715,0.06351567804813385
9.563149213790894,-0.10929274559020996,-1.0313191413879395,0.8657587766647339,0.813878059387207,-0.15735866129398346,0.06275273114442825
9.583235740661621,-0.10929274559020996,-1.030937671661377,0.8653773069381714,0.8173113465309143,-0.15774014592170715,0.06160829961299896
9.60334587097168,-0.10929274559020996,-1.030174732208252,0.8646143078804016,0.8196002244949341,-0.15735866129398346,0.06084534898400307
9.62341046333313,-0.10929274559020996,-1.0290303230285645,0.8646143078804016,0.8211261034011841,-0.15697719156742096,0.06008239835500717
9.643686294555664,-0.10929274559020996,-1.0282673835754395,0.8638513684272766,0.8234149813652039,-0.15506981313228607,0.05970092490315437
9.663857698440552,-0.10929274559020996,-1.0275044441223145,0.8638513684272766,0.8249408602714539,-0.15354390442371368,0.05855649709701538
9.683960199356079,-0.10929274559020996,-1.0267413854599,0.8630884289741516,0.8272297382354736,-0.1527809500694275,0.05703059583902359
9.703979730606079,-0.10929274559020996,-1.0263599157333374,0.8619440197944641,0.8287556171417236,-0.1527809500694275,0.05664911866188049
9.724051237106323,-0.10929274559020996,-1.0263599157333374,0.8619440197944641,0.8310444951057434,-0.1527809500694275,0.05664911866188049
9.744133234024048,-0.10929274559020996,-1.0263599157333374,0.8615625500679016,0.8321889042854309,-0.152399480342865,0.056267641484737396
9.764198303222656,-0.10929274559020996,-1.0263599157333374,0.8611810207366943,0.8348592519760132,-0.152399480342865,0.0558861680328846
9.784258127212524,-0.10967422276735306,-1.0263599157333374,0.8604180812835693,0.8348592519760132,-0.1520180106163025,0.0555046908557415
9.804383277893066,-0.11005569249391556,-1.0255969762802124,0.8600366115570068,0.8363851308822632,-0.1508735716342926,0.054741740226745605
9.824524641036987,-0.11120012402534485,-1.0248340368270874,0.8596551418304443,0.838674008846283,-0.1501106321811676,0.05436026677489281
9.844622373580933,-0.11158160120248795,-1.024452567100525,0.8588922023773193,0.839436948299408,-0.1497291475534439,0.05359731614589691
9.86463737487793,-0.11196307092905045,-1.0240710973739624,0.8585107326507568,0.8398184180259705,-0.1489662081003189,0.05283436179161072
9.884737014770508,-0.11234454810619354,-1.0233081579208374,0.8581292629241943,0.8421072959899902,-0.14858472347259521,0.05245288833975792
9.904865741729736,-0.11348897218704224,-1.0225452184677124,0.8577477931976318,0.8440146446228027,-0.14820325374603271,0.05207141116261482
9.924885511398315,-0.11348897218704224,-1.02216374874115,0.8573662638664246,0.8463035225868225,-0.14744029939174652,0.05130846053361893
9.944985628128052,-0.11348897218704224,-1.0217822790145874,0.8566033244132996,0.846684992313385,-0.14591439068317413,0.04940108209848404
9.965083837509155,-0.11348897218704224,-1.021400809288025,0.8562218546867371,0.84744793176651,-0.14591439068317413,0.048638131469488144
9.985151767730713,-0.11348897218704224,-1.0210193395614624,0.8558403849601746,0.8508812189102173,-0.14553292095661163,0.048256658017635345
10.005237102508545,-0.11348897218704224,-1.0210193395614624,0.8554589152336121,0.8539330363273621,-0.14400701224803925,0.046730753034353256
10.025388240814209,-0.11348897218704224,-1.0210193395614624,0.8550774455070496,0.8566033244132996,-0.14248111844062805,0.04558632895350456
10.04560136795044,-0.11348897218704224,-1.0206378698349,0.8546959757804871,0.8588922023773193,-0.14133669435977936,0.045204851776361465
10.065563678741455,-0.11348897218704224,-1.0202564001083374,0.8535515666007996,0.8611810207366943,-0.13904783129692078,0.045204851776361465
10.08564043045044,-0.11348897218704224,-1.0194933414459229,0.8531700372695923,0.8627069592475891,-0.13828489184379578,0.04482337832450867
10.105701684951782,-0.11348897218704224,-1.0191118717193604,0.8531700372695923,0.8642328381538391,-0.13828489184379578,0.04444190114736557
10.125749588012695,-0.11348897218704224,-1.0191118717193604,0.8531700372695923,0.8646143078804016,-0.13790340721607208,0.043678950518369675
10.146007776260376,-0.11348897218704224,-1.0191118717193604,0.8524070978164673,0.8646143078804016,-0.1367589831352234,0.04253452271223068
10.166093111038208,-0.11348897218704224,-1.0187304019927979,0.8516441583633423,0.8653773069381714,-0.135233074426651,0.04139009863138199
10.186146020889282,-0.11348897218704224,-1.0183489322662354,0.8512626886367798,0.8676661252975464,-0.135233074426651,0.040245670825242996
10.2062246799469,-0.11348897218704224,-1.0179674625396729,0.8504997491836548,0.8703364729881287,-0.1348516047000885,0.0398641936480999
10.22632360458374,-0.11348897218704224,-1.0179674625396729,0.8501182794570923,0.8714808821678162,-0.1340886503458023,0.039101243019104004
10.24649453163147,-0.11348897218704224,-1.0179674625396729,0.8497368097305298,0.8718623518943787,-0.1329442262649536,0.03833829239010811
10.266487121582031,-0.11348897218704224,-1.0179674625396729,0.84897381067276,0.8722438216209412,-0.13141833245754242,0.03795681521296501
10.286576747894287,-0.11348897218704224,-1.0179674625396729,0.84897381067276,0.8733882904052734,-0.13141833245754242,0.03757534176111221
10.306632995605469,-0.11348897218704224,-1.0172045230865479,0.848210871219635,0.8760585784912109,-0.13179980218410492,0.03757534176111221
10.326714992523193,-0.11348897218704224,-1.0168230533599854,0.848210871219635,0.8787289261817932,-0.13179980218410492,0.037193864583969116
10.346801519393921,-0.11348897218704224,-1.0164415836334229,0.848210871219635,0.8806362748146057,-0.13141833245754242,0.037193864583969116
10.366943359375,-0.11348897218704224,-1.0160601139068604,0.848210871219635,0.8813992738723755,-0.13103684782981873,0.03681239113211632
10.387203454971313,-0.11348897218704224,-1.0160601139068604,0.8478294014930725,0.883306622505188,-0.13103684782981873,0.03643091395497322
10.407339334487915,-0.11348897218704224,-1.0160601139068604,0.8478294014930725,0.8836880922317505,-0.13103684782981873,0.03604944050312042
10.427526712417603,-0.11348897218704224,-1.0160601139068604,0.84744793176651,0.8852140307426453,-0.13103684782981873,0.03490501269698143
10.447620391845703,-0.11348897218704224,-1.0156786441802979,0.8470664620399475,0.8875028491020203,-0.13103684782981873,0.034142062067985535
10.467625617980957,-0.11348897218704224,-1.0149157047271729,0.846684992313385,0.8894102573394775,-0.13103684782981873,0.03299763426184654
10.487690210342407,-0.11348897218704224,-1.0141527652740479,0.8463035225868225,0.8909361362457275,-0.13065537810325623,0.032616160809993744
10.507866859436035,-0.11348897218704224,-1.0137712955474854,0.84592205286026,0.8909361362457275,-0.13027389347553253,0.03147173300385475
10.527890920639038,-0.11348897218704224,-1.0137712955474854,0.84592205286026,0.89131760597229,-0.12874799966812134,0.030708782374858856
10.547981262207031,-0.11348897218704224,-1.0137712955474854,0.84592205286026,0.892080545425415,-0.12836651504039764,0.03032730519771576
10.568052530288696,-0.11348897218704224,-1.0137712955474854,0.8455405235290527,0.8943694233894348,-0.12874799966812134,0.03032730519771576
10.588411808013916,-0.11348897218704224,-1.0137712955474854,0.8447775840759277,0.8958953022956848,-0.12798504531383514,0.02994582988321781
10.608448266983032,-0.11348897218704224,-1.0130083560943604,0.8436331748962402,0.8978027105331421,-0.12645913660526276,0.029564354568719864
10.628536701202393,-0.11387044936418533,-1.0122454166412354,0.8428702354431152,0.8981841802597046,-0.12684062123298645,0.029564354568719864
10.648802757263184,-0.11425192654132843,-1.0118639469146729,0.8424887657165527,0.8989471197128296,-0.12607766687870026,0.029182879254221916
10.668860912322998,-0.11425192654132843,-1.0118639469146729,0.8424887657165527,0.8997100591659546,-0.12531471252441406,0.02841992862522602
10.688925743103027,-0.11463340371847153,-1.0118639469146729,0.8424887657165527,0.9008545279502869,-0.12493324279785156,0.028038453310728073
10.709073543548584,-0.11463340371847153,-1.0118639469146729,0.841725766658783,0.9012359976768494,-0.12302586436271667,0.02727550081908703
10.729193449020386,-0.11463340371847153,-1.0118639469146729,0.840962827205658,0.9019989371299744,-0.12264438718557358,0.026512550190091133
10.749241590499878,-0.11463340371847153,-1.0118639469146729,0.840962827205658,0.9027618765830994,-0.12302586436271667,0.026131074875593185
10.769302368164062,-0.11463340371847153,-1.0118639469146729,0.8405813574790955,0.9058136940002441,-0.12302586436271667,0.025749599561095238
10.789424657821655,-0.11463340371847153,-1.0118639469146729,0.8405813574790955,0.9088655114173889,-0.12264438718557358,0.02536812424659729
10.80955171585083,-0.11463340371847153,-1.0111008882522583,0.8405813574790955,0.9107728600502014,-0.12226291000843048,0.024986648932099342
10.829796075820923,-0.11463340371847153,-1.0103379487991333,0.840199887752533,0.9130617380142212,-0.12188144028186798,0.023079270496964455
10.849875450134277,-0.11463340371847153,-1.0099564790725708,0.8398184180259705,0.9138246774673462,-0.12111848592758179,0.023079270496964455
10.869930982589722,-0.11463340371847153,-1.0099564790725708,0.8398184180259705,0.9145876169204712,-0.1199740618467331,0.022697795182466507
10.88998794555664,-0.11463340371847153,-1.0099564790725708,0.8398184180259705,0.916113555431366,-0.1192111074924469,0.02231631986796856
10.91016674041748,-0.11463340371847153,-1.0095750093460083,0.839436948299408,0.916876494884491,-0.1192111074924469,0.02231631986796856
10.930259227752686,-0.11463340371847153,-1.0095750093460083,0.8390554785728455,0.916876494884491,-0.1188296303153038,0.02193484455347061
10.95031452178955,-0.11463340371847153,-1.0095750093460083,0.838674008846283,0.9180209040641785,-0.1184481605887413,0.021553369238972664
10.970474004745483,-0.11501488089561462,-1.0095750093460083,0.838674008846283,0.9195467829704285,-0.1184481605887413,0.021171892061829567
10.990542888641357,-0.11615930497646332,-1.0088120698928833,0.8382925391197205,0.9210727214813232,-0.11692225188016891,0.021171892061829567
11.010670900344849,-0.11654078215360641,-1.0080491304397583,0.837911069393158,0.9225986003875732,-0.11463340371847153,0.02040894143283367
11.03076720237732,-0.11654078215360641,-1.0076676607131958,0.8375295400619507,0.9233615398406982,-0.11425192654132843,0.020027466118335724
11.05085563659668,-0.11654078215360641,-1.0076676607131958,0.8371480703353882,0.9237430095672607,-0.11310750246047974,0.019645990803837776
11.070969581604004,-0.11654078215360641,-1.0076676607131958,0.8367666006088257,0.924124538898468,-0.11272602528333664,0.01926451548933983
11.091031312942505,-0.11654078215360641,-1.0076676607131958,0.8363851308822632,0.924887478351593,-0.11272602528333664,0.01926451548933983
11.111168622970581,-0.11654078215360641,-1.0076676607131958,0.8363851308822632,0.925650417804718,-0.11196307092905045,0.01888304017484188
11.131173610687256,-0.11654078215360641,-1.0076676607131958,0.8360036611557007,0.9275577664375305,-0.11043716967105865,0.018501564860343933
11.151295900344849,-0.11654078215360641,-1.0076676607131958,0.8356221914291382,0.9279392957687378,-0.10929274559020996,0.018120087683200836
11.171391487121582,-0.11654078215360641,-1.0076676607131958,0.8356221914291382,0.9283207654953003,-0.10929274559020996,0.018120087683200836
11.191418886184692,-0.11654078215360641,-1.0076676607131958,0.8352407217025757,0.9298466444015503,-0.10967422276735306,0.01773861236870289
11.211518049240112,-0.11654078215360641,-1.0076676607131958,0.8348592519760132,0.9325169920921326,-0.10967422276735306,0.01735713705420494
11.23161506652832,-0.11654078215360641,-1.0072861909866333,0.8344777822494507,0.9348058104515076,-0.10929274559020996,0.016594186425209045
11.251640558242798,-0.11654078215360641,-1.0069047212600708,0.8344777822494507,0.9359502792358398,-0.10891126841306686,0.016212711110711098
11.271738767623901,-0.11654078215360641,-1.0065232515335083,0.8340963125228882,0.9370946884155273,-0.10814831405878067,0.015449759550392628
11.291847705841064,-0.11654078215360641,-1.0065232515335083,0.8337147831916809,0.9382390975952148,-0.10662241280078888,0.01506828423589468
11.311862230300903,-0.11654078215360641,-1.0065232515335083,0.8333333134651184,0.9393835067749023,-0.10624094307422638,0.01506828423589468
11.331936836242676,-0.11654078215360641,-1.0065232515335083,0.8325703740119934,0.9401465058326721,-0.10624094307422638,0.014686808921396732
11.352030038833618,-0.11654078215360641,-1.0065232515335083,0.8325703740119934,0.9416723847389221,-0.10700388997793198,0.013923857361078262
11.372072696685791,-0.11654078215360641,-1.0065232515335083,0.8325703740119934,0.9431982636451721,-0.10700388997793198,0.013923857361078262
11.39219617843628,-0.11654078215360641,-1.0065232515335083,0.8325703740119934,0.9431982636451721,-0.10624094307422638,0.012397955171763897
11.412292957305908,-0.11654078215360641,-1.0065232515335083,0.8321889042854309,0.9431982636451721,-0.10585946589708328,0.011635004542768002
11.432363510131836,-0.11654078215360641,-1.0057603120803833,0.8318074345588684,0.9435797929763794,-0.10585946589708328,0.01125352829694748
11.452437400817871,-0.11654078215360641,-1.0057603120803833,0.8314259648323059,0.9451056718826294,-0.10547798871994019,0.010490577667951584
11.472508430480957,-0.11654078215360641,-1.0057603120803833,0.8314259648323059,0.9473945498466492,-0.10547798871994019,0.010490577667951584
11.492576837539673,-0.11654078215360641,-1.0057603120803833,0.8314259648323059,0.9485389590263367,-0.10547798871994019,0.009346150793135166
11.512791633605957,-0.11654078215360641,-1.0057603120803833,0.8310444951057434,0.9504463076591492,-0.10547798871994019,0.008964675478637218
11.532875776290894,-0.11654078215360641,-1.0057603120803833,0.8310444951057434,0.9504463076591492,-0.10509651154279709,0.008201723918318748
11.552942752838135,-0.11654078215360641,-1.0057603120803833,0.8302815556526184,0.9504463076591492,-0.10433356463909149,0.007438773289322853
11.573009014129639,-0.11654078215360641,-1.0053788423538208,0.8302815556526184,0.951209306716919,-0.10471503436565399,0.007057297509163618
11.59309458732605,-0.11654078215360641,-1.0053788423538208,0.8295185565948486,0.952735185623169,-0.1039520874619484,0.00667582219466567
11.613150596618652,-0.11654078215360641,-1.0053788423538208,0.8295185565948486,0.9546425342559814,-0.10433356463909149,0.006294346414506435
11.63338017463684,-0.11654078215360641,-1.0049973726272583,0.8295185565948486,0.955024003982544,-0.1039520874619484,0.006294346414506435
11.65346622467041,-0.11654078215360641,-1.0046159029006958,0.8295185565948486,0.9565499424934387,-0.1039520874619484,0.005531395319849253
11.673652172088623,-0.11654078215360641,-1.0046159029006958,0.8295185565948486,0.9580758213996887,-0.1024261862039566,0.004386968910694122
11.69416093826294,-0.11654078215360641,-1.0046159029006958,0.8295185565948486,0.9584572911262512,-0.10090028494596481,0.0036240178160369396
11.714322566986084,-0.11654078215360641,-1.0046159029006958,0.8295185565948486,0.959983229637146,-0.10013733059167862,0.0032425422687083483
11.73431658744812,-0.11654078215360641,-1.0046159029006958,0.8291370868682861,0.962272047996521,-0.10051880776882172,0.0036240178160369396
11.754895687103271,-0.11654078215360641,-1.0046159029006958,0.8291370868682861,0.9626535177230835,-0.10051880776882172,0.0032425422687083483
11.774983406066895,-0.11654078215360641,-1.0046159029006958,0.8291370868682861,0.9645609259605408,-0.10013733059167862,0.0032425422687083483
11.795048236846924,-0.11654078215360641,-1.0046159029006958,0.8287556171417236,0.9657053351402283,-0.09861142933368683,0.0032425422687083483
11.81528115272522,-0.11654078215360641,-1.0046159029006958,0.8283741474151611,0.9664682745933533,-0.09822995215654373,0.002861066721379757
11.835386753082275,-0.11654078215360641,-1.0046159029006958,0.8283741474151611,0.9683756828308105,-0.09746700525283813,0.0024795911740511656
11.855488300323486,-0.11654078215360641,-1.0046159029006958,0.8279926776885986,0.968757152557373,-0.09708552807569504,0.0020981156267225742
11.875534057617188,-0.11654078215360641,-1.0046159029006958,0.8276112079620361,0.9691386222839355,-0.09594109654426575,0.0013351644156500697
11.89561653137207,-0.11654078215360641,-1.0046159029006958,0.8276112079620361,0.9691386222839355,-0.09555962681770325,0.0009536888683214784
11.915735244750977,-0.11654078215360641,-1.0049973726272583,0.8276112079620361,0.9691386222839355,-0.09517814964056015,0.00019073777366429567
11.935785293579102,-0.11692225188016891,-1.0065232515335083,0.8279926776885986,0.9691386222839355,-0.09517814964056015,-0.0009536888683214784
11.955889225006104,-0.1184481605887413,-1.0080491304397583,0.8291370868682861,0.968757152557373,-0.09555962681770325,-0.0024795911740511656
11.975915908813477,-0.1199740618467331,-1.0095750093460083,0.8299000263214111,0.9683756828308105,-0.09555962681770325,-0.005531395319849253
11.99603533744812,-0.12149996310472488,-1.0111008882522583,0.8306630253791809,0.9668498039245605,-0.09594109654426575,-0.007057297509163618
12.016086339950562,-0.12378881871700287,-1.0133898258209229,0.8314259648323059,0.9634165167808533,-0.09746700525283813,-0.00858320016413927
12.036162614822388,-0.12417028844356537,-1.0149157047271729,0.8318074345588684,0.9596017599105835,-0.09822995215654373,-0.009727626107633114
12.056297540664673,-0.12569619715213776,-1.0172045230865479,0.8329518437385559,0.9554055333137512,-0.10090028494596481,-0.012397955171763897
12.076313972473145,-0.12722209095954895,-1.0194933414459229,0.8337147831916809,0.9504463076591492,-0.1024261862039566,-0.01430533267557621
12.096488952636719,-0.12836651504039764,-1.0210193395614624,0.8340963125228882,0.9458686113357544,-0.10204470902681351,-0.01583123579621315
12.116623878479004,-0.12951095402240753,-1.022926688194275,0.8352407217025757,0.9412909150123596,-0.1031891331076622,-0.018120087683200836
12.13666319847107,-0.13065537810325623,-1.02521550655365,0.8363851308822632,0.9367132186889648,-0.1039520874619484,-0.021171892061829567
12.157087564468384,-0.13179980218410492,-1.0271228551864624,0.8375295400619507,0.9309910535812378,-0.10509651154279709,-0.02384222112596035
12.177202701568604,-0.1337071806192398,-1.0297932624816895,0.838674008846283,0.9252689480781555,-0.10547798871994019,-0.026512550190091133
12.197365283966064,-0.135233074426651,-1.032463550567627,0.8398184180259705,0.9195467829704285,-0.10738536715507507,-0.03032730519771576
12.217372417449951,-0.1367589831352234,-1.0351338386535645,0.840962827205658,0.9145876169204712,-0.10929274559020996,-0.032616160809993744
12.237448453903198,-0.13752193748950958,-1.0370413064956665,0.841725766658783,0.9100099205970764,-0.11196307092905045,-0.03490501269698143
12.257515668869019,-0.13866636157035828,-1.039711594581604,0.8428702354431152,0.9042877554893494,-0.11387044936418533,-0.03681239113211632
12.277634620666504,-0.13904783129692078,-1.0416189432144165,0.8440146446228027,0.8993285894393921,-0.11615930497646332,-0.0394827201962471
12.297710418701172,-0.14057374000549316,-1.0442893505096436,0.8451590538024902,0.8936064839363098,-0.11615930497646332,-0.04291599988937378
12.317785024642944,-0.14286258816719055,-1.046959638595581,0.8463035225868225,0.8886472582817078,-0.11692225188016891,-0.04558632895350456
12.337939262390137,-0.14362554252147675,-1.049248456954956,0.84744793176651,0.883306622505188,-0.11768520623445511,-0.048638131469488144
12.357945442199707,-0.14400701224803925,-1.050774335861206,0.8478294014930725,0.8783474564552307,-0.1203555315732956,-0.05130846053361893
12.378050804138184,-0.14553292095661163,-1.0530632734298706,0.8485923409461975,0.8722438216209412,-0.12264438718557358,-0.05359731614589691
12.39812159538269,-0.14667734503746033,-1.0561150312423706,0.8497368097305298,0.8684290647506714,-0.12417028844356537,-0.05703059583902359
12.418200016021729,-0.14705882966518402,-1.0587854385375977,0.8504997491836548,0.8634698987007141,-0.12455176562070847,-0.06008239835500717
12.438479661941528,-0.14820325374603271,-1.0603113174438477,0.8516441583633423,0.8585107326507568,-0.12531471252441406,-0.06160829961299896
12.458557367324829,-0.14858472347259521,-1.0629816055297852,0.8527885675430298,0.8535515666007996,-0.12722209095954895,-0.06504157930612564
12.478642225265503,-0.1493476778268814,-1.0648889541625977,0.8539330363273621,0.8485923409461975,-0.12798504531383514,-0.06809338182210922
12.498937129974365,-0.1501106321811676,-1.0664149522781372,0.8543145060539246,0.8436331748962402,-0.12836651504039764,-0.07000076025724411
12.519042491912842,-0.1512550562620163,-1.0694667100906372,0.8554589152336121,0.838674008846283,-0.12989242374897003,-0.07305257022380829
12.539137363433838,-0.152399480342865,-1.0713740587234497,0.8566033244132996,0.8337147831916809,-0.13141833245754242,-0.07610437273979187
12.560015678405762,-0.15354390442371368,-1.0740443468093872,0.8577477931976318,0.8279926776885986,-0.1325627565383911,-0.07915617525577545
12.58017110824585,-0.15354390442371368,-1.0763332843780518,0.8588922023773193,0.8230335116386414,-0.1329442262649536,-0.08182650804519653
12.600210666656494,-0.15430685877799988,-1.0790035724639893,0.8600366115570068,0.8176928162574768,-0.1337071806192398,-0.08525978773832321
12.620254278182983,-0.15430685877799988,-1.0805294513702393,0.8611810207366943,0.8127336502075195,-0.134470134973526,-0.0875486359000206
12.640339136123657,-0.15468832850456238,-1.0824369192123413,0.8619440197944641,0.8085374236106873,-0.135233074426651,-0.09060044586658478
12.660433292388916,-0.15545128285884857,-1.0843442678451538,0.8630884289741516,0.8047226667404175,-0.1356145590543747,-0.09403372555971146
12.680513620376587,-0.15583276748657227,-1.0862516164779663,0.8634698987007141,0.7997635006904602,-0.1359960287809372,-0.09594109654426575
12.700581789016724,-0.15659570693969727,-1.0885404348373413,0.8646143078804016,0.7955672740936279,-0.13790340721607208,-0.09861142933368683
12.720694780349731,-0.15774014592170715,-1.0908293724060059,0.8653773069381714,0.7902265787124634,-0.13942931592464447,-0.1024261862039566
12.740764856338501,-0.15850308537483215,-1.0931181907653809,0.8665217161178589,0.7860303521156311,-0.14133669435977936,-0.10509651154279709
12.760840892791748,-0.15850308537483215,-1.0946440696716309,0.8672846555709839,0.7822155952453613,-0.14438849687576294,-0.10700388997793198
12.780915260314941,-0.15850308537483215,-1.0965514183044434,0.8680475950241089,0.7776378989219666,-0.14705882966518402,-0.11043716967105865
12.800982236862183,-0.15850308537483215,-1.0984588861465454,0.8688105344772339,0.7734416723251343,-0.14744029939174652,-0.11310750246047974
12.821039915084839,-0.15850308537483215,-1.1007477045059204,0.8695735335350037,0.768482506275177,-0.14705882966518402,-0.11577782779932022
12.841175556182861,-0.15888457000255585,-1.102655053138733,0.8703364729881287,0.7639048099517822,-0.14705882966518402,-0.1188296303153038
12.861270904541016,-0.15964750945568085,-1.1045624017715454,0.8710994124412537,0.7597085237503052,-0.14705882966518402,-0.12111848592758179
12.881362676620483,-0.15964750945568085,-1.10685133934021,0.8722438216209412,0.7558938264846802,-0.14782176911830902,-0.12302586436271667
12.901463031768799,-0.16041046380996704,-1.1087586879730225,0.8737697601318359,0.7513160705566406,-0.1489662081003189,-0.12645913660526276
12.921553373336792,-0.16041046380996704,-1.10990309715271,0.8745326995849609,0.7463569045066833,-0.1497291475534439,-0.12912946939468384
12.941630840301514,-0.16041046380996704,-1.11142897605896,0.8756771087646484,0.7425421476364136,-0.1504921019077301,-0.13141833245754242
12.961679220199585,-0.16079194843769073,-1.113336443901062,0.8768215179443359,0.7383459210395813,-0.1508735716342926,-0.1348516047000885
12.981774091720581,-0.16079194843769073,-1.114862322807312,0.8772030472755432,0.734912633895874,-0.1508735716342926,-0.1371404528617859
13.001838207244873,-0.16079194843769073,-1.117151141166687,0.8775845170021057,0.7307164072990417,-0.1504921019077301,-0.13981078565120697
13.021889209747314,-0.16079194843769073,-1.1190584897994995,0.8783474564552307,0.727664589881897,-0.1508735716342926,-0.14171816408634186
13.041969537734985,-0.16079194843769073,-1.1205843687057495,0.8791103959083557,0.7234683632850647,-0.152399480342865,-0.14438849687576294
13.062057256698608,-0.16079194843769073,-1.121347427368164,0.8794918656349182,0.7196536064147949,-0.15392538905143738,-0.14667734503746033
13.082135438919067,-0.16155488789081573,-1.122873306274414,0.8806362748146057,0.7158388495445251,-0.15430685877799988,-0.14858472347259521
13.102187871932983,-0.16269932687282562,-1.1240177154541016,0.8813992738723755,0.7124055624008179,-0.15392538905143738,-0.1512550562620163
13.122286081314087,-0.16269932687282562,-1.1255435943603516,0.8821622133255005,0.7089722752571106,-0.15468832850456238,-0.15430685877799988
13.142420530319214,-0.16269932687282562,-1.1270694732666016,0.8829251527786255,0.7051575779914856,-0.15621423721313477,-0.15621423721313477
13.162473201751709,-0.16269932687282562,-1.1293584108352661,0.883306622505188,0.7017242908477783,-0.15621423721313477,-0.15850308537483215
13.182510137557983,-0.16231784224510193,-1.1308842897415161,0.8836880922317505,0.699053943157196,-0.15659570693969727,-0.16193637251853943
13.202597618103027,-0.16231784224510193,-1.1320286989212036,0.8836880922317505,0.6948577165603638,-0.15735866129398346,-0.16422522068023682
13.22280502319336,-0.16231784224510193,-1.1335545778274536,0.8848325610160828,0.691805899143219,-0.15774014592170715,-0.1661325991153717
13.242784023284912,-0.16231784224510193,-1.1350804567337036,0.8855955004692078,0.6879911422729492,-0.15735866129398346,-0.16880293190479279
13.262890338897705,-0.16231784224510193,-1.1358433961868286,0.8863584399223328,0.6857023239135742,-0.15735866129398346,-0.17147326469421387
13.283119678497314,-0.16231784224510193,-1.1369879245758057,0.8871213793754578,0.6826505064964294,-0.15850308537483215,-0.17299915850162506
13.303102493286133,-0.16231784224510193,-1.1381323337554932,0.8878843188285828,0.6788357496261597,-0.15850308537483215,-0.17452506721019745
13.323164701461792,-0.16231784224510193,-1.1392767429351807,0.8886472582817078,0.6761654019355774,-0.15812161564826965,-0.17719538509845734
13.343241930007935,-0.16231784224510193,-1.1411840915679932,0.8894102573394775,0.6727321147918701,-0.15850308537483215,-0.1806286722421646
13.363281011581421,-0.16231784224510193,-1.1423285007476807,0.88979172706604,0.6700618267059326,-0.15850308537483215,-0.1825360506772995
13.383513689041138,-0.16231784224510193,-1.1434729099273682,0.88979172706604,0.6673914790153503,-0.15888457000255585,-0.1848248988389969
13.40359354019165,-0.16231784224510193,-1.1438543796539307,0.8901731967926025,0.6639581918716431,-0.15926603972911835,-0.18711376190185547
13.42376708984375,-0.16231784224510193,-1.1449989080429077,0.8909361362457275,0.6605249047279358,-0.16002899408340454,-0.18902114033699036
13.443788290023804,-0.16231784224510193,-1.1457618474960327,0.8916990756988525,0.6570916175842285,-0.16079194843769073,-0.19130998849868774
13.463934659957886,-0.16231784224510193,-1.1465247869491577,0.892080545425415,0.6536583304405212,-0.16117341816425323,-0.19283588230609894
13.48393988609314,-0.16231784224510193,-1.1476691961288452,0.892080545425415,0.6513695120811462,-0.16193637251853943,-0.19474326074123383
13.504020929336548,-0.16231784224510193,-1.1488136053085327,0.8924620151519775,0.648699164390564,-0.16193637251853943,-0.1974135935306549
13.524101734161377,-0.16231784224510193,-1.1507209539413452,0.8932250142097473,0.6460288166999817,-0.16231784224510193,-0.1993209719657898
13.54419207572937,-0.16231784224510193,-1.1518653631210327,0.8936064839363098,0.6433585286140442,-0.16231784224510193,-0.2004653960466385
13.56425929069519,-0.16231784224510193,-1.1526284217834473,0.8939879536628723,0.6414511203765869,-0.16384375095367432,-0.20351719856262207
13.584311485290527,-0.16231784224510193,-1.1530098915100098,0.8943694233894348,0.6376363635063171,-0.16422522068023682,-0.20618753135204315
13.604419469833374,-0.16231784224510193,-1.1537728309631348,0.8947508931159973,0.6342030763626099,-0.1646067053079605,-0.20885786414146423
13.624492883682251,-0.16231784224510193,-1.1545357704162598,0.8955138325691223,0.6315327882766724,-0.1653696447610855,-0.21038375794887543
13.644545555114746,-0.16231784224510193,-1.1560616493225098,0.8955138325691223,0.6288624405860901,-0.164988175034523,-0.2130540907382965
13.664645910263062,-0.16231784224510193,-1.1568245887756348,0.8955138325691223,0.6265735626220703,-0.164988175034523,-0.2153429538011551
13.68475079536438,-0.16231784224510193,-1.1579689979553223,0.8958953022956848,0.6246662139892578,-0.1653696447610855,-0.21725031733512878
13.704777956008911,-0.16231784224510193,-1.1587319374084473,0.8958953022956848,0.6219958662986755,-0.1653696447610855,-0.21839475631713867
13.725176811218262,-0.16155488789081573,-1.1591134071350098,0.8962767720222473,0.619325578212738,-0.1657511293888092,-0.22068360447883606
13.74533724784851,-0.16117341816425323,-1.1598763465881348,0.8970397710800171,0.6162737607955933,-0.1661325991153717,-0.22220951318740845
13.765446424484253,-0.16117341816425323,-1.1606394052505493,0.8974212408065796,0.612840473651886,-0.1653696447610855,-0.22487983107566833
13.78543758392334,-0.16117341816425323,-1.1610208749771118,0.8978027105331421,0.6109330654144287,-0.1653696447610855,-0.22602425515651703
13.805673599243164,-0.16117341816425323,-1.1614023447036743,0.8978027105331421,0.6086442470550537,-0.1661325991153717,-0.2283131182193756
13.825762271881104,-0.16117341816425323,-1.1625467538833618,0.8978027105331421,0.6059738993644714,-0.1657511293888092,-0.230601966381073
13.845861911773682,-0.16041046380996704,-1.1633096933364868,0.8981841802597046,0.6040665507316589,-0.1665140837430954,-0.23327229917049408
13.86611557006836,-0.16041046380996704,-1.1640726327896118,0.8981841802597046,0.6021591424942017,-0.1672770231962204,-0.23365376889705658
13.886256456375122,-0.16041046380996704,-1.1648355722427368,0.8981841802597046,0.6006332635879517,-0.1672770231962204,-0.23632410168647766
13.906381607055664,-0.16041046380996704,-1.1655985116958618,0.8981841802597046,0.5975814461708069,-0.1672770231962204,-0.23785001039505005
13.926398515701294,-0.16041046380996704,-1.1663614511489868,0.8985656499862671,0.5960555672645569,-0.1676585078239441,-0.24052032828330994
13.946482419967651,-0.16041046380996704,-1.1671243906021118,0.8989471197128296,0.5937666893005371,-0.1680399775505066,-0.24242770671844482
13.966582298278809,-0.16041046380996704,-1.1671243906021118,0.8993285894393921,0.5910963416099548,-0.16880293190479279,-0.24357213079929352
13.986655235290527,-0.16041046380996704,-1.1678873300552368,0.8993285894393921,0.5895704627037048,-0.16918440163135529,-0.2447165697813034
14.006809711456299,-0.16041046380996704,-1.1682689189910889,0.8993285894393921,0.5869001150131226,-0.16880293190479279,-0.2458609938621521
14.026922941207886,-0.16041046380996704,-1.1690318584442139,0.8993285894393921,0.5842298269271851,-0.16880293190479279,-0.24891279637813568
14.047041654586792,-0.16041046380996704,-1.1697947978973389,0.8993285894393921,0.5823224186897278,-0.16880293190479279,-0.25120165944099426
14.067088842391968,-0.16041046380996704,-1.1705577373504639,0.8997100591659546,0.580033540725708,-0.1684214472770691,-0.25234606862068176
14.087164878845215,-0.16041046380996704,-1.1713206768035889,0.8997100591659546,0.578507661819458,-0.16880293190479279,-0.25387197732925415
14.107282638549805,-0.16041046380996704,-1.1717021465301514,0.8997100591659546,0.5758373141288757,-0.16918440163135529,-0.25539788603782654
14.127393007278442,-0.16041046380996704,-1.1720836162567139,0.8997100591659546,0.5746929049491882,-0.16918440163135529,-0.2576867341995239
14.147419452667236,-0.16041046380996704,-1.1724650859832764,0.9000915288925171,0.5724040865898132,-0.16880293190479279,-0.2595941126346588
