liuyurong129/humanoid-gym/humanoid/data/actual_q_20250522-040632.csv
timestamp,joint_1,joint_2,joint_3,joint_4,joint_5,joint_6
5.3882598876953125e-05,0.000572213320992887,0.1665140837430954,-0.08297093212604523,0.00019073777366429567,-0.00019073777366429567,-0.00019073777366429567
0.020138025283813477,0.000572213320992887,0.14476996660232544,-0.07457847148180008,-0.00019073777366429567,-0.0009536888683214784,-0.00019073777366429567
0.04021310806274414,-0.00019073777366429567,0.12111848592758179,-0.06389715522527695,-0.00019073777366429567,0.0020981156267225742,-0.00019073777366429567
0.060294389724731445,0.00019073777366429567,0.10700388997793198,-0.059319447726011276,-0.00019073777366429567,0.0009536888683214784,-0.00019073777366429567
0.08036398887634277,0.00019073777366429567,0.09708552807569504,-0.051689937710762024,-0.00019073777366429567,0.00019073777366429567,-0.00019073777366429567
0.10042428970336914,0.00019073777366429567,0.0879301130771637,-0.04482337832450867,-0.00019073777366429567,0.00019073777366429567,-0.00019073777366429567
0.12059211730957031,0.00019073777366429567,0.07572289556264877,-0.03452353551983833,-0.00019073777366429567,-0.00019073777366429567,-0.000572213320992887
0.14061498641967773,0.00019073777366429567,0.06351567804813385,-0.02536812424659729,0.00019073777366429567,-0.00019073777366429567,-0.0009536888683214784
0.1609201431274414,0.000572213320992887,0.04787518084049225,-0.01506828423589468,-0.00019073777366429567,-0.00019073777366429567,-0.0032425422687083483
0.1810293197631836,0.000572213320992887,0.03299763426184654,-0.004386968910694122,-0.00019073777366429567,-0.00019073777366429567,-0.0036240178160369396
0.20117568969726562,0.0009536888683214784,0.021553369238972664,0.0036240178160369396,-0.00019073777366429567,-0.000572213320992887,-0.00476844422519207
0.22122931480407715,0.000572213320992887,0.005912871100008488,0.015449759550392628,-0.00019073777366429567,-0.0009536888683214784,-0.00667582219466567
0.2413780689239502,0.000572213320992887,-0.009727626107633114,0.02536812424659729,-0.00019073777366429567,-0.0009536888683214784,-0.00667582219466567
0.26138806343078613,0.0009536888683214784,-0.02689402550458908,0.03490501269698143,-0.00019073777366429567,-0.000572213320992887,-0.007057297509163618
0.28153061866760254,0.0009536888683214784,-0.04406042397022247,0.04596780240535736,-0.00019073777366429567,-0.0009536888683214784,-0.0078202486038208
0.3016176223754883,0.0009536888683214784,-0.058175019919872284,0.05436026677489281,-0.000572213320992887,-0.0013351644156500697,-0.00858320016413927
0.3221876621246338,0.0009536888683214784,-0.07915617525577545,0.06656748056411743,-0.000572213320992887,-0.0020981156267225742,-0.010490577667951584
0.34230804443359375,0.0013351644156500697,-0.09975585341453552,0.08068207651376724,-0.000572213320992887,-0.0024795911740511656,-0.01201647985726595
0.36235499382019043,0.0024795911740511656,-0.1203555315732956,0.09174486994743347,-0.000572213320992887,-0.002861066721379757,-0.013923857361078262
0.38254880905151367,0.0024795911740511656,-0.13790340721607208,0.10547798871994019,-0.0009536888683214784,-0.004386968910694122,-0.014686808921396732
0.40264296531677246,0.0024795911740511656,-0.152399480342865,0.1188296303153038,-0.0009536888683214784,-0.004005493130534887,-0.01506828423589468
0.4227275848388672,0.002861066721379757,-0.1668955534696579,0.13103684782981873,-0.0013351644156500697,-0.005149920005351305,-0.016594186425209045
0.44286465644836426,0.0024795911740511656,-0.18902114033699036,0.14591439068317413,-0.0013351644156500697,-0.006294346414506435,-0.018501564860343933
0.4629232883453369,0.0024795911740511656,-0.20809490978717804,0.15659570693969727,-0.0013351644156500697,-0.00667582219466567,-0.021171892061829567
0.4830622673034668,0.0024795911740511656,-0.22678720951080322,0.16956588625907898,-0.001716639962978661,-0.0078202486038208,-0.02231631986796856
0.5031759738922119,0.0024795911740511656,-0.24280919134616852,0.182154580950737,-0.001716639962978661,-0.00858320016413927,-0.02384222112596035
0.5232598781585693,0.002861066721379757,-0.2569237947463989,0.19474326074123383,-0.0020981156267225742,-0.00858320016413927,-0.025749599561095238
0.5433330535888672,0.0024795911740511656,-0.2763790488243103,0.21114671230316162,-0.0024795911740511656,-0.008964675478637218,-0.026512550190091133
0.56343674659729,0.0024795911740511656,-0.2977416515350342,0.22487983107566833,-0.002861066721379757,-0.009727626107633114,-0.02880140393972397
0.5838453769683838,0.0024795911740511656,-0.31795987486839294,0.23937590420246124,-0.0036240178160369396,-0.01125352829694748,-0.030708782374858856
0.6039538383483887,0.0024795911740511656,-0.33512628078460693,0.25616082549095154,-0.004005493130534887,-0.011635004542768002,-0.03299763426184654
0.6240460872650146,0.002861066721379757,-0.34885939955711365,0.27027541399002075,-0.004386968910694122,-0.013160906732082367,-0.03337911143898964
0.6441853046417236,0.0024795911740511656,-0.36640727519989014,0.28858625888824463,-0.004386968910694122,-0.013923857361078262,-0.034142062067985535
0.6643128395080566,0.0024795911740511656,-0.3850995600223541,0.30346378684043884,-0.004386968910694122,-0.015449759550392628,-0.03604944050312042
0.6852436065673828,0.0024795911740511656,-0.4087510406970978,0.3229190409183502,-0.00476844422519207,-0.016212711110711098,-0.038719769567251205
0.705322265625,0.002861066721379757,-0.42744335532188416,0.3427557647228241,-0.005149920005351305,-0.01773861236870289,-0.04100862145423889
0.7253811359405518,0.002861066721379757,-0.44308385252952576,0.3603036403656006,-0.005912871100008488,-0.018501564860343933,-0.04291599988937378
0.7455027103424072,0.002861066721379757,-0.4648279547691345,0.38242924213409424,-0.005912871100008488,-0.01926451548933983,-0.04558632895350456
0.7656216621398926,0.0024795911740511656,-0.4858091175556183,0.4018844962120056,-0.00667582219466567,-0.01926451548933983,-0.048638131469488144
0.785696268081665,0.0024795911740511656,-0.5071717500686646,0.4228656589984894,-0.0078202486038208,-0.01926451548933983,-0.05054550990462303
0.8057899475097656,0.002861066721379757,-0.5247195959091187,0.44766154885292053,-0.0078202486038208,-0.020027466118335724,-0.05283436179161072
0.8259377479553223,0.002861066721379757,-0.54112309217453,0.4705500900745392,-0.008201723918318748,-0.020027466118335724,-0.0555046908557415
0.8459880352020264,0.002861066721379757,-0.5636301040649414,0.501068115234375,-0.008201723918318748,-0.02040894143283367,-0.058175019919872284
0.8661854267120361,0.002861066721379757,-0.5891889929771423,0.5285343527793884,-0.008201723918318748,-0.02040894143283367,-0.06046387553215027
0.8862442970275879,0.002861066721379757,-0.6132219433784485,0.5601968169212341,-0.008964675478637218,-0.020027466118335724,-0.06351567804813385
0.9063417911529541,0.002861066721379757,-0.6342030763626099,0.5880445837974548,-0.008964675478637218,-0.022697795182466507,-0.06733043491840363
0.9264214038848877,0.002861066721379757,-0.6525139212608337,0.6086442470550537,-0.009727626107633114,-0.02384222112596035,-0.06961929053068161
0.9465305805206299,0.002861066721379757,-0.6746395230293274,0.6368734240531921,-0.010490577667951584,-0.024986648932099342,-0.07419699430465698
0.9666125774383545,0.002861066721379757,-0.7021057605743408,0.6620507836341858,-0.010872052982449532,-0.02689402550458908,-0.07763027399778366
0.9868309497833252,0.0024795911740511656,-0.7303349375724792,0.691042959690094,-0.01125352829694748,-0.02727550081908703,-0.08220797777175903
1.0069308280944824,0.002861066721379757,-0.7539864182472229,0.7177462577819824,-0.01201647985726595,-0.027656977996230125,-0.086785688996315
1.0270485877990723,0.002861066721379757,-0.775730550289154,0.7436865568161011,-0.01201647985726595,-0.029182879254221916,-0.09060044586658478
1.047126293182373,0.0024795911740511656,-0.80357825756073,0.7753490209579468,-0.01201647985726595,-0.031090257689356804,-0.09517814964056015
1.0672218799591064,0.0024795911740511656,-0.8333333134651184,0.8039597272872925,-0.013160906732082367,-0.03147173300385475,-0.10128175467252731
1.0874717235565186,0.0024795911740511656,-0.8615625500679016,0.8325703740119934,-0.014686808921396732,-0.031090257689356804,-0.10547798871994019
1.107536792755127,0.002861066721379757,-0.88979172706604,0.8592736721038818,-0.015449759550392628,-0.03490501269698143,-0.11081864684820175
1.1276161670684814,0.0024795911740511656,-0.917639434337616,0.883306622505188,-0.01583123579621315,-0.03604944050312042,-0.11730372905731201
1.1477346420288086,0.002861066721379757,-0.9485389590263367,0.9081025123596191,-0.016212711110711098,-0.03795681521296501,-0.12340734153985977
1.1678040027618408,0.0024795911740511656,-0.9813458323478699,0.9321355223655701,-0.016212711110711098,-0.040245670825242996,-0.13218127191066742
1.1882596015930176,0.0024795911740511656,-1.0133898258209229,0.955024003982544,-0.016975661739706993,-0.04253452271223068,-0.14133669435977936
1.2084412574768066,0.002861066721379757,-1.043907880783081,0.9782940149307251,-0.01773861236870289,-0.04596780240535736,-0.14858472347259521
1.228468418121338,0.0024795911740511656,-1.0713740587234497,0.9969863295555115,-0.018501564860343933,-0.04596780240535736,-0.15545128285884857
1.2485251426696777,0.0024795911740511656,-1.0984588861465454,1.0164415836334229,-0.01926451548933983,-0.046730753034353256,-0.16231784224510193
1.2686347961425781,0.0024795911740511656,-1.1198214292526245,1.030937671661377,-0.019645990803837776,-0.04940108209848404,-0.16918440163135529
1.2888214588165283,0.002861066721379757,-1.1396582126617432,1.0416189432144165,-0.02079041674733162,-0.05130846053361893,-0.17643244564533234
1.3089165687561035,0.0024795911740511656,-1.1568245887756348,1.0496299266815186,-0.02193484455347061,-0.051689937710762024,-0.1832990050315857
1.329075574874878,0.002861066721379757,-1.1675058603286743,1.054207682609558,-0.022697795182466507,-0.05207141116261482,-0.18902114033699036
1.3491687774658203,0.0024795911740511656,-1.1717021465301514,1.053444743156433,-0.02384222112596035,-0.05283436179161072,-0.19436179101467133
1.3692994117736816,0.0024795911740511656,-1.1732280254364014,1.0515373945236206,-0.02384222112596035,-0.05359731614589691,-0.2004653960466385
1.3893709182739258,0.0024795911740511656,-1.1720836162567139,1.050011396408081,-0.02384222112596035,-0.0551232174038887,-0.20618753135204315
1.409461498260498,0.0024795911740511656,-1.1682689189910889,1.0503928661346436,-0.024605173617601395,-0.056267641484737396,-0.21229113638401031
1.4295330047607422,0.0024795911740511656,-1.1633096933364868,1.051155924797058,-0.024605173617601395,-0.05855649709701538,-0.21763180196285248
1.4496593475341797,0.0024795911740511656,-1.1560616493225098,1.0515373945236206,-0.025749599561095238,-0.06084534898400307,-0.22106507420539856
1.4697661399841309,0.0024795911740511656,-1.1484321355819702,1.0515373945236206,-0.026131074875593185,-0.06313420087099075,-0.22526131570339203
1.489818811416626,0.0024795911740511656,-1.1427099704742432,1.0515373945236206,-0.026512550190091133,-0.06504157930612564,-0.2290760725736618
1.509896993637085,0.0024795911740511656,-1.1327916383743286,1.050774335861206,-0.026512550190091133,-0.06885633617639542,-0.23441672325134277
1.5300705432891846,0.0024795911740511656,-1.1240177154541016,1.050011396408081,-0.026512550190091133,-0.0711451917886734,-0.23899443447589874
1.5500948429107666,0.0024795911740511656,-1.114862322807312,1.0496299266815186,-0.026512550190091133,-0.07267109304666519,-0.2443350851535797
1.5702192783355713,0.0024795911740511656,-1.1030365228652954,1.0496299266815186,-0.02689402550458908,-0.07610437273979187,-0.2500572204589844
1.5902621746063232,0.002861066721379757,-1.0915923118591309,1.0496299266815186,-0.02727550081908703,-0.07724879682064056,-0.25539788603782654
1.6103217601776123,0.002861066721379757,-1.0793850421905518,1.0496299266815186,-0.027656977996230125,-0.07915617525577545,-0.2615014910697937
1.6304454803466797,0.002861066721379757,-1.0645074844360352,1.049248456954956,-0.028038453310728073,-0.08106355369091034,-0.26836803555488586
1.6505463123321533,0.002861066721379757,-1.052681803703308,1.048485517501831,-0.029182879254221916,-0.08335240930318832,-0.2759975492954254
1.6708078384399414,0.002861066721379757,-1.0408560037612915,1.0481040477752686,-0.02994582988321781,-0.0871671661734581,-0.28477150201797485
1.6909294128417969,0.002861066721379757,-1.0290303230285645,1.046959638595581,-0.030708782374858856,-0.08907453715801239,-0.2943083941936493
1.7110188007354736,0.002861066721379757,-1.0206378698349,1.046196699142456,-0.03147173300385475,-0.09250781685113907,-0.30384528636932373
1.7310702800750732,0.0032425422687083483,-1.0133898258209229,1.044670820236206,-0.03223468363285065,-0.09746700525283813,-0.31452658772468567
1.751197338104248,0.002861066721379757,-1.0103379487991333,1.043144941329956,-0.03452353551983833,-0.09975585341453552,-0.32520791888237
1.7712655067443848,0.002861066721379757,-1.0088120698928833,1.0408560037612915,-0.03604944050312042,-0.1031891331076622,-0.33588922023773193
1.7913875579833984,0.002861066721379757,-1.0088120698928833,1.0378042459487915,-0.037193864583969116,-0.10585946589708328,-0.34695202112197876
1.8114192485809326,0.002861066721379757,-1.0099564790725708,1.034752368927002,-0.03833829239010811,-0.10776684433221817,-0.3576333224773407
1.8315093517303467,0.0032425422687083483,-1.0118639469146729,1.0320820808410645,-0.038719769567251205,-0.11005569249391556,-0.3702220320701599
1.8516499996185303,0.004005493130534887,-1.0137712955474854,1.029411792755127,-0.040245670825242996,-0.11272602528333664,-0.38166627287864685
1.8717865943908691,0.00476844422519207,-1.0149157047271729,1.027885913848877,-0.04177157208323479,-0.11425192654132843,-0.39463645219802856
1.8919146060943604,0.005912871100008488,-1.0149157047271729,1.025978446006775,-0.04482337832450867,-0.11501488089561462,-0.4076066315174103
1.9119367599487305,0.007057297509163618,-1.0149157047271729,1.024452567100525,-0.04596780240535736,-0.11692225188016891,-0.4201953113079071
1.9320018291473389,0.00858320016413927,-1.0149157047271729,1.0233081579208374,-0.048638131469488144,-0.1192111074924469,-0.4327840209007263
1.9521667957305908,0.009346150793135166,-1.0149157047271729,1.0217822790145874,-0.050164032727479935,-0.12073700875043869,-0.44384679198265076
1.9726130962371826,0.010109102353453636,-1.0149157047271729,1.0202564001083374,-0.05283436179161072,-0.12188144028186798,-0.4560540020465851
1.9927105903625488,0.010109102353453636,-1.0149157047271729,1.0187304019927979,-0.05397878959774971,-0.12302586436271667,-0.4655908942222595
2.0128173828125,0.010872052982449532,-1.0145342350006104,1.0172045230865479,-0.0555046908557415,-0.12493324279785156,-0.47398337721824646
2.032935380935669,0.01125352829694748,-1.0141527652740479,1.0156786441802979,-0.05703059583902359,-0.12836651504039764,-0.4827573001384735
2.053036689758301,0.012397955171763897,-1.0133898258209229,1.0149157047271729,-0.059319447726011276,-0.13179980218410492,-0.4884794354438782
2.0731518268585205,0.012779430486261845,-1.0126268863677979,1.0137712955474854,-0.06046387553215027,-0.13218127191066742,-0.49496451020240784
2.093205213546753,0.013542382046580315,-1.0114823579788208,1.0130083560943604,-0.061226826161146164,-0.1325627565383911,-0.5033569931983948
2.113306999206543,0.01430533267557621,-1.0103379487991333,1.0111008882522583,-0.06351567804813385,-0.1333257108926773,-0.5086976289749146
2.1334421634674072,0.01430533267557621,-1.0095750093460083,1.0095750093460083,-0.06466010212898254,-0.1329442262649536,-0.5136567950248718
2.1535866260528564,0.01506828423589468,-1.0084306001663208,1.0080491304397583,-0.06542305648326874,-0.1325627565383911,-0.5193789601325989
2.173625946044922,0.015449759550392628,-1.0072861909866333,1.0061417818069458,-0.06733043491840363,-0.1325627565383911,-0.5258640646934509
2.193713903427124,0.016212711110711098,-1.0065232515335083,1.0049973726272583,-0.06809338182210922,-0.1329442262649536,-0.5319676399230957
2.213808536529541,0.016594186425209045,-1.0049973726272583,1.0030899047851562,-0.06847485899925232,-0.134470134973526,-0.534637987613678
2.2338812351226807,0.016975661739706993,-1.0038528442382812,1.0015640258789062,-0.06885633617639542,-0.1356145590543747,-0.5395971536636353
2.2539801597595215,0.01735713705420494,-1.0023269653320312,1.0004196166992188,-0.06961929053068161,-0.1356145590543747,-0.5430304408073425
2.2741003036499023,0.01735713705420494,-1.0019454956054688,0.9985122680664062,-0.0707637146115303,-0.1356145590543747,-0.5487525463104248
2.2942323684692383,0.018120087683200836,-1.0004196166992188,0.9969863295555115,-0.0715266615152359,-0.135233074426651,-0.5529488325119019
2.314274311065674,0.01926451548933983,-0.9996566772460938,0.9954604506492615,-0.071908138692379,-0.135233074426651,-0.5575265288352966
2.3344199657440186,0.01926451548933983,-0.9992752075195312,0.9939345121383667,-0.0722896158695221,-0.1348516047000885,-0.5594338774681091
2.3547158241271973,0.01926451548933983,-0.9985122680664062,0.9924086332321167,-0.07267109304666519,-0.1333257108926773,-0.5621042251586914
2.37481689453125,0.019645990803837776,-0.997367799282074,0.9908827543258667,-0.07305257022380829,-0.1333257108926773,-0.5666819214820862
2.3949015140533447,0.019645990803837776,-0.9962233901023865,0.9885938763618469,-0.07419699430465698,-0.1333257108926773,-0.569733738899231
2.4150142669677734,0.020027466118335724,-0.9946975111961365,0.9866865277290344,-0.07457847148180008,-0.1333257108926773,-0.5739299654960632
2.4350621700286865,0.02040894143283367,-0.9931715726852417,0.9847791194915771,-0.07495994865894318,-0.134470134973526,-0.576981782913208
2.455143451690674,0.021171892061829567,-0.9924086332321167,0.9832532405853271,-0.07534141838550568,-0.1340886503458023,-0.5788891315460205
2.475231885910034,0.021171892061829567,-0.9912642240524292,0.9817273020744324,-0.07534141838550568,-0.1333257108926773,-0.5838482975959778
2.495332717895508,0.021553369238972664,-0.9897382855415344,0.9790570139884949,-0.07572289556264877,-0.13179980218410492,-0.5861371755599976
2.5153896808624268,0.021553369238972664,-0.9885938763618469,0.9779125452041626,-0.07572289556264877,-0.13065537810325623,-0.5895704627037048
2.535517454147339,0.02193484455347061,-0.9878309369087219,0.9763866662979126,-0.07610437273979187,-0.13027389347553253,-0.5926222801208496
2.555633783340454,0.02231631986796856,-0.9870679974555969,0.9744792580604553,-0.07610437273979187,-0.12989242374897003,-0.5933852195739746
2.5756995677948,0.022697795182466507,-0.9859235286712646,0.9729533791542053,-0.07610437273979187,-0.13027389347553253,-0.5971999764442444
2.595841646194458,0.022697795182466507,-0.9847791194915771,0.9706645011901855,-0.07648584991693497,-0.13065537810325623,-0.6010147333145142
2.6160995960235596,0.023079270496964455,-0.9836347103118896,0.969520092010498,-0.07648584991693497,-0.13065537810325623,-0.6033035516738892
2.636237859725952,0.023460745811462402,-0.9828717708587646,0.967994213104248,-0.07648584991693497,-0.13065537810325623,-0.6067368388175964
2.656278610229492,0.023460745811462402,-0.9821087718009949,0.9664682745933533,-0.07648584991693497,-0.12951095402240753,-0.6109330654144287
2.676347255706787,0.02384222112596035,-0.9809643626213074,0.9645609259605408,-0.07648584991693497,-0.12722209095954895,-0.6116960644721985
2.696436882019043,0.024223696440458298,-0.9794384837150574,0.9626535177230835,-0.07686731964349747,-0.12645913660526276,-0.6139848828315735
2.7165138721466064,0.024605173617601395,-0.9779125452041626,0.9603646993637085,-0.07686731964349747,-0.12684062123298645,-0.6177996397018433
2.7365808486938477,0.024605173617601395,-0.9767681360244751,0.959220290184021,-0.07648584991693497,-0.12531471252441406,-0.6185625791549683
2.7567191123962402,0.024605173617601395,-0.9756237268447876,0.9569314122200012,-0.07686731964349747,-0.12302586436271667,-0.6197070479393005
2.776759624481201,0.024605173617601395,-0.9748607873916626,0.955024003982544,-0.07648584991693497,-0.12264438718557358,-0.6227588057518005
2.796837091445923,0.024605173617601395,-0.9737163186073303,0.9531166553497314,-0.07686731964349747,-0.12264438718557358,-0.6265735626220703
2.8169333934783936,0.024605173617601395,-0.9725719094276428,0.9500648379325867,-0.07686731964349747,-0.12226291000843048,-0.6292439103126526
2.83717942237854,0.024605173617601395,-0.9721904397010803,0.9489204287528992,-0.07648584991693497,-0.12226291000843048,-0.6330586671829224
2.857271671295166,0.024605173617601395,-0.9714275002479553,0.9473945498466492,-0.07648584991693497,-0.12188144028186798,-0.6364919543266296
2.877347707748413,0.024605173617601395,-0.970283031463623,0.9454871416091919,-0.07648584991693497,-0.12149996310472488,-0.6368734240531921
2.8976969718933105,0.024605173617601395,-0.968757152557373,0.9435797929763794,-0.07648584991693497,-0.12073700875043869,-0.6376363635063171
2.9177937507629395,0.024986648932099342,-0.9676127433776855,0.9416723847389221,-0.07648584991693497,-0.1203555315732956,-0.6395437717437744
2.937854290008545,0.02536812424659729,-0.9668498039245605,0.9405279755592346,-0.07610437273979187,-0.11959258466959,-0.6418325901031494
2.9580702781677246,0.025749599561095238,-0.9664682745933533,0.9386205673217773,-0.07610437273979187,-0.1192111074924469,-0.6441214680671692
2.978071928024292,0.025749599561095238,-0.9660868048667908,0.9359502792358398,-0.07610437273979187,-0.11768520623445511,-0.6448844075202942
2.998168706893921,0.025749599561095238,-0.9649423956871033,0.9348058104515076,-0.07648584991693497,-0.11501488089561462,-0.6475547552108765
3.018265724182129,0.025749599561095238,-0.9641794562339783,0.9332799315452576,-0.07610437273979187,-0.11272602528333664,-0.6521324515342712
3.038341522216797,0.026131074875593185,-0.9637979865074158,0.9325169920921326,-0.07572289556264877,-0.11158160120248795,-0.6548027992248535
3.0584945678710938,0.026512550190091133,-0.9626535177230835,0.9313725233078003,-0.07610437273979187,-0.11120012402534485,-0.6555657386779785
3.0785388946533203,0.02689402550458908,-0.9603646993637085,0.9298466444015503,-0.07572289556264877,-0.11005569249391556,-0.656710147857666
3.098583698272705,0.02689402550458908,-0.9576943516731262,0.9260318875312805,-0.07610437273979187,-0.10929274559020996,-0.6593804955482483
3.118694543838501,0.026512550190091133,-0.9565499424934387,0.925650417804718,-0.07572289556264877,-0.10891126841306686,-0.6620507836341858
3.138777494430542,0.026512550190091133,-0.9561684727668762,0.9237430095672607,-0.07534141838550568,-0.10814831405878067,-0.6624323129653931
3.1588659286499023,0.026512550190091133,-0.9557870030403137,0.9218356609344482,-0.07534141838550568,-0.10814831405878067,-0.6635767221450806
3.178959608078003,0.026512550190091133,-0.955024003982544,0.9195467829704285,-0.07495994865894318,-0.10814831405878067,-0.6654840707778931
3.1991183757781982,0.026512550190091133,-0.9546425342559814,0.9157320261001587,-0.07534141838550568,-0.10814831405878067,-0.6681544184684753
3.2191362380981445,0.026512550190091133,-0.9538795948028564,0.9130617380142212,-0.07457847148180008,-0.10738536715507507,-0.6704432964324951
3.2392070293426514,0.026512550190091133,-0.9538795948028564,0.9119172692298889,-0.07419699430465698,-0.10624094307422638,-0.6719691753387451
3.2593235969543457,0.026512550190091133,-0.953498125076294,0.9119172692298889,-0.0722896158695221,-0.10509651154279709,-0.6765468716621399
3.279337167739868,0.02689402550458908,-0.952735185623169,0.9115357995033264,-0.0715266615152359,-0.10433356463909149,-0.6792172193527222
3.2994260787963867,0.026512550190091133,-0.9508277773857117,0.9115357995033264,-0.0711451917886734,-0.10433356463909149,-0.6815060377120972
3.3195314407348633,0.026512550190091133,-0.9493018984794617,0.9103913903236389,-0.0711451917886734,-0.1039520874619484,-0.6834134459495544
3.3401126861572266,0.026512550190091133,-0.9485389590263367,0.9092469811439514,-0.0707637146115303,-0.1039520874619484,-0.6853207945823669
3.360210418701172,0.02689402550458908,-0.9477760195732117,0.9077210426330566,-0.0711451917886734,-0.10433356463909149,-0.6860837936401367
3.3802809715270996,0.026512550190091133,-0.9477760195732117,0.9050507545471191,-0.07038223743438721,-0.10433356463909149,-0.6883726119995117
3.4003918170928955,0.026512550190091133,-0.9477760195732117,0.9019989371299744,-0.07038223743438721,-0.1039520874619484,-0.6891355514526367
3.4205379486083984,0.026512550190091133,-0.9477760195732117,0.8989471197128296,-0.07000076025724411,-0.1035706102848053,-0.689517080783844
3.44059157371521,0.026512550190091133,-0.9473945498466492,0.8966583013534546,-0.06961929053068161,-0.1028076633810997,-0.6898985505104065
3.4606595039367676,0.026512550190091133,-0.9473945498466492,0.8947508931159973,-0.06771191209554672,-0.10166323184967041,-0.692568838596344
3.480782985687256,0.026512550190091133,-0.9466315507888794,0.8939879536628723,-0.06694895774126053,-0.10051880776882172,-0.6940947771072388
3.5008316040039062,0.026512550190091133,-0.9454871416091919,0.8936064839363098,-0.06580453366041183,-0.10013733059167862,-0.6971465349197388
3.5209295749664307,0.026512550190091133,-0.9439612627029419,0.8932250142097473,-0.06351567804813385,-0.09899290651082993,-0.6986724734306335
3.5410044193267822,0.026512550190091133,-0.9428167939186096,0.8932250142097473,-0.06351567804813385,-0.09746700525283813,-0.700579822063446
3.5611114501953125,0.026512550190091133,-0.9412909150123596,0.8924620151519775,-0.06275273114442825,-0.09670405089855194,-0.7036316394805908
3.5812413692474365,0.026512550190091133,-0.9401465058326721,0.8909361362457275,-0.06275273114442825,-0.09632257372140884,-0.7055390477180481
3.601496934890747,0.026512550190091133,-0.9397650361061096,0.8894102573394775,-0.06160829961299896,-0.09555962681770325,-0.7078278660774231
3.6217057704925537,0.026512550190091133,-0.9393835067749023,0.8875028491020203,-0.06084534898400307,-0.09403372555971146,-0.7089722752571106
3.6418044567108154,0.026512550190091133,-0.9390020370483398,0.8859769701957703,-0.059319447726011276,-0.09327077120542526,-0.7120240926742554
3.6618809700012207,0.026512550190091133,-0.9382390975952148,0.883306622505188,-0.059319447726011276,-0.09327077120542526,-0.7139315009117126
3.681962251663208,0.026512550190091133,-0.9374761581420898,0.8821622133255005,-0.05893797054886818,-0.09288929402828217,-0.7154573798179626
3.70202898979187,0.026512550190091133,-0.9370946884155273,0.881017804145813,-0.057793546468019485,-0.09250781685113907,-0.7158388495445251
3.7220945358276367,0.026512550190091133,-0.9370946884155273,0.8806362748146057,-0.0558861680328846,-0.09212634712457657,-0.7162203192710876
3.742187023162842,0.026512550190091133,-0.9367132186889648,0.8802548050880432,-0.0555046908557415,-0.09060044586658478,-0.7173647880554199
3.7622601985931396,0.026512550190091133,-0.9355688095092773,0.8791103959083557,-0.0555046908557415,-0.08907453715801239,-0.7196536064147949
3.7823026180267334,0.026512550190091133,-0.9344243407249451,0.8764400482177734,-0.0551232174038887,-0.0875486359000206,-0.7219424843788147
3.8024208545684814,0.026512550190091133,-0.9336614012718201,0.8749141693115234,-0.054741740226745605,-0.08564125746488571,-0.7234683632850647
3.8225109577178955,0.026512550190091133,-0.9332799315452576,0.8730067610740662,-0.05283436179161072,-0.08335240930318832,-0.724612832069397
3.842617988586426,0.026512550190091133,-0.9328984618186951,0.8722438216209412,-0.05245288833975792,-0.08068207651376724,-0.7272831201553345
3.862658739089966,0.026512550190091133,-0.9328984618186951,0.8714808821678162,-0.051689937710762024,-0.07839322835206985,-0.7303349375724792
3.882763624191284,0.026131074875593185,-0.9317540526390076,0.8703364729881287,-0.05092698708176613,-0.07801175117492676,-0.7310978770256042
3.9030301570892334,0.02536812424659729,-0.9309910535812378,0.8699550032615662,-0.048638131469488144,-0.07763027399778366,-0.733386754989624
3.923068046569824,0.02536812424659729,-0.9298466444015503,0.8688105344772339,-0.048256658017635345,-0.07763027399778366,-0.734149694442749
3.9432036876678467,0.024986648932099342,-0.9294651746749878,0.8680475950241089,-0.04749370738863945,-0.07763027399778366,-0.734912633895874
3.9632298946380615,0.02384222112596035,-0.9287022352218628,0.8661402463912964,-0.045204851776361465,-0.07724879682064056,-0.7379644513130188
3.9833643436431885,0.023460745811462402,-0.9279392957687378,0.8646143078804016,-0.04444190114736557,-0.07648584991693497,-0.7402533292770386
4.003441095352173,0.023460745811462402,-0.9275577664375305,0.8630884289741516,-0.04406042397022247,-0.07686731964349747,-0.7417792081832886
4.023514986038208,0.023460745811462402,-0.927176296710968,0.8623254895210266,-0.04291599988937378,-0.07686731964349747,-0.7421606779098511
4.043655633926392,0.023460745811462402,-0.9267948269844055,0.8615625500679016,-0.04139009863138199,-0.07686731964349747,-0.7425421476364136
4.0639777183532715,0.023460745811462402,-0.925650417804718,0.8604180812835693,-0.040627144277095795,-0.07572289556264877,-0.7440680265426636
4.084069728851318,0.023460745811462402,-0.924887478351593,0.8592736721038818,-0.040245670825242996,-0.07457847148180008,-0.7467383742332458
4.104175806045532,0.023460745811462402,-0.924887478351593,0.8577477931976318,-0.038719769567251205,-0.07343403995037079,-0.7486457824707031
4.124499797821045,0.023460745811462402,-0.9245060086250305,0.8573662638664246,-0.037193864583969116,-0.0707637146115303,-0.7490272521972656
4.144661903381348,0.023079270496964455,-0.9245060086250305,0.8562218546867371,-0.03681239113211632,-0.06961929053068161,-0.7494087219238281
4.1647539138793945,0.022697795182466507,-0.9237430095672607,0.8554589152336121,-0.035667963325977325,-0.06885633617639542,-0.7501716613769531
4.184803485870361,0.02231631986796856,-0.9229800701141357,0.8543145060539246,-0.03376058489084244,-0.06771191209554672,-0.7532234787940979
4.204958200454712,0.02193484455347061,-0.9225986003875732,0.8539330363273621,-0.03337911143898964,-0.06771191209554672,-0.7551308274269104
4.225093364715576,0.021171892061829567,-0.9225986003875732,0.8531700372695923,-0.03337911143898964,-0.06733043491840363,-0.7562752962112427
4.245267868041992,0.021171892061829567,-0.9218356609344482,0.8520256280899048,-0.032616160809993744,-0.06771191209554672,-0.7570382356643677
4.265295505523682,0.021171892061829567,-0.9206912517547607,0.8504997491836548,-0.03185320645570755,-0.06733043491840363,-0.7578011751174927
4.2856385707855225,0.021171892061829567,-0.9206912517547607,0.84897381067276,-0.02994582988321781,-0.06733043491840363,-0.760471522808075
4.3057615756988525,0.021171892061829567,-0.9203097820281982,0.84744793176651,-0.02841992862522602,-0.06694895774126053,-0.761997401714325
4.325840711593628,0.02079041674733162,-0.9199283123016357,0.8455405235290527,-0.02727550081908703,-0.06580453366041183,-0.7650492191314697
4.345970869064331,0.02040894143283367,-0.9195467829704285,0.8447775840759277,-0.026131074875593185,-0.06389715522527695,-0.7673380374908447
4.366008996963501,0.02040894143283367,-0.9195467829704285,0.8436331748962402,-0.025749599561095238,-0.061226826161146164,-0.767719566822052
4.386067152023315,0.020027466118335724,-0.9187838435173035,0.8432517051696777,-0.024986648932099342,-0.058175019919872284,-0.7681010365486145
4.406156539916992,0.020027466118335724,-0.9180209040641785,0.8424887657165527,-0.02384222112596035,-0.057793546468019485,-0.7688639760017395
4.42625617980957,0.020027466118335724,-0.917639434337616,0.8413442969322205,-0.02231631986796856,-0.05703059583902359,-0.770771324634552
4.446416616439819,0.01926451548933983,-0.916876494884491,0.8405813574790955,-0.021171892061829567,-0.05397878959774971,-0.7719157934188843
4.466562747955322,0.018501564860343933,-0.9164950251579285,0.839436948299408,-0.019645990803837776,-0.05207141116261482,-0.7730602025985718
4.4866180419921875,0.01773861236870289,-0.9164950251579285,0.8382925391197205,-0.018501564860343933,-0.051689937710762024,-0.7745860815048218
4.506747007369995,0.016975661739706993,-0.916113555431366,0.8367666006088257,-0.018120087683200836,-0.05092698708176613,-0.7749675512313843
4.526871204376221,0.016975661739706993,-0.9157320261001587,0.8356221914291382,-0.016975661739706993,-0.05130846053361893,-0.7753490209579468
4.546911954879761,0.016975661739706993,-0.9149690866470337,0.8352407217025757,-0.01583123579621315,-0.05130846053361893,-0.7761120200157166
4.567032098770142,0.016975661739706993,-0.9145876169204712,0.8344777822494507,-0.014686808921396732,-0.05130846053361893,-0.7768749594688416
4.587137699127197,0.016975661739706993,-0.9142061471939087,0.8333333134651184,-0.013542382046580315,-0.05092698708176613,-0.7791637778282166
4.6071937084198,0.016975661739706993,-0.9130617380142212,0.8325703740119934,-0.01125352829694748,-0.050164032727479935,-0.7814526557922363
4.627283096313477,0.016975661739706993,-0.9130617380142212,0.8314259648323059,-0.010490577667951584,-0.04901960864663124,-0.7829785346984863
4.647380352020264,0.016975661739706993,-0.9130617380142212,0.8310444951057434,-0.010109102353453636,-0.048256658017635345,-0.7833600640296936
4.667428731918335,0.016594186425209045,-0.9130617380142212,0.8302815556526184,-0.009346150793135166,-0.04711223021149635,-0.7848859429359436
4.687514543533325,0.016212711110711098,-0.9126802682876587,0.8295185565948486,-0.0078202486038208,-0.04444190114736557,-0.7864118218421936
4.70758056640625,0.01506828423589468,-0.9122987985610962,0.8291370868682861,-0.00667582219466567,-0.04329747334122658,-0.7871748208999634
4.727719306945801,0.01506828423589468,-0.9122987985610962,0.8283741474151611,-0.005149920005351305,-0.04177157208323479,-0.7902265787124634
4.747809886932373,0.014686808921396732,-0.9115357995033264,0.8268482685089111,-0.0036240178160369396,-0.042153049260377884,-0.7925154566764832
4.767876625061035,0.014686808921396732,-0.9107728600502014,0.8253223299980164,-0.002861066721379757,-0.04177157208323479,-0.7936598658561707
4.787975549697876,0.014686808921396732,-0.9103913903236389,0.8241779208183289,-0.001716639962978661,-0.04139009863138199,-0.7940413355827332
4.808034658432007,0.01430533267557621,-0.9103913903236389,0.8241779208183289,0.000572213320992887,-0.040627144277095795,-0.7944228053092957
4.828092813491821,0.01430533267557621,-0.9103913903236389,0.8234149813652039,0.0013351644156500697,-0.040245670825242996,-0.7951858043670654
4.848191022872925,0.01430533267557621,-0.9092469811439514,0.8226520419120789,0.0020981156267225742,-0.0398641936480999,-0.7959487438201904
4.868256330490112,0.01430533267557621,-0.9084840416908264,0.8218890428543091,0.0036240178160369396,-0.038719769567251205,-0.7978560924530029
4.888312101364136,0.013923857361078262,-0.9077210426330566,0.8207446336746216,0.004386968910694122,-0.03681239113211632,-0.7993820309638977
4.908398151397705,0.013923857361078262,-0.9073395729064941,0.8199816942214966,0.005149920005351305,-0.03452353551983833,-0.8009079098701477
4.928480863571167,0.013923857361078262,-0.9065766334533691,0.8188372850418091,0.00667582219466567,-0.032616160809993744,-0.8012893795967102
4.949761390686035,0.013160906732082367,-0.9061951637268066,0.8180742859840393,0.007438773289322853,-0.031090257689356804,-0.8020523190498352
4.969852924346924,0.01201647985726595,-0.9061951637268066,0.8173113465309143,0.008201723918318748,-0.02727550081908703,-0.8031967878341675
4.9899208545684814,0.011635004542768002,-0.9061951637268066,0.8169298768043518,0.009346150793135166,-0.02536812424659729,-0.80510413646698
5.010055303573608,0.011635004542768002,-0.9061951637268066,0.8161669373512268,0.011635004542768002,-0.025749599561095238,-0.8062485456466675
5.030147552490234,0.01125352829694748,-0.9061951637268066,0.8157854676246643,0.01201647985726595,-0.025749599561095238,-0.8077744841575623
5.05022406578064,0.010490577667951584,-0.9061951637268066,0.8150225281715393,0.013160906732082367,-0.025749599561095238,-0.8089188933372498
5.070409297943115,0.009727626107633114,-0.9061951637268066,0.8142595291137695,0.015449759550392628,-0.025749599561095238,-0.8089188933372498
5.0904271602630615,0.008964675478637218,-0.9061951637268066,0.813878059387207,0.016594186425209045,-0.025749599561095238,-0.8096818327903748
5.111292600631714,0.007438773289322853,-0.9061951637268066,0.812352180480957,0.01888304017484188,-0.02536812424659729,-0.8100633025169373
5.131390810012817,0.007057297509163618,-0.9061951637268066,0.811589241027832,0.019645990803837776,-0.02536812424659729,-0.810826301574707
5.151463985443115,0.006294346414506435,-0.9061951637268066,0.8100633025169373,0.020027466118335724,-0.025749599561095238,-0.8119707107543945
5.171549081802368,0.005912871100008488,-0.9061951637268066,0.8096818327903748,0.02193484455347061,-0.025749599561095238,-0.8127336502075195
5.19165825843811,0.005912871100008488,-0.9061951637268066,0.8089188933372498,0.023460745811462402,-0.025749599561095238,-0.813115119934082
5.2118000984191895,0.005912871100008488,-0.9058136940002441,0.8085374236106873,0.02536812424659729,-0.024605173617601395,-0.8142595291137695
5.2319018840789795,0.005912871100008488,-0.9050507545471191,0.8077744841575623,0.026512550190091133,-0.02231631986796856,-0.8165484070777893
5.251982927322388,0.005912871100008488,-0.9046692848205566,0.8077744841575623,0.027656977996230125,-0.02040894143283367,-0.8180742859840393
5.272074460983276,0.005912871100008488,-0.9042877554893494,0.8077744841575623,0.029182879254221916,-0.016975661739706993,-0.8192187547683716
5.29216456413269,0.005912871100008488,-0.9042877554893494,0.8073930144309998,0.03032730519771576,-0.01583123579621315,-0.8196002244949341
5.312279224395752,0.005531395319849253,-0.9042877554893494,0.80663001537323,0.03147173300385475,-0.01430533267557621,-0.8199816942214966
5.333125829696655,0.005149920005351305,-0.9042877554893494,0.8054856061935425,0.03376058489084244,-0.013923857361078262,-0.8203631639480591
5.353260517120361,0.00476844422519207,-0.9042877554893494,0.8047226667404175,0.034142062067985535,-0.01201647985726595,-0.8211261034011841
5.373363494873047,0.004386968910694122,-0.9039062857627869,0.8047226667404175,0.03490501269698143,-0.010872052982449532,-0.8226520419120789
5.393512487411499,0.004386968910694122,-0.9039062857627869,0.804341197013855,0.03643091395497322,-0.010872052982449532,-0.8245593905448914
5.413553237915039,0.0036240178160369396,-0.9035248160362244,0.8039597272872925,0.03795681521296501,-0.009346150793135166,-0.8249408602714539
5.433586597442627,0.0024795911740511656,-0.9023804068565369,0.8039597272872925,0.038719769567251205,-0.008201723918318748,-0.8260852694511414
5.453697204589844,0.0024795911740511656,-0.9019989371299744,0.8031967878341675,0.0398641936480999,-0.00667582219466567,-0.8272297382354736
5.473758697509766,0.0024795911740511656,-0.9019989371299744,0.802815318107605,0.042153049260377884,-0.005912871100008488,-0.8272297382354736
5.49383807182312,0.0020981156267225742,-0.9023804068565369,0.8024337887763977,0.042153049260377884,-0.005149920005351305,-0.8276112079620361
5.5139360427856445,0.001716639962978661,-0.9023804068565369,0.8012893795967102,0.04444190114736557,-0.004005493130534887,-0.8279926776885986
5.534046411514282,0.00019073777366429567,-0.9023804068565369,0.7997635006904602,0.04558632895350456,-0.0020981156267225742,-0.8287556171417236
5.554133176803589,-0.000572213320992887,-0.9023804068565369,0.7986190319061279,0.046730753034353256,0.000572213320992887,-0.8306630253791809
5.574242830276489,-0.001716639962978661,-0.9023804068565369,0.7978560924530029,0.048638131469488144,0.0020981156267225742,-0.8337147831916809
5.594672203063965,-0.0020981156267225742,-0.9023804068565369,0.7978560924530029,0.04901960864663124,0.0013351644156500697,-0.8348592519760132
5.614788770675659,-0.0024795911740511656,-0.9023804068565369,0.7974746227264404,0.04940108209848404,0.0013351644156500697,-0.8352407217025757
5.634943962097168,-0.0024795911740511656,-0.9023804068565369,0.7974746227264404,0.050164032727479935,0.0013351644156500697,-0.8360036611557007
5.654962062835693,-0.0024795911740511656,-0.9023804068565369,0.7974746227264404,0.05207141116261482,0.0020981156267225742,-0.8363851308822632
5.675048589706421,-0.0024795911740511656,-0.9023804068565369,0.7974746227264404,0.053215838968753815,0.004005493130534887,-0.837911069393158
5.6951210498809814,-0.0024795911740511656,-0.9023804068565369,0.7974746227264404,0.054741740226745605,0.005531395319849253,-0.838674008846283
5.7152299880981445,-0.0024795911740511656,-0.9023804068565369,0.7967116832733154,0.05664911866188049,0.0078202486038208,-0.8390554785728455
5.73531699180603,-0.0024795911740511656,-0.9019989371299744,0.7963302135467529,0.05741206929087639,0.009346150793135166,-0.839436948299408
5.755592346191406,-0.002861066721379757,-0.9019989371299744,0.7955672740936279,0.05855649709701538,0.009346150793135166,-0.840199887752533
5.775664567947388,-0.004005493130534887,-0.9019989371299744,0.7951858043670654,0.05970092490315437,0.01125352829694748,-0.8421072959899902
5.795725584030151,-0.00476844422519207,-0.9019989371299744,0.7940413355827332,0.06084534898400307,0.011635004542768002,-0.8432517051696777
5.8158180713653564,-0.00476844422519207,-0.9019989371299744,0.7940413355827332,0.06237125024199486,0.01125352829694748,-0.8436331748962402
5.835941314697266,-0.005912871100008488,-0.9019989371299744,0.7936598658561707,0.06389715522527695,0.01125352829694748,-0.8440146446228027
5.856313705444336,-0.007057297509163618,-0.9019989371299744,0.7932783961296082,0.06466010212898254,0.01201647985726595,-0.8451590538024902
5.876412630081177,-0.0078202486038208,-0.9019989371299744,0.7932783961296082,0.06580453366041183,0.013160906732082367,-0.8455405235290527
5.8965349197387695,-0.007438773289322853,-0.9019989371299744,0.7928969264030457,0.06771191209554672,0.01506828423589468,-0.84592205286026
5.916634559631348,-0.0078202486038208,-0.9012359976768494,0.7917525172233582,0.06961929053068161,0.016212711110711098,-0.84592205286026
5.936681509017944,-0.0078202486038208,-0.9004730582237244,0.7909895181655884,0.0711451917886734,0.016594186425209045,-0.8463035225868225
5.956943511962891,-0.0078202486038208,-0.9000915288925171,0.7890821695327759,0.071908138692379,0.01888304017484188,-0.846684992313385
5.9770426750183105,-0.0078202486038208,-0.8997100591659546,0.7890821695327759,0.07267109304666519,0.020027466118335724,-0.8470664620399475
5.997119426727295,-0.0078202486038208,-0.9000915288925171,0.7890821695327759,0.07457847148180008,0.021171892061829567,-0.848210871219635
6.017201662063599,-0.008201723918318748,-0.9000915288925171,0.7890821695327759,0.07572289556264877,0.02384222112596035,-0.8497368097305298
6.037330389022827,-0.008964675478637218,-0.9000915288925171,0.7890821695327759,0.07763027399778366,0.02536812424659729,-0.8508812189102173
6.057420015335083,-0.009727626107633114,-0.9000915288925171,0.7890821695327759,0.07915617525577545,0.02727550081908703,-0.8516441583633423
6.077489137649536,-0.010109102353453636,-0.9000915288925171,0.7890821695327759,0.08030059933662415,0.02689402550458908,-0.8531700372695923
6.097570896148682,-0.010872052982449532,-0.9000915288925171,0.7890821695327759,0.08220797777175903,0.02727550081908703,-0.8535515666007996
6.117631196975708,-0.010872052982449532,-0.9000915288925171,0.7890821695327759,0.08335240930318832,0.027656977996230125,-0.8535515666007996
6.137703895568848,-0.01201647985726595,-0.9000915288925171,0.7890821695327759,0.08487831056118011,0.029182879254221916,-0.8539330363273621
6.157935619354248,-0.012779430486261845,-0.9000915288925171,0.7887006998062134,0.08602273464202881,0.030708782374858856,-0.8543145060539246
6.178032398223877,-0.012779430486261845,-0.9000915288925171,0.7883192300796509,0.0864042118191719,0.031090257689356804,-0.8546959757804871
6.1981117725372314,-0.012779430486261845,-0.9000915288925171,0.7879377603530884,0.0871671661734581,0.03147173300385475,-0.8562218546867371
6.21818208694458,-0.013542382046580315,-0.9000915288925171,0.7871748208999634,0.0871671661734581,0.03185320645570755,-0.8585107326507568
6.238265514373779,-0.01430533267557621,-0.9000915288925171,0.7867932915687561,0.08869306743144989,0.03299763426184654,-0.8615625500679016
6.258337736129761,-0.014686808921396732,-0.9004730582237244,0.7867932915687561,0.09060044586658478,0.03452353551983833,-0.8623254895210266
6.278410196304321,-0.01506828423589468,-0.9000915288925171,0.7867932915687561,0.09288929402828217,0.03490501269698143,-0.8634698987007141
6.298526763916016,-0.01506828423589468,-0.9000915288925171,0.7867932915687561,0.09441519528627396,0.035667963325977325,-0.8638513684272766
6.31931734085083,-0.016212711110711098,-0.9000915288925171,0.7864118218421936,0.09555962681770325,0.03795681521296501,-0.8642328381538391
6.339402675628662,-0.016975661739706993,-0.9004730582237244,0.7860303521156311,0.09784847497940063,0.0398641936480999,-0.8642328381538391
6.359499931335449,-0.018120087683200836,-0.9004730582237244,0.7852674126625061,0.09937438368797302,0.042153049260377884,-0.8646143078804016
6.379876136779785,-0.01926451548933983,-0.9004730582237244,0.7848859429359436,0.10166323184967041,0.04482337832450867,-0.8649957776069641
6.400005578994751,-0.020027466118335724,-0.9008545279502869,0.7848859429359436,0.1024261862039566,0.045204851776361465,-0.8649957776069641
6.420044898986816,-0.020027466118335724,-0.9008545279502869,0.7848859429359436,0.1039520874619484,0.04558632895350456,-0.8653773069381714
6.440135955810547,-0.020027466118335724,-0.9008545279502869,0.7848859429359436,0.10547798871994019,0.04596780240535736,-0.8653773069381714
6.460324287414551,-0.020027466118335724,-0.9008545279502869,0.7848859429359436,0.10662241280078888,0.04596780240535736,-0.8657587766647339
6.480309247970581,-0.020027466118335724,-0.9008545279502869,0.7848859429359436,0.10776684433221817,0.04711223021149635,-0.8665217161178589
6.5004048347473145,-0.02040894143283367,-0.9008545279502869,0.7848859429359436,0.10852979123592377,0.04901960864663124,-0.8688105344772339
6.520469665527344,-0.021553369238972664,-0.9008545279502869,0.7841230034828186,0.10929274559020996,0.05207141116261482,-0.8691920638084412
6.540765047073364,-0.02231631986796856,-0.9012359976768494,0.7833600640296936,0.11043716967105865,0.05397878959774971,-0.8699550032615662
6.560858249664307,-0.02231631986796856,-0.9008545279502869,0.7829785346984863,0.11158160120248795,0.05359731614589691,-0.8714808821678162
6.581028461456299,-0.022697795182466507,-0.9012359976768494,0.7829785346984863,0.11272602528333664,0.05397878959774971,-0.8714808821678162
6.602391958236694,-0.02384222112596035,-0.9012359976768494,0.7829785346984863,0.11463340371847153,0.054741740226745605,-0.8718623518943787
6.622562646865845,-0.024605173617601395,-0.9012359976768494,0.7829785346984863,0.11615930497646332,0.05664911866188049,-0.8718623518943787
6.642577886581421,-0.024986648932099342,-0.9012359976768494,0.7829785346984863,0.11768520623445511,0.057793546468019485,-0.8718623518943787
6.662905216217041,-0.02536812424659729,-0.9012359976768494,0.7829785346984863,0.1199740618467331,0.05855649709701538,-0.8718623518943787
6.6829962730407715,-0.026512550190091133,-0.9012359976768494,0.7829785346984863,0.12073700875043869,0.06084534898400307,-0.8722438216209412
6.703073501586914,-0.026512550190091133,-0.9012359976768494,0.7829785346984863,0.12264438718557358,0.06160829961299896,-0.8726252913475037
6.723181247711182,-0.02689402550458908,-0.9012359976768494,0.7829785346984863,0.12378881871700287,0.06275273114442825,-0.8726252913475037
6.743292570114136,-0.02727550081908703,-0.9012359976768494,0.7829785346984863,0.12493324279785156,0.06427863240242004,-0.8733882904052734
6.763396501541138,-0.02727550081908703,-0.9012359976768494,0.7829785346984863,0.12722209095954895,0.06466010212898254,-0.8745326995849609
6.783478736877441,-0.02841992862522602,-0.9016174674034119,0.7825970649719238,0.12798504531383514,0.06542305648326874,-0.8760585784912109
6.803538084030151,-0.029564354568719864,-0.9019989371299744,0.7818341255187988,0.12951095402240753,0.06771191209554672,-0.8768215179443359
6.823630332946777,-0.029564354568719864,-0.9023804068565369,0.7818341255187988,0.13103684782981873,0.06923781335353851,-0.8772030472755432
6.843691110610962,-0.03032730519771576,-0.9031433463096619,0.7814526557922363,0.13141833245754242,0.06923781335353851,-0.8787289261817932
6.8639442920684814,-0.030708782374858856,-0.9031433463096619,0.7814526557922363,0.1325627565383911,0.0707637146115303,-0.8794918656349182
6.883918523788452,-0.03147173300385475,-0.9031433463096619,0.7810711860656738,0.134470134973526,0.0715266615152359,-0.8794918656349182
6.904052257537842,-0.03147173300385475,-0.9031433463096619,0.7810711860656738,0.1356145590543747,0.071908138692379,-0.8794918656349182
6.924160718917847,-0.03185320645570755,-0.9031433463096619,0.7810711860656738,0.13752193748950958,0.0722896158695221,-0.8794918656349182
6.944289684295654,-0.03299763426184654,-0.9031433463096619,0.7810711860656738,0.13828489184379578,0.07381551712751389,-0.8798733353614807
6.964440107345581,-0.034142062067985535,-0.9031433463096619,0.7810711860656738,0.13904783129692078,0.07610437273979187,-0.8802548050880432
6.984948635101318,-0.035667963325977325,-0.9035248160362244,0.7810711860656738,0.14019227027893066,0.07877469807863235,-0.8802548050880432
7.005047082901001,-0.03681239113211632,-0.9035248160362244,0.7810711860656738,0.14209964871406555,0.07953765243291855,-0.881017804145813
7.025104284286499,-0.037193864583969116,-0.9039062857627869,0.7810711860656738,0.14438849687576294,0.07953765243291855,-0.8829251527786255
7.045184373855591,-0.03757534176111221,-0.9042877554893494,0.7806897163391113,0.14667734503746033,0.07953765243291855,-0.8836880922317505
7.065294504165649,-0.03795681521296501,-0.9042877554893494,0.7806897163391113,0.14705882966518402,0.07991912961006165,-0.884069561958313
7.085359334945679,-0.03795681521296501,-0.9042877554893494,0.7806897163391113,0.1489662081003189,0.08144503086805344,-0.8855955004692078
7.105438232421875,-0.03795681521296501,-0.9046692848205566,0.7806897163391113,0.1501106321811676,0.08449683338403702,-0.8871213793754578
7.125543832778931,-0.03795681521296501,-0.9046692848205566,0.7806897163391113,0.1520180106163025,0.0871671661734581,-0.8875028491020203
7.146218776702881,-0.038719769567251205,-0.9046692848205566,0.7806897163391113,0.15354390442371368,0.08945601433515549,-0.8875028491020203
7.166332960128784,-0.038719769567251205,-0.9046692848205566,0.7806897163391113,0.15430685877799988,0.08983749151229858,-0.8878843188285828
7.18639063835144,-0.039101243019104004,-0.9050507545471191,0.7803082466125488,0.15468832850456238,0.08945601433515549,-0.8882657885551453
7.206466436386108,-0.0398641936480999,-0.9054322242736816,0.7799267768859863,0.15659570693969727,0.09021896868944168,-0.889028787612915
7.226572751998901,-0.04139009863138199,-0.9054322242736816,0.7795453071594238,0.15774014592170715,0.09021896868944168,-0.8894102573394775
7.246634483337402,-0.04177157208323479,-0.9054322242736816,0.7791637778282166,0.15926603972911835,0.09136339277029037,-0.8909361362457275
7.266735553741455,-0.04177157208323479,-0.9058136940002441,0.7791637778282166,0.16079194843769073,0.09212634712457657,-0.890554666519165
7.286840915679932,-0.042153049260377884,-0.9061951637268066,0.7791637778282166,0.16193637251853943,0.09365224838256836,-0.8909361362457275
7.306920289993286,-0.042153049260377884,-0.9065766334533691,0.7791637778282166,0.16384375095367432,0.09555962681770325,-0.8909361362457275
7.327003002166748,-0.042153049260377884,-0.9065766334533691,0.7791637778282166,0.1646067053079605,0.09822995215654373,-0.8909361362457275
7.34709906578064,-0.04291599988937378,-0.9069581031799316,0.7791637778282166,0.164988175034523,0.10013733059167862,-0.89131760597229
7.367200136184692,-0.04406042397022247,-0.9073395729064941,0.7791637778282166,0.1657511293888092,0.1031891331076622,-0.8916990756988525
7.387287855148315,-0.04406042397022247,-0.9073395729064941,0.7791637778282166,0.1676585078239441,0.10471503436565399,-0.892080545425415
7.407365560531616,-0.04444190114736557,-0.9073395729064941,0.7791637778282166,0.16880293190479279,0.10433356463909149,-0.8924620151519775
7.427462816238403,-0.04558632895350456,-0.9073395729064941,0.7791637778282166,0.17071031033992767,0.10471503436565399,-0.8943694233894348
7.44755220413208,-0.04634927958250046,-0.9073395729064941,0.7795453071594238,0.17261768877506256,0.10471503436565399,-0.8951323628425598
7.467607498168945,-0.046730753034353256,-0.9073395729064941,0.7795453071594238,0.17414358258247375,0.10509651154279709,-0.8955138325691223
7.487828254699707,-0.04749370738863945,-0.9077210426330566,0.7795453071594238,0.17566949129104614,0.10585946589708328,-0.8962767720222473
7.507810831069946,-0.048256658017635345,-0.9077210426330566,0.7795453071594238,0.17643244564533234,0.10700388997793198,-0.8974212408065796
7.527900457382202,-0.04940108209848404,-0.9081025123596191,0.7795453071594238,0.17719538509845734,0.10852979123592377,-0.8978027105331421
7.547961235046387,-0.04940108209848404,-0.9084840416908264,0.7795453071594238,0.17948424816131592,0.10891126841306686,-0.8978027105331421
7.568048000335693,-0.049782559275627136,-0.9088655114173889,0.7795453071594238,0.1810101419687271,0.10891126841306686,-0.8981841802597046
7.588100910186768,-0.05054550990462303,-0.9088655114173889,0.7799267768859863,0.1825360506772995,0.11005569249391556,-0.8981841802597046
7.608205795288086,-0.05130846053361893,-0.9088655114173889,0.7799267768859863,0.1832990050315857,0.11196307092905045,-0.8981841802597046
7.628282785415649,-0.05130846053361893,-0.9088655114173889,0.7799267768859863,0.1836804747581482,0.11310750246047974,-0.8981841802597046
7.6483314037323,-0.05130846053361893,-0.9088655114173889,0.7799267768859863,0.1840619444847107,0.11425192654132843,-0.8981841802597046
7.668425559997559,-0.051689937710762024,-0.9092469811439514,0.7799267768859863,0.18520638346672058,0.11615930497646332,-0.8985656499862671
7.68848180770874,-0.05245288833975792,-0.9103913903236389,0.7799267768859863,0.18673227727413177,0.11654078215360641,-0.8985656499862671
7.708649158477783,-0.05359731614589691,-0.9107728600502014,0.7799267768859863,0.18787670135498047,0.1188296303153038,-0.8989471197128296
7.728787183761597,-0.05359731614589691,-0.9107728600502014,0.7799267768859863,0.18978407979011536,0.1199740618467331,-0.8993285894393921
7.748758792877197,-0.054741740226745605,-0.9107728600502014,0.7799267768859863,0.19092851877212524,0.1203555315732956,-0.8997100591659546
7.768844366073608,-0.0558861680328846,-0.9107728600502014,0.7799267768859863,0.19207294285297394,0.12073700875043869,-0.9000915288925171
7.788922071456909,-0.05664911866188049,-0.9107728600502014,0.7799267768859863,0.19398032128810883,0.12264438718557358,-0.9004730582237244
7.80905556678772,-0.05664911866188049,-0.9107728600502014,0.7799267768859863,0.19512474536895752,0.12340734153985977,-0.9016174674034119
7.829158782958984,-0.05703059583902359,-0.9111543297767639,0.7799267768859863,0.1958876997232437,0.12340734153985977,-0.9027618765830994
7.849210262298584,-0.058175019919872284,-0.9115357995033264,0.7799267768859863,0.1974135935306549,0.12531471252441406,-0.9035248160362244
7.86934757232666,-0.05855649709701538,-0.9119172692298889,0.7799267768859863,0.1985580176115036,0.12645913660526276,-0.9046692848205566
7.889571666717529,-0.05893797054886818,-0.9119172692298889,0.7799267768859863,0.1993209719657898,0.12798504531383514,-0.9054322242736816
7.909528970718384,-0.05893797054886818,-0.9126802682876587,0.7799267768859863,0.20084688067436218,0.12836651504039764,-0.9054322242736816
7.929620742797852,-0.06008239835500717,-0.9130617380142212,0.7799267768859863,0.20275425910949707,0.13103684782981873,-0.9054322242736816
7.949703693389893,-0.06084534898400307,-0.9134432077407837,0.7799267768859863,0.20428015291690826,0.13141833245754242,-0.9058136940002441
7.96976113319397,-0.061226826161146164,-0.9134432077407837,0.7799267768859863,0.20580606162548065,0.13179980218410492,-0.9058136940002441
7.989966630935669,-0.06198977679014206,-0.9134432077407837,0.7799267768859863,0.20695048570632935,0.1333257108926773,-0.9058136940002441
8.009968280792236,-0.06275273114442825,-0.9134432077407837,0.7799267768859863,0.20771344006061554,0.134470134973526,-0.9058136940002441
8.030136585235596,-0.06389715522527695,-0.9134432077407837,0.7803082466125488,0.20962081849575043,0.1359960287809372,-0.9058136940002441
8.050284147262573,-0.06427863240242004,-0.9138246774673462,0.7810711860656738,0.21000228822231293,0.1359960287809372,-0.9061951637268066
8.07034945487976,-0.06580453366041183,-0.9138246774673462,0.7810711860656738,0.21190966665744781,0.13790340721607208,-0.9061951637268066
8.09042501449585,-0.06580453366041183,-0.9142061471939087,0.7810711860656738,0.2138170450925827,0.13942931592464447,-0.9061951637268066
8.110574007034302,-0.06580453366041183,-0.9145876169204712,0.7810711860656738,0.2153429538011551,0.14019227027893066,-0.9065766334533691
8.130611181259155,-0.06580453366041183,-0.9149690866470337,0.7810711860656738,0.21686884760856628,0.14171816408634186,-0.9069581031799316
8.15069842338562,-0.06580453366041183,-0.9153505563735962,0.7810711860656738,0.21763180196285248,0.14324407279491425,-0.9077210426330566
8.170818328857422,-0.06618601083755493,-0.9157320261001587,0.7810711860656738,0.21915769577026367,0.14438849687576294,-0.9092469811439514
8.190916061401367,-0.06656748056411743,-0.9157320261001587,0.7810711860656738,0.22030213475227356,0.14744029939174652,-0.9100099205970764
8.21101427078247,-0.06771191209554672,-0.9157320261001587,0.7810711860656738,0.22144655883312225,0.1493476778268814,-0.9100099205970764
8.231119155883789,-0.06885633617639542,-0.9157320261001587,0.7810711860656738,0.22220951318740845,0.1504921019077301,-0.9100099205970764
8.251208782196045,-0.06923781335353851,-0.9157320261001587,0.7810711860656738,0.22373540699481964,0.1508735716342926,-0.9103913903236389
8.271295070648193,-0.0707637146115303,-0.916876494884491,0.7810711860656738,0.22449836134910583,0.1512550562620163,-0.9111543297767639
8.291401386260986,-0.071908138692379,-0.917639434337616,0.7810711860656738,0.22564278542995453,0.1512550562620163,-0.9130617380142212
8.312033414840698,-0.07305257022380829,-0.917639434337616,0.7810711860656738,0.22755016386508942,0.15316243469715118,-0.9130617380142212
8.332129716873169,-0.07343403995037079,-0.9180209040641785,0.7810711860656738,0.2283131182193756,0.15316243469715118,-0.9130617380142212
8.352197885513306,-0.07343403995037079,-0.9180209040641785,0.7810711860656738,0.2294575423002243,0.15316243469715118,-0.9130617380142212
8.372270822525024,-0.07343403995037079,-0.9180209040641785,0.7810711860656738,0.230601966381073,0.15430685877799988,-0.9130617380142212
8.392391681671143,-0.07343403995037079,-0.9180209040641785,0.7814526557922363,0.23250934481620789,0.15621423721313477,-0.9130617380142212
8.412584066390991,-0.07419699430465698,-0.9187838435173035,0.7814526557922363,0.23327229917049408,0.15850308537483215,-0.9134432077407837
8.432693004608154,-0.07495994865894318,-0.919165313243866,0.7818341255187988,0.23479819297790527,0.16041046380996704,-0.9138246774673462
8.452791690826416,-0.07572289556264877,-0.9195467829704285,0.7818341255187988,0.23556114733219147,0.16155488789081573,-0.9138246774673462
8.472868204116821,-0.07648584991693497,-0.9195467829704285,0.7818341255187988,0.23632410168647766,0.16155488789081573,-0.9138246774673462
8.49295949935913,-0.07801175117492676,-0.9195467829704285,0.7818341255187988,0.23708705604076385,0.16193637251853943,-0.9138246774673462
8.513060092926025,-0.07953765243291855,-0.9199283123016357,0.7818341255187988,0.23785001039505005,0.16231784224510193,-0.9142061471939087
8.533133506774902,-0.08030059933662415,-0.9199283123016357,0.7818341255187988,0.23899443447589874,0.16193637251853943,-0.9145876169204712
8.553282976150513,-0.08068207651376724,-0.9206912517547607,0.7818341255187988,0.24013885855674744,0.16269932687282562,-0.9149690866470337
8.57329773902893,-0.08068207651376724,-0.9210727214813232,0.7825970649719238,0.24280919134616852,0.16422522068023682,-0.916113555431366
8.593406915664673,-0.08068207651376724,-0.9210727214813232,0.7829785346984863,0.24357213079929352,0.1657511293888092,-0.9164950251579285
8.613461971282959,-0.08068207651376724,-0.9210727214813232,0.7833600640296936,0.2439536154270172,0.1684214472770691,-0.916876494884491
8.63355565071106,-0.08068207651376724,-0.9210727214813232,0.7833600640296936,0.2450980395078659,0.17071031033992767,-0.9172579646110535
8.653666019439697,-0.08106355369091034,-0.9218356609344482,0.7837415337562561,0.2470054179430008,0.17338064312934875,-0.9172579646110535
8.673727989196777,-0.08182650804519653,-0.9225986003875732,0.7837415337562561,0.2481498420238495,0.17566949129104614,-0.917639434337616
8.693854331970215,-0.08297093212604523,-0.9233615398406982,0.7837415337562561,0.2504386901855469,0.17719538509845734,-0.917639434337616
8.713961124420166,-0.08487831056118011,-0.9245060086250305,0.7837415337562561,0.25120165944099426,0.17795833945274353,-0.918402373790741
8.734592199325562,-0.086785688996315,-0.9252689480781555,0.7837415337562561,0.25234606862068176,0.17833982408046722,-0.9206912517547607
8.754735469818115,-0.0875486359000206,-0.9252689480781555,0.7837415337562561,0.25387197732925415,0.17757686972618103,-0.9214541912078857
8.77480697631836,-0.0875486359000206,-0.9252689480781555,0.7837415337562561,0.25539788603782654,0.17719538509845734,-0.9210727214813232
8.795016050338745,-0.0875486359000206,-0.9252689480781555,0.7841230034828186,0.2576867341995239,0.17757686972618103,-0.9214541912078857
8.815322160720825,-0.0875486359000206,-0.9252689480781555,0.7852674126625061,0.2588311731815338,0.1802472025156021,-0.9214541912078857
8.83544635772705,-0.0875486359000206,-0.9252689480781555,0.7852674126625061,0.2595941126346588,0.1840619444847107,-0.9218356609344482
8.856026411056519,-0.0871671661734581,-0.9252689480781555,0.7856488823890686,0.2607385218143463,0.18711376190185547,-0.9222171306610107
8.876143217086792,-0.0871671661734581,-0.9252689480781555,0.7856488823890686,0.2618829607963562,0.18902114033699036,-0.9225986003875732
8.896262407302856,-0.0875486359000206,-0.925650417804718,0.7856488823890686,0.2630273997783661,0.19054703414440155,-0.9229800701141357
8.916393041610718,-0.0875486359000206,-0.9260318875312805,0.7856488823890686,0.264934778213501,0.19016556441783905,-0.9233615398406982
8.936481952667236,-0.0875486359000206,-0.9260318875312805,0.7856488823890686,0.265697717666626,0.18978407979011536,-0.9233615398406982
8.956561803817749,-0.0879301130771637,-0.926413357257843,0.7856488823890686,0.266460657119751,0.18978407979011536,-0.9237430095672607
8.976647853851318,-0.08869306743144989,-0.9267948269844055,0.7856488823890686,0.26836803555488586,0.19092851877212524,-0.9237430095672607
8.996754884719849,-0.08869306743144989,-0.927176296710968,0.7856488823890686,0.26951247453689575,0.19169145822525024,-0.9237430095672607
9.016900300979614,-0.08945601433515549,-0.927176296710968,0.7856488823890686,0.26989394426345825,0.19359883666038513,-0.924124538898468
9.036996364593506,-0.08983749151229858,-0.9275577664375305,0.7856488823890686,0.27065691351890564,0.19474326074123383,-0.924124538898468
9.057086944580078,-0.09060044586658478,-0.9279392957687378,0.7856488823890686,0.27180132269859314,0.19512474536895752,-0.924124538898468
9.077300071716309,-0.09212634712457657,-0.9279392957687378,0.7856488823890686,0.2725642919540405,0.1966506391763687,-0.924124538898468
9.097397804260254,-0.09288929402828217,-0.9283207654953003,0.7856488823890686,0.2733272314071655,0.1966506391763687,-0.924124538898468
9.117475748062134,-0.09479667246341705,-0.9290837049484253,0.7856488823890686,0.2733272314071655,0.1974135935306549,-0.924124538898468
9.13757586479187,-0.09517814964056015,-0.9298466444015503,0.7860303521156311,0.2748531401157379,0.1977950781583786,-0.9245060086250305
9.157694101333618,-0.09594109654426575,-0.9302281141281128,0.7860303521156311,0.2767605185508728,0.1985580176115036,-0.924124538898468
9.177807569503784,-0.09708552807569504,-0.9309910535812378,0.7860303521156311,0.2775234580039978,0.1997024416923523,-0.9245060086250305
9.197867631912231,-0.09822995215654373,-0.9321355223655701,0.7860303521156311,0.2794308364391327,0.20199130475521088,-0.924887478351593
9.217938423156738,-0.09784847497940063,-0.9321355223655701,0.7860303521156311,0.2809567451477051,0.20313572883605957,-0.924887478351593
9.23799204826355,-0.09784847497940063,-0.9321355223655701,0.7860303521156311,0.2809567451477051,0.20313572883605957,-0.924887478351593
9.258060693740845,-0.09822995215654373,-0.9321355223655701,0.7864118218421936,0.2821011543273926,0.20351719856262207,-0.9252689480781555
9.279114007949829,-0.09937438368797302,-0.9321355223655701,0.7867932915687561,0.28400853276252747,0.20504310727119446,-0.9252689480781555
9.299277067184448,-0.10013733059167862,-0.9321355223655701,0.7871748208999634,0.28477150201797485,0.20618753135204315,-0.9252689480781555
9.319274663925171,-0.10013733059167862,-0.9321355223655701,0.7875562906265259,0.28744181990623474,0.20656901597976685,-0.925650417804718
9.340067625045776,-0.10013733059167862,-0.9325169920921326,0.7879377603530884,0.28820478916168213,0.20695048570632935,-0.926413357257843
9.36018443107605,-0.10128175467252731,-0.9332799315452576,0.7879377603530884,0.28896772861480713,0.20962081849575043,-0.9279392957687378
9.380258798599243,-0.10128175467252731,-0.9336614012718201,0.7883192300796509,0.290112167596817,0.21114671230316162,-0.9283207654953003
9.400360822677612,-0.10204470902681351,-0.9344243407249451,0.7883192300796509,0.291638046503067,0.212672621011734,-0.9283207654953003
9.42043948173523,-0.10204470902681351,-0.9351872801780701,0.7883192300796509,0.2927824854850769,0.2138170450925827,-0.9287022352218628
9.440601348876953,-0.10204470902681351,-0.9355688095092773,0.7883192300796509,0.2946898639202118,0.2145799994468689,-0.9287022352218628
9.460741996765137,-0.10204470902681351,-0.9359502792358398,0.7883192300796509,0.2958342730998993,0.2157244235277176,-0.9287022352218628
9.480801820755005,-0.10204470902681351,-0.9363317489624023,0.7883192300796509,0.2962157726287842,0.21763180196285248,-0.9290837049484253
9.501025676727295,-0.1024261862039566,-0.9363317489624023,0.7887006998062134,0.2969787120819092,0.21877622604370117,-0.9290837049484253
9.52111268043518,-0.1031891331076622,-0.9367132186889648,0.7890821695327759,0.2973601818084717,0.22030213475227356,-0.9298466444015503
9.541173458099365,-0.1039520874619484,-0.9374761581420898,0.7898451089859009,0.29964902997016907,0.22259098291397095,-0.9317540526390076
9.561259269714355,-0.10433356463909149,-0.9374761581420898,0.7902265787124634,0.30079346895217896,0.22335393726825714,-0.9313725233078003
9.581350564956665,-0.10547798871994019,-0.9374761581420898,0.7902265787124634,0.30308231711387634,0.22373540699481964,-0.9313725233078003
9.602075576782227,-0.10662241280078888,-0.9374761581420898,0.7902265787124634,0.30422675609588623,0.22526131570339203,-0.9317540526390076
9.622276782989502,-0.10776684433221817,-0.9374761581420898,0.7902265787124634,0.30498969554901123,0.22640573978424072,-0.9317540526390076
9.642281293869019,-0.10929274559020996,-0.9374761581420898,0.7902265787124634,0.3065156042575836,0.2283131182193756,-0.9317540526390076
9.662424802780151,-0.10929274559020996,-0.9378576278686523,0.7906080484390259,0.3076600432395935,0.22793163359165192,-0.9317540526390076
9.682557106018066,-0.10929274559020996,-0.9378576278686523,0.7906080484390259,0.309567391872406,0.2283131182193756,-0.9317540526390076
9.702849388122559,-0.10929274559020996,-0.9382390975952148,0.7909895181655884,0.3103303611278534,0.2286945879459381,-0.9317540526390076
9.723031759262085,-0.10929274559020996,-0.9386205673217773,0.7917525172233582,0.3107118308544159,0.2290760725736618,-0.9321355223655701
9.74306035041809,-0.10929274559020996,-0.9393835067749023,0.7921339869499207,0.3110933005809784,0.230601966381073,-0.9321355223655701
9.763149976730347,-0.10967422276735306,-0.9393835067749023,0.7921339869499207,0.3118562698364258,0.23327229917049408,-0.9321355223655701
9.783235788345337,-0.11043716967105865,-0.9393835067749023,0.7925154566764832,0.3130006790161133,0.23479819297790527,-0.9321355223655701
9.80331802368164,-0.11120012402534485,-0.9397650361061096,0.7921339869499207,0.31452658772468567,0.23594263195991516,-0.9321355223655701
9.823407888412476,-0.11234454810619354,-0.9397650361061096,0.7925154566764832,0.31528952717781067,0.23632410168647766,-0.9321355223655701
9.843480587005615,-0.11348897218704224,-0.9401465058326721,0.7925154566764832,0.31643396615982056,0.23670557141304016,-0.9325169920921326
9.863543033599854,-0.11425192654132843,-0.9405279755592346,0.7925154566764832,0.31719690561294556,0.23632410168647766,-0.9325169920921326
9.883681058883667,-0.11463340371847153,-0.9409094452857971,0.7925154566764832,0.31795987486839294,0.23632410168647766,-0.9325169920921326
9.903773307800293,-0.11463340371847153,-0.9412909150123596,0.7925154566764832,0.31872281432151794,0.23708705604076385,-0.9328984618186951
9.9237961769104,-0.11501488089561462,-0.9424353241920471,0.7932783961296082,0.32024872303009033,0.23823148012161255,-0.9328984618186951
9.94394326210022,-0.11577782779932022,-0.9428167939186096,0.7936598658561707,0.3217746317386627,0.24166475236415863,-0.9336614012718201
9.964031457901001,-0.11615930497646332,-0.9435797929763794,0.7940413355827332,0.3229190409183502,0.2443350851535797,-0.9344243407249451
9.984059810638428,-0.11654078215360641,-0.9443427324295044,0.7940413355827332,0.3244449496269226,0.2454795092344284,-0.9351872801780701
10.004158973693848,-0.11654078215360641,-0.9454871416091919,0.7944228053092957,0.325970858335495,0.2462424635887146,-0.9355688095092773
10.024294376373291,-0.11692225188016891,-0.9458686113357544,0.7944228053092957,0.3263523280620575,0.2462424635887146,-0.9359502792358398
10.044439554214478,-0.1180666834115982,-0.9458686113357544,0.7944228053092957,0.3271152675151825,0.2462424635887146,-0.9359502792358398
10.064549684524536,-0.1188296303153038,-0.9462500810623169,0.7944228053092957,0.3282597064971924,0.2470054179430008,-0.9363317489624023
10.08463168144226,-0.12073700875043869,-0.9462500810623169,0.7944228053092957,0.32978561520576477,0.24891279637813568,-0.9363317489624023
10.104723453521729,-0.12073700875043869,-0.9462500810623169,0.7955672740936279,0.33169299364089966,0.24967575073242188,-0.9367132186889648
10.124862909317017,-0.12111848592758179,-0.9462500810623169,0.7955672740936279,0.33321890234947205,0.2500572204589844,-0.9370946884155273
10.144877910614014,-0.12149996310472488,-0.9462500810623169,0.7955672740936279,0.33360037207603455,0.2508201599121094,-0.9370946884155273
10.164958715438843,-0.12188144028186798,-0.9466315507888794,0.7955672740936279,0.33360037207603455,0.25272753834724426,-0.9374761581420898
10.185038328170776,-0.12188144028186798,-0.9466315507888794,0.7955672740936279,0.33398184180259705,0.25501641631126404,-0.9390020370483398
10.205182552337646,-0.12188144028186798,-0.9466315507888794,0.7955672740936279,0.33474478125572205,0.2569237947463989,-0.9393835067749023
10.225319623947144,-0.12226291000843048,-0.9466315507888794,0.7955672740936279,0.33627068996429443,0.2595941126346588,-0.9397650361061096
10.24535846710205,-0.12302586436271667,-0.9466315507888794,0.7955672740936279,0.3370336592197418,0.2618829607963562,-0.9397650361061096
10.265487909317017,-0.12378881871700287,-0.9470130205154419,0.7959487438201904,0.3381780683994293,0.2630273997783661,-0.9397650361061096
10.285591125488281,-0.12378881871700287,-0.9477760195732117,0.7963302135467529,0.3400854468345642,0.2626459002494812,-0.9397650361061096
10.305624961853027,-0.12417028844356537,-0.9493018984794617,0.7967116832733154,0.3408484160900116,0.2626459002494812,-0.9397650361061096
10.325783729553223,-0.12493324279785156,-0.9504463076591492,0.7974746227264404,0.3416113555431366,0.2626459002494812,-0.9397650361061096
10.345793724060059,-0.12531471252441406,-0.9508277773857117,0.7974746227264404,0.3419928252696991,0.2626459002494812,-0.9397650361061096
10.365875720977783,-0.12607766687870026,-0.9508277773857117,0.7974746227264404,0.343137264251709,0.2641718089580536,-0.9397650361061096
10.385947942733765,-0.12607766687870026,-0.9508277773857117,0.7978560924530029,0.34542611241340637,0.265697717666626,-0.9401465058326721
10.406039953231812,-0.12684062123298645,-0.9508277773857117,0.7978560924530029,0.34809643030166626,0.26684215664863586,-0.9397650361061096
10.426154136657715,-0.12760357558727264,-0.9508277773857117,0.7982375621795654,0.34885939955711365,0.26836803555488586,-0.9401465058326721
10.446228981018066,-0.12836651504039764,-0.9508277773857117,0.7986190319061279,0.34924086928367615,0.26989394426345825,-0.9397650361061096
10.466314792633057,-0.12836651504039764,-0.9508277773857117,0.7986190319061279,0.35000380873680115,0.26989394426345825,-0.9397650361061096
10.48642110824585,-0.12874799966812134,-0.9508277773857117,0.7986190319061279,0.35038527846336365,0.26989394426345825,-0.9401465058326721
10.506500959396362,-0.12912946939468384,-0.951209306716919,0.7986190319061279,0.35191118717193604,0.27103838324546814,-0.9401465058326721
10.526556015014648,-0.12912946939468384,-0.9515907764434814,0.7986190319061279,0.3530556261539459,0.2725642919540405,-0.9401465058326721
10.546625137329102,-0.12912946939468384,-0.951972246170044,0.7986190319061279,0.3545815348625183,0.2733272314071655,-0.9397650361061096
10.566879749298096,-0.13027389347553253,-0.951972246170044,0.7986190319061279,0.3549630045890808,0.273708701133728,-0.9401465058326721
10.586973190307617,-0.13065537810325623,-0.952735185623169,0.7990005612373352,0.3553444743156433,0.2748531401157379,-0.9401465058326721
10.60706114768982,-0.13103684782981873,-0.9531166553497314,0.7997635006904602,0.3561074137687683,0.2759975492954254,-0.9401465058326721
10.627129077911377,-0.13179980218410492,-0.954261064529419,0.8009079098701477,0.3572518527507782,0.2779049277305603,-0.9401465058326721
10.647249937057495,-0.1325627565383911,-0.955024003982544,0.8009079098701477,0.3591592311859131,0.2801937758922577,-0.9405279755592346
10.667449474334717,-0.1333257108926773,-0.955024003982544,0.8009079098701477,0.3599221706390381,0.2805752754211426,-0.9405279755592346
10.687560081481934,-0.1333257108926773,-0.955024003982544,0.8009079098701477,0.3599221706390381,0.2801937758922577,-0.9409094452857971
10.707918167114258,-0.1333257108926773,-0.955024003982544,0.8009079098701477,0.361066609621048,0.2809567451477051,-0.9416723847389221
10.728023290634155,-0.1337071806192398,-0.9557870030403137,0.8009079098701477,0.361829549074173,0.28248265385627747,-0.9424353241920471
10.748095989227295,-0.1348516047000885,-0.9561684727668762,0.8009079098701477,0.36259251832962036,0.28477150201797485,-0.9428167939186096
10.768373966217041,-0.1359960287809372,-0.9573128819465637,0.8009079098701477,0.36335545778274536,0.28667888045310974,-0.9431982636451721
10.788475275039673,-0.1367589831352234,-0.9573128819465637,0.8009079098701477,0.36373692750930786,0.28744181990623474,-0.9431982636451721
10.808543682098389,-0.1367589831352234,-0.9580758213996887,0.8009079098701477,0.36488136649131775,0.28667888045310974,-0.9431982636451721
10.828617572784424,-0.13790340721607208,-0.9584572911262512,0.8009079098701477,0.36717021465301514,0.28744181990623474,-0.9431982636451721
10.848681688308716,-0.13790340721607208,-0.9584572911262512,0.8016708493232727,0.36755168437957764,0.28744181990623474,-0.9435797929763794
10.868739604949951,-0.13866636157035828,-0.9588387608528137,0.8024337887763977,0.368314653635025,0.28820478916168213,-0.9435797929763794
10.888843297958374,-0.13866636157035828,-0.959220290184021,0.802815318107605,0.3702220320701599,0.28896772861480713,-0.9435797929763794
10.908916234970093,-0.13866636157035828,-0.959220290184021,0.802815318107605,0.3706035017967224,0.28896772861480713,-0.9435797929763794
10.928972482681274,-0.13866636157035828,-0.959220290184021,0.802815318107605,0.3709849715232849,0.28896772861480713,-0.9435797929763794
10.949067115783691,-0.13942931592464447,-0.959220290184021,0.802815318107605,0.3721294105052948,0.28934919834136963,-0.9435797929763794
10.969175815582275,-0.14057374000549316,-0.9596017599105835,0.802815318107605,0.3732738196849823,0.290875107049942,-0.9435797929763794
10.989388942718506,-0.14171816408634186,-0.9603646993637085,0.802815318107605,0.3740367889404297,0.2935454249382019,-0.9439612627029419
11.009480714797974,-0.14286258816719055,-0.960746169090271,0.8031967878341675,0.3755626678466797,0.2946898639202118,-0.9439612627029419
11.029658555984497,-0.14400701224803925,-0.9611276388168335,0.8031967878341675,0.3767071068286896,0.2950713336467743,-0.9443427324295044
11.050269603729248,-0.14591439068317413,-0.961509108543396,0.8039597272872925,0.3778515160083771,0.2958342730998993,-0.9447242021560669
11.070370197296143,-0.14591439068317413,-0.962272047996521,0.8039597272872925,0.37861448526382446,0.2962157726287842,-0.9462500810623169
11.090490818023682,-0.14591439068317413,-0.962272047996521,0.804341197013855,0.37937742471694946,0.2962157726287842,-0.9470130205154419
11.110612392425537,-0.14591439068317413,-0.962272047996521,0.8047226667404175,0.38128480315208435,0.2962157726287842,-0.9470130205154419
11.130701780319214,-0.14591439068317413,-0.962272047996521,0.8047226667404175,0.38204777240753174,0.29812315106391907,-0.9470130205154419
11.150761604309082,-0.14591439068317413,-0.9626535177230835,0.8047226667404175,0.38281071186065674,0.30079346895217896,-0.9470130205154419
11.170881986618042,-0.14591439068317413,-0.9626535177230835,0.8047226667404175,0.3847180902957916,0.30384528636932373,-0.9470130205154419
11.190985918045044,-0.14591439068317413,-0.9630350470542908,0.8047226667404175,0.3854810297489166,0.3061341345310211,-0.9470130205154419
11.211030721664429,-0.14591439068317413,-0.9634165167808533,0.8047226667404175,0.3858625292778015,0.3072785437107086,-0.9470130205154419
11.231141567230225,-0.14591439068317413,-0.9634165167808533,0.8047226667404175,0.386243999004364,0.3072785437107086,-0.9470130205154419
11.251243114471436,-0.14591439068317413,-0.9641794562339783,0.8047226667404175,0.386243999004364,0.3072785437107086,-0.9473945498466492
11.271265029907227,-0.14591439068317413,-0.9645609259605408,0.80510413646698,0.387006938457489,0.3076600432395935,-0.9470130205154419
11.291359186172485,-0.14591439068317413,-0.9653238654136658,0.80510413646698,0.3885328471660614,0.3076600432395935,-0.9473945498466492
11.311434745788574,-0.14667734503746033,-0.9657053351402283,0.805867075920105,0.3892957866191864,0.308804452419281,-0.9473945498466492
11.331995487213135,-0.14744029939174652,-0.9664682745933533,0.80663001537323,0.3900587558746338,0.3103303611278534,-0.9470130205154419
11.352158308029175,-0.1489662081003189,-0.9668498039245605,0.8070115447044373,0.3912031650543213,0.3133821487426758,-0.9473945498466492
11.372142314910889,-0.1493476778268814,-0.967231273651123,0.8077744841575623,0.3927290737628937,0.31452658772468567,-0.9470130205154419
11.392657279968262,-0.1501106321811676,-0.9676127433776855,0.8085374236106873,0.3931105434894562,0.31452658772468567,-0.9473945498466492
11.412757158279419,-0.1512550562620163,-0.9676127433776855,0.8089188933372498,0.39425498247146606,0.31490805745124817,-0.9473945498466492
11.43286681175232,-0.152399480342865,-0.9676127433776855,0.8089188933372498,0.39463645219802856,0.31528952717781067,-0.9473945498466492
11.452942848205566,-0.15316243469715118,-0.9683756828308105,0.8089188933372498,0.39616236090660095,0.31567102670669556,-0.9473945498466492
11.473066091537476,-0.15316243469715118,-0.968757152557373,0.8089188933372498,0.39768826961517334,0.31605249643325806,-0.9473945498466492
11.493187427520752,-0.15316243469715118,-0.968757152557373,0.8089188933372498,0.39806973934173584,0.31567102670669556,-0.9473945498466492
11.513246297836304,-0.15316243469715118,-0.9691386222839355,0.8089188933372498,0.39921414852142334,0.31643396615982056,-0.9473945498466492
11.533324480056763,-0.15316243469715118,-0.969520092010498,0.8089188933372498,0.4003585875034332,0.31834134459495544,-0.9473945498466492
11.553380489349365,-0.15316243469715118,-0.969520092010498,0.8089188933372498,0.4007400572299957,0.32024872303009033,-0.9473945498466492
11.57347321510315,-0.15316243469715118,-0.969520092010498,0.8089188933372498,0.4011215269565582,0.3213931620121002,-0.9473945498466492
11.593551397323608,-0.15316243469715118,-0.969520092010498,0.8089188933372498,0.4018844962120056,0.3225375711917877,-0.9473945498466492
11.61360764503479,-0.15354390442371368,-0.969520092010498,0.8089188933372498,0.4022659659385681,0.3225375711917877,-0.9473945498466492
11.633756160736084,-0.15354390442371368,-0.9699015617370605,0.8089188933372498,0.4026474356651306,0.3225375711917877,-0.9473945498466492
11.653815984725952,-0.15430685877799988,-0.9706645011901855,0.8093003630638123,0.4037918746471405,0.3233005404472351,-0.9473945498466492
11.67390489578247,-0.15506981313228607,-0.9718089699745178,0.8100633025169373,0.4045548141002655,0.3236820101737976,-0.9473945498466492
11.693998575210571,-0.15659570693969727,-0.9729533791542053,0.810826301574707,0.4064621925354004,0.3248264193534851,-0.9477760195732117
11.714110136032104,-0.15659570693969727,-0.9733348488807678,0.810826301574707,0.4072251319885254,0.3255893886089325,-0.9477760195732117
11.734283447265625,-0.15774014592170715,-0.9737163186073303,0.810826301574707,0.4079881012439728,0.32520791888237,-0.9477760195732117
11.754313945770264,-0.15812161564826965,-0.9737163186073303,0.810826301574707,0.4083695709705353,0.325970858335495,-0.9481574892997742
11.774450063705444,-0.15812161564826965,-0.9737163186073303,0.810826301574707,0.41027694940567017,0.325970858335495,-0.9485389590263367
11.794538259506226,-0.15812161564826965,-0.9737163186073303,0.8112077713012695,0.41218432784080505,0.3271152675151825,-0.9489204287528992
11.814605474472046,-0.15812161564826965,-0.9737163186073303,0.8112077713012695,0.41332876682281494,0.3290226459503174,-0.9493018984794617
11.83506464958191,-0.15850308537483215,-0.9737163186073303,0.8112077713012695,0.41485464572906494,0.33207446336746216,-0.9496833682060242
11.855248928070068,-0.15850308537483215,-0.9737163186073303,0.811589241027832,0.41485464572906494,0.33398184180259705,-0.9496833682060242
11.875311374664307,-0.15850308537483215,-0.9740977883338928,0.812352180480957,0.41523614525794983,0.33512628078460693,-0.9496833682060242
11.895461559295654,-0.15888457000255585,-0.9740977883338928,0.8119707107543945,0.41638055443763733,0.3377965986728668,-0.9496833682060242
11.915493726730347,-0.16002899408340454,-0.9744792580604553,0.812352180480957,0.4171435236930847,0.3397039771080017,-0.9496833682060242
11.935738801956177,-0.16079194843769073,-0.9752422571182251,0.812352180480957,0.4182879328727722,0.3404669165611267,-0.9500648379325867
11.955843925476074,-0.16155488789081573,-0.9760051965713501,0.812352180480957,0.4186694025993347,0.3400854468345642,-0.9500648379325867
11.975891351699829,-0.16269932687282562,-0.9779125452041626,0.812352180480957,0.4190509021282196,0.3400854468345642,-0.9500648379325867
11.995979309082031,-0.16384375095367432,-0.9794384837150574,0.812352180480957,0.4194323718547821,0.3404669165611267,-0.9500648379325867
12.016064167022705,-0.16422522068023682,-0.9798199534416199,0.812352180480957,0.4194323718547821,0.3400854468345642,-0.9500648379325867
12.036166191101074,-0.1646067053079605,-0.9798199534416199,0.812352180480957,0.4198138415813446,0.3400854468345642,-0.9500648379325867
12.056312799453735,-0.1646067053079605,-0.9798199534416199,0.813115119934082,0.4217212200164795,0.3404669165611267,-0.9500648379325867
12.076390504837036,-0.1646067053079605,-0.9798199534416199,0.8150225281715393,0.4232471287250519,0.3408484160900116,-0.9500648379325867
12.09647011756897,-0.1646067053079605,-0.9798199534416199,0.8154039978981018,0.4247730076313019,0.343137264251709,-0.9500648379325867
12.116547346115112,-0.1646067053079605,-0.9794384837150574,0.8154039978981018,0.42744335532188416,0.34580758213996887,-0.9500648379325867
12.136627197265625,-0.1646067053079605,-0.9798199534416199,0.8154039978981018,0.42744335532188416,0.34733349084854126,-0.9500648379325867
12.15672254562378,-0.1646067053079605,-0.9798199534416199,0.8150225281715393,0.42706188559532166,0.34809643030166626,-0.9504463076591492
12.176796436309814,-0.164988175034523,-0.9798199534416199,0.8150225281715393,0.42744335532188416,0.34809643030166626,-0.9500648379325867
12.196916818618774,-0.1653696447610855,-0.9798199534416199,0.8154039978981018,0.42858776450157166,0.34847790002822876,-0.9504463076591492
12.217029809951782,-0.1657511293888092,-0.9798199534416199,0.8154039978981018,0.43011367321014404,0.34924086928367615,-0.9500648379325867
12.237104177474976,-0.1668955534696579,-0.9798199534416199,0.8154039978981018,0.43087664246559143,0.35000380873680115,-0.9500648379325867
12.257175207138062,-0.1676585078239441,-0.9802014231681824,0.8161669373512268,0.43163958191871643,0.35000380873680115,-0.9500648379325867
12.277264833450317,-0.1680399775505066,-0.9802014231681824,0.8161669373512268,0.43240252137184143,0.35000380873680115,-0.9504463076591492
12.297347784042358,-0.1680399775505066,-0.9809643626213074,0.8161669373512268,0.4335469603538513,0.35000380873680115,-0.9504463076591492
12.317458629608154,-0.1680399775505066,-0.9813458323478699,0.8161669373512268,0.4343098998069763,0.35076677799224854,-0.9500648379325867
12.337557554244995,-0.1684214472770691,-0.9813458323478699,0.8161669373512268,0.4350728690624237,0.35191118717193604,-0.9504463076591492
12.35784125328064,-0.16880293190479279,-0.9821087718009949,0.8165484070777893,0.4350728690624237,0.3530556261539459,-0.9504463076591492
12.37793254852295,-0.16880293190479279,-0.9821087718009949,0.8165484070777893,0.4365987777709961,0.3545815348625183,-0.9500648379325867
12.39800214767456,-0.16956588625907898,-0.9824903011322021,0.8165484070777893,0.4373617172241211,0.3557259440422058,-0.9504463076591492
12.418083429336548,-0.16994735598564148,-0.9828717708587646,0.8169298768043518,0.4381246566772461,0.3568703830242157,-0.9504463076591492
12.438242435455322,-0.16994735598564148,-0.9832532405853271,0.8173113465309143,0.4404135048389435,0.3576333224773407,-0.9504463076591492
12.458290576934814,-0.16994735598564148,-0.9840161800384521,0.8173113465309143,0.44117647409439087,0.3580147922039032,-0.9504463076591492
12.47838807106018,-0.16994735598564148,-0.9847791194915771,0.8173113465309143,0.44193941354751587,0.3583962619304657,-0.9504463076591492
12.498444318771362,-0.17071031033992767,-0.9855420589447021,0.8173113465309143,0.44232088327407837,0.3603036403656006,-0.9504463076591492
12.518566131591797,-0.17109178006649017,-0.9863049983978271,0.8173113465309143,0.44270238280296326,0.361066609621048,-0.9504463076591492
12.5386483669281,-0.17185473442077637,-0.9863049983978271,0.8173113465309143,0.44270238280296326,0.361829549074173,-0.9504463076591492
12.558725833892822,-0.17299915850162506,-0.9863049983978271,0.8173113465309143,0.44384679198265076,0.36259251832962036,-0.9504463076591492
12.578798770904541,-0.17414358258247375,-0.9863049983978271,0.8173113465309143,0.44460976123809814,0.36297398805618286,-0.9508277773857117
12.598875284194946,-0.17490653693675995,-0.9863049983978271,0.8173113465309143,0.44537270069122314,0.36373692750930786,-0.9508277773857117
12.618946552276611,-0.17490653693675995,-0.9863049983978271,0.8180742859840393,0.44537270069122314,0.36335545778274536,-0.9508277773857117
12.638992071151733,-0.17490653693675995,-0.9870679974555969,0.8184558153152466,0.44575417041778564,0.36373692750930786,-0.9508277773857117
12.659092664718628,-0.17490653693675995,-0.9874494671821594,0.8188372850418091,0.44766154885292053,0.36526283621788025,-0.951209306716919
12.67922306060791,-0.17490653693675995,-0.9882124066352844,0.8188372850418091,0.4491874575614929,0.36678874492645264,-0.9508277773857117
12.699387788772583,-0.17490653693675995,-0.9882124066352844,0.8188372850418091,0.4503318965435028,0.36755168437957764,-0.9508277773857117
12.719482898712158,-0.17490653693675995,-0.9882124066352844,0.8192187547683716,0.4522392749786377,0.368314653635025,-0.951209306716919
12.739625930786133,-0.17490653693675995,-0.9882124066352844,0.8192187547683716,0.4530022144317627,0.36907759308815,-0.951209306716919
12.759673118591309,-0.17490653693675995,-0.9885938763618469,0.8192187547683716,0.4541466534137726,0.3694590628147125,-0.9508277773857117
12.779732704162598,-0.17490653693675995,-0.9885938763618469,0.8192187547683716,0.4556725323200226,0.3694590628147125,-0.951209306716919
12.800078868865967,-0.17490653693675995,-0.9897382855415344,0.8196002244949341,0.45719844102859497,0.3702220320701599,-0.9508277773857117
12.82017469406128,-0.17490653693675995,-0.9905012845993042,0.8199816942214966,0.45910581946372986,0.3706035017967224,-0.951209306716919
12.840244054794312,-0.17490653693675995,-0.9912642240524292,0.8207446336746216,0.46025025844573975,0.3709849715232849,-0.9508277773857117
12.860572099685669,-0.17490653693675995,-0.9916456937789917,0.8211261034011841,0.46101319789886475,0.3717479109764099,-0.9508277773857117
12.880669116973877,-0.17528800666332245,-0.9912642240524292,0.8211261034011841,0.46215763688087463,0.3717479109764099,-0.951209306716919
12.900727033615112,-0.17566949129104614,-0.9916456937789917,0.8211261034011841,0.4640650153160095,0.3740367889404297,-0.9508277773857117
12.920817375183105,-0.17643244564533234,-0.9916456937789917,0.8211261034011841,0.465209424495697,0.3751811981201172,-0.9508277773857117
12.940898656845093,-0.17681391537189484,-0.9916456937789917,0.8211261034011841,0.4667353332042694,0.3759441375732422,-0.9508277773857117
12.961044311523438,-0.17719538509845734,-0.9916456937789917,0.8215075731277466,0.4674982726573944,0.3759441375732422,-0.9508277773857117
12.981153011322021,-0.17681391537189484,-0.9920271635055542,0.8215075731277466,0.4678797721862793,0.3759441375732422,-0.9508277773857117
13.001267194747925,-0.17719538509845734,-0.9924086332321167,0.8215075731277466,0.4682612419128418,0.3767071068286896,-0.9508277773857117
13.02132248878479,-0.17719538509845734,-0.9927901029586792,0.8215075731277466,0.4690241813659668,0.3774700462818146,-0.9508277773857117
13.041441440582275,-0.17719538509845734,-0.9935530424118042,0.8222705721855164,0.4690241813659668,0.3778515160083771,-0.9508277773857117
13.0620276927948,-0.17719538509845734,-0.9935530424118042,0.8222705721855164,0.4701686203479767,0.37823301553726196,-0.9508277773857117
13.082077741622925,-0.17757686972618103,-0.9935530424118042,0.8222705721855164,0.4713130295276642,0.37861448526382446,-0.9508277773857117
13.102153778076172,-0.17833982408046722,-0.9935530424118042,0.8226520419120789,0.4728389382362366,0.38014039397239685,-0.9508277773857117
13.122419834136963,-0.17910276353359222,-0.9935530424118042,0.8226520419120789,0.47474631667137146,0.38204777240753174,-0.9504463076591492
13.142550706863403,-0.17910276353359222,-0.9935530424118042,0.8230335116386414,0.47512778639793396,0.38204777240753174,-0.9504463076591492
13.162641763687134,-0.17910276353359222,-0.9939345121383667,0.8230335116386414,0.47550925612449646,0.38204777240753174,-0.9504463076591492
13.182708978652954,-0.17948424816131592,-0.9946975111961365,0.8230335116386414,0.47627222537994385,0.38281071186065674,-0.9504463076591492
13.202789068222046,-0.17910276353359222,-0.9954604506492615,0.8230335116386414,0.47741663455963135,0.38357365131378174,-0.9504463076591492
13.222933292388916,-0.17948424816131592,-0.9962233901023865,0.8234149813652039,0.47856107354164124,0.3850995600223541,-0.9504463076591492
13.243007898330688,-0.17948424816131592,-0.996604859828949,0.8234149813652039,0.47932401299476624,0.3854810297489166,-0.9504463076591492
13.263098239898682,-0.17986571788787842,-0.996604859828949,0.8234149813652039,0.4808499217033386,0.3854810297489166,-0.9504463076591492
13.283276319503784,-0.1802472025156021,-0.996604859828949,0.8234149813652039,0.482375830411911,0.386243999004364,-0.9504463076591492
13.303399801254272,-0.1802472025156021,-0.996604859828949,0.8241779208183289,0.4835202693939209,0.386243999004364,-0.9500648379325867
13.323420763015747,-0.1810101419687271,-0.9969863295555115,0.8249408602714539,0.4846646785736084,0.386243999004364,-0.9504463076591492
13.3435959815979,-0.182154580950737,-0.997367799282074,0.8253223299980164,0.4861905872821808,0.3866254687309265,-0.9500648379325867
13.363612651824951,-0.182154580950737,-0.9981307983398438,0.8257037997245789,0.4880979657173157,0.3889143168926239,-0.9500648379325867
13.383670568466187,-0.182154580950737,-0.9985122680664062,0.8257037997245789,0.4888609051704407,0.3892957866191864,-0.9500648379325867
13.403790950775146,-0.182154580950737,-0.9985122680664062,0.8257037997245789,0.48962387442588806,0.3889143168926239,-0.9500648379325867
13.423842191696167,-0.182154580950737,-0.9988937377929688,0.8253223299980164,0.48962387442588806,0.3889143168926239,-0.9500648379325867
13.443997859954834,-0.182154580950737,-0.9988937377929688,0.8253223299980164,0.49038681387901306,0.3896772861480713,-0.9500648379325867
13.464029788970947,-0.182154580950737,-0.9988937377929688,0.8257037997245789,0.49153125286102295,0.3915846347808838,-0.9496833682060242
13.484183073043823,-0.182154580950737,-0.9996566772460938,0.8257037997245789,0.49305713176727295,0.3927290737628937,-0.9496833682060242
13.504300832748413,-0.1825360506772995,-1.0004196166992188,0.8257037997245789,0.49458304047584534,0.3931105434894562,-0.9493018984794617
13.524438619613647,-0.1832990050315857,-1.0008010864257812,0.8253223299980164,0.4953460097312927,0.3931105434894562,-0.9493018984794617
13.544610023498535,-0.1836804747581482,-1.0008010864257812,0.8253223299980164,0.4953460097312927,0.3927290737628937,-0.9493018984794617
13.564774513244629,-0.1840619444847107,-1.0008010864257812,0.8257037997245789,0.4964904189109802,0.3931105434894562,-0.9489204287528992
13.584842920303345,-0.1844434291124344,-1.0008010864257812,0.8257037997245789,0.4987792670726776,0.3934920132160187,-0.9481574892997742
13.604907512664795,-0.1844434291124344,-1.0008010864257812,0.8264667987823486,0.50030517578125,0.3934920132160187,-0.9477760195732117
13.625071287155151,-0.1844434291124344,-1.0011825561523438,0.8268482685089111,0.5018310546875,0.39387351274490356,-0.9473945498466492
13.645194292068481,-0.1844434291124344,-1.0019454956054688,0.8268482685089111,0.5025940537452698,0.39501792192459106,-0.9470130205154419
13.665331840515137,-0.1844434291124344,-1.0027084350585938,0.8268482685089111,0.5033569931983948,0.39654383063316345,-0.9470130205154419
13.685430765151978,-0.1844434291124344,-1.0038528442382812,0.8268482685089111,0.5041199326515198,0.39730677008628845,-0.9466315507888794
13.705718755722046,-0.1844434291124344,-1.0053788423538208,0.8264667987823486,0.5045014023780823,0.39768826961517334,-0.9466315507888794
13.72595739364624,-0.1848248988389969,-1.0061417818069458,0.8268482685089111,0.5052643418312073,0.39768826961517334,-0.9466315507888794
13.745957612991333,-0.18558785319328308,-1.0057603120803833,0.8268482685089111,0.5052643418312073,0.39692530035972595,-0.9466315507888794
13.766074657440186,-0.18635080754756927,-1.0057603120803833,0.8268482685089111,0.5052643418312073,0.39768826961517334,-0.9466315507888794
13.786175012588501,-0.18711376190185547,-1.0057603120803833,0.8272297382354736,0.5064088106155396,0.39845120906829834,-0.9462500810623169
13.806210041046143,-0.18711376190185547,-1.0057603120803833,0.8279926776885986,0.5079346895217896,0.3995956480503082,-0.9462500810623169
13.826384544372559,-0.18749523162841797,-1.0057603120803833,0.8291370868682861,0.5086976289749146,0.4003585875034332,-0.9462500810623169
13.846410512924194,-0.18749523162841797,-1.0057603120803833,0.8295185565948486,0.5109865069389343,0.4011215269565582,-0.9458686113357544
13.866469621658325,-0.18749523162841797,-1.0057603120803833,0.8295185565948486,0.5121309161186218,0.4026474356651306,-0.9454871416091919
13.886553525924683,-0.18749523162841797,-1.0057603120803833,0.8295185565948486,0.5125123858451843,0.403410404920578,-0.9454871416091919
13.906614780426025,-0.18749523162841797,-1.0057603120803833,0.8295185565948486,0.5125123858451843,0.403410404920578,-0.9454871416091919
13.926702737808228,-0.18749523162841797,-1.0057603120803833,0.8295185565948486,0.5125123858451843,0.403410404920578,-0.9454871416091919
13.94678544998169,-0.18787670135498047,-1.0057603120803833,0.8295185565948486,0.5128938555717468,0.403410404920578,-0.9454871416091919
13.966846466064453,-0.18902114033699036,-1.0057603120803833,0.8295185565948486,0.5132753252983093,0.4037918746471405,-0.9454871416091919
13.98694920539856,-0.18940261006355286,-1.0057603120803833,0.8295185565948486,0.5144197940826416,0.4045548141002655,-0.9451056718826294
14.00704312324524,-0.18940261006355286,-1.0061417818069458,0.8295185565948486,0.5167086124420166,0.404173344373703,-0.9443427324295044
14.027251243591309,-0.18940261006355286,-1.0065232515335083,0.8295185565948486,0.5182345509529114,0.404173344373703,-0.9431982636451721
14.047342300415039,-0.18940261006355286,-1.0069047212600708,0.8295185565948486,0.5197604298591614,0.404936283826828,-0.9431982636451721
14.067403554916382,-0.18940261006355286,-1.0069047212600708,0.8295185565948486,0.5201418995857239,0.404936283826828,-0.9428167939186096
14.087495803833008,-0.18940261006355286,-1.0076676607131958,0.8295185565948486,0.5201418995857239,0.4064621925354004,-0.9428167939186096
14.107568740844727,-0.18940261006355286,-1.0080491304397583,0.8299000263214111,0.5212863087654114,0.4087510406970978,-0.9428167939186096
14.127753973007202,-0.18940261006355286,-1.0080491304397583,0.8306630253791809,0.5212863087654114,0.4083695709705353,-0.9428167939186096
14.14786148071289,-0.18940261006355286,-1.0080491304397583,0.8310444951057434,0.5220493078231812,0.4091325104236603,-0.9428167939186096
14.167931318283081,-0.18940261006355286,-1.0080491304397583,0.8314259648323059,0.5235751867294312,0.40951400995254517,-0.9428167939186096
14.188005447387695,-0.18940261006355286,-1.0080491304397583,0.8318074345588684,0.5243381261825562,0.41065841913223267,-0.9428167939186096
14.208205699920654,-0.18940261006355286,-1.0084306001663208,0.8314259648323059,0.5251010656356812,0.41142138838768005,-0.9428167939186096
14.228188753128052,-0.18978407979011536,-1.0088120698928833,0.8318074345588684,0.5254825949668884,0.41180285811424255,-0.9428167939186096
14.248262166976929,-0.19016556441783905,-1.0095750093460083,0.8314259648323059,0.5258640646934509,0.41218432784080505,-0.9428167939186096
14.268371343612671,-0.19054703414440155,-1.0099564790725708,0.8318074345588684,0.5262455344200134,0.41294726729393005,-0.9428167939186096
14.288408756256104,-0.19054703414440155,-1.0103379487991333,0.8318074345588684,0.5273899435997009,0.41256579756736755,-0.9424353241920471
14.308500051498413,-0.19130998849868774,-1.0103379487991333,0.8325703740119934,0.5281528830528259,0.41294726729393005,-0.9428167939186096
14.328577756881714,-0.19130998849868774,-1.0107194185256958,0.8329518437385559,0.5285343527793884,0.41371023654937744,-0.9428167939186096
14.34878659248352,-0.19130998849868774,-1.0107194185256958,0.8333333134651184,0.5315861701965332,0.41523614525794983,-0.9424353241920471
