liuyurong129/humanoid-gym/humanoid/data/actual_q_20250523-024604.csv
timestamp,joint_1,joint_2,joint_3,joint_4,joint_5,joint_6
0.0006232261657714844,-0.00019073777366429567,0.001716639962978661,-0.001716639962978661,0.00019073777366429567,0.00019073777366429567,-0.00019073777366429567
0.02069091796875,-0.00019073777366429567,0.001716639962978661,-0.0013351644156500697,0.00019073777366429567,0.00019073777366429567,-0.00019073777366429567
0.04075932502746582,-0.00019073777366429567,0.001716639962978661,-0.0009536888683214784,0.00019073777366429567,0.00019073777366429567,-0.00019073777366429567
0.06082034111022949,-0.00019073777366429567,0.001716639962978661,-0.0009536888683214784,0.00019073777366429567,0.00019073777366429567,-0.000572213320992887
0.08101248741149902,-0.00019073777366429567,0.0009536888683214784,0.0013351644156500697,-0.00019073777366429567,0.00019073777366429567,-0.00019073777366429567
0.10110783576965332,0.00019073777366429567,-0.010490577667951584,0.013923857361078262,-0.0013351644156500697,0.00019073777366429567,0.000572213320992887
0.1213080883026123,0.00019073777366429567,-0.026131074875593185,0.02536812424659729,-0.0036240178160369396,0.000572213320992887,0.0009536888683214784
0.14131379127502441,0.00019073777366429567,-0.04139009863138199,0.03490501269698143,-0.004005493130534887,0.0009536888683214784,0.0013351644156500697
0.1614532470703125,0.00019073777366429567,-0.053215838968753815,0.040627144277095795,-0.004386968910694122,0.000572213320992887,0.0020981156267225742
0.18153667449951172,0.00019073777366429567,-0.05893797054886818,0.04329747334122658,-0.004386968910694122,0.00019073777366429567,0.002861066721379757
0.20161104202270508,0.00019073777366429567,-0.06351567804813385,0.043678950518369675,-0.00476844422519207,0.00019073777366429567,0.002861066721379757
0.2216794490814209,0.00019073777366429567,-0.06733043491840363,0.04329747334122658,-0.005149920005351305,0.000572213320992887,0.002861066721379757
0.241790771484375,0.00019073777366429567,-0.07267109304666519,0.04329747334122658,-0.005912871100008488,0.00019073777366429567,0.002861066721379757
0.26189398765563965,0.00019073777366429567,-0.07648584991693497,0.043678950518369675,-0.007438773289322853,0.000572213320992887,0.0032425422687083483
0.2819392681121826,0.00019073777366429567,-0.07839322835206985,0.04406042397022247,-0.0078202486038208,0.000572213320992887,0.002861066721379757
0.30205512046813965,-0.00019073777366429567,-0.08144503086805344,0.04444190114736557,-0.007438773289322853,0.0009536888683214784,0.002861066721379757
0.3221409320831299,-0.00019073777366429567,-0.08373387902975082,0.045204851776361465,-0.0078202486038208,0.000572213320992887,0.0032425422687083483
0.3422706127166748,-0.00019073777366429567,-0.0864042118191719,0.04596780240535736,-0.0078202486038208,0.000572213320992887,0.002861066721379757
0.3623363971710205,-0.00019073777366429567,-0.0875486359000206,0.04596780240535736,-0.007438773289322853,0.000572213320992887,0.0032425422687083483
0.38248562812805176,-0.00019073777366429567,-0.09098191559314728,0.04634927958250046,-0.0078202486038208,0.000572213320992887,0.0032425422687083483
0.4025766849517822,-0.00019073777366429567,-0.09517814964056015,0.046730753034353256,-0.0078202486038208,0.00019073777366429567,0.002861066721379757
0.42267346382141113,-0.00019073777366429567,-0.09975585341453552,0.04711223021149635,-0.0078202486038208,0.000572213320992887,0.0032425422687083483
0.4427921772003174,-0.00019073777366429567,-0.10128175467252731,0.04787518084049225,-0.0078202486038208,0.000572213320992887,0.0032425422687083483
0.46279406547546387,-0.00019073777366429567,-0.10509651154279709,0.048256658017635345,-0.0078202486038208,0.000572213320992887,0.0032425422687083483
0.48289966583251953,-0.00019073777366429567,-0.10776684433221817,0.04901960864663124,-0.0078202486038208,0.000572213320992887,0.0032425422687083483
0.5029308795928955,-0.00019073777366429567,-0.11005569249391556,0.04940108209848404,-0.0078202486038208,0.000572213320992887,0.0032425422687083483
0.5229737758636475,-0.00019073777366429567,-0.11310750246047974,0.050164032727479935,-0.0078202486038208,0.000572213320992887,0.0032425422687083483
0.5430216789245605,-0.00019073777366429567,-0.11768520623445511,0.05092698708176613,-0.0078202486038208,0.000572213320992887,0.0032425422687083483
0.5631089210510254,-0.00019073777366429567,-0.12302586436271667,0.05130846053361893,-0.0078202486038208,0.000572213320992887,0.0032425422687083483
0.5831778049468994,-0.00019073777366429567,-0.12760357558727264,0.05207141116261482,-0.0078202486038208,0.000572213320992887,0.0032425422687083483
0.6032333374023438,-0.00019073777366429567,-0.1325627565383911,0.05245288833975792,-0.008201723918318748,0.000572213320992887,0.0036240178160369396
0.6233222484588623,-0.00019073777366429567,-0.13828489184379578,0.05397878959774971,-0.008201723918318748,0.000572213320992887,0.0036240178160369396
0.6434330940246582,-0.00019073777366429567,-0.14362554252147675,0.0558861680328846,-0.008201723918318748,0.000572213320992887,0.0036240178160369396
0.663485050201416,-0.00019073777366429567,-0.14744029939174652,0.05703059583902359,-0.00858320016413927,0.000572213320992887,0.0036240178160369396
0.6835198402404785,-0.00019073777366429567,-0.152399480342865,0.05855649709701538,-0.00858320016413927,0.000572213320992887,0.004005493130534887
0.703855037689209,-0.00019073777366429567,-0.15926603972911835,0.06046387553215027,-0.008964675478637218,0.000572213320992887,0.004005493130534887
0.7238509654998779,-0.00019073777366429567,-0.16880293190479279,0.06275273114442825,-0.009346150793135166,0.000572213320992887,0.004005493130534887
0.7439274787902832,-0.00019073777366429567,-0.1832990050315857,0.06542305648326874,-0.010109102353453636,0.000572213320992887,0.004386968910694122
0.7639772891998291,-0.00019073777366429567,-0.200083926320076,0.06923781335353851,-0.010872052982449532,0.0009536888683214784,0.004386968910694122
0.7840731143951416,-0.00019073777366429567,-0.21725031733512878,0.07724879682064056,-0.011635004542768002,0.000572213320992887,0.00476844422519207
0.8041470050811768,-0.00019073777366429567,-0.23441672325134277,0.086785688996315,-0.01201647985726595,0.000572213320992887,0.005531395319849253
0.824225902557373,-0.00019073777366429567,-0.25539788603782654,0.09937438368797302,-0.012397955171763897,0.0009536888683214784,0.007438773289322853
0.8443088531494141,0.00019073777366429567,-0.27027541399002075,0.11234454810619354,-0.013160906732082367,0.0013351644156500697,0.0078202486038208
0.8643779754638672,-0.00019073777366429567,-0.2740901708602905,0.11730372905731201,-0.014686808921396732,0.0013351644156500697,0.008201723918318748
0.8844301700592041,-0.00019073777366429567,-0.27218279242515564,0.1188296303153038,-0.01506828423589468,0.000572213320992887,0.008201723918318748
0.9046626091003418,-0.00019073777366429567,-0.27027541399002075,0.1203555315732956,-0.015449759550392628,0.000572213320992887,0.008201723918318748
0.924750804901123,-0.00019073777366429567,-0.26836803555488586,0.12111848592758179,-0.015449759550392628,0.000572213320992887,0.008201723918318748
0.9448258876800537,-0.00019073777366429567,-0.26760509610176086,0.12111848592758179,-0.01583123579621315,0.000572213320992887,0.00858320016413927
0.964881181716919,-0.00019073777366429567,-0.26798656582832336,0.12111848592758179,-0.016212711110711098,0.000572213320992887,0.008964675478637218
0.98492431640625,-0.00019073777366429567,-0.26874953508377075,0.12111848592758179,-0.016975661739706993,0.0009536888683214784,0.009346150793135166
1.0050551891326904,-0.00019073777366429567,-0.26874953508377075,0.12111848592758179,-0.018120087683200836,0.0009536888683214784,0.010109102353453636
1.0251445770263672,-0.00019073777366429567,-0.26836803555488586,0.12149996310472488,-0.018501564860343933,0.0009536888683214784,0.010490577667951584
1.0451714992523193,-0.00019073777366429567,-0.26760509610176086,0.12264438718557358,-0.018501564860343933,0.0009536888683214784,0.010872052982449532
1.065256118774414,-0.00019073777366429567,-0.26684215664863586,0.12378881871700287,-0.018501564860343933,0.000572213320992887,0.010872052982449532
1.0853562355041504,-0.00019073777366429567,-0.266460657119751,0.12455176562070847,-0.018501564860343933,0.000572213320992887,0.01125352829694748
1.1053893566131592,-0.00019073777366429567,-0.266460657119751,0.12493324279785156,-0.01888304017484188,0.000572213320992887,0.01125352829694748
1.1254355907440186,-0.00019073777366429567,-0.266460657119751,0.12493324279785156,-0.01888304017484188,0.000572213320992887,0.01125352829694748
1.145524024963379,-0.00019073777366429567,-0.265697717666626,0.12493324279785156,-0.01926451548933983,0.000572213320992887,0.01125352829694748
1.1656012535095215,0.00019073777366429567,-0.264934778213501,0.12531471252441406,-0.01926451548933983,0.000572213320992887,0.011635004542768002
1.1856544017791748,0.00019073777366429567,-0.2641718089580536,0.12569619715213776,-0.01926451548933983,0.000572213320992887,0.011635004542768002
1.2057654857635498,0.000572213320992887,-0.2634088695049286,0.12645913660526276,-0.019645990803837776,0.000572213320992887,0.01201647985726595
1.2258570194244385,0.0009536888683214784,-0.2622644305229187,0.12760357558727264,-0.019645990803837776,0.00019073777366429567,0.01201647985726595
1.2459580898284912,0.0009536888683214784,-0.2618829607963562,0.12798504531383514,-0.020027466118335724,0.000572213320992887,0.012397955171763897
1.2661583423614502,0.0009536888683214784,-0.2618829607963562,0.12798504531383514,-0.02079041674733162,0.000572213320992887,0.012397955171763897
1.2863273620605469,0.0009536888683214784,-0.2611200213432312,0.12836651504039764,-0.021553369238972664,0.000572213320992887,0.013160906732082367
1.30643892288208,0.0009536888683214784,-0.2603570520877838,0.12874799966812134,-0.02231631986796856,0.000572213320992887,0.013923857361078262
1.3265156745910645,0.0013351644156500697,-0.2599755823612213,0.12912946939468384,-0.02231631986796856,0.000572213320992887,0.01430533267557621
1.3465609550476074,0.0013351644156500697,-0.2599755823612213,0.12989242374897003,-0.022697795182466507,0.00019073777366429567,0.014686808921396732
1.3666257858276367,0.0020981156267225742,-0.2599755823612213,0.13065537810325623,-0.022697795182466507,-0.00019073777366429567,0.01506828423589468
1.3867192268371582,0.0020981156267225742,-0.2592126429080963,0.13141833245754242,-0.022697795182466507,0.00019073777366429567,0.01506828423589468
1.4068090915679932,0.0020981156267225742,-0.2584496736526489,0.13141833245754242,-0.023079270496964455,0.00019073777366429567,0.01506828423589468
1.426927089691162,0.0020981156267225742,-0.2580682039260864,0.13179980218410492,-0.02384222112596035,0.00019073777366429567,0.01506828423589468
1.4470126628875732,0.0020981156267225742,-0.2573052644729614,0.13179980218410492,-0.024223696440458298,0.00019073777366429567,0.01506828423589468
1.467048168182373,0.0020981156267225742,-0.25654229521751404,0.1325627565383911,-0.02536812424659729,0.00019073777366429567,0.01506828423589468
1.4870686531066895,0.0020981156267225742,-0.25616082549095154,0.1329442262649536,-0.026131074875593185,-0.00019073777366429567,0.015449759550392628
1.5071263313293457,0.0024795911740511656,-0.25577935576438904,0.1337071806192398,-0.026131074875593185,-0.00019073777366429567,0.015449759550392628
1.527221918106079,0.0032425422687083483,-0.25501641631126404,0.1340886503458023,-0.026131074875593185,-0.000572213320992887,0.01583123579621315
1.547365427017212,0.0032425422687083483,-0.25425344705581665,0.135233074426651,-0.026131074875593185,-0.0013351644156500697,0.016212711110711098
1.56736421585083,0.0032425422687083483,-0.25387197732925415,0.1359960287809372,-0.026512550190091133,-0.0013351644156500697,0.016594186425209045
1.58760404586792,0.0032425422687083483,-0.25349050760269165,0.1359960287809372,-0.026512550190091133,-0.0013351644156500697,0.016975661739706993
1.6076898574829102,0.0032425422687083483,-0.25272753834724426,0.1363775134086609,-0.02689402550458908,-0.0013351644156500697,0.018501564860343933
1.6278316974639893,0.0032425422687083483,-0.25234606862068176,0.1371404528617859,-0.02689402550458908,-0.0013351644156500697,0.018501564860343933
1.6479134559631348,0.0032425422687083483,-0.25196459889411926,0.13790340721607208,-0.02727550081908703,-0.0013351644156500697,0.01888304017484188
1.6680176258087158,0.0032425422687083483,-0.25158312916755676,0.13828489184379578,-0.027656977996230125,-0.001716639962978661,0.01888304017484188
1.6880903244018555,0.0036240178160369396,-0.2504386901855469,0.13904783129692078,-0.027656977996230125,-0.0020981156267225742,0.01888304017484188
1.708186149597168,0.004005493130534887,-0.2500572204589844,0.13942931592464447,-0.02841992862522602,-0.0020981156267225742,0.01888304017484188
1.7282052040100098,0.004005493130534887,-0.24967575073242188,0.13981078565120697,-0.02880140393972397,-0.0024795911740511656,0.01888304017484188
1.748321533203125,0.004005493130534887,-0.24967575073242188,0.14019227027893066,-0.029564354568719864,-0.0024795911740511656,0.01926451548933983
1.7684271335601807,0.004005493130534887,-0.24929426610469818,0.14057374000549316,-0.029564354568719864,-0.0020981156267225742,0.01926451548933983
1.7885453701019287,0.004005493130534887,-0.248531311750412,0.14095520973205566,-0.02994582988321781,-0.0020981156267225742,0.019645990803837776
1.8086040019989014,0.004005493130534887,-0.247768372297287,0.14171816408634186,-0.03032730519771576,-0.0020981156267225742,0.019645990803837776
1.8287537097930908,0.004005493130534887,-0.2473868876695633,0.14248111844062805,-0.03032730519771576,-0.0024795911740511656,0.019645990803837776
1.8488030433654785,0.004386968910694122,-0.2462424635887146,0.14324407279491425,-0.030708782374858856,-0.0024795911740511656,0.02040894143283367
1.8688886165618896,0.004386968910694122,-0.2454795092344284,0.14362554252147675,-0.031090257689356804,-0.002861066721379757,0.021553369238972664
1.8889307975769043,0.004386968910694122,-0.2454795092344284,0.14362554252147675,-0.03185320645570755,-0.002861066721379757,0.02231631986796856
1.9090194702148438,0.004386968910694122,-0.2447165697813034,0.14438849687576294,-0.03299763426184654,-0.002861066721379757,0.02231631986796856
1.9291200637817383,0.004386968910694122,-0.2439536154270172,0.14476996660232544,-0.03376058489084244,-0.002861066721379757,0.02231631986796856
1.9492316246032715,0.005149920005351305,-0.24357213079929352,0.14553292095661163,-0.03376058489084244,-0.002861066721379757,0.02231631986796856
1.9693269729614258,0.005149920005351305,-0.24319066107273102,0.14591439068317413,-0.03376058489084244,-0.002861066721379757,0.02231631986796856
1.9894464015960693,0.005149920005351305,-0.24280919134616852,0.14629587531089783,-0.034142062067985535,-0.0032425422687083483,0.022697795182466507
2.0095057487487793,0.005149920005351305,-0.24204623699188232,0.14667734503746033,-0.034142062067985535,-0.0032425422687083483,0.022697795182466507
2.0296289920806885,0.005149920005351305,-0.24204623699188232,0.14667734503746033,-0.03452353551983833,-0.0032425422687083483,0.022697795182466507
2.0496394634246826,0.005149920005351305,-0.24166475236415863,0.14744029939174652,-0.03452353551983833,-0.0032425422687083483,0.022697795182466507
2.0697758197784424,0.005149920005351305,-0.24128328263759613,0.14744029939174652,-0.03490501269698143,-0.0032425422687083483,0.023079270496964455
2.0898544788360596,0.005531395319849253,-0.24013885855674744,0.14858472347259521,-0.03528648987412453,-0.0036240178160369396,0.023079270496964455
2.109895706176758,0.005531395319849253,-0.23899443447589874,0.1489662081003189,-0.03604944050312042,-0.004005493130534887,0.023460745811462402
2.129967451095581,0.005912871100008488,-0.23785001039505005,0.1501106321811676,-0.03681239113211632,-0.004005493130534887,0.02384222112596035
2.1501450538635254,0.006294346414506435,-0.23708705604076385,0.1504921019077301,-0.037193864583969116,-0.00476844422519207,0.024223696440458298
2.170255184173584,0.006294346414506435,-0.23632410168647766,0.1512550562620163,-0.037193864583969116,-0.00476844422519207,0.02536812424659729
2.1903929710388184,0.006294346414506435,-0.23632410168647766,0.1520180106163025,-0.03757534176111221,-0.00476844422519207,0.026131074875593185
2.2104010581970215,0.006294346414506435,-0.23594263195991516,0.1527809500694275,-0.03757534176111221,-0.00476844422519207,0.026131074875593185
2.230475902557373,0.00667582219466567,-0.23517967760562897,0.1527809500694275,-0.03795681521296501,-0.005149920005351305,0.026131074875593185
2.2505767345428467,0.007438773289322853,-0.23479819297790527,0.15316243469715118,-0.03795681521296501,-0.005912871100008488,0.026512550190091133
2.27062726020813,0.007438773289322853,-0.23403525352478027,0.15392538905143738,-0.03833829239010811,-0.006294346414506435,0.026512550190091133
2.2907164096832275,0.007438773289322853,-0.23327229917049408,0.15430685877799988,-0.038719769567251205,-0.006294346414506435,0.026512550190091133
2.3108253479003906,0.007438773289322853,-0.23250934481620789,0.15506981313228607,-0.0398641936480999,-0.006294346414506435,0.026512550190091133
2.330975294113159,0.007438773289322853,-0.2313649207353592,0.15583276748657227,-0.040627144277095795,-0.006294346414506435,0.02689402550458908
2.351047992706299,0.007438773289322853,-0.230601966381073,0.15659570693969727,-0.04100862145423889,-0.006294346414506435,0.02689402550458908
2.3711938858032227,0.007438773289322853,-0.230601966381073,0.15697719156742096,-0.04139009863138199,-0.006294346414506435,0.02689402550458908
2.39125657081604,0.0078202486038208,-0.2298390120267868,0.15774014592170715,-0.04139009863138199,-0.00667582219466567,0.02727550081908703
2.4114880561828613,0.0078202486038208,-0.2290760725736618,0.15812161564826965,-0.04177157208323479,-0.00667582219466567,0.02727550081908703
2.43151593208313,0.008201723918318748,-0.2286945879459381,0.15812161564826965,-0.04177157208323479,-0.00667582219466567,0.027656977996230125
2.4515678882598877,0.008201723918318748,-0.22755016386508942,0.15888457000255585,-0.042153049260377884,-0.00667582219466567,0.02841992862522602
2.471653938293457,0.008201723918318748,-0.22678720951080322,0.15964750945568085,-0.04253452271223068,-0.00667582219466567,0.02880140393972397
2.4917705059051514,0.008201723918318748,-0.22602425515651703,0.16041046380996704,-0.04329747334122658,-0.00667582219466567,0.029182879254221916
2.512463092803955,0.008201723918318748,-0.22526131570339203,0.16117341816425323,-0.04482337832450867,-0.00667582219466567,0.029564354568719864
2.5326294898986816,0.00858320016413927,-0.22411687672138214,0.16155488789081573,-0.045204851776361465,-0.00667582219466567,0.029564354568719864
2.552654266357422,0.00858320016413927,-0.22335393726825714,0.16231784224510193,-0.045204851776361465,-0.007057297509163618,0.02994582988321781
2.5727531909942627,0.00858320016413927,-0.22297245264053345,0.16231784224510193,-0.045204851776361465,-0.007057297509163618,0.02994582988321781
2.5928335189819336,0.009346150793135166,-0.22220951318740845,0.16308079659938812,-0.045204851776361465,-0.007438773289322853,0.03032730519771576
2.612894296646118,0.009727626107633114,-0.22144655883312225,0.16346226632595062,-0.04558632895350456,-0.0078202486038208,0.03032730519771576
2.6329562664031982,0.009727626107633114,-0.22030213475227356,0.16422522068023682,-0.04596780240535736,-0.007438773289322853,0.030708782374858856
2.6530864238739014,0.009727626107633114,-0.21992065012454987,0.1646067053079605,-0.04634927958250046,-0.007438773289322853,0.030708782374858856
2.673366069793701,0.009727626107633114,-0.21877622604370117,0.1653696447610855,-0.046730753034353256,-0.007438773289322853,0.030708782374858856
2.6935367584228516,0.010109102353453636,-0.21686884760856628,0.1661325991153717,-0.04787518084049225,-0.0078202486038208,0.031090257689356804
2.713656425476074,0.010490577667951584,-0.2161058932542801,0.1672770231962204,-0.048638131469488144,-0.0078202486038208,0.03147173300385475
2.733736753463745,0.010490577667951584,-0.2149614691734314,0.1684214472770691,-0.04901960864663124,-0.008201723918318748,0.03185320645570755
2.753826856613159,0.010490577667951584,-0.2138170450925827,0.16918440163135529,-0.04901960864663124,-0.008201723918318748,0.03299763426184654
2.773895263671875,0.010490577667951584,-0.2130540907382965,0.16956588625907898,-0.04940108209848404,-0.00858320016413927,0.03376058489084244
2.7939422130584717,0.010490577667951584,-0.21190966665744781,0.17032882571220398,-0.049782559275627136,-0.00858320016413927,0.034142062067985535
2.814027786254883,0.010490577667951584,-0.21038375794887543,0.17071031033992767,-0.050164032727479935,-0.00858320016413927,0.034142062067985535
2.834106683731079,0.010872052982449532,-0.21000228822231293,0.17147326469421387,-0.05130846053361893,-0.008964675478637218,0.03452353551983833
2.8541784286499023,0.010872052982449532,-0.20962081849575043,0.17185473442077637,-0.05245288833975792,-0.008964675478637218,0.03452353551983833
2.8742222785949707,0.011635004542768002,-0.20885786414146423,0.17223620414733887,-0.05245288833975792,-0.009346150793135166,0.03490501269698143
2.8943119049072266,0.011635004542768002,-0.20809490978717804,0.17261768877506256,-0.05283436179161072,-0.010109102353453636,0.035667963325977325
2.914375066757202,0.011635004542768002,-0.20733195543289185,0.17338064312934875,-0.05283436179161072,-0.010109102353453636,0.03643091395497322
2.9344356060028076,0.011635004542768002,-0.20618753135204315,0.17414358258247375,-0.053215838968753815,-0.010109102353453636,0.037193864583969116
2.9545490741729736,0.01201647985726595,-0.20466163754463196,0.17452506721019745,-0.053215838968753815,-0.010109102353453636,0.03757534176111221
2.974640130996704,0.01201647985726595,-0.20351719856262207,0.17528800666332245,-0.05397878959774971,-0.010109102353453636,0.03795681521296501
2.9947354793548584,0.012397955171763897,-0.20237277448177338,0.17605096101760864,-0.05436026677489281,-0.010490577667951584,0.03795681521296501
3.0148160457611084,0.012397955171763897,-0.20122835040092468,0.17605096101760864,-0.0551232174038887,-0.010490577667951584,0.03833829239010811
3.0349392890930176,0.012397955171763897,-0.1997024416923523,0.17681391537189484,-0.0558861680328846,-0.010490577667951584,0.038719769567251205
3.055011510848999,0.012397955171763897,-0.1981765478849411,0.17719538509845734,-0.056267641484737396,-0.010872052982449532,0.039101243019104004
3.0751991271972656,0.012397955171763897,-0.1966506391763687,0.17795833945274353,-0.05664911866188049,-0.010872052982449532,0.0398641936480999
3.095177412033081,0.012779430486261845,-0.19550621509552002,0.17872129380702972,-0.05703059583902359,-0.010872052982449532,0.04139009863138199
3.115267276763916,0.012779430486261845,-0.19436179101467133,0.17948424816131592,-0.05741206929087639,-0.01125352829694748,0.04139009863138199
3.1354382038116455,0.012779430486261845,-0.19321736693382263,0.1802472025156021,-0.05855649709701538,-0.01125352829694748,0.04177157208323479
3.1554172039031982,0.013542382046580315,-0.19245441257953644,0.1813916265964508,-0.05970092490315437,-0.01201647985726595,0.04177157208323479
3.1754636764526367,0.013923857361078262,-0.19169145822525024,0.1817730963230133,-0.06046387553215027,-0.012779430486261845,0.042153049260377884
3.195549488067627,0.01430533267557621,-0.19054703414440155,0.182154580950737,-0.06046387553215027,-0.013160906732082367,0.04253452271223068
3.2156167030334473,0.014686808921396732,-0.18902114033699036,0.182917520403862,-0.06084534898400307,-0.013542382046580315,0.04291599988937378
3.2356679439544678,0.014686808921396732,-0.18825818598270416,0.1832990050315857,-0.06160829961299896,-0.013923857361078262,0.04406042397022247
3.256556510925293,0.014686808921396732,-0.18749523162841797,0.1840619444847107,-0.06237125024199486,-0.013923857361078262,0.04482337832450867
3.276660680770874,0.014686808921396732,-0.18635080754756927,0.1844434291124344,-0.06275273114442825,-0.01430533267557621,0.045204851776361465
3.2967231273651123,0.014686808921396732,-0.18520638346672058,0.18596932291984558,-0.06351567804813385,-0.01430533267557621,0.045204851776361465
3.316781759262085,0.014686808921396732,-0.1848248988389969,0.18596932291984558,-0.06389715522527695,-0.01430533267557621,0.04558632895350456
3.3371429443359375,0.014686808921396732,-0.1836804747581482,0.18635080754756927,-0.06389715522527695,-0.014686808921396732,0.04558632895350456
3.3573522567749023,0.014686808921396732,-0.1817730963230133,0.18711376190185547,-0.06427863240242004,-0.014686808921396732,0.04596780240535736
3.3773350715637207,0.014686808921396732,-0.1802472025156021,0.18749523162841797,-0.06427863240242004,-0.014686808921396732,0.04634927958250046
3.3974850177764893,0.014686808921396732,-0.17910276353359222,0.18825818598270416,-0.06504157930612564,-0.014686808921396732,0.04711223021149635
3.4175474643707275,0.01506828423589468,-0.17719538509845734,0.18902114033699036,-0.06542305648326874,-0.014686808921396732,0.048638131469488144
3.437624216079712,0.01583123579621315,-0.17528800666332245,0.18978407979011536,-0.06656748056411743,-0.01506828423589468,0.04901960864663124
3.4577014446258545,0.01583123579621315,-0.17376211285591125,0.19016556441783905,-0.06771191209554672,-0.015449759550392628,0.04901960864663124
3.477846622467041,0.01583123579621315,-0.17261768877506256,0.19016556441783905,-0.06809338182210922,-0.015449759550392628,0.04940108209848404
3.498020648956299,0.01583123579621315,-0.17109178006649017,0.19130998849868774,-0.06847485899925232,-0.01583123579621315,0.04940108209848404
3.5181031227111816,0.01583123579621315,-0.16956588625907898,0.19245441257953644,-0.06923781335353851,-0.01583123579621315,0.050164032727479935
3.538083076477051,0.01583123579621315,-0.1676585078239441,0.19359883666038513,-0.07038223743438721,-0.01583123579621315,0.05092698708176613
3.558201551437378,0.016975661739706993,-0.1676585078239441,0.1989395022392273,-0.0715266615152359,-0.016594186425209045,0.05283436179161072
3.5783116817474365,0.018501564860343933,-0.17795833945274353,0.2134355753660202,-0.07267109304666519,-0.01735713705420494,0.05436026677489281
3.598344326019287,0.01926451548933983,-0.19512474536895752,0.2294575423002243,-0.07495994865894318,-0.018501564860343933,0.05741206929087639
3.6183876991271973,0.020027466118335724,-0.21801327168941498,0.25158312916755676,-0.07724879682064056,-0.01773861236870289,0.06046387553215027
3.638479709625244,0.02079041674733162,-0.24357213079929352,0.2752346098423004,-0.07877469807863235,-0.018501564860343933,0.06160829961299896
3.658597230911255,0.02193484455347061,-0.2725642919540405,0.30117493867874146,-0.07991912961006165,-0.018501564860343933,0.06389715522527695
3.678717851638794,0.024986648932099342,-0.3065156042575836,0.33093002438545227,-0.08144503086805344,-0.01926451548933983,0.06656748056411743
3.698930263519287,0.029182879254221916,-0.3404669165611267,0.36449989676475525,-0.08297093212604523,-0.01888304017484188,0.06847485899925232
3.718972682952881,0.030708782374858856,-0.36297398805618286,0.3900587558746338,-0.08525978773832321,-0.01773861236870289,0.0711451917886734
3.7391767501831055,0.030708782374858856,-0.36640727519989014,0.4011215269565582,-0.08602273464202881,-0.018120087683200836,0.0715266615152359
3.7592105865478516,0.030708782374858856,-0.36449989676475525,0.4072251319885254,-0.0864042118191719,-0.018501564860343933,0.0715266615152359
3.7793214321136475,0.03032730519771576,-0.3603036403656006,0.40989547967910767,-0.086785688996315,-0.018501564860343933,0.071908138692379
3.799370288848877,0.03032730519771576,-0.3580147922039032,0.41142138838768005,-0.0871671661734581,-0.01735713705420494,0.071908138692379
3.819450855255127,0.03032730519771576,-0.3561074137687683,0.41103988885879517,-0.0871671661734581,-0.018501564860343933,0.07267109304666519
3.8394782543182373,0.03032730519771576,-0.3557259440422058,0.40989547967910767,-0.0871671661734581,-0.018501564860343933,0.07267109304666519
3.8595640659332275,0.03032730519771576,-0.3557259440422058,0.4091325104236603,-0.0875486359000206,-0.01888304017484188,0.07305257022380829
3.8796377182006836,0.03032730519771576,-0.3549630045890808,0.4091325104236603,-0.0879301130771637,-0.01888304017484188,0.07381551712751389
3.8997139930725098,0.03032730519771576,-0.3542000353336334,0.40951400995254517,-0.0883115902543068,-0.01888304017484188,0.07495994865894318
3.919956684112549,0.03032730519771576,-0.35152971744537354,0.40989547967910767,-0.08907453715801239,-0.01926451548933983,0.07495994865894318
3.9400458335876465,0.03032730519771576,-0.34924086928367615,0.41103988885879517,-0.08983749151229858,-0.01888304017484188,0.07534141838550568
3.9601809978485107,0.03032730519771576,-0.34695202112197876,0.41180285811424255,-0.08983749151229858,-0.018501564860343933,0.07534141838550568
3.9801881313323975,0.03032730519771576,-0.344663143157959,0.41142138838768005,-0.09021896868944168,-0.018501564860343933,0.07572289556264877
4.000258922576904,0.030708782374858856,-0.3423742949962616,0.41103988885879517,-0.09021896868944168,-0.018501564860343933,0.07572289556264877
4.020381927490234,0.030708782374858856,-0.3400854468345642,0.41142138838768005,-0.09060044586658478,-0.01888304017484188,0.07648584991693497
4.040472030639648,0.030708782374858856,-0.3389410376548767,0.41142138838768005,-0.09098191559314728,-0.019645990803837776,0.07724879682064056
4.060518503189087,0.031090257689356804,-0.3370336592197418,0.41142138838768005,-0.09136339277029037,-0.02040894143283367,0.07877469807863235
4.080583810806274,0.03147173300385475,-0.33436331152915955,0.41180285811424255,-0.09174486994743347,-0.021553369238972664,0.07877469807863235
4.100790977478027,0.03147173300385475,-0.33245593309402466,0.41218432784080505,-0.09288929402828217,-0.021171892061829567,0.07915617525577545
4.12076735496521,0.03147173300385475,-0.33054855465888977,0.41218432784080505,-0.09365224838256836,-0.021171892061829567,0.07915617525577545
4.140820503234863,0.03147173300385475,-0.3282597064971924,0.41218432784080505,-0.09403372555971146,-0.021171892061829567,0.07915617525577545
4.160894393920898,0.03147173300385475,-0.3263523280620575,0.41218432784080505,-0.09403372555971146,-0.021171892061829567,0.07953765243291855
4.180986404418945,0.03147173300385475,-0.3236820101737976,0.41218432784080505,-0.09441519528627396,-0.021553369238972664,0.07953765243291855
4.2011189460754395,0.03185320645570755,-0.3217746317386627,0.41218432784080505,-0.09441519528627396,-0.02193484455347061,0.07991912961006165
4.221229076385498,0.03223468363285065,-0.31910428404808044,0.41256579756736755,-0.09517814964056015,-0.02231631986796856,0.08068207651376724
4.241297006607056,0.032616160809993744,-0.31643396615982056,0.41332876682281494,-0.09632257372140884,-0.022697795182466507,0.08182650804519653
4.261397123336792,0.032616160809993744,-0.31414511799812317,0.41409170627593994,-0.09708552807569504,-0.02231631986796856,0.08220797777175903
4.282207489013672,0.032616160809993744,-0.3118562698364258,0.41409170627593994,-0.09746700525283813,-0.02231631986796856,0.08258945494890213
4.302345514297485,0.032616160809993744,-0.3084229826927185,0.41409170627593994,-0.09746700525283813,-0.02231631986796856,0.08258945494890213
4.322541236877441,0.032616160809993744,-0.30537116527557373,0.41409170627593994,-0.09784847497940063,-0.02231631986796856,0.08297093212604523
4.342625856399536,0.032616160809993744,-0.30270084738731384,0.41447317600250244,-0.09822995215654373,-0.022697795182466507,0.08297093212604523
4.362714529037476,0.032616160809993744,-0.29888609051704407,0.41409170627593994,-0.09861142933368683,-0.023079270496964455,0.08335240930318832
4.3827879428863525,0.032616160809993744,-0.2954528033733368,0.41447317600250244,-0.09899290651082993,-0.023460745811462402,0.08411535620689392
4.402888059616089,0.03299763426184654,-0.2931639552116394,0.41447317600250244,-0.10013733059167862,-0.023460745811462402,0.08564125746488571
4.4229021072387695,0.03337911143898964,-0.290112167596817,0.41485464572906494,-0.10051880776882172,-0.024223696440458298,0.0864042118191719
4.443032503128052,0.03337911143898964,-0.28591591119766235,0.41523614525794983,-0.10090028494596481,-0.024223696440458298,0.086785688996315
4.463068246841431,0.03376058489084244,-0.2821011543273926,0.41561761498451233,-0.10128175467252731,-0.024605173617601395,0.086785688996315
4.483144283294678,0.03376058489084244,-0.2779049277305603,0.41561761498451233,-0.10166323184967041,-0.024223696440458298,0.0875486359000206
4.503276348114014,0.03376058489084244,-0.27218279242515564,0.41561761498451233,-0.10204470902681351,-0.024605173617601395,0.0883115902543068
4.523387432098389,0.03376058489084244,-0.266460657119751,0.41561761498451233,-0.1028076633810997,-0.024986648932099342,0.08983749151229858
4.543454647064209,0.03376058489084244,-0.2607385218143463,0.41638055443763733,-0.1031891331076622,-0.02536812424659729,0.09021896868944168
4.563511371612549,0.034142062067985535,-0.25425344705581665,0.41676202416419983,-0.10433356463909149,-0.025749599561095238,0.09060044586658478
4.583560943603516,0.035667963325977325,-0.2466239482164383,0.4190509021282196,-0.10585946589708328,-0.026131074875593185,0.09288929402828217
4.6036927700042725,0.03681239113211632,-0.24929426610469818,0.42515450716018677,-0.10814831405878067,-0.026512550190091133,0.09899290651082993
4.623763561248779,0.03681239113211632,-0.2580682039260864,0.43163958191871643,-0.10891126841306686,-0.027656977996230125,0.1031891331076622
4.6438682079315186,0.03681239113211632,-0.27065691351890564,0.4365987777709961,-0.11005569249391556,-0.02727550081908703,0.10547798871994019
4.663917779922485,0.03681239113211632,-0.28553444147109985,0.44117647409439087,-0.11120012402534485,-0.026512550190091133,0.10624094307422638
4.684163808822632,0.03681239113211632,-0.2973601818084717,0.44499123096466064,-0.11234454810619354,-0.02689402550458908,0.10662241280078888
4.704177379608154,0.03681239113211632,-0.3130006790161133,0.44575417041778564,-0.11272602528333664,-0.02536812424659729,0.10662241280078888
4.724252462387085,0.03643091395497322,-0.3419928252696991,0.4552910625934601,-0.11310750246047974,-0.02536812424659729,0.10814831405878067
4.744319200515747,0.03681239113211632,-0.36678874492645264,0.4640650153160095,-0.11348897218704224,-0.026131074875593185,0.11005569249391556
4.764387130737305,0.03681239113211632,-0.3774700462818146,0.4659723937511444,-0.11425192654132843,-0.024605173617601395,0.11196307092905045
4.784438848495483,0.03681239113211632,-0.3759441375732422,0.4648279547691345,-0.11425192654132843,-0.02536812424659729,0.11234454810619354
4.804525136947632,0.03643091395497322,-0.3732738196849823,0.4648279547691345,-0.11463340371847153,-0.026131074875593185,0.11234454810619354
4.8245909214019775,0.03681239113211632,-0.3717479109764099,0.4667353332042694,-0.11577782779932022,-0.026131074875593185,0.11234454810619354
4.844668388366699,0.03681239113211632,-0.36755168437957764,0.4682612419128418,-0.11577782779932022,-0.026131074875593185,0.11272602528333664
4.864725112915039,0.037193864583969116,-0.36373692750930786,0.4686427116394043,-0.11577782779932022,-0.026512550190091133,0.11310750246047974
4.88484001159668,0.037193864583969116,-0.3599221706390381,0.4686427116394043,-0.11615930497646332,-0.026512550190091133,0.11310750246047974
4.905004501342773,0.037193864583969116,-0.3572518527507782,0.4682612419128418,-0.11615930497646332,-0.02689402550458908,0.11348897218704224
4.925031900405884,0.03757534176111221,-0.3561074137687683,0.4682612419128418,-0.11615930497646332,-0.026512550190091133,0.11387044936418533
4.945099353790283,0.03757534176111221,-0.3542000353336334,0.4678797721862793,-0.11654078215360641,-0.02727550081908703,0.11463340371847153
4.965188980102539,0.03757534176111221,-0.35076677799224854,0.4678797721862793,-0.11654078215360641,-0.02841992862522602,0.11577782779932022
4.985256910324097,0.03757534176111221,-0.34771496057510376,0.4678797721862793,-0.11692225188016891,-0.02841992862522602,0.11654078215360641
5.0053184032440186,0.03757534176111221,-0.34580758213996887,0.4682612419128418,-0.11730372905731201,-0.02841992862522602,0.11654078215360641
5.02560567855835,0.03757534176111221,-0.3408484160900116,0.4686427116394043,-0.11768520623445511,-0.02880140393972397,0.11692225188016891
5.0457165241241455,0.03795681521296501,-0.33665215969085693,0.4686427116394043,-0.1184481605887413,-0.02841992862522602,0.11730372905731201
5.065800189971924,0.03795681521296501,-0.33321890234947205,0.4686427116394043,-0.11959258466959,-0.02880140393972397,0.11768520623445511
5.085779905319214,0.03795681521296501,-0.3278782367706299,0.4686427116394043,-0.1203555315732956,-0.029182879254221916,0.1184481605887413
5.1058433055877686,0.038719769567251205,-0.3225375711917877,0.4686427116394043,-0.1203555315732956,-0.029182879254221916,0.1199740618467331
5.125907897949219,0.039101243019104004,-0.31795987486839294,0.4686427116394043,-0.1203555315732956,-0.029564354568719864,0.1203555315732956
5.145959138870239,0.039101243019104004,-0.3122377395629883,0.4686427116394043,-0.12111848592758179,-0.02994582988321781,0.12073700875043869
5.1661388874053955,0.0398641936480999,-0.30537116527557373,0.4690241813659668,-0.12188144028186798,-0.02994582988321781,0.12149996310472488
5.186190128326416,0.0398641936480999,-0.29926756024360657,0.4694056510925293,-0.12302586436271667,-0.029182879254221916,0.12226291000843048
5.20626974105835,0.0398641936480999,-0.291638046503067,0.4694056510925293,-0.12340734153985977,-0.029564354568719864,0.12378881871700287
5.226432800292969,0.0398641936480999,-0.2813382148742676,0.4694056510925293,-0.12340734153985977,-0.029564354568719864,0.12417028844356537
5.24664568901062,0.0398641936480999,-0.27141985297203064,0.4694056510925293,-0.12417028844356537,-0.02994582988321781,0.12493324279785156
5.266637325286865,0.04100862145423889,-0.2603570520877838,0.4697871506214142,-0.12455176562070847,-0.03032730519771576,0.12684062123298645
5.286720275878906,0.04177157208323479,-0.2573052644729614,0.4701686203479767,-0.12607766687870026,-0.03185320645570755,0.13179980218410492
5.306792497634888,0.04253452271223068,-0.25539788603782654,0.4713130295276642,-0.12645913660526276,-0.03337911143898964,0.1348516047000885
5.326839923858643,0.04253452271223068,-0.2580682039260864,0.4732204079627991,-0.12722209095954895,-0.03376058489084244,0.1356145590543747
5.346916913986206,0.04291599988937378,-0.2603570520877838,0.4736018776893616,-0.12722209095954895,-0.032616160809993744,0.135233074426651
5.366997718811035,0.04253452271223068,-0.2630273997783661,0.4732204079627991,-0.12722209095954895,-0.03185320645570755,0.1356145590543747
5.3870861530303955,0.04291599988937378,-0.2660791873931885,0.4716945290565491,-0.12722209095954895,-0.031090257689356804,0.135233074426651
5.407149076461792,0.04253452271223068,-0.27141985297203064,0.4713130295276642,-0.12722209095954895,-0.03032730519771576,0.135233074426651
5.427287340164185,0.04291599988937378,-0.2733272314071655,0.4716945290565491,-0.12722209095954895,-0.03032730519771576,0.135233074426651
5.447454929351807,0.04291599988937378,-0.2740901708602905,0.4716945290565491,-0.12722209095954895,-0.030708782374858856,0.135233074426651
5.467527389526367,0.04253452271223068,-0.2748531401157379,0.4724574685096741,-0.12722209095954895,-0.03147173300385475,0.135233074426651
5.48766565322876,0.04291599988937378,-0.2748531401157379,0.4732204079627991,-0.12722209095954895,-0.03185320645570755,0.135233074426651
5.507685661315918,0.04291599988937378,-0.2748531401157379,0.4732204079627991,-0.12722209095954895,-0.03147173300385475,0.1356145590543747
5.527813196182251,0.04291599988937378,-0.2759975492954254,0.4732204079627991,-0.12722209095954895,-0.03147173300385475,0.135233074426651
5.54793643951416,0.04253452271223068,-0.2782863974571228,0.4732204079627991,-0.12722209095954895,-0.03185320645570755,0.1356145590543747
5.568004369735718,0.04291599988937378,-0.2801937758922577,0.4736018776893616,-0.12722209095954895,-0.03223468363285065,0.135233074426651
5.588142395019531,0.04291599988937378,-0.28286412358283997,0.4736018776893616,-0.12722209095954895,-0.03185320645570755,0.135233074426651
5.608191967010498,0.04253452271223068,-0.28591591119766235,0.4732204079627991,-0.12722209095954895,-0.03185320645570755,0.1356145590543747
5.6283557415008545,0.04253452271223068,-0.28782328963279724,0.4736018776893616,-0.12722209095954895,-0.03185320645570755,0.1356145590543747
5.648353576660156,0.04253452271223068,-0.28934919834136963,0.4736018776893616,-0.12722209095954895,-0.03147173300385475,0.1356145590543747
5.6685426235198975,0.04253452271223068,-0.28973066806793213,0.4736018776893616,-0.12722209095954895,-0.03185320645570755,0.1356145590543747
5.688620328903198,0.04253452271223068,-0.290112167596817,0.4736018776893616,-0.12722209095954895,-0.03185320645570755,0.1356145590543747
5.708747148513794,0.04253452271223068,-0.2920195460319519,0.47398337721824646,-0.12722209095954895,-0.03185320645570755,0.1359960287809372
5.72877836227417,0.04253452271223068,-0.2935454249382019,0.47436484694480896,-0.12722209095954895,-0.03185320645570755,0.1359960287809372
5.748863935470581,0.04253452271223068,-0.2958342730998993,0.47436484694480896,-0.12722209095954895,-0.03223468363285065,0.1359960287809372
5.768945932388306,0.04253452271223068,-0.2977416515350342,0.47474631667137146,-0.12722209095954895,-0.03185320645570755,0.1359960287809372
5.789074659347534,0.04253452271223068,-0.30079346895217896,0.47474631667137146,-0.12722209095954895,-0.03185320645570755,0.1359960287809372
5.809345483779907,0.04253452271223068,-0.30346378684043884,0.47474631667137146,-0.12722209095954895,-0.03185320645570755,0.1359960287809372
5.829535007476807,0.04253452271223068,-0.30537116527557373,0.47474631667137146,-0.12722209095954895,-0.03185320645570755,0.1359960287809372
5.849535942077637,0.04253452271223068,-0.308041512966156,0.47474631667137146,-0.12760357558727264,-0.03185320645570755,0.1363775134086609
5.869736671447754,0.042153049260377884,-0.3103303611278534,0.47512778639793396,-0.12722209095954895,-0.03185320645570755,0.1363775134086609
5.890040636062622,0.04139009863138199,-0.3122377395629883,0.47589075565338135,-0.12722209095954895,-0.03147173300385475,0.1363775134086609
5.910188436508179,0.04100862145423889,-0.31376364827156067,0.47627222537994385,-0.12722209095954895,-0.03185320645570755,0.1363775134086609
5.930232286453247,0.040627144277095795,-0.31567102670669556,0.47665369510650635,-0.12722209095954895,-0.03185320645570755,0.1367589831352234
5.9503045082092285,0.040627144277095795,-0.31834134459495544,0.47665369510650635,-0.12722209095954895,-0.032616160809993744,0.1367589831352234
5.970474481582642,0.040627144277095795,-0.3217746317386627,0.47703516483306885,-0.12722209095954895,-0.032616160809993744,0.13752193748950958
5.990550756454468,0.040627144277095795,-0.325970858335495,0.47703516483306885,-0.12722209095954895,-0.03299763426184654,0.13828489184379578
6.010742664337158,0.040627144277095795,-0.33093002438545227,0.47779813408851624,-0.12722209095954895,-0.032616160809993744,0.13866636157035828
6.030815601348877,0.040627144277095795,-0.33550775051116943,0.47817960381507874,-0.12722209095954895,-0.032616160809993744,0.13866636157035828
6.05081582069397,0.040627144277095795,-0.3404669165611267,0.47856107354164124,-0.12760357558727264,-0.03223468363285065,0.13866636157035828
6.070905447006226,0.040627144277095795,-0.34695202112197876,0.47932401299476624,-0.12722209095954895,-0.03223468363285065,0.13904783129692078
6.090991973876953,0.040627144277095795,-0.3568703830242157,0.4812313914299011,-0.12722209095954895,-0.03223468363285065,0.13904783129692078
6.111043691635132,0.040245670825242996,-0.3725108802318573,0.4846646785736084,-0.12760357558727264,-0.03299763426184654,0.13942931592464447
6.131112098693848,0.040245670825242996,-0.39692530035972595,0.4953460097312927,-0.12836651504039764,-0.03337911143898964,0.14209964871406555
6.151227951049805,0.040627144277095795,-0.41676202416419983,0.5079346895217896,-0.12989242374897003,-0.03337911143898964,0.14438849687576294
6.171365261077881,0.040627144277095795,-0.42820629477500916,0.5128938555717468,-0.13027389347553253,-0.03185320645570755,0.14667734503746033
6.191356182098389,0.040627144277095795,-0.42744335532188416,0.5128938555717468,-0.13027389347553253,-0.03032730519771576,0.14705882966518402
6.211727857589722,0.040627144277095795,-0.4243915379047394,0.5121309161186218,-0.13027389347553253,-0.03185320645570755,0.14705882966518402
6.231810092926025,0.040627144277095795,-0.4217212200164795,0.5136567950248718,-0.13065537810325623,-0.032616160809993744,0.14705882966518402
6.251906394958496,0.040627144277095795,-0.4182879328727722,0.5159456729888916,-0.13065537810325623,-0.032616160809993744,0.14744029939174652
6.2719407081604,0.040627144277095795,-0.41371023654937744,0.5167086124420166,-0.13103684782981873,-0.03337911143898964,0.14858472347259521
6.292206287384033,0.040627144277095795,-0.40951400995254517,0.5163271427154541,-0.13103684782981873,-0.03337911143898964,0.1493476778268814
6.312351703643799,0.040627144277095795,-0.4056992530822754,0.5163271427154541,-0.13103684782981873,-0.03337911143898964,0.1497291475534439
6.332540512084961,0.040627144277095795,-0.4045548141002655,0.5159456729888916,-0.13103684782981873,-0.03299763426184654,0.1501106321811676
6.352559804916382,0.040627144277095795,-0.403410404920578,0.5155642032623291,-0.13141833245754242,-0.03337911143898964,0.1501106321811676
6.3726646900177,0.040627144277095795,-0.4007400572299957,0.5155642032623291,-0.13141833245754242,-0.034142062067985535,0.1504921019077301
6.392796993255615,0.040627144277095795,-0.39806973934173584,0.5155642032623291,-0.13179980218410492,-0.034142062067985535,0.1504921019077301
6.412806749343872,0.040627144277095795,-0.39616236090660095,0.5163271427154541,-0.13179980218410492,-0.03376058489084244,0.1512550562620163
6.432896375656128,0.040627144277095795,-0.3927290737628937,0.5163271427154541,-0.13218127191066742,-0.034142062067985535,0.1516365259885788
6.452956199645996,0.040627144277095795,-0.3896772861480713,0.5163271427154541,-0.1325627565383911,-0.03376058489084244,0.1527809500694275
6.473111629486084,0.040627144277095795,-0.387006938457489,0.5163271427154541,-0.1325627565383911,-0.03376058489084244,0.15392538905143738
6.493130445480347,0.040627144277095795,-0.38357365131378174,0.5163271427154541,-0.1329442262649536,-0.034142062067985535,0.15392538905143738
6.5132060050964355,0.040627144277095795,-0.38014039397239685,0.5163271427154541,-0.1337071806192398,-0.03452353551983833,0.15392538905143738
6.533332109451294,0.040627144277095795,-0.3759441375732422,0.5163271427154541,-0.134470134973526,-0.03528648987412453,0.15430685877799988
6.553420066833496,0.040627144277095795,-0.3728923499584198,0.5163271427154541,-0.134470134973526,-0.03528648987412453,0.15430685877799988
6.573467254638672,0.040627144277095795,-0.369840532541275,0.5163271427154541,-0.1348516047000885,-0.035667963325977325,0.15506981313228607
6.593542814254761,0.040627144277095795,-0.36602577567100525,0.5163271427154541,-0.1348516047000885,-0.035667963325977325,0.15583276748657227
6.613631248474121,0.040627144277095795,-0.36259251832962036,0.5163271427154541,-0.135233074426651,-0.03604944050312042,0.15697719156742096
6.633697509765625,0.040627144277095795,-0.3587777614593506,0.5163271427154541,-0.135233074426651,-0.03604944050312042,0.15774014592170715
6.653737783432007,0.040627144277095795,-0.3553444743156433,0.5163271427154541,-0.1356145590543747,-0.03604944050312042,0.15774014592170715
6.673827648162842,0.040627144277095795,-0.35000380873680115,0.5163271427154541,-0.1367589831352234,-0.03643091395497322,0.15812161564826965
6.693901538848877,0.040627144277095795,-0.3442816734313965,0.5163271427154541,-0.13790340721607208,-0.03643091395497322,0.15812161564826965
6.713958501815796,0.04100862145423889,-0.3377965986728668,0.5163271427154541,-0.13828489184379578,-0.03643091395497322,0.15850308537483215
6.734025955200195,0.04100862145423889,-0.33054855465888977,0.5163271427154541,-0.13866636157035828,-0.03681239113211632,0.15888457000255585
6.754109144210815,0.040627144277095795,-0.3236820101737976,0.5163271427154541,-0.13904783129692078,-0.03643091395497322,0.16041046380996704
6.774142265319824,0.04100862145423889,-0.31605249643325806,0.5163271427154541,-0.13904783129692078,-0.03643091395497322,0.16117341816425323
6.794234991073608,0.04100862145423889,-0.3061341345310211,0.5159456729888916,-0.13942931592464447,-0.03643091395497322,0.16155488789081573
6.814297199249268,0.04100862145423889,-0.2939268946647644,0.5159456729888916,-0.13981078565120697,-0.03681239113211632,0.16193637251853943
6.834392786026001,0.04177157208323479,-0.2801937758922577,0.5155642032623291,-0.14057374000549316,-0.03681239113211632,0.16269932687282562
6.854541063308716,0.04253452271223068,-0.266460657119751,0.5151827335357666,-0.14248111844062805,-0.03643091395497322,0.1657511293888092
6.874577045440674,0.04291599988937378,-0.2592126429080963,0.5151827335357666,-0.14248111844062805,-0.037193864583969116,0.1684214472770691
6.894665002822876,0.04291599988937378,-0.2569237947463989,0.5167086124420166,-0.14286258816719055,-0.038719769567251205,0.16918440163135529
6.914834022521973,0.04291599988937378,-0.2592126429080963,0.5174715518951416,-0.14362554252147675,-0.0398641936480999,0.16918440163135529
6.934826374053955,0.04291599988937378,-0.2611200213432312,0.5174715518951416,-0.14400701224803925,-0.0394827201962471,0.16918440163135529
6.954884767532349,0.04291599988937378,-0.2622644305229187,0.5170900821685791,-0.14400701224803925,-0.038719769567251205,0.16918440163135529
6.974977016448975,0.04291599988937378,-0.2653162479400635,0.5151827335357666,-0.14362554252147675,-0.03643091395497322,0.16918440163135529
6.995055198669434,0.04291599988937378,-0.27027541399002075,0.5140383243560791,-0.14324407279491425,-0.03681239113211632,0.16918440163135529
7.015120029449463,0.04291599988937378,-0.272945761680603,0.5140383243560791,-0.14362554252147675,-0.03643091395497322,0.16918440163135529
7.035158395767212,0.04291599988937378,-0.2725642919540405,0.5144197940826416,-0.14324407279491425,-0.03681239113211632,0.16956588625907898
7.055249214172363,0.04291599988937378,-0.2725642919540405,0.5151827335357666,-0.14362554252147675,-0.03757534176111221,0.16956588625907898
7.075313091278076,0.04291599988937378,-0.2725642919540405,0.5167086124420166,-0.14362554252147675,-0.037193864583969116,0.16956588625907898
7.095443964004517,0.04291599988937378,-0.2725642919540405,0.5170900821685791,-0.14362554252147675,-0.037193864583969116,0.16956588625907898
7.115445613861084,0.04291599988937378,-0.2725642919540405,0.5170900821685791,-0.14362554252147675,-0.03757534176111221,0.16956588625907898
7.13565993309021,0.04291599988937378,-0.273708701133728,0.5170900821685791,-0.14362554252147675,-0.037193864583969116,0.16956588625907898
7.155670166015625,0.04291599988937378,-0.2756160795688629,0.5170900821685791,-0.14362554252147675,-0.03757534176111221,0.16956588625907898
7.175754547119141,0.04291599988937378,-0.2782863974571228,0.5170900821685791,-0.14362554252147675,-0.03757534176111221,0.16956588625907898
7.195786952972412,0.04291599988937378,-0.2801937758922577,0.5167086124420166,-0.14362554252147675,-0.03757534176111221,0.16956588625907898
7.2158730030059814,0.04291599988937378,-0.2813382148742676,0.5163271427154541,-0.14362554252147675,-0.03757534176111221,0.16956588625907898
7.235957860946655,0.04291599988937378,-0.2821011543273926,0.5163271427154541,-0.14362554252147675,-0.037193864583969116,0.16956588625907898
7.256017446517944,0.04291599988937378,-0.2821011543273926,0.5167086124420166,-0.14362554252147675,-0.037193864583969116,0.16956588625907898
7.276065111160278,0.04291599988937378,-0.2821011543273926,0.5167086124420166,-0.14362554252147675,-0.037193864583969116,0.16956588625907898
7.296221017837524,0.04291599988937378,-0.28324559330940247,0.5167086124420166,-0.14362554252147675,-0.037193864583969116,0.16994735598564148
7.316244602203369,0.04291599988937378,-0.28439003229141235,0.5174715518951416,-0.14362554252147675,-0.03757534176111221,0.16956588625907898
7.336311340332031,0.04291599988937378,-0.28629741072654724,0.5174715518951416,-0.14362554252147675,-0.03795681521296501,0.16994735598564148
7.356359243392944,0.04291599988937378,-0.28820478916168213,0.5174715518951416,-0.14362554252147675,-0.03833829239010811,0.16994735598564148
7.376440763473511,0.04291599988937378,-0.28934919834136963,0.5174715518951416,-0.14362554252147675,-0.03833829239010811,0.16994735598564148
7.396507024765015,0.04291599988937378,-0.2920195460319519,0.5174715518951416,-0.14362554252147675,-0.03795681521296501,0.16994735598564148
7.416607856750488,0.04291599988937378,-0.2935454249382019,0.5174715518951416,-0.14362554252147675,-0.03795681521296501,0.16994735598564148
7.436660051345825,0.04291599988937378,-0.2950713336467743,0.5174715518951416,-0.14362554252147675,-0.03795681521296501,0.16994735598564148
7.4568212032318115,0.04291599988937378,-0.2962157726287842,0.5174715518951416,-0.14362554252147675,-0.03757534176111221,0.17032882571220398
7.476866006851196,0.04291599988937378,-0.2965972423553467,0.5174715518951416,-0.14362554252147675,-0.03795681521296501,0.17071031033992767
7.496907472610474,0.04291599988937378,-0.2969787120819092,0.5178530812263489,-0.14362554252147675,-0.03795681521296501,0.17109178006649017
7.517108201980591,0.04291599988937378,-0.29812315106391907,0.5178530812263489,-0.14362554252147675,-0.03833829239010811,0.17147326469421387
7.537227630615234,0.04291599988937378,-0.29926756024360657,0.5182345509529114,-0.14362554252147675,-0.038719769567251205,0.17185473442077637
7.557383298873901,0.04291599988937378,-0.30041199922561646,0.5182345509529114,-0.14362554252147675,-0.038719769567251205,0.17185473442077637
7.577415704727173,0.04291599988937378,-0.30270084738731384,0.5182345509529114,-0.14362554252147675,-0.038719769567251205,0.17185473442077637
7.5975048542022705,0.04291599988937378,-0.30460822582244873,0.5182345509529114,-0.14362554252147675,-0.038719769567251205,0.17185473442077637
7.6177239418029785,0.04291599988937378,-0.3072785437107086,0.5182345509529114,-0.14362554252147675,-0.038719769567251205,0.17223620414733887
7.637678146362305,0.04291599988937378,-0.308804452419281,0.5182345509529114,-0.14362554252147675,-0.038719769567251205,0.17223620414733887
7.657806873321533,0.04291599988937378,-0.3107118308544159,0.5186160206794739,-0.14362554252147675,-0.038719769567251205,0.17223620414733887
7.6778669357299805,0.04291599988937378,-0.3122377395629883,0.5186160206794739,-0.14362554252147675,-0.038719769567251205,0.17223620414733887
7.697923898696899,0.04291599988937378,-0.3130006790161133,0.5186160206794739,-0.14362554252147675,-0.038719769567251205,0.17223620414733887
7.718283653259277,0.04291599988937378,-0.3133821487426758,0.5189974904060364,-0.14362554252147675,-0.038719769567251205,0.17223620414733887
7.7383692264556885,0.04291599988937378,-0.31452658772468567,0.5197604298591614,-0.14362554252147675,-0.038719769567251205,0.17223620414733887
7.75845193862915,0.04291599988937378,-0.31681543588638306,0.5201418995857239,-0.14362554252147675,-0.039101243019104004,0.17223620414733887
7.778532981872559,0.04291599988937378,-0.31834134459495544,0.5205233693122864,-0.14362554252147675,-0.039101243019104004,0.17223620414733887
7.798609733581543,0.04253452271223068,-0.31948578357696533,0.5205233693122864,-0.14362554252147675,-0.039101243019104004,0.17261768877506256
7.8186821937561035,0.04253452271223068,-0.3221561014652252,0.5205233693122864,-0.14362554252147675,-0.039101243019104004,0.17223620414733887
7.83882212638855,0.04253452271223068,-0.32520791888237,0.5205233693122864,-0.14362554252147675,-0.039101243019104004,0.17261768877506256
7.858882665634155,0.04253452271223068,-0.3274967670440674,0.5205233693122864,-0.14362554252147675,-0.039101243019104004,0.17223620414733887
7.879008054733276,0.04253452271223068,-0.32978561520576477,0.5205233693122864,-0.14362554252147675,-0.039101243019104004,0.17261768877506256
7.899041175842285,0.04253452271223068,-0.33207446336746216,0.5209048390388489,-0.14362554252147675,-0.039101243019104004,0.17261768877506256
7.919234037399292,0.04253452271223068,-0.33512628078460693,0.5216678380966187,-0.14362554252147675,-0.039101243019104004,0.17261768877506256
7.939249277114868,0.04177157208323479,-0.3370336592197418,0.5216678380966187,-0.14362554252147675,-0.039101243019104004,0.17261768877506256
7.959320068359375,0.04139009863138199,-0.3393225073814392,0.5216678380966187,-0.14362554252147675,-0.038719769567251205,0.17261768877506256
7.979424715042114,0.04139009863138199,-0.3416113555431366,0.5216678380966187,-0.14362554252147675,-0.039101243019104004,0.17261768877506256
7.999544858932495,0.04100862145423889,-0.344663143157959,0.5224307775497437,-0.14362554252147675,-0.0394827201962471,0.17299915850162506
8.019609451293945,0.040627144277095795,-0.34657052159309387,0.5228122472763062,-0.14400701224803925,-0.0394827201962471,0.17299915850162506
8.039741516113281,0.040627144277095795,-0.34924086928367615,0.5231937170028687,-0.14362554252147675,-0.0398641936480999,0.17299915850162506
8.059905052185059,0.040627144277095795,-0.3526741564273834,0.5235751867294312,-0.14400701224803925,-0.0398641936480999,0.17299915850162506
8.079951047897339,0.040627144277095795,-0.3561074137687683,0.5239566564559937,-0.14400701224803925,-0.040245670825242996,0.17299915850162506
8.100008726119995,0.040627144277095795,-0.3603036403656006,0.5243381261825562,-0.14400701224803925,-0.040245670825242996,0.17338064312934875
8.12049913406372,0.040627144277095795,-0.36411839723587036,0.5243381261825562,-0.14400701224803925,-0.0398641936480999,0.17338064312934875
8.140661716461182,0.040627144277095795,-0.369840532541275,0.5251010656356812,-0.14400701224803925,-0.0398641936480999,0.17376211285591125
8.160673379898071,0.040627144277095795,-0.3774700462818146,0.5262455344200134,-0.14438849687576294,-0.0398641936480999,0.17528800666332245
8.180733680725098,0.040245670825242996,-0.3896772861480713,0.5281528830528259,-0.14476996660232544,-0.040245670825242996,0.17643244564533234
8.200815916061401,0.040245670825242996,-0.41256579756736755,0.5376898050308228,-0.14515145123004913,-0.040627144277095795,0.17795833945274353
8.220926284790039,0.040245670825242996,-0.4350728690624237,0.5521858334541321,-0.14591439068317413,-0.04100862145423889,0.1810101419687271
8.241047143936157,0.040627144277095795,-0.4495689272880554,0.5579079985618591,-0.14744029939174652,-0.040245670825242996,0.1836804747581482
8.26110553741455,0.040627144277095795,-0.4507133662700653,0.5575265288352966,-0.14705882966518402,-0.037193864583969116,0.1836804747581482
8.281227588653564,0.040627144277095795,-0.44689860939979553,0.5548561811447144,-0.14629587531089783,-0.03833829239010811,0.1844434291124344
8.301270246505737,0.0394827201962471,-0.44575417041778564,0.5556191205978394,-0.14667734503746033,-0.039101243019104004,0.1844434291124344
8.321327209472656,0.0394827201962471,-0.44384679198265076,0.5579079985618591,-0.14782176911830902,-0.039101243019104004,0.1844434291124344
8.34143853187561,0.0398641936480999,-0.4388876259326935,0.5590524077415466,-0.14858472347259521,-0.040245670825242996,0.1844434291124344
8.361503839492798,0.0394827201962471,-0.4343098998069763,0.5594338774681091,-0.14858472347259521,-0.04139009863138199,0.1848248988389969
8.381728410720825,0.0394827201962471,-0.43163958191871643,0.5594338774681091,-0.1489662081003189,-0.04253452271223068,0.18520638346672058
8.401718378067017,0.0398641936480999,-0.42935073375701904,0.5590524077415466,-0.1493476778268814,-0.042153049260377884,0.18558785319328308
8.421801805496216,0.0394827201962471,-0.42706188559532166,0.5586709380149841,-0.1493476778268814,-0.04253452271223068,0.18673227727413177
8.441862344741821,0.0394827201962471,-0.4243915379047394,0.5586709380149841,-0.1493476778268814,-0.04329747334122658,0.18711376190185547
8.462011098861694,0.0394827201962471,-0.4217212200164795,0.5586709380149841,-0.1493476778268814,-0.04329747334122658,0.18711376190185547
8.482073307037354,0.0398641936480999,-0.4190509021282196,0.5586709380149841,-0.1497291475534439,-0.04291599988937378,0.18749523162841797
8.502182483673096,0.0398641936480999,-0.41561761498451233,0.5590524077415466,-0.1497291475534439,-0.04329747334122658,0.18787670135498047
8.52220630645752,0.0398641936480999,-0.41180285811424255,0.5586709380149841,-0.1501106321811676,-0.04291599988937378,0.18787670135498047
8.542273044586182,0.0398641936480999,-0.4091325104236603,0.5590524077415466,-0.1501106321811676,-0.04291599988937378,0.18825818598270416
8.562323570251465,0.0394827201962471,-0.4068436622619629,0.5586709380149841,-0.1501106321811676,-0.04329747334122658,0.18825818598270416
8.582446336746216,0.0398641936480999,-0.4030289053916931,0.5586709380149841,-0.1504921019077301,-0.04291599988937378,0.18863965570926666
8.60252833366394,0.0398641936480999,-0.3995956480503082,0.5586709380149841,-0.1504921019077301,-0.043678950518369675,0.18940261006355286
8.622572422027588,0.0398641936480999,-0.39692530035972595,0.5586709380149841,-0.1512550562620163,-0.04406042397022247,0.19054703414440155
8.642764329910278,0.0398641936480999,-0.3915846347808838,0.5586709380149841,-0.1516365259885788,-0.04406042397022247,0.19130998849868774
8.662978649139404,0.0398641936480999,-0.387006938457489,0.5586709380149841,-0.152399480342865,-0.04406042397022247,0.19130998849868774
8.682971239089966,0.0398641936480999,-0.38357365131378174,0.5586709380149841,-0.1527809500694275,-0.043678950518369675,0.19169145822525024
8.703107833862305,0.0398641936480999,-0.38052186369895935,0.5586709380149841,-0.15316243469715118,-0.043678950518369675,0.19207294285297394
8.723186492919922,0.040245670825242996,-0.3759441375732422,0.5586709380149841,-0.15354390442371368,-0.043678950518369675,0.19245441257953644
8.743318796157837,0.040627144277095795,-0.3702220320701599,0.5582894682884216,-0.15354390442371368,-0.04444190114736557,0.19321736693382263
8.763407230377197,0.040627144277095795,-0.36335545778274536,0.5579079985618591,-0.15392538905143738,-0.04406042397022247,0.19474326074123383
8.783522844314575,0.04100862145423889,-0.3564889132976532,0.5575265288352966,-0.15430685877799988,-0.04406042397022247,0.19512474536895752
8.803549528121948,0.04100862145423889,-0.34695202112197876,0.5575265288352966,-0.15468832850456238,-0.043678950518369675,0.19550621509552002
8.823625564575195,0.04100862145423889,-0.3381780683994293,0.5571450591087341,-0.15545128285884857,-0.043678950518369675,0.1958876997232437
8.843689680099487,0.04100862145423889,-0.33016708493232727,0.5567635893821716,-0.15697719156742096,-0.043678950518369675,0.1974135935306549
8.863837242126465,0.04139009863138199,-0.31910428404808044,0.5567635893821716,-0.15697719156742096,-0.04406042397022247,0.1989395022392273
8.88394832611084,0.04177157208323479,-0.3057526648044586,0.5563820600509644,-0.15735866129398346,-0.04406042397022247,0.1993209719657898
8.904014587402344,0.042153049260377884,-0.28934919834136963,0.5548561811447144,-0.15774014592170715,-0.04406042397022247,0.2004653960466385
8.924081087112427,0.04329747334122658,-0.2771419882774353,0.5525673031806946,-0.15888457000255585,-0.04406042397022247,0.20351719856262207
8.944290399551392,0.043678950518369675,-0.26874953508377075,0.5533303022384644,-0.15888457000255585,-0.04444190114736557,0.20656901597976685
8.964399576187134,0.043678950518369675,-0.26760509610176086,0.5552376508712769,-0.16002899408340454,-0.04634927958250046,0.20656901597976685
8.984464883804321,0.043678950518369675,-0.27027541399002075,0.5556191205978394,-0.16041046380996704,-0.046730753034353256,0.20656901597976685
9.004517793655396,0.043678950518369675,-0.27180132269859314,0.5556191205978394,-0.16079194843769073,-0.04596780240535736,0.20656901597976685
9.024595737457275,0.043678950518369675,-0.27218279242515564,0.5544747114181519,-0.16041046380996704,-0.04444190114736557,0.20656901597976685
9.044668912887573,0.043678950518369675,-0.2744716703891754,0.5525673031806946,-0.16002899408340454,-0.04291599988937378,0.20656901597976685
9.064724922180176,0.043678950518369675,-0.2798123061656952,0.5525673031806946,-0.16002899408340454,-0.04329747334122658,0.20656901597976685
9.084776639938354,0.043678950518369675,-0.28248265385627747,0.5525673031806946,-0.16002899408340454,-0.04291599988937378,0.20656901597976685
9.104880332946777,0.043678950518369675,-0.2817196846008301,0.5529488325119019,-0.16002899408340454,-0.043678950518369675,0.20656901597976685
9.124957799911499,0.043678950518369675,-0.2809567451477051,0.5537117719650269,-0.16002899408340454,-0.04444190114736557,0.20656901597976685
9.145010948181152,0.043678950518369675,-0.2809567451477051,0.5544747114181519,-0.16041046380996704,-0.04444190114736557,0.20656901597976685
9.165163516998291,0.043678950518369675,-0.2809567451477051,0.5548561811447144,-0.16041046380996704,-0.04406042397022247,0.20656901597976685
9.185203313827515,0.043678950518369675,-0.2813382148742676,0.5548561811447144,-0.16041046380996704,-0.04406042397022247,0.20656901597976685
9.205251216888428,0.043678950518369675,-0.28248265385627747,0.5544747114181519,-0.16041046380996704,-0.04406042397022247,0.20656901597976685
9.225305080413818,0.043678950518369675,-0.28477150201797485,0.5544747114181519,-0.16041046380996704,-0.04406042397022247,0.20656901597976685
9.245391607284546,0.043678950518369675,-0.28782328963279724,0.5544747114181519,-0.16002899408340454,-0.04406042397022247,0.20656901597976685
9.265514850616455,0.043678950518369675,-0.28934919834136963,0.5544747114181519,-0.16002899408340454,-0.04406042397022247,0.20656901597976685
9.285532236099243,0.043678950518369675,-0.290112167596817,0.5544747114181519,-0.16002899408340454,-0.04406042397022247,0.20656901597976685
9.305614471435547,0.043678950518369675,-0.2904936373233795,0.5544747114181519,-0.16002899408340454,-0.04406042397022247,0.20656901597976685
9.32568097114563,0.043678950518369675,-0.290112167596817,0.5548561811447144,-0.16041046380996704,-0.04406042397022247,0.20656901597976685
9.345777988433838,0.043678950518369675,-0.290112167596817,0.5548561811447144,-0.16002899408340454,-0.04406042397022247,0.20656901597976685
9.365839004516602,0.043678950518369675,-0.290112167596817,0.5548561811447144,-0.16041046380996704,-0.04406042397022247,0.20656901597976685
9.386016130447388,0.043678950518369675,-0.291638046503067,0.5548561811447144,-0.16041046380996704,-0.04406042397022247,0.20656901597976685
9.406078100204468,0.043678950518369675,-0.2931639552116394,0.5548561811447144,-0.16041046380996704,-0.04444190114736557,0.20656901597976685
9.426077842712402,0.043678950518369675,-0.2954528033733368,0.5548561811447144,-0.16041046380996704,-0.04482337832450867,0.20656901597976685
9.446094751358032,0.043678950518369675,-0.2969787120819092,0.5548561811447144,-0.16041046380996704,-0.04444190114736557,0.20656901597976685
9.466188669204712,0.043678950518369675,-0.29888609051704407,0.5548561811447144,-0.16002899408340454,-0.04444190114736557,0.20656901597976685
9.486320495605469,0.043678950518369675,-0.30003052949905396,0.5548561811447144,-0.16002899408340454,-0.04406042397022247,0.20656901597976685
9.506308555603027,0.043678950518369675,-0.30079346895217896,0.5548561811447144,-0.16002899408340454,-0.04406042397022247,0.20656901597976685
9.526720523834229,0.043678950518369675,-0.30155640840530396,0.5552376508712769,-0.16041046380996704,-0.04406042397022247,0.20656901597976685
9.546852588653564,0.043678950518369675,-0.30193790793418884,0.5556191205978394,-0.16002899408340454,-0.04406042397022247,0.20656901597976685
9.566933631896973,0.043678950518369675,-0.30270084738731384,0.5556191205978394,-0.16041046380996704,-0.04444190114736557,0.20656901597976685
9.587250232696533,0.043678950518369675,-0.30384528636932373,0.5556191205978394,-0.16002899408340454,-0.04444190114736557,0.20656901597976685
9.607354402542114,0.043678950518369675,-0.30460822582244873,0.5556191205978394,-0.16041046380996704,-0.04482337832450867,0.20656901597976685
9.627554655075073,0.043678950518369675,-0.3061341345310211,0.5556191205978394,-0.16002899408340454,-0.04444190114736557,0.20656901597976685
9.647585153579712,0.043678950518369675,-0.3084229826927185,0.5556191205978394,-0.16041046380996704,-0.04444190114736557,0.20656901597976685
9.66788101196289,0.043678950518369675,-0.3103303611278534,0.5556191205978394,-0.16041046380996704,-0.04444190114736557,0.20656901597976685
9.68798017501831,0.043678950518369675,-0.3114747703075409,0.5556191205978394,-0.16002899408340454,-0.04444190114736557,0.20656901597976685
9.708081722259521,0.043678950518369675,-0.3122377395629883,0.5556191205978394,-0.16041046380996704,-0.04444190114736557,0.20656901597976685
9.72819209098816,0.043678950518369675,-0.3130006790161133,0.5556191205978394,-0.16002899408340454,-0.04406042397022247,0.20656901597976685
9.748290300369263,0.043678950518369675,-0.31452658772468567,0.5560005903244019,-0.16041046380996704,-0.04444190114736557,0.20656901597976685
9.768502473831177,0.043678950518369675,-0.31528952717781067,0.5563820600509644,-0.16041046380996704,-0.04444190114736557,0.20656901597976685
9.788558959960938,0.043678950518369675,-0.31643396615982056,0.5567635893821716,-0.16041046380996704,-0.04444190114736557,0.20656901597976685
9.808837175369263,0.043678950518369675,-0.31834134459495544,0.5567635893821716,-0.16041046380996704,-0.04444190114736557,0.20656901597976685
9.828964948654175,0.04329747334122658,-0.31948578357696533,0.5571450591087341,-0.16041046380996704,-0.04444190114736557,0.20656901597976685
9.849075317382812,0.04329747334122658,-0.3217746317386627,0.5571450591087341,-0.16041046380996704,-0.04444190114736557,0.20656901597976685
9.869078636169434,0.04291599988937378,-0.3240634799003601,0.5571450591087341,-0.16002899408340454,-0.04444190114736557,0.20695048570632935
9.889193534851074,0.04291599988937378,-0.325970858335495,0.5571450591087341,-0.16041046380996704,-0.04444190114736557,0.20695048570632935
9.909249544143677,0.04291599988937378,-0.3278782367706299,0.5575265288352966,-0.16041046380996704,-0.04444190114736557,0.20695048570632935
9.929373979568481,0.04253452271223068,-0.32940414547920227,0.5575265288352966,-0.16041046380996704,-0.04482337832450867,0.20695048570632935
9.949536085128784,0.04291599988937378,-0.33131152391433716,0.5575265288352966,-0.16041046380996704,-0.04444190114736557,0.20695048570632935
9.969624042510986,0.04291599988937378,-0.33207446336746216,0.5575265288352966,-0.16002899408340454,-0.04444190114736557,0.20695048570632935
9.989768981933594,0.04291599988937378,-0.33360037207603455,0.5575265288352966,-0.16041046380996704,-0.04444190114736557,0.20695048570632935
10.009908199310303,0.04253452271223068,-0.33398184180259705,0.5579079985618591,-0.16041046380996704,-0.04444190114736557,0.20733195543289185
10.029964923858643,0.04253452271223068,-0.33627068996429443,0.5579079985618591,-0.16041046380996704,-0.04444190114736557,0.20733195543289185
10.050028800964355,0.04253452271223068,-0.3385595381259918,0.5579079985618591,-0.16041046380996704,-0.04444190114736557,0.20733195543289185
10.070093393325806,0.04253452271223068,-0.3404669165611267,0.5579079985618591,-0.16041046380996704,-0.04444190114736557,0.20733195543289185
10.090211391448975,0.04253452271223068,-0.3435187339782715,0.5579079985618591,-0.16041046380996704,-0.04482337832450867,0.20771344006061554
10.110327243804932,0.042153049260377884,-0.34618905186653137,0.5586709380149841,-0.16002899408340454,-0.04482337832450867,0.20847637951374054
10.13040018081665,0.04139009863138199,-0.34847790002822876,0.5590524077415466,-0.16002899408340454,-0.04444190114736557,0.20923933386802673
10.150459289550781,0.04139009863138199,-0.35038527846336365,0.5598153471946716,-0.16041046380996704,-0.04444190114736557,0.20962081849575043
10.170558214187622,0.04139009863138199,-0.3526741564273834,0.5598153471946716,-0.16041046380996704,-0.04444190114736557,0.20962081849575043
10.190640449523926,0.04139009863138199,-0.3553444743156433,0.5598153471946716,-0.16002899408340454,-0.04482337832450867,0.20962081849575043
10.21070146560669,0.04139009863138199,-0.3564889132976532,0.5598153471946716,-0.16041046380996704,-0.045204851776361465,0.20962081849575043
10.230787992477417,0.040627144277095795,-0.3591592311859131,0.5598153471946716,-0.16041046380996704,-0.04482337832450867,0.20962081849575043
10.250889539718628,0.040627144277095795,-0.3622110188007355,0.5598153471946716,-0.16041046380996704,-0.045204851776361465,0.20962081849575043
10.270909786224365,0.040627144277095795,-0.36411839723587036,0.5605783462524414,-0.16041046380996704,-0.04482337832450867,0.20962081849575043
10.291009426116943,0.040627144277095795,-0.36717021465301514,0.5609598159790039,-0.16002899408340454,-0.04482337832450867,0.20962081849575043
10.311100721359253,0.040627144277095795,-0.3706035017967224,0.5613412857055664,-0.16041046380996704,-0.04482337832450867,0.20962081849575043
10.33124327659607,0.040627144277095795,-0.3736552894115448,0.5621042251586914,-0.16041046380996704,-0.04482337832450867,0.20962081849575043
10.35125184059143,0.040627144277095795,-0.3770885765552521,0.5621042251586914,-0.16041046380996704,-0.04482337832450867,0.20962081849575043
10.371438026428223,0.040627144277095795,-0.38242924213409424,0.5621042251586914,-0.16041046380996704,-0.04482337832450867,0.21000228822231293
10.391449451446533,0.040627144277095795,-0.3877699077129364,0.5632486343383789,-0.16041046380996704,-0.04482337832450867,0.21000228822231293
10.411494255065918,0.040245670825242996,-0.39425498247146606,0.5643930435180664,-0.16041046380996704,-0.045204851776361465,0.21000228822231293
10.431577682495117,0.040245670825242996,-0.4060807228088379,0.5666819214820862,-0.16041046380996704,-0.045204851776361465,0.21038375794887543
10.4516441822052,0.0394827201962471,-0.42782482504844666,0.577744722366333,-0.16041046380996704,-0.04482337832450867,0.21152819693088531
10.47173023223877,0.0394827201962471,-0.44804301857948303,0.5849927663803101,-0.16079194843769073,-0.04596780240535736,0.2145799994468689
10.49181342124939,0.0398641936480999,-0.45796138048171997,0.5903334021568298,-0.16117341816425323,-0.04444190114736557,0.2153429538011551
10.511939287185669,0.0394827201962471,-0.45719844102859497,0.5895704627037048,-0.16079194843769073,-0.04329747334122658,0.21686884760856628
10.531994581222534,0.039101243019104004,-0.4541466534137726,0.5876630544662476,-0.16041046380996704,-0.043678950518369675,0.21725031733512878
10.552048683166504,0.038719769567251205,-0.4533836841583252,0.5891889929771423,-0.16117341816425323,-0.04406042397022247,0.21725031733512878
10.572137832641602,0.038719769567251205,-0.4495689272880554,0.5910963416099548,-0.16155488789081573,-0.04482337832450867,0.21725031733512878
10.592201232910156,0.039101243019104004,-0.44537270069122314,0.5918593406677246,-0.16193637251853943,-0.045204851776361465,0.21763180196285248
10.612245559692383,0.039101243019104004,-0.44079500436782837,0.5918593406677246,-0.16231784224510193,-0.04596780240535736,0.21763180196285248
10.63234567642212,0.039101243019104004,-0.4365987777709961,0.5918593406677246,-0.16231784224510193,-0.045204851776361465,0.21801327168941498
10.65246295928955,0.039101243019104004,-0.4339284300804138,0.5918593406677246,-0.16346226632595062,-0.045204851776361465,0.21801327168941498
10.672508716583252,0.038719769567251205,-0.43163958191871643,0.5910963416099548,-0.16384375095367432,-0.04558632895350456,0.21839475631713867
10.6925687789917,0.038719769567251205,-0.42896926403045654,0.5907148718833923,-0.16422522068023682,-0.04634927958250046,0.21839475631713867
10.712628602981567,0.039101243019104004,-0.42629891633987427,0.5903334021568298,-0.16422522068023682,-0.04634927958250046,0.21915769577026367
10.732709169387817,0.039101243019104004,-0.4224841594696045,0.5907148718833923,-0.1646067053079605,-0.04596780240535736,0.22030213475227356
10.752878904342651,0.039101243019104004,-0.4186694025993347,0.5907148718833923,-0.1646067053079605,-0.04634927958250046,0.22106507420539856
10.773005247116089,0.039101243019104004,-0.41599908471107483,0.5907148718833923,-0.164988175034523,-0.04558632895350456,0.22106507420539856
10.793184757232666,0.039101243019104004,-0.41256579756736755,0.5907148718833923,-0.164988175034523,-0.04596780240535736,0.22144655883312225
10.813271045684814,0.039101243019104004,-0.4083695709705353,0.5907148718833923,-0.1653696447610855,-0.04634927958250046,0.22144655883312225
10.833484411239624,0.039101243019104004,-0.4037918746471405,0.5903334021568298,-0.1653696447610855,-0.04596780240535736,0.22182802855968475
10.853479862213135,0.039101243019104004,-0.39921414852142334,0.5899519324302673,-0.1657511293888092,-0.04634927958250046,0.22259098291397095
10.873547792434692,0.039101243019104004,-0.3919661343097687,0.5899519324302673,-0.1665140837430954,-0.046730753034353256,0.22335393726825714
10.893627166748047,0.0398641936480999,-0.3877699077129364,0.5899519324302673,-0.1668955534696579,-0.04749370738863945,0.22487983107566833
10.913674354553223,0.0398641936480999,-0.38281071186065674,0.5899519324302673,-0.1672770231962204,-0.04749370738863945,0.22526131570339203
10.933852672576904,0.0398641936480999,-0.3763256371021271,0.5899519324302673,-0.1680399775505066,-0.04787518084049225,0.22526131570339203
10.95394492149353,0.0398641936480999,-0.36907759308815,0.5895704627037048,-0.1684214472770691,-0.04711223021149635,0.22564278542995453
10.974013090133667,0.0398641936480999,-0.3599221706390381,0.5884260535240173,-0.1684214472770691,-0.04711223021149635,0.22640573978424072
10.994066953659058,0.0398641936480999,-0.35038527846336365,0.5884260535240173,-0.1684214472770691,-0.04711223021149635,0.22716869413852692
11.014166593551636,0.0398641936480999,-0.3385595381259918,0.5880445837974548,-0.16880293190479279,-0.04749370738863945,0.2286945879459381
11.034279108047485,0.040245670825242996,-0.325970858335495,0.5876630544662476,-0.16880293190479279,-0.04749370738863945,0.2294575423002243
11.05436086654663,0.04100862145423889,-0.3133821487426758,0.5876630544662476,-0.16956588625907898,-0.048256658017635345,0.2298390120267868
11.074399471282959,0.04139009863138199,-0.2943083941936493,0.5857557058334351,-0.17032882571220398,-0.04749370738863945,0.23250934481620789
11.094534635543823,0.04291599988937378,-0.2790493667125702,0.5834668278694153,-0.17147326469421387,-0.04787518084049225,0.23441672325134277
11.114585876464844,0.04291599988937378,-0.2725642919540405,0.5842298269271851,-0.17185473442077637,-0.048638131469488144,0.23670557141304016
11.134648323059082,0.04291599988937378,-0.273708701133728,0.5869001150131226,-0.17261768877506256,-0.05245288833975792,0.23670557141304016
11.154725313186646,0.04291599988937378,-0.2767605185508728,0.5869001150131226,-0.17338064312934875,-0.051689937710762024,0.23708705604076385
11.174787282943726,0.04291599988937378,-0.2779049277305603,0.5865186452865601,-0.17490653693675995,-0.051689937710762024,0.23708705604076385
11.194844961166382,0.04291599988937378,-0.2782863974571228,0.5857557058334351,-0.17490653693675995,-0.050164032727479935,0.23632410168647766
11.214922189712524,0.04291599988937378,-0.2809567451477051,0.5830853581428528,-0.17261768877506256,-0.04787518084049225,0.23708705604076385
11.234988689422607,0.04291599988937378,-0.28667888045310974,0.5827038884162903,-0.17261768877506256,-0.04787518084049225,0.23708705604076385
11.255070209503174,0.04291599988937378,-0.28820478916168213,0.5827038884162903,-0.17261768877506256,-0.046730753034353256,0.23708705604076385
11.275109767913818,0.04291599988937378,-0.28706035017967224,0.5830853581428528,-0.17261768877506256,-0.04711223021149635,0.23708705604076385
11.295198917388916,0.04291599988937378,-0.28706035017967224,0.5849927663803101,-0.17299915850162506,-0.04787518084049225,0.23670557141304016
11.315274953842163,0.04291599988937378,-0.28706035017967224,0.5861371755599976,-0.17299915850162506,-0.04749370738863945,0.23708705604076385
11.33536982536316,0.04291599988937378,-0.28629741072654724,0.5861371755599976,-0.17338064312934875,-0.04787518084049225,0.23708705604076385
11.355684280395508,0.04291599988937378,-0.28591591119766235,0.5857557058334351,-0.17299915850162506,-0.048256658017635345,0.23708705604076385
11.37576937675476,0.04291599988937378,-0.28744181990623474,0.5857557058334351,-0.17299915850162506,-0.04787518084049225,0.23708705604076385
11.395836353302002,0.04291599988937378,-0.290875107049942,0.5857557058334351,-0.17299915850162506,-0.048256658017635345,0.23708705604076385
11.415902137756348,0.04291599988937378,-0.2931639552116394,0.5857557058334351,-0.17299915850162506,-0.048638131469488144,0.23708705604076385
11.43599534034729,0.04291599988937378,-0.2946898639202118,0.5853742361068726,-0.17299915850162506,-0.048638131469488144,0.23708705604076385
11.456060886383057,0.04291599988937378,-0.2946898639202118,0.5853742361068726,-0.17261768877506256,-0.04787518084049225,0.23708705604076385
11.476196765899658,0.04291599988937378,-0.2954528033733368,0.5857557058334351,-0.17299915850162506,-0.04787518084049225,0.23708705604076385
11.49632215499878,0.04291599988937378,-0.2954528033733368,0.5857557058334351,-0.17299915850162506,-0.04787518084049225,0.23708705604076385
11.516406536102295,0.04291599988937378,-0.2954528033733368,0.5857557058334351,-0.17299915850162506,-0.04787518084049225,0.23708705604076385
11.53648066520691,0.04291599988937378,-0.2954528033733368,0.5857557058334351,-0.17299915850162506,-0.04787518084049225,0.23708705604076385
11.556528568267822,0.04291599988937378,-0.2965972423553467,0.5857557058334351,-0.17299915850162506,-0.048256658017635345,0.23708705604076385
11.576717615127563,0.04291599988937378,-0.29850462079048157,0.5857557058334351,-0.17299915850162506,-0.04901960864663124,0.23708705604076385
11.596795320510864,0.04291599988937378,-0.29926756024360657,0.5857557058334351,-0.17299915850162506,-0.04901960864663124,0.23708705604076385
11.61684536933899,0.04291599988937378,-0.30079346895217896,0.5857557058334351,-0.17299915850162506,-0.04901960864663124,0.23708705604076385
11.637023210525513,0.04291599988937378,-0.30308231711387634,0.5857557058334351,-0.17299915850162506,-0.048638131469488144,0.23708705604076385
11.657166481018066,0.04291599988937378,-0.30460822582244873,0.5857557058334351,-0.17299915850162506,-0.048256658017635345,0.23708705604076385
11.677200078964233,0.04291599988937378,-0.30498969554901123,0.5857557058334351,-0.17299915850162506,-0.048256658017635345,0.23708705604076385
11.697246551513672,0.04291599988937378,-0.3057526648044586,0.5857557058334351,-0.17299915850162506,-0.04787518084049225,0.23708705604076385
11.717357635498047,0.04291599988937378,-0.3057526648044586,0.5857557058334351,-0.17299915850162506,-0.048256658017635345,0.23708705604076385
11.737401485443115,0.04291599988937378,-0.3068970739841461,0.5861371755599976,-0.17299915850162506,-0.048256658017635345,0.23708705604076385
11.757455587387085,0.04291599988937378,-0.3076600432395935,0.5861371755599976,-0.17299915850162506,-0.048638131469488144,0.23708705604076385
11.777714252471924,0.04291599988937378,-0.308804452419281,0.5861371755599976,-0.17299915850162506,-0.04901960864663124,0.23746852576732635
11.797860860824585,0.04291599988937378,-0.3110933005809784,0.5865186452865601,-0.17299915850162506,-0.04901960864663124,0.23746852576732635
11.817950963973999,0.04291599988937378,-0.3126192092895508,0.5865186452865601,-0.17299915850162506,-0.048638131469488144,0.23746852576732635
11.83799409866333,0.04291599988937378,-0.31414511799812317,0.5865186452865601,-0.17299915850162506,-0.048256658017635345,0.23785001039505005
11.858098983764648,0.04291599988937378,-0.31643396615982056,0.5865186452865601,-0.17261768877506256,-0.048638131469488144,0.23823148012161255
11.87818455696106,0.04291599988937378,-0.31872281432151794,0.5865186452865601,-0.17261768877506256,-0.048256658017635345,0.23861294984817505
11.89827847480774,0.04291599988937378,-0.31948578357696533,0.5865186452865601,-0.17261768877506256,-0.048256658017635345,0.23899443447589874
11.918317556381226,0.04291599988937378,-0.32101166248321533,0.5865186452865601,-0.17261768877506256,-0.048638131469488144,0.23937590420246124
11.938565492630005,0.04291599988937378,-0.3229190409183502,0.5865186452865601,-0.17261768877506256,-0.048638131469488144,0.23975738883018494
11.958728313446045,0.04291599988937378,-0.3244449496269226,0.5869001150131226,-0.17261768877506256,-0.04901960864663124,0.23975738883018494
11.97878909111023,0.04291599988937378,-0.3271152675151825,0.5869001150131226,-0.17261768877506256,-0.048638131469488144,0.24013885855674744
11.998836040496826,0.04291599988937378,-0.32978561520576477,0.5869001150131226,-0.17261768877506256,-0.048638131469488144,0.24013885855674744
12.018921375274658,0.04329747334122658,-0.33245593309402466,0.5869001150131226,-0.17261768877506256,-0.048638131469488144,0.24013885855674744
12.039016723632812,0.043678950518369675,-0.33588922023773193,0.5872815847396851,-0.17261768877506256,-0.048638131469488144,0.24052032828330994
12.059104204177856,0.04406042397022247,-0.3389410376548767,0.5880445837974548,-0.17223620414733887,-0.048256658017635345,0.24090181291103363
12.079144477844238,0.04482337832450867,-0.3427557647228241,0.5884260535240173,-0.17223620414733887,-0.04901960864663124,0.24090181291103363
12.09935975074768,0.04596780240535736,-0.34695202112197876,0.5888075232505798,-0.17223620414733887,-0.048638131469488144,0.24128328263759613
12.119447231292725,0.04787518084049225,-0.35038527846336365,0.5888075232505798,-0.17185473442077637,-0.04901960864663124,0.24280919134616852
12.139581203460693,0.04940108209848404,-0.3545815348625183,0.5888075232505798,-0.17147326469421387,-0.049782559275627136,0.2447165697813034
12.15960955619812,0.05054550990462303,-0.3580147922039032,0.5891889929771423,-0.17147326469421387,-0.049782559275627136,0.2450980395078659
12.17994213104248,0.053215838968753815,-0.361066609621048,0.5895704627037048,-0.17109178006649017,-0.04940108209848404,0.2466239482164383
12.20003342628479,0.056267641484737396,-0.36297398805618286,0.5899519324302673,-0.17032882571220398,-0.04940108209848404,0.2481498420238495
12.220241785049438,0.05855649709701538,-0.36373692750930786,0.5899519324302673,-0.1684214472770691,-0.04940108209848404,0.24891279637813568
12.240280389785767,0.06160829961299896,-0.36373692750930786,0.5899519324302673,-0.1676585078239441,-0.049782559275627136,0.25120165944099426
12.260390520095825,0.06504157930612564,-0.36373692750930786,0.5903334021568298,-0.1676585078239441,-0.04940108209848404,0.25234606862068176
12.280467748641968,0.06847485899925232,-0.36373692750930786,0.5907148718833923,-0.1676585078239441,-0.049782559275627136,0.25425344705581665
12.300491094589233,0.0707637146115303,-0.36373692750930786,0.5907148718833923,-0.1672770231962204,-0.049782559275627136,0.25539788603782654
12.320589065551758,0.07419699430465698,-0.36297398805618286,0.5907148718833923,-0.1665140837430954,-0.050164032727479935,0.25654229521751404
12.340674638748169,0.07724879682064056,-0.361829549074173,0.5907148718833923,-0.1653696447610855,-0.049782559275627136,0.2580682039260864
12.360862255096436,0.07953765243291855,-0.361829549074173,0.5907148718833923,-0.16384375095367432,-0.05054550990462303,0.2599755823612213
12.381059169769287,0.08144503086805344,-0.361829549074173,0.5907148718833923,-0.16384375095367432,-0.05054550990462303,0.2622644305229187
12.401168584823608,0.08411535620689392,-0.3606851398944855,0.5907148718833923,-0.16346226632595062,-0.051689937710762024,0.2634088695049286
12.421282291412354,0.0864042118191719,-0.3599221706390381,0.5907148718833923,-0.16346226632595062,-0.05092698708176613,0.2637903392314911
12.441331148147583,0.08869306743144989,-0.3587777614593506,0.5907148718833923,-0.16308079659938812,-0.051689937710762024,0.2645532786846161
12.461466073989868,0.09098191559314728,-0.3576333224773407,0.5907148718833923,-0.16269932687282562,-0.05207141116261482,0.2660791873931885
12.481561660766602,0.09288929402828217,-0.3561074137687683,0.5907148718833923,-0.16002899408340454,-0.051689937710762024,0.26684215664863586
12.501551628112793,0.09441519528627396,-0.3545815348625183,0.5907148718833923,-0.15964750945568085,-0.051689937710762024,0.26836803555488586
12.52161717414856,0.09594109654426575,-0.3534370958805084,0.5907148718833923,-0.15926603972911835,-0.051689937710762024,0.26989394426345825
12.541723728179932,0.09708552807569504,-0.35152971744537354,0.5907148718833923,-0.15888457000255585,-0.051689937710762024,0.27065691351890564
12.561797618865967,0.09822995215654373,-0.34962233901023865,0.5907148718833923,-0.15812161564826965,-0.051689937710762024,0.27103838324546814
12.581917524337769,0.09937438368797302,-0.34885939955711365,0.5907148718833923,-0.15735866129398346,-0.05207141116261482,0.27180132269859314
12.602322101593018,0.10013733059167862,-0.34733349084854126,0.5907148718833923,-0.15697719156742096,-0.05207141116261482,0.273708701133728
12.622475624084473,0.10166323184967041,-0.34504464268684387,0.5907148718833923,-0.15697719156742096,-0.05245288833975792,0.2744716703891754
12.642585277557373,0.1039520874619484,-0.3416113555431366,0.5903334021568298,-0.15697719156742096,-0.05245288833975792,0.2752346098423004
12.662635326385498,0.10585946589708328,-0.3381780683994293,0.5899519324302673,-0.15659570693969727,-0.05283436179161072,0.2767605185508728
12.682721138000488,0.10814831405878067,-0.33474478125572205,0.5899519324302673,-0.15659570693969727,-0.05245288833975792,0.2782863974571228
12.702777624130249,0.11081864684820175,-0.33245593309402466,0.5899519324302673,-0.15659570693969727,-0.05245288833975792,0.2794308364391327
12.722846746444702,0.11272602528333664,-0.33245593309402466,0.5899519324302673,-0.15659570693969727,-0.05283436179161072,0.2805752754211426
12.742890119552612,0.11501488089561462,-0.33169299364089966,0.5899519324302673,-0.15621423721313477,-0.05283436179161072,0.2821011543273926
12.762981653213501,0.11768520623445511,-0.33169299364089966,0.5899519324302673,-0.15621423721313477,-0.05283436179161072,0.28400853276252747
12.783055305480957,0.1203555315732956,-0.33207446336746216,0.5899519324302673,-0.15545128285884857,-0.05283436179161072,0.28553444147109985
12.803131580352783,0.12302586436271667,-0.33321890234947205,0.5899519324302673,-0.15430685877799988,-0.05283436179161072,0.28667888045310974
12.823208808898926,0.12569619715213776,-0.33398184180259705,0.5899519324302673,-0.1527809500694275,-0.05283436179161072,0.28934919834136963
12.843305826187134,0.12836651504039764,-0.33588922023773193,0.5899519324302673,-0.1520180106163025,-0.053215838968753815,0.290112167596817
12.863355159759521,0.13065537810325623,-0.33627068996429443,0.5899519324302673,-0.1508735716342926,-0.053215838968753815,0.2920195460319519
12.883413791656494,0.13218127191066742,-0.3381780683994293,0.5899519324302673,-0.1493476778268814,-0.053215838968753815,0.2927824854850769
12.903461694717407,0.134470134973526,-0.3404669165611267,0.5899519324302673,-0.1493476778268814,-0.05359731614589691,0.2939268946647644
12.923550844192505,0.1371404528617859,-0.3419928252696991,0.5899519324302673,-0.1489662081003189,-0.05359731614589691,0.2954528033733368
12.943669319152832,0.13942931592464447,-0.3435187339782715,0.5899519324302673,-0.14858472347259521,-0.054741740226745605,0.2969787120819092
12.963749170303345,0.14171816408634186,-0.344663143157959,0.5899519324302673,-0.14820325374603271,-0.056267641484737396,0.2977416515350342
12.983852863311768,0.14362554252147675,-0.34580758213996887,0.5899519324302673,-0.14782176911830902,-0.056267641484737396,0.29964902997016907
13.003921031951904,0.14629587531089783,-0.34657052159309387,0.5899519324302673,-0.14705882966518402,-0.05703059583902359,0.30117493867874146
13.024024724960327,0.1489662081003189,-0.34618905186653137,0.5899519324302673,-0.14553292095661163,-0.05703059583902359,0.30308231711387634
13.04404902458191,0.1516365259885788,-0.34618905186653137,0.5903334021568298,-0.14476996660232544,-0.05703059583902359,0.30498969554901123
13.064238786697388,0.15506981313228607,-0.34580758213996887,0.5903334021568298,-0.14476996660232544,-0.05741206929087639,0.3076600432395935
13.084331512451172,0.15774014592170715,-0.34542611241340637,0.5903334021568298,-0.14400701224803925,-0.05741206929087639,0.308804452419281
13.104432106018066,0.16002899408340454,-0.34504464268684387,0.5899519324302673,-0.14362554252147675,-0.057793546468019485,0.3107118308544159
13.124475002288818,0.16193637251853943,-0.34504464268684387,0.5903334021568298,-0.14209964871406555,-0.058175019919872284,0.3122377395629883
13.144524812698364,0.1646067053079605,-0.34504464268684387,0.5903334021568298,-0.14133669435977936,-0.05855649709701538,0.31490805745124817
13.16461181640625,0.1665140837430954,-0.3442816734313965,0.5903334021568298,-0.14095520973205566,-0.05970092490315437,0.31567102670669556
13.18466329574585,0.1684214472770691,-0.3435187339782715,0.5903334021568298,-0.14057374000549316,-0.06008239835500717,0.31719690561294556
13.20471477508545,0.17185473442077637,-0.3419928252696991,0.5903334021568298,-0.14019227027893066,-0.06084534898400307,0.31872281432151794
13.224777460098267,0.17414358258247375,-0.3408484160900116,0.5903334021568298,-0.13866636157035828,-0.061226826161146164,0.31986725330352783
13.24497938156128,0.17719538509845734,-0.3397039771080017,0.5903334021568298,-0.13790340721607208,-0.06160829961299896,0.3221561014652252
13.264966487884521,0.17986571788787842,-0.3397039771080017,0.5903334021568298,-0.13752193748950958,-0.06160829961299896,0.3233005404472351
13.285045623779297,0.1817730963230133,-0.3393225073814392,0.5903334021568298,-0.13752193748950958,-0.06160829961299896,0.3248264193534851
13.3051118850708,0.1844434291124344,-0.3389410376548767,0.5903334021568298,-0.1371404528617859,-0.061226826161146164,0.32673379778862
13.325174331665039,0.18749523162841797,-0.3389410376548767,0.5903334021568298,-0.1356145590543747,-0.06237125024199486,0.3286411762237549
13.345223188400269,0.19054703414440155,-0.3389410376548767,0.5903334021568298,-0.1333257108926773,-0.06389715522527695,0.33054855465888977
13.365599632263184,0.19359883666038513,-0.3385595381259918,0.5903334021568298,-0.13179980218410492,-0.06504157930612564,0.33360037207603455
13.385759353637695,0.1962691694498062,-0.3374151289463043,0.5903334021568298,-0.12989242374897003,-0.06580453366041183,0.33550775051116943
13.405879497528076,0.1993209719657898,-0.33665215969085693,0.5903334021568298,-0.12989242374897003,-0.06580453366041183,0.3381780683994293
13.425859212875366,0.20199130475521088,-0.33588922023773193,0.5903334021568298,-0.12912946939468384,-0.06618601083755493,0.3397039771080017
13.445951223373413,0.20428015291690826,-0.33512628078460693,0.5903334021568298,-0.12836651504039764,-0.06656748056411743,0.3412298858165741
13.46598219871521,0.20733195543289185,-0.33474478125572205,0.5903334021568298,-0.12684062123298645,-0.06656748056411743,0.3423742949962616
13.486051321029663,0.20923933386802673,-0.33474478125572205,0.5903334021568298,-0.12607766687870026,-0.06656748056411743,0.344663143157959
13.50623345375061,0.21190966665744781,-0.33474478125572205,0.5903334021568298,-0.12531471252441406,-0.06733043491840363,0.34580758213996887
13.526392936706543,0.2145799994468689,-0.33474478125572205,0.5903334021568298,-0.12455176562070847,-0.06771191209554672,0.34809643030166626
13.546434164047241,0.21648737788200378,-0.33436331152915955,0.5903334021568298,-0.12264438718557358,-0.06885633617639542,0.35114824771881104
13.566457986831665,0.21839475631713867,-0.33360037207603455,0.5903334021568298,-0.12264438718557358,-0.07000076025724411,0.3534370958805084
13.586611032485962,0.22106507420539856,-0.33283740282058716,0.5903334021568298,-0.12226291000843048,-0.07038223743438721,0.3564889132976532
13.606779336929321,0.22335393726825714,-0.33169299364089966,0.5903334021568298,-0.12226291000843048,-0.0711451917886734,0.3576333224773407
13.62682056427002,0.22564278542995453,-0.33054855465888977,0.5903334021568298,-0.12226291000843048,-0.0715266615152359,0.3599221706390381
13.646925926208496,0.22793163359165192,-0.33054855465888977,0.5899519324302673,-0.12111848592758179,-0.0722896158695221,0.3622110188007355
13.667087316513062,0.2302204966545105,-0.32978561520576477,0.5899519324302673,-0.11959258466959,-0.07343403995037079,0.36449989676475525
13.687209367752075,0.23289081454277039,-0.32940414547920227,0.5899519324302673,-0.1188296303153038,-0.07419699430465698,0.36793315410614014
13.707327604293823,0.23556114733219147,-0.32940414547920227,0.5899519324302673,-0.1180666834115982,-0.07572289556264877,0.369840532541275
13.727380514144897,0.23785001039505005,-0.32940414547920227,0.5899519324302673,-0.11577782779932022,-0.07686731964349747,0.3717479109764099
13.747707843780518,0.24090181291103363,-0.32940414547920227,0.5899519324302673,-0.11501488089561462,-0.07801175117492676,0.3744182586669922
13.767816066741943,0.24357213079929352,-0.32940414547920227,0.5899519324302673,-0.11348897218704224,-0.07801175117492676,0.3759441375732422
13.787924528121948,0.2458609938621521,-0.3290226459503174,0.5899519324302673,-0.11310750246047974,-0.07877469807863235,0.37861448526382446
13.80794072151184,0.247768372297287,-0.3286411762237549,0.5899519324302673,-0.11158160120248795,-0.07915617525577545,0.38052186369895935
13.828000545501709,0.2508201599121094,-0.3282597064971924,0.5899519324302673,-0.11120012402534485,-0.08030059933662415,0.38242924213409424
13.84818983078003,0.25387197732925415,-0.3278782367706299,0.5899519324302673,-0.11043716967105865,-0.08106355369091034,0.3858625292778015
13.868284702301025,0.25616082549095154,-0.3271152675151825,0.5899519324302673,-0.10852979123592377,-0.08182650804519653,0.3873884081840515
13.888298511505127,0.2588311731815338,-0.3271152675151825,0.5899519324302673,-0.10662241280078888,-0.08258945494890213,0.3904402256011963
13.908392667770386,0.2618829607963562,-0.32673379778862,0.5899519324302673,-0.10471503436565399,-0.08487831056118011,0.39425498247146606
13.928592205047607,0.2645532786846161,-0.3263523280620575,0.5899519324302673,-0.1039520874619484,-0.08525978773832321,0.39692530035972595
13.948595762252808,0.26722362637519836,-0.3263523280620575,0.5899519324302673,-0.1035706102848053,-0.0864042118191719,0.39883267879486084
13.968862056732178,0.26951247453689575,-0.325970858335495,0.5899519324302673,-0.1031891331076622,-0.086785688996315,0.4015030264854431
13.989030122756958,0.27218279242515564,-0.3255893886089325,0.5899519324302673,-0.1028076633810997,-0.0875486359000206,0.404173344373703
14.009076118469238,0.2740901708602905,-0.3248264193534851,0.5895704627037048,-0.10090028494596481,-0.0879301130771637,0.4064621925354004
14.029133558273315,0.2763790488243103,-0.3248264193534851,0.5895704627037048,-0.09975585341453552,-0.08907453715801239,0.40989547967910767
14.049256086349487,0.2786678969860077,-0.3244449496269226,0.5895704627037048,-0.09899290651082993,-0.08945601433515549,0.41332876682281494
14.06934905052185,0.2809567451477051,-0.3240634799003601,0.5895704627037048,-0.09822995215654373,-0.09098191559314728,0.41599908471107483
14.089418172836304,0.28324559330940247,-0.3236820101737976,0.5895704627037048,-0.09708552807569504,-0.09250781685113907,0.4201953113079071
