liuyurong129/humanoid-gym/humanoid/data/actual_q_20250523-024903.csv
timestamp,joint_1,joint_2,joint_3,joint_4,joint_5,joint_6
9.036064147949219e-05,-0.00019073777366429567,0.0024795911740511656,-0.001716639962978661,0.00019073777366429567,0.00019073777366429567,-0.00019073777366429567
0.020139694213867188,-0.00019073777366429567,0.001716639962978661,-0.001716639962978661,0.00019073777366429567,0.00019073777366429567,-0.00019073777366429567
0.04022669792175293,-0.00019073777366429567,0.001716639962978661,-0.0009536888683214784,0.00019073777366429567,0.00019073777366429567,-0.00019073777366429567
0.06027984619140625,-0.00019073777366429567,0.001716639962978661,-0.0009536888683214784,0.00019073777366429567,0.00019073777366429567,-0.00019073777366429567
0.080352783203125,-0.00019073777366429567,0.0009536888683214784,0.00019073777366429567,0.00019073777366429567,0.00019073777366429567,-0.00019073777366429567
0.10051298141479492,-0.00019073777366429567,-0.000572213320992887,0.0024795911740511656,-0.000572213320992887,0.00019073777366429567,-0.00019073777366429567
0.12053179740905762,-0.00019073777366429567,-0.002861066721379757,0.004386968910694122,-0.0013351644156500697,0.00019073777366429567,-0.00019073777366429567
0.1407921314239502,-0.00019073777366429567,-0.00476844422519207,0.006294346414506435,-0.002861066721379757,0.00019073777366429567,-0.00019073777366429567
0.16088342666625977,0.00019073777366429567,-0.006294346414506435,0.009346150793135166,-0.004005493130534887,-0.00019073777366429567,-0.00019073777366429567
0.18101906776428223,0.0009536888683214784,-0.007057297509163618,0.01201647985726595,-0.00476844422519207,-0.00019073777366429567,-0.00019073777366429567
0.2011575698852539,0.0020981156267225742,-0.0078202486038208,0.01506828423589468,-0.007438773289322853,-0.00019073777366429567,-0.00019073777366429567
0.2214193344116211,0.0024795911740511656,-0.008964675478637218,0.01735713705420494,-0.00858320016413927,-0.00019073777366429567,-0.00019073777366429567
0.2415003776550293,0.0032425422687083483,-0.010490577667951584,0.020027466118335724,-0.010490577667951584,-0.000572213320992887,-0.00019073777366429567
0.2616136074066162,0.0032425422687083483,-0.01201647985726595,0.02231631986796856,-0.01125352829694748,0.00019073777366429567,-0.00019073777366429567
0.28168177604675293,0.0032425422687083483,-0.013160906732082367,0.024223696440458298,-0.011635004542768002,0.000572213320992887,-0.00019073777366429567
0.301713228225708,0.0032425422687083483,-0.01430533267557621,0.02689402550458908,-0.012397955171763897,0.000572213320992887,0.00019073777366429567
0.3217945098876953,0.0036240178160369396,-0.016212711110711098,0.03032730519771576,-0.013923857361078262,0.000572213320992887,0.00019073777366429567
0.3418915271759033,0.004005493130534887,-0.018120087683200836,0.032616160809993744,-0.015449759550392628,-0.00019073777366429567,0.00019073777366429567
0.36199021339416504,0.004005493130534887,-0.01926451548933983,0.03452353551983833,-0.016594186425209045,-0.00019073777366429567,0.00019073777366429567
0.3820173740386963,0.004005493130534887,-0.02079041674733162,0.03681239113211632,-0.018501564860343933,-0.000572213320992887,0.00019073777366429567
0.4020986557006836,0.004386968910694122,-0.02231631986796856,0.040245670825242996,-0.01926451548933983,-0.00019073777366429567,0.00019073777366429567
0.4221785068511963,0.00476844422519207,-0.024223696440458298,0.04291599988937378,-0.020027466118335724,-0.000572213320992887,0.00019073777366429567
0.4422290325164795,0.005149920005351305,-0.026131074875593185,0.04558632895350456,-0.021171892061829567,-0.000572213320992887,0.000572213320992887
0.4622769355773926,0.005531395319849253,-0.028038453310728073,0.048256658017635345,-0.022697795182466507,-0.000572213320992887,0.000572213320992887
0.4823768138885498,0.005531395319849253,-0.029564354568719864,0.05130846053361893,-0.024223696440458298,-0.00019073777366429567,0.000572213320992887
0.5024459362030029,0.006294346414506435,-0.030708782374858856,0.05359731614589691,-0.026131074875593185,-0.00019073777366429567,0.00019073777366429567
0.5225622653961182,0.00667582219466567,-0.03223468363285065,0.05664911866188049,-0.02689402550458908,-0.000572213320992887,0.00019073777366429567
0.542600154876709,0.007438773289322853,-0.03452353551983833,0.05893797054886818,-0.02727550081908703,-0.0013351644156500697,0.000572213320992887
0.5626950263977051,0.007438773289322853,-0.03643091395497322,0.06237125024199486,-0.028038453310728073,-0.0009536888683214784,0.000572213320992887
0.5827999114990234,0.007438773289322853,-0.038719769567251205,0.06542305648326874,-0.029564354568719864,-0.0013351644156500697,0.000572213320992887
0.6028063297271729,0.0078202486038208,-0.0398641936480999,0.06733043491840363,-0.031090257689356804,-0.0009536888683214784,0.000572213320992887
0.6228592395782471,0.008201723918318748,-0.04177157208323479,0.06923781335353851,-0.03299763426184654,-0.001716639962978661,0.000572213320992887
0.643028736114502,0.008964675478637218,-0.04406042397022247,0.07267109304666519,-0.03452353551983833,-0.0020981156267225742,0.000572213320992887
0.6631193161010742,0.009346150793135166,-0.04634927958250046,0.07610437273979187,-0.03604944050312042,-0.002861066721379757,0.000572213320992887
0.6832389831542969,0.009727626107633114,-0.04787518084049225,0.07877469807863235,-0.03757534176111221,-0.0024795911740511656,0.0009536888683214784
0.7032980918884277,0.010109102353453636,-0.04940108209848404,0.08106355369091034,-0.03833829239010811,-0.002861066721379757,0.0009536888683214784
0.7234814167022705,0.010490577667951584,-0.05130846053361893,0.08411535620689392,-0.040245670825242996,-0.0024795911740511656,0.0009536888683214784
0.7436013221740723,0.010490577667951584,-0.05359731614589691,0.0875486359000206,-0.042153049260377884,-0.0024795911740511656,0.0009536888683214784
0.7637739181518555,0.010490577667951584,-0.056267641484737396,0.09060044586658478,-0.04406042397022247,-0.0024795911740511656,0.0013351644156500697
0.7837202548980713,0.010872052982449532,-0.05741206929087639,0.09250781685113907,-0.04558632895350456,-0.002861066721379757,0.0013351644156500697
0.8038620948791504,0.011635004542768002,-0.06008239835500717,0.09632257372140884,-0.04749370738863945,-0.0036240178160369396,0.0013351644156500697
0.8239498138427734,0.01201647985726595,-0.06198977679014206,0.09975585341453552,-0.04901960864663124,-0.004005493130534887,0.001716639962978661
0.8440210819244385,0.012779430486261845,-0.06466010212898254,0.1031891331076622,-0.050164032727479935,-0.004386968910694122,0.001716639962978661
0.8640978336334229,0.012397955171763897,-0.06656748056411743,0.10624094307422638,-0.05245288833975792,-0.00476844422519207,0.0020981156267225742
0.8841660022735596,0.012397955171763897,-0.07000076025724411,0.10891126841306686,-0.053215838968753815,-0.00476844422519207,0.0024795911740511656
0.9042563438415527,0.012779430486261845,-0.07305257022380829,0.11234454810619354,-0.05436026677489281,-0.00476844422519207,0.002861066721379757
0.9243264198303223,0.013542382046580315,-0.07495994865894318,0.11501488089561462,-0.0555046908557415,-0.00476844422519207,0.0032425422687083483
0.9443907737731934,0.013923857361078262,-0.07763027399778366,0.11692225188016891,-0.056267641484737396,-0.005912871100008488,0.0032425422687083483
0.964461088180542,0.014686808921396732,-0.07953765243291855,0.1199740618467331,-0.05741206929087639,-0.006294346414506435,0.0036240178160369396
0.9845457077026367,0.014686808921396732,-0.08220797777175903,0.12302586436271667,-0.05970092490315437,-0.006294346414506435,0.0036240178160369396
1.0046253204345703,0.014686808921396732,-0.08449683338403702,0.12645913660526276,-0.061226826161146164,-0.005912871100008488,0.0036240178160369396
1.0246787071228027,0.01506828423589468,-0.086785688996315,0.12874799966812134,-0.06313420087099075,-0.006294346414506435,0.0036240178160369396
1.0447592735290527,0.01583123579621315,-0.08907453715801239,0.13179980218410492,-0.06427863240242004,-0.00667582219466567,0.004005493130534887
1.0648231506347656,0.016212711110711098,-0.09098191559314728,0.135233074426651,-0.06542305648326874,-0.007057297509163618,0.004005493130534887
1.0849156379699707,0.016975661739706993,-0.09327077120542526,0.13790340721607208,-0.06733043491840363,-0.007438773289322853,0.004005493130534887
1.1050033569335938,0.01773861236870289,-0.09670405089855194,0.14286258816719055,-0.07000076025724411,-0.007438773289322853,0.004386968910694122
1.1250941753387451,0.018501564860343933,-0.10090028494596481,0.14744029939174652,-0.0715266615152359,-0.007057297509163618,0.004005493130534887
1.1451492309570312,0.01888304017484188,-0.1039520874619484,0.1508735716342926,-0.07267109304666519,-0.007057297509163618,0.004386968910694122
1.1652207374572754,0.01888304017484188,-0.10700388997793198,0.15468832850456238,-0.07457847148180008,-0.00667582219466567,0.00476844422519207
1.1853291988372803,0.01888304017484188,-0.10967422276735306,0.15926603972911835,-0.07686731964349747,-0.007057297509163618,0.00476844422519207
1.205385446548462,0.01926451548933983,-0.11348897218704224,0.16346226632595062,-0.07915617525577545,-0.007057297509163618,0.00476844422519207
1.2254359722137451,0.019645990803837776,-0.11615930497646332,0.1665140837430954,-0.08030059933662415,-0.008201723918318748,0.00476844422519207
1.2455153465270996,0.020027466118335724,-0.1192111074924469,0.17109178006649017,-0.08220797777175903,-0.008964675478637218,0.005149920005351305
1.2655763626098633,0.020027466118335724,-0.12226291000843048,0.17566949129104614,-0.08449683338403702,-0.008964675478637218,0.005531395319849253
1.285661220550537,0.02040894143283367,-0.12493324279785156,0.17833982408046722,-0.0871671661734581,-0.009346150793135166,0.006294346414506435
1.3058850765228271,0.02079041674733162,-0.12798504531383514,0.182154580950737,-0.08945601433515549,-0.009346150793135166,0.007057297509163618
1.3260602951049805,0.021171892061829567,-0.13141833245754242,0.18711376190185547,-0.09098191559314728,-0.009346150793135166,0.007438773289322853
1.3460845947265625,0.021553369238972664,-0.1363775134086609,0.19169145822525024,-0.09288929402828217,-0.008964675478637218,0.0078202486038208
1.36613130569458,0.02193484455347061,-0.13942931592464447,0.19512474536895752,-0.09441519528627396,-0.009346150793135166,0.0078202486038208
1.3862714767456055,0.022697795182466507,-0.14324407279491425,0.1993209719657898,-0.09632257372140884,-0.009727626107633114,0.0078202486038208
1.4063327312469482,0.023079270496964455,-0.14705882966518402,0.20389868319034576,-0.09822995215654373,-0.010490577667951584,0.0078202486038208
1.4264380931854248,0.023460745811462402,-0.1501106321811676,0.20771344006061554,-0.09937438368797302,-0.010490577667951584,0.008201723918318748
1.4465765953063965,0.023460745811462402,-0.15354390442371368,0.21114671230316162,-0.10128175467252731,-0.010490577667951584,0.00858320016413927
1.4667448997497559,0.024223696440458298,-0.15735866129398346,0.21686884760856628,-0.1028076633810997,-0.010872052982449532,0.00858320016413927
1.4868643283843994,0.024986648932099342,-0.16079194843769073,0.22220951318740845,-0.10471503436565399,-0.01125352829694748,0.008964675478637218
1.5070371627807617,0.024986648932099342,-0.1646067053079605,0.22678720951080322,-0.10814831405878067,-0.01125352829694748,0.009346150793135166
1.5270359516143799,0.024986648932099342,-0.1680399775505066,0.2317463904619217,-0.10967422276735306,-0.010872052982449532,0.009346150793135166
1.5471477508544922,0.02536812424659729,-0.17223620414733887,0.23708705604076385,-0.11272602528333664,-0.010872052982449532,0.010109102353453636
1.5671944618225098,0.02536812424659729,-0.17566949129104614,0.24242770671844482,-0.11463340371847153,-0.010872052982449532,0.010490577667951584
1.587294340133667,0.026131074875593185,-0.1806286722421646,0.2462424635887146,-0.11615930497646332,-0.01201647985726595,0.01125352829694748
1.6073577404022217,0.026512550190091133,-0.18596932291984558,0.25120165944099426,-0.11768520623445511,-0.013160906732082367,0.011635004542768002
1.6274828910827637,0.02689402550458908,-0.19054703414440155,0.25577935576438904,-0.1199740618467331,-0.013923857361078262,0.01201647985726595
1.6476335525512695,0.02727550081908703,-0.19436179101467133,0.2607385218143463,-0.12226291000843048,-0.013923857361078262,0.01201647985726595
1.6676952838897705,0.02727550081908703,-0.1977950781583786,0.2645532786846161,-0.12378881871700287,-0.013923857361078262,0.01201647985726595
1.6877450942993164,0.02727550081908703,-0.20237277448177338,0.26874953508377075,-0.12531471252441406,-0.01430533267557621,0.012397955171763897
1.7078425884246826,0.028038453310728073,-0.20733195543289185,0.2740901708602905,-0.12760357558727264,-0.01430533267557621,0.012779430486261845
1.7278897762298584,0.02880140393972397,-0.21152819693088531,0.2782863974571228,-0.12989242374897003,-0.01506828423589468,0.013160906732082367
1.7479562759399414,0.029564354568719864,-0.21686884760856628,0.2817196846008301,-0.1325627565383911,-0.01506828423589468,0.014686808921396732
1.7680747509002686,0.029564354568719864,-0.22068360447883606,0.28477150201797485,-0.1348516047000885,-0.01506828423589468,0.015449759550392628
1.788271188735962,0.03032730519771576,-0.22487983107566833,0.290112167596817,-0.1367589831352234,-0.014686808921396732,0.015449759550392628
1.8083298206329346,0.030708782374858856,-0.2309834510087967,0.2939268946647644,-0.13942931592464447,-0.01506828423589468,0.015449759550392628
1.828387975692749,0.031090257689356804,-0.23517967760562897,0.29812315106391907,-0.14171816408634186,-0.015449759550392628,0.01583123579621315
1.848487377166748,0.03147173300385475,-0.23975738883018494,0.30231937766075134,-0.14324407279491425,-0.015449759550392628,0.01583123579621315
1.8686103820800781,0.03147173300385475,-0.2439536154270172,0.3076600432395935,-0.14515145123004913,-0.015449759550392628,0.016212711110711098
1.8887460231781006,0.03185320645570755,-0.2473868876695633,0.3118562698364258,-0.14705882966518402,-0.015449759550392628,0.016212711110711098
1.9087631702423096,0.03223468363285065,-0.25120165944099426,0.31643396615982056,-0.1497291475534439,-0.01583123579621315,0.016975661739706993
1.928941249847412,0.032616160809993744,-0.25577935576438904,0.3221561014652252,-0.1512550562620163,-0.016594186425209045,0.01735713705420494
1.948937177658081,0.03299763426184654,-0.2615014910697937,0.3290226459503174,-0.15392538905143738,-0.016975661739706993,0.01888304017484188
1.969050407409668,0.03337911143898964,-0.2660791873931885,0.33398184180259705,-0.15659570693969727,-0.018120087683200836,0.01926451548933983
1.9890825748443604,0.03337911143898964,-0.27027541399002075,0.3389410376548767,-0.15850308537483215,-0.018120087683200836,0.01926451548933983
2.0091960430145264,0.03337911143898964,-0.2752346098423004,0.344663143157959,-0.16041046380996704,-0.01888304017484188,0.019645990803837776
2.0293614864349365,0.03376058489084244,-0.2805752754211426,0.35038527846336365,-0.16193637251853943,-0.01926451548933983,0.019645990803837776
2.049452543258667,0.034142062067985535,-0.28515297174453735,0.3549630045890808,-0.1657511293888092,-0.019645990803837776,0.02040894143283367
2.0695223808288574,0.03490501269698143,-0.290112167596817,0.3603036403656006,-0.16918440163135529,-0.02079041674733162,0.02040894143283367
2.089634418487549,0.035667963325977325,-0.2969787120819092,0.36717021465301514,-0.17223620414733887,-0.021553369238972664,0.02079041674733162
2.109689712524414,0.03643091395497322,-0.30384528636932373,0.3755626678466797,-0.17528800666332245,-0.021553369238972664,0.02231631986796856
2.1297500133514404,0.03681239113211632,-0.3103303611278534,0.38166627287864685,-0.17719538509845734,-0.02193484455347061,0.022697795182466507
2.1498241424560547,0.037193864583969116,-0.31605249643325806,0.3889143168926239,-0.17986571788787842,-0.02193484455347061,0.023079270496964455
2.1699225902557373,0.03757534176111221,-0.3229190409183502,0.39806973934173584,-0.182917520403862,-0.02193484455347061,0.023079270496964455
2.1899755001068115,0.03757534176111221,-0.32940414547920227,0.404936283826828,-0.1848248988389969,-0.02231631986796856,0.023460745811462402
2.2100837230682373,0.03757534176111221,-0.33550775051116943,0.41142138838768005,-0.18787670135498047,-0.022697795182466507,0.023460745811462402
2.2307980060577393,0.03795681521296501,-0.3416113555431366,0.4194323718547821,-0.19130998849868774,-0.023079270496964455,0.024223696440458298
2.250899314880371,0.03795681521296501,-0.34809643030166626,0.42782482504844666,-0.19398032128810883,-0.024223696440458298,0.024605173617601395
2.2709603309631348,0.038719769567251205,-0.3542000353336334,0.4346913993358612,-0.1958876997232437,-0.024986648932099342,0.025749599561095238
2.291080951690674,0.0394827201962471,-0.3591592311859131,0.4404135048389435,-0.1985580176115036,-0.025749599561095238,0.02689402550458908
2.3111343383789062,0.0398641936480999,-0.36411839723587036,0.44804301857948303,-0.20160982012748718,-0.026512550190091133,0.02689402550458908
2.331299066543579,0.0398641936480999,-0.3709849715232849,0.4545281231403351,-0.20428015291690826,-0.026512550190091133,0.02689402550458908
2.351285219192505,0.0398641936480999,-0.37823301553726196,0.46215763688087463,-0.20695048570632935,-0.026512550190091133,0.02689402550458908
2.371464967727661,0.040627144277095795,-0.3854810297489166,0.4671168029308319,-0.21000228822231293,-0.02689402550458908,0.02727550081908703
2.391498327255249,0.04100862145423889,-0.3931105434894562,0.4716945290565491,-0.21190966665744781,-0.02727550081908703,0.02727550081908703
2.4116017818450928,0.04100862145423889,-0.4003585875034332,0.47703516483306885,-0.2141985148191452,-0.027656977996230125,0.028038453310728073
2.4317054748535156,0.04139009863138199,-0.4076066315174103,0.4835202693939209,-0.21763180196285248,-0.028038453310728073,0.02841992862522602
2.4517924785614014,0.04177157208323479,-0.41409170627593994,0.4888609051704407,-0.22030213475227356,-0.02880140393972397,0.029182879254221916
2.4718899726867676,0.04177157208323479,-0.4217212200164795,0.49420157074928284,-0.22259098291397095,-0.029182879254221916,0.029564354568719864
2.492103099822998,0.04177157208323479,-0.42896926403045654,0.5006866455078125,-0.22526131570339203,-0.02994582988321781,0.03032730519771576
2.512185573577881,0.04177157208323479,-0.4362172782421112,0.5094605684280396,-0.2283131182193756,-0.02994582988321781,0.03032730519771576
2.5322682857513428,0.042153049260377884,-0.44346532225608826,0.5159456729888916,-0.230601966381073,-0.02994582988321781,0.030708782374858856
2.5523324012756348,0.04253452271223068,-0.4499503970146179,0.5247195959091187,-0.23365376889705658,-0.030708782374858856,0.031090257689356804
2.5723793506622314,0.04329747334122658,-0.45834288001060486,0.5327305793762207,-0.23708705604076385,-0.03223468363285065,0.03147173300385475
2.5924856662750244,0.043678950518369675,-0.4671168029308319,0.543411910533905,-0.24013885855674744,-0.03299763426184654,0.03185320645570755
2.612591505050659,0.04406042397022247,-0.47512778639793396,0.5521858334541321,-0.2450980395078659,-0.03337911143898964,0.03337911143898964
2.6326615810394287,0.04406042397022247,-0.4835202693939209,0.5601968169212341,-0.24929426610469818,-0.03376058489084244,0.034142062067985535
2.65295672416687,0.04406042397022247,-0.49343863129615784,0.569733738899231,-0.25310903787612915,-0.03376058489084244,0.03452353551983833
2.673032283782959,0.04406042397022247,-0.5045014023780823,0.5811780095100403,-0.2580682039260864,-0.03452353551983833,0.03490501269698143
2.693129301071167,0.04482337832450867,-0.5140383243560791,0.5903334021568298,-0.2630273997783661,-0.035667963325977325,0.035667963325977325
2.7133679389953613,0.04596780240535736,-0.5239566564559937,0.6002517938613892,-0.26684215664863586,-0.03681239113211632,0.037193864583969116
2.7334554195404053,0.04634927958250046,-0.5342565178871155,0.6116960644721985,-0.27180132269859314,-0.037193864583969116,0.03795681521296501
2.7535696029663086,0.046730753034353256,-0.5453193187713623,0.6227588057518005,-0.2756160795688629,-0.037193864583969116,0.03833829239010811
2.773632526397705,0.046730753034353256,-0.5563820600509644,0.6330586671829224,-0.2801937758922577,-0.03757534176111221,0.038719769567251205
2.7936973571777344,0.04711223021149635,-0.5682078003883362,0.6456473469734192,-0.28400853276252747,-0.03757534176111221,0.0398641936480999
2.8137640953063965,0.04711223021149635,-0.5796520709991455,0.6578545570373535,-0.28782328963279724,-0.03757534176111221,0.04139009863138199
2.8338515758514404,0.04711223021149635,-0.5899519324302673,0.6681544184684753,-0.290112167596817,-0.03757534176111221,0.04177157208323479
2.8538870811462402,0.04787518084049225,-0.6021591424942017,0.6792172193527222,-0.2946898639202118,-0.038719769567251205,0.04253452271223068
2.874018430709839,0.04787518084049225,-0.615129292011261,0.6914244294166565,-0.29964902997016907,-0.042153049260377884,0.04406042397022247
2.894040584564209,0.04787518084049225,-0.6265735626220703,0.7032501697540283,-0.30460822582244873,-0.04253452271223068,0.04482337832450867
2.914109230041504,0.04787518084049225,-0.6380178332328796,0.7143129706382751,-0.3103303611278534,-0.04253452271223068,0.04558632895350456
2.934178352355957,0.04787518084049225,-0.650225043296814,0.7257572412490845,-0.31605249643325806,-0.04444190114736557,0.04634927958250046
2.954275369644165,0.04787518084049225,-0.6635767221450806,0.7387273907661438,-0.31948578357696533,-0.04482337832450867,0.04634927958250046
2.974332332611084,0.048256658017635345,-0.6754024624824524,0.7516975402832031,-0.3236820101737976,-0.04444190114736557,0.04711223021149635
2.9943995475769043,0.04787518084049225,-0.6879911422729492,0.763523280620575,-0.32673379778862,-0.04444190114736557,0.04901960864663124
3.014518976211548,0.048256658017635345,-0.700579822063446,0.777256429195404,-0.33093002438545227,-0.04482337832450867,0.04940108209848404
3.0346062183380127,0.048256658017635345,-0.7135500311851501,0.7909895181655884,-0.33512628078460693,-0.045204851776361465,0.050164032727479935
3.0546987056732178,0.04901960864663124,-0.7265201807022095,0.804341197013855,-0.3397039771080017,-0.048638131469488144,0.051689937710762024
3.0747363567352295,0.04901960864663124,-0.7391088604927063,0.8165484070777893,-0.3435187339782715,-0.049782559275627136,0.05283436179161072
3.0948944091796875,0.04901960864663124,-0.7532234787940979,0.8314259648323059,-0.34962233901023865,-0.05054550990462303,0.05359731614589691
3.1149814128875732,0.04901960864663124,-0.7669565677642822,0.8447775840759277,-0.3553444743156433,-0.05207141116261482,0.05436026677489281
3.135079860687256,0.04901960864663124,-0.7799267768859863,0.8588922023773193,-0.3603036403656006,-0.05207141116261482,0.0551232174038887
3.1551222801208496,0.04901960864663124,-0.7936598658561707,0.8710994124412537,-0.36526283621788025,-0.054741740226745605,0.05664911866188049
3.1752099990844727,0.04901960864663124,-0.8073930144309998,0.8863584399223328,-0.3694590628147125,-0.05397878959774971,0.05703059583902359
3.195345163345337,0.04940108209848404,-0.8215075731277466,0.9016174674034119,-0.3747997283935547,-0.05741206929087639,0.058175019919872284
3.215400457382202,0.050164032727479935,-0.8360036611557007,0.9142061471939087,-0.37975889444351196,-0.05855649709701538,0.06008239835500717
3.235414505004883,0.050164032727479935,-0.8527885675430298,0.9306095838546753,-0.3866254687309265,-0.05893797054886818,0.06084534898400307
3.2556567192077637,0.050164032727479935,-0.8680475950241089,0.9458686113357544,-0.3931105434894562,-0.059319447726011276,0.06275273114442825
3.2756552696228027,0.050164032727479935,-0.883306622505188,0.9611276388168335,-0.39806973934173584,-0.058175019919872284,0.06389715522527695
3.2957658767700195,0.050164032727479935,-0.8989471197128296,0.9752422571182251,-0.4037918746471405,-0.05970092490315437,0.06504157930612564
3.3157761096954346,0.050164032727479935,-0.9149690866470337,0.9927901029586792,-0.40989547967910767,-0.059319447726011276,0.06733043491840363
3.3358616828918457,0.05054550990462303,-0.9328984618186951,1.0118639469146729,-0.41676202416419983,-0.05970092490315437,0.06809338182210922
3.3559224605560303,0.05054550990462303,-0.9496833682060242,1.0297932624816895,-0.4224841594696045,-0.06237125024199486,0.06885633617639542
3.376037120819092,0.05092698708176613,-0.9664682745933533,1.046196699142456,-0.42744335532188416,-0.06275273114442825,0.0707637146115303
3.396061658859253,0.05092698708176613,-0.9828717708587646,1.0641260147094727,-0.4343098998069763,-0.06466010212898254,0.07267109304666519
3.416149854660034,0.05092698708176613,-1.0011825561523438,1.0843442678451538,-0.4404135048389435,-0.06618601083755493,0.07534141838550568
3.436216115951538,0.05130846053361893,-1.0179674625396729,1.1022735834121704,-0.44613564014434814,-0.06656748056411743,0.07610437273979187
3.4562573432922363,0.05092698708176613,-1.0362783670425415,1.120965838432312,-0.4518577754497528,-0.06847485899925232,0.07953765243291855
3.476346492767334,0.05092698708176613,-1.0545891523361206,1.1396582126617432,-0.45834288001060486,-0.06961929053068161,0.08068207651376724
3.4964098930358887,0.05130846053361893,-1.0717555284500122,1.1575875282287598,-0.4648279547691345,-0.07381551712751389,0.08297093212604523
3.5164732933044434,0.05092698708176613,-1.0889219045639038,1.1743724346160889,-0.4728389382362366,-0.07839322835206985,0.08449683338403702
3.5365347862243652,0.05054550990462303,-1.107614278793335,1.1934462785720825,-0.4808499217033386,-0.07991912961006165,0.086785688996315
3.556689739227295,0.05092698708176613,-1.1263065338134766,1.2129014730453491,-0.4884794354438782,-0.08220797777175903,0.0879301130771637
3.576812982559204,0.05092698708176613,-1.1423285007476807,1.2308309078216553,-0.4972533881664276,-0.08297093212604523,0.09021896868944168
3.5967938899993896,0.05092698708176613,-1.1583504676818848,1.2468528747558594,-0.5071717500686646,-0.08869306743144989,0.09212634712457657
3.616879463195801,0.05092698708176613,-1.1747539043426514,1.264782190322876,-0.5155642032623291,-0.09060044586658478,0.09479667246341705
3.63693904876709,0.05130846053361893,-1.1907758712768555,1.283092975616455,-0.5254825949668884,-0.09212634712457657,0.09708552807569504
3.657043218612671,0.05130846053361893,-1.2067978382110596,1.2994964122772217,-0.536163866519928,-0.09746700525283813,0.09937438368797302
3.6771087646484375,0.05054550990462303,-1.2235828638076782,1.3158998489379883,-0.5460822582244873,-0.1024261862039566,0.1024261862039566
3.697298765182495,0.051689937710762024,-1.2403677701950073,1.3330663442611694,-0.5560005903244019,-0.10585946589708328,0.10547798871994019
3.717411518096924,0.051689937710762024,-1.2563897371292114,1.3490883111953735,-0.5655375123023987,-0.10967422276735306,0.10776684433221817
3.737518072128296,0.051689937710762024,-1.269741415977478,1.3616769313812256,-0.5746929049491882,-0.11234454810619354,0.11005569249391556
3.7575087547302246,0.05130846053361893,-1.283092975616455,1.3735027313232422,-0.5846112966537476,-0.11615930497646332,0.11425192654132843
3.7776918411254883,0.05092698708176613,-1.2960631847381592,1.3853284120559692,-0.5964370369911194,-0.11654078215360641,0.11768520623445511
3.7978012561798096,0.05092698708176613,-1.3075073957443237,1.3948653936386108,-0.6071183085441589,-0.11959258466959,0.12111848592758179
3.817763328552246,0.05092698708176613,-1.3170443773269653,1.4024949073791504,-0.620851457118988,-0.12455176562070847,0.12645913660526276
3.8378350734710693,0.05092698708176613,-1.3265812397003174,1.409742832183838,-0.6330586671829224,-0.12912946939468384,0.13103684782981873
3.8579583168029785,0.05092698708176613,-1.3353551626205444,1.4150835275650024,-0.6483176946640015,-0.134470134973526,0.1363775134086609
3.8780813217163086,0.05092698708176613,-1.3410773277282715,1.418135404586792,-0.6647211313247681,-0.13790340721607208,0.14171816408634186
3.898085355758667,0.05092698708176613,-1.344510555267334,1.4192798137664795,-0.6811245679855347,-0.14095520973205566,0.14705882966518402
3.9182233810424805,0.05092698708176613,-1.347562313079834,1.4192798137664795,-0.7013428211212158,-0.14629587531089783,0.15468832850456238
3.9382755756378174,0.05092698708176613,-1.349469780921936,1.418898344039917,-0.7227054238319397,-0.1497291475534439,0.16346226632595062
3.958355665206909,0.05092698708176613,-1.350995659828186,1.418898344039917,-0.7455939650535583,-0.15392538905143738,0.17261768877506256
3.9785232543945312,0.05092698708176613,-1.351758599281311,1.4185168743133545,-0.7711527943611145,-0.16041046380996704,0.182917520403862
3.9986133575439453,0.05207141116261482,-1.3529030084609985,1.4173723459243774,-0.7990005612373352,-0.1676585078239441,0.19283588230609894
4.018681287765503,0.053215838968753815,-1.354047417640686,1.4158464670181274,-0.8318074345588684,-0.17452506721019745,0.20695048570632935
4.0387794971466064,0.05397878959774971,-1.354810357093811,1.413939118385315,-0.8646143078804016,-0.1840619444847107,0.22144655883312225
4.059215307235718,0.0555046908557415,-1.354810357093811,1.410887360572815,-0.8951323628425598,-0.19283588230609894,0.23708705604076385
4.079313516616821,0.056267641484737396,-1.354810357093811,1.406691074371338,-0.9275577664375305,-0.1993209719657898,0.25463491678237915
4.099469184875488,0.05703059583902359,-1.3544288873672485,1.4017318487167358,-0.9630350470542908,-0.20466163754463196,0.273708701133728
4.119553327560425,0.057793546468019485,-1.3536659479141235,1.3979171514511108,-0.996604859828949,-0.20809490978717804,0.2939268946647644
4.139589309692383,0.058175019919872284,-1.3521400690078735,1.3929579257965088,-1.030937671661377,-0.21152819693088531,0.31605249643325806
4.159719705581665,0.058175019919872284,-1.3483253717422485,1.3864728212356567,-1.0664149522781372,-0.2153429538011551,0.3381780683994293
4.17980170249939,0.05893797054886818,-1.3441290855407715,1.3788433074951172,-1.102655053138733,-0.21915769577026367,0.3606851398944855
4.19987678527832,0.059319447726011276,-1.339932918548584,1.3719768524169922,-1.1327916383743286,-0.22487983107566833,0.38319218158721924
4.219968795776367,0.059319447726011276,-1.336499571800232,1.3639658689498901,-1.1682689189910889,-0.2302204966545105,0.4076066315174103
4.240031003952026,0.05970092490315437,-1.3307774066925049,1.3551918268203735,-1.201075792312622,-0.23785001039505005,0.43163958191871643
4.260115146636963,0.06008239835500717,-1.3246738910675049,1.346036434173584,-1.2304493188858032,-0.24204623699188232,0.4549095928668976
4.280267000198364,0.06008239835500717,-1.3200961351394653,1.338788390159607,-1.2636377811431885,-0.24280919134616852,0.47741663455963135
4.300363063812256,0.06008239835500717,-1.3136110305786133,1.3292515277862549,-1.2914854288101196,-0.2466239482164383,0.50030517578125
4.320482015609741,0.06008239835500717,-1.3052185773849487,1.3181887865066528,-1.3246738910675049,-0.247768372297287,0.5254825949668884
4.34055233001709,0.06008239835500717,-1.2983520030975342,1.3078888654708862,-1.353284478187561,-0.2500572204589844,0.5491340756416321
4.36063551902771,0.06008239835500717,-1.2911039590835571,1.2991149425506592,-1.3811322450637817,-0.25501641631126404,0.5727855563163757
4.380755424499512,0.06046387553215027,-1.2850003242492676,1.2884336709976196,-1.408216953277588,-0.2569237947463989,0.5956740379333496
4.400821685791016,0.06008239835500717,-1.276607871055603,1.2769893407821655,-1.435683250427246,-0.266460657119751,0.6181811094284058
4.4208643436431885,0.06008239835500717,-1.271267294883728,1.269359827041626,-1.4604791402816772,-0.26913100481033325,0.6383993029594421
4.440986156463623,0.06008239835500717,-1.2621119022369385,1.257534146308899,-1.4887083768844604,-0.2744716703891754,0.6612878441810608
4.461026191711426,0.06008239835500717,-1.2541009187698364,1.2441824674606323,-1.513885736465454,-0.2798123061656952,0.6822690367698669
4.481111526489258,0.059319447726011276,-1.2449454069137573,1.2319753170013428,-1.5371557474136353,-0.28362706303596497,0.7021057605743408
4.5011820793151855,0.05893797054886818,-1.2384604215621948,1.2239643335342407,-1.5573738813400269,-0.28362706303596497,0.7215610146522522
4.521280288696289,0.05893797054886818,-1.2312123775482178,1.2121385335922241,-1.5829328298568726,-0.28667888045310974,0.7413977384567261
4.54131817817688,0.05893797054886818,-1.2224383354187012,1.2006943225860596,-1.6054397821426392,-0.28706035017967224,0.7597085237503052
4.561414003372192,0.05855649709701538,-1.2140458822250366,1.1900129318237305,-1.6229877471923828,-0.28744181990623474,0.775730550289154
4.581570386886597,0.058175019919872284,-1.2067978382110596,1.179331660270691,-1.644731879234314,-0.2927824854850769,0.7936598658561707
4.601691246032715,0.058175019919872284,-1.1980239152908325,1.1697947978973389,-1.6691462993621826,-0.2927824854850769,0.8100633025169373
4.621735095977783,0.057793546468019485,-1.190394401550293,1.1568245887756348,-1.6859312057495117,-0.29926756024360657,0.8241779208183289
4.641917943954468,0.057793546468019485,-1.182383418083191,1.1476691961288452,-1.7030975818634033,-0.30155640840530396,0.8398184180259705
4.662132263183594,0.057793546468019485,-1.1751353740692139,1.1385138034820557,-1.71797513961792,-0.30193790793418884,0.8535515666007996
4.6822190284729,0.05703059583902359,-1.1659799814224243,1.1285953521728516,-1.7336156368255615,-0.30498969554901123,0.8680475950241089
4.702302694320679,0.05703059583902359,-1.1594948768615723,1.1198214292526245,-1.7500190734863281,-0.30231937766075134,0.881017804145813
4.722392559051514,0.05703059583902359,-1.1514838933944702,1.1102845668792725,-1.7629892826080322,-0.309567391872406,0.8939879536628723
4.742662668228149,0.05703059583902359,-1.1438543796539307,1.101892113685608,-1.7782483100891113,-0.3126192092895508,0.9065766334533691
4.762753009796143,0.05703059583902359,-1.1366063356399536,1.0919737815856934,-1.793125867843628,-0.31414511799812317,0.9187838435173035
4.782834053039551,0.05703059583902359,-1.1285953521728516,1.0831998586654663,-1.80571448802948,-0.31910428404808044,0.9302281141281128
4.802873373031616,0.05703059583902359,-1.121347427368164,1.0748074054718018,-1.819447636604309,-0.32063019275665283,0.9409094452857971
4.823405504226685,0.05703059583902359,-1.114862322807312,1.0656518936157227,-1.8305103778839111,-0.3236820101737976,0.9508277773857117
4.843657732009888,0.05703059583902359,-1.107614278793335,1.0584038496017456,-1.8423361778259277,-0.3217746317386627,0.961509108543396
4.863659143447876,0.05703059583902359,-1.1007477045059204,1.0488669872283936,-1.8526359796524048,-0.3225375711917877,0.970283031463623
4.883744239807129,0.05703059583902359,-1.0942625999450684,1.041237473487854,-1.8625543117523193,-0.3233005404472351,0.9790570139884949
4.903807163238525,0.05703059583902359,-1.0870145559310913,1.034752368927002,-1.8724727630615234,-0.3248264193534851,0.9878309369087219
4.923857927322388,0.05703059583902359,-1.0809109210968018,1.0271228551864624,-1.8820096254348755,-0.325970858335495,0.9962233901023865
4.943915367126465,0.05703059583902359,-1.0740443468093872,1.0202564001083374,-1.8907835483551025,-0.3271152675151825,1.0042344331741333
4.96398138999939,0.05703059583902359,-1.0683223009109497,1.0133898258209229,-1.8995574712753296,-0.32978561520576477,1.0114823579788208
4.98406720161438,0.05703059583902359,-1.0626001358032227,1.0072861909866333,-1.9079499244689941,-0.33131152391433716,1.0191118717193604
5.004156112670898,0.05703059583902359,-1.056496500968933,1.0004196166992188,-1.9155794382095337,-0.33512628078460693,1.02521550655365
5.024234771728516,0.05703059583902359,-1.0503928661346436,0.9935530424118042,-1.9232089519500732,-0.3393225073814392,1.030937671661377
5.044328212738037,0.05741206929087639,-1.0450522899627686,0.9870679974555969,-1.9308384656906128,-0.3408484160900116,1.0378042459487915
5.064399480819702,0.05741206929087639,-1.0378042459487915,0.9802014231681824,-1.9380865097045898,-0.3419928252696991,1.043907880783081
5.084449768066406,0.058175019919872284,-1.032463550567627,0.9744792580604553,-1.944571614265442,-0.3408484160900116,1.049248456954956
5.10450291633606,0.058175019919872284,-1.0271228551864624,0.967231273651123,-1.9499123096466064,-0.3427557647228241,1.054207682609558
5.1246018409729,0.058175019919872284,-1.0210193395614624,0.961509108543396,-1.9571603536605835,-0.3423742949962616,1.0595483779907227
5.144705295562744,0.058175019919872284,-1.0164415836334229,0.9565499424934387,-1.963645339012146,-0.3416113555431366,1.0645074844360352
5.164742708206177,0.05855649709701538,-1.0114823579788208,0.951209306716919,-1.967841625213623,-0.343900203704834,1.0683223009109497
5.184793472290039,0.05893797054886818,-1.0069047212600708,0.9470130205154419,-1.971656322479248,-0.34542611241340637,1.0740443468093872
5.204880237579346,0.059319447726011276,-1.0011825561523438,0.9409094452857971,-1.9762340784072876,-0.34504464268684387,1.0786221027374268
5.2250447273254395,0.059319447726011276,-0.9954604506492615,0.9351872801780701,-1.980430245399475,-0.34657052159309387,1.0824369192123413
5.245044946670532,0.059319447726011276,-0.9905012845993042,0.9298466444015503,-1.9865338802337646,-0.34809643030166626,1.0854886770248413
5.265153169631958,0.059319447726011276,-0.9870679974555969,0.926413357257843,-1.9911116361618042,-0.34847790002822876,1.0896848440170288
5.285215377807617,0.05970092490315437,-0.9832532405853271,0.9229800701141357,-1.9941633939743042,-0.34924086928367615,1.0931181907653809
5.305304527282715,0.06008239835500717,-0.9794384837150574,0.918402373790741,-1.9972152709960938,-0.35152971744537354,1.0957884788513184
5.3252973556518555,0.06008239835500717,-0.9752422571182251,0.9153505563735962,-2.0025558471679688,-0.34733349084854126,1.1007477045059204
5.34539270401001,0.06008239835500717,-0.9714275002479553,0.9111543297767639,-2.0056076049804688,-0.35000380873680115,1.101892113685608
5.365477561950684,0.06008239835500717,-0.967231273651123,0.9073395729064941,-2.0090410709381104,-0.35076677799224854,1.104180932044983
5.385526418685913,0.06008239835500717,-0.9634165167808533,0.9039062857627869,-2.012474298477173,-0.35038527846336365,1.106088399887085
5.405597448348999,0.06008239835500717,-0.959983229637146,0.9008545279502869,-2.0143816471099854,-0.35114824771881104,1.10837721824646
5.4257707595825195,0.06008239835500717,-0.9561684727668762,0.8962767720222473,-2.017051935195923,-0.35152971744537354,1.11142897605896
5.445729494094849,0.06008239835500717,-0.9531166553497314,0.8939879536628723,-2.0189592838287354,-0.35038527846336365,1.11295485496521
5.46588397026062,0.06008239835500717,-0.9504463076591492,0.8916990756988525,-2.0204851627349854,-0.3530556261539459,1.1152437925338745
5.486086845397949,0.06008239835500717,-0.9481574892997742,0.88979172706604,-2.0243000984191895,-0.35152971744537354,1.117914080619812
5.50621223449707,0.06008239835500717,-0.9462500810623169,0.8875028491020203,-2.025444507598877,-0.3526741564273834,1.1190584897994995
5.526163578033447,0.06008239835500717,-0.9443427324295044,0.8855955004692078,-2.0281147956848145,-0.35152971744537354,1.120965838432312
5.546414375305176,0.06008239835500717,-0.9420538544654846,0.8836880922317505,-2.030022144317627,-0.35152971744537354,1.1224918365478516
5.566500902175903,0.06008239835500717,-0.9397650361061096,0.881780743598938,-2.031548023223877,-0.35152971744537354,1.122873306274414
5.586542129516602,0.06008239835500717,-0.9374761581420898,0.8798733353614807,-2.032310962677002,-0.35191118717193604,1.123636245727539
5.606594800949097,0.06008239835500717,-0.9355688095092773,0.8791103959083557,-2.033836841583252,-0.35152971744537354,1.125162124633789
5.6266930103302,0.06008239835500717,-0.9344243407249451,0.8772030472755432,-2.034599781036377,-0.3542000353336334,1.125925064086914
5.64678168296814,0.06008239835500717,-0.9328984618186951,0.8760585784912109,-2.034599781036377,-0.3553444743156433,1.126688003540039
5.666814088821411,0.06008239835500717,-0.9313725233078003,0.8745326995849609,-2.0349812507629395,-0.3557259440422058,1.126688003540039
5.687106132507324,0.06008239835500717,-0.9302281141281128,0.8733882904052734,-2.035362720489502,-0.3553444743156433,1.1270694732666016
5.7072038650512695,0.06046387553215027,-0.9287022352218628,0.8722438216209412,-2.0365071296691895,-0.3545815348625183,1.127450942993164
5.727355241775513,0.06046387553215027,-0.9283207654953003,0.8714808821678162,-2.038414478302002,-0.3549630045890808,1.1278324127197266
5.747379302978516,0.06046387553215027,-0.927176296710968,0.8699550032615662,-2.038414478302002,-0.3553444743156433,1.128213882446289
5.767629623413086,0.06046387553215027,-0.9252689480781555,0.8680475950241089,-2.038414478302002,-0.3553444743156433,1.1297398805618286
5.787736892700195,0.06046387553215027,-0.924124538898468,0.8665217161178589,-2.038414478302002,-0.3553444743156433,1.1301213502883911
5.807841777801514,0.06046387553215027,-0.9225986003875732,0.8661402463912964,-2.0395591259002686,-0.3538185656070709,1.1305028200149536
5.827885866165161,0.06084534898400307,-0.9218356609344482,0.8653773069381714,-2.040703535079956,-0.3542000353336334,1.1308842897415161
5.848121166229248,0.061226826161146164,-0.9210727214813232,0.8646143078804016,-2.041466474533081,-0.3545815348625183,1.1312657594680786
5.868088722229004,0.061226826161146164,-0.9203097820281982,0.8638513684272766,-2.0418479442596436,-0.3545815348625183,1.1327916383743286
5.888145685195923,0.061226826161146164,-0.9195467829704285,0.8627069592475891,-2.0418479442596436,-0.3557259440422058,1.1335545778274536
5.908189296722412,0.061226826161146164,-0.918402373790741,0.8615625500679016,-2.0426108837127686,-0.3545815348625183,1.1339360475540161
5.928332805633545,0.061226826161146164,-0.9180209040641785,0.8600366115570068,-2.0426108837127686,-0.3553444743156433,1.1339360475540161
5.948412895202637,0.061226826161146164,-0.9172579646110535,0.8592736721038818,-2.0426108837127686,-0.3553444743156433,1.1343175172805786
5.968456983566284,0.061226826161146164,-0.916113555431366,0.8581292629241943,-2.0426108837127686,-0.3553444743156433,1.1343175172805786
5.9885759353637695,0.061226826161146164,-0.9157320261001587,0.8581292629241943,-2.042992353439331,-0.3534370958805084,1.1343175172805786
6.008716821670532,0.061226826161146164,-0.9149690866470337,0.8581292629241943,-2.042992353439331,-0.3534370958805084,1.1346989870071411
6.028769254684448,0.061226826161146164,-0.9142061471939087,0.8577477931976318,-2.042992353439331,-0.3538185656070709,1.1350804567337036
6.048828840255737,0.061226826161146164,-0.9138246774673462,0.8577477931976318,-2.042992353439331,-0.3549630045890808,1.1358433961868286
6.068875074386597,0.061226826161146164,-0.9130617380142212,0.8569847941398621,-2.042992353439331,-0.3564889132976532,1.1369879245758057
6.08892035484314,0.061226826161146164,-0.9122987985610962,0.8566033244132996,-2.042992353439331,-0.3572518527507782,1.1373693943023682
6.108980655670166,0.061226826161146164,-0.9119172692298889,0.8558403849601746,-2.0433738231658936,-0.3572518527507782,1.1373693943023682
6.12906289100647,0.061226826161146164,-0.9119172692298889,0.8558403849601746,-2.044518232345581,-0.3553444743156433,1.1373693943023682
6.149245738983154,0.061226826161146164,-0.9111543297767639,0.8550774455070496,-2.0456626415252686,-0.3545815348625183,1.1373693943023682
6.169293403625488,0.061226826161146164,-0.9107728600502014,0.8539330363273621,-2.046044111251831,-0.3538185656070709,1.1373693943023682
6.189306735992432,0.061226826161146164,-0.9103913903236389,0.8539330363273621,-2.0456626415252686,-0.3530556261539459,1.1377508640289307
6.209426641464233,0.061226826161146164,-0.9100099205970764,0.8539330363273621,-2.046044111251831,-0.3530556261539459,1.1377508640289307
6.229577302932739,0.061226826161146164,-0.9096284508705139,0.8539330363273621,-2.046044111251831,-0.3526741564273834,1.1377508640289307
6.249645233154297,0.061226826161146164,-0.9092469811439514,0.8539330363273621,-2.046044111251831,-0.3530556261539459,1.1377508640289307
6.269752264022827,0.061226826161146164,-0.9088655114173889,0.8539330363273621,-2.046044111251831,-0.3530556261539459,1.1381323337554932
6.2898335456848145,0.061226826161146164,-0.9084840416908264,0.8535515666007996,-2.046044111251831,-0.3534370958805084,1.1381323337554932
6.30991268157959,0.061226826161146164,-0.9084840416908264,0.8527885675430298,-2.046044111251831,-0.3542000353336334,1.1385138034820557
6.329957008361816,0.061226826161146164,-0.9081025123596191,0.8527885675430298,-2.0464255809783936,-0.3538185656070709,1.1385138034820557
6.350029230117798,0.061226826161146164,-0.9077210426330566,0.8524070978164673,-2.0471885204315186,-0.35229265689849854,1.1388952732086182
6.3700995445251465,0.061226826161146164,-0.9077210426330566,0.8520256280899048,-2.0471885204315186,-0.35229265689849854,1.1396582126617432
6.390172481536865,0.061226826161146164,-0.9073395729064941,0.8520256280899048,-2.047569990158081,-0.35191118717193604,1.1404211521148682
6.410271167755127,0.061226826161146164,-0.9069581031799316,0.8520256280899048,-2.0487143993377686,-0.35152971744537354,1.1408026218414307
6.4303975105285645,0.061226826161146164,-0.9069581031799316,0.8516441583633423,-2.0494773387908936,-0.35191118717193604,1.1404211521148682
6.450483322143555,0.061226826161146164,-0.9069581031799316,0.8516441583633423,-2.049095869064331,-0.3526741564273834,1.1408026218414307
6.470751047134399,0.061226826161146164,-0.9065766334533691,0.8516441583633423,-2.0494773387908936,-0.35229265689849854,1.1408026218414307
6.4907546043396,0.061226826161146164,-0.9065766334533691,0.8516441583633423,-2.0494773387908936,-0.35229265689849854,1.1408026218414307
6.510787010192871,0.061226826161146164,-0.9065766334533691,0.8512626886367798,-2.0494773387908936,-0.35191118717193604,1.1408026218414307
6.530901908874512,0.061226826161146164,-0.9061951637268066,0.8508812189102173,-2.0494773387908936,-0.35229265689849854,1.1408026218414307
6.551065921783447,0.061226826161146164,-0.9058136940002441,0.8508812189102173,-2.0494773387908936,-0.35152971744537354,1.1408026218414307
6.571246862411499,0.061226826161146164,-0.9058136940002441,0.8508812189102173,-2.0494773387908936,-0.35152971744537354,1.1408026218414307
6.5913474559783936,0.061226826161146164,-0.9058136940002441,0.8508812189102173,-2.0494773387908936,-0.35191118717193604,1.1408026218414307
6.611525297164917,0.061226826161146164,-0.9054322242736816,0.8508812189102173,-2.0494773387908936,-0.35191118717193604,1.1408026218414307
6.631586313247681,0.061226826161146164,-0.9054322242736816,0.8508812189102173,-2.0494773387908936,-0.35191118717193604,1.1408026218414307
6.65162992477417,0.061226826161146164,-0.9046692848205566,0.8504997491836548,-2.0494773387908936,-0.35191118717193604,1.1408026218414307
6.671679973602295,0.061226826161146164,-0.9046692848205566,0.8504997491836548,-2.049858808517456,-0.35191118717193604,1.1408026218414307
6.691745281219482,0.061226826161146164,-0.9046692848205566,0.8504997491836548,-2.0494773387908936,-0.35229265689849854,1.1408026218414307
6.711836338043213,0.061226826161146164,-0.9046692848205566,0.8504997491836548,-2.049858808517456,-0.35229265689849854,1.1408026218414307
6.732658624649048,0.061226826161146164,-0.9046692848205566,0.8504997491836548,-2.049858808517456,-0.35191118717193604,1.1408026218414307
6.752777099609375,0.061226826161146164,-0.9046692848205566,0.8504997491836548,-2.049858808517456,-0.35191118717193604,1.1408026218414307
6.772832870483398,0.061226826161146164,-0.9046692848205566,0.8501182794570923,-2.049858808517456,-0.35191118717193604,1.1408026218414307
6.79291296005249,0.061226826161146164,-0.9046692848205566,0.8501182794570923,-2.049858808517456,-0.35191118717193604,1.1408026218414307
6.813039541244507,0.061226826161146164,-0.9042877554893494,0.8501182794570923,-2.049858808517456,-0.35191118717193604,1.1408026218414307
6.833130121231079,0.061226826161146164,-0.9039062857627869,0.8501182794570923,-2.049858808517456,-0.35191118717193604,1.1408026218414307
6.853197813034058,0.061226826161146164,-0.9039062857627869,0.8501182794570923,-2.049858808517456,-0.35191118717193604,1.1408026218414307
6.873298168182373,0.061226826161146164,-0.9039062857627869,0.8501182794570923,-2.049858808517456,-0.35191118717193604,1.1408026218414307
6.893387794494629,0.061226826161146164,-0.9039062857627869,0.8497368097305298,-2.049858808517456,-0.35191118717193604,1.1408026218414307
6.913474798202515,0.061226826161146164,-0.9039062857627869,0.8497368097305298,-2.049858808517456,-0.35191118717193604,1.1408026218414307
6.933598041534424,0.061226826161146164,-0.9039062857627869,0.8497368097305298,-2.049858808517456,-0.35191118717193604,1.1408026218414307
6.953622341156006,0.061226826161146164,-0.9039062857627869,0.8497368097305298,-2.049858808517456,-0.35191118717193604,1.1408026218414307
6.973689556121826,0.061226826161146164,-0.9039062857627869,0.8497368097305298,-2.049858808517456,-0.35191118717193604,1.1408026218414307
6.993807077407837,0.061226826161146164,-0.9039062857627869,0.8497368097305298,-2.049858808517456,-0.35191118717193604,1.1408026218414307
7.013846158981323,0.061226826161146164,-0.9039062857627869,0.8497368097305298,-2.049858808517456,-0.35191118717193604,1.1408026218414307
7.03389048576355,0.061226826161146164,-0.9039062857627869,0.8497368097305298,-2.049858808517456,-0.35191118717193604,1.1408026218414307
7.053982496261597,0.061226826161146164,-0.9039062857627869,0.8497368097305298,-2.049858808517456,-0.35191118717193604,1.1408026218414307
7.074041843414307,0.061226826161146164,-0.9039062857627869,0.8497368097305298,-2.049858808517456,-0.35191118717193604,1.1408026218414307
7.094111680984497,0.061226826161146164,-0.9039062857627869,0.8497368097305298,-2.049858808517456,-0.35191118717193604,1.1408026218414307
7.114170074462891,0.061226826161146164,-0.9039062857627869,0.8497368097305298,-2.049858808517456,-0.35191118717193604,1.1408026218414307
7.1342613697052,0.061226826161146164,-0.9039062857627869,0.8497368097305298,-2.0494773387908936,-0.35191118717193604,1.1408026218414307
7.154328346252441,0.061226826161146164,-0.9039062857627869,0.8497368097305298,-2.049858808517456,-0.35191118717193604,1.1408026218414307
7.174457550048828,0.061226826161146164,-0.9039062857627869,0.8497368097305298,-2.049858808517456,-0.35191118717193604,1.1408026218414307
7.194476842880249,0.061226826161146164,-0.9039062857627869,0.8497368097305298,-2.049858808517456,-0.35191118717193604,1.1408026218414307
7.214563369750977,0.061226826161146164,-0.9039062857627869,0.8497368097305298,-2.049858808517456,-0.35191118717193604,1.1408026218414307
7.23465895652771,0.061226826161146164,-0.9039062857627869,0.8497368097305298,-2.049858808517456,-0.35191118717193604,1.1408026218414307
7.254686594009399,0.061226826161146164,-0.9039062857627869,0.8497368097305298,-2.0494773387908936,-0.35191118717193604,1.1408026218414307
7.274740695953369,0.061226826161146164,-0.9035248160362244,0.8497368097305298,-2.0494773387908936,-0.35191118717193604,1.1408026218414307
7.308686256408691,0.06084534898400307,-0.9039062857627869,0.8497368097305298,-2.049858808517456,-0.35191118717193604,1.1408026218414307
7.328767776489258,0.06084534898400307,-0.9035248160362244,0.84897381067276,-2.0494773387908936,-0.35191118717193604,1.1408026218414307
7.349008321762085,0.06084534898400307,-0.9035248160362244,0.8485923409461975,-2.0494773387908936,-0.35191118717193604,1.1408026218414307
7.3689939975738525,0.06084534898400307,-0.9031433463096619,0.8485923409461975,-2.049858808517456,-0.35152971744537354,1.1408026218414307
7.389158487319946,0.06084534898400307,-0.9031433463096619,0.8485923409461975,-2.0494773387908936,-0.35152971744537354,1.1408026218414307
7.409186363220215,0.06084534898400307,-0.9027618765830994,0.8485923409461975,-2.0494773387908936,-0.35152971744537354,1.1408026218414307
7.429248332977295,0.06084534898400307,-0.9027618765830994,0.8485923409461975,-2.0494773387908936,-0.35191118717193604,1.1408026218414307
7.449440002441406,0.06084534898400307,-0.9027618765830994,0.8485923409461975,-2.0494773387908936,-0.35229265689849854,1.1408026218414307
7.469511270523071,0.06084534898400307,-0.9027618765830994,0.8485923409461975,-2.0494773387908936,-0.35191118717193604,1.1408026218414307
7.489578008651733,0.06084534898400307,-0.9027618765830994,0.8485923409461975,-2.0494773387908936,-0.35152971744537354,1.1408026218414307
7.5096755027771,0.06084534898400307,-0.9027618765830994,0.8485923409461975,-2.0494773387908936,-0.35152971744537354,1.1408026218414307
7.5297651290893555,0.06084534898400307,-0.9027618765830994,0.8485923409461975,-2.0494773387908936,-0.35152971744537354,1.1408026218414307
7.549839735031128,0.06084534898400307,-0.9027618765830994,0.8485923409461975,-2.0494773387908936,-0.35191118717193604,1.1408026218414307
7.569902420043945,0.06084534898400307,-0.9027618765830994,0.84897381067276,-2.0494773387908936,-0.35191118717193604,1.1408026218414307
7.58996844291687,0.06046387553215027,-0.9027618765830994,0.84897381067276,-2.0494773387908936,-0.35191118717193604,1.1408026218414307
7.610063076019287,0.06046387553215027,-0.9027618765830994,0.84897381067276,-2.0494773387908936,-0.35152971744537354,1.1408026218414307
7.630142450332642,0.06008239835500717,-0.9027618765830994,0.84897381067276,-2.0494773387908936,-0.35152971744537354,1.1408026218414307
7.650216817855835,0.06008239835500717,-0.9027618765830994,0.84897381067276,-2.0494773387908936,-0.35152971744537354,1.1408026218414307
7.670238256454468,0.06046387553215027,-0.9027618765830994,0.84897381067276,-2.0494773387908936,-0.35152971744537354,1.1408026218414307
7.690351963043213,0.06008239835500717,-0.9027618765830994,0.84897381067276,-2.0494773387908936,-0.35152971744537354,1.1408026218414307
7.710493326187134,0.06046387553215027,-0.9027618765830994,0.84897381067276,-2.0494773387908936,-0.35152971744537354,1.1408026218414307
7.730509042739868,0.06046387553215027,-0.9027618765830994,0.84897381067276,-2.0494773387908936,-0.35152971744537354,1.1408026218414307
7.750714063644409,0.06008239835500717,-0.9027618765830994,0.84897381067276,-2.0494773387908936,-0.35152971744537354,1.1408026218414307
7.7707579135894775,0.06046387553215027,-0.9027618765830994,0.84897381067276,-2.0494773387908936,-0.35152971744537354,1.1408026218414307
7.790790319442749,0.06046387553215027,-0.9027618765830994,0.84897381067276,-2.0494773387908936,-0.35152971744537354,1.1408026218414307
7.810828685760498,0.06008239835500717,-0.9027618765830994,0.84897381067276,-2.0494773387908936,-0.35152971744537354,1.1408026218414307
7.830970287322998,0.06046387553215027,-0.9027618765830994,0.84897381067276,-2.0494773387908936,-0.35152971744537354,1.1408026218414307
7.851006031036377,0.06008239835500717,-0.9027618765830994,0.84897381067276,-2.0494773387908936,-0.35152971744537354,1.1408026218414307
7.87107253074646,0.06046387553215027,-0.9027618765830994,0.84897381067276,-2.0494773387908936,-0.35152971744537354,1.1408026218414307
7.8914501667022705,0.06046387553215027,-0.9027618765830994,0.84897381067276,-2.0494773387908936,-0.35152971744537354,1.1408026218414307
7.911572456359863,0.06008239835500717,-0.9027618765830994,0.84897381067276,-2.0494773387908936,-0.35152971744537354,1.1408026218414307
7.93171238899231,0.06046387553215027,-0.9027618765830994,0.84897381067276,-2.0494773387908936,-0.35152971744537354,1.1408026218414307
7.951734304428101,0.06046387553215027,-0.9027618765830994,0.84897381067276,-2.0494773387908936,-0.35152971744537354,1.1408026218414307
7.972057104110718,0.06008239835500717,-0.9027618765830994,0.84897381067276,-2.0494773387908936,-0.35152971744537354,1.1408026218414307
7.9922401905059814,0.06046387553215027,-0.9027618765830994,0.84897381067276,-2.0494773387908936,-0.35152971744537354,1.1408026218414307
8.012234926223755,0.06046387553215027,-0.9027618765830994,0.84897381067276,-2.0494773387908936,-0.35152971744537354,1.1408026218414307
8.032277345657349,0.06008239835500717,-0.9027618765830994,0.84897381067276,-2.0494773387908936,-0.35152971744537354,1.1408026218414307
8.052358627319336,0.06046387553215027,-0.9027618765830994,0.84897381067276,-2.0494773387908936,-0.35152971744537354,1.1408026218414307
8.07247519493103,0.06046387553215027,-0.9027618765830994,0.84897381067276,-2.0494773387908936,-0.35152971744537354,1.1408026218414307
8.092616558074951,0.06046387553215027,-0.9027618765830994,0.84897381067276,-2.0494773387908936,-0.35152971744537354,1.1408026218414307
8.112630605697632,0.06046387553215027,-0.9027618765830994,0.84897381067276,-2.0494773387908936,-0.35152971744537354,1.1408026218414307
8.132739305496216,0.06046387553215027,-0.9027618765830994,0.8493552803993225,-2.0494773387908936,-0.35152971744537354,1.1408026218414307
8.152835369110107,0.06046387553215027,-0.9027618765830994,0.8497368097305298,-2.0494773387908936,-0.35076677799224854,1.1408026218414307
8.172904968261719,0.06046387553215027,-0.9027618765830994,0.8497368097305298,-2.0494773387908936,-0.35152971744537354,1.1408026218414307
8.193289279937744,0.06046387553215027,-0.9027618765830994,0.8497368097305298,-2.0494773387908936,-0.35114824771881104,1.1408026218414307
8.213393688201904,0.06046387553215027,-0.9027618765830994,0.8497368097305298,-2.0494773387908936,-0.35152971744537354,1.1408026218414307
8.233473777770996,0.06046387553215027,-0.9027618765830994,0.8497368097305298,-2.0494773387908936,-0.35114824771881104,1.1408026218414307
8.25352692604065,0.06046387553215027,-0.9031433463096619,0.8497368097305298,-2.0494773387908936,-0.35114824771881104,1.1408026218414307
8.27364206314087,0.06046387553215027,-0.9027618765830994,0.8497368097305298,-2.0494773387908936,-0.35114824771881104,1.1408026218414307
8.293725490570068,0.06046387553215027,-0.9031433463096619,0.8497368097305298,-2.0494773387908936,-0.35114824771881104,1.1408026218414307
8.3138267993927,0.06046387553215027,-0.9031433463096619,0.8497368097305298,-2.0494773387908936,-0.35114824771881104,1.1408026218414307
8.333826065063477,0.06046387553215027,-0.9031433463096619,0.8497368097305298,-2.0494773387908936,-0.35114824771881104,1.1408026218414307
8.353912353515625,0.06046387553215027,-0.9031433463096619,0.8497368097305298,-2.0494773387908936,-0.35114824771881104,1.1408026218414307
8.373978614807129,0.06046387553215027,-0.9031433463096619,0.8497368097305298,-2.0494773387908936,-0.35114824771881104,1.1408026218414307
8.394046783447266,0.06046387553215027,-0.9031433463096619,0.8497368097305298,-2.0494773387908936,-0.35114824771881104,1.1408026218414307
8.4140944480896,0.06046387553215027,-0.9035248160362244,0.8497368097305298,-2.0494773387908936,-0.35114824771881104,1.1408026218414307
8.434303283691406,0.06046387553215027,-0.9035248160362244,0.8497368097305298,-2.0494773387908936,-0.35114824771881104,1.1408026218414307
8.454296827316284,0.06046387553215027,-0.9035248160362244,0.8497368097305298,-2.0494773387908936,-0.35114824771881104,1.1408026218414307
8.474389553070068,0.06046387553215027,-0.9035248160362244,0.8497368097305298,-2.0494773387908936,-0.35114824771881104,1.1408026218414307
8.494426488876343,0.06046387553215027,-0.9035248160362244,0.8497368097305298,-2.0494773387908936,-0.35114824771881104,1.1408026218414307
8.514513969421387,0.06046387553215027,-0.9035248160362244,0.8497368097305298,-2.0494773387908936,-0.35114824771881104,1.1408026218414307
8.534645795822144,0.06046387553215027,-0.9035248160362244,0.8497368097305298,-2.0494773387908936,-0.35114824771881104,1.1408026218414307
8.554632902145386,0.06046387553215027,-0.9035248160362244,0.8497368097305298,-2.0494773387908936,-0.35114824771881104,1.1408026218414307
8.574720621109009,0.06046387553215027,-0.9035248160362244,0.8497368097305298,-2.0494773387908936,-0.35114824771881104,1.1408026218414307
8.59478497505188,0.06046387553215027,-0.9035248160362244,0.8497368097305298,-2.0494773387908936,-0.35114824771881104,1.1408026218414307
8.614894390106201,0.06084534898400307,-0.9035248160362244,0.8497368097305298,-2.0494773387908936,-0.35114824771881104,1.1408026218414307
8.634960174560547,0.061226826161146164,-0.9035248160362244,0.8493552803993225,-2.0494773387908936,-0.35114824771881104,1.1408026218414307
8.655037879943848,0.061226826161146164,-0.9035248160362244,0.8493552803993225,-2.0494773387908936,-0.35114824771881104,1.1408026218414307
8.675097703933716,0.061226826161146164,-0.9035248160362244,0.8493552803993225,-2.0494773387908936,-0.35114824771881104,1.1408026218414307
8.69514775276184,0.061226826161146164,-0.9035248160362244,0.84897381067276,-2.0494773387908936,-0.35114824771881104,1.1408026218414307
8.715240001678467,0.061226826161146164,-0.9035248160362244,0.8485923409461975,-2.0494773387908936,-0.35152971744537354,1.1408026218414307
8.735337257385254,0.061226826161146164,-0.9035248160362244,0.84897381067276,-2.0494773387908936,-0.35114824771881104,1.1408026218414307
8.755391120910645,0.061226826161146164,-0.9035248160362244,0.84897381067276,-2.0494773387908936,-0.35114824771881104,1.1408026218414307
8.775556087493896,0.061226826161146164,-0.9031433463096619,0.8485923409461975,-2.0494773387908936,-0.35114824771881104,1.1408026218414307
8.795693635940552,0.061226826161146164,-0.9031433463096619,0.84897381067276,-2.0494773387908936,-0.35114824771881104,1.1408026218414307
8.815856695175171,0.061226826161146164,-0.9027618765830994,0.84897381067276,-2.0494773387908936,-0.35152971744537354,1.1408026218414307
8.835871934890747,0.061226826161146164,-0.9027618765830994,0.84897381067276,-2.0494773387908936,-0.35191118717193604,1.1408026218414307
8.855958461761475,0.061226826161146164,-0.9027618765830994,0.84897381067276,-2.0494773387908936,-0.35152971744537354,1.1408026218414307
8.876105546951294,0.061226826161146164,-0.9027618765830994,0.84897381067276,-2.0494773387908936,-0.35152971744537354,1.1408026218414307
8.896185636520386,0.061226826161146164,-0.9027618765830994,0.84897381067276,-2.0494773387908936,-0.35152971744537354,1.1408026218414307
8.916192054748535,0.061226826161146164,-0.9031433463096619,0.84897381067276,-2.0494773387908936,-0.35152971744537354,1.1408026218414307
8.936298847198486,0.061226826161146164,-0.9031433463096619,0.84897381067276,-2.0494773387908936,-0.35152971744537354,1.1408026218414307
8.95639681816101,0.061226826161146164,-0.9031433463096619,0.84897381067276,-2.0494773387908936,-0.35152971744537354,1.1408026218414307
8.976442098617554,0.061226826161146164,-0.9027618765830994,0.84897381067276,-2.0494773387908936,-0.35152971744537354,1.1408026218414307
8.9970703125,0.061226826161146164,-0.9031433463096619,0.84897381067276,-2.0494773387908936,-0.35152971744537354,1.1408026218414307
9.01724624633789,0.061226826161146164,-0.9031433463096619,0.84897381067276,-2.0494773387908936,-0.35152971744537354,1.1408026218414307
9.037293910980225,0.061226826161146164,-0.9031433463096619,0.84897381067276,-2.0494773387908936,-0.35152971744537354,1.1408026218414307
9.057335615158081,0.061226826161146164,-0.9031433463096619,0.84897381067276,-2.0494773387908936,-0.35152971744537354,1.1408026218414307
9.077426433563232,0.061226826161146164,-0.9031433463096619,0.84897381067276,-2.0494773387908936,-0.35152971744537354,1.1408026218414307
9.097598791122437,0.061226826161146164,-0.9031433463096619,0.84897381067276,-2.0494773387908936,-0.35152971744537354,1.1408026218414307
9.117659091949463,0.061226826161146164,-0.9027618765830994,0.84897381067276,-2.0494773387908936,-0.35152971744537354,1.1408026218414307
9.137766361236572,0.061226826161146164,-0.9031433463096619,0.84897381067276,-2.0494773387908936,-0.35152971744537354,1.1408026218414307
9.157814741134644,0.061226826161146164,-0.9031433463096619,0.84897381067276,-2.0494773387908936,-0.35152971744537354,1.1408026218414307
9.177858591079712,0.061226826161146164,-0.9031433463096619,0.84897381067276,-2.0494773387908936,-0.35152971744537354,1.1408026218414307
9.198036432266235,0.061226826161146164,-0.9031433463096619,0.84897381067276,-2.0494773387908936,-0.35152971744537354,1.1408026218414307
9.218218088150024,0.061226826161146164,-0.9031433463096619,0.84897381067276,-2.0494773387908936,-0.35152971744537354,1.1408026218414307
9.23833680152893,0.061226826161146164,-0.9031433463096619,0.84897381067276,-2.0494773387908936,-0.35152971744537354,1.1408026218414307
9.25843858718872,0.061226826161146164,-0.9031433463096619,0.84897381067276,-2.0494773387908936,-0.35152971744537354,1.1408026218414307
9.278422355651855,0.061226826161146164,-0.9031433463096619,0.84897381067276,-2.0494773387908936,-0.35152971744537354,1.1408026218414307
9.298548936843872,0.061226826161146164,-0.9031433463096619,0.84897381067276,-2.0494773387908936,-0.35152971744537354,1.1408026218414307
9.318665981292725,0.06084534898400307,-0.9031433463096619,0.84897381067276,-2.0494773387908936,-0.35152971744537354,1.1408026218414307
9.338748455047607,0.06084534898400307,-0.9031433463096619,0.8493552803993225,-2.0494773387908936,-0.35152971744537354,1.1408026218414307
9.358855962753296,0.06084534898400307,-0.9031433463096619,0.8497368097305298,-2.0494773387908936,-0.35152971744537354,1.1408026218414307
9.378987789154053,0.06084534898400307,-0.9031433463096619,0.8497368097305298,-2.0494773387908936,-0.35152971744537354,1.1408026218414307
9.399068355560303,0.06084534898400307,-0.9031433463096619,0.8497368097305298,-2.0494773387908936,-0.35152971744537354,1.1408026218414307
9.419141054153442,0.06084534898400307,-0.9031433463096619,0.8497368097305298,-2.0494773387908936,-0.35191118717193604,1.1408026218414307
9.439218282699585,0.06084534898400307,-0.9031433463096619,0.8497368097305298,-2.0494773387908936,-0.35152971744537354,1.1408026218414307
9.459307432174683,0.06084534898400307,-0.9035248160362244,0.8497368097305298,-2.0494773387908936,-0.35152971744537354,1.1408026218414307
9.479384183883667,0.06084534898400307,-0.9035248160362244,0.8497368097305298,-2.0494773387908936,-0.35152971744537354,1.1408026218414307
9.499426126480103,0.06084534898400307,-0.9039062857627869,0.8497368097305298,-2.0494773387908936,-0.35152971744537354,1.1408026218414307
9.519586086273193,0.06084534898400307,-0.9039062857627869,0.8497368097305298,-2.0494773387908936,-0.35152971744537354,1.1408026218414307
9.539657831192017,0.06084534898400307,-0.9039062857627869,0.8497368097305298,-2.0494773387908936,-0.35152971744537354,1.1408026218414307
9.559700965881348,0.06084534898400307,-0.9035248160362244,0.8497368097305298,-2.0494773387908936,-0.35152971744537354,1.1408026218414307
9.579762935638428,0.06084534898400307,-0.9035248160362244,0.8497368097305298,-2.0494773387908936,-0.35152971744537354,1.1408026218414307
9.59983515739441,0.06084534898400307,-0.9035248160362244,0.8497368097305298,-2.0494773387908936,-0.35152971744537354,1.1408026218414307
9.620005369186401,0.06046387553215027,-0.9035248160362244,0.8497368097305298,-2.0494773387908936,-0.35114824771881104,1.1408026218414307
9.640014886856079,0.06046387553215027,-0.9035248160362244,0.8497368097305298,-2.0494773387908936,-0.35152971744537354,1.1408026218414307
9.660111665725708,0.06046387553215027,-0.9035248160362244,0.8497368097305298,-2.0494773387908936,-0.35152971744537354,1.1408026218414307
9.680295467376709,0.06046387553215027,-0.9035248160362244,0.8497368097305298,-2.0494773387908936,-0.35152971744537354,1.1408026218414307
9.700407981872559,0.06046387553215027,-0.9035248160362244,0.8497368097305298,-2.0494773387908936,-0.35152971744537354,1.1408026218414307
9.7203848361969,0.06046387553215027,-0.9035248160362244,0.8497368097305298,-2.0494773387908936,-0.35152971744537354,1.1408026218414307
9.740504264831543,0.06046387553215027,-0.9035248160362244,0.8497368097305298,-2.0494773387908936,-0.35152971744537354,1.1408026218414307
9.76058554649353,0.06046387553215027,-0.9035248160362244,0.8497368097305298,-2.0494773387908936,-0.35114824771881104,1.1408026218414307
9.780657529830933,0.06046387553215027,-0.9035248160362244,0.8497368097305298,-2.0494773387908936,-0.35152971744537354,1.1408026218414307
9.800770282745361,0.06046387553215027,-0.9035248160362244,0.8497368097305298,-2.0494773387908936,-0.35152971744537354,1.1408026218414307
9.82128357887268,0.06008239835500717,-0.9035248160362244,0.8497368097305298,-2.0494773387908936,-0.35152971744537354,1.1408026218414307
9.841370105743408,0.06046387553215027,-0.9035248160362244,0.8497368097305298,-2.0494773387908936,-0.35152971744537354,1.1408026218414307
9.861536264419556,0.06008239835500717,-0.9035248160362244,0.8497368097305298,-2.0494773387908936,-0.35152971744537354,1.1408026218414307
9.881579637527466,0.06046387553215027,-0.9035248160362244,0.8497368097305298,-2.0494773387908936,-0.35152971744537354,1.1408026218414307
9.90158987045288,0.06046387553215027,-0.9035248160362244,0.8497368097305298,-2.0494773387908936,-0.35152971744537354,1.1408026218414307
9.921650409698486,0.06046387553215027,-0.9035248160362244,0.8497368097305298,-2.0494773387908936,-0.35152971744537354,1.1408026218414307
9.9417564868927,0.06046387553215027,-0.9035248160362244,0.8497368097305298,-2.0494773387908936,-0.35152971744537354,1.1408026218414307
9.961825370788574,0.06046387553215027,-0.9035248160362244,0.8497368097305298,-2.0494773387908936,-0.35152971744537354,1.1408026218414307
9.982367277145386,0.06046387553215027,-0.9035248160362244,0.8497368097305298,-2.0494773387908936,-0.35152971744537354,1.1408026218414307
10.00252914428711,0.06046387553215027,-0.9035248160362244,0.8497368097305298,-2.0494773387908936,-0.35152971744537354,1.1408026218414307
10.022626399993896,0.06046387553215027,-0.9035248160362244,0.8497368097305298,-2.0494773387908936,-0.35152971744537354,1.1408026218414307
10.042687892913818,0.06046387553215027,-0.9035248160362244,0.8497368097305298,-2.0494773387908936,-0.35152971744537354,1.1408026218414307
10.062832832336426,0.06046387553215027,-0.9031433463096619,0.8493552803993225,-2.0494773387908936,-0.35152971744537354,1.1408026218414307
10.082882404327393,0.06046387553215027,-0.9031433463096619,0.8493552803993225,-2.0494773387908936,-0.35152971744537354,1.1408026218414307
10.10291314125061,0.06008239835500717,-0.9027618765830994,0.8485923409461975,-2.0494773387908936,-0.35152971744537354,1.1408026218414307
10.122973680496216,0.06046387553215027,-0.9027618765830994,0.84897381067276,-2.0494773387908936,-0.35152971744537354,1.1408026218414307
10.143063068389893,0.06046387553215027,-0.9027618765830994,0.8485923409461975,-2.0494773387908936,-0.35114824771881104,1.1408026218414307
10.163191556930542,0.06046387553215027,-0.9027618765830994,0.8485923409461975,-2.0494773387908936,-0.35114824771881104,1.1408026218414307
10.183255434036255,0.06046387553215027,-0.9027618765830994,0.8485923409461975,-2.0494773387908936,-0.35114824771881104,1.1408026218414307
10.203342199325562,0.06046387553215027,-0.9027618765830994,0.84897381067276,-2.0494773387908936,-0.35114824771881104,1.1408026218414307
10.2235107421875,0.06008239835500717,-0.9027618765830994,0.84897381067276,-2.0494773387908936,-0.35114824771881104,1.1408026218414307
10.243547916412354,0.06046387553215027,-0.9027618765830994,0.84897381067276,-2.0494773387908936,-0.35114824771881104,1.1408026218414307
10.263579845428467,0.06046387553215027,-0.9027618765830994,0.84897381067276,-2.0494773387908936,-0.35114824771881104,1.1408026218414307
10.28368878364563,0.06046387553215027,-0.9027618765830994,0.84897381067276,-2.0494773387908936,-0.35114824771881104,1.1408026218414307
10.303763628005981,0.06046387553215027,-0.9027618765830994,0.84897381067276,-2.0494773387908936,-0.35114824771881104,1.1408026218414307
10.32381296157837,0.06046387553215027,-0.9027618765830994,0.84897381067276,-2.0494773387908936,-0.35114824771881104,1.1408026218414307
10.343882083892822,0.06046387553215027,-0.9027618765830994,0.84897381067276,-2.0494773387908936,-0.35114824771881104,1.1408026218414307
10.364096879959106,0.06046387553215027,-0.9027618765830994,0.84897381067276,-2.0494773387908936,-0.35114824771881104,1.1408026218414307
10.384235382080078,0.06046387553215027,-0.9027618765830994,0.84897381067276,-2.0494773387908936,-0.35114824771881104,1.1408026218414307
10.4043550491333,0.06046387553215027,-0.9027618765830994,0.84897381067276,-2.0494773387908936,-0.35114824771881104,1.1408026218414307
10.42441987991333,0.06046387553215027,-0.9027618765830994,0.84897381067276,-2.0494773387908936,-0.35114824771881104,1.1408026218414307
10.444541215896606,0.06046387553215027,-0.9027618765830994,0.84897381067276,-2.0494773387908936,-0.35114824771881104,1.1408026218414307
10.464654684066772,0.06046387553215027,-0.9027618765830994,0.84897381067276,-2.0494773387908936,-0.35114824771881104,1.1408026218414307
10.484695672988892,0.06046387553215027,-0.9027618765830994,0.84897381067276,-2.0494773387908936,-0.35114824771881104,1.1408026218414307
10.504745721817017,0.06046387553215027,-0.9027618765830994,0.84897381067276,-2.0494773387908936,-0.35114824771881104,1.1408026218414307
10.524833679199219,0.06046387553215027,-0.9027618765830994,0.8493552803993225,-2.0494773387908936,-0.35114824771881104,1.1408026218414307
10.544927597045898,0.06046387553215027,-0.9027618765830994,0.8497368097305298,-2.0494773387908936,-0.35076677799224854,1.1408026218414307
10.565012454986572,0.06046387553215027,-0.9027618765830994,0.8497368097305298,-2.0494773387908936,-0.35114824771881104,1.1408026218414307
10.585056066513062,0.06046387553215027,-0.9027618765830994,0.8497368097305298,-2.0494773387908936,-0.35114824771881104,1.1408026218414307
10.605143547058105,0.06046387553215027,-0.9027618765830994,0.8497368097305298,-2.0494773387908936,-0.35114824771881104,1.1408026218414307
10.625210762023926,0.06046387553215027,-0.9027618765830994,0.8497368097305298,-2.0494773387908936,-0.35114824771881104,1.1408026218414307
10.64539909362793,0.06046387553215027,-0.9031433463096619,0.8497368097305298,-2.0494773387908936,-0.35076677799224854,1.1408026218414307
10.665649175643921,0.061226826161146164,-0.9031433463096619,0.8497368097305298,-2.0494773387908936,-0.35076677799224854,1.1408026218414307
10.685734987258911,0.061226826161146164,-0.9031433463096619,0.8497368097305298,-2.0494773387908936,-0.35076677799224854,1.1408026218414307
10.705854892730713,0.061226826161146164,-0.9031433463096619,0.8497368097305298,-2.0494773387908936,-0.35114824771881104,1.1408026218414307
10.72588062286377,0.061226826161146164,-0.9031433463096619,0.8497368097305298,-2.0494773387908936,-0.35114824771881104,1.1408026218414307
10.746112823486328,0.061226826161146164,-0.9031433463096619,0.8497368097305298,-2.0494773387908936,-0.35114824771881104,1.1408026218414307
10.766189336776733,0.061226826161146164,-0.9035248160362244,0.8497368097305298,-2.0494773387908936,-0.35114824771881104,1.1408026218414307
10.786201477050781,0.061226826161146164,-0.9039062857627869,0.8497368097305298,-2.0494773387908936,-0.35114824771881104,1.1408026218414307
10.806355953216553,0.061226826161146164,-0.9039062857627869,0.8497368097305298,-2.0494773387908936,-0.35076677799224854,1.1408026218414307
10.826361179351807,0.061226826161146164,-0.9039062857627869,0.8497368097305298,-2.0494773387908936,-0.35076677799224854,1.1408026218414307
10.846412181854248,0.061226826161146164,-0.9039062857627869,0.8497368097305298,-2.0494773387908936,-0.35076677799224854,1.1408026218414307
10.866492748260498,0.061226826161146164,-0.9039062857627869,0.8497368097305298,-2.0494773387908936,-0.35114824771881104,1.1408026218414307
10.886556625366211,0.061226826161146164,-0.9039062857627869,0.8497368097305298,-2.0494773387908936,-0.35152971744537354,1.1408026218414307
10.906625747680664,0.061226826161146164,-0.9039062857627869,0.8497368097305298,-2.0494773387908936,-0.35152971744537354,1.1408026218414307
10.92704701423645,0.061226826161146164,-0.9039062857627869,0.8497368097305298,-2.0494773387908936,-0.35114824771881104,1.1408026218414307
10.947104454040527,0.061226826161146164,-0.9035248160362244,0.8497368097305298,-2.0494773387908936,-0.35114824771881104,1.1408026218414307
10.96717381477356,0.061226826161146164,-0.9039062857627869,0.8497368097305298,-2.0494773387908936,-0.35114824771881104,1.1408026218414307
10.987431526184082,0.061226826161146164,-0.9039062857627869,0.8497368097305298,-2.0494773387908936,-0.35152971744537354,1.1408026218414307
11.007606983184814,0.061226826161146164,-0.9035248160362244,0.8497368097305298,-2.0494773387908936,-0.35152971744537354,1.1408026218414307
11.02765154838562,0.061226826161146164,-0.9039062857627869,0.8497368097305298,-2.0494773387908936,-0.35152971744537354,1.1408026218414307
11.047707796096802,0.061226826161146164,-0.9039062857627869,0.8497368097305298,-2.0494773387908936,-0.35114824771881104,1.1408026218414307
11.067784547805786,0.061226826161146164,-0.9035248160362244,0.8493552803993225,-2.0494773387908936,-0.35114824771881104,1.1408026218414307
11.087849140167236,0.061226826161146164,-0.9039062857627869,0.8497368097305298,-2.0494773387908936,-0.35114824771881104,1.1408026218414307
11.10800290107727,0.061226826161146164,-0.9035248160362244,0.8497368097305298,-2.0494773387908936,-0.35152971744537354,1.1408026218414307
11.12802529335022,0.061226826161146164,-0.9035248160362244,0.8493552803993225,-2.0494773387908936,-0.35152971744537354,1.1408026218414307
11.148181200027466,0.061226826161146164,-0.9035248160362244,0.8497368097305298,-2.0494773387908936,-0.35152971744537354,1.1408026218414307
11.16828989982605,0.061226826161146164,-0.9035248160362244,0.8493552803993225,-2.0494773387908936,-0.35114824771881104,1.1408026218414307
11.18835735321045,0.061226826161146164,-0.9035248160362244,0.8493552803993225,-2.0494773387908936,-0.35152971744537354,1.1408026218414307
11.20861291885376,0.061226826161146164,-0.9035248160362244,0.8485923409461975,-2.0494773387908936,-0.35152971744537354,1.1408026218414307
11.228761911392212,0.061226826161146164,-0.9035248160362244,0.8485923409461975,-2.0494773387908936,-0.35152971744537354,1.1408026218414307
11.248810052871704,0.061226826161146164,-0.9035248160362244,0.8485923409461975,-2.0494773387908936,-0.35152971744537354,1.1408026218414307
11.268932580947876,0.061226826161146164,-0.9035248160362244,0.8485923409461975,-2.0494773387908936,-0.35152971744537354,1.1408026218414307
11.289071798324585,0.061226826161146164,-0.9027618765830994,0.8485923409461975,-2.0494773387908936,-0.35114824771881104,1.1408026218414307
11.309195756912231,0.061226826161146164,-0.9027618765830994,0.84897381067276,-2.0494773387908936,-0.35152971744537354,1.1408026218414307
11.32934021949768,0.061226826161146164,-0.9027618765830994,0.84897381067276,-2.0494773387908936,-0.35191118717193604,1.1408026218414307
11.349398136138916,0.06084534898400307,-0.9027618765830994,0.84897381067276,-2.0494773387908936,-0.35191118717193604,1.1408026218414307
11.369462013244629,0.06084534898400307,-0.9027618765830994,0.8485923409461975,-2.0494773387908936,-0.35152971744537354,1.1408026218414307
11.389573335647583,0.06084534898400307,-0.9027618765830994,0.8485923409461975,-2.0494773387908936,-0.35152971744537354,1.1408026218414307
11.409584760665894,0.06084534898400307,-0.9027618765830994,0.84897381067276,-2.0494773387908936,-0.35152971744537354,1.1408026218414307
11.429651737213135,0.06084534898400307,-0.9027618765830994,0.84897381067276,-2.0494773387908936,-0.35152971744537354,1.1408026218414307
11.450098991394043,0.06084534898400307,-0.9027618765830994,0.84897381067276,-2.0494773387908936,-0.35152971744537354,1.1408026218414307
11.470239162445068,0.06084534898400307,-0.9027618765830994,0.84897381067276,-2.0494773387908936,-0.35152971744537354,1.1408026218414307
11.490259408950806,0.06084534898400307,-0.9027618765830994,0.84897381067276,-2.0494773387908936,-0.35152971744537354,1.1408026218414307
11.510484218597412,0.06084534898400307,-0.9027618765830994,0.84897381067276,-2.0494773387908936,-0.35152971744537354,1.1408026218414307
11.53061819076538,0.06084534898400307,-0.9027618765830994,0.84897381067276,-2.0494773387908936,-0.35152971744537354,1.1408026218414307
11.550689458847046,0.06084534898400307,-0.9027618765830994,0.84897381067276,-2.0494773387908936,-0.35152971744537354,1.1408026218414307
11.570729970932007,0.06084534898400307,-0.9027618765830994,0.84897381067276,-2.0494773387908936,-0.35152971744537354,1.1408026218414307
11.590824127197266,0.06084534898400307,-0.9027618765830994,0.84897381067276,-2.0494773387908936,-0.35152971744537354,1.1408026218414307
11.611022710800171,0.06084534898400307,-0.9027618765830994,0.84897381067276,-2.0494773387908936,-0.35152971744537354,1.1408026218414307
11.63100814819336,0.06046387553215027,-0.9027618765830994,0.84897381067276,-2.0494773387908936,-0.35152971744537354,1.1408026218414307
11.651084899902344,0.06008239835500717,-0.9027618765830994,0.84897381067276,-2.0494773387908936,-0.35152971744537354,1.1408026218414307
11.67115592956543,0.06008239835500717,-0.9027618765830994,0.84897381067276,-2.0494773387908936,-0.35152971744537354,1.1408026218414307
11.691226482391357,0.06046387553215027,-0.9027618765830994,0.84897381067276,-2.0494773387908936,-0.35152971744537354,1.1408026218414307
11.711294174194336,0.06008239835500717,-0.9027618765830994,0.8470664620399475,-2.0494773387908936,-0.35191118717193604,1.1408026218414307
11.73141098022461,0.06008239835500717,-0.9023804068565369,0.8428702354431152,-2.049095869064331,-0.3561074137687683,1.1408026218414307
11.751454830169678,0.06008239835500717,-0.9019989371299744,0.8360036611557007,-2.0487143993377686,-0.3595407009124756,1.1408026218414307
11.771547794342041,0.06008239835500717,-0.9016174674034119,0.8260852694511414,-2.0487143993377686,-0.361066609621048,1.1408026218414307
11.791697263717651,0.06008239835500717,-0.9004730582237244,0.8142595291137695,-2.0487143993377686,-0.36411839723587036,1.1408026218414307
11.81169056892395,0.06008239835500717,-0.8997100591659546,0.7978560924530029,-2.0487143993377686,-0.36602577567100525,1.1408026218414307
11.831767082214355,0.06008239835500717,-0.8966583013534546,0.7768749594688416,-2.0494773387908936,-0.36678874492645264,1.1408026218414307
11.851831912994385,0.05970092490315437,-0.8901731967926025,0.7471198439598083,-2.0494773387908936,-0.36564430594444275,1.1408026218414307
11.871925592422485,0.05855649709701538,-0.8779659867286682,0.7112611532211304,-2.0502402782440186,-0.36411839723587036,1.1411840915679932
11.891972064971924,0.05664911866188049,-0.8604180812835693,0.6803616285324097,-2.055962562561035,-0.34695202112197876,1.1427099704742432
11.912068128585815,0.0555046908557415,-0.841725766658783,0.6532768607139587,-2.0677881240844727,-0.3221561014652252,1.1438543796539307
11.932151556015015,0.05397878959774971,-0.8253223299980164,0.6300068497657776,-2.0750362873077393,-0.3130006790161133,1.1430914402008057
11.95221471786499,0.05245288833975792,-0.810826301574707,0.615129292011261,-2.0807583332061768,-0.30498969554901123,1.1449989080429077
11.972295761108398,0.05092698708176613,-0.7967116832733154,0.6025406122207642,-2.0845730304718018,-0.30231937766075134,1.1449989080429077
11.992462635040283,0.048256658017635345,-0.7822155952453613,0.5884260535240173,-2.0864806175231934,-0.32063019275665283,1.1449989080429077
12.012475728988647,0.045204851776361465,-0.7681010365486145,0.577744722366333,-2.0880064964294434,-0.3271152675151825,1.1465247869491577
12.032538175582886,0.04444190114736557,-0.7566567659378052,0.5666819214820862,-2.0910582542419434,-0.33474478125572205,1.1480506658554077
12.052639961242676,0.04444190114736557,-0.7444495558738708,0.5537117719650269,-2.095254421234131,-0.3442816734313965,1.1484321355819702
12.072700262069702,0.04444190114736557,-0.7322422862052917,0.5415045619010925,-2.102121114730835,-0.3397039771080017,1.1488136053085327
12.092958688735962,0.045204851776361465,-0.7204165458679199,0.5281528830528259,-2.111276388168335,-0.33436331152915955,1.1495765447616577
12.112943410873413,0.045204851776361465,-0.7108796834945679,0.5178530812263489,-2.121194839477539,-0.3271152675151825,1.1495765447616577
12.132999897003174,0.04749370738863945,-0.7001983523368835,0.5079346895217896,-2.130350112915039,-0.31414511799812317,1.1495765447616577
12.153111219406128,0.04711223021149635,-0.6887540817260742,0.4964904189109802,-2.133402109146118,-0.31376364827156067,1.1491950750350952
12.173157930374146,0.04634927958250046,-0.6776912808418274,0.4880979657173157,-2.1368353366851807,-0.3084229826927185,1.1518653631210327
12.193284749984741,0.045204851776361465,-0.6666285395622253,0.4800869822502136,-2.139505624771118,-0.3065156042575836,1.1518653631210327
12.213361978530884,0.04406042397022247,-0.6589990258216858,0.4732204079627991,-2.1391241550445557,-0.31376364827156067,1.1522468328475952
12.233417749404907,0.04100862145423889,-0.6490806341171265,0.4671168029308319,-2.1398870944976807,-0.3122377395629883,1.1526284217834473
12.253495693206787,0.040627144277095795,-0.6403067111968994,0.45910581946372986,-2.141794443130493,-0.31414511799812317,1.1522468328475952
12.273855209350586,0.040627144277095795,-0.6322957277297974,0.4518577754497528,-2.1444647312164307,-0.3107118308544159,1.1522468328475952
12.293951511383057,0.040627144277095795,-0.6250476837158203,0.44499123096466064,-2.1475164890289307,-0.3076600432395935,1.1526284217834473
12.314056396484375,0.040627144277095795,-0.6170367002487183,0.439269095659256,-2.1509499549865723,-0.30193790793418884,1.1530098915100098
12.33404541015625,0.040627144277095795,-0.6105515956878662,0.43240252137184143,-2.1589608192443848,-0.29812315106391907,1.1522468328475952
12.354138612747192,0.040245670825242996,-0.6033035516738892,0.42553597688674927,-2.1635384559631348,-0.2969787120819092,1.1522468328475952
12.374309062957764,0.039101243019104004,-0.5952925682067871,0.4205767810344696,-2.1662089824676514,-0.2946898639202118,1.1518653631210327
12.39437747001648,0.03833829239010811,-0.5884260535240173,0.41561761498451233,-2.1677348613739014,-0.290112167596817,1.1518653631210327
12.414504528045654,0.037193864583969116,-0.5834668278694153,0.41180285811424255,-2.168116331100464,-0.2912565767765045,1.1514838933944702
12.43458867073059,0.03604944050312042,-0.576981782913208,0.4083695709705353,-2.168116331100464,-0.290875107049942,1.1518653631210327
12.454664707183838,0.03528648987412453,-0.5708781480789185,0.4037918746471405,-2.168879270553589,-0.28896772861480713,1.1514838933944702
12.474738836288452,0.03452353551983833,-0.5659189820289612,0.3999771177768707,-2.168879270553589,-0.28973066806793213,1.1514838933944702
12.494837760925293,0.03337911143898964,-0.5601968169212341,0.39616236090660095,-2.168879270553589,-0.28896772861480713,1.1511024236679077
12.514883279800415,0.03337911143898964,-0.5548561811447144,0.3919661343097687,-2.1707866191864014,-0.28706035017967224,1.1511024236679077
12.534961700439453,0.03337911143898964,-0.5506599545478821,0.3885328471660614,-2.173456907272339,-0.28324559330940247,1.1507209539413452
12.555002927780151,0.032616160809993744,-0.5472266674041748,0.3858625292778015,-2.174219846725464,-0.28286412358283997,1.1484321355819702
12.575097799301147,0.03185320645570755,-0.5430304408073425,0.38204777240753174,-2.177271604537964,-0.2794308364391327,1.1484321355819702
12.595163822174072,0.031090257689356804,-0.5376898050308228,0.3778515160083771,-2.177271604537964,-0.2786678969860077,1.1476691961288452
12.615215301513672,0.02994582988321781,-0.5327305793762207,0.3747997283935547,-2.178034543991089,-0.2748531401157379,1.1476691961288452
12.6353018283844,0.029182879254221916,-0.5296788215637207,0.3728923499584198,-2.178797483444214,-0.27180132269859314,1.1472877264022827
12.6553635597229,0.02880140393972397,-0.5277714133262634,0.3717479109764099,-2.178797483444214,-0.27218279242515564,1.1461433172225952
12.675433158874512,0.02841992862522602,-0.5258640646934509,0.369840532541275,-2.179560422897339,-0.26989394426345825,1.1446174383163452
12.695664167404175,0.028038453310728073,-0.5231937170028687,0.36755168437957764,-2.180323600769043,-0.26913100481033325,1.1442358493804932
12.71575140953064,0.028038453310728073,-0.5201418995857239,0.36526283621788025,-2.181086540222168,-0.26722362637519836,1.1438543796539307
12.735832929611206,0.02727550081908703,-0.5178530812263489,0.36335545778274536,-2.1822309494018555,-0.26722362637519836,1.1430914402008057
12.756322145462036,0.02689402550458908,-0.5159456729888916,0.36259251832962036,-2.1845197677612305,-0.2645532786846161,1.1427099704742432
12.776406049728394,0.026131074875593185,-0.5140383243560791,0.3606851398944855,-2.1845197677612305,-0.2653162479400635,1.1404211521148682
12.796472311019897,0.026131074875593185,-0.5121309161186218,0.3599221706390381,-2.184138298034668,-0.264934778213501,1.1404211521148682
12.816524744033813,0.02536812424659729,-0.5109865069389343,0.3580147922039032,-2.184138298034668,-0.2641718089580536,1.1400396823883057
12.836610794067383,0.024223696440458298,-0.5086976289749146,0.3564889132976532,-2.184138298034668,-0.2630273997783661,1.1396582126617432
12.856687068939209,0.02384222112596035,-0.5071717500686646,0.3561074137687683,-2.184138298034668,-0.2599755823612213,1.1392767429351807
12.87674593925476,0.024223696440458298,-0.5064088106155396,0.3553444743156433,-2.184138298034668,-0.2592126429080963,1.1381323337554932
12.896849870681763,0.024223696440458298,-0.5056458115577698,0.3549630045890808,-2.1845197677612305,-0.2580682039260864,1.1369879245758057
12.916945695877075,0.024223696440458298,-0.5041199326515198,0.3538185656070709,-2.1845197677612305,-0.2576867341995239,1.1366063356399536
12.937052249908447,0.024223696440458298,-0.5033569931983948,0.3534370958805084,-2.1845197677612305,-0.2576867341995239,1.1366063356399536
12.957073211669922,0.02384222112596035,-0.5025940537452698,0.3530556261539459,-2.1845197677612305,-0.2573052644729614,1.1366063356399536
12.977217674255371,0.023079270496964455,-0.5014495849609375,0.35229265689849854,-2.1845197677612305,-0.25616082549095154,1.1362248659133911
12.997291326522827,0.02193484455347061,-0.4999237060546875,0.35076677799224854,-2.184138298034668,-0.25616082549095154,1.1362248659133911
13.017297506332397,0.02193484455347061,-0.4991607666015625,0.35076677799224854,-2.1845197677612305,-0.25234606862068176,1.1358433961868286
13.037387371063232,0.02193484455347061,-0.4983977973461151,0.35000380873680115,-2.184138298034668,-0.25158312916755676,1.1346989870071411
13.057492017745972,0.02079041674733162,-0.4968718886375427,0.34924086928367615,-2.184138298034668,-0.24967575073242188,1.1335545778274536
13.077563524246216,0.02079041674733162,-0.4957274794578552,0.34924086928367615,-2.1845197677612305,-0.2470054179430008,1.1331731081008911
13.097780466079712,0.02079041674733162,-0.4953460097312927,0.34924086928367615,-2.1845197677612305,-0.2458609938621521,1.1331731081008911
13.117950201034546,0.02040894143283367,-0.49496451020240784,0.34885939955711365,-2.1845197677612305,-0.2450980395078659,1.1331731081008911
13.137949466705322,0.019645990803837776,-0.49496451020240784,0.34885939955711365,-2.1845197677612305,-0.2454795092344284,1.1327916383743286
13.15824031829834,0.019645990803837776,-0.49458304047584534,0.34885939955711365,-2.184138298034668,-0.2458609938621521,1.1324101686477661
13.178394556045532,0.019645990803837776,-0.49382010102272034,0.34885939955711365,-2.184138298034668,-0.2458609938621521,1.1324101686477661
13.198423624038696,0.01926451548933983,-0.49343863129615784,0.34809643030166626,-2.1845197677612305,-0.2458609938621521,1.1320286989212036
13.218491792678833,0.01888304017484188,-0.49305713176727295,0.34809643030166626,-2.184138298034668,-0.2458609938621521,1.1312657594680786
13.23856806755066,0.01888304017484188,-0.49267566204071045,0.34771496057510376,-2.1845197677612305,-0.2450980395078659,1.1301213502883911
13.258778810501099,0.01888304017484188,-0.49267566204071045,0.34733349084854126,-2.1845197677612305,-0.2450980395078659,1.1297398805618286
13.27874493598938,0.01888304017484188,-0.49229419231414795,0.34733349084854126,-2.184138298034668,-0.2450980395078659,1.1293584108352661
13.298885583877563,0.01888304017484188,-0.49153125286102295,0.34695202112197876,-2.184138298034668,-0.2450980395078659,1.1293584108352661
13.31906270980835,0.01888304017484188,-0.49153125286102295,0.34695202112197876,-2.184138298034668,-0.2447165697813034,1.1293584108352661
13.339165687561035,0.01888304017484188,-0.49114975333213806,0.34695202112197876,-2.184138298034668,-0.2447165697813034,1.1293584108352661
13.35921311378479,0.01888304017484188,-0.49076828360557556,0.34695202112197876,-2.184138298034668,-0.2447165697813034,1.1293584108352661
13.379295110702515,0.018501564860343933,-0.49076828360557556,0.34695202112197876,-2.184138298034668,-0.2443350851535797,1.1293584108352661
13.399431705474854,0.018501564860343933,-0.49076828360557556,0.34695202112197876,-2.184138298034668,-0.2443350851535797,1.1293584108352661
13.419464826583862,0.018501564860343933,-0.49038681387901306,0.34695202112197876,-2.184138298034668,-0.2443350851535797,1.1293584108352661
13.44003415107727,0.018501564860343933,-0.49038681387901306,0.34695202112197876,-2.184138298034668,-0.2439536154270172,1.1289769411087036
13.460152387619019,0.018120087683200836,-0.49000534415245056,0.34695202112197876,-2.184138298034668,-0.24357213079929352,1.1289769411087036
13.480194091796875,0.01773861236870289,-0.48962387442588806,0.34695202112197876,-2.184138298034668,-0.24280919134616852,1.1289769411087036
13.50036096572876,0.01773861236870289,-0.48962387442588806,0.34695202112197876,-2.184138298034668,-0.24242770671844482,1.1289769411087036
13.520493268966675,0.01773861236870289,-0.48962387442588806,0.34695202112197876,-2.184138298034668,-0.24242770671844482,1.1285953521728516
13.540475606918335,0.01773861236870289,-0.48962387442588806,0.34695202112197876,-2.184138298034668,-0.24242770671844482,1.1285953521728516
13.560543775558472,0.01773861236870289,-0.48962387442588806,0.34695202112197876,-2.184138298034668,-0.24204623699188232,1.1285953521728516
13.580894470214844,0.01773861236870289,-0.48962387442588806,0.34657052159309387,-2.184138298034668,-0.24166475236415863,1.1285953521728516
13.601034879684448,0.01773861236870289,-0.4892423748970032,0.34657052159309387,-2.184138298034668,-0.24166475236415863,1.128213882446289
13.621092319488525,0.01773861236870289,-0.4892423748970032,0.34657052159309387,-2.1837568283081055,-0.24166475236415863,1.128213882446289
13.641124486923218,0.01773861236870289,-0.4892423748970032,0.34657052159309387,-2.184138298034668,-0.24166475236415863,1.1278324127197266
13.661348819732666,0.01773861236870289,-0.4892423748970032,0.34657052159309387,-2.1837568283081055,-0.24166475236415863,1.1278324127197266
13.681292057037354,0.01773861236870289,-0.4892423748970032,0.34657052159309387,-2.1837568283081055,-0.24166475236415863,1.127450942993164
13.701401472091675,0.01773861236870289,-0.4892423748970032,0.34657052159309387,-2.1837568283081055,-0.24128328263759613,1.127450942993164
13.721403360366821,0.01773861236870289,-0.4888609051704407,0.34618905186653137,-2.1837568283081055,-0.24128328263759613,1.1270694732666016
13.741501808166504,0.01773861236870289,-0.4888609051704407,0.34618905186653137,-2.1837568283081055,-0.24128328263759613,1.1270694732666016
13.761567831039429,0.01735713705420494,-0.4884794354438782,0.34618905186653137,-2.1837568283081055,-0.24090181291103363,1.126688003540039
13.781656265258789,0.01735713705420494,-0.4884794354438782,0.34618905186653137,-2.1837568283081055,-0.24090181291103363,1.126688003540039
13.801687240600586,0.01735713705420494,-0.4884794354438782,0.34618905186653137,-2.1837568283081055,-0.24090181291103363,1.126688003540039
13.821810722351074,0.01735713705420494,-0.4884794354438782,0.34618905186653137,-2.1837568283081055,-0.24090181291103363,1.126688003540039
13.841896772384644,0.016975661739706993,-0.4884794354438782,0.34618905186653137,-2.1837568283081055,-0.24090181291103363,1.126688003540039
13.861935138702393,0.016594186425209045,-0.4884794354438782,0.34618905186653137,-2.1837568283081055,-0.24090181291103363,1.1263065338134766
13.882016897201538,0.016594186425209045,-0.4884794354438782,0.34657052159309387,-2.183375358581543,-0.24052032828330994,1.1263065338134766
13.902129888534546,0.016594186425209045,-0.4884794354438782,0.34657052159309387,-2.183375358581543,-0.24052032828330994,1.1263065338134766
13.922171831130981,0.016594186425209045,-0.4884794354438782,0.34657052159309387,-2.183375358581543,-0.24013885855674744,1.1263065338134766
13.942296028137207,0.016594186425209045,-0.4884794354438782,0.34657052159309387,-2.183375358581543,-0.24013885855674744,1.1263065338134766
13.962402820587158,0.016594186425209045,-0.4884794354438782,0.34657052159309387,-2.183375358581543,-0.24013885855674744,1.1263065338134766
13.982485294342041,0.016594186425209045,-0.4884794354438782,0.34657052159309387,-2.183375358581543,-0.24013885855674744,1.1263065338134766
14.002808332443237,0.016975661739706993,-0.4884794354438782,0.34657052159309387,-2.183375358581543,-0.24013885855674744,1.1263065338134766
14.023018836975098,0.016975661739706993,-0.4884794354438782,0.34657052159309387,-2.183375358581543,-0.23975738883018494,1.1263065338134766
14.043140411376953,0.016594186425209045,-0.4884794354438782,0.34657052159309387,-2.183375358581543,-0.23975738883018494,1.1263065338134766
14.063118696212769,0.016594186425209045,-0.4884794354438782,0.34657052159309387,-2.183375358581543,-0.23937590420246124,1.1263065338134766
14.083210945129395,0.016975661739706993,-0.4884794354438782,0.34657052159309387,-2.183375358581543,-0.23937590420246124,1.125925064086914
14.103278636932373,0.016594186425209045,-0.4884794354438782,0.34657052159309387,-2.183375358581543,-0.23937590420246124,1.125925064086914
14.123340368270874,0.016594186425209045,-0.4884794354438782,0.34657052159309387,-2.1829938888549805,-0.23937590420246124,1.125925064086914
14.14339542388916,0.016594186425209045,-0.4884794354438782,0.34657052159309387,-2.1829938888549805,-0.23937590420246124,1.125925064086914
14.163496017456055,0.016594186425209045,-0.4884794354438782,0.34695202112197876,-2.1829938888549805,-0.23937590420246124,1.125925064086914
14.183612585067749,0.016594186425209045,-0.4884794354438782,0.34695202112197876,-2.1829938888549805,-0.23937590420246124,1.125925064086914
14.20365309715271,0.016594186425209045,-0.4884794354438782,0.34695202112197876,-2.1829938888549805,-0.23937590420246124,1.125925064086914
14.223761081695557,0.016594186425209045,-0.4884794354438782,0.34695202112197876,-2.1829938888549805,-0.23937590420246124,1.125925064086914
14.243849515914917,0.016594186425209045,-0.4884794354438782,0.34695202112197876,-2.1829938888549805,-0.23937590420246124,1.125925064086914
14.26392126083374,0.016594186425209045,-0.4884794354438782,0.34695202112197876,-2.182612419128418,-0.23899443447589874,1.125925064086914
14.283978939056396,0.016594186425209045,-0.4884794354438782,0.34695202112197876,-2.182612419128418,-0.23937590420246124,1.125925064086914
14.304123878479004,0.016594186425209045,-0.4884794354438782,0.34695202112197876,-2.1829938888549805,-0.23937590420246124,1.125925064086914
14.324177742004395,0.016594186425209045,-0.4884794354438782,0.34695202112197876,-2.182612419128418,-0.23937590420246124,1.125925064086914
14.34431266784668,0.016594186425209045,-0.4884794354438782,0.34695202112197876,-2.182612419128418,-0.23937590420246124,1.125925064086914
14.364351272583008,0.016594186425209045,-0.4884794354438782,0.34695202112197876,-2.182612419128418,-0.23899443447589874,1.125925064086914
14.384533882141113,0.016594186425209045,-0.4884794354438782,0.34695202112197876,-2.182612419128418,-0.23899443447589874,1.1255435943603516
