liuyurong129/humanoid-gym/humanoid/data/actual_q_20250522-225150.csv
timestamp,joint_1,joint_2,joint_3,joint_4,joint_5,joint_6
3.62396240234375e-05,-0.009346150793135166,0.17490653693675995,-0.0879301130771637,-0.00019073777366429567,0.0020981156267225742,-0.007057297509163618
0.0201418399810791,-0.009346150793135166,0.15468832850456238,-0.07915617525577545,-0.00019073777366429567,0.001716639962978661,-0.007057297509163618
0.040250301361083984,-0.0078202486038208,0.13103684782981873,-0.06809338182210922,-0.000572213320992887,0.001716639962978661,-0.00667582219466567
0.06025838851928711,-0.006294346414506435,0.11387044936418533,-0.06160829961299896,-0.00019073777366429567,0.0024795911740511656,-0.00667582219466567
0.08037734031677246,-0.005531395319849253,0.10967422276735306,-0.05970092490315437,-0.000572213320992887,0.0013351644156500697,-0.00667582219466567
0.10046672821044922,-0.005531395319849253,0.11081864684820175,-0.06046387553215027,-0.000572213320992887,0.001716639962978661,-0.00667582219466567
0.12048530578613281,-0.005531395319849253,0.11348897218704224,-0.05970092490315437,-0.000572213320992887,0.001716639962978661,-0.00667582219466567
0.14056658744812012,-0.005531395319849253,0.11387044936418533,-0.05855649709701538,-0.000572213320992887,0.0024795911740511656,-0.00667582219466567
0.1606464385986328,-0.005531395319849253,0.11387044936418533,-0.058175019919872284,-0.000572213320992887,0.0024795911740511656,-0.006294346414506435
0.18070602416992188,-0.005531395319849253,0.11348897218704224,-0.05855649709701538,-0.0009536888683214784,0.0020981156267225742,-0.00667582219466567
0.20098209381103516,-0.005531395319849253,0.11272602528333664,-0.05855649709701538,-0.0009536888683214784,0.0024795911740511656,-0.00667582219466567
0.2210979461669922,-0.005531395319849253,0.11272602528333664,-0.058175019919872284,-0.0013351644156500697,0.0020981156267225742,-0.00667582219466567
0.24125123023986816,-0.005531395319849253,0.11310750246047974,-0.058175019919872284,-0.0013351644156500697,0.001716639962978661,-0.00667582219466567
0.2613348960876465,-0.005531395319849253,0.11272602528333664,-0.057793546468019485,-0.001716639962978661,0.001716639962978661,-0.00667582219466567
0.2814023494720459,-0.005531395319849253,0.11272602528333664,-0.05741206929087639,-0.0020981156267225742,0.001716639962978661,-0.00667582219466567
0.301469087600708,-0.005149920005351305,0.11272602528333664,-0.05741206929087639,-0.0024795911740511656,0.001716639962978661,-0.00667582219466567
0.3215219974517822,-0.005149920005351305,0.11234454810619354,-0.05741206929087639,-0.0032425422687083483,0.0020981156267225742,-0.00667582219466567
0.3416163921356201,-0.00476844422519207,0.11196307092905045,-0.05703059583902359,-0.0036240178160369396,0.0020981156267225742,-0.00667582219466567
0.3617868423461914,-0.004386968910694122,0.11196307092905045,-0.05664911866188049,-0.0036240178160369396,0.0020981156267225742,-0.00667582219466567
0.3818092346191406,-0.004386968910694122,0.11196307092905045,-0.056267641484737396,-0.004005493130534887,0.0020981156267225742,-0.00667582219466567
0.40204763412475586,-0.004386968910694122,0.11196307092905045,-0.0555046908557415,-0.004386968910694122,0.0020981156267225742,-0.00667582219466567
0.4221367835998535,-0.004386968910694122,0.11196307092905045,-0.0555046908557415,-0.004386968910694122,0.0020981156267225742,-0.00667582219466567
0.4423396587371826,-0.004386968910694122,0.11158160120248795,-0.0555046908557415,-0.00476844422519207,0.0020981156267225742,-0.00667582219466567
0.46233272552490234,-0.004386968910694122,0.11158160120248795,-0.0555046908557415,-0.005149920005351305,0.0020981156267225742,-0.00667582219466567
0.4824099540710449,-0.004386968910694122,0.11158160120248795,-0.0555046908557415,-0.005912871100008488,0.0020981156267225742,-0.00667582219466567
0.5025215148925781,-0.004005493130534887,0.11158160120248795,-0.0551232174038887,-0.00667582219466567,0.0020981156267225742,-0.00667582219466567
0.5225694179534912,-0.004005493130534887,0.11081864684820175,-0.054741740226745605,-0.007057297509163618,0.0020981156267225742,-0.00667582219466567
0.5427556037902832,-0.0036240178160369396,0.11081864684820175,-0.05436026677489281,-0.007057297509163618,0.0020981156267225742,-0.00667582219466567
0.562842607498169,-0.0032425422687083483,0.11081864684820175,-0.05436026677489281,-0.007438773289322853,0.0020981156267225742,-0.00667582219466567
0.582921028137207,-0.0032425422687083483,0.11081864684820175,-0.05397878959774971,-0.007438773289322853,0.0020981156267225742,-0.00667582219466567
0.6029660701751709,-0.0032425422687083483,0.11043716967105865,-0.05359731614589691,-0.0078202486038208,0.0020981156267225742,-0.00667582219466567
0.6230559349060059,-0.002861066721379757,0.11043716967105865,-0.05359731614589691,-0.0078202486038208,0.0020981156267225742,-0.00667582219466567
0.6431617736816406,-0.0024795911740511656,0.10967422276735306,-0.053215838968753815,-0.008201723918318748,0.001716639962978661,-0.00667582219466567
0.6632509231567383,-0.0024795911740511656,0.10967422276735306,-0.053215838968753815,-0.00858320016413927,0.0020981156267225742,-0.00667582219466567
0.6832833290100098,-0.0024795911740511656,0.10967422276735306,-0.053215838968753815,-0.008964675478637218,0.001716639962978661,-0.00667582219466567
0.703350305557251,-0.0024795911740511656,0.10967422276735306,-0.05283436179161072,-0.010109102353453636,0.0020981156267225742,-0.00667582219466567
0.7234270572662354,-0.0024795911740511656,0.10967422276735306,-0.05245288833975792,-0.010872052982449532,0.0020981156267225742,-0.00667582219466567
0.7435786724090576,-0.0024795911740511656,0.10967422276735306,-0.05207141116261482,-0.010872052982449532,0.001716639962978661,-0.00667582219466567
0.7636632919311523,-0.0024795911740511656,0.10967422276735306,-0.05130846053361893,-0.01125352829694748,0.001716639962978661,-0.00667582219466567
0.7837224006652832,-0.0020981156267225742,0.10929274559020996,-0.05130846053361893,-0.01125352829694748,0.001716639962978661,-0.00667582219466567
0.8038451671600342,-0.0020981156267225742,0.10891126841306686,-0.05130846053361893,-0.011635004542768002,0.001716639962978661,-0.00667582219466567
0.8239336013793945,-0.0020981156267225742,0.10852979123592377,-0.05130846053361893,-0.011635004542768002,0.0020981156267225742,-0.00667582219466567
0.8440170288085938,-0.001716639962978661,0.10852979123592377,-0.05130846053361893,-0.01201647985726595,0.001716639962978661,-0.00667582219466567
0.8640859127044678,-0.0013351644156500697,0.10852979123592377,-0.05092698708176613,-0.012397955171763897,0.001716639962978661,-0.00667582219466567
0.8841519355773926,-0.0013351644156500697,0.10852979123592377,-0.050164032727479935,-0.013160906732082367,0.001716639962978661,-0.00667582219466567
0.9042165279388428,-0.0013351644156500697,0.10852979123592377,-0.050164032727479935,-0.014686808921396732,0.0020981156267225742,-0.00667582219466567
0.9243018627166748,-0.0009536888683214784,0.10852979123592377,-0.049782559275627136,-0.01506828423589468,0.0020981156267225742,-0.00667582219466567
0.9443833827972412,-0.00019073777366429567,0.10814831405878067,-0.049782559275627136,-0.01506828423589468,0.001716639962978661,-0.00667582219466567
0.9644825458526611,-0.00019073777366429567,0.10776684433221817,-0.049782559275627136,-0.01506828423589468,0.0020981156267225742,-0.00667582219466567
0.9845905303955078,-0.00019073777366429567,0.10738536715507507,-0.04940108209848404,-0.015449759550392628,0.0020981156267225742,-0.00667582219466567
1.0046253204345703,-0.00019073777366429567,0.10738536715507507,-0.04901960864663124,-0.01583123579621315,0.0020981156267225742,-0.00667582219466567
1.0247209072113037,-0.00019073777366429567,0.10738536715507507,-0.048256658017635345,-0.016212711110711098,0.0020981156267225742,-0.00667582219466567
1.0447938442230225,-0.00019073777366429567,0.10738536715507507,-0.04787518084049225,-0.016594186425209045,0.0020981156267225742,-0.00667582219466567
1.0648410320281982,-0.00019073777366429567,0.10700388997793198,-0.04787518084049225,-0.01735713705420494,0.001716639962978661,-0.00667582219466567
1.0849974155426025,-0.00019073777366429567,0.10662241280078888,-0.04787518084049225,-0.018120087683200836,0.001716639962978661,-0.00667582219466567
1.1050219535827637,-0.00019073777366429567,0.10662241280078888,-0.04749370738863945,-0.018501564860343933,0.001716639962978661,-0.00667582219466567
1.125075340270996,0.00019073777366429567,0.10662241280078888,-0.04749370738863945,-0.018501564860343933,0.0020981156267225742,-0.00667582219466567
1.145153284072876,0.00019073777366429567,0.10662241280078888,-0.04711223021149635,-0.01888304017484188,0.0020981156267225742,-0.00667582219466567
1.1652581691741943,0.000572213320992887,0.10662241280078888,-0.046730753034353256,-0.01888304017484188,0.0020981156267225742,-0.00667582219466567
1.185333251953125,0.000572213320992887,0.10624094307422638,-0.04596780240535736,-0.01926451548933983,0.0020981156267225742,-0.00667582219466567
1.2053759098052979,0.000572213320992887,0.10547798871994019,-0.04596780240535736,-0.01926451548933983,0.001716639962978661,-0.00667582219466567
1.2254505157470703,0.000572213320992887,0.10547798871994019,-0.04596780240535736,-0.019645990803837776,0.0020981156267225742,-0.00667582219466567
1.245563268661499,0.000572213320992887,0.10547798871994019,-0.04558632895350456,-0.019645990803837776,0.0020981156267225742,-0.00667582219466567
1.2655799388885498,0.000572213320992887,0.10547798871994019,-0.04558632895350456,-0.02040894143283367,0.0020981156267225742,-0.00667582219466567
1.285717248916626,0.000572213320992887,0.10547798871994019,-0.045204851776361465,-0.021171892061829567,0.0020981156267225742,-0.00667582219466567
1.3058083057403564,0.0009536888683214784,0.10509651154279709,-0.04482337832450867,-0.02193484455347061,0.0020981156267225742,-0.00667582219466567
1.325838327407837,0.0009536888683214784,0.10471503436565399,-0.04406042397022247,-0.02231631986796856,0.0020981156267225742,-0.00667582219466567
1.3459153175354004,0.001716639962978661,0.10471503436565399,-0.043678950518369675,-0.02231631986796856,0.001716639962978661,-0.00667582219466567
1.366034984588623,0.001716639962978661,0.10471503436565399,-0.043678950518369675,-0.022697795182466507,0.0020981156267225742,-0.00667582219466567
1.386094093322754,0.001716639962978661,0.10433356463909149,-0.04329747334122658,-0.022697795182466507,0.0020981156267225742,-0.00667582219466567
1.4061040878295898,0.001716639962978661,0.10433356463909149,-0.04329747334122658,-0.023079270496964455,0.0020981156267225742,-0.00667582219466567
1.426274299621582,0.001716639962978661,0.10433356463909149,-0.04329747334122658,-0.023460745811462402,0.0020981156267225742,-0.00667582219466567
1.446371078491211,0.0020981156267225742,0.10433356463909149,-0.04291599988937378,-0.023460745811462402,0.001716639962978661,-0.00667582219466567
1.466456651687622,0.0024795911740511656,0.1039520874619484,-0.04291599988937378,-0.02384222112596035,0.001716639962978661,-0.00667582219466567
1.4864881038665771,0.0024795911740511656,0.1035706102848053,-0.04291599988937378,-0.024223696440458298,0.001716639962978661,-0.00667582219466567
1.5065696239471436,0.0024795911740511656,0.1031891331076622,-0.04253452271223068,-0.024986648932099342,0.001716639962978661,-0.00667582219466567
1.5267798900604248,0.0024795911740511656,0.1031891331076622,-0.042153049260377884,-0.025749599561095238,0.0020981156267225742,-0.00667582219466567
1.5468053817749023,0.0024795911740511656,0.1028076633810997,-0.04177157208323479,-0.025749599561095238,0.0020981156267225742,-0.00667582219466567
1.566868543624878,0.002861066721379757,0.1028076633810997,-0.04100862145423889,-0.025749599561095238,0.001716639962978661,-0.00667582219466567
1.5869638919830322,0.002861066721379757,0.1024261862039566,-0.04100862145423889,-0.026131074875593185,0.001716639962978661,-0.00667582219466567
1.6070101261138916,0.002861066721379757,0.1024261862039566,-0.04100862145423889,-0.026512550190091133,0.001716639962978661,-0.00667582219466567
1.6272084712982178,0.002861066721379757,0.1024261862039566,-0.040627144277095795,-0.026512550190091133,0.001716639962978661,-0.00667582219466567
1.6473338603973389,0.002861066721379757,0.1024261862039566,-0.040245670825242996,-0.02689402550458908,0.001716639962978661,-0.00667582219466567
1.6674222946166992,0.0032425422687083483,0.1024261862039566,-0.0398641936480999,-0.02727550081908703,0.001716639962978661,-0.00667582219466567
1.6874942779541016,0.004005493130534887,0.1024261862039566,-0.039101243019104004,-0.027656977996230125,0.001716639962978661,-0.00667582219466567
1.7076141834259033,0.004005493130534887,0.10204470902681351,-0.039101243019104004,-0.028038453310728073,0.001716639962978661,-0.00667582219466567
1.7276875972747803,0.004005493130534887,0.10166323184967041,-0.038719769567251205,-0.02880140393972397,0.001716639962978661,-0.00667582219466567
1.7477054595947266,0.00476844422519207,0.10128175467252731,-0.039101243019104004,-0.029182879254221916,0.001716639962978661,-0.00667582219466567
1.7682313919067383,0.00476844422519207,0.10128175467252731,-0.039101243019104004,-0.029564354568719864,0.001716639962978661,-0.00667582219466567
1.7884042263031006,0.00476844422519207,0.10128175467252731,-0.038719769567251205,-0.02994582988321781,0.001716639962978661,-0.00667582219466567
1.8084845542907715,0.00476844422519207,0.10128175467252731,-0.03795681521296501,-0.02994582988321781,0.001716639962978661,-0.00667582219466567
1.8285346031188965,0.00476844422519207,0.10090028494596481,-0.03757534176111221,-0.03032730519771576,0.001716639962978661,-0.00667582219466567
1.8486151695251465,0.00476844422519207,0.10051880776882172,-0.037193864583969116,-0.03032730519771576,0.001716639962978661,-0.00667582219466567
1.8687286376953125,0.00476844422519207,0.10051880776882172,-0.03681239113211632,-0.030708782374858856,0.001716639962978661,-0.00667582219466567
1.88885498046875,0.00476844422519207,0.10051880776882172,-0.03681239113211632,-0.030708782374858856,0.001716639962978661,-0.00667582219466567
1.9089233875274658,0.00476844422519207,0.10051880776882172,-0.03681239113211632,-0.031090257689356804,0.001716639962978661,-0.00667582219466567
1.929093837738037,0.00476844422519207,0.10013733059167862,-0.03643091395497322,-0.03147173300385475,0.001716639962978661,-0.00667582219466567
1.9491467475891113,0.005149920005351305,0.10013733059167862,-0.03643091395497322,-0.03223468363285065,0.001716639962978661,-0.00667582219466567
1.9691739082336426,0.005149920005351305,0.09937438368797302,-0.035667963325977325,-0.03299763426184654,0.001716639962978661,-0.00667582219466567
1.9892516136169434,0.005149920005351305,0.09937438368797302,-0.035667963325977325,-0.03337911143898964,0.001716639962978661,-0.00667582219466567
2.0093445777893066,0.005531395319849253,0.09937438368797302,-0.03528648987412453,-0.03376058489084244,0.0013351644156500697,-0.00667582219466567
2.0293996334075928,0.007057297509163618,0.09937438368797302,-0.03528648987412453,-0.03376058489084244,0.0013351644156500697,-0.00667582219466567
2.049682855606079,0.007057297509163618,0.09899290651082993,-0.03490501269698143,-0.034142062067985535,0.0013351644156500697,-0.00667582219466567
2.069791316986084,0.00667582219466567,0.09822995215654373,-0.03490501269698143,-0.03452353551983833,0.001716639962978661,-0.00667582219466567
2.0899083614349365,0.007057297509163618,0.09822995215654373,-0.03452353551983833,-0.03452353551983833,0.001716639962978661,-0.00667582219466567
2.109926700592041,0.007057297509163618,0.09822995215654373,-0.03452353551983833,-0.03490501269698143,0.0013351644156500697,-0.00667582219466567
2.1300790309906006,0.007057297509163618,0.09822995215654373,-0.03376058489084244,-0.035667963325977325,0.0013351644156500697,-0.00667582219466567
2.150108814239502,0.007057297509163618,0.09822995215654373,-0.03337911143898964,-0.03681239113211632,0.0009536888683214784,-0.00667582219466567
2.170151948928833,0.007057297509163618,0.09822995215654373,-0.03337911143898964,-0.037193864583969116,0.0009536888683214784,-0.00667582219466567
2.1904518604278564,0.007057297509163618,0.09784847497940063,-0.03299763426184654,-0.037193864583969116,0.0013351644156500697,-0.00667582219466567
2.2105870246887207,0.007057297509163618,0.09746700525283813,-0.032616160809993744,-0.03757534176111221,0.0013351644156500697,-0.00667582219466567
2.2306337356567383,0.007057297509163618,0.09708552807569504,-0.032616160809993744,-0.03757534176111221,0.0013351644156500697,-0.00667582219466567
2.250667095184326,0.007057297509163618,0.09746700525283813,-0.032616160809993744,-0.03795681521296501,0.0013351644156500697,-0.00667582219466567
2.2707619667053223,0.007057297509163618,0.09746700525283813,-0.032616160809993744,-0.03833829239010811,0.0009536888683214784,-0.00667582219466567
2.2908639907836914,0.007438773289322853,0.09708552807569504,-0.03185320645570755,-0.03833829239010811,0.0009536888683214784,-0.00667582219466567
2.310925006866455,0.0078202486038208,0.09708552807569504,-0.03147173300385475,-0.039101243019104004,0.0009536888683214784,-0.00667582219466567
2.3311140537261963,0.0078202486038208,0.09670405089855194,-0.03147173300385475,-0.0398641936480999,0.0013351644156500697,-0.00667582219466567
2.3512258529663086,0.008201723918318748,0.09632257372140884,-0.031090257689356804,-0.04139009863138199,0.0013351644156500697,-0.00667582219466567
2.3712618350982666,0.0078202486038208,0.09632257372140884,-0.031090257689356804,-0.04139009863138199,0.0013351644156500697,-0.00667582219466567
2.3913111686706543,0.008201723918318748,0.09632257372140884,-0.030708782374858856,-0.04139009863138199,0.0013351644156500697,-0.00667582219466567
2.411409378051758,0.008201723918318748,0.09594109654426575,-0.030708782374858856,-0.04177157208323479,0.0009536888683214784,-0.00667582219466567
2.4314796924591064,0.008201723918318748,0.09555962681770325,-0.03032730519771576,-0.042153049260377884,0.0009536888683214784,-0.00667582219466567
2.451568603515625,0.00858320016413927,0.09517814964056015,-0.029564354568719864,-0.042153049260377884,0.0009536888683214784,-0.00667582219466567
2.4716975688934326,0.008964675478637218,0.09517814964056015,-0.029564354568719864,-0.04291599988937378,0.0013351644156500697,-0.00667582219466567
2.4917900562286377,0.008964675478637218,0.09517814964056015,-0.029182879254221916,-0.04329747334122658,0.0013351644156500697,-0.00667582219466567
2.51190185546875,0.008964675478637218,0.09517814964056015,-0.02880140393972397,-0.04444190114736557,0.0013351644156500697,-0.00667582219466567
2.531919002532959,0.008964675478637218,0.09517814964056015,-0.02880140393972397,-0.04444190114736557,0.0013351644156500697,-0.00667582219466567
2.5520009994506836,0.008964675478637218,0.09517814964056015,-0.02880140393972397,-0.04482337832450867,0.0009536888683214784,-0.00667582219466567
2.5721654891967773,0.008964675478637218,0.09479667246341705,-0.02841992862522602,-0.04482337832450867,0.0009536888683214784,-0.00667582219466567
2.5922675132751465,0.008964675478637218,0.09441519528627396,-0.02841992862522602,-0.04482337832450867,0.0009536888683214784,-0.00667582219466567
2.612318754196167,0.009346150793135166,0.09441519528627396,-0.028038453310728073,-0.045204851776361465,0.0009536888683214784,-0.00667582219466567
2.632436990737915,0.009346150793135166,0.09403372555971146,-0.027656977996230125,-0.045204851776361465,0.0009536888683214784,-0.00667582219466567
2.6525609493255615,0.009727626107633114,0.09403372555971146,-0.02727550081908703,-0.04558632895350456,0.0009536888683214784,-0.00667582219466567
2.6725823879241943,0.010109102353453636,0.09403372555971146,-0.026512550190091133,-0.04558632895350456,0.0009536888683214784,-0.00667582219466567
2.6926498413085938,0.010109102353453636,0.09365224838256836,-0.026512550190091133,-0.04596780240535736,0.0009536888683214784,-0.00667582219466567
2.712723970413208,0.010109102353453636,0.09327077120542526,-0.026512550190091133,-0.04634927958250046,0.0009536888683214784,-0.00667582219466567
2.732767343521118,0.010109102353453636,0.09327077120542526,-0.026512550190091133,-0.04711223021149635,0.0009536888683214784,-0.00667582219466567
2.752861261367798,0.010109102353453636,0.09327077120542526,-0.026131074875593185,-0.04787518084049225,0.0009536888683214784,-0.00667582219466567
2.772921562194824,0.010109102353453636,0.09288929402828217,-0.025749599561095238,-0.048638131469488144,0.0009536888683214784,-0.00667582219466567
2.7929954528808594,0.010109102353453636,0.09288929402828217,-0.02536812424659729,-0.048638131469488144,0.0009536888683214784,-0.00667582219466567
2.8130507469177246,0.010109102353453636,0.09288929402828217,-0.024986648932099342,-0.04901960864663124,0.0009536888683214784,-0.00667582219466567
2.833134651184082,0.010490577667951584,0.09288929402828217,-0.024605173617601395,-0.04901960864663124,0.0009536888683214784,-0.00667582219466567
2.8532135486602783,0.010872052982449532,0.09212634712457657,-0.024223696440458298,-0.04940108209848404,0.0009536888683214784,-0.00667582219466567
2.8732573986053467,0.010872052982449532,0.09212634712457657,-0.024223696440458298,-0.049782559275627136,0.0009536888683214784,-0.00667582219466567
2.893369674682617,0.010872052982449532,0.09212634712457657,-0.024223696440458298,-0.050164032727479935,0.0009536888683214784,-0.00667582219466567
2.913433790206909,0.01125352829694748,0.09174486994743347,-0.02384222112596035,-0.05054550990462303,0.0009536888683214784,-0.00667582219466567
2.9334700107574463,0.01125352829694748,0.09212634712457657,-0.023460745811462402,-0.05130846053361893,0.0009536888683214784,-0.00667582219466567
2.9535624980926514,0.01125352829694748,0.09174486994743347,-0.023079270496964455,-0.05207141116261482,0.0009536888683214784,-0.00667582219466567
2.9736270904541016,0.01125352829694748,0.09098191559314728,-0.02231631986796856,-0.05207141116261482,0.0009536888683214784,-0.00667582219466567
2.9937028884887695,0.01201647985726595,0.09098191559314728,-0.02231631986796856,-0.05245288833975792,0.000572213320992887,-0.00667582219466567
3.0137526988983154,0.01201647985726595,0.09098191559314728,-0.02231631986796856,-0.05245288833975792,0.000572213320992887,-0.00667582219466567
3.0338680744171143,0.01201647985726595,0.09060044586658478,-0.02231631986796856,-0.05283436179161072,0.0009536888683214784,-0.00667582219466567
3.0539462566375732,0.01201647985726595,0.09060044586658478,-0.02193484455347061,-0.05283436179161072,0.0009536888683214784,-0.00667582219466567
3.07399320602417,0.01201647985726595,0.09021896868944168,-0.021171892061829567,-0.053215838968753815,0.0009536888683214784,-0.00667582219466567
3.0940914154052734,0.012397955171763897,0.09021896868944168,-0.021171892061829567,-0.053215838968753815,0.000572213320992887,-0.00667582219466567
3.114152431488037,0.012397955171763897,0.09021896868944168,-0.02079041674733162,-0.05359731614589691,0.000572213320992887,-0.00667582219466567
3.1342170238494873,0.012397955171763897,0.09021896868944168,-0.02079041674733162,-0.05397878959774971,0.000572213320992887,-0.00667582219466567
3.1542928218841553,0.013160906732082367,0.08983749151229858,-0.02040894143283367,-0.05436026677489281,0.000572213320992887,-0.00667582219466567
3.174363374710083,0.013160906732082367,0.08983749151229858,-0.020027466118335724,-0.0551232174038887,0.000572213320992887,-0.00667582219466567
3.1944596767425537,0.013160906732082367,0.08983749151229858,-0.020027466118335724,-0.0558861680328846,0.000572213320992887,-0.00667582219466567
3.2145028114318848,0.013160906732082367,0.08945601433515549,-0.01926451548933983,-0.056267641484737396,0.000572213320992887,-0.00667582219466567
3.2346913814544678,0.013542382046580315,0.08907453715801239,-0.01888304017484188,-0.056267641484737396,0.000572213320992887,-0.00667582219466567
3.2547054290771484,0.013923857361078262,0.08869306743144989,-0.01888304017484188,-0.05664911866188049,0.000572213320992887,-0.00667582219466567
3.2747645378112793,0.01430533267557621,0.08869306743144989,-0.01888304017484188,-0.05703059583902359,0.00019073777366429567,-0.00667582219466567
3.294872283935547,0.01430533267557621,0.0883115902543068,-0.018501564860343933,-0.05703059583902359,0.00019073777366429567,-0.00667582219466567
3.314953327178955,0.01430533267557621,0.0879301130771637,-0.018120087683200836,-0.058175019919872284,0.0009536888683214784,-0.00667582219466567
3.335020065307617,0.01430533267557621,0.0879301130771637,-0.018120087683200836,-0.05893797054886818,0.000572213320992887,-0.00667582219466567
3.355095863342285,0.01430533267557621,0.0879301130771637,-0.018120087683200836,-0.05970092490315437,0.000572213320992887,-0.00667582219466567
3.3752617835998535,0.01430533267557621,0.0879301130771637,-0.01735713705420494,-0.05970092490315437,0.000572213320992887,-0.00667582219466567
3.3953757286071777,0.01430533267557621,0.0879301130771637,-0.016975661739706993,-0.06008239835500717,0.000572213320992887,-0.00667582219466567
3.4153525829315186,0.01430533267557621,0.0875486359000206,-0.016975661739706993,-0.06008239835500717,0.00019073777366429567,-0.00667582219466567
3.4357995986938477,0.01430533267557621,0.0871671661734581,-0.016594186425209045,-0.06046387553215027,0.000572213320992887,-0.00667582219466567
3.455899715423584,0.01430533267557621,0.086785688996315,-0.016212711110711098,-0.06084534898400307,0.000572213320992887,-0.00667582219466567
3.4760165214538574,0.014686808921396732,0.086785688996315,-0.016212711110711098,-0.06084534898400307,0.000572213320992887,-0.00667582219466567
3.496039867401123,0.014686808921396732,0.086785688996315,-0.016212711110711098,-0.061226826161146164,0.00019073777366429567,-0.00667582219466567
3.5165152549743652,0.01506828423589468,0.0864042118191719,-0.01583123579621315,-0.06198977679014206,0.00019073777366429567,-0.00667582219466567
3.536689281463623,0.01506828423589468,0.08602273464202881,-0.014686808921396732,-0.06275273114442825,0.000572213320992887,-0.00667582219466567
3.5566534996032715,0.01506828423589468,0.08602273464202881,-0.014686808921396732,-0.06351567804813385,0.000572213320992887,-0.00667582219466567
3.5767931938171387,0.01506828423589468,0.08602273464202881,-0.013923857361078262,-0.06389715522527695,0.000572213320992887,-0.00667582219466567
3.596867799758911,0.01506828423589468,0.08564125746488571,-0.013923857361078262,-0.06389715522527695,0.000572213320992887,-0.00667582219466567
3.6171860694885254,0.01506828423589468,0.08564125746488571,-0.013542382046580315,-0.06389715522527695,0.00019073777366429567,-0.00667582219466567
3.637265920639038,0.015449759550392628,0.08525978773832321,-0.013160906732082367,-0.06427863240242004,0.00019073777366429567,-0.00667582219466567
3.6574277877807617,0.015449759550392628,0.08487831056118011,-0.012779430486261845,-0.06466010212898254,0.00019073777366429567,-0.00667582219466567
3.677412271499634,0.015449759550392628,0.08487831056118011,-0.012397955171763897,-0.06504157930612564,0.00019073777366429567,-0.00667582219466567
3.697497606277466,0.01583123579621315,0.08449683338403702,-0.01201647985726595,-0.06580453366041183,0.00019073777366429567,-0.006294346414506435
3.717594861984253,0.016212711110711098,0.08449683338403702,-0.011635004542768002,-0.06694895774126053,0.00019073777366429567,-0.006294346414506435
3.7376725673675537,0.016212711110711098,0.08411535620689392,-0.011635004542768002,-0.06733043491840363,0.00019073777366429567,-0.00667582219466567
3.7577641010284424,0.016212711110711098,0.08373387902975082,-0.011635004542768002,-0.06771191209554672,0.000572213320992887,-0.006294346414506435
3.777862071990967,0.016212711110711098,0.08373387902975082,-0.01125352829694748,-0.06771191209554672,0.000572213320992887,-0.00667582219466567
3.797936201095581,0.016594186425209045,0.08373387902975082,-0.010872052982449532,-0.06809338182210922,0.00019073777366429567,-0.006294346414506435
3.8182387351989746,0.016594186425209045,0.08373387902975082,-0.010490577667951584,-0.06809338182210922,0.00019073777366429567,-0.006294346414506435
3.8383634090423584,0.016594186425209045,0.08373387902975082,-0.010109102353453636,-0.06847485899925232,0.00019073777366429567,-0.006294346414506435
3.8584322929382324,0.016975661739706993,0.08297093212604523,-0.009727626107633114,-0.06923781335353851,0.00019073777366429567,-0.006294346414506435
3.8784713745117188,0.016975661739706993,0.08297093212604523,-0.009727626107633114,-0.07000076025724411,0.00019073777366429567,-0.006294346414506435
3.898676633834839,0.016975661739706993,0.08258945494890213,-0.009727626107633114,-0.0707637146115303,0.00019073777366429567,-0.006294346414506435
3.91882061958313,0.01735713705420494,0.08258945494890213,-0.009727626107633114,-0.0711451917886734,0.00019073777366429567,-0.006294346414506435
3.9388701915740967,0.01735713705420494,0.08258945494890213,-0.009346150793135166,-0.0711451917886734,0.00019073777366429567,-0.006294346414506435
3.9589390754699707,0.01735713705420494,0.08258945494890213,-0.00858320016413927,-0.0711451917886734,0.00019073777366429567,-0.006294346414506435
3.9790070056915283,0.01735713705420494,0.08182650804519653,-0.008201723918318748,-0.0715266615152359,-0.00019073777366429567,-0.006294346414506435
3.9990758895874023,0.01735713705420494,0.08144503086805344,-0.007438773289322853,-0.071908138692379,0.00019073777366429567,-0.006294346414506435
4.019204616546631,0.01735713705420494,0.08144503086805344,-0.007438773289322853,-0.0722896158695221,0.00019073777366429567,-0.006294346414506435
4.0392749309539795,0.01735713705420494,0.08068207651376724,-0.007438773289322853,-0.0722896158695221,0.00019073777366429567,-0.006294346414506435
4.059357166290283,0.01773861236870289,0.08068207651376724,-0.007057297509163618,-0.07267109304666519,-0.00019073777366429567,-0.006294346414506435
4.079441785812378,0.018501564860343933,0.08068207651376724,-0.007057297509163618,-0.07343403995037079,-0.00019073777366429567,-0.005912871100008488
4.100275754928589,0.01926451548933983,0.08068207651376724,-0.006294346414506435,-0.07457847148180008,-0.000572213320992887,-0.006294346414506435
4.1203391551971436,0.01926451548933983,0.08068207651376724,-0.006294346414506435,-0.07495994865894318,0.00019073777366429567,-0.006294346414506435
4.1404128074646,0.01926451548933983,0.08030059933662415,-0.005912871100008488,-0.07534141838550568,0.00019073777366429567,-0.006294346414506435
4.160472869873047,0.01926451548933983,0.08030059933662415,-0.005531395319849253,-0.07534141838550568,0.00019073777366429567,-0.006294346414506435
4.180599212646484,0.01926451548933983,0.07953765243291855,-0.005531395319849253,-0.07572289556264877,-0.00019073777366429567,-0.006294346414506435
4.200793027877808,0.01926451548933983,0.07953765243291855,-0.005149920005351305,-0.07572289556264877,-0.000572213320992887,-0.006294346414506435
4.220794916152954,0.01926451548933983,0.07953765243291855,-0.00476844422519207,-0.07648584991693497,-0.000572213320992887,-0.006294346414506435
4.24092698097229,0.01926451548933983,0.07877469807863235,-0.004386968910694122,-0.07686731964349747,-0.000572213320992887,-0.006294346414506435
4.260995149612427,0.01926451548933983,0.07839322835206985,-0.004005493130534887,-0.07763027399778366,-0.00019073777366429567,-0.006294346414506435
4.281082630157471,0.01926451548933983,0.07839322835206985,-0.004005493130534887,-0.07839322835206985,-0.00019073777366429567,-0.006294346414506435
4.301125764846802,0.01926451548933983,0.07839322835206985,-0.004005493130534887,-0.07839322835206985,-0.00019073777366429567,-0.006294346414506435
4.321220874786377,0.01926451548933983,0.07839322835206985,-0.0036240178160369396,-0.07877469807863235,-0.000572213320992887,-0.006294346414506435
4.3413496017456055,0.019645990803837776,0.07763027399778366,-0.0032425422687083483,-0.07915617525577545,-0.000572213320992887,-0.005912871100008488
4.36141037940979,0.019645990803837776,0.07763027399778366,-0.002861066721379757,-0.07915617525577545,-0.000572213320992887,-0.006294346414506435
4.38153600692749,0.020027466118335724,0.07763027399778366,-0.0024795911740511656,-0.07953765243291855,-0.000572213320992887,-0.005912871100008488
4.401630640029907,0.02079041674733162,0.07724879682064056,-0.0020981156267225742,-0.07991912961006165,-0.000572213320992887,-0.005912871100008488
4.421666383743286,0.021171892061829567,0.07724879682064056,-0.0020981156267225742,-0.08030059933662415,-0.000572213320992887,-0.005912871100008488
4.4418323040008545,0.021171892061829567,0.07686731964349747,-0.0013351644156500697,-0.08144503086805344,-0.000572213320992887,-0.005912871100008488
4.461971759796143,0.021171892061829567,0.07648584991693497,-0.0013351644156500697,-0.08220797777175903,-0.000572213320992887,-0.005912871100008488
4.482006549835205,0.021171892061829567,0.07648584991693497,-0.0009536888683214784,-0.08258945494890213,-0.000572213320992887,-0.005912871100008488
4.502054929733276,0.021171892061829567,0.07648584991693497,-0.000572213320992887,-0.08258945494890213,-0.000572213320992887,-0.005912871100008488
4.52217435836792,0.021171892061829567,0.07610437273979187,-0.00019073777366429567,-0.08258945494890213,-0.0009536888683214784,-0.005912871100008488
4.542245864868164,0.021171892061829567,0.07572289556264877,0.00019073777366429567,-0.08297093212604523,-0.0009536888683214784,-0.005912871100008488
4.56229829788208,0.021171892061829567,0.07572289556264877,0.000572213320992887,-0.08335240930318832,-0.000572213320992887,-0.005912871100008488
4.582432985305786,0.021171892061829567,0.07534141838550568,0.000572213320992887,-0.08373387902975082,-0.000572213320992887,-0.005912871100008488
4.602474927902222,0.021553369238972664,0.07534141838550568,0.0009536888683214784,-0.08449683338403702,-0.000572213320992887,-0.005912871100008488
4.6225364208221436,0.021553369238972664,0.07534141838550568,0.0009536888683214784,-0.08525978773832321,-0.0009536888683214784,-0.005912871100008488
4.642653942108154,0.021553369238972664,0.07534141838550568,0.001716639962978661,-0.08602273464202881,-0.0009536888683214784,-0.005531395319849253
4.66274094581604,0.021553369238972664,0.07457847148180008,0.0024795911740511656,-0.0864042118191719,-0.0009536888683214784,-0.005912871100008488
4.682826995849609,0.021553369238972664,0.07419699430465698,0.002861066721379757,-0.086785688996315,-0.0009536888683214784,-0.005531395319849253
4.702900648117065,0.021553369238972664,0.07419699430465698,0.002861066721379757,-0.086785688996315,-0.0009536888683214784,-0.005531395319849253
4.7229695320129395,0.021553369238972664,0.07381551712751389,0.002861066721379757,-0.0871671661734581,-0.0009536888683214784,-0.005531395319849253
4.743043661117554,0.02193484455347061,0.07343403995037079,0.0032425422687083483,-0.0875486359000206,-0.0009536888683214784,-0.005531395319849253
4.763108253479004,0.02193484455347061,0.07343403995037079,0.004005493130534887,-0.0883115902543068,-0.0009536888683214784,-0.005531395319849253
4.783159255981445,0.02231631986796856,0.07343403995037079,0.004005493130534887,-0.08945601433515549,-0.0013351644156500697,-0.005531395319849253
4.803252696990967,0.02231631986796856,0.07343403995037079,0.00476844422519207,-0.08945601433515549,-0.0013351644156500697,-0.005149920005351305
4.8233208656311035,0.022697795182466507,0.07305257022380829,0.00476844422519207,-0.08983749151229858,-0.0009536888683214784,-0.005531395319849253
4.8433778285980225,0.022697795182466507,0.07305257022380829,0.00476844422519207,-0.09021896868944168,-0.0013351644156500697,-0.005149920005351305
4.863469362258911,0.022697795182466507,0.0722896158695221,0.005149920005351305,-0.09021896868944168,-0.0013351644156500697,-0.005149920005351305
4.883559942245483,0.023079270496964455,0.0722896158695221,0.005149920005351305,-0.09060044586658478,-0.0013351644156500697,-0.005149920005351305
4.903635740280151,0.023460745811462402,0.0722896158695221,0.005531395319849253,-0.09098191559314728,-0.001716639962978661,-0.005149920005351305
4.923699855804443,0.023460745811462402,0.071908138692379,0.005912871100008488,-0.09136339277029037,-0.001716639962978661,-0.00476844422519207
4.943783283233643,0.023460745811462402,0.0715266615152359,0.00667582219466567,-0.09212634712457657,-0.001716639962978661,-0.00476844422519207
4.963848114013672,0.023460745811462402,0.0711451917886734,0.007057297509163618,-0.09365224838256836,-0.001716639962978661,-0.00476844422519207
4.9839043617248535,0.023460745811462402,0.0711451917886734,0.007057297509163618,-0.09403372555971146,-0.001716639962978661,-0.00476844422519207
5.004045248031616,0.023460745811462402,0.0711451917886734,0.007057297509163618,-0.09403372555971146,-0.001716639962978661,-0.004386968910694122
5.024104356765747,0.02384222112596035,0.0707637146115303,0.0078202486038208,-0.09441519528627396,-0.0020981156267225742,-0.004386968910694122
5.044152736663818,0.02384222112596035,0.07038223743438721,0.008201723918318748,-0.09479667246341705,-0.0020981156267225742,-0.004386968910694122
5.064278602600098,0.024605173617601395,0.07000076025724411,0.008201723918318748,-0.09517814964056015,-0.0024795911740511656,-0.004005493130534887
5.084367513656616,0.024605173617601395,0.07000076025724411,0.00858320016413927,-0.09594109654426575,-0.0024795911740511656,-0.004005493130534887
5.104494094848633,0.024605173617601395,0.06961929053068161,0.008964675478637218,-0.09708552807569504,-0.0020981156267225742,-0.004005493130534887
5.124495506286621,0.024605173617601395,0.06923781335353851,0.008964675478637218,-0.09746700525283813,-0.0024795911740511656,-0.004005493130534887
5.144580602645874,0.024605173617601395,0.06923781335353851,0.008964675478637218,-0.09746700525283813,-0.0024795911740511656,-0.0036240178160369396
5.164646863937378,0.024605173617601395,0.06885633617639542,0.009727626107633114,-0.09784847497940063,-0.002861066721379757,-0.0036240178160369396
5.184773683547974,0.024605173617601395,0.06885633617639542,0.010109102353453636,-0.09784847497940063,-0.002861066721379757,-0.0036240178160369396
5.20491099357605,0.024986648932099342,0.06847485899925232,0.010490577667951584,-0.09822995215654373,-0.002861066721379757,-0.0036240178160369396
5.224934816360474,0.02536812424659729,0.06809338182210922,0.010872052982449532,-0.09861142933368683,-0.002861066721379757,-0.0036240178160369396
5.244992733001709,0.02536812424659729,0.06809338182210922,0.010872052982449532,-0.09899290651082993,-0.002861066721379757,-0.0036240178160369396
5.265082359313965,0.02536812424659729,0.06809338182210922,0.01125352829694748,-0.09899290651082993,-0.0032425422687083483,-0.0036240178160369396
5.285153150558472,0.025749599561095238,0.06809338182210922,0.011635004542768002,-0.10013733059167862,-0.0032425422687083483,-0.0036240178160369396
5.30524206161499,0.025749599561095238,0.06771191209554672,0.01201647985726595,-0.10090028494596481,-0.0032425422687083483,-0.0036240178160369396
5.325365781784058,0.025749599561095238,0.06694895774126053,0.012397955171763897,-0.10166323184967041,-0.0032425422687083483,-0.0036240178160369396
5.345476865768433,0.025749599561095238,0.06656748056411743,0.012779430486261845,-0.10166323184967041,-0.0032425422687083483,-0.0032425422687083483
5.365546703338623,0.025749599561095238,0.06618601083755493,0.013160906732082367,-0.10204470902681351,-0.0036240178160369396,-0.0032425422687083483
5.385621547698975,0.026512550190091133,0.06580453366041183,0.013160906732082367,-0.1024261862039566,-0.0036240178160369396,-0.0032425422687083483
5.405675649642944,0.026512550190091133,0.06618601083755493,0.013160906732082367,-0.1031891331076622,-0.0036240178160369396,-0.0032425422687083483
5.425849914550781,0.026512550190091133,0.06580453366041183,0.01430533267557621,-0.10433356463909149,-0.0036240178160369396,-0.0032425422687083483
5.445864915847778,0.026512550190091133,0.06580453366041183,0.014686808921396732,-0.10471503436565399,-0.0036240178160369396,-0.0032425422687083483
5.466145992279053,0.026512550190091133,0.06542305648326874,0.01506828423589468,-0.10509651154279709,-0.0036240178160369396,-0.002861066721379757
5.48624062538147,0.026512550190091133,0.06466010212898254,0.015449759550392628,-0.10547798871994019,-0.004005493130534887,-0.002861066721379757
5.506321668624878,0.02689402550458908,0.06504157930612564,0.015449759550392628,-0.10547798871994019,-0.004005493130534887,-0.002861066721379757
5.5263991355896,0.02689402550458908,0.06466010212898254,0.015449759550392628,-0.10585946589708328,-0.004005493130534887,-0.002861066721379757
5.5464701652526855,0.02689402550458908,0.06389715522527695,0.016594186425209045,-0.10585946589708328,-0.004005493130534887,-0.002861066721379757
5.566595554351807,0.02727550081908703,0.06389715522527695,0.016975661739706993,-0.10624094307422638,-0.004386968910694122,-0.002861066721379757
5.586668014526367,0.027656977996230125,0.06389715522527695,0.01735713705420494,-0.10662241280078888,-0.004386968910694122,-0.002861066721379757
5.606751203536987,0.028038453310728073,0.06351567804813385,0.01773861236870289,-0.10738536715507507,-0.004386968910694122,-0.0024795911740511656
5.626861095428467,0.028038453310728073,0.06313420087099075,0.01773861236870289,-0.10852979123592377,-0.004386968910694122,-0.002861066721379757
5.646951913833618,0.028038453310728073,0.06313420087099075,0.018501564860343933,-0.10852979123592377,-0.004386968910694122,-0.0024795911740511656
5.667088508605957,0.028038453310728073,0.06275273114442825,0.01926451548933983,-0.10891126841306686,-0.00476844422519207,-0.0024795911740511656
5.687269926071167,0.02880140393972397,0.06275273114442825,0.019645990803837776,-0.10929274559020996,-0.005531395319849253,-0.0024795911740511656
5.7074549198150635,0.02880140393972397,0.06237125024199486,0.019645990803837776,-0.10967422276735306,-0.005531395319849253,-0.0024795911740511656
5.7275779247283936,0.02880140393972397,0.06160829961299896,0.02040894143283367,-0.11005569249391556,-0.005149920005351305,-0.0024795911740511656
5.7476794719696045,0.02880140393972397,0.06160829961299896,0.02040894143283367,-0.11081864684820175,-0.005149920005351305,-0.0024795911740511656
5.768049955368042,0.02880140393972397,0.061226826161146164,0.02079041674733162,-0.11196307092905045,-0.005531395319849253,-0.0024795911740511656
5.788194894790649,0.02880140393972397,0.06084534898400307,0.021553369238972664,-0.11234454810619354,-0.005531395319849253,-0.0020981156267225742
5.808226108551025,0.02880140393972397,0.06084534898400307,0.021553369238972664,-0.11234454810619354,-0.005912871100008488,-0.0020981156267225742
5.828367233276367,0.02880140393972397,0.06084534898400307,0.02231631986796856,-0.11272602528333664,-0.005912871100008488,-0.0020981156267225742
5.848473072052002,0.02880140393972397,0.06046387553215027,0.022697795182466507,-0.11310750246047974,-0.005912871100008488,-0.0020981156267225742
5.868584632873535,0.029182879254221916,0.06008239835500717,0.022697795182466507,-0.11348897218704224,-0.005912871100008488,-0.0020981156267225742
5.888702869415283,0.029182879254221916,0.05970092490315437,0.023079270496964455,-0.11387044936418533,-0.006294346414506435,-0.0020981156267225742
5.908850193023682,0.029564354568719864,0.05893797054886818,0.023460745811462402,-0.11463340371847153,-0.006294346414506435,-0.001716639962978661
5.928893327713013,0.029564354568719864,0.05893797054886818,0.02384222112596035,-0.11539635062217712,-0.006294346414506435,-0.001716639962978661
5.948948860168457,0.029564354568719864,0.05893797054886818,0.024223696440458298,-0.11615930497646332,-0.006294346414506435,-0.001716639962978661
5.969027757644653,0.029564354568719864,0.05893797054886818,0.024605173617601395,-0.11654078215360641,-0.006294346414506435,-0.001716639962978661
5.98905348777771,0.029564354568719864,0.05855649709701538,0.024986648932099342,-0.11692225188016891,-0.006294346414506435,-0.001716639962978661
6.009310007095337,0.02994582988321781,0.05855649709701538,0.02536812424659729,-0.11730372905731201,-0.00667582219466567,-0.0013351644156500697
6.029395580291748,0.02994582988321781,0.057793546468019485,0.02536812424659729,-0.11768520623445511,-0.00667582219466567,-0.0009536888683214784
6.0495219230651855,0.02994582988321781,0.05741206929087639,0.025749599561095238,-0.1192111074924469,-0.00667582219466567,-0.00019073777366429567
6.070022344589233,0.03032730519771576,0.05741206929087639,0.025749599561095238,-0.1199740618467331,-0.00667582219466567,-0.00019073777366429567
6.0901641845703125,0.031090257689356804,0.05664911866188049,0.026512550190091133,-0.1203555315732956,-0.007057297509163618,0.00019073777366429567
6.110219717025757,0.031090257689356804,0.05664911866188049,0.02689402550458908,-0.12073700875043869,-0.007057297509163618,0.000572213320992887
6.130276679992676,0.031090257689356804,0.05664911866188049,0.02727550081908703,-0.12111848592758179,-0.007057297509163618,0.000572213320992887
6.15035343170166,0.031090257689356804,0.056267641484737396,0.027656977996230125,-0.12149996310472488,-0.007057297509163618,0.000572213320992887
6.170404672622681,0.031090257689356804,0.056267641484737396,0.027656977996230125,-0.12188144028186798,-0.007057297509163618,0.000572213320992887
6.190514326095581,0.03147173300385475,0.0558861680328846,0.028038453310728073,-0.12264438718557358,-0.007438773289322853,0.0009536888683214784
6.2106032371521,0.03147173300385475,0.0555046908557415,0.02880140393972397,-0.12378881871700287,-0.007057297509163618,0.0009536888683214784
6.230769395828247,0.03147173300385475,0.0555046908557415,0.029182879254221916,-0.12378881871700287,-0.007057297509163618,0.0009536888683214784
6.250768661499023,0.03185320645570755,0.0551232174038887,0.02994582988321781,-0.12417028844356537,-0.007057297509163618,0.0009536888683214784
6.2708635330200195,0.03185320645570755,0.05436026677489281,0.03032730519771576,-0.12455176562070847,-0.007057297509163618,0.0009536888683214784
6.2910237312316895,0.03185320645570755,0.05436026677489281,0.030708782374858856,-0.12455176562070847,-0.007438773289322853,0.0009536888683214784
6.311187028884888,0.03185320645570755,0.05359731614589691,0.031090257689356804,-0.12493324279785156,-0.007438773289322853,0.0009536888683214784
6.331357002258301,0.03185320645570755,0.05359731614589691,0.03147173300385475,-0.12607766687870026,-0.007438773289322853,0.0009536888683214784
6.351430416107178,0.03185320645570755,0.05359731614589691,0.03185320645570755,-0.12684062123298645,-0.007438773289322853,0.0009536888683214784
6.371527194976807,0.03185320645570755,0.05359731614589691,0.03223468363285065,-0.12760357558727264,-0.007438773289322853,0.0009536888683214784
6.39161491394043,0.03223468363285065,0.053215838968753815,0.032616160809993744,-0.12760357558727264,-0.007438773289322853,0.0013351644156500697
6.411701202392578,0.03299763426184654,0.05245288833975792,0.03299763426184654,-0.12798504531383514,-0.007438773289322853,0.0013351644156500697
6.431897878646851,0.03299763426184654,0.051689937710762024,0.03376058489084244,-0.12836651504039764,-0.007438773289322853,0.0013351644156500697
6.45207953453064,0.03299763426184654,0.051689937710762024,0.034142062067985535,-0.12874799966812134,-0.0078202486038208,0.0013351644156500697
6.472094535827637,0.03299763426184654,0.051689937710762024,0.03452353551983833,-0.12951095402240753,-0.007438773289322853,0.0013351644156500697
6.492384195327759,0.03337911143898964,0.05130846053361893,0.03528648987412453,-0.13103684782981873,-0.007438773289322853,0.0013351644156500697
6.512477159500122,0.03376058489084244,0.05092698708176613,0.03604944050312042,-0.13141833245754242,-0.007438773289322853,0.0013351644156500697
6.532528638839722,0.03376058489084244,0.05054550990462303,0.03604944050312042,-0.13179980218410492,-0.0078202486038208,0.001716639962978661
6.552721261978149,0.03376058489084244,0.05054550990462303,0.03643091395497322,-0.13218127191066742,-0.0078202486038208,0.001716639962978661
6.572803974151611,0.03376058489084244,0.050164032727479935,0.03681239113211632,-0.1325627565383911,-0.0078202486038208,0.001716639962978661
6.592878818511963,0.03376058489084244,0.04940108209848404,0.037193864583969116,-0.1329442262649536,-0.0078202486038208,0.001716639962978661
6.613189458847046,0.03376058489084244,0.04940108209848404,0.03757534176111221,-0.1337071806192398,-0.0078202486038208,0.001716639962978661
6.633403301239014,0.034142062067985535,0.04901960864663124,0.03795681521296501,-0.134470134973526,-0.0078202486038208,0.001716639962978661
6.6534295082092285,0.034142062067985535,0.048638131469488144,0.03795681521296501,-0.1348516047000885,-0.0078202486038208,0.0020981156267225742
6.673487186431885,0.034142062067985535,0.048638131469488144,0.038719769567251205,-0.135233074426651,-0.0078202486038208,0.0020981156267225742
6.6935508251190186,0.034142062067985535,0.048256658017635345,0.039101243019104004,-0.1356145590543747,-0.0078202486038208,0.0020981156267225742
6.713688611984253,0.03452353551983833,0.04787518084049225,0.0394827201962471,-0.1359960287809372,-0.0078202486038208,0.0024795911740511656
6.73378849029541,0.035667963325977325,0.04711223021149635,0.0398641936480999,-0.1363775134086609,-0.008201723918318748,0.0024795911740511656
6.753948450088501,0.03604944050312042,0.046730753034353256,0.040245670825242996,-0.13752193748950958,-0.008201723918318748,0.002861066721379757
6.774042129516602,0.03604944050312042,0.046730753034353256,0.040627144277095795,-0.13904783129692078,-0.008201723918318748,0.0032425422687083483
6.794119834899902,0.03604944050312042,0.04634927958250046,0.04100862145423889,-0.13942931592464447,-0.0078202486038208,0.0032425422687083483
6.814174652099609,0.03604944050312042,0.04634927958250046,0.04139009863138199,-0.13981078565120697,-0.008201723918318748,0.0036240178160369396
6.834309101104736,0.03604944050312042,0.04558632895350456,0.04177157208323479,-0.14019227027893066,-0.008201723918318748,0.004005493130534887
6.8544840812683105,0.03604944050312042,0.045204851776361465,0.042153049260377884,-0.14095520973205566,-0.00858320016413927,0.004005493130534887
6.874526739120483,0.03604944050312042,0.04444190114736557,0.04253452271223068,-0.14209964871406555,-0.00858320016413927,0.004005493130534887
6.894810914993286,0.03604944050312042,0.04444190114736557,0.04329747334122658,-0.14248111844062805,-0.008201723918318748,0.004005493130534887
6.9149010181427,0.03604944050312042,0.04406042397022247,0.043678950518369675,-0.14286258816719055,-0.008201723918318748,0.004005493130534887
6.934968709945679,0.03604944050312042,0.04406042397022247,0.04444190114736557,-0.14324407279491425,-0.00858320016413927,0.004005493130534887
6.955164909362793,0.03604944050312042,0.04329747334122658,0.04444190114736557,-0.14362554252147675,-0.00858320016413927,0.004386968910694122
6.97525429725647,0.03643091395497322,0.04329747334122658,0.045204851776361465,-0.14400701224803925,-0.00858320016413927,0.004386968910694122
6.995312213897705,0.03643091395497322,0.04253452271223068,0.04558632895350456,-0.14515145123004913,-0.00858320016413927,0.004386968910694122
7.015489816665649,0.03681239113211632,0.04253452271223068,0.04596780240535736,-0.14667734503746033,-0.008964675478637218,0.004386968910694122
7.035594940185547,0.037193864583969116,0.042153049260377884,0.04634927958250046,-0.14667734503746033,-0.008964675478637218,0.00476844422519207
7.055704355239868,0.037193864583969116,0.04177157208323479,0.046730753034353256,-0.14744029939174652,-0.008964675478637218,0.00476844422519207
7.075724363327026,0.037193864583969116,0.04139009863138199,0.04749370738863945,-0.14820325374603271,-0.00858320016413927,0.00476844422519207
7.095913410186768,0.037193864583969116,0.04100862145423889,0.04787518084049225,-0.1493476778268814,-0.008964675478637218,0.00476844422519207
7.115939378738403,0.03757534176111221,0.040245670825242996,0.048256658017635345,-0.1501106321811676,-0.008964675478637218,0.00476844422519207
7.135989427566528,0.03795681521296501,0.040245670825242996,0.048638131469488144,-0.1501106321811676,-0.009727626107633114,0.005149920005351305
7.15605902671814,0.03795681521296501,0.040245670825242996,0.04901960864663124,-0.1504921019077301,-0.009727626107633114,0.005149920005351305
7.17627215385437,0.03795681521296501,0.0394827201962471,0.049782559275627136,-0.1508735716342926,-0.009727626107633114,0.005149920005351305
7.196247816085815,0.03795681521296501,0.0394827201962471,0.050164032727479935,-0.1508735716342926,-0.009727626107633114,0.005149920005351305
7.216350078582764,0.03833829239010811,0.039101243019104004,0.05054550990462303,-0.1516365259885788,-0.010109102353453636,0.005149920005351305
7.236443758010864,0.03833829239010811,0.039101243019104004,0.051689937710762024,-0.1527809500694275,-0.010490577667951584,0.005531395319849253
7.256475448608398,0.03833829239010811,0.03833829239010811,0.051689937710762024,-0.15392538905143738,-0.010872052982449532,0.005531395319849253
7.276663541793823,0.03833829239010811,0.03757534176111221,0.05245288833975792,-0.15430685877799988,-0.010872052982449532,0.005531395319849253
7.29686164855957,0.038719769567251205,0.037193864583969116,0.05245288833975792,-0.15506981313228607,-0.010872052982449532,0.005531395319849253
7.316890478134155,0.039101243019104004,0.037193864583969116,0.053215838968753815,-0.15583276748657227,-0.010872052982449532,0.005912871100008488
7.336963415145874,0.039101243019104004,0.03604944050312042,0.05397878959774971,-0.15735866129398346,-0.010872052982449532,0.005912871100008488
7.3570237159729,0.039101243019104004,0.03604944050312042,0.05436026677489281,-0.15774014592170715,-0.010872052982449532,0.006294346414506435
7.377078533172607,0.039101243019104004,0.035667963325977325,0.054741740226745605,-0.15812161564826965,-0.01125352829694748,0.00667582219466567
7.397165060043335,0.0394827201962471,0.03528648987412453,0.0551232174038887,-0.15850308537483215,-0.01125352829694748,0.007438773289322853
7.4172585010528564,0.0394827201962471,0.03490501269698143,0.0558861680328846,-0.15888457000255585,-0.01125352829694748,0.0078202486038208
7.437295436859131,0.0398641936480999,0.034142062067985535,0.0558861680328846,-0.15964750945568085,-0.011635004542768002,0.0078202486038208
7.457381963729858,0.040245670825242996,0.034142062067985535,0.05664911866188049,-0.16079194843769073,-0.011635004542768002,0.008201723918318748
7.477494716644287,0.040245670825242996,0.03376058489084244,0.05703059583902359,-0.16117341816425323,-0.011635004542768002,0.008201723918318748
7.4975714683532715,0.040245670825242996,0.03299763426184654,0.057793546468019485,-0.16193637251853943,-0.011635004542768002,0.008201723918318748
7.5176825523376465,0.040245670825242996,0.032616160809993744,0.058175019919872284,-0.16269932687282562,-0.011635004542768002,0.00858320016413927
7.537709951400757,0.040627144277095795,0.03223468363285065,0.05855649709701538,-0.16308079659938812,-0.012397955171763897,0.00858320016413927
7.55777907371521,0.04139009863138199,0.03185320645570755,0.05893797054886818,-0.16422522068023682,-0.013160906732082367,0.008964675478637218
7.5778515338897705,0.04139009863138199,0.03185320645570755,0.05893797054886818,-0.164988175034523,-0.013160906732082367,0.008964675478637218
7.597941160202026,0.04139009863138199,0.03147173300385475,0.05970092490315437,-0.1653696447610855,-0.012779430486261845,0.008964675478637218
7.617998123168945,0.04139009863138199,0.031090257689356804,0.06046387553215027,-0.1657511293888092,-0.013160906732082367,0.009346150793135166
7.6380743980407715,0.04139009863138199,0.02994582988321781,0.06084534898400307,-0.1661325991153717,-0.013160906732082367,0.009346150793135166
7.658188581466675,0.04139009863138199,0.02994582988321781,0.061226826161146164,-0.1665140837430954,-0.013542382046580315,0.009727626107633114
7.678261041641235,0.04177157208323479,0.029564354568719864,0.06198977679014206,-0.1684214472770691,-0.013923857361078262,0.010490577667951584
7.698542594909668,0.042153049260377884,0.02880140393972397,0.06275273114442825,-0.16918440163135529,-0.013923857361078262,0.010872052982449532
7.718589782714844,0.04253452271223068,0.028038453310728073,0.06313420087099075,-0.16956588625907898,-0.013923857361078262,0.011635004542768002
7.738719463348389,0.04253452271223068,0.028038453310728073,0.06389715522527695,-0.17071031033992767,-0.013923857361078262,0.011635004542768002
7.758768796920776,0.04253452271223068,0.027656977996230125,0.06427863240242004,-0.17261768877506256,-0.013923857361078262,0.011635004542768002
7.77885627746582,0.04291599988937378,0.02689402550458908,0.06504157930612564,-0.17299915850162506,-0.013923857361078262,0.011635004542768002
7.79895281791687,0.04329747334122658,0.026512550190091133,0.06504157930612564,-0.17338064312934875,-0.014686808921396732,0.01201647985726595
7.819202423095703,0.04329747334122658,0.026512550190091133,0.06580453366041183,-0.17338064312934875,-0.014686808921396732,0.01201647985726595
7.83933162689209,0.04329747334122658,0.025749599561095238,0.06656748056411743,-0.17452506721019745,-0.01430533267557621,0.01201647985726595
7.859480857849121,0.04329747334122658,0.024986648932099342,0.06694895774126053,-0.17605096101760864,-0.01430533267557621,0.01201647985726595
7.8794636726379395,0.04329747334122658,0.024986648932099342,0.06733043491840363,-0.17681391537189484,-0.014686808921396732,0.01201647985726595
7.89950156211853,0.04329747334122658,0.024605173617601395,0.06847485899925232,-0.17681391537189484,-0.014686808921396732,0.012397955171763897
7.91964054107666,0.043678950518369675,0.024605173617601395,0.06847485899925232,-0.17719538509845734,-0.01506828423589468,0.012397955171763897
7.93965744972229,0.043678950518369675,0.02384222112596035,0.06923781335353851,-0.17795833945274353,-0.01506828423589468,0.012397955171763897
7.959779500961304,0.043678950518369675,0.022697795182466507,0.07000076025724411,-0.17910276353359222,-0.01506828423589468,0.012397955171763897
7.979951620101929,0.043678950518369675,0.02231631986796856,0.07038223743438721,-0.1802472025156021,-0.01506828423589468,0.012397955171763897
8.00002384185791,0.04406042397022247,0.02231631986796856,0.07038223743438721,-0.1802472025156021,-0.01506828423589468,0.012397955171763897
8.02006721496582,0.04444190114736557,0.021553369238972664,0.0711451917886734,-0.1810101419687271,-0.01506828423589468,0.012779430486261845
8.04015064239502,0.04444190114736557,0.021171892061829567,0.071908138692379,-0.1813916265964508,-0.01506828423589468,0.012779430486261845
8.06022047996521,0.04444190114736557,0.02079041674733162,0.07267109304666519,-0.1825360506772995,-0.01506828423589468,0.012779430486261845
8.080450773239136,0.04444190114736557,0.020027466118335724,0.07305257022380829,-0.1836804747581482,-0.015449759550392628,0.013160906732082367
8.100529193878174,0.04482337832450867,0.019645990803837776,0.07343403995037079,-0.1840619444847107,-0.015449759550392628,0.013160906732082367
8.120595216751099,0.04482337832450867,0.01926451548933983,0.07381551712751389,-0.1844434291124344,-0.015449759550392628,0.013542382046580315
8.140670776367188,0.045204851776361465,0.01888304017484188,0.07381551712751389,-0.1848248988389969,-0.015449759550392628,0.013923857361078262
8.160739660263062,0.04558632895350456,0.018120087683200836,0.07495994865894318,-0.18558785319328308,-0.01583123579621315,0.01430533267557621
8.180845260620117,0.04558632895350456,0.01735713705420494,0.07572289556264877,-0.18673227727413177,-0.01583123579621315,0.014686808921396732
8.200993061065674,0.04558632895350456,0.01735713705420494,0.07572289556264877,-0.18749523162841797,-0.01583123579621315,0.014686808921396732
8.22099781036377,0.04558632895350456,0.01735713705420494,0.07648584991693497,-0.18787670135498047,-0.01583123579621315,0.01506828423589468
8.241142988204956,0.04596780240535736,0.016594186425209045,0.07724879682064056,-0.18825818598270416,-0.016212711110711098,0.015449759550392628
8.26125192642212,0.04634927958250046,0.015449759550392628,0.07801175117492676,-0.18902114033699036,-0.016594186425209045,0.015449759550392628
8.281302213668823,0.04634927958250046,0.01506828423589468,0.07801175117492676,-0.19016556441783905,-0.016594186425209045,0.01583123579621315
8.301378965377808,0.04634927958250046,0.014686808921396732,0.07877469807863235,-0.19130998849868774,-0.016594186425209045,0.01583123579621315
8.321450471878052,0.04634927958250046,0.013542382046580315,0.07991912961006165,-0.19207294285297394,-0.016594186425209045,0.01583123579621315
8.34153151512146,0.04634927958250046,0.013160906732082367,0.08068207651376724,-0.19245441257953644,-0.016975661739706993,0.016212711110711098
8.36159896850586,0.046730753034353256,0.013160906732082367,0.08144503086805344,-0.19359883666038513,-0.01735713705420494,0.016594186425209045
8.381661653518677,0.046730753034353256,0.012397955171763897,0.08220797777175903,-0.19512474536895752,-0.01735713705420494,0.016594186425209045
8.401785612106323,0.046730753034353256,0.01125352829694748,0.08335240930318832,-0.19550621509552002,-0.01773861236870289,0.016975661739706993
8.421910524368286,0.04711223021149635,0.010872052982449532,0.08335240930318832,-0.1958876997232437,-0.018120087683200836,0.01735713705420494
8.441933631896973,0.04787518084049225,0.010109102353453636,0.08373387902975082,-0.1966506391763687,-0.018120087683200836,0.01773861236870289
8.462123394012451,0.048638131469488144,0.010109102353453636,0.08449683338403702,-0.1977950781583786,-0.018501564860343933,0.018501564860343933
8.482115030288696,0.048638131469488144,0.009346150793135166,0.08525978773832321,-0.1989395022392273,-0.018120087683200836,0.01888304017484188
8.502159118652344,0.048638131469488144,0.008964675478637218,0.08564125746488571,-0.1997024416923523,-0.018120087683200836,0.01888304017484188
8.522241353988647,0.048638131469488144,0.008201723918318748,0.086785688996315,-0.200083926320076,-0.018501564860343933,0.01926451548933983
8.542327404022217,0.048638131469488144,0.007057297509163618,0.0875486359000206,-0.20122835040092468,-0.018501564860343933,0.01926451548933983
8.562403917312622,0.048638131469488144,0.00667582219466567,0.0879301130771637,-0.20237277448177338,-0.01888304017484188,0.01926451548933983
8.582460880279541,0.048638131469488144,0.006294346414506435,0.0883115902543068,-0.20275425910949707,-0.01926451548933983,0.019645990803837776
8.60252571105957,0.048638131469488144,0.005149920005351305,0.08945601433515549,-0.20313572883605957,-0.01888304017484188,0.019645990803837776
8.622578144073486,0.048638131469488144,0.004005493130534887,0.08983749151229858,-0.20389868319034576,-0.01888304017484188,0.019645990803837776
8.642643690109253,0.04901960864663124,0.0036240178160369396,0.09021896868944168,-0.20466163754463196,-0.01888304017484188,0.020027466118335724
8.662738800048828,0.049782559275627136,0.002861066721379757,0.09060044586658478,-0.20618753135204315,-0.019645990803837776,0.020027466118335724
8.682804346084595,0.05054550990462303,0.0024795911740511656,0.09136339277029037,-0.20695048570632935,-0.019645990803837776,0.020027466118335724
8.702862024307251,0.05054550990462303,0.001716639962978661,0.09212634712457657,-0.20771344006061554,-0.019645990803837776,0.02040894143283367
8.722942590713501,0.05054550990462303,0.0009536888683214784,0.09250781685113907,-0.20962081849575043,-0.01926451548933983,0.02040894143283367
8.74303412437439,0.05054550990462303,0.000572213320992887,0.09327077120542526,-0.21000228822231293,-0.01926451548933983,0.02079041674733162
8.763088941574097,0.05054550990462303,0.000572213320992887,0.09403372555971146,-0.21038375794887543,-0.019645990803837776,0.02079041674733162
8.783141136169434,0.05054550990462303,-0.000572213320992887,0.09441519528627396,-0.21076524257659912,-0.02040894143283367,0.021553369238972664
8.803231477737427,0.05054550990462303,-0.0013351644156500697,0.09517814964056015,-0.21114671230316162,-0.02079041674733162,0.02231631986796856
8.823302507400513,0.05054550990462303,-0.0024795911740511656,0.09632257372140884,-0.21190966665744781,-0.021171892061829567,0.022697795182466507
8.843345880508423,0.05092698708176613,-0.0032425422687083483,0.09670405089855194,-0.2130540907382965,-0.021171892061829567,0.023079270496964455
8.863823652267456,0.05092698708176613,-0.004386968910694122,0.09746700525283813,-0.2141985148191452,-0.021171892061829567,0.023079270496964455
8.883914232254028,0.05092698708176613,-0.005149920005351305,0.09861142933368683,-0.2145799994468689,-0.021553369238972664,0.023460745811462402
8.903985023498535,0.05092698708176613,-0.005912871100008488,0.09937438368797302,-0.2153429538011551,-0.02193484455347061,0.02384222112596035
8.924033403396606,0.05092698708176613,-0.00667582219466567,0.09975585341453552,-0.21686884760856628,-0.02231631986796856,0.02384222112596035
8.944125413894653,0.05130846053361893,-0.007438773289322853,0.10051880776882172,-0.21763180196285248,-0.02231631986796856,0.024223696440458298
8.964205265045166,0.051689937710762024,-0.00858320016413927,0.10166323184967041,-0.21839475631713867,-0.02231631986796856,0.024986648932099342
8.984244346618652,0.051689937710762024,-0.009727626107633114,0.1024261862039566,-0.21915769577026367,-0.02231631986796856,0.025749599561095238
9.004474639892578,0.05207141116261482,-0.01125352829694748,0.1028076633810997,-0.22030213475227356,-0.02193484455347061,0.02727550081908703
9.024558305740356,0.05207141116261482,-0.01201647985726595,0.1039520874619484,-0.22182802855968475,-0.02231631986796856,0.02727550081908703
9.044692277908325,0.05245288833975792,-0.012779430486261845,0.10509651154279709,-0.22220951318740845,-0.022697795182466507,0.027656977996230125
9.06472635269165,0.05245288833975792,-0.013160906732082367,0.10547798871994019,-0.22373540699481964,-0.023079270496964455,0.027656977996230125
9.084792375564575,0.05283436179161072,-0.01430533267557621,0.10624094307422638,-0.22526131570339203,-0.023079270496964455,0.028038453310728073
9.10487675666809,0.05283436179161072,-0.01583123579621315,0.10700388997793198,-0.22602425515651703,-0.023079270496964455,0.028038453310728073
9.124950647354126,0.05283436179161072,-0.016975661739706993,0.10738536715507507,-0.22678720951080322,-0.022697795182466507,0.02841992862522602
9.14500904083252,0.05283436179161072,-0.018120087683200836,0.10852979123592377,-0.2283131182193756,-0.023079270496964455,0.029182879254221916
9.165098905563354,0.05283436179161072,-0.01888304017484188,0.10891126841306686,-0.2290760725736618,-0.023079270496964455,0.029182879254221916
9.185266256332397,0.05283436179161072,-0.01926451548933983,0.11005569249391556,-0.2294575423002243,-0.023460745811462402,0.02994582988321781
9.205265283584595,0.053215838968753815,-0.02079041674733162,0.11120012402534485,-0.230601966381073,-0.02384222112596035,0.03032730519771576
9.225456237792969,0.05359731614589691,-0.02231631986796856,0.11234454810619354,-0.23212787508964539,-0.024223696440458298,0.030708782374858856
9.245506525039673,0.05397878959774971,-0.023460745811462402,0.11310750246047974,-0.23289081454277039,-0.02384222112596035,0.030708782374858856
9.26551103591919,0.05397878959774971,-0.024223696440458298,0.11387044936418533,-0.23327229917049408,-0.024223696440458298,0.031090257689356804
9.285611629486084,0.05397878959774971,-0.02536812424659729,0.11463340371847153,-0.23441672325134277,-0.024223696440458298,0.031090257689356804
9.305677652359009,0.05397878959774971,-0.026512550190091133,0.11577782779932022,-0.23632410168647766,-0.024223696440458298,0.03147173300385475
9.32575535774231,0.05436026677489281,-0.027656977996230125,0.11692225188016891,-0.23708705604076385,-0.024986648932099342,0.03185320645570755
9.345942497253418,0.054741740226745605,-0.02880140393972397,0.11768520623445511,-0.23746852576732635,-0.02536812424659729,0.03223468363285065
9.366099834442139,0.054741740226745605,-0.02994582988321781,0.1188296303153038,-0.23823148012161255,-0.02536812424659729,0.03299763426184654
9.386116743087769,0.0551232174038887,-0.030708782374858856,0.1192111074924469,-0.23975738883018494,-0.02536812424659729,0.034142062067985535
9.406164407730103,0.0551232174038887,-0.03185320645570755,0.1199740618467331,-0.24052032828330994,-0.02536812424659729,0.03452353551983833
9.426246643066406,0.0551232174038887,-0.03337911143898964,0.12073700875043869,-0.24090181291103363,-0.02536812424659729,0.03490501269698143
9.44631838798523,0.0555046908557415,-0.034142062067985535,0.12149996310472488,-0.24204623699188232,-0.025749599561095238,0.03528648987412453
9.466374397277832,0.056267641484737396,-0.03528648987412453,0.12226291000843048,-0.24357213079929352,-0.026131074875593185,0.035667963325977325
9.486724376678467,0.056267641484737396,-0.03681239113211632,0.12302586436271667,-0.2443350851535797,-0.026131074875593185,0.03643091395497322
9.506869077682495,0.056267641484737396,-0.03833829239010811,0.12455176562070847,-0.2450980395078659,-0.026131074875593185,0.03681239113211632
9.526928424835205,0.056267641484737396,-0.0394827201962471,0.12531471252441406,-0.2466239482164383,-0.026131074875593185,0.03795681521296501
9.54699969291687,0.056267641484737396,-0.040245670825242996,0.12607766687870026,-0.247768372297287,-0.026131074875593185,0.03795681521296501
9.567126512527466,0.05664911866188049,-0.04139009863138199,0.12722209095954895,-0.2481498420238495,-0.026512550190091133,0.03833829239010811
9.587377548217773,0.05703059583902359,-0.04329747334122658,0.12836651504039764,-0.24929426610469818,-0.02689402550458908,0.038719769567251205
9.607340812683105,0.05741206929087639,-0.04444190114736557,0.12912946939468384,-0.2508201599121094,-0.02689402550458908,0.038719769567251205
9.627445459365845,0.058175019919872284,-0.04634927958250046,0.13103684782981873,-0.25234606862068176,-0.02689402550458908,0.039101243019104004
9.647522926330566,0.058175019919872284,-0.04749370738863945,0.13179980218410492,-0.25310903787612915,-0.026512550190091133,0.0394827201962471
9.667622089385986,0.058175019919872284,-0.048256658017635345,0.1325627565383911,-0.25501641631126404,-0.02689402550458908,0.0398641936480999
9.687737464904785,0.058175019919872284,-0.049782559275627136,0.1333257108926773,-0.25539788603782654,-0.02689402550458908,0.040245670825242996
9.707886457443237,0.058175019919872284,-0.051689937710762024,0.1348516047000885,-0.25577935576438904,-0.027656977996230125,0.04139009863138199
9.727982997894287,0.058175019919872284,-0.05283436179161072,0.1356145590543747,-0.2569237947463989,-0.028038453310728073,0.04177157208323479
9.748082876205444,0.058175019919872284,-0.05436026677489281,0.1363775134086609,-0.2588311731815338,-0.02880140393972397,0.04253452271223068
9.768126249313354,0.058175019919872284,-0.056267641484737396,0.13752193748950958,-0.2599755823612213,-0.02841992862522602,0.04253452271223068
9.788268327713013,0.058175019919872284,-0.05855649709701538,0.13904783129692078,-0.2618829607963562,-0.02880140393972397,0.04291599988937378
9.808408498764038,0.058175019919872284,-0.06008239835500717,0.13981078565120697,-0.2630273997783661,-0.029182879254221916,0.04329747334122658
9.828439712524414,0.058175019919872284,-0.06198977679014206,0.14133669435977936,-0.2634088695049286,-0.029564354568719864,0.04482337832450867
9.848569869995117,0.05855649709701538,-0.06351567804813385,0.14209964871406555,-0.2645532786846161,-0.02994582988321781,0.04558632895350456
9.868600845336914,0.05855649709701538,-0.06504157930612564,0.14324407279491425,-0.2660791873931885,-0.02994582988321781,0.04558632895350456
9.888729572296143,0.05893797054886818,-0.06733043491840363,0.14438849687576294,-0.26684215664863586,-0.03032730519771576,0.04596780240535736
9.908843040466309,0.05893797054886818,-0.07000076025724411,0.14591439068317413,-0.26798656582832336,-0.03032730519771576,0.04634927958250046
9.928924322128296,0.05893797054886818,-0.071908138692379,0.14782176911830902,-0.26989394426345825,-0.030708782374858856,0.046730753034353256
9.949072360992432,0.05893797054886818,-0.07267109304666519,0.14858472347259521,-0.27065691351890564,-0.031090257689356804,0.04711223021149635
9.96911072731018,0.059319447726011276,-0.07419699430465698,0.1493476778268814,-0.27180132269859314,-0.031090257689356804,0.048638131469488144
9.989190340042114,0.059319447726011276,-0.07610437273979187,0.1501106321811676,-0.2733272314071655,-0.03185320645570755,0.04940108209848404
10.009330749511719,0.059319447726011276,-0.07915617525577545,0.1516365259885788,-0.2748531401157379,-0.032616160809993744,0.04940108209848404
10.029428243637085,0.06008239835500717,-0.08144503086805344,0.15316243469715118,-0.2767605185508728,-0.032616160809993744,0.049782559275627136
10.049576759338379,0.06046387553215027,-0.08373387902975082,0.15392538905143738,-0.2779049277305603,-0.032616160809993744,0.050164032727479935
10.069672346115112,0.06046387553215027,-0.08564125746488571,0.15583276748657227,-0.2790493667125702,-0.03299763426184654,0.05092698708176613
10.089733839035034,0.06046387553215027,-0.0864042118191719,0.15659570693969727,-0.2809567451477051,-0.03337911143898964,0.05207141116261482
10.10991883277893,0.06084534898400307,-0.08869306743144989,0.15926603972911835,-0.2821011543273926,-0.03376058489084244,0.053215838968753815
10.13003659248352,0.061226826161146164,-0.09174486994743347,0.16079194843769073,-0.28439003229141235,-0.034142062067985535,0.05397878959774971
10.150146484375,0.061226826161146164,-0.09479667246341705,0.16269932687282562,-0.28667888045310974,-0.034142062067985535,0.054741740226745605
10.170226335525513,0.061226826161146164,-0.09670405089855194,0.164988175034523,-0.28858625888824463,-0.03490501269698143,0.056267641484737396
10.190310716629028,0.061226826161146164,-0.09861142933368683,0.1657511293888092,-0.28973066806793213,-0.03528648987412453,0.05664911866188049
10.210431575775146,0.061226826161146164,-0.10051880776882172,0.1665140837430954,-0.2904936373233795,-0.03490501269698143,0.05703059583902359
10.230511665344238,0.061226826161146164,-0.1031891331076622,0.1680399775505066,-0.2920195460319519,-0.03528648987412453,0.05741206929087639
10.25058889389038,0.061226826161146164,-0.10471503436565399,0.16918440163135529,-0.2927824854850769,-0.035667963325977325,0.057793546468019485
10.27068567276001,0.06160829961299896,-0.10624094307422638,0.17032882571220398,-0.2935454249382019,-0.03604944050312042,0.05855649709701538
10.291256189346313,0.06160829961299896,-0.10852979123592377,0.17185473442077637,-0.2958342730998993,-0.03681239113211632,0.05970092490315437
10.31139087677002,0.06237125024199486,-0.11158160120248795,0.17376211285591125,-0.2969787120819092,-0.03757534176111221,0.06084534898400307
10.33180856704712,0.06313420087099075,-0.11387044936418533,0.17528800666332245,-0.29888609051704407,-0.03757534176111221,0.06160829961299896
10.351771831512451,0.06313420087099075,-0.1180666834115982,0.17681391537189484,-0.30079346895217896,-0.037193864583969116,0.06275273114442825
10.371846675872803,0.06313420087099075,-0.12188144028186798,0.17948424816131592,-0.30270084738731384,-0.03757534176111221,0.06427863240242004
10.391911745071411,0.06313420087099075,-0.12417028844356537,0.1810101419687271,-0.30460822582244873,-0.03795681521296501,0.06466010212898254
10.411984205245972,0.06313420087099075,-0.12607766687870026,0.1817730963230133,-0.3057526648044586,-0.03833829239010811,0.06504157930612564
10.43212890625,0.06313420087099075,-0.12912946939468384,0.1832990050315857,-0.3076600432395935,-0.038719769567251205,0.06542305648326874
10.452218532562256,0.06313420087099075,-0.13218127191066742,0.1848248988389969,-0.3084229826927185,-0.0398641936480999,0.06618601083755493
10.472285270690918,0.06313420087099075,-0.135233074426651,0.18635080754756927,-0.3099488914012909,-0.040245670825242996,0.06733043491840363
10.492343425750732,0.06313420087099075,-0.13752193748950958,0.18749523162841797,-0.3114747703075409,-0.040627144277095795,0.06809338182210922
10.51248550415039,0.06313420087099075,-0.14057374000549316,0.18978407979011536,-0.3133821487426758,-0.04100862145423889,0.06923781335353851
10.532546281814575,0.06313420087099075,-0.14248111844062805,0.19169145822525024,-0.31528952717781067,-0.04177157208323479,0.0711451917886734
10.552595615386963,0.06313420087099075,-0.14476996660232544,0.19359883666038513,-0.31605249643325806,-0.042153049260377884,0.071908138692379
10.57272481918335,0.06313420087099075,-0.14667734503746033,0.19512474536895752,-0.31757840514183044,-0.04253452271223068,0.0722896158695221
10.592809438705444,0.06313420087099075,-0.1497291475534439,0.1974135935306549,-0.31910428404808044,-0.04253452271223068,0.07267109304666519
10.612879514694214,0.06351567804813385,-0.1527809500694275,0.1993209719657898,-0.32101166248321533,-0.04291599988937378,0.07343403995037079
10.632928371429443,0.06351567804813385,-0.15621423721313477,0.20084688067436218,-0.3229190409183502,-0.04329747334122658,0.07419699430465698
10.653014659881592,0.06351567804813385,-0.15888457000255585,0.20313572883605957,-0.3233005404472351,-0.043678950518369675,0.07495994865894318
10.673146486282349,0.06351567804813385,-0.16117341816425323,0.20466163754463196,-0.3255893886089325,-0.04406042397022247,0.07610437273979187
10.693151712417603,0.06351567804813385,-0.16308079659938812,0.20618753135204315,-0.3274967670440674,-0.04444190114736557,0.07648584991693497
10.713407039642334,0.06427863240242004,-0.1661325991153717,0.20847637951374054,-0.32940414547920227,-0.04482337832450867,0.07801175117492676
10.73349118232727,0.06466010212898254,-0.16956588625907898,0.21038375794887543,-0.33093002438545227,-0.045204851776361465,0.07915617525577545
10.753556251525879,0.06504157930612564,-0.17376211285591125,0.21190966665744781,-0.33245593309402466,-0.045204851776361465,0.07991912961006165
10.773643016815186,0.06504157930612564,-0.17681391537189484,0.2134355753660202,-0.33398184180259705,-0.04482337832450867,0.08030059933662415
10.793757438659668,0.06504157930612564,-0.17986571788787842,0.2161058932542801,-0.33550775051116943,-0.045204851776361465,0.08144503086805344
10.81388807296753,0.06504157930612564,-0.1817730963230133,0.21725031733512878,-0.3374151289463043,-0.04558632895350456,0.08258945494890213
10.83385682106018,0.06504157930612564,-0.1840619444847107,0.21877622604370117,-0.3381780683994293,-0.04596780240535736,0.08297093212604523
10.853931665420532,0.06504157930612564,-0.18749523162841797,0.22030213475227356,-0.3400854468345642,-0.046730753034353256,0.08373387902975082
10.873998403549194,0.06504157930612564,-0.19169145822525024,0.22259098291397095,-0.3416113555431366,-0.04711223021149635,0.08411535620689392
10.894170045852661,0.06504157930612564,-0.19474326074123383,0.22411687672138214,-0.343137264251709,-0.04749370738863945,0.08564125746488571
10.914369344711304,0.06504157930612564,-0.1977950781583786,0.22564278542995453,-0.34542611241340637,-0.04749370738863945,0.0871671661734581
10.934459209442139,0.06542305648326874,-0.2004653960466385,0.2290760725736618,-0.34618905186653137,-0.048256658017635345,0.0883115902543068
10.954516887664795,0.06542305648326874,-0.20313572883605957,0.230601966381073,-0.34924086928367615,-0.04940108209848404,0.08983749151229858
10.974561214447021,0.06542305648326874,-0.20733195543289185,0.23250934481620789,-0.35038527846336365,-0.050164032727479935,0.09136339277029037
10.994646787643433,0.06504157930612564,-0.20962081849575043,0.23441672325134277,-0.35229265689849854,-0.05092698708176613,0.09212634712457657
11.014719009399414,0.06542305648326874,-0.212672621011734,0.23632410168647766,-0.3534370958805084,-0.05130846053361893,0.09288929402828217
11.034765481948853,0.06504157930612564,-0.21686884760856628,0.23785001039505005,-0.3557259440422058,-0.05130846053361893,0.09479667246341705
11.054983139038086,0.06504157930612564,-0.22030213475227356,0.24052032828330994,-0.3580147922039032,-0.051689937710762024,0.09555962681770325
11.075065612792969,0.06504157930612564,-0.22297245264053345,0.24319066107273102,-0.3603036403656006,-0.05207141116261482,0.09670405089855194
11.095209836959839,0.06504157930612564,-0.22487983107566833,0.2450980395078659,-0.3614480793476105,-0.05207141116261482,0.09822995215654373
11.115206956863403,0.06504157930612564,-0.22716869413852692,0.2466239482164383,-0.36373692750930786,-0.05245288833975792,0.09899290651082993
11.135296106338501,0.06542305648326874,-0.2302204966545105,0.24929426610469818,-0.36526283621788025,-0.05283436179161072,0.09937438368797302
11.155361413955688,0.06504157930612564,-0.23403525352478027,0.25120165944099426,-0.36755168437957764,-0.05283436179161072,0.10090028494596481
11.175408124923706,0.06504157930612564,-0.23746852576732635,0.25272753834724426,-0.368314653635025,-0.053215838968753815,0.1024261862039566
11.195570230484009,0.06504157930612564,-0.24052032828330994,0.25577935576438904,-0.3713664412498474,-0.05359731614589691,0.1031891331076622
11.215738773345947,0.06542305648326874,-0.24280919134616852,0.2584496736526489,-0.3732738196849823,-0.05397878959774971,0.1039520874619484
11.2357759475708,0.06542305648326874,-0.2447165697813034,0.2603570520877838,-0.3751811981201172,-0.05436026677489281,0.10585946589708328
11.255839824676514,0.06542305648326874,-0.2473868876695633,0.2622644305229187,-0.3759441375732422,-0.0551232174038887,0.10700388997793198
11.275904893875122,0.06504157930612564,-0.2508201599121094,0.2653162479400635,-0.37823301553726196,-0.056267641484737396,0.10814831405878067
11.296045064926147,0.06504157930612564,-0.25463491678237915,0.26760509610176086,-0.38014039397239685,-0.05703059583902359,0.10967422276735306
11.316065549850464,0.06504157930612564,-0.2573052644729614,0.26913100481033325,-0.38242924213409424,-0.05855649709701538,0.11043716967105865
11.336164474487305,0.06504157930612564,-0.2592126429080963,0.27065691351890564,-0.38319218158721924,-0.05970092490315437,0.11120012402534485
11.356306552886963,0.06542305648326874,-0.2611200213432312,0.27218279242515564,-0.3847180902957916,-0.05970092490315437,0.11310750246047974
11.376358270645142,0.06542305648326874,-0.2626459002494812,0.2733272314071655,-0.3858625292778015,-0.06008239835500717,0.11463340371847153
11.396418809890747,0.06504157930612564,-0.2653162479400635,0.2748531401157379,-0.3877699077129364,-0.06046387553215027,0.11654078215360641
11.416655778884888,0.06504157930612564,-0.26874953508377075,0.2771419882774353,-0.3896772861480713,-0.06084534898400307,0.11768520623445511
11.436810970306396,0.06542305648326874,-0.27218279242515564,0.2798123061656952,-0.3908216953277588,-0.061226826161146164,0.1180666834115982
11.45688772201538,0.06504157930612564,-0.2748531401157379,0.2809567451477051,-0.3927290737628937,-0.06160829961299896,0.1199740618467331
11.476911783218384,0.06504157930612564,-0.2771419882774353,0.2821011543273926,-0.39463645219802856,-0.06237125024199486,0.12111848592758179
11.49698805809021,0.06504157930612564,-0.2794308364391327,0.28400853276252747,-0.39616236090660095,-0.06313420087099075,0.12188144028186798
11.517085075378418,0.06542305648326874,-0.2813382148742676,0.28553444147109985,-0.39768826961517334,-0.06389715522527695,0.12340734153985977
11.537139415740967,0.06504157930612564,-0.28439003229141235,0.28744181990623474,-0.3995956480503082,-0.06466010212898254,0.12493324279785156
11.557214975357056,0.06504157930612564,-0.28744181990623474,0.28934919834136963,-0.4022659659385681,-0.06542305648326874,0.12569619715213776
11.577272891998291,0.06504157930612564,-0.28973066806793213,0.291638046503067,-0.4045548141002655,-0.06656748056411743,0.12645913660526276
11.597379446029663,0.06504157930612564,-0.291638046503067,0.2927824854850769,-0.4056992530822754,-0.06694895774126053,0.12798504531383514
11.61767840385437,0.06504157930612564,-0.2946898639202118,0.2950713336467743,-0.4072251319885254,-0.06771191209554672,0.12912946939468384
11.637745141983032,0.06504157930612564,-0.2969787120819092,0.2969787120819092,-0.40951400995254517,-0.06847485899925232,0.13065537810325623
11.657800674438477,0.06504157930612564,-0.29888609051704407,0.29850462079048157,-0.41142138838768005,-0.06847485899925232,0.1329442262649536
11.678153276443481,0.06504157930612564,-0.30155640840530396,0.30003052949905396,-0.41294726729393005,-0.06885633617639542,0.1333257108926773
11.698228597640991,0.06504157930612564,-0.30384528636932373,0.30193790793418884,-0.41409170627593994,-0.06923781335353851,0.135233074426651
11.718370199203491,0.06504157930612564,-0.3057526648044586,0.30308231711387634,-0.41599908471107483,-0.07000076025724411,0.1363775134086609
11.738470792770386,0.06466010212898254,-0.308804452419281,0.30498969554901123,-0.4182879328727722,-0.07038223743438721,0.13752193748950958
11.758610486984253,0.06427863240242004,-0.3122377395629883,0.3072785437107086,-0.4201953113079071,-0.0711451917886734,0.13942931592464447
11.77867078781128,0.06427863240242004,-0.31490805745124817,0.3084229826927185,-0.4217212200164795,-0.071908138692379,0.14133669435977936
11.798724174499512,0.06389715522527695,-0.31719690561294556,0.3099488914012909,-0.4240100681781769,-0.0722896158695221,0.14324407279491425
11.8188955783844,0.06313420087099075,-0.31872281432151794,0.3114747703075409,-0.42553597688674927,-0.07267109304666519,0.14362554252147675
11.838958263397217,0.06313420087099075,-0.32024872303009033,0.31376364827156067,-0.42744335532188416,-0.07381551712751389,0.14400701224803925
11.859054803848267,0.06313420087099075,-0.3221561014652252,0.31528952717781067,-0.42858776450157166,-0.07457847148180008,0.14553292095661163
11.879091024398804,0.06313420087099075,-0.3240634799003601,0.31719690561294556,-0.43087664246559143,-0.07572289556264877,0.14744029939174652
11.89914846420288,0.06275273114442825,-0.3274967670440674,0.31872281432151794,-0.43240252137184143,-0.07648584991693497,0.14820325374603271
11.919238328933716,0.06275273114442825,-0.33016708493232727,0.32024872303009033,-0.4350728690624237,-0.07686731964349747,0.1504921019077301
11.939292669296265,0.06275273114442825,-0.33283740282058716,0.3213931620121002,-0.4358358085155487,-0.07724879682064056,0.1508735716342926
11.959374189376831,0.06237125024199486,-0.33436331152915955,0.3225375711917877,-0.4365987777709961,-0.07724879682064056,0.1516365259885788
11.979437112808228,0.06198977679014206,-0.33588922023773193,0.3233005404472351,-0.4381246566772461,-0.07763027399778366,0.1527809500694275
11.999631643295288,0.06084534898400307,-0.3377965986728668,0.3240634799003601,-0.438506156206131,-0.07801175117492676,0.15430685877799988
12.019666194915771,0.06084534898400307,-0.3377965986728668,0.3244449496269226,-0.439269095659256,-0.07877469807863235,0.15506981313228607
12.03978705406189,0.06084534898400307,-0.3377965986728668,0.3248264193534851,-0.4396505653858185,-0.07915617525577545,0.15583276748657227
12.059802055358887,0.06084534898400307,-0.3377965986728668,0.32520791888237,-0.440032035112381,-0.07953765243291855,0.15774014592170715
12.079877614974976,0.06084534898400307,-0.3377965986728668,0.3255893886089325,-0.4404135048389435,-0.07915617525577545,0.15850308537483215
12.099948167800903,0.06084534898400307,-0.3381780683994293,0.3263523280620575,-0.44117647409439087,-0.07953765243291855,0.15888457000255585
12.12000322341919,0.06046387553215027,-0.3377965986728668,0.3263523280620575,-0.44155794382095337,-0.07953765243291855,0.15926603972911835
12.140077590942383,0.06008239835500717,-0.3377965986728668,0.32673379778862,-0.44155794382095337,-0.07953765243291855,0.16002899408340454
12.160148859024048,0.06008239835500717,-0.3377965986728668,0.32673379778862,-0.44155794382095337,-0.07991912961006165,0.16079194843769073
12.180251598358154,0.06008239835500717,-0.3377965986728668,0.32673379778862,-0.44155794382095337,-0.08030059933662415,0.16117341816425323
12.200358390808105,0.06008239835500717,-0.3381780683994293,0.32673379778862,-0.44193941354751587,-0.08068207651376724,0.16155488789081573
12.220504760742188,0.06008239835500717,-0.3381780683994293,0.32673379778862,-0.44155794382095337,-0.08106355369091034,0.16155488789081573
12.240514039993286,0.06008239835500717,-0.3381780683994293,0.32673379778862,-0.44193941354751587,-0.08106355369091034,0.16193637251853943
12.260670900344849,0.06008239835500717,-0.3385595381259918,0.32673379778862,-0.44193941354751587,-0.08106355369091034,0.16193637251853943
12.280771017074585,0.05970092490315437,-0.3389410376548767,0.32673379778862,-0.44193941354751587,-0.08144503086805344,0.16193637251853943
12.300860404968262,0.05970092490315437,-0.3389410376548767,0.32673379778862,-0.44193941354751587,-0.08106355369091034,0.16231784224510193
12.320901155471802,0.05893797054886818,-0.3389410376548767,0.32673379778862,-0.44193941354751587,-0.08144503086805344,0.16231784224510193
12.340978622436523,0.05855649709701538,-0.3389410376548767,0.3271152675151825,-0.44193941354751587,-0.08182650804519653,0.16269932687282562
12.361143827438354,0.05855649709701538,-0.3389410376548767,0.3271152675151825,-0.44193941354751587,-0.08182650804519653,0.16269932687282562
12.381200790405273,0.058175019919872284,-0.3389410376548767,0.3271152675151825,-0.44193941354751587,-0.08220797777175903,0.16308079659938812
12.401247501373291,0.058175019919872284,-0.3389410376548767,0.3271152675151825,-0.44193941354751587,-0.08220797777175903,0.16308079659938812
12.421329021453857,0.058175019919872284,-0.3389410376548767,0.3271152675151825,-0.44193941354751587,-0.08220797777175903,0.16346226632595062
12.441385984420776,0.058175019919872284,-0.3389410376548767,0.3271152675151825,-0.44193941354751587,-0.08220797777175903,0.16384375095367432
12.46153473854065,0.058175019919872284,-0.3389410376548767,0.3274967670440674,-0.44193941354751587,-0.08220797777175903,0.16422522068023682
12.48156189918518,0.058175019919872284,-0.3389410376548767,0.3278782367706299,-0.44193941354751587,-0.08220797777175903,0.164988175034523
12.501799821853638,0.058175019919872284,-0.3389410376548767,0.3278782367706299,-0.44193941354751587,-0.08258945494890213,0.1653696447610855
12.521763324737549,0.058175019919872284,-0.3389410376548767,0.3278782367706299,-0.44193941354751587,-0.08258945494890213,0.1653696447610855
12.541846752166748,0.058175019919872284,-0.3397039771080017,0.3278782367706299,-0.44193941354751587,-0.08258945494890213,0.1657511293888092
12.562013626098633,0.058175019919872284,-0.3400854468345642,0.3278782367706299,-0.44193941354751587,-0.08258945494890213,0.1657511293888092
12.582015752792358,0.058175019919872284,-0.3400854468345642,0.3278782367706299,-0.44193941354751587,-0.08258945494890213,0.1661325991153717
12.602090120315552,0.058175019919872284,-0.3400854468345642,0.3278782367706299,-0.44193941354751587,-0.08258945494890213,0.1661325991153717
12.622182130813599,0.058175019919872284,-0.3400854468345642,0.3278782367706299,-0.44193941354751587,-0.08258945494890213,0.1665140837430954
12.64224362373352,0.057793546468019485,-0.3400854468345642,0.3278782367706299,-0.44193941354751587,-0.08297093212604523,0.1672770231962204
12.662363767623901,0.057793546468019485,-0.3400854468345642,0.3278782367706299,-0.44155794382095337,-0.08335240930318832,0.1680399775505066
12.682446479797363,0.057793546468019485,-0.3400854468345642,0.3282597064971924,-0.44193941354751587,-0.08335240930318832,0.16880293190479279
12.702667474746704,0.057793546468019485,-0.3412298858165741,0.3282597064971924,-0.44193941354751587,-0.08335240930318832,0.16880293190479279
12.722663640975952,0.057793546468019485,-0.3412298858165741,0.3282597064971924,-0.44155794382095337,-0.08335240930318832,0.16918440163135529
12.742759943008423,0.05741206929087639,-0.3412298858165741,0.3286411762237549,-0.44193941354751587,-0.08335240930318832,0.16918440163135529
12.762799263000488,0.05703059583902359,-0.3412298858165741,0.3286411762237549,-0.44155794382095337,-0.08335240930318832,0.16956588625907898
12.782927751541138,0.05664911866188049,-0.3412298858165741,0.3286411762237549,-0.44155794382095337,-0.08411535620689392,0.16994735598564148
12.802970886230469,0.05664911866188049,-0.3412298858165741,0.3290226459503174,-0.44155794382095337,-0.08487831056118011,0.16994735598564148
12.82306170463562,0.056267641484737396,-0.3412298858165741,0.3290226459503174,-0.44155794382095337,-0.08525978773832321,0.17032882571220398
12.843106746673584,0.0558861680328846,-0.3419928252696991,0.3290226459503174,-0.44155794382095337,-0.08525978773832321,0.17071031033992767
12.863185405731201,0.0558861680328846,-0.3419928252696991,0.32978561520576477,-0.44155794382095337,-0.08564125746488571,0.17147326469421387
12.883318662643433,0.0558861680328846,-0.3423742949962616,0.32978561520576477,-0.44117647409439087,-0.08564125746488571,0.17261768877506256
12.903338193893433,0.0555046908557415,-0.343137264251709,0.33016708493232727,-0.44117647409439087,-0.08602273464202881,0.17299915850162506
12.923407793045044,0.0558861680328846,-0.343137264251709,0.33016708493232727,-0.44155794382095337,-0.08602273464202881,0.17338064312934875
12.943491458892822,0.0555046908557415,-0.343137264251709,0.33016708493232727,-0.44117647409439087,-0.08602273464202881,0.17376211285591125
12.963576555252075,0.0551232174038887,-0.343137264251709,0.33016708493232727,-0.44117647409439087,-0.08602273464202881,0.17452506721019745
12.983646392822266,0.054741740226745605,-0.343900203704834,0.33054855465888977,-0.44117647409439087,-0.0864042118191719,0.17528800666332245
13.003708362579346,0.054741740226745605,-0.3442816734313965,0.33093002438545227,-0.44117647409439087,-0.086785688996315,0.17643244564533234
13.023924589157104,0.05436026677489281,-0.3442816734313965,0.33093002438545227,-0.44117647409439087,-0.0871671661734581,0.17681391537189484
13.04398250579834,0.05359731614589691,-0.3442816734313965,0.33093002438545227,-0.44079500436782837,-0.086785688996315,0.17681391537189484
13.064045190811157,0.05359731614589691,-0.3442816734313965,0.33093002438545227,-0.4404135048389435,-0.0871671661734581,0.17719538509845734
13.084180355072021,0.053215838968753815,-0.3442816734313965,0.33131152391433716,-0.4396505653858185,-0.0871671661734581,0.17757686972618103
13.104318857192993,0.05283436179161072,-0.3442816734313965,0.33169299364089966,-0.4388876259326935,-0.0871671661734581,0.17795833945274353
13.124363899230957,0.05245288833975792,-0.3442816734313965,0.33207446336746216,-0.4388876259326935,-0.0879301130771637,0.17910276353359222
13.144453048706055,0.05245288833975792,-0.3442816734313965,0.33207446336746216,-0.438506156206131,-0.0879301130771637,0.1802472025156021
13.16450548171997,0.05207141116261482,-0.34580758213996887,0.33207446336746216,-0.4381246566772461,-0.08869306743144989,0.1806286722421646
13.184640645980835,0.051689937710762024,-0.34618905186653137,0.33283740282058716,-0.4381246566772461,-0.08869306743144989,0.1813916265964508
13.204654216766357,0.05130846053361893,-0.34618905186653137,0.33283740282058716,-0.4381246566772461,-0.08869306743144989,0.182154580950737
13.22472357749939,0.05054550990462303,-0.34618905186653137,0.33283740282058716,-0.4377431869506836,-0.08869306743144989,0.1840619444847107
13.24478816986084,0.05054550990462303,-0.34618905186653137,0.33321890234947205,-0.4373617172241211,-0.08945601433515549,0.1844434291124344
13.264854192733765,0.05054550990462303,-0.34618905186653137,0.33398184180259705,-0.4373617172241211,-0.08983749151229858,0.18520638346672058
13.284905433654785,0.05054550990462303,-0.34618905186653137,0.33436331152915955,-0.4369802474975586,-0.08983749151229858,0.18558785319328308
13.30508279800415,0.050164032727479935,-0.34618905186653137,0.33474478125572205,-0.4365987777709961,-0.09021896868944168,0.18711376190185547
13.32517123222351,0.049782559275627136,-0.34618905186653137,0.33512628078460693,-0.4350728690624237,-0.09021896868944168,0.18749523162841797
13.34520149230957,0.04940108209848404,-0.34618905186653137,0.33512628078460693,-0.4343098998069763,-0.09021896868944168,0.18825818598270416
13.365426063537598,0.048638131469488144,-0.34771496057510376,0.33512628078460693,-0.4339284300804138,-0.09021896868944168,0.18863965570926666
13.385577201843262,0.048256658017635345,-0.34847790002822876,0.33550775051116943,-0.4339284300804138,-0.09212634712457657,0.18978407979011536
13.40554666519165,0.04749370738863945,-0.34885939955711365,0.33627068996429443,-0.4335469603538513,-0.09174486994743347,0.19130998849868774
13.425716876983643,0.046730753034353256,-0.35038527846336365,0.33627068996429443,-0.43087664246559143,-0.09250781685113907,0.19245441257953644
13.445886611938477,0.04596780240535736,-0.35038527846336365,0.3370336592197418,-0.43049514293670654,-0.09288929402828217,0.19474326074123383
13.466041803359985,0.04596780240535736,-0.35038527846336365,0.3374151289463043,-0.43011367321014404,-0.09365224838256836,0.19512474536895752
13.486115455627441,0.045204851776361465,-0.35038527846336365,0.3374151289463043,-0.42896926403045654,-0.09403372555971146,0.1958876997232437
13.506196975708008,0.04482337832450867,-0.35038527846336365,0.3381780683994293,-0.42782482504844666,-0.09441519528627396,0.1966506391763687
13.526387453079224,0.04444190114736557,-0.35038527846336365,0.3389410376548767,-0.42668038606643677,-0.09403372555971146,0.1977950781583786
13.54639220237732,0.04329747334122658,-0.35038527846336365,0.3393225073814392,-0.42629891633987427,-0.09441519528627396,0.1993209719657898
13.566633701324463,0.04329747334122658,-0.35038527846336365,0.3393225073814392,-0.42591744661331177,-0.09479667246341705,0.2004653960466385
13.586671590805054,0.04291599988937378,-0.35038527846336365,0.3397039771080017,-0.42515450716018677,-0.09555962681770325,0.20199130475521088
13.606682300567627,0.04253452271223068,-0.35038527846336365,0.3404669165611267,-0.4224841594696045,-0.09594109654426575,0.20313572883605957
13.626826286315918,0.04139009863138199,-0.35076677799224854,0.3408484160900116,-0.422102689743042,-0.09594109654426575,0.20351719856262207
13.646932601928711,0.040627144277095795,-0.35076677799224854,0.3412298858165741,-0.4217212200164795,-0.09632257372140884,0.20428015291690826
13.667073488235474,0.040245670825242996,-0.35152971744537354,0.3419928252696991,-0.421339750289917,-0.09670405089855194,0.20580606162548065
13.687093019485474,0.039101243019104004,-0.35152971744537354,0.3423742949962616,-0.4190509021282196,-0.09746700525283813,0.20695048570632935
13.707422971725464,0.03795681521296501,-0.3526741564273834,0.3427557647228241,-0.4190509021282196,-0.09784847497940063,0.20847637951374054
13.727554082870483,0.037193864583969116,-0.3530556261539459,0.3435187339782715,-0.4182879328727722,-0.09784847497940063,0.21076524257659912
13.747612953186035,0.03681239113211632,-0.3538185656070709,0.3435187339782715,-0.4171435236930847,-0.09822995215654373,0.21152819693088531
13.767694473266602,0.03604944050312042,-0.3538185656070709,0.3442816734313965,-0.41561761498451233,-0.09822995215654373,0.2130540907382965
13.787747383117676,0.035667963325977325,-0.3538185656070709,0.344663143157959,-0.41447317600250244,-0.09861142933368683,0.2141985148191452
13.807964563369751,0.03528648987412453,-0.3538185656070709,0.34580758213996887,-0.41371023654937744,-0.09975585341453552,0.2149614691734314
13.827940225601196,0.03452353551983833,-0.3538185656070709,0.34580758213996887,-0.41218432784080505,-0.10013733059167862,0.2157244235277176
13.848034858703613,0.03337911143898964,-0.3538185656070709,0.34657052159309387,-0.41142138838768005,-0.10013733059167862,0.21801327168941498
13.868130445480347,0.03223468363285065,-0.3545815348625183,0.34771496057510376,-0.41103988885879517,-0.10128175467252731,0.21953918039798737
13.888177633285522,0.031090257689356804,-0.3557259440422058,0.34809643030166626,-0.41065841913223267,-0.10204470902681351,0.22182802855968475
13.908320903778076,0.03032730519771576,-0.3561074137687683,0.34885939955711365,-0.4079881012439728,-0.1035706102848053,0.22259098291397095
13.928365468978882,0.02880140393972397,-0.3564889132976532,0.34924086928367615,-0.4072251319885254,-0.1039520874619484,0.22449836134910583
