liuyurong129/humanoid-gym/humanoid/data/robot1_action_20250621-220945.csv
timestamp,joint_1,joint_2,joint_3,joint_4,joint_5,joint_6
0.0008935928344726562,0.0,0.0,0.0,0.0,0.0,0.0
0.02096724510192871,0.0,0.0,0.0,0.0,0.0,0.0
0.04106926918029785,0.0,0.0,0.0,0.0,0.0,0.0
0.061475276947021484,0.0,0.0,0.0,0.0,0.0,0.0
0.08151817321777344,0.0,0.0,0.0,0.0,0.0,0.0
0.10150766372680664,-1.445524,-0.14851642,-0.13415945,-0.08327578,-0.34466222,0.94909227
0.12160277366638184,-1.445524,-0.14851642,-0.13415945,-0.08327578,-0.34466222,0.94909227
0.14176249504089355,-0.2733858,8.181461,5.518614,-0.46987027,-5.276151,-3.0924206
0.16174960136413574,4.709436,3.56012,5.8153553,1.4057784,-6.665107,-1.4335678
0.18182611465454102,2.9991589,5.926219,4.3776445,-1.6896411,-6.7321253,-0.78709334
0.2029430866241455,1.7491754,4.216876,5.5405493,1.5749689,-7.578532,-2.1823854
0.22303462028503418,1.3518437,4.5907564,7.3570385,0.87501705,-5.3959146,-3.7000973
0.24311280250549316,2.1559515,4.449233,0.5552223,-1.4485003,-3.722889,-1.3893156
0.2635178565979004,3.945166,8.566265,-1.7568351,-1.1567081,-5.2079887,-4.033142
0.2838103771209717,3.945166,8.566265,-1.7568351,-1.1567081,-5.2079887,-4.033142
0.30388402938842773,5.730065,12.93511,-4.3015394,-2.0085912,-5.5671716,-4.3985515
0.324237585067749,6.804953,13.864361,-3.7591288,-2.3675017,-6.309954,-4.4647164
0.34420180320739746,6.8108974,13.631472,-3.521164,-2.653198,-6.3429127,-4.5283823
0.36420345306396484,6.4490724,12.394497,-2.9359767,-2.7294135,-6.059049,-4.1102724
0.38430166244506836,5.627893,11.262977,-2.6210523,-2.7204173,-5.5463953,-3.8655114
0.404371976852417,4.122314,10.008067,-2.1760855,-2.2907882,-4.9342966,-3.999942
0.4244687557220459,2.8377492,10.553358,-2.824194,-2.5243597,-4.372951,-4.564768
0.44454383850097656,2.8377492,10.553358,-2.824194,-2.5243597,-4.372951,-4.564768
0.46465444564819336,2.7912595,9.878631,-2.5003808,-2.8272333,-4.396485,-4.0377173
0.48478245735168457,2.2299185,8.653477,-2.0538633,-2.5006278,-4.319373,-3.2953048
0.5049419403076172,1.2202427,9.12339,-2.5615299,-2.795222,-3.8104138,-3.3862574
0.525212287902832,2.1477237,7.5667567,-1.1449518,-2.124064,-4.7274003,-2.4487052
0.5453386306762695,-0.53462756,8.415455,-1.6103436,-2.9584255,-3.6677089,-2.604728
0.5654423236846924,1.1956649,8.460067,4.79671,0.25628942,-6.717775,-2.44814
0.5855183601379395,2.4807627,6.4431815,7.9043484,-0.0046681175,-7.5054793,-1.6836481
0.6061668395996094,1.4747868,8.268625,1.7944217,-4.3119564,-7.250497,6.120941
0.6265287399291992,1.4747868,8.268625,1.7944217,-4.3119564,-7.250497,6.120941
0.646543025970459,1.9516857,11.385079,1.0028865,-4.452545,-8.797791,0.47381753
0.6665644645690918,2.6242034,10.745794,-0.15883636,-4.5554075,-6.814306,-1.0541344
0.6867940425872803,5.3646894,14.116829,-2.5885386,-4.991468,-6.6054697,-2.5367665
0.7068798542022705,7.281967,15.041818,-3.7003908,-4.7192297,-5.8749027,-4.2413187
0.726994514465332,7.2238708,14.62749,-4.013345,-5.1109595,-5.6560044,-4.268631
0.747236967086792,6.829575,14.926844,-4.1220064,-5.6793756,-5.539161,-4.2058353
0.7674837112426758,6.809814,15.472823,-4.0612707,-6.3699684,-5.6052947,-4.0152674
0.7876861095428467,6.809814,15.472823,-4.0612707,-6.3699684,-5.6052947,-4.0152674
0.8078112602233887,6.9904237,16.047276,-3.8984396,-7.0053563,-5.811191,-3.7857208
0.8279266357421875,7.226664,16.789936,-3.7811673,-7.54417,-6.108269,-3.6538193
0.8572921752929688,5.4238477,15.92972,-3.8646915,-5.659803,-6.275195,-3.6973252
0.8771762847900391,4.012433,13.337264,-2.9150326,-4.691822,-5.9615602,-3.3419802
0.897244930267334,2.5504751,10.617952,-1.9218261,-3.458221,-5.303728,-3.240123
0.917250394821167,2.5504751,10.617952,-1.9218261,-3.458221,-5.303728,-3.240123
0.9373579025268555,1.1569242,8.063271,-1.1345187,-2.1795475,-4.4726176,-3.4682195
0.9574191570281982,0.37156877,7.1389585,0.5016837,-1.4529171,-3.2663805,-4.1379557
0.9778702259063721,-2.4433565,8.138542,7.0087757,-1.5548987,-4.028206,-4.545311
0.9976513385772705,2.6477337,13.963613,6.99148,-2.1396255,-7.7917747,0.15598613
1.0177533626556396,-2.3998554,9.185361,10.887387,-1.1658163,-10.249653,-4.3372755
1.0378644466400146,2.507541,14.267795,5.3555107,-2.3757458,-7.172221,-1.0146222
1.0579543113708496,-3.117617,10.347636,9.601167,-0.731665,-8.569596,-7.0046625
1.077974796295166,2.8643613,13.539829,4.359538,-2.3788233,-5.825613,-1.5507779
1.0982906818389893,2.8643613,13.539829,4.359538,-2.3788233,-5.825613,-1.5507779
1.1184279918670654,-0.5460963,9.916503,4.580118,-1.0596331,-6.856545,-6.6255
1.1384997367858887,0.570102,13.698556,5.027317,-2.2839565,-5.7965417,-4.136476
1.1585824489593506,0.9000994,5.2611732,2.9719,0.52815884,-7.212281,-6.576336
1.1787126064300537,-0.06929651,9.982389,0.908867,-1.9585907,-2.6667984,-5.058072
1.198822021484375,5.520946,11.315943,-2.9635644,-3.809573,-5.838869,-3.8445303
1.2189264297485352,7.543328,20.853203,-5.1302624,-4.732917,-9.215196,-5.1994057
1.2391648292541504,10.896638,25.809824,-6.762698,-6.739278,-10.808002,-5.4472876
1.2594797611236572,10.896638,25.809824,-6.762698,-6.739278,-10.808002,-5.4472876
1.2795867919921875,12.520804,28.64021,-8.053353,-9.002788,-11.185247,-4.6471663
1.2996692657470703,13.493382,30.454956,-8.361588,-10.729196,-11.2845955,-3.680566
1.3197650909423828,14.207193,31.59933,-8.206868,-12.084303,-11.390462,-2.9408991
1.3398346900939941,14.631894,32.546432,-7.9832516,-13.012315,-11.600846,-2.8297632
1.3599159717559814,15.124814,31.756477,-6.0874166,-14.024319,-11.538509,-2.2694232
1.3801090717315674,14.49702,32.344097,-5.5838547,-14.148035,-11.588733,-2.8942997
1.4001851081848145,14.668759,31.922058,-5.5044594,-13.581362,-11.534044,-3.483929
1.4203708171844482,14.668759,31.922058,-5.5044594,-13.581362,-11.534044,-3.483929
1.4405953884124756,14.06134,30.9511,-5.3961096,-13.187952,-11.199382,-3.5931232
1.460761308670044,13.419189,30.099773,-5.1843815,-12.856977,-10.837278,-3.6344063
1.4806952476501465,12.863629,29.33802,-4.962859,-12.5420885,-10.532104,-3.687834
1.5007872581481934,12.358722,28.54397,-4.712987,-12.224714,-10.268015,-3.713267
1.5208687782287598,11.852216,27.600368,-4.402933,-11.870554,-10.014597,-3.690778
1.541015386581421,11.292428,26.549652,-4.0750837,-11.457924,-9.741079,-3.6707695
1.561048984527588,10.674007,25.40244,-3.7465136,-11.00037,-9.446321,-3.6480973
1.581186294555664,10.674007,25.40244,-3.7465136,-11.00037,-9.446321,-3.6480973
1.6016416549682617,10.013008,24.17433,-3.4289463,-10.506172,-9.123363,-3.6214843
1.6214065551757812,9.329125,22.904886,-3.1318367,-9.992723,-8.778277,-3.5904267
1.6416125297546387,8.640765,21.624252,-2.8563027,-9.474632,-8.420268,-3.5547335
1.6616196632385254,7.959884,20.355764,-2.6022823,-8.9622755,-8.057918,-3.5169942
1.6817550659179688,7.293759,19.115515,-2.3693135,-8.462866,-7.6977086,-3.4798093
1.7018051147460938,6.645646,17.912981,-2.15709,-7.9798975,-7.341568,-3.4426565
1.7224676609039307,6.645646,17.912981,-2.15709,-7.9798975,-7.341568,-3.4426565
1.742408037185669,6.019225,16.751633,-1.9607298,-7.513628,-6.9928956,-3.4026773
1.762474775314331,5.4142036,15.629118,-1.7750957,-7.062016,-6.6555047,-3.3595312
1.7825872898101807,4.82515,14.537626,-1.5944498,-6.621784,-6.3312716,-3.3098896
1.8026411533355713,4.2402806,13.479806,-1.4172053,-6.187347,-6.0247574,-3.255288
1.8227779865264893,3.6323519,12.483897,-1.258219,-5.750249,-5.7426744,-3.2128863
1.8428027629852295,3.0100455,11.5367985,-1.0982213,-5.3208284,-5.4693723,-3.1572316
1.863840103149414,2.2495377,10.447533,-0.89604074,-4.8883533,-5.2093897,-2.8606634
1.8839752674102783,2.2495377,10.447533,-0.89604074,-4.8883533,-5.2093897,-2.8606634
1.9040443897247314,1.3449447,9.186407,-0.49307328,-4.4808273,-4.9131823,-2.1998963
1.9241466522216797,0.996583,7.0578327,1.210843,-4.0917206,-4.86115,-0.7694865
1.9442052841186523,1.155963,4.5876265,4.492527,-0.6554103,-6.7105393,0.555381
1.96431303024292,1.8578429,9.134077,3.9803197,-6.3592777,-6.69708,7.875142
1.9843785762786865,-1.8439474,9.073966,6.244973,-3.6721928,-8.207844,2.062483
2.0046348571777344,-1.9157488,12.575932,9.505282,-1.9327664,-11.123282,3.297304
2.024589776992798,-4.3464813,11.686157,12.733088,-2.0824685,-11.158155,-2.3362048
2.044804334640503,-4.3464813,11.686157,12.733088,-2.0824685,-11.158155,-2.3362048
2.0649008750915527,1.3256284,15.297201,5.791665,-0.43229795,-8.294542,-0.94157153
2.0849967002868652,-0.5727556,8.710653,8.648879,-1.5296727,-8.052443,-2.6137757
2.1050961017608643,3.2050679,13.39245,-0.74485314,-3.2055066,-5.1984615,-1.386013
2.1251726150512695,11.111859,18.728973,-3.8988712,-5.0801115,-8.673479,-5.2386756
2.1452555656433105,11.679414,19.369009,-4.5701733,-4.7579794,-8.2439,-5.2607884
2.165362596511841,10.81602,19.089272,-4.752425,-5.1240025,-7.6722817,-5.14728
2.18567156791687,10.23006,18.849928,-5.002945,-5.5936985,-7.121176,-4.9135003
2.2056374549865723,10.23006,18.849928,-5.002945,-5.5936985,-7.121176,-4.9135003
2.225759983062744,9.862699,18.708553,-5.3002825,-6.2563615,-6.8006654,-4.690441
2.2458200454711914,9.506713,18.871874,-5.410038,-6.9418416,-6.64146,-4.41145
2.265886068344116,9.262582,19.099283,-5.2043953,-7.5531435,-6.6285777,-4.088704
2.286165475845337,9.099647,19.216904,-4.843034,-8.006147,-6.6959395,-3.8405774
2.3062565326690674,8.852839,19.371368,-4.482009,-8.232877,-6.8398304,-3.760608
2.326350212097168,8.585372,19.53959,-4.2356844,-8.370675,-6.9795604,-3.7440784
2.3464179039001465,8.379589,19.694672,-4.039839,-8.485573,-7.094505,-3.7346158
2.366511583328247,8.222514,19.744776,-3.829159,-8.567726,-7.1891036,-3.674853
2.387446880340576,8.222514,19.744776,-3.829159,-8.567726,-7.1891036,-3.674853
2.4075615406036377,8.027863,19.551365,-3.5433607,-8.568826,-7.257391,-3.5810559
2.4276282787323,7.7276216,19.168682,-3.2406838,-8.451658,-7.259051,-3.5344284
2.447831869125366,7.348879,18.625294,-2.9539225,-8.246515,-7.1919756,-3.5068145
2.467843532562256,6.9201045,17.961262,-2.6912606,-7.983528,-7.0673056,-3.4805508
2.48797869682312,6.4582176,17.210629,-2.4502316,-7.6819935,-6.8995776,-3.450785
2.5080246925354004,5.9748974,16.401112,-2.227797,-7.354414,-6.7009673,-3.4183168
2.528083086013794,5.477026,15.552059,-2.0214899,-7.008686,-6.4819427,-3.384843
2.5481820106506348,5.477026,15.552059,-2.0214899,-7.008686,-6.4819427,-3.384843
2.5682895183563232,4.96903,14.673923,-1.8260236,-6.649867,-6.2501454,-3.347405
2.588409185409546,4.451413,13.772398,-1.6340628,-6.2798185,-6.01123,-3.300707
2.608509063720703,3.9135616,12.870468,-1.4563515,-5.8967266,-5.776856,-3.2604287
2.628556728363037,3.3533971,11.988891,-1.2919921,-5.5079126,-5.5444584,-3.2182808
2.648658514022827,2.7720592,11.130693,-1.1242187,-5.1182065,-5.3065143,-3.1541796
2.668743133544922,2.0329444,10.103979,-0.9116415,-4.717033,-5.075681,-2.8411167
2.689243793487549,2.0329444,10.103979,-0.9116415,-4.717033,-5.075681,-2.8411167
2.7093358039855957,1.2371165,8.874242,-0.49133837,-4.3856525,-4.8134923,-2.1971762
2.729438543319702,0.7147258,6.4416614,1.5565913,-3.842883,-4.755401,-0.32548305
2.749544382095337,0.6354995,5.383678,4.55649,-0.82703656,-7.1990705,1.5956225
2.7696168422698975,0.9382329,9.009639,6.1941605,-6.2639813,-7.6763577,5.0773287
2.789879560470581,-0.1443645,7.9235897,7.802951,-0.6564131,-10.108976,0.4001339
2.809793472290039,1.7618623,9.312822,3.2384784,-4.257097,-6.9249597,4.4510517
2.82987380027771,-0.15189293,9.568329,3.7288578,-4.6093497,-8.077812,0.9007354
2.8499155044555664,-2.6749651,7.0770297,6.302244,-1.6119819,-6.874768,-0.8485828
2.8701577186584473,-2.6749651,7.0770297,6.302244,-1.6119819,-6.874768,-0.8485828
2.890169143676758,1.6577514,14.536933,3.3962743,-2.3648698,-7.3247714,-0.07760242
2.9103055000305176,0.9303135,7.7403555,4.0691032,-2.6120434,-6.566261,-2.206401
2.930361747741699,4.1418357,11.45725,-2.067718,-2.6762166,-3.938204,-3.1504076
2.9504282474517822,9.311912,15.596572,-3.6881802,-3.8594418,-7.0813537,-3.8499565
2.970524549484253,9.643153,17.264399,-4.268715,-4.0156975,-7.3012595,-4.641137
2.9905972480773926,9.360446,18.222271,-4.894535,-4.599456,-7.144922,-5.0837607
3.0106494426727295,9.378968,18.88452,-5.3933077,-5.4594617,-7.0134273,-5.006786
3.0310652256011963,9.378968,18.88452,-5.3933077,-5.4594617,-7.0134273,-5.006786
3.0512545108795166,9.405404,19.622055,-5.831609,-6.534886,-6.9998164,-4.820842
3.071276903152466,9.442797,20.459816,-5.782075,-7.5629034,-7.0895586,-4.459427
3.0913429260253906,9.607049,21.15661,-5.484376,-8.387585,-7.28082,-4.146331
3.111431121826172,9.737879,21.59721,-5.052396,-8.928531,-7.5300436,-3.92474
3.131509304046631,9.678411,21.96258,-4.7420263,-9.202396,-7.7527876,-3.877783
3.1515724658966064,9.571818,22.182276,-4.5078382,-9.386549,-7.9100084,-3.8648713
3.1716511249542236,9.571818,22.182276,-4.5078382,-9.386549,-7.9100084,-3.8648713
3.1917564868927,9.4496565,22.256126,-4.289899,-9.498503,-8.006526,-3.8263018
3.2118380069732666,9.272491,22.086716,-4.0160446,-9.512054,-8.058262,-3.7402284
3.231926441192627,8.989219,21.68995,-3.7031124,-9.408787,-8.05024,-3.6759207
3.252006769180298,8.609384,21.105415,-3.3926194,-9.201268,-7.9687734,-3.6366313
3.2720847129821777,8.160939,20.373638,-3.1004004,-8.920517,-7.8265424,-3.6002839
3.292173147201538,7.6675916,19.5363,-2.829309,-8.592276,-7.6357594,-3.56207
3.312268018722534,7.6675916,19.5363,-2.829309,-8.592276,-7.6357594,-3.56207
3.3324332237243652,7.1467824,18.630556,-2.579287,-8.234726,-7.408591,-3.5216167
3.352458953857422,6.611135,17.685356,-2.349481,-7.860491,-7.1558948,-3.4795425
3.3725507259368896,6.0702825,16.721092,-2.136236,-7.4765005,-6.8891788,-3.4366176
3.3926210403442383,5.527974,15.748968,-1.937105,-7.0867934,-6.6159368,-3.3941746
3.412708282470703,4.986222,14.771841,-1.746247,-6.6937294,-6.3402534,-3.3478148
3.4327900409698486,4.4411535,13.794792,-1.5585105,-6.296236,-6.066593,-3.2943366
3.4529051780700684,3.8758504,12.842234,-1.3871791,-5.889524,-5.8068957,-3.251948
3.47354793548584,3.8758504,12.842234,-1.3871791,-5.889524,-5.8068957,-3.251948
3.493651866912842,3.2898512,11.924946,-1.2242723,-5.48176,-5.55426,-3.202144
3.5137453079223633,2.689398,11.041838,-1.0635221,-5.0774517,-5.3023677,-3.1416907
3.533872365951538,1.8671844,9.8968315,-0.82585925,-4.655616,-5.0553317,-2.7060452
3.5538909435272217,1.21217,8.527512,-0.24512482,-4.436096,-4.8048587,-1.9361081
3.5740394592285156,0.8551192,5.6394997,2.3785183,-3.4086025,-4.816854,0.14785987
3.5944364070892334,0.68187594,6.977474,4.949395,-1.5765774,-8.177332,3.1045876
3.614291191101074,-1.759783,8.984355,9.303245,-4.1586723,-8.8278265,2.5499547
3.6343307495117188,-3.6725485,11.06464,11.894647,-1.6849644,-12.012148,1.9012017
3.654433250427246,-3.6725485,11.06464,11.894647,-1.6849644,-12.012148,1.9012017
3.674543619155884,-0.7320316,14.027269,8.255255,-1.7747303,-9.797245,1.2463145
3.694610595703125,-2.302715,8.580416,9.710932,-2.0527973,-8.354896,-3.0115066
3.7146973609924316,3.7703738,14.097597,2.1139495,-2.2325056,-5.535702,-1.0372901
3.735065221786499,6.688993,13.866783,-1.9070485,-4.867702,-5.2420764,-5.068077
3.7549524307250977,9.714196,17.270779,-3.893883,-4.0977716,-8.167316,-4.891687
3.7751097679138184,9.921132,19.282497,-4.493516,-4.5638447,-8.185902,-5.019051
3.7952938079833984,9.921132,19.282497,-4.493516,-4.5638447,-8.185902,-5.019051
3.815476417541504,10.151423,20.384785,-5.1449356,-5.5315866,-8.0166,-4.9146304
3.835517644882202,10.408945,21.098831,-5.7285795,-6.671834,-7.764175,-4.5338135
3.8556082248687744,10.527699,21.769547,-5.890586,-7.7837763,-7.6671658,-4.063105
3.875694751739502,10.672038,22.231297,-5.700966,-8.780945,-7.659986,-3.5801966
3.8959336280822754,10.672038,22.231297,-5.700966,-8.780945,-7.659986,-3.5801966
3.916018009185791,10.672038,22.231297,-5.700966,-8.780945,-7.659986,-3.5801966
3.9361069202423096,10.7819805,22.626009,-5.353691,-9.4866295,-7.7942333,-3.3399808
3.9561662673950195,10.734949,23.022226,-5.0479774,-9.838903,-8.009188,-3.392277
3.976295232772827,10.584371,23.310879,-4.8052664,-10.032566,-8.203108,-3.5036166
3.9965620040893555,10.376515,23.475086,-4.5969315,-10.132927,-8.351647,-3.6101058
4.016571283340454,10.159644,23.488976,-4.3852053,-10.15301,-8.432531,-3.6510317
4.0366246700286865,9.9158125,23.238834,-4.114662,-10.086972,-8.450495,-3.6198227
4.05670952796936,9.589072,22.785683,-3.8177092,-9.928356,-8.403006,-3.605377
4.077550172805786,9.589072,22.785683,-3.8177092,-9.928356,-8.403006,-3.605377
4.097940683364868,9.177111,22.156548,-3.5151474,-9.686276,-8.301514,-3.5900147
4.117870330810547,8.701419,21.379128,-3.2228577,-9.374596,-8.143531,-3.5694463
4.138097524642944,8.181825,20.495552,-2.9489415,-9.017194,-7.9384007,-3.544257
4.158283710479736,7.6361775,19.543344,-2.6943781,-8.632721,-7.698252,-3.514531
4.178357839584351,7.077521,18.553535,-2.4595082,-8.234442,-7.4337,-3.4819226
4.198459625244141,6.5149965,17.548807,-2.2436762,-7.8305893,-7.1532426,-3.4468217
4.218540906906128,5.9554977,16.543444,-2.0430427,-7.425023,-6.866679,-3.409934
4.238935947418213,5.401387,15.542972,-1.8540876,-7.0201244,-6.5789943,-3.371127
4.259820461273193,5.401387,15.542972,-1.8540876,-7.0201244,-6.5789943,-3.371127
4.279900312423706,4.851827,14.546755,-1.6711192,-6.6161675,-6.2938027,-3.3264186
4.300200700759888,4.29966,13.55842,-1.4906867,-6.210475,-6.0163283,-3.2749875
4.320271253585815,3.723331,12.6072445,-1.3281765,-5.796893,-5.7557983,-3.2357175
4.340266942977905,3.128238,11.69227,-1.1660223,-5.385864,-5.4982095,-3.1803792
4.3603456020355225,2.4843645,10.757564,-0.9972658,-4.9797525,-5.2506347,-3.0463898
4.380439043045044,1.6092963,9.533104,-0.7250032,-4.525999,-4.9894347,-2.5607777
4.400529146194458,1.2763016,8.140712,0.042764604,-4.4178925,-4.895306,-1.8609235
4.420647621154785,1.2763016,8.140712,0.042764604,-4.4178925,-4.895306,-1.8609235
4.440741539001465,1.5288522,4.5034313,3.7996457,-2.4766366,-5.53624,0.13311034
4.460834741592407,1.4159935,7.8397264,4.8654213,-2.5527534,-8.498653,4.3984795
4.480907678604126,-2.829547,9.536051,9.756003,-3.029656,-9.778212,0.8421299
4.500962018966675,-3.2680964,10.809494,11.151446,-1.2666289,-11.262732,2.752846
4.521060228347778,-1.2761254,12.601502,9.164852,-2.680337,-9.711118,1.8919342
4.5414628982543945,-3.6091063,9.559499,10.363924,-1.3033146,-8.901558,-3.3808281
4.561933755874634,4.0842123,16.315195,2.8547099,-1.7702427,-5.5889897,-2.4672954
4.582197189331055,4.0842123,16.315195,2.8547099,-1.7702427,-5.5889897,-2.4672954
4.602115869522095,6.401184,11.621901,0.973315,-3.4512525,-5.9980288,-5.6843677
4.622513055801392,7.5242133,13.41916,-2.7465506,-3.006853,-6.778647,-5.680844
4.6423797607421875,8.438058,18.2763,-4.3604736,-3.8827226,-7.987125,-5.1801424
4.6624674797058105,9.741572,21.03841,-5.2354555,-5.239212,-8.4979,-5.33698
4.682608604431152,10.709517,22.691236,-6.118348,-6.761916,-8.510208,-4.8603835
4.702682018280029,11.31243,23.866516,-6.351471,-8.234949,-8.499469,-4.091357
4.722779989242554,11.73168,24.715862,-6.2276945,-9.49467,-8.518444,-3.4559968
4.742821455001831,11.73168,24.715862,-6.2276945,-9.49467,-8.518444,-3.4559968
4.771721363067627,11.73168,24.715862,-6.2276945,-9.49467,-8.518444,-3.4559968
4.79888129234314,11.73168,24.715862,-6.2276945,-9.49467,-8.518444,-3.4559968
4.818992376327515,12.086642,25.323391,-5.9066544,-10.501526,-8.669676,-3.1152432
4.839115619659424,12.213222,25.888855,-5.599142,-11.017538,-8.935085,-3.1879265
4.859166622161865,12.213222,25.888855,-5.599142,-11.017538,-8.935085,-3.1879265
4.879321575164795,12.111751,26.251932,-5.325485,-11.253297,-9.1807575,-3.4056113
4.899544715881348,11.879936,26.393707,-5.089262,-11.334264,-9.337482,-3.5701492
4.9195733070373535,11.608116,26.364555,-4.8666563,-11.31438,-9.395706,-3.6713798
4.939589977264404,11.33755,26.173279,-4.6463614,-11.237083,-9.373077,-3.7174785
4.959721803665161,11.040435,25.736423,-4.3731537,-11.092299,-9.302394,-3.6994956
4.9797751903533936,10.662477,25.098106,-4.0695486,-10.854479,-9.177292,-3.6767366
5.0000386238098145,10.662477,25.098106,-4.0695486,-10.854479,-9.177292,-3.6767366
5.020231246948242,10.192612,24.292107,-3.7575707,-10.540792,-9.008148,-3.6589277
5.040313243865967,9.6547575,23.347668,-3.4522984,-10.163897,-8.790598,-3.6356852
5.0603063106536865,9.072848,22.307835,-3.1637692,-9.74484,-8.531048,-3.6061552
5.080394744873047,8.466887,21.211142,-2.8940814,-9.302059,-8.241739,-3.5716097
5.10046911239624,7.851878,20.088459,-2.6436207,-8.849396,-7.933958,-3.5344656
5.120539903640747,7.2379017,18.962648,-2.4123864,-8.396753,-7.6163774,-3.4968917
5.140616178512573,6.6308765,17.84914,-2.2003329,-7.9499006,-7.293256,-3.4582734
5.160979509353638,6.0359216,16.757,-2.003698,-7.5111003,-6.9713025,-3.4180093
5.18165922164917,6.0359216,16.757,-2.003698,-7.5111003,-6.9713025,-3.4180093
5.2017481327056885,5.454951,15.687916,-1.8177911,-7.08064,-6.654851,-3.3752875
5.222177028656006,4.884442,14.63792,-1.637722,-6.656771,-6.3466563,-3.327556
5.2420384883880615,4.3162656,13.607976,-1.4593052,-6.235792,-6.0509295,-3.2726624
5.2621660232543945,3.7255,12.627354,-1.2986407,-5.8096533,-5.7766614,-3.2306488
5.282387018203735,3.1168177,11.691151,-1.138107,-5.3880486,-5.509312,-3.1748137
5.302433013916016,2.4351265,10.700893,-0.96135986,-4.9710627,-5.2564783,-2.9923284
5.322472810745239,1.5482062,9.455183,-0.67051715,-4.5115695,-4.983395,-2.4932919
5.343369722366333,1.5482062,9.455183,-0.67051715,-4.5115695,-4.983395,-2.4932919
5.363450527191162,1.2457807,7.9819546,0.22485739,-4.378938,-4.9033155,-1.7103851
5.383516073226929,1.5236669,4.206411,4.2405415,-2.139457,-5.74832,0.06678897
5.403641939163208,1.6487418,8.236286,4.5641127,-3.5393841,-8.1704035,5.3449564
5.42368221282959,-3.2312977,9.139092,9.181624,-2.3581896,-9.622656,-0.1715669
5.443761825561523,-0.10043135,13.97559,7.116764,-1.3179533,-10.030783,1.3441677
5.463837385177612,-0.99947166,8.915328,9.483435,-3.3831353,-8.500041,-0.3071826
5.483904600143433,0.6177036,10.780874,4.2979527,-1.7920353,-8.040228,2.6728213
5.5042219161987305,0.6177036,10.780874,4.2979527,-1.7920353,-8.040228,2.6728213
5.524344205856323,-0.8935832,7.5380316,3.710253,-4.2598915,-5.8332815,-0.33527857
5.544424057006836,2.7884552,9.995655,-0.6199875,-2.3913136,-4.5896463,2.012105
5.5648181438446045,8.9847555,21.60509,-3.8528035,-6.2813954,-9.554953,-6.7419524
5.584725856781006,12.760895,20.738495,-4.848092,-4.682904,-9.205079,-5.989058
5.604808568954468,11.301656,18.98956,-4.5675,-4.8081636,-7.851628,-5.0662093
5.624881982803345,9.953505,18.032438,-4.5645084,-4.9070444,-6.9742036,-4.87381
5.6449713706970215,9.136889,17.446981,-4.6670513,-5.222969,-6.4354653,-4.7200923
5.6651997566223145,9.136889,17.446981,-4.6670513,-5.222969,-6.4354653,-4.7200923
5.685256004333496,8.45013,17.18546,-4.9370623,-5.747056,-6.166961,-4.660384
5.705376386642456,8.08221,17.35479,-4.9902906,-6.3488398,-6.078278,-4.5186844
5.72544264793396,7.92687,17.56749,-4.769086,-6.9327507,-6.1174436,-4.2334843
5.745511054992676,7.8301845,17.71952,-4.414401,-7.338574,-6.243955,-4.018941
5.765808820724487,7.642713,17.963886,-4.124503,-7.5558,-6.4113193,-3.9329193
5.785741806030273,7.490086,18.19159,-3.9156415,-7.7300925,-6.5640197,-3.8772357
5.805837631225586,7.362335,18.222754,-3.652966,-7.861456,-6.7053995,-3.768435
5.827515602111816,7.362335,18.222754,-3.652966,-7.861456,-6.7053995,-3.768435
5.847586154937744,7.1781926,18.034975,-3.3453753,-7.887862,-6.7918725,-3.659956
5.867671251296997,6.9028773,17.66438,-3.0378752,-7.7995806,-6.802745,-3.5790942
5.887765645980835,6.546351,17.147226,-2.7496603,-7.6183214,-6.7459826,-3.5247993
5.907876968383789,6.1362414,16.51681,-2.4868636,-7.3739843,-6.6321626,-3.4827583
5.927969455718994,5.691935,15.801825,-2.2482922,-7.088814,-6.475651,-3.4423597
5.948040246963501,5.2230678,15.024517,-2.0281756,-6.774976,-6.2896056,-3.4003425
5.968147277832031,4.734976,14.199158,-1.8181863,-6.4389386,-6.0838857,-3.3522727
5.988329172134399,4.228337,13.342415,-1.619594,-6.0844746,-5.868452,-3.30397
6.008733034133911,4.228337,13.342415,-1.619594,-6.0844746,-5.868452,-3.30397
6.02868390083313,3.6969879,12.486176,-1.4439731,-5.7149267,-5.654243,-3.265853
6.049049139022827,3.1440585,11.64253,-1.2757263,-5.34091,-5.432713,-3.2155166
6.069029808044434,2.570392,10.820074,-1.1068995,-4.9640703,-5.204431,-3.145543
6.089028358459473,1.8118956,9.78465,-0.88125944,-4.570486,-4.980601,-2.78546
6.109112739562988,1.2962794,8.537706,-0.4007997,-4.386381,-4.813227,-2.2010596
6.129180431365967,0.9222728,5.4657,2.1073937,-3.3552194,-4.730004,-0.07887107
6.1503942012786865,0.9222728,5.4657,2.1073937,-3.3552194,-4.730004,-0.07887107
6.170496463775635,0.75909185,6.0902305,4.616584,-1.1481876,-7.7002683,2.4277384
6.1905677318573,-0.30856827,8.922771,7.9539413,-5.3045444,-8.190398,3.6831195
6.210652828216553,-3.3706276,9.906868,10.870466,-1.4309896,-11.3538065,0.18427092
6.230729579925537,0.2852939,13.55168,6.65594,-1.837346,-8.945868,1.2762418
6.250813961029053,0.09804317,7.6920366,8.205403,-2.2543612,-8.0930805,-1.0415573
6.270906209945679,1.8954493,10.558129,0.49869835,-2.8716164,-5.7995095,1.5252454
6.2909839153289795,8.26871,16.790808,-2.7627056,-5.1093473,-8.130952,-6.5717716
6.3110671043396,8.26871,16.790808,-2.7627056,-5.1093473,-8.130952,-6.5717716
6.331239223480225,10.347676,17.000298,-3.813333,-3.6861312,-7.719294,-5.4243693
6.351641654968262,9.145237,16.522884,-3.959654,-3.8666954,-6.861592,-5.313097
6.371492147445679,8.344883,16.267353,-4.169857,-4.1889544,-6.324329,-5.2403316
6.391581296920776,7.9514184,16.144415,-4.398266,-4.680915,-5.985602,-5.011511
6.411983489990234,7.554612,16.15132,-4.736491,-5.268608,-5.809415,-4.8536177
6.431951999664307,7.349211,16.44923,-4.834448,-5.9081984,-5.774963,-4.6403046
6.452322244644165,7.354529,16.74979,-4.6425247,-6.5687017,-5.841497,-4.2780533
6.472378253936768,7.354529,16.74979,-4.6425247,-6.5687017,-5.841497,-4.2780533
6.492504596710205,7.3394003,17.001898,-4.3130846,-7.02328,-5.994828,-4.005183
6.512596368789673,7.210125,17.32198,-4.0364504,-7.2792325,-6.187061,-3.8906362
6.532661199569702,7.1166396,17.621813,-3.8321269,-7.48507,-6.360087,-3.8227377
6.553059101104736,7.0335107,17.712791,-3.5764382,-7.64013,-6.5208125,-3.715689
6.572907209396362,6.8844075,17.56668,-3.274254,-7.6845694,-6.6233687,-3.6112783
6.592975378036499,6.635703,17.22976,-2.9713147,-7.61034,-6.647612,-3.5377305
6.613067150115967,6.304249,16.743156,-2.6879532,-7.443178,-6.60207,-3.4894056
6.633219480514526,5.914252,16.14026,-2.4298866,-7.211379,-6.499271,-3.4522161
6.653515577316284,5.914252,16.14026,-2.4298866,-7.211379,-6.499271,-3.4522161
6.6736485958099365,5.4850755,15.448437,-2.1952722,-6.936265,-6.353311,-3.4158409
6.693735122680664,5.0275354,14.688517,-1.9759417,-6.6299405,-6.176088,-3.374138
6.7137980461120605,4.5469055,13.876855,-1.7668741,-6.299019,-5.9780145,-3.3272574
6.734179258346558,4.0434546,13.036184,-1.5733353,-5.948202,-5.7705197,-3.2833016
6.754287004470825,3.513933,12.196968,-1.4014499,-5.5835247,-5.5629797,-3.2468987
6.774385690689087,2.9600253,11.367416,-1.2304716,-5.2132163,-5.344779,-3.1904795
6.794462203979492,2.3852432,10.560556,-1.0645577,-4.8411946,-5.120776,-3.1178524
6.814621686935425,1.5638905,9.432312,-0.8082832,-4.4377117,-4.9012127,-2.6568518
6.834743976593018,1.5638905,9.432312,-0.8082832,-4.4377117,-4.9012127,-2.6568518
6.854807615280151,1.298964,8.106497,-0.1614309,-4.357885,-4.870938,-2.0196
6.874979734420776,1.5781115,4.7721763,3.4829414,-2.4573007,-5.5291185,-0.07324499
6.8963775634765625,1.2580988,7.180401,4.7336693,-2.3797207,-7.7307763,3.565803
6.918938875198364,1.2580988,7.180401,4.7336693,-2.3797207,-7.7307763,3.565803
6.9391090869903564,-2.2475207,8.817391,8.864411,-3.3310776,-9.059853,2.5067875
6.959144353866577,-3.335995,11.367794,11.810962,-1.7329289,-12.02825,2.582389
6.979248046875,-2.0751646,12.397039,9.951425,-1.9492536,-10.03526,1.70068
6.9993369579315186,-4.5266023,10.368069,11.141486,-1.7354075,-9.257086,-3.2652147
7.019450426101685,3.6940203,15.795269,3.2701676,-1.4811233,-6.1013784,-1.8642521
7.039538145065308,4.883149,10.336397,2.5503142,-3.7527719,-5.9933105,-4.2413263
7.059816837310791,4.883149,10.336397,2.5503142,-3.7527719,-5.9933105,-4.2413263
7.080047845840454,5.6853986,8.999417,-0.86885226,-2.2296207,-5.41208,-4.81968
7.100043535232544,6.7440915,16.363821,-4.318927,-3.342801,-7.3876944,-4.8313293
7.12011456489563,9.185044,20.531265,-5.026679,-4.66115,-8.486617,-4.9787397
7.1402270793914795,10.582206,22.855179,-6.1131716,-6.187487,-8.765646,-5.003088
7.160288333892822,11.443021,24.295517,-6.5248528,-7.8815875,-8.870887,-4.286386
7.180373907089233,11.945991,25.306185,-6.45823,-9.216922,-8.868248,-3.568556
7.200429439544678,12.339252,25.974861,-6.209072,-10.392373,-8.931379,-3.084997
7.220928907394409,12.339252,25.974861,-6.209072,-10.392373,-8.931379,-3.084997
7.241029500961304,12.595568,26.549595,-5.8841257,-11.160924,-9.161286,-3.0266683
7.261180877685547,12.58089,27.00785,-5.5838413,-11.500364,-9.420355,-3.2483122
7.2812371253967285,12.384042,27.203835,-5.3221807,-11.633921,-9.601672,-3.4628923
7.301341772079468,12.104757,27.19414,-5.0829306,-11.6322975,-9.674767,-3.6023042
7.321374177932739,11.817124,27.04168,-4.865864,-11.56454,-9.655325,-3.6904671
7.3414647579193115,11.526278,26.73093,-4.639453,-11.448203,-9.584461,-3.7263815
7.361530065536499,11.195644,26.17674,-4.353882,-11.259365,-9.47729,-3.7039554
7.381654739379883,11.195644,26.17674,-4.353882,-11.259365,-9.47729,-3.7039554
7.4017493724823,10.778609,25.435513,-4.0427904,-10.978945,-9.318483,-3.6824033
7.421840190887451,10.272952,24.537197,-3.7271173,-10.628229,-9.117222,-3.663018
7.441923141479492,9.704174,23.51381,-3.420817,-10.220371,-8.8701725,-3.6378224
7.4619786739349365,9.096778,22.410027,-3.1325586,-9.776887,-8.58593,-3.6065543
7.482085466384888,8.470766,21.262623,-2.863727,-9.315333,-8.276651,-3.5702882
7.502512454986572,7.8401866,20.10049,-2.6144602,-8.848302,-7.953108,-3.5318024
7.522379398345947,7.2142,18.944298,-2.384616,-8.38475,-7.6233597,-3.4934037
7.543148994445801,6.5978956,17.807411,-2.1740294,-7.929598,-7.2907853,-3.4542384
7.5632383823394775,6.5978956,17.807411,-2.1740294,-7.929598,-7.2907853,-3.4542384
7.583301544189453,5.99605,16.697054,-1.9784613,-7.484545,-6.96139,-3.4131668
7.603379964828491,5.409729,15.613512,-1.7932336,-7.0492134,-6.6390977,-3.3694994
7.62347936630249,4.834811,14.551468,-1.6128334,-6.6213827,-6.3263035,-3.3197687
7.643565654754639,4.2611327,13.51499,-1.435471,-6.1965103,-6.0278344,-3.2650802
7.6637022495269775,3.6637826,12.532433,-1.2760171,-5.767068,-5.7517395,-3.2227724
7.683754205703735,3.0502775,11.594646,-1.1157255,-5.343402,-5.4827795,-3.1663997
7.703843593597412,2.3309126,10.55838,-0.9266431,-4.9201794,-5.228418,-2.9276297
7.724463701248169,2.3309126,10.55838,-0.9266431,-4.9201794,-5.228418,-2.9276297
7.7445127964019775,1.4381771,9.303606,-0.5819008,-4.4921265,-4.9464173,-2.349073
7.764601469039917,1.1332774,7.5077915,0.6848607,-4.254074,-4.882492,-1.2358422
7.784695148468018,1.8998909,4.024608,4.523591,-1.4138919,-6.24513,0.31773335
7.804792881011963,1.7176332,8.593517,3.8334973,-5.199381,-7.5445724,7.515995
7.824974775314331,-1.8451257,9.618078,7.374405,-3.949744,-9.035679,1.4479036
7.845027208328247,-3.4498107,11.287657,11.713123,-1.894142,-11.855652,2.384178
7.865111827850342,-1.3826069,14.191801,8.696181,-1.5259935,-10.30923,1.1656306
7.886370420455933,-1.3826069,14.191801,8.696181,-1.5259935,-10.30923,1.1656306
7.906246662139893,-3.3975184,9.611168,10.141004,-2.2750964,-8.419893,-3.4676116
7.926339149475098,2.9005678,15.850458,3.8327844,-0.8567411,-7.175242,-1.493118
7.94641900062561,1.7747784,8.1261835,3.9524462,-3.4094875,-5.757363,-3.0239048
7.966489553451538,4.7793274,9.821892,1.3628347,-1.6568184,-5.3105545,-3.9489877
7.986671686172485,4.7822742,9.974051,-1.8805559,-2.8890746,-4.50805,-3.4335601
8.006864547729492,6.7586617,17.278591,-4.4411154,-3.465989,-7.3448024,-5.133523
8.026956558227539,6.7586617,17.278591,-4.4411154,-3.465989,-7.3448024,-5.133523
8.047032117843628,9.22679,20.916288,-5.391549,-5.041362,-8.421614,-5.496231
8.067123889923096,10.618623,22.946035,-6.2698545,-6.6522927,-8.715923,-5.1680026
8.087206602096558,11.4276,24.191484,-6.544669,-8.215858,-8.779207,-4.3467035
8.107292175292969,11.83792,25.104263,-6.416415,-9.487257,-8.803245,-3.6883066
8.12769341468811,12.18366,25.591995,-6.079425,-10.512281,-8.891247,-3.2119844
8.148114204406738,12.18366,25.591995,-6.079425,-10.512281,-8.891247,-3.2119844
8.168492317199707,12.342319,26.036007,-5.7523537,-11.092146,-9.0886,-3.1597135
8.188419818878174,12.238546,26.34756,-5.4471664,-11.317515,-9.280381,-3.316068
8.20866322517395,11.979789,26.434116,-5.178994,-11.374445,-9.39374,-3.4765546
8.2287437915802,11.672965,26.359818,-4.9392614,-11.331255,-9.415533,-3.5976388
8.248830795288086,11.375737,26.186836,-4.727648,-11.2440605,-9.371983,-3.6789167
8.269110441207886,11.084946,25.873903,-4.5065613,-11.120002,-9.296882,-3.704819
8.28937554359436,11.084946,25.873903,-4.5065613,-11.120002,-9.296882,-3.704819
8.309402227401733,10.75771,25.326508,-4.2221565,-10.930169,-9.194478,-3.6733897
8.329480171203613,10.343184,24.60236,-3.9089248,-10.653475,-9.047188,-3.6453981
8.349546909332275,9.842925,23.718193,-3.5944788,-10.304475,-8.854377,-3.6246293
8.36963963508606,9.283442,22.714674,-3.2934866,-9.9021,-8.615522,-3.600582
8.389700412750244,8.688902,21.636158,-3.011765,-9.467665,-8.340609,-3.5712187
8.409821033477783,8.077865,20.517931,-2.7498434,-9.017535,-8.041679,-3.537659
8.429859399795532,7.462981,19.387117,-2.5077112,-8.563307,-7.7286067,-3.5021043
8.450045824050903,7.462981,19.387117,-2.5077112,-8.563307,-7.7286067,-3.5021043
8.470075130462646,6.8521385,18.262749,-2.285425,-8.112468,-7.407523,-3.4650443
8.490187644958496,6.8521385,18.262749,-2.285425,-8.112468,-7.407523,-3.4650443
8.51024866104126,6.250797,17.15677,-2.0811253,-7.669286,-7.084142,-3.4263003
8.530374526977539,5.6634974,16.074017,-1.8891528,-7.234581,-6.7647905,-3.384753
8.550453662872314,5.0878606,15.012762,-1.7059145,-6.8071814,-6.4525337,-3.340324
8.57053542137146,4.519253,13.968957,-1.5235046,-6.384597,-6.1498485,-3.2855165
8.590736389160156,3.936773,12.965507,-1.3551733,-5.959052,-5.8671374,-3.240154
8.61075758934021,3.936773,12.965507,-1.3551733,-5.959052,-5.8671374,-3.240154
8.630851984024048,3.3310153,12.012781,-1.1951301,-5.5336914,-5.5983176,-3.1912072
8.650997877120972,2.7150075,11.101614,-1.0381219,-5.1155243,-5.3347244,-3.134983
8.671143770217896,1.8452288,9.88159,-0.78586566,-4.672788,-5.0753903,-2.6433144
8.691249370574951,1.1859517,8.450505,-0.11869061,-4.4498987,-4.8088036,-1.8044803
8.71134638786316,0.9770315,5.5013885,2.6927009,-3.2863216,-4.894141,0.2594188
8.731389284133911,0.90008044,7.608965,5.1560936,-1.8472861,-8.633705,3.6883957
8.75147795677185,-2.6300013,9.373036,9.887191,-3.5877514,-9.575906,1.1168492
8.771704912185669,-2.6928244,11.218273,10.866804,-1.2140379,-10.9405775,3.391575
8.791804313659668,-2.6928244,11.218273,10.866804,-1.2140379,-10.9405775,3.391575
8.811886310577393,-3.038099,10.868656,11.570864,-2.8689022,-9.664429,1.1964402
8.83196234703064,-1.0987794,13.602477,7.813719,-0.26944935,-9.688346,0.6883789
8.852108240127563,-2.2960217,8.42194,9.143008,-2.592041,-7.1542134,-3.8155937
8.872443675994873,4.590713,14.899858,0.17987049,-1.9217323,-5.0568013,-2.2123973
8.892661333084106,10.259782,19.339664,-3.7832305,-4.9499865,-9.196357,-5.0162544
8.912667274475098,12.403743,20.72302,-4.4038973,-4.9613323,-9.30654,-4.440739
8.932795763015747,11.790426,21.053265,-4.867668,-5.50719,-8.837144,-4.5763574
8.953007936477661,11.310767,21.181248,-5.277961,-6.2565,-8.316818,-4.450949
8.973143577575684,11.310767,21.181248,-5.277961,-6.2565,-8.316818,-4.450949
8.993217468261719,11.194134,21.42757,-5.579462,-7.158249,-7.8744054,-4.0781994
9.013307094573975,10.957633,21.692616,-5.606264,-7.991534,-7.6341977,-3.6963236
9.03344178199768,10.837508,21.768713,-5.384324,-8.753773,-7.540008,-3.3567417
9.053461074829102,10.671182,21.938643,-5.0792313,-9.258663,-7.5995893,-3.2864954
9.073543071746826,10.455615,22.140726,-4.801236,-9.515052,-7.7400265,-3.3621294
9.093630075454712,10.208537,22.323526,-4.5787287,-9.665536,-7.8821054,-3.459146
9.114984512329102,10.208537,22.323526,-4.5787287,-9.665536,-7.8821054,-3.459146
9.13505244255066,9.953157,22.45955,-4.3906355,-9.750821,-8.010084,-3.5586603
9.155142307281494,9.720826,22.468172,-4.1893597,-9.773043,-8.095406,-3.5912793
9.175216436386108,9.465007,22.217667,-3.9182343,-9.707035,-8.126812,-3.5561984
9.19532322883606,9.121791,21.779476,-3.623827,-9.546814,-8.094319,-3.547047
9.215394973754883,8.70555,21.170696,-3.3310127,-9.305728,-8.000626,-3.5368197
9.235630512237549,8.23355,20.422894,-3.0518723,-9.001333,-7.8507733,-3.5209687
9.25558614730835,7.724082,19.576405,-2.7914255,-8.656122,-7.6552386,-3.499887
9.277206182479858,7.724082,19.576405,-2.7914255,-8.656122,-7.6552386,-3.499887
9.297333240509033,7.1925564,18.666813,-2.5505579,-8.287295,-7.425673,-3.474184
9.317357301712036,6.650331,17.722837,-2.3291528,-7.9061165,-7.172238,-3.444907
9.337465763092041,6.106088,16.76428,-2.123917,-7.517875,-6.905982,-3.4127102
9.357532501220703,5.5632877,15.801235,-1.932104,-7.126149,-6.634045,-3.3787959
9.377753496170044,5.022931,14.836571,-1.7494857,-6.73289,-6.360926,-3.3413837
9.397715330123901,4.4826183,13.869115,-1.5677868,-6.337542,-6.090418,-3.2928393
9.41779088973999,3.9243388,12.921125,-1.3987256,-5.9341383,-5.833059,-3.2516475
9.437994003295898,3.9243388,12.921125,-1.3987256,-5.9341383,-5.833059,-3.2516475
9.458219528198242,3.3434844,12.00775,-1.2380142,-5.5283346,-5.5816774,-3.2050464
9.483969926834106,2.7463322,11.125975,-1.076755,-5.1247597,-5.3301454,-3.145036
9.524968147277832,2.7463322,11.125975,-1.076755,-5.1247597,-5.3301454,-3.145036
9.545061826705933,1.9284897,9.986364,-0.8412564,-4.7023244,-5.0822206,-2.7167141
9.56538200378418,1.2044077,8.645661,-0.28688723,-4.45072,-4.794675,-1.9504921
9.585603713989258,0.65026456,5.844486,2.2612646,-3.4980698,-4.783918,0.12138569
9.60570240020752,0.65026456,5.844486,2.2612646,-3.4980698,-4.783918,0.12138569
9.625898122787476,0.50223875,7.0230384,5.045557,-1.5818098,-8.086035,3.0319822
9.645894050598145,-1.8549082,8.982496,9.3243885,-4.049276,-8.912918,2.3417869
9.665967464447021,-3.0683558,11.211905,11.209786,-1.6883414,-11.347271,2.8661659
9.686136722564697,-2.3885515,11.093069,10.983556,-2.4709914,-10.188565,2.3210704
9.706175327301025,-3.662443,9.421227,10.167203,-1.5328932,-9.173225,0.18857163
9.726258516311646,2.2183003,12.0721855,4.063735,-2.6785765,-6.2020593,1.0995865
9.74636721611023,3.5802565,5.793771,4.165885,-1.4997151,-8.5485,-2.0485861
9.766458749771118,3.5802565,5.793771,4.165885,-1.4997151,-8.5485,-2.0485861
9.78655219078064,5.690273,11.061886,2.551534,-2.0874174,-5.1720276,-3.899474
9.806689500808716,6.2645435,8.869642,0.42163563,-2.4241474,-5.677756,-4.994357
9.826740503311157,6.8216043,11.367634,-2.6397853,-2.6986837,-5.770204,-3.7863998
9.846861362457275,7.109365,16.430983,-4.3050423,-3.273962,-6.893313,-4.9748983
9.866930961608887,8.558594,18.913212,-4.956744,-4.3753614,-7.552154,-5.320832
9.887342929840088,9.462762,20.345867,-5.6490297,-5.6650662,-7.6332703,-5.0781975
9.907522678375244,9.9639015,21.201263,-6.0586185,-7.0073586,-7.682356,-4.5981836
9.927581310272217,9.9639015,21.201263,-6.0586185,-7.0073586,-7.682356,-4.5981836
9.947728872299194,10.205455,21.96483,-5.9878845,-8.112753,-7.706412,-4.0612593
9.967779397964478,10.441288,22.369305,-5.6718388,-9.018884,-7.771201,-3.573322
9.987883806228638,10.555207,22.74538,-5.2828627,-9.595264,-7.9677043,-3.3829153
10.007941961288452,10.468856,23.093363,-4.988435,-9.851867,-8.1607065,-3.436752
10.028059005737305,10.307719,23.279198,-4.7430105,-9.986067,-8.298204,-3.5149214
10.048148155212402,10.11131,23.337234,-4.522463,-10.039835,-8.373074,-3.5852053
10.068221092224121,9.8986635,23.279158,-4.309017,-10.025984,-8.393711,-3.6215866
10.088388204574585,9.8986635,23.279158,-4.309017,-10.025984,-8.393711,-3.6215866
10.108501195907593,9.661485,22.98996,-4.043522,-9.946486,-8.377976,-3.6015556
10.128592014312744,9.337545,22.49367,-3.7394927,-9.776333,-8.318781,-3.5791602
10.14867115020752,8.924415,21.8187,-3.4319828,-9.518597,-8.20372,-3.5626507
10.168765783309937,8.445844,21.003923,-3.1393533,-9.196588,-8.033632,-3.543162
10.188854455947876,7.9248924,20.09235,-2.866269,-8.833464,-7.8188715,-3.5180802
10.20896863937378,7.3793783,19.121557,-2.613631,-8.4465065,-7.5715656,-3.4886386
10.229020357131958,6.821715,18.120539,-2.381646,-8.047468,-7.3014865,-3.4558525
10.24946141242981,6.821715,18.120539,-2.381646,-8.047468,-7.3014865,-3.4558525
10.26964282989502,6.261575,17.109207,-2.1675317,-7.643399,-7.0188413,-3.4203405
10.289661169052124,5.7041903,16.098797,-1.9676173,-7.237838,-6.731455,-3.3828814
10.30981707572937,5.150978,15.092441,-1.7778965,-6.832569,-6.4435425,-3.342352
10.329831838607788,4.600076,14.089478,-1.5903127,-6.426996,-6.1582885,-3.2912982
10.349903583526611,4.035465,13.110151,-1.4147382,-6.015538,-5.885548,-3.2464015
10.370044469833374,3.4464202,12.172476,-1.2541324,-5.599825,-5.627726,-3.2050328
10.390161752700806,2.8422387,11.269406,-1.0919054,-5.1888375,-5.371097,-3.1466691
10.410351753234863,2.0644689,10.1747465,-0.874793,-4.7674675,-5.122599,-2.7964895
10.430585145950317,2.0644689,10.1747465,-0.874793,-4.7674675,-5.122599,-2.7964895
10.450908422470093,1.2031312,8.927855,-0.41534805,-4.411175,-4.8363566,-2.079507
10.470760822296143,0.7444919,6.4282007,1.8109009,-3.8076057,-4.8359942,-0.2482118
10.490830421447754,0.5457008,5.8194847,4.6451406,-1.0935994,-7.3881173,1.9647012
10.510953903198242,0.39897546,8.824312,6.724391,-5.8327804,-7.9244003,4.6436157
10.531014680862427,-1.3262031,8.3640375,8.781756,-0.9532788,-10.30656,0.6410791
10.551122665405273,1.3225114,11.227285,4.719021,-3.4019809,-7.6185884,2.686068
10.5711989402771,-1.175449,7.522688,6.5473375,-1.9688176,-7.6639576,-0.24973363
10.591561555862427,-1.175449,7.522688,6.5473375,-1.9688176,-7.6639576,-0.24973363
10.611689805984497,1.7971785,10.967558,2.60994,-2.7648544,-6.650904,1.5466397
10.63175368309021,2.4411175,9.807953,-0.70068157,-4.4699497,-4.6365976,-2.460417
10.652045249938965,8.134093,12.592901,-2.8140938,-3.4898329,-6.325326,-3.900893
10.67201018333435,8.1817465,13.666457,-3.0617468,-3.1580222,-6.158399,-4.0960875
10.692403316497803,7.335729,14.18199,-3.3824885,-3.3011103,-5.926026,-4.6579523
10.712271451950073,6.939797,14.670141,-3.8403175,-3.8028958,-5.707703,-4.901613
10.732319593429565,6.7866945,15.091311,-4.235161,-4.4194646,-5.589927,-4.8863535
10.752805233001709,6.7866945,15.091311,-4.235161,-4.4194646,-5.589927,-4.8863535
10.772904396057129,6.6787515,15.556723,-4.7229757,-5.2162004,-5.613137,-4.7996354
10.793077230453491,6.841377,16.292776,-4.7805653,-6.090686,-5.752472,-4.52077
10.813099384307861,7.083111,16.821571,-4.5127935,-6.804453,-5.9304676,-4.1144757
10.833184480667114,7.1509376,17.320456,-4.189316,-7.2164125,-6.175524,-3.9269211
10.853306531906128,7.153742,17.772743,-3.9656928,-7.482047,-6.401415,-3.8486495
10.873347759246826,7.147573,18.023083,-3.7342694,-7.694913,-6.591681,-3.7570324
10.893640756607056,7.070308,17.976076,-3.4347599,-7.8004146,-6.7303624,-3.6438508
10.913628339767456,7.070308,17.976076,-3.4347599,-7.8004146,-6.7303624,-3.6438508
10.933699131011963,6.8757234,17.706348,-3.123431,-7.7718563,-6.7821393,-3.5632932
10.953833818435669,6.5778785,17.261917,-2.8286982,-7.6346827,-6.756059,-3.510398
10.974130392074585,6.2072244,16.683662,-2.558993,-7.42138,-6.664659,-3.471215
10.994017601013184,5.790181,16.004963,-2.3139946,-7.15771,-6.5234485,-3.433494
11.01411747932434,5.340074,15.251904,-2.0888727,-6.858779,-6.347332,-3.3944867
11.034210205078125,4.8656096,14.441736,-1.8749268,-6.533447,-6.1467357,-3.348885
11.05428671836853,4.368921,13.594669,-1.6720804,-6.1863017,-5.9315867,-3.301952
11.074368238449097,3.8485262,12.736554,-1.4892678,-5.821946,-5.7156396,-3.2626798
11.094751119613647,3.8485262,12.736554,-1.4892678,-5.821946,-5.7156396,-3.2626798
11.114879369735718,3.3046107,11.889365,-1.3213446,-5.449543,-5.49756,-3.221071
11.135280847549438,2.7372322,11.058569,-1.1504173,-5.07298,-5.2708626,-3.1563725
11.155179023742676,2.0652454,10.130508,-0.9566345,-4.6892776,-5.0502114,-2.9374535
11.175241947174072,1.2614905,8.952742,-0.6224709,-4.3143167,-4.8125787,-2.4106977
11.195353269577026,0.97513515,6.996443,0.9122321,-3.9776015,-4.8061347,-1.1436179
11.215477228164673,1.4828138,3.9867263,4.2917643,-0.79184365,-6.1800566,0.45109516
11.235547304153442,1.8227329,8.812965,3.8895338,-6.0474997,-6.8439975,7.7064342
11.255620002746582,-1.9573951,9.086109,6.526804,-3.5597844,-8.303581,1.8472452
11.275695323944092,-1.9573951,9.086109,6.526804,-3.5597844,-8.303581,1.8472452
11.295804977416992,-2.0833707,12.305531,9.958777,-1.920802,-11.143333,3.3882964
11.315895318984985,-4.462084,11.505944,12.86086,-1.888051,-11.2925,-1.7677162
11.33598017692566,1.0434189,14.562639,5.9505625,-0.6367205,-8.191431,-0.43309206
11.356138944625854,-0.48331717,8.639636,8.332332,-1.0646867,-8.373644,-2.8691723
11.376169204711914,3.6822393,13.876867,-0.7566557,-3.365076,-5.5419993,-1.76857
11.39624834060669,11.315995,18.302662,-3.9149585,-4.800062,-8.524805,-4.7899847
11.41638994216919,11.315995,18.302662,-3.9149585,-4.800062,-8.524805,-4.7899847
11.436466455459595,11.48986,18.707754,-4.341567,-4.5963645,-8.062778,-5.0721507
11.456543684005737,11.48986,18.707754,-4.341567,-4.5963645,-8.062778,-5.0721507
11.47664761543274,10.544046,18.386488,-4.547839,-4.889408,-7.468352,-5.086721
11.496981143951416,9.877885,18.12864,-4.7684793,-5.303705,-6.9217405,-4.9188585
11.516906499862671,9.454935,17.967955,-5.0191526,-5.8629026,-6.5730357,-4.7173996
11.537176847457886,9.074105,18.070717,-5.2141724,-6.535475,-6.42473,-4.491993
11.557278633117676,8.821427,18.328089,-5.0694695,-7.1328783,-6.3954372,-4.171201
11.577358484268188,8.672932,18.486961,-4.75535,-7.6278443,-6.460657,-3.90959
11.597427606582642,8.458957,18.685425,-4.4111013,-7.898572,-6.6055465,-3.8010652
11.619146585464478,8.458957,18.685425,-4.4111013,-7.898572,-6.6055465,-3.8010652
11.639246463775635,8.220766,18.8868,-4.158058,-8.065273,-6.757901,-3.758198
11.659330368041992,8.040104,19.084469,-3.965977,-8.205387,-6.8839955,-3.7331097
11.679412364959717,7.9040685,19.182829,-3.760286,-8.310633,-6.994118,-3.6684778
11.699486494064331,7.738447,19.026892,-3.4790711,-8.335997,-7.0769057,-3.5684226
11.719749689102173,7.4647484,18.678703,-3.1797616,-8.241484,-7.091872,-3.5167701
11.739719152450562,7.105663,18.168997,-2.8957856,-8.054396,-7.0378227,-3.4888663
11.759790420532227,6.693363,17.536716,-2.635642,-7.8053703,-6.9252667,-3.4636576
11.779952764511108,6.693363,17.536716,-2.635642,-7.8053703,-6.9252667,-3.4636576
11.800345182418823,6.2453084,16.814238,-2.3975163,-7.515402,-6.7682576,-3.435177
11.820231676101685,5.7731385,16.028786,-2.1778495,-7.197319,-6.5791545,-3.4039183
