liuyurong129/humanoid-gym/humanoid/data/robot1_action_20250621-220904.csv
timestamp,joint_1,joint_2,joint_3,joint_4,joint_5,joint_6
0.00013971328735351562,0.0,0.0,0.0,0.0,0.0,0.0
0.020226716995239258,0.0,0.0,0.0,0.0,0.0,0.0
0.04030299186706543,0.0,0.0,0.0,0.0,0.0,0.0
0.06042170524597168,0.0,0.0,0.0,0.0,0.0,0.0
0.08072090148925781,0.0,0.0,0.0,0.0,0.0,0.0
0.10067462921142578,0.0,0.0,0.0,0.0,0.0,0.0
0.12109565734863281,-1.445524,-0.14851642,-0.13415945,-0.08327578,-0.34466222,0.94909227
0.14099335670471191,-1.2720308,0.24009737,-0.11489037,-0.23681903,-0.76401484,1.9275625
0.1611778736114502,-0.78377664,-0.11344662,-0.24789625,-0.37734637,-0.26423436,1.9218085
0.18116998672485352,-0.8845731,-0.18899806,-0.054290436,0.028828561,-0.32294738,2.2726002
0.20136141777038574,-0.91236055,-0.41200775,0.09725545,0.19707803,-0.2994014,2.4081457
0.22151803970336914,-0.91236055,-0.41200775,0.09725545,0.19707803,-0.2994014,2.4081457
0.24159574508666992,-1.2764323,-0.5913716,0.30887908,0.34898734,-0.45362297,2.18503
0.2616851329803467,-1.8445852,-0.50633293,0.13052653,0.14818896,-0.58388305,2.20037
0.28177332878112793,-1.4345281,-0.69136333,0.18890768,0.37223604,-0.68345493,2.33025
0.3018476963043213,-1.6109155,-0.5673437,0.07644142,0.2644561,-0.6692811,2.3277876
0.3219635486602783,-1.5204067,-0.6272069,0.20627284,0.4132198,-0.5684713,2.2159986
0.342390775680542,-1.9327044,-0.4203092,0.2383684,0.2937655,-0.70455897,1.966264
0.3622269630432129,-1.9327044,-0.4203092,0.2383684,0.2937655,-0.70455897,1.966264
0.38231587409973145,-1.6341586,-0.53313625,0.26391342,0.43325296,-0.8629528,2.115465
0.4024624824523926,-1.9056761,-0.33961076,0.15398037,0.20679475,-0.8392271,1.968571
0.42249321937561035,-1.5383961,-0.4733913,0.19202971,0.33936298,-0.839417,2.1079628
0.44256138801574707,-1.8381722,-0.21849711,0.11133312,0.043758407,-0.75441647,1.8527308
0.46268153190612793,-1.4994197,-0.2918927,0.038784027,0.15394966,-0.717178,1.9980617
0.4828004837036133,-1.3507118,-0.17129183,0.12659515,0.19064006,-0.5354489,1.765538
0.5028877258300781,-1.5266826,-0.10698728,0.14091742,0.085788086,-0.4776357,1.6157184
0.5239143371582031,-1.5087347,-0.05513051,0.048617348,-0.08854537,-0.46869954,1.460341
0.5438699722290039,-1.5087347,-0.05513051,0.048617348,-0.08854537,-0.46869954,1.460341
0.5639669895172119,-1.6749715,0.44088063,-0.110631526,-0.5854907,-0.54920524,1.1889629
0.5840435028076172,-0.8613929,0.123616785,-0.47303885,-0.6104046,0.08848032,1.6518342
0.6041197776794434,-0.4792706,-0.14214334,-0.3674019,-0.4906071,0.35650754,1.6680198
0.6245541572570801,-0.6381563,-0.13436642,-0.1302223,0.010551988,0.37128597,1.9166257
0.6443800926208496,-0.86974806,-0.42453504,0.14122654,0.411142,0.20421387,1.9283478
0.664456844329834,-1.3711685,-0.46557853,0.30613527,0.38952297,0.17567301,1.7346268
0.6845555305480957,-1.3711685,-0.46557853,0.30613527,0.38952297,0.17567301,1.7346268
0.7046351432800293,-1.956077,-0.27878264,0.20638189,0.14307055,0.0021004044,1.6719801
0.7247264385223389,-1.3937985,-0.43492892,0.27225146,0.34638017,-0.44529092,2.0933096
0.7448201179504395,-1.7818863,-0.22806132,0.049816728,-0.0066111917,-0.3261417,1.6820436
0.764904260635376,-1.4170425,-0.30392373,0.19057691,0.38510126,-0.7523699,1.9804838
0.785020112991333,-1.546889,0.028692067,-0.015194416,-0.24583489,-0.45715725,1.6474845
0.8050777912139893,-0.97211325,-0.115488246,-0.23166513,-0.22784546,-0.065974504,1.7149334
0.8254351615905762,-0.97211325,-0.115488246,-0.23166513,-0.22784546,-0.065974504,1.7149334
0.8456392288208008,-0.8238061,-0.24731666,-0.08256982,-0.03193348,0.104651585,1.6323347
0.8657565116882324,-1.1033082,-0.17204314,0.22031319,0.39962912,-0.13644916,1.619226
0.8858168125152588,-1.3621559,-0.10921723,0.19970071,0.15151115,-0.13848427,1.4267411
0.9060571193695068,-1.4307401,0.22592673,0.067731276,-0.3973211,-0.42369956,1.117471
0.9260077476501465,-1.014135,0.583807,-0.6552428,-0.9467891,0.08448896,1.3184209
0.9462759494781494,-0.19658044,0.34849742,-0.56483674,-1.2051729,0.10960114,1.4976468
0.9662187099456787,-0.0116415685,0.25433072,-0.38577172,-1.4284186,-0.10705896,1.928123
0.9864192008972168,-0.0116415685,0.25433072,-0.38577172,-1.4284186,-0.10705896,1.928123
1.0064842700958252,0.32212654,0.3996847,-0.35132882,-1.5059143,-0.34041736,2.1195972
1.0265073776245117,0.5744705,0.63950646,-0.4209836,-1.7226228,-0.5167068,2.1319869
1.04659104347229,0.83012474,0.8923006,-0.50557154,-2.002305,-0.6499779,2.0995228
1.0666823387145996,1.1514506,1.2367184,-0.6059431,-2.2633984,-0.75997245,1.9964013
1.086778163909912,1.5225245,1.7628134,-0.7075776,-2.4744751,-0.8404093,1.7816579
1.1068751811981201,1.9416689,2.4348228,-0.81673515,-2.6875615,-0.8924378,1.4978971
1.1269936561584473,2.389356,3.2068648,-0.94284225,-2.9498935,-0.9193957,1.2164931
1.147160291671753,2.389356,3.2068648,-0.94284225,-2.9498935,-0.9193957,1.2164931
1.1672601699829102,2.8566277,4.065773,-1.0789486,-3.2598162,-0.94295293,0.966003
1.1874630451202393,3.3416889,4.986233,-1.2322053,-3.5818644,-1.0706878,0.74511653
1.2074353694915771,3.8221836,5.9153476,-1.3841509,-3.9131858,-1.2945865,0.5661152
1.2275617122650146,4.2776933,6.819623,-1.5172501,-4.2414155,-1.5618759,0.4230947
1.2475991249084473,4.7991576,7.673689,-1.6181142,-4.508459,-1.7959536,0.19566542
1.2676818370819092,5.173081,8.305574,-1.725126,-4.691319,-2.0418563,0.042224705
1.2878639698028564,5.4306684,8.824135,-1.8070852,-4.884552,-2.230254,-0.0059561133
1.3078992366790771,5.4306684,8.824135,-1.8070852,-4.884552,-2.230254,-0.0059561133
1.3279812335968018,5.6606483,9.29969,-1.8726084,-5.0693817,-2.397941,-0.042185247
1.3480632305145264,5.877891,9.736531,-1.9266497,-5.2510586,-2.5493186,-0.073988855
1.3681621551513672,6.0773015,10.134305,-1.9705892,-5.419735,-2.6887262,-0.10672063
1.3882274627685547,6.2566338,10.492945,-2.007384,-5.5696764,-2.8165917,-0.14011067
1.4083054065704346,6.415858,10.812826,-2.039324,-5.701223,-2.9318879,-0.17167372
1.42840576171875,6.556001,11.096126,-2.0676332,-5.8163586,-3.034555,-0.2002222
1.4485454559326172,6.6788044,11.346256,-2.0930161,-5.917235,-3.1253662,-0.22561044
1.4688987731933594,6.6788044,11.346256,-2.0930161,-5.917235,-3.1253662,-0.22561044
1.4890220165252686,6.786252,11.567026,-2.1159801,-6.005842,-3.2054758,-0.24810213
1.5091133117675781,6.880302,11.762181,-2.1369302,-6.0839543,-3.2761364,-0.2680592
1.5291945934295654,6.962787,11.935205,-2.1561966,-6.1531315,-3.3385637,-0.28582639
1.5492656230926514,7.0353513,12.089244,-2.1740587,-6.214732,-3.3938851,-0.30172557
1.569406270980835,7.09946,12.227086,-2.1907454,-6.269927,-3.4431157,-0.31603044
1.589505672454834,7.156389,12.351175,-2.2064517,-6.3197217,-3.4871538,-0.32898873
1.6095530986785889,7.2072434,12.46362,-2.221337,-6.364973,-3.5267842,-0.34081048
1.6296634674072266,7.2072434,12.46362,-2.221337,-6.364973,-3.5267842,-0.34081048
1.6497952938079834,7.252976,12.566246,-2.2355366,-6.4064074,-3.5626864,-0.35167378
1.669865369796753,7.2943974,12.660607,-2.2491634,-6.444643,-3.595444,-0.36173314
1.6899569034576416,7.332201,12.748033,-2.2623112,-6.4802012,-3.625558,-0.37111992
1.7100281715393066,7.366975,12.829645,-2.2750595,-6.5135193,-3.653455,-0.37994283
1.730142593383789,7.399215,12.9064,-2.2874758,-6.5449677,-3.6794949,-0.38829607
1.7502269744873047,7.429339,12.979101,-2.2996156,-6.574856,-3.703985,-0.3962614
1.7702853679656982,7.4577,13.048428,-2.3115263,-6.6034455,-3.7271829,-0.40389937
1.7904078960418701,7.4845953,13.114948,-2.3232484,-6.6309533,-3.7493052,-0.4112708
1.8112692832946777,7.4845953,13.114948,-2.3232484,-6.6309533,-3.7493052,-0.4112708
1.8313813209533691,7.5102735,13.179141,-2.3348143,-6.6575623,-3.7705364,-0.41841787
1.851461410522461,7.5348363,13.2416935,-2.3462787,-6.6834345,-3.791073,-0.42545074
1.871544599533081,7.537175,13.360093,-2.3625457,-6.7103395,-3.8201458,-0.44607896
1.8916330337524414,7.5662246,13.511724,-2.385054,-6.749613,-3.8627274,-0.46453136
1.9117152690887451,7.613649,13.683571,-2.4099987,-6.8001537,-3.914451,-0.48074788
1.9318594932556152,7.6730986,13.866247,-2.4348772,-6.8578005,-3.9722261,-0.4969768
1.9518733024597168,7.7394276,14.052129,-2.4588103,-6.9187527,-4.0331917,-0.5138261
1.9719648361206055,7.7394276,14.052129,-2.4588103,-6.9187527,-4.0331917,-0.5138261
1.9920549392700195,7.808637,14.23539,-2.4814708,-6.980276,-4.0948887,-0.5310256
2.01216459274292,7.8778405,14.412024,-2.5027401,-7.0405416,-4.1554766,-0.5481743
2.0322210788726807,7.9450827,14.579526,-2.5225945,-7.0983877,-4.213709,-0.56495446
2.052309036254883,8.009121,14.736535,-2.541066,-7.1531286,-4.2688274,-0.58116764
2.0723886489868164,8.069242,14.882492,-2.5582192,-7.2044196,-4.3204303,-0.5966999
2.0924527645111084,8.125104,15.017412,-2.5741432,-7.252145,-4.3683763,-0.6115145
2.1127116680145264,8.125104,15.017412,-2.5741432,-7.252145,-4.3683763,-0.6115145
2.1328203678131104,8.17662,15.141659,-2.5889332,-7.296357,-4.412683,-0.6255836
2.152975082397461,8.223887,15.255864,-2.6026998,-7.337202,-4.4534965,-0.6389367
2.1730129718780518,8.267114,15.360777,-2.6155474,-7.3749027,-4.4910326,-0.6516091
2.193225145339966,8.306578,15.457219,-2.6275754,-7.409711,-4.5255456,-0.66365284
2.2133586406707764,8.342592,15.546026,-2.6388812,-7.4418936,-4.5573106,-0.6751196
2.2334988117218018,8.375485,15.628017,-2.6495512,-7.4717197,-4.5866036,-0.68606824
2.2536189556121826,8.4055805,15.703973,-2.6596684,-7.4994507,-4.6136947,-0.69655055
2.2740354537963867,8.4055805,15.703973,-2.6596684,-7.4994507,-4.6136947,-0.69655055
2.294154644012451,8.43319,15.774618,-2.6693063,-7.5253296,-4.6388373,-0.70662206
2.3142342567443848,8.4586115,15.84062,-2.6785297,-7.5495863,-4.66227,-0.7163312
2.3343453407287598,8.482113,15.902588,-2.6873982,-7.5724287,-4.6842093,-0.7257213
2.3543944358825684,8.503943,15.961063,-2.6959636,-7.5940456,-4.704853,-0.7348358
2.374490976333618,8.524327,16.016537,-2.704271,-7.6146045,-4.724376,-0.7437121
2.394604444503784,8.543464,16.069431,-2.7123594,-7.6342564,-4.742939,-0.7523815
2.4146790504455566,8.561528,16.120127,-2.7202637,-7.653134,-4.760677,-0.7608735
2.4358320236206055,8.561528,16.120127,-2.7202637,-7.653134,-4.760677,-0.7608735
2.455909252166748,8.578681,16.168955,-2.7280166,-7.6713514,-4.7777133,-0.76921624
2.475989580154419,8.578681,16.168955,-2.7280166,-7.6713514,-4.7777133,-0.76921624
2.4962263107299805,8.5950575,16.216208,-2.7356417,-7.689012,-4.7941546,-0.7774307
2.5162203311920166,8.610776,16.26213,-2.7431629,-7.706206,-4.8100967,-0.7855341
2.5363097190856934,8.625944,16.306948,-2.7505996,-7.723009,-4.8256187,-0.7935454
2.5563583374023438,8.640654,16.350845,-2.7579682,-7.739491,-4.840792,-0.8014781
2.5764472484588623,8.65498,16.393986,-2.7652838,-7.7557063,-4.8556767,-0.80934566
2.5966696739196777,8.668993,16.436506,-2.7725585,-7.7717075,-4.8703256,-0.81716126
2.616647243499756,8.682754,16.47853,-2.7798014,-7.7875347,-4.8847833,-0.82493323
2.636960506439209,8.696306,16.520157,-2.7870235,-7.803227,-4.8990884,-0.8326685
2.6570611000061035,8.696306,16.520157,-2.7870235,-7.803227,-4.8990884,-0.8326685
2.677154064178467,8.709695,16.561499,-2.7942297,-7.8188105,-4.913281,-0.8403985
2.6974294185638428,8.722962,16.60258,-2.8014212,-7.8343163,-4.9273796,-0.8480918
2.717369318008423,8.736135,16.64347,-2.8086154,-7.8497667,-4.941403,-0.8557543
2.7374656200408936,8.749238,16.684269,-2.815819,-7.8651805,-4.955377,-0.8634092
2.7575488090515137,8.7623005,16.725,-2.8230276,-7.880581,-4.969325,-0.8710529
2.7776389122009277,8.775342,16.765707,-2.8302457,-7.895975,-4.983261,-0.8786947
2.797797679901123,8.775342,16.765707,-2.8302457,-7.895975,-4.983261,-0.8786947
2.817894458770752,8.788377,16.806423,-2.8374772,-7.9113793,-4.9971967,-0.8863341
2.837958574295044,8.801419,16.84718,-2.8447232,-7.9267983,-5.011145,-0.893974
2.8580422401428223,8.814482,16.887999,-2.851985,-7.9422407,-5.0251107,-0.9016163
2.878140449523926,8.827573,16.928898,-2.859268,-7.957716,-5.039106,-0.9092652
2.8982036113739014,8.840702,16.969898,-2.866568,-7.9732256,-5.053134,-0.9169168
2.918325185775757,8.853875,17.01101,-2.8738916,-7.9887795,-5.067202,-0.92457837
2.9384002685546875,8.8671,17.052242,-2.8812363,-8.004379,-5.0813136,-0.932244
2.9584662914276123,8.88038,17.093615,-2.8886054,-8.02003,-5.095474,-0.9399211
2.978573799133301,8.88038,17.093615,-2.8886054,-8.02003,-5.095474,-0.9399211
2.9986603260040283,8.89372,17.135132,-2.8959978,-8.035734,-5.1096845,-0.9476051
3.018744468688965,8.9071245,17.176802,-2.9034173,-8.0514965,-5.123951,-0.9552981
3.0388121604919434,8.9206,17.218632,-2.9108613,-8.067318,-5.1382737,-0.96300143
3.058905601501465,8.934144,17.260632,-2.9183319,-8.083201,-5.152659,-0.9707152
3.0790135860443115,8.947763,17.302797,-2.9258294,-8.09915,-5.167105,-0.9784371
3.0990664958953857,8.961458,17.345142,-2.933355,-8.115164,-5.1816144,-0.98617
3.119302988052368,8.975232,17.387669,-2.9409077,-8.131246,-5.1961894,-0.9939129
3.139498710632324,8.975232,17.387669,-2.9409077,-8.131246,-5.1961894,-0.9939129
3.1595840454101562,8.989085,17.43038,-2.9484885,-8.147396,-5.210832,-1.001668
3.1797022819519043,9.003022,17.47328,-2.9560988,-8.163618,-5.2255425,-1.0094321
3.1996970176696777,9.017042,17.516373,-2.9637377,-8.179912,-5.240324,-1.0172069
3.219784736633301,9.031148,17.559658,-2.9714072,-8.196279,-5.255176,-1.0249913
3.2398674488067627,9.04534,17.60314,-2.9791033,-8.212719,-5.2701006,-1.0327852
3.2599782943725586,9.059617,17.646822,-2.9868307,-8.229233,-5.285097,-1.0405908
3.2805492877960205,9.059617,17.646822,-2.9868307,-8.229233,-5.285097,-1.0405908
3.3004558086395264,9.073983,17.690706,-2.9945886,-8.245823,-5.300167,-1.0484073
3.320539951324463,9.088441,17.73479,-3.002376,-8.262489,-5.315312,-1.0562284
3.34062123298645,9.102984,17.77908,-3.0101945,-8.279233,-5.3305316,-1.0640614
3.3610191345214844,9.1176195,17.823576,-3.0180438,-8.296053,-5.3458266,-1.0719047
3.380902051925659,9.132345,17.86828,-3.0259225,-8.312951,-5.361199,-1.0797555
3.4010233879089355,9.147162,17.913193,-3.0338333,-8.329928,-5.3766484,-1.0876157
3.4212327003479004,9.147162,17.913193,-3.0338333,-8.329928,-5.3766484,-1.0876157
3.4413394927978516,9.162073,17.958315,-3.0417757,-8.346985,-5.3921757,-1.0954831
3.461622714996338,9.177074,18.003649,-3.0497482,-8.36412,-5.4077806,-1.1033571
3.4815549850463867,9.192169,18.049194,-3.0577528,-8.381332,-5.423463,-1.1112368
3.5016868114471436,9.207355,18.094952,-3.065789,-8.398624,-5.4392242,-1.1191247
3.5217461585998535,9.222632,18.140917,-3.0738559,-8.415995,-5.455064,-1.1270158
3.541898488998413,9.238002,18.187096,-3.081956,-8.433444,-5.470981,-1.1349118
3.562535524368286,9.253465,18.233486,-3.090088,-8.450973,-5.486978,-1.1428115
3.582669734954834,9.253465,18.233486,-3.090088,-8.450973,-5.486978,-1.1428115
3.6027488708496094,9.269018,18.28011,-3.0982494,-8.46858,-5.503055,-1.1507285
3.623180389404297,9.284662,18.326927,-3.1064417,-8.486268,-5.5192137,-1.1586449
3.643009662628174,9.300397,18.373959,-3.1146696,-8.504034,-5.5354495,-1.1665585
3.6633992195129395,9.316225,18.421204,-3.122933,-8.521881,-5.5517645,-1.174473
3.683298349380493,9.332146,18.46867,-3.1312292,-8.539811,-5.56816,-1.18239
3.703383445739746,9.348161,18.516354,-3.139559,-8.557824,-5.5846386,-1.1903086
3.723417043685913,9.348161,18.516354,-3.139559,-8.557824,-5.5846386,-1.1903086
3.743612051010132,9.364268,18.56426,-3.1479232,-8.575918,-5.6012006,-1.1982286
3.7638795375823975,9.38047,18.612387,-3.1563203,-8.594096,-5.6178427,-1.20615
3.783785343170166,9.396769,18.660734,-3.1647527,-8.612357,-5.6345696,-1.2140691
3.8038852214813232,9.413159,18.709307,-3.1732178,-8.630701,-5.6513786,-1.2219892
3.823955774307251,9.429643,18.7581,-3.1817176,-8.649127,-5.6682715,-1.2299092
3.8440515995025635,9.4462185,18.807116,-3.1902516,-8.667637,-5.685249,-1.2378256
3.864380121231079,9.46289,18.856356,-3.1988208,-8.686228,-5.702308,-1.2457392
3.8842968940734863,9.479652,18.905817,-3.207424,-8.704904,-5.7194543,-1.2536528
3.9044113159179688,9.479652,18.905817,-3.207424,-8.704904,-5.7194543,-1.2536528
3.924454689025879,9.496508,18.955502,-3.2160614,-8.723661,-5.7366824,-1.2615588
3.94454288482666,9.513455,19.00541,-3.2247338,-8.742503,-5.7539945,-1.2694604
3.964663505554199,9.530497,19.055538,-3.2334402,-8.761428,-5.7713923,-1.2773602
3.984726905822754,9.547647,19.105892,-3.2421768,-8.780439,-5.788872,-1.2852738
4.004814863204956,9.5649185,19.156471,-3.2509434,-8.799545,-5.806437,-1.2932165
4.024941921234131,9.582313,19.20728,-3.2597377,-8.818746,-5.8240886,-1.3011858
4.045042276382446,9.59983,19.258324,-3.2685606,-8.838039,-5.841827,-1.3091862
4.065104246139526,9.59983,19.258324,-3.2685606,-8.838039,-5.841827,-1.3091862
4.085207223892212,9.617473,19.3096,-3.2774127,-8.857428,-5.859656,-1.317214
4.105285406112671,9.635242,19.361113,-3.2862923,-8.876911,-5.8775735,-1.3252714
4.125417470932007,9.653138,19.41286,-3.2952015,-8.896491,-5.895581,-1.3333611
4.145677804946899,9.67116,19.464844,-3.304138,-8.916167,-5.9136786,-1.3414791
4.165591478347778,9.689309,19.517067,-3.313104,-8.935941,-5.931865,-1.3496249
4.185714960098267,9.707591,19.569525,-3.3220987,-8.955808,-5.950145,-1.3578002
4.2057671546936035,9.725998,19.622217,-3.331123,-8.97577,-5.9685135,-1.3660004
4.226141691207886,9.725998,19.622217,-3.331123,-8.97577,-5.9685135,-1.3660004
4.2462568283081055,9.74452,19.67513,-3.340171,-8.995812,-5.9869685,-1.3742268
4.266318321228027,9.763173,19.728273,-3.3492534,-9.015952,-6.005512,-1.3824823
4.286410808563232,9.781969,19.781662,-3.3583648,-9.036196,-6.0241456,-1.3907692
4.3064963817596436,9.800877,19.835272,-3.3674998,-9.056528,-6.042873,-1.3990853
4.3266441822052,9.819914,19.889107,-3.3766649,-9.076949,-6.061689,-1.4074247
4.346649885177612,9.839074,19.943167,-3.3858607,-9.097462,-6.0805917,-1.4157898
4.368012428283691,9.839074,19.943167,-3.3858607,-9.097462,-6.0805917,-1.4157898
4.388116359710693,9.858359,19.997458,-3.3950849,-9.118067,-6.099582,-1.4241815
4.408267974853516,9.877773,20.051973,-3.4043374,-9.138765,-6.118662,-1.4325976
4.428318500518799,9.897311,20.106714,-3.4136171,-9.1595545,-6.13783,-1.4410393
4.448391675949097,9.916976,20.161682,-3.422926,-9.180436,-6.1570854,-1.4495084
4.468573808670044,9.936765,20.216875,-3.4322603,-9.201408,-6.17643,-1.4580033
4.48873233795166,9.956679,20.272291,-3.4416237,-9.222471,-6.1958632,-1.4665272
4.508918046951294,9.956679,20.272291,-3.4416237,-9.222471,-6.1958632,-1.4665272
4.529068231582642,9.976721,20.327932,-3.451016,-9.243626,-6.215385,-1.4750752
4.549151182174683,9.996885,20.383797,-3.4604342,-9.264872,-6.2349944,-1.4836504
4.569258689880371,10.017177,20.439878,-3.4698787,-9.286209,-6.2546906,-1.4922504
4.589327812194824,10.037593,20.496185,-3.4793508,-9.307632,-6.2744756,-1.5008757
4.609598875045776,10.058129,20.55271,-3.4888499,-9.329149,-6.2943463,-1.5095298
4.6296563148498535,10.078794,20.609453,-3.4983747,-9.350754,-6.314306,-1.5182073
4.649739980697632,10.099578,20.666412,-3.507926,-9.372448,-6.33435,-1.5269101
4.669947862625122,10.099578,20.666412,-3.507926,-9.372448,-6.33435,-1.5269101
4.690352916717529,10.120486,20.723587,-3.5175035,-9.39423,-6.3544817,-1.5356388
4.7103564739227295,10.141519,20.780994,-3.5271099,-9.416106,-6.3747025,-1.5443938
4.730372667312622,10.162658,20.83857,-3.536721,-9.43804,-6.394999,-1.5531621
4.769500255584717,10.162658,20.83857,-3.536721,-9.43804,-6.394999,-1.5531621
4.7976601123809814,10.162658,20.83857,-3.536721,-9.43804,-6.394999,-1.5531621
4.817773342132568,10.18394,20.896381,-3.5463789,-9.460081,-6.4153767,-1.5619762
4.837817192077637,10.205322,20.954386,-3.5560486,-9.482206,-6.435846,-1.5708108
4.857898473739624,10.226825,21.012596,-3.565746,-9.504413,-6.4563975,-1.5796664
4.8780341148376465,10.248445,21.071012,-3.5754707,-9.526704,-6.477031,-1.5885437
4.8980553150177,10.248445,21.071012,-3.5754707,-9.526704,-6.477031,-1.5885437
4.918242931365967,10.2701845,21.129635,-3.5852187,-9.54908,-6.497747,-1.5974429
4.938295602798462,10.292044,21.188463,-3.594991,-9.571543,-6.5185475,-1.6063673
4.958378314971924,10.314021,21.247501,-3.60479,-9.594091,-6.539429,-1.6153181
4.978483200073242,10.336119,21.306742,-3.6146116,-9.616723,-6.5603967,-1.6242874
4.998552083969116,10.35833,21.366186,-3.6244578,-9.639438,-6.5814443,-1.6332853
5.018686771392822,10.380654,21.425827,-3.6343296,-9.662235,-6.602568,-1.6423013
5.038764476776123,10.403092,21.485672,-3.6442266,-9.685116,-6.6237655,-1.6513393
5.05883264541626,10.425644,21.54572,-3.6541512,-9.708078,-6.645041,-1.6603978
5.079330921173096,10.425644,21.54572,-3.6541512,-9.708078,-6.645041,-1.6603978
5.099450588226318,10.448311,21.605974,-3.6641033,-9.731127,-6.666394,-1.6694825
5.119610548019409,10.471095,21.666435,-3.674082,-9.754261,-6.687826,-1.6785872
5.139980316162109,10.493995,21.727102,-3.6840863,-9.777477,-6.709336,-1.6877162
5.159795045852661,10.517007,21.787971,-3.6941164,-9.800776,-6.730922,-1.696867
5.179893255233765,10.540132,21.84904,-3.7041748,-9.824157,-6.7525835,-1.7060387
5.200040578842163,10.563428,21.91035,-3.714271,-9.847651,-6.77432,-1.7152493
5.220060586929321,10.5867815,21.971828,-3.7243695,-9.871203,-6.7961435,-1.7244792
5.240196228027344,10.5867815,21.971828,-3.7243695,-9.871203,-6.7961435,-1.7244792
5.260314226150513,10.610216,22.03345,-3.7344773,-9.894793,-6.818023,-1.7337115
5.280419588088989,10.633753,22.095245,-3.7446334,-9.918465,-6.839965,-1.7429733
5.300510883331299,10.657395,22.157219,-3.7548115,-9.942215,-6.8619704,-1.7522447
5.320616960525513,10.68114,22.219374,-3.7650118,-9.966038,-6.8840423,-1.7615368
5.340710163116455,10.704987,22.281696,-3.7752335,-9.989937,-6.9061813,-1.7708457
5.361020565032959,10.72893,22.344193,-3.785478,-10.013902,-6.9283805,-1.7801735
5.380906105041504,10.72893,22.344193,-3.785478,-10.013902,-6.9283805,-1.7801735
5.4017133712768555,10.752973,22.406853,-3.7957456,-10.037937,-6.950645,-1.7895205
5.4216578006744385,10.77711,22.469673,-3.806032,-10.062038,-6.9729695,-1.7988827
5.443075180053711,10.801339,22.532652,-3.8163388,-10.086206,-6.995355,-1.8082635
5.463157892227173,10.801339,22.532652,-3.8163388,-10.086206,-6.995355,-1.8082635
5.483404874801636,10.825662,22.595787,-3.8266659,-10.110437,-7.0177994,-1.8176596
5.503493070602417,10.850074,22.659075,-3.8370135,-10.134732,-7.040301,-1.8270738
5.523691177368164,10.874576,22.722511,-3.84738,-10.15909,-7.062859,-1.8365028
5.543558835983276,10.899166,22.786093,-3.8577654,-10.183508,-7.0854735,-1.8459504
5.563628196716309,10.9238405,22.849813,-3.8681686,-10.207985,-7.108142,-1.8554091
5.583721399307251,10.948599,22.91369,-3.8785946,-10.232524,-7.1308684,-1.8648922
5.603921890258789,10.973448,22.977692,-3.8890321,-10.257122,-7.1536465,-1.8743811
5.624183654785156,10.973448,22.977692,-3.8890321,-10.257122,-7.1536465,-1.8743811
5.644320964813232,10.998374,23.041824,-3.8994865,-10.281769,-7.176474,-1.8838894
5.664395332336426,11.0233755,23.10608,-3.909957,-10.306471,-7.199351,-1.89341
5.684473752975464,11.048453,23.170456,-3.9204426,-10.331221,-7.2222743,-1.9029477
5.704558610916138,11.073605,23.234951,-3.9309433,-10.356023,-7.245245,-1.9124973
5.724785804748535,11.098829,23.299564,-3.9414604,-10.380876,-7.2682624,-1.9220617
5.745210409164429,11.124146,23.364359,-3.9520242,-10.405807,-7.2913394,-1.9316676
5.765012264251709,11.149616,23.429302,-3.962599,-10.430824,-7.314467,-1.9412749
5.78508448600769,11.175096,23.494343,-3.9731596,-10.455865,-7.3376546,-1.9508998
5.805675268173218,11.175096,23.494343,-3.9731596,-10.455865,-7.3376546,-1.9508998
5.825811147689819,11.200639,23.559486,-3.9837382,-10.480936,-7.360885,-1.9605365
5.8459577560424805,11.226245,23.62473,-3.9943316,-10.506046,-7.384151,-1.9701803
5.866006135940552,11.251912,23.69006,-4.004938,-10.531199,-7.407456,-1.9798355
5.8860814571380615,11.2776,23.755379,-4.015497,-10.556334,-7.4307733,-1.9894526
5.9061524868011475,11.30333,23.820797,-4.0261135,-10.5815115,-7.4541183,-1.9991319
5.926316976547241,11.329125,23.88629,-4.0367374,-10.606733,-7.4774966,-2.0088105
5.946343898773193,11.354974,23.951868,-4.047371,-10.631991,-7.5009084,-2.0185034
5.966430902481079,11.380878,24.017525,-4.058011,-10.657282,-7.5243545,-2.028206
5.986703634262085,11.380878,24.017525,-4.058011,-10.657282,-7.5243545,-2.028206
6.006857395172119,11.406835,24.083256,-4.0686607,-10.682605,-7.547834,-2.037923
6.027171611785889,11.43284,24.149057,-4.079318,-10.707958,-7.571343,-2.0476506
6.047022104263306,11.458895,24.214924,-4.08998,-10.733338,-7.5948806,-2.0573874
6.0671327114105225,11.484994,24.280851,-4.1006517,-10.758745,-7.618447,-2.067138
6.087243556976318,11.511136,24.346836,-4.111328,-10.784176,-7.64204,-2.0768974
6.1072838306427,11.537319,24.412872,-4.1220064,-10.80963,-7.6656566,-2.0866654
6.127423286437988,11.563541,24.478958,-4.1326904,-10.835104,-7.6892962,-2.0964477
6.147965431213379,11.563541,24.478958,-4.1326904,-10.835104,-7.6892962,-2.0964477
6.167935848236084,11.589799,24.545086,-4.143379,-10.860598,-7.712959,-2.1062338
6.188000917434692,11.616092,24.611252,-4.154071,-10.8861065,-7.73664,-2.1160324
6.208402872085571,11.642415,24.677452,-4.1647644,-10.911633,-7.760338,-2.1258373
6.228553056716919,11.668769,24.743685,-4.17546,-10.937172,-7.7840567,-2.1356533
6.248624801635742,11.695151,24.809937,-4.1861534,-10.962723,-7.807791,-2.145473
6.268709421157837,11.721553,24.876211,-4.19685,-10.988281,-7.8315377,-2.1553066
6.2888243198394775,11.747981,24.9425,-4.2075453,-11.013847,-7.8552957,-2.1651428
6.309180974960327,11.774426,25.008799,-4.218238,-11.039418,-7.879064,-2.174991
6.3293616771698,11.774426,25.008799,-4.218238,-11.039418,-7.879064,-2.174991
6.349348306655884,11.800891,25.075102,-4.2289305,-11.064994,-7.902842,-2.184841
6.369479417800903,11.827369,25.14141,-4.239621,-11.09057,-7.9266286,-2.1947005
6.3894829750061035,11.853916,25.207737,-4.2503195,-11.11618,-7.9504185,-2.2045715
6.409611940383911,11.880427,25.274052,-4.260997,-11.1417675,-7.9742246,-2.2144563
6.429670333862305,11.906941,25.340343,-4.2716703,-11.167341,-7.99803,-2.2243392
6.449779272079468,11.933457,25.40661,-4.282339,-11.192905,-8.021834,-2.234228
6.469812631607056,11.95997,25.472849,-4.293005,-11.218462,-8.045637,-2.2441187
6.489899158477783,11.95997,25.472849,-4.293005,-11.218462,-8.045637,-2.2441187
6.510009527206421,11.986484,25.539059,-4.3036604,-11.244007,-8.069434,-2.254016
6.530083656311035,12.012991,25.60523,-4.314309,-11.269537,-8.093226,-2.2639124
6.550145149230957,12.03949,25.67136,-4.3249474,-11.295052,-8.117013,-2.2738166
6.570267200469971,12.065979,25.737442,-4.335578,-11.320547,-8.140791,-2.283727
6.5903520584106445,12.092452,25.803473,-4.346196,-11.346022,-8.164558,-2.2936366
6.610431909561157,12.118909,25.869444,-4.356804,-11.371475,-8.188314,-2.3035507
6.630503177642822,12.135548,25.907404,-4.3523893,-11.383169,-8.206229,-2.3010223
6.651920557022095,12.135548,25.907404,-4.3523893,-11.383169,-8.206229,-2.3010223
6.672029733657837,12.140096,25.927267,-4.3485126,-11.385111,-8.216944,-2.3019855
6.692124843597412,12.137054,25.932308,-4.3452435,-11.382436,-8.221905,-2.3026419
6.7122108936309814,12.129183,25.928238,-4.3424454,-11.377338,-8.222922,-2.3032331
6.7322587966918945,12.11863,25.919321,-4.340211,-11.371238,-8.2216835,-2.3041325
6.752353668212891,12.106971,25.908588,-4.338605,-11.365099,-8.219425,-2.3054945
6.772554397583008,12.095308,25.898146,-4.337674,-11.359587,-8.217007,-2.307391
6.7925639152526855,12.084402,25.889427,-4.337431,-11.35514,-8.215018,-2.3098323
6.8129541873931885,12.074752,25.883366,-4.337865,-11.35203,-8.213852,-2.312812
6.833024740219116,12.074752,25.883366,-4.337865,-11.35203,-8.213852,-2.312812
6.853117942810059,12.066666,25.880526,-4.338951,-11.350413,-8.213753,-2.3163097
6.873213291168213,12.060311,25.881216,-4.3406534,-11.35035,-8.214858,-2.320303
6.8932952880859375,12.05576,25.885542,-4.34293,-11.351842,-8.217233,-2.3247497
6.9134202003479,12.05301,25.89348,-4.3457355,-11.354848,-8.220884,-2.329616
6.9335198402404785,12.0520115,25.904911,-4.349025,-11.359295,-8.225782,-2.3348682
6.953582048416138,12.05268,25.919655,-4.352751,-11.365092,-8.231876,-2.3404696
6.973661184310913,12.05268,25.919655,-4.352751,-11.365092,-8.231876,-2.3404696
6.993770360946655,12.054913,25.937502,-4.3568716,-11.372144,-8.239088,-2.3463857
7.0139501094818115,12.0585985,25.958214,-4.3613453,-11.380346,-8.247341,-2.3525822
7.034013986587524,12.063617,25.981552,-4.3661346,-11.389595,-8.256552,-2.3590329
7.054078102111816,12.06985,26.007278,-4.3712053,-11.399794,-8.266636,-2.3657076
7.0742270946502686,12.0771885,26.035168,-4.376524,-11.410846,-8.277512,-2.3725789
7.094306468963623,12.091965,26.068539,-4.3838797,-11.426403,-8.288885,-2.3807359
7.114389419555664,12.1139145,26.108587,-4.3922567,-11.447395,-8.301929,-2.3912685
7.134441614151001,12.135959,26.152304,-4.3992634,-11.469498,-8.317589,-2.4035852
7.156028985977173,12.135959,26.152304,-4.3992634,-11.469498,-8.317589,-2.4035852
7.176147222518921,12.157287,26.198025,-4.4057207,-11.490974,-8.334818,-2.4166868
7.196216344833374,12.177543,26.244251,-4.41208,-11.511656,-8.352705,-2.4297168
7.216288328170776,12.196621,26.290249,-4.418395,-11.53158,-8.370776,-2.4423778
7.236393213272095,12.214568,26.335686,-4.4246616,-11.550793,-8.388806,-2.4546497
7.256480932235718,12.231458,26.380398,-4.4308596,-11.56934,-8.4066925,-2.4665778
7.2765631675720215,12.247377,26.424297,-4.4369755,-11.58726,-8.424381,-2.4782145
7.296705961227417,12.262417,26.467342,-4.4430027,-11.604597,-8.441838,-2.489598
7.317235708236694,12.262417,26.467342,-4.4430027,-11.604597,-8.441838,-2.489598
7.337339401245117,12.276651,26.509525,-4.4489384,-11.621389,-8.459051,-2.5007713
7.3574488162994385,12.290166,26.550865,-4.4547853,-11.637683,-8.476007,-2.511756
7.3775811195373535,12.303024,26.59139,-4.4605446,-11.653519,-8.492716,-2.5225887
7.397849082946777,12.315297,26.631138,-4.466216,-11.668934,-8.50918,-2.533284
7.417950868606567,12.327038,26.67015,-4.4718075,-11.683966,-8.5254135,-2.5438664
7.43813419342041,12.338307,26.708477,-4.477316,-11.698647,-8.541429,-2.5543425
7.458119630813599,12.349143,26.746159,-4.48275,-11.713007,-8.557238,-2.5647385
7.478605270385742,12.349143,26.746159,-4.48275,-11.713007,-8.557238,-2.5647385
7.498682498931885,12.3595915,26.783241,-4.4881124,-11.72707,-8.572853,-2.5750592
7.518775939941406,12.369687,26.819763,-4.4934063,-11.740867,-8.588288,-2.585311
7.538853168487549,12.379472,26.855762,-4.4986477,-11.7544155,-8.603544,-2.5955043
7.558980464935303,12.38898,26.89127,-4.5038385,-11.767742,-8.618629,-2.6056402
7.579119682312012,12.398235,26.926327,-4.5089855,-11.780863,-8.633553,-2.6157303
7.599197864532471,12.407262,26.96096,-4.5140886,-11.793797,-8.648325,-2.6257715
7.619237422943115,12.41608,26.995207,-4.5191536,-11.806559,-8.66296,-2.6357763
7.6396543979644775,12.424703,27.029102,-4.524191,-11.81916,-8.677463,-2.6457546
7.659740447998047,12.424703,27.029102,-4.524191,-11.81916,-8.677463,-2.6457546
7.680141448974609,12.433153,27.062656,-4.5291977,-11.831614,-8.691843,-2.6557
7.7000885009765625,12.441435,27.09591,-4.5341806,-11.843927,-8.706107,-2.6656265
7.720133304595947,12.449567,27.128868,-4.5391397,-11.856115,-8.720266,-2.675532
7.740243673324585,12.457559,27.161556,-4.544077,-11.86818,-8.73432,-2.6854134
7.76031231880188,12.465423,27.193993,-4.548992,-11.880129,-8.748278,-2.6952765
7.7803990840911865,12.473159,27.226177,-4.5538874,-11.89197,-8.762146,-2.7051244
7.80045485496521,12.480779,27.258125,-4.5587616,-11.903702,-8.775925,-2.714957
7.820509433746338,12.480779,27.258125,-4.5587616,-11.903702,-8.775925,-2.714957
7.840636491775513,12.488283,27.289845,-4.563616,-11.915327,-8.789618,-2.7247713
7.86095929145813,12.495673,27.321337,-4.568449,-11.926854,-8.803225,-2.7345765
7.880886793136597,12.502957,27.352612,-4.5732613,-11.938277,-8.816755,-2.7443655
7.9009690284729,12.510131,27.383663,-4.5780544,-11.949602,-8.830202,-2.7541406
7.921088457107544,12.5172,27.414494,-4.5828257,-11.960829,-8.843568,-2.7639039
7.941144943237305,12.524159,27.445108,-4.587574,-11.971952,-8.856856,-2.7736561
7.961233377456665,12.531009,27.4755,-4.5922995,-11.982975,-8.870063,-2.7833955
7.981306314468384,12.531009,27.4755,-4.5922995,-11.982975,-8.870063,-2.7833955
8.00159740447998,12.537753,27.505665,-4.597003,-11.9938965,-8.88319,-2.7931192
8.021555423736572,12.544383,27.535603,-4.601679,-12.004714,-8.896234,-2.8028352
8.041614294052124,12.550902,27.565306,-4.606326,-12.015427,-8.909191,-2.8125274
8.061697006225586,12.557306,27.594774,-4.610944,-12.02603,-8.922066,-2.8222115
8.081815242767334,12.563596,27.624,-4.615532,-12.036523,-8.9348545,-2.8318775
8.101874828338623,12.563596,27.624,-4.615532,-12.036523,-8.9348545,-2.8318775
8.12207579612732,12.569763,27.652973,-4.6200876,-12.046904,-8.947552,-2.84153
8.142085552215576,12.575795,27.681679,-4.6245985,-12.057156,-8.960157,-2.851158
8.162156105041504,12.581701,27.710121,-4.6290874,-12.067291,-8.972667,-2.8607829
8.182239770889282,12.587481,27.7383,-4.633542,-12.077312,-8.985082,-2.870386
8.202350378036499,12.593127,27.766201,-4.6379585,-12.087209,-8.997403,-2.8799732
8.222410202026367,12.598635,27.793823,-4.642338,-12.096977,-9.0096245,-2.8895428
8.24249792098999,12.604001,27.821156,-4.646678,-12.106615,-9.021748,-2.8991005
8.262690782546997,12.609221,27.848183,-4.650976,-12.116119,-9.033766,-2.908634
8.282768249511719,12.609221,27.848183,-4.650976,-12.116119,-9.033766,-2.908634
8.302881002426147,12.614288,27.874903,-4.6552324,-12.125484,-9.045676,-2.918154
8.323023557662964,12.619203,27.901306,-4.6594467,-12.134707,-9.057478,-2.9276545
8.3434157371521,12.623954,27.927382,-4.6636133,-12.1437845,-9.069167,-2.937136
8.363335609436035,12.628541,27.953117,-4.667734,-12.152714,-9.080744,-2.9465988
8.383382797241211,12.632957,27.978514,-4.6718082,-12.161489,-9.092199,-2.9560387
8.40344786643982,12.637199,28.003551,-4.675832,-12.170108,-9.103536,-2.9654586
8.423596858978271,12.641264,28.028221,-4.679802,-12.178564,-9.114749,-2.9748566
8.443644523620605,12.641264,28.028221,-4.679802,-12.178564,-9.114749,-2.9748566
8.463735580444336,12.64514,28.052517,-4.6837206,-12.186854,-9.125835,-2.9842384
8.48394227027893,12.648826,28.076426,-4.687584,-12.194977,-9.136791,-2.99359
8.503991603851318,12.648826,28.076426,-4.687584,-12.194977,-9.136791,-2.99359
8.524062871932983,12.652317,28.099937,-4.69139,-12.202923,-9.147614,-3.0029233
8.544123888015747,12.655604,28.12304,-4.695136,-12.210689,-9.158299,-3.012233
8.564199924468994,12.658687,28.145721,-4.698822,-12.218273,-9.168844,-3.0215185
8.584296703338623,12.661554,28.167969,-4.702443,-12.225668,-9.179248,-3.0307791
8.604391813278198,12.664201,28.189772,-4.7059994,-12.232867,-9.189503,-3.040016
8.624454021453857,12.66662,28.211117,-4.709488,-12.23987,-9.199607,-3.0492246
8.644534826278687,12.668807,28.231987,-4.712907,-12.246664,-9.209557,-3.058409
8.664817571640015,12.670753,28.252373,-4.7162523,-12.25325,-9.219345,-3.0675647
8.684911012649536,12.670753,28.252373,-4.7162523,-12.25325,-9.219345,-3.0675647
8.705027103424072,12.672453,28.272259,-4.7195244,-12.259619,-9.228971,-3.076689
8.725103616714478,12.673898,28.291634,-4.72272,-12.265766,-9.238429,-3.085787
8.745512247085571,12.675081,28.310478,-4.725833,-12.271686,-9.247717,-3.0948555
8.765388011932373,12.675995,28.328773,-4.7288656,-12.277372,-9.2568245,-3.1038916
8.785460948944092,12.676631,28.346508,-4.7318096,-12.282815,-9.265755,-3.1128976
8.805557012557983,12.676978,28.363663,-4.734665,-12.28801,-9.274497,-3.1218698
8.825607061386108,12.677032,28.380222,-4.7374277,-12.292947,-9.283049,-3.1308105
8.845714092254639,12.677032,28.380222,-4.7374277,-12.292947,-9.283049,-3.1308105
8.865808963775635,12.67678,28.396158,-4.740095,-12.297621,-9.291401,-3.139715
8.88589358329773,12.676213,28.411465,-4.7426634,-12.302026,-9.299549,-3.1485841
8.905976057052612,12.675323,28.42611,-4.7451277,-12.306149,-9.307495,-3.1574185
8.926239013671875,12.674096,28.440075,-4.747486,-12.309982,-9.315221,-3.1662147
8.9467134475708,12.672524,28.453337,-4.74973,-12.31352,-9.322725,-3.1749675
8.966544389724731,12.670593,28.465876,-4.7518587,-12.316747,-9.330007,-3.183685
8.986651182174683,12.668292,28.477657,-4.753868,-12.319658,-9.337047,-3.192361
9.006909370422363,12.675309,28.48729,-4.757208,-12.322554,-9.337696,-3.210602
9.027065753936768,12.675309,28.48729,-4.757208,-12.322554,-9.337696,-3.210602
9.047119855880737,12.678732,28.490705,-4.7591753,-12.323757,-9.337974,-3.2295082
9.067192554473877,12.679069,28.490696,-4.7602177,-12.322796,-9.337919,-3.2471263
9.087257385253906,11.331574,26.64301,-3.60962,-11.216328,-9.389677,-3.3210657
9.107388973236084,10.011917,24.132935,-2.9660642,-9.9865265,-8.970335,-3.4263427
9.127434253692627,8.594433,21.332623,-2.463583,-8.78718,-8.226046,-3.3326137
9.147526025772095,7.1820636,18.586615,-2.0273645,-7.645963,-7.3921475,-3.1951318
9.167804956436157,5.820528,15.988831,-1.6373699,-6.5690284,-6.5642285,-3.0618765
9.187909364700317,5.820528,15.988831,-1.6373699,-6.5690284,-6.5642285,-3.0618765
9.207978248596191,4.4823785,13.556825,-1.2961972,-5.544498,-5.7518864,-2.941384
9.228100061416626,3.1029403,11.338453,-1.0206169,-4.573512,-4.938216,-2.7657888
9.24813199043274,1.7704344,9.348626,-0.7804762,-3.6785176,-4.1617107,-2.5052917
9.268423795700073,0.6148217,7.565159,-0.53836274,-2.8158126,-3.5104203,-2.2876806
9.288368701934814,-0.46287176,6.001461,-0.17395231,-1.9150981,-3.109055,-1.9580619
9.308433055877686,-1.4217985,4.6292167,0.6654049,-1.1371073,-2.8573093,-1.609473
9.329246520996094,-2.4906702,3.4765515,1.5239043,-0.21127465,-2.8631098,-1.0464723
9.349320411682129,-2.4906702,3.4765515,1.5239043,-0.21127465,-2.8631098,-1.0464723
9.369433403015137,-3.260945,2.3015797,2.153387,0.5289292,-2.8715289,-0.32075328
9.389519214630127,-3.8607664,1.6676507,2.6036692,0.93042296,-3.08684,0.08343172
9.409638404846191,-4.1956387,1.5825456,2.8261783,1.1425873,-3.3375537,0.27932048
9.429715156555176,-4.3012652,1.5587553,2.8934004,1.2348119,-3.4321175,0.31200927
9.458232164382935,-4.3012652,1.5587553,2.8934004,1.2348119,-3.4321175,0.31200927
9.4938063621521,-4.3012652,1.5587553,2.8934004,1.2348119,-3.4321175,0.31200927
9.513901233673096,-4.326651,1.5427289,2.9128592,1.2793783,-3.4617581,0.30696732
9.534040451049805,-4.332746,1.5321752,2.9174442,1.2995085,-3.4672146,0.30316097
9.554132223129272,-4.332746,1.5321752,2.9174442,1.2995085,-3.4672146,0.30316097
9.574231147766113,-4.334521,1.5270346,2.914849,1.3040564,-3.4646916,0.30511346
9.594316244125366,-4.3347335,1.5265132,2.907901,1.2981467,-3.4593978,0.3111949
9.614365339279175,-4.333835,1.5293858,2.8980656,1.2851807,-3.4527605,0.31979942
9.634519577026367,-4.3320065,1.5345508,2.8862193,1.2674562,-3.445254,0.32999757
9.654582738876343,-4.329453,1.5412201,2.8729746,1.2465502,-3.4371443,0.3412518
9.674662351608276,-4.326401,1.5488745,2.858865,1.2236749,-3.428664,0.353073
9.694745302200317,-4.3229976,1.5571107,2.8442516,1.1996922,-3.419969,0.36508557
9.714843273162842,-4.3229976,1.5571107,2.8442516,1.1996922,-3.419969,0.36508557
9.73495626449585,-4.3193426,1.5656434,2.8293707,1.1751693,-3.4111662,0.3770793
9.75504994392395,-4.315513,1.57429,2.8143713,1.1504679,-3.4023244,0.38895082
9.775161266326904,-4.3115606,1.5829388,2.79934,1.1258022,-3.3934884,0.40066501
9.795475006103516,-4.3075204,1.591529,2.784321,1.1012872,-3.3846827,0.41222084
9.81540322303772,-4.303413,1.6000334,2.7693322,1.0769721,-3.3759222,0.4236411
9.83552074432373,-4.2992506,1.6084436,2.7543726,1.0528641,-3.367213,0.4349575
9.855575323104858,-3.9583561,1.4750473,1.879139,0.28679124,-2.8602366,0.78695315
9.875646829605103,-3.6944356,1.7822334,1.2670594,-0.4920581,-2.7314222,0.9124896
9.895890474319458,-3.6944356,1.7822334,1.2670594,-0.4920581,-2.7314222,0.9124896
9.915875434875488,-3.3843744,2.5112274,0.39122748,-1.2122334,-2.5600529,0.7310755
9.936107158660889,-2.9792368,3.6375053,-0.6753819,-1.9382933,-2.4046998,0.48946112
9.956193208694458,-1.8557241,5.1069355,-1.4087231,-2.7746625,-2.6070046,-0.24963224
9.97628927230835,-0.28884766,6.761343,-1.9234192,-3.7359824,-2.946933,-0.919483
9.99666690826416,-0.08422139,6.6341696,-0.8161513,-3.3204696,-3.2152753,-0.9610972
10.016652345657349,-0.37794414,6.2741013,-0.5178931,-2.7018933,-3.1654372,-1.2673182
10.036737203598022,-0.8116603,5.63245,-0.25493613,-2.1270044,-2.9984298,-1.4102409
10.056915521621704,-1.3807212,4.8888454,0.071382076,-1.6181996,-2.7596238,-1.439399
10.077108383178711,-1.3807212,4.8888454,0.071382076,-1.6181996,-2.7596238,-1.439399
10.097120761871338,-2.1740959,3.9673781,0.91074073,-0.9532207,-2.7607105,-1.1217628
10.117472410202026,-2.7874615,3.0524263,1.5245113,-0.27988157,-2.7773767,-0.45341903
10.137325763702393,-3.382411,2.286942,1.9978303,0.19652362,-2.8170085,0.025612816
10.157421112060547,-3.8292549,1.8323773,2.3632884,0.4775705,-2.995275,0.32912618
10.177520275115967,-4.0671287,1.7444514,2.541465,0.6467321,-3.1628582,0.45089883
10.197622060775757,-4.152599,1.7194258,2.60499,0.73179716,-3.2331975,0.46034405
10.21767807006836,-4.178514,1.7017425,2.624478,0.7738626,-3.2542546,0.4499563
10.238326072692871,-4.178514,1.7017425,2.624478,0.7738626,-3.2542546,0.4499563
10.258475065231323,-4.1881213,1.6903883,2.6282213,0.79135007,-3.2566776,0.4468553
10.278545618057251,-4.1923847,1.6853846,2.6241012,0.7932063,-3.2529645,0.45136386
10.298738479614258,-4.1935983,1.6853681,2.6152546,0.7849389,-3.247209,0.46027142
10.318670749664307,-4.1925826,1.6887922,2.6033778,0.7701795,-3.240601,0.47157443
10.338780879974365,-4.189955,1.6944681,2.5895443,0.75127983,-3.2335172,0.48425683
10.35895848274231,-3.755768,1.6438726,1.5657198,-0.090383336,-2.7169118,0.791145
10.379005670547485,-3.410592,2.3160672,0.58536136,-0.99483216,-2.5298867,0.6939097
10.399026870727539,-3.410592,2.3160672,0.58536136,-0.99483216,-2.5298867,0.6939097
10.419138431549072,-2.983246,3.56869,-0.70835906,-1.8640717,-2.329038,0.42521715
10.439384460449219,-1.73105,5.2177067,-1.5621378,-2.8531384,-2.5560486,-0.29733455
10.45929741859436,0.040373176,7.1234283,-2.1288784,-3.977973,-2.9262452,-1.0037401
10.479575872421265,0.39068142,7.264382,-1.082968,-3.6859257,-3.2301428,-1.1166728
10.499666213989258,0.29522476,7.039662,-0.8044173,-3.1913445,-3.2696657,-1.4470825
10.519667148590088,-0.009004503,6.568353,-0.6707725,-2.7633085,-3.16104,-1.6282864
10.53973913192749,-0.43010977,5.946165,-0.52706397,-2.3473134,-2.9919367,-1.6073389
10.559818744659424,-0.43010977,5.946165,-0.52706397,-2.3473134,-2.9919367,-1.6073389
10.579931497573853,-0.9253249,5.2687244,-0.2569173,-1.9394616,-2.8265543,-1.4749112
10.59999966621399,-1.486161,4.6950107,0.04828438,-1.5611182,-2.6342459,-1.4392934
10.620103597640991,-2.006183,4.05497,0.69509244,-0.98480093,-2.6179304,-1.1879711
10.640190362930298,-2.5603786,3.28024,1.2678509,-0.49409467,-2.6488595,-0.65674865
10.66025185585022,-3.1124327,2.5764928,1.7434316,-0.08995175,-2.6862726,-0.15830481
10.680347681045532,-3.579922,2.0447564,2.1505687,0.21190442,-2.797066,0.16016918
10.700420618057251,-3.8694398,1.8141707,2.398666,0.39627314,-2.968485,0.3612672
10.72243881225586,-3.8694398,1.8141707,2.398666,0.39627314,-2.968485,0.3612672
10.742395639419556,-4.0025673,1.7760164,2.5018222,0.50348413,-3.0733702,0.4186435
10.762478590011597,-4.045052,1.7602338,2.536587,0.557147,-3.1103213,0.41714448
10.782782077789307,-4.0580363,1.749391,2.5465033,0.58264506,-3.117889,0.41311657
10.802736282348633,-4.0628686,1.7434375,2.5452678,0.5906539,-3.1151464,0.41710877
10.822834253311157,-4.0643344,1.7420883,2.5374238,0.5870204,-3.1093965,0.42711553
10.842895984649658,-4.063479,1.7443075,2.5252786,0.5756397,-3.1028094,0.44058415
10.863027572631836,-4.0608506,1.749008,2.5102518,0.5591514,-3.0959315,0.45604998
10.883484125137329,-4.0608506,1.749008,2.5102518,0.5591514,-3.0959315,0.45604998
10.90359354019165,-4.0569267,1.7553389,2.4932287,0.5392902,-3.0889454,0.47278613
10.923796892166138,-4.052095,1.7627238,2.474779,0.51717424,-3.0819368,0.49040788
10.943750143051147,-4.046628,1.7708442,2.455351,0.49357247,-3.0748806,0.5085536
10.963853120803833,-4.0407033,1.7794604,2.4352314,0.46899742,-3.0677881,0.52700055
10.983927965164185,-4.0344524,1.7884084,2.414604,0.44378012,-3.0606785,0.5456124
11.00400710105896,-4.0279717,1.7975839,2.3935926,0.41813588,-3.0535583,0.5643093
11.024194478988647,-4.0279717,1.7975839,2.3935926,0.41813588,-3.0535583,0.5643093
11.044291496276855,-3.465975,2.0776072,1.0665158,-0.5469618,-2.5183442,0.6467971
11.064376831054688,-3.0484035,3.3946154,-0.5470312,-1.6063069,-2.2265744,0.2914331
11.084464073181152,-1.757319,5.241831,-1.6619842,-2.7717304,-2.448862,-0.3835422
11.104521751403809,0.29431853,7.4171124,-2.3218443,-4.1179943,-2.8675025,-1.1086369
11.124618291854858,0.89550054,7.8933506,-1.3608446,-3.997663,-3.2068176,-1.3181603
11.144705295562744,1.0350734,7.9046974,-1.0890152,-3.6428943,-3.334674,-1.6936729
11.164758205413818,0.91627973,7.6361976,-1.0682926,-3.293083,-3.2431412,-2.0054855
11.184972763061523,0.91627973,7.6361976,-1.0682926,-3.293083,-3.2431412,-2.0054855
11.205098390579224,0.6167454,7.1315694,-0.98664796,-3.0190985,-3.1319396,-1.9720781
11.225204467773438,0.29218632,6.6792245,-0.9009799,-2.7706895,-3.0148344,-1.8572435
11.24528193473816,-0.026754469,6.2766075,-0.81314045,-2.5588026,-2.9145882,-1.7396424
11.265365600585938,-0.33355835,5.909439,-0.7135426,-2.3650937,-2.8287547,-1.6259892
11.28732442855835,-0.33355835,5.909439,-0.7135426,-2.3650937,-2.8287547,-1.6259892
11.307267189025879,-0.6313244,5.559638,-0.5993336,-2.1712995,-2.7516594,-1.5226395
11.327539920806885,-0.9426587,5.197526,-0.4359979,-1.9691061,-2.6865375,-1.420557
11.347490310668945,-1.2944002,4.9304714,-0.2702559,-1.8445584,-2.5954828,-1.4142771
11.367687463760376,-1.602744,4.4825954,0.14731145,-1.5833247,-2.5133564,-1.3347921
11.387743949890137,-2.1049354,3.9387865,0.6327942,-1.1571845,-2.5484314,-0.8808949
11.407883167266846,-2.4764946,3.45545,1.012881,-0.79991275,-2.5485816,-0.5536142
11.428128957748413,-2.8574831,2.944119,1.3472676,-0.50223494,-2.5761364,-0.23518169
11.448149681091309,-2.8574831,2.944119,1.3472676,-0.50223494,-2.5761364,-0.23518169
11.468188285827637,-3.205549,2.4577577,1.6802673,-0.27258974,-2.6360164,0.07617158
11.488252878189087,-3.5037417,2.0950556,1.9824468,-0.06649417,-2.7229543,0.28808573
11.50837755203247,-3.7041986,1.8994995,2.1769717,0.08073865,-2.8357882,0.43153876
11.52843689918518,-3.8120792,1.8462151,2.2680793,0.17291966,-2.9138856,0.48718923
11.548554182052612,-3.855595,1.8287481,2.300172,0.22026742,-2.9486115,0.4980829
11.568758249282837,-3.8708165,1.8202182,2.3063178,0.24048218,-2.958716,0.50228584
11.588871479034424,-3.8760111,1.817007,2.3007634,0.24393356,-2.958315,0.5109117
11.608938932418823,-3.8760111,1.817007,2.3007634,0.24393356,-2.958315,0.5109117
11.629111766815186,-3.8768713,1.8180116,2.288718,0.23643371,-2.9540815,0.52392006
11.649141311645508,-3.8750699,1.8222262,2.272621,0.22172825,-2.9484851,0.53960407
11.669487476348877,-3.871332,1.828734,2.2538512,0.20230384,-2.9422967,0.55672956
11.689408302307129,-3.8661163,1.836816,2.2332273,0.17979306,-2.9357533,0.5745803
11.709469318389893,-3.8597727,1.8459812,2.2112503,0.15524456,-2.928948,0.5927655
11.729562282562256,-3.8525121,1.8558902,2.1882298,0.12935795,-2.92195,0.6110444
11.749607563018799,-3.8444397,1.8663007,2.1643808,0.10264684,-2.9148345,0.6292435
11.769753217697144,-3.8444397,1.8663007,2.1643808,0.10264684,-2.9148345,0.6292435
11.789898872375488,-3.8356628,1.8770889,2.1398532,0.075427935,-2.9076319,0.6472729
