liuyurong129/humanoid-gym/humanoid/data/robot1_action_20250621-220425.csv
timestamp,joint_1,joint_2,joint_3,joint_4,joint_5,joint_6
0.00014829635620117188,0.0,0.0,0.0,0.0,0.0,0.0
0.020251750946044922,0.0,0.0,0.0,0.0,0.0,0.0
0.040302276611328125,0.0,0.0,0.0,0.0,0.0,0.0
0.060805320739746094,0.0,0.0,0.0,0.0,0.0,0.0
0.08061623573303223,0.0,0.0,0.0,0.0,0.0,0.0
0.10068678855895996,1.3298875,-0.9307179,0.7302446,2.5537727,1.8532199,0.943713
0.12143659591674805,1.3298875,-0.9307179,0.7302446,2.5537727,1.8532199,0.943713
0.14151954650878906,2.1662624,-1.1751668,1.2394048,3.1714392,3.2980263,2.3333173
0.16162443161010742,2.3307536,-1.2052716,1.5679125,3.83924,3.8245022,2.503303
0.18185186386108398,2.3864028,-1.2923933,1.6112354,3.9489837,4.0647535,2.2594397
0.2018413543701172,2.3473113,-1.3700922,1.6093991,3.9188747,4.0383782,2.0483189
0.22191882133483887,2.3303893,-1.4053816,1.5800518,3.8574734,4.011542,1.9805317
0.24196386337280273,2.3276644,-1.4277993,1.5376657,3.7874534,4.015136,2.0127578
0.2620716094970703,2.3276644,-1.4277993,1.5376657,3.7874534,4.015136,2.0127578
0.2821791172027588,2.3310277,-1.4498799,1.4806161,3.7107613,4.0671573,2.1259158
0.30230116844177246,2.336361,-1.4724296,1.4068798,3.6266851,4.1659,2.3049755
0.32257509231567383,2.3296173,-1.4972984,1.3038293,3.5255394,4.291147,2.5402029
0.3426320552825928,2.2791553,-1.516534,1.1090745,3.3777308,4.4144225,2.8720505
0.36301159858703613,2.1947286,-1.5288509,0.7595819,3.1360884,4.5262284,3.3329458
0.38287901878356934,2.0926204,-1.5157424,0.08608774,2.6693687,4.7024217,4.0341535
0.40294384956359863,1.9114153,-1.5641817,-0.7775884,1.9404366,5.0059676,5.212069
0.42308592796325684,1.9114153,-1.5641817,-0.7775884,1.9404366,5.0059676,5.212069
0.4431891441345215,1.7680012,-1.5702394,-1.5274966,1.7302417,4.912832,5.7144194
0.46327638626098633,1.8011847,-1.5609468,-1.7507646,1.8004566,4.732001,5.724581
0.48346996307373047,1.7332389,-1.5856988,-1.7749702,1.8864919,4.60929,5.6138735
0.503450870513916,1.5946157,-1.6206896,-1.724271,1.9198675,4.5199103,5.5052185
0.5235698223114014,1.440289,-1.6529598,-1.6618451,1.9296741,4.448358,5.428164
0.5436291694641113,1.0676262,-1.716457,-1.5223466,1.9824269,4.1361275,5.09233
0.5647385120391846,0.75821424,-1.7577864,-1.4234732,1.9689884,4.0469623,5.0914707
0.5848679542541504,0.75821424,-1.7577864,-1.4234732,1.9689884,4.0469623,5.0914707
0.6053369045257568,0.5553358,-1.7976817,-1.3371072,1.9577837,3.8503528,4.9879103
0.6251304149627686,0.35150668,-1.8531765,-1.2149017,1.9392631,3.6105661,4.8950086
0.6452052593231201,0.12240961,-1.9244516,-1.016196,1.9482441,3.2932708,4.6802607
0.6653332710266113,0.13338134,-1.9924978,-0.6078054,2.104256,3.1325243,3.765803
0.6853911876678467,0.032978088,-2.0349824,-0.2947231,2.109173,3.219748,3.8795586
0.7060391902923584,0.032978088,-2.0349824,-0.2947231,2.109173,3.219748,3.8795586
0.7261574268341064,0.0580419,-2.0489235,-0.09311909,2.216107,3.1338441,3.5625572
0.7462453842163086,0.084011644,-2.0594876,0.081163235,2.2551954,3.149454,3.479399
0.7667627334594727,-0.053896517,-1.4439437,-0.7691981,2.3839667,3.1911576,3.8129835
0.7868611812591553,0.17068037,-1.9740092,-0.36843154,2.1811564,3.0259511,3.553429
0.806962251663208,-0.32454732,-2.096495,-0.09578077,2.1062217,2.7921722,4.2002454
0.8273649215698242,-0.32454732,-2.096495,-0.09578077,2.1062217,2.7921722,4.2002454
0.8475081920623779,-0.18170583,-2.0905268,0.18183707,2.30273,2.6159604,3.4189696
0.8678317070007324,-0.7199034,-1.8724225,-0.26958066,2.473107,2.4536946,3.720942
0.88775634765625,-0.59036106,-2.1579762,0.21677011,2.4496162,2.694844,3.9412088
0.9078619480133057,-0.6914158,-1.8152089,-0.43976477,2.5395052,2.9234273,4.2128587
0.9279499053955078,-0.43620518,-2.0601325,0.04761722,2.543942,3.1444745,4.338581
0.9480359554290771,-0.9201689,-1.7938946,-0.633569,2.5625224,2.251683,4.127306
0.9681847095489502,-0.9201689,-1.7938946,-0.633569,2.5625224,2.251683,4.127306
0.9886224269866943,-1.0831541,-2.2344656,0.19430801,2.5691476,1.9017726,3.8245523
1.0084373950958252,-1.857398,-2.104518,-0.17852962,2.4608777,0.9188657,3.52922
1.0288429260253906,-1.6128007,-2.589439,0.7913976,2.4822338,1.4773161,3.2107012
1.0487287044525146,-2.008212,-2.3846788,0.4002276,2.4164064,0.9005671,2.9695354
1.0688080787658691,-2.0032048,-2.5214276,0.52624077,2.3495252,0.4164736,2.9990296
1.0893638134002686,-2.0032048,-2.5214276,0.52624077,2.3495252,0.4164736,2.9990296
1.1095147132873535,-2.1051874,-2.6584964,0.72425896,2.3491235,0.48636112,2.74551
1.1296000480651855,-2.1474853,-2.718185,0.80983585,2.4028382,0.39359042,2.5287814
1.149899959564209,-2.1378963,-2.7490778,0.847735,2.3834963,0.1981295,2.3622634
1.1698169708251953,-2.146207,-2.7788172,0.86535823,2.3270292,-0.08389589,2.188099
1.1899073123931885,-2.2091453,-2.8214178,0.87104064,2.200982,-0.44883618,1.9062413
1.209984302520752,-2.4308507,-2.9109755,0.8433102,1.9359704,-1.0800177,1.2537979
1.2300682067871094,-2.4308507,-2.9109755,0.8433102,1.9359704,-1.0800177,1.2537979
1.2501907348632812,-3.0191574,-3.1602387,0.7041429,1.8246993,-1.634731,0.52419955
1.2702600955963135,-3.670535,-3.4052758,0.6010385,1.8365532,-2.3510492,-0.26144567
1.2906997203826904,-4.296486,-3.719263,0.5792381,2.2447953,-3.192609,-0.51616424
1.3108010292053223,-4.982585,-3.7551236,0.6466726,2.7547898,-3.7413847,-1.5413346
1.3308815956115723,-5.7558427,-3.9733934,0.5672447,2.9742382,-4.5609016,-2.8052742
1.3509705066680908,-5.7558427,-3.9733934,0.5672447,2.9742382,-4.5609016,-2.8052742
1.3710603713989258,-6.38183,-4.1206746,0.47594285,3.20825,-5.5515447,-4.0273814
1.3912932872772217,-6.643191,-4.1591625,0.36964732,3.5580378,-6.5315623,-5.0907574
1.4113121032714844,-6.369452,-4.054212,0.31966484,4.000879,-7.02592,-5.379797
1.4313793182373047,-5.8372116,-3.904334,0.31669593,4.291076,-7.206062,-5.236937
1.4514477252960205,-4.7533975,-3.5635633,0.3067297,4.2214465,-7.0168643,-4.322619
1.4715540409088135,-3.8271928,-3.3026013,0.34141743,4.0489626,-6.424513,-3.5312576
1.4917657375335693,-3.2683632,-2.9943419,0.42651904,3.661032,-5.7618766,-2.6654305
1.5119221210479736,-3.2683632,-2.9943419,0.42651904,3.661032,-5.7618766,-2.6654305
1.531968593597412,-3.0030944,-2.7317162,0.50855154,3.1603024,-5.1917176,-1.9512463
1.5520572662353516,-2.9572144,-2.5944848,0.57260865,2.7676468,-4.79154,-1.4079344
1.5721511840820312,-2.8737295,-2.3283243,0.65604895,2.2414122,-4.3224626,-0.874268
1.5922107696533203,-2.595299,-1.7574545,0.7120506,1.4559934,-3.5843287,-0.38006175
1.6123576164245605,-2.6141343,-1.1792533,0.5936142,0.9249305,-3.3537948,-0.5966312
1.6329467296600342,-2.6141343,-1.1792533,0.5936142,0.9249305,-3.3537948,-0.5966312
1.6527979373931885,-2.1561105,-0.6389132,0.54879755,0.3374316,-2.5714996,-0.32224923
1.672882318496704,-1.5238152,0.08507851,0.44202578,-0.5808711,-1.2672011,0.3866902
1.6933770179748535,-1.0557436,1.3540436,-0.05934503,-1.5149701,-0.47438917,1.357072
1.713547706604004,-0.15723535,1.3183887,0.07265783,-1.9684563,-0.4781462,1.7659156
1.7335805892944336,-0.13985914,1.0049931,0.09080913,-2.2802398,-0.5045017,1.5931301
1.7536966800689697,-0.22618552,0.9594259,0.1301215,-2.462697,-0.50238293,1.4663185
1.773979902267456,-0.22618552,0.9594259,0.1301215,-2.462697,-0.50238293,1.4663185
1.7941303253173828,-0.5192054,1.3587931,-0.55663127,-2.280536,-0.56472325,1.550334
1.8141884803771973,-0.24427857,0.91719115,0.046623074,-2.5015535,-0.55610114,1.4157295
1.8343040943145752,-0.13812794,0.7955252,0.3016072,-2.2281656,-0.66177946,1.3639312
1.8545053005218506,-0.9520675,1.1936951,-0.575317,-2.4405692,-0.34462517,1.1450458
1.8748161792755127,-0.4715927,0.76436424,0.14600483,-2.401538,-0.70155716,1.2496185
1.894751787185669,-0.738144,1.3090266,-0.70787054,-2.18739,-0.5408342,1.3268799
1.9148917198181152,-0.738144,1.3090266,-0.70787054,-2.18739,-0.5408342,1.3268799
1.9350507259368896,-0.36459994,0.6954956,0.16048683,-2.4538338,-0.54369336,1.2686278
1.955111026763916,-0.681257,1.2676274,-0.6279372,-2.2075744,-0.49499652,1.3734882
1.9751968383789062,-0.51783013,0.5504874,0.2197071,-2.1250794,-0.6708565,1.0527124
1.9953358173370361,-0.7556733,1.1326891,-0.52471304,-2.1170168,-0.52566385,1.2420646
2.0153849124908447,-0.5363331,0.4024756,0.31459725,-1.9945986,-0.6741013,0.9595749
2.035487174987793,-0.73073465,0.98640907,-0.3968883,-2.0205033,-0.53565264,1.1653004
2.055593490600586,-0.52440405,0.23838854,0.42514443,-1.8392608,-0.665586,0.85798305
2.0756568908691406,-0.7414577,0.8997394,-0.3006716,-1.9781556,-0.49262372,1.1887137
2.0957515239715576,-0.7414577,0.8997394,-0.3006716,-1.9781556,-0.49262372,1.1887137
2.1158676147460938,-0.5430403,0.12311393,0.5094357,-1.7471652,-0.6295444,0.8138436
2.1359338760375977,-0.7240313,0.7643187,-0.197027,-1.9084951,-0.49750128,1.1245371
2.1560723781585693,-0.54512167,-0.021309257,0.6052749,-1.6143502,-0.6105318,0.7474869
2.1772890090942383,-0.68110955,0.57621914,-0.04809744,-1.7829863,-0.52075195,1.0314817
2.1973938941955566,-0.68110955,0.57621914,-0.04809744,-1.7829863,-0.52075195,1.0314817
2.2178354263305664,-0.49340114,-0.25051835,0.73496157,-1.3766848,-0.60323954,0.58902955
2.2376065254211426,-0.40742576,-0.23998535,0.73527294,-1.3026968,-0.3957146,0.5887378
2.2579421997070312,-0.5672854,-0.38785586,0.76933855,-0.78568774,-0.4945195,0.21303004
2.2778115272521973,-0.52567405,-0.7909551,0.9866469,-0.28629425,-0.50346005,0.30617028
2.2987043857574463,-0.52567405,-0.7909551,0.9866469,-0.28629425,-0.50346005,0.30617028
2.318831443786621,-0.46173638,-1.1087106,1.1382259,0.21759143,-0.5242487,0.5036293
2.3389227390289307,-0.4791129,-1.3632245,1.2294781,0.8917239,-0.7264775,0.51373214
2.359076976776123,0.037429124,-1.0441,1.3126155,1.0307989,-0.16066533,1.6311764
2.3791260719299316,-0.15336886,-1.3042605,1.24321,1.7286633,0.3393298,1.3067805
2.3995134830474854,-0.11749481,-1.5985919,0.99482036,2.3407862,1.1132848,1.969959
2.419377088546753,-0.4810051,-1.766873,0.39380562,2.494051,1.2616018,2.6192086
2.43943190574646,-0.6848012,-1.8825424,-0.025469592,2.8215663,1.3758332,2.6394286
2.4595320224761963,-0.6848012,-1.8825424,-0.025469592,2.8215663,1.3758332,2.6394286
2.4796335697174072,-0.6153217,-2.312541,0.8209931,3.0675604,1.5979158,2.6071756
2.499702215194702,-0.7907684,-2.0762272,0.3018422,3.1489186,1.4246463,2.4383016
2.5197906494140625,-0.9551384,-2.0518951,-0.024946203,3.1446135,1.235172,2.5199528
2.5402204990386963,-1.0000668,-2.4300065,0.8072999,3.1858275,1.2574033,2.5086126
2.560044765472412,-1.3003057,-2.2273726,0.4041898,3.1259587,0.50295144,2.0372581
2.5806148052215576,-1.3003057,-2.2273726,0.4041898,3.1259587,0.50295144,2.0372581
2.600738048553467,-1.4471052,-2.2764325,0.13775612,3.0946846,0.38672778,2.0706794
2.6208202838897705,-1.5605896,-2.7299356,0.91384655,2.9797397,0.2891384,1.8540032
2.6409146785736084,-1.8544455,-2.5446825,0.55514723,2.971216,-0.068101674,1.5453142
2.6610443592071533,-2.0139854,-2.5348425,0.33506092,2.963395,-0.3524728,1.4462671
2.681093215942383,-2.06802,-2.526019,0.25322726,2.6237357,-0.5331008,1.0854127
2.701139450073242,-2.182146,-2.5447626,0.22139451,2.512246,-0.8506288,0.9150887
2.7215592861175537,-2.182146,-2.5447626,0.22139451,2.512246,-0.8506288,0.9150887
2.742064952850342,-2.2003133,-2.7003102,0.52111304,2.3924954,-1.1635039,0.5421807
2.761960029602051,-2.3528898,-2.6474514,0.47938827,2.5182137,-1.7218785,0.10285266
2.7819080352783203,-2.3546038,-2.5829177,0.45762134,2.7290168,-2.3120594,-0.22558527
2.8020381927490234,-2.1767046,-2.486134,0.44079208,3.0471716,-2.8815935,-0.8024327
2.8220877647399902,-1.649607,-2.241509,0.3912928,3.510779,-3.3194575,-1.3871331
2.842317581176758,-0.7262838,-1.778056,0.40061486,3.8458247,-3.5015218,-1.4878032
2.8623952865600586,-0.7262838,-1.778056,0.40061486,3.8458247,-3.5015218,-1.4878032
2.8824751377105713,0.36818135,-1.0072365,0.44455817,3.9080625,-3.2822235,-1.1086149
2.9025678634643555,0.91622925,-0.55072016,0.31761605,3.1029298,-2.7138224,-0.7615624
2.922678232192993,0.61456823,-0.2516695,0.048474275,1.6914636,-1.8344042,-0.098601624
2.942758560180664,-0.32434607,-0.058184624,-0.009025296,0.84971774,-2.2697322,-1.451333
2.96287202835083,-0.09946552,0.45798606,0.1217012,-0.356029,-1.7210104,-0.500342
2.982954740524292,-0.09946552,0.45798606,0.1217012,-0.356029,-1.7210104,-0.500342
3.0031611919403076,0.17124702,0.45355237,-0.104902335,-1.203024,-0.44885853,0.035218913
3.0231773853302,-0.006596758,0.9013512,-0.69871825,-2.318336,-0.14136419,0.3621771
3.043259382247925,0.05557418,1.2270063,-0.98548657,-3.0646465,-0.12980524,0.7783256
3.0633933544158936,0.1059327,1.508039,-1.294684,-3.2901034,-0.29779026,1.2199334
3.083735704421997,0.10714537,1.6487297,-1.4861856,-3.3552108,-0.40904453,1.3723073
3.103666305541992,0.11035329,1.7342738,-1.5666554,-3.3957322,-0.44734165,1.4604783
3.123694896697998,0.09476732,1.7782665,-1.5935782,-3.4188669,-0.47506365,1.5149024
3.1438231468200684,0.09476732,1.7782665,-1.5935782,-3.4188669,-0.47506365,1.5149024
3.163909673690796,0.06409359,1.7887965,-1.5796307,-3.43438,-0.5011145,1.5308126
3.1840708255767822,0.023937376,1.7801102,-1.5370157,-3.4472246,-0.52504104,1.5232388
3.204113721847534,-0.022557495,1.7554766,-1.4726009,-3.4551544,-0.5473663,1.4978684
3.2242536544799805,-0.071717076,1.7157675,-1.3875678,-3.4567814,-0.56726503,1.458277
3.2443082332611084,-0.12207276,1.6587994,-1.2795165,-3.4489162,-0.58540136,1.4056939
3.264397382736206,-0.17313534,1.579203,-1.1412221,-3.426537,-0.60295534,1.3387026
3.285292148590088,-0.17313534,1.579203,-1.1412221,-3.426537,-0.60295534,1.3387026
3.305643320083618,-0.22586419,1.4699546,-0.9624292,-3.3839998,-0.6209523,1.2529621
3.3254973888397217,-0.27623644,1.3116515,-0.7139604,-3.306143,-0.63897574,1.141542
3.345708131790161,-0.34726438,1.1668023,-0.42363876,-3.202262,-0.5906331,1.1777843
3.365736246109009,-0.45566222,1.0497981,-0.20449732,-2.949481,-0.7407246,1.2406876
3.385780096054077,-0.44967672,0.7381289,0.09336772,-2.5516887,-0.56353176,1.0469248
3.40618634223938,-0.37522152,0.3244208,0.48841345,-2.111572,-0.37740242,0.8328332
3.4260520935058594,-0.7972746,0.8082193,-0.31099802,-2.029935,-0.28519294,0.6147552
3.446122884750366,-0.7972746,0.8082193,-0.31099802,-2.029935,-0.28519294,0.6147552
3.466237783432007,-0.7621359,-0.25355,0.63306624,-1.5746121,-0.503222,0.058232468
3.486368179321289,-0.75069493,-0.13774419,0.11508966,-1.5378826,-0.44701394,0.057508025
3.5064451694488525,-0.653204,-0.3312976,0.5844292,-1.435525,-0.5892584,0.0804843
3.5264763832092285,-0.38524497,-0.8224521,0.6109205,-1.035834,-0.28274336,-0.15216862
3.5466017723083496,-0.6283159,-0.7128991,0.34504953,0.69400346,-0.16472816,-0.5798624
3.566662549972534,0.23066846,-1.0747926,0.914493,0.7888373,0.7771761,1.6629171
3.587003231048584,0.22119632,-1.4753166,0.5091228,1.9057807,1.4103853,1.5152668
3.6070752143859863,0.22119632,-1.4753166,0.5091228,1.9057807,1.4103853,1.5152668
3.6271579265594482,0.0918107,-1.6945713,0.18252727,2.467036,1.5534912,1.8074282
3.647268533706665,-0.20110476,-1.9020306,0.025203967,2.6868858,1.5430671,2.3715646
3.667343854904175,-0.47350872,-2.2668526,0.75000626,2.8819118,1.5599319,2.4168866
3.6874325275421143,-0.46045962,-2.0405827,0.32022268,3.1288218,1.4364662,2.0141373
3.707707405090332,-0.43363807,-1.9615759,0.087640174,3.170537,1.3265682,2.102099
3.7276556491851807,-0.47163564,-2.295412,0.7453071,3.1563678,1.5726141,2.471349
3.7477166652679443,-0.4183065,-2.025916,0.2458504,3.1973329,1.4326812,2.1690862
3.7678098678588867,-0.4183065,-2.025916,0.2458504,3.1973329,1.4326812,2.1690862
3.7880208492279053,-0.48358765,-1.9208767,-0.026429689,3.1376276,1.0860807,2.1572208
3.8081352710723877,-0.5020063,-2.313892,0.6834394,3.1151762,1.3864495,2.487244
3.82820463180542,-0.5397966,-2.0489988,0.20444857,3.1407115,1.0573438,2.122161
3.848299980163574,-0.4960877,-2.0276237,-0.038245477,2.9280763,0.7455019,2.2847283
3.8683769702911377,-0.3510376,-2.3242097,0.7435567,2.9665587,0.76708704,2.167124
3.888453960418701,-0.87997174,-2.0788033,0.032452635,2.7208743,0.5766023,2.3463244
3.9096367359161377,-0.87997174,-2.0788033,0.032452635,2.7208743,0.5766023,2.3463244
3.929579019546509,-0.7882568,-2.4345298,0.8098361,2.9898648,0.84139967,2.1862266
3.949826240539551,-0.5823179,-2.1550817,0.2933217,3.0334296,0.9485614,1.9867291
3.9699666500091553,-0.41200152,-2.008922,-0.10671737,3.0112534,1.076365,2.2184398
3.9901084899902344,-0.53922105,-2.3826966,0.6013334,2.9425836,1.0004139,2.3835158
4.010159730911255,-0.4635218,-2.0533233,0.065404184,2.944766,0.8179205,2.1290274
4.030238151550293,-0.37808475,-2.3711991,0.6805794,3.0174153,1.0581574,2.3239996
4.050603151321411,-0.37808475,-2.3711991,0.6805794,3.0174153,1.0581574,2.3239996
4.070720434188843,-0.77755487,-2.0367947,0.015963623,2.6881063,0.46046063,2.1839592
4.090808629989624,-0.58457196,-2.4213524,0.699752,2.9255652,0.7403375,2.181695
4.110947132110596,-0.45827124,-2.021175,0.30471906,2.835032,0.5246394,1.8575059
4.13097357749939,-0.32243428,-1.8255035,0.00015615858,2.825615,0.5310213,2.0800254
4.151050806045532,-0.37234035,-2.4371924,0.6427523,2.858976,0.67111796,2.2986956
4.171194076538086,-0.93374485,-2.0220218,-0.0077875685,2.54701,0.07662502,2.1224818
4.191236734390259,-0.74376863,-2.501245,0.7839417,2.888809,0.12549523,1.9471055
4.212059497833252,-0.68759733,-1.8790573,0.48038173,2.6335912,-0.14676133,1.6738377
4.232178449630737,-0.68759733,-1.8790573,0.48038173,2.6335912,-0.14676133,1.6738377
4.252297401428223,-0.45799184,-1.7342008,0.28629437,2.2513134,0.12444463,1.4260303
4.272392749786377,-0.3883364,-1.5506867,0.083664395,2.01538,0.1936821,1.5703444
4.292456388473511,-0.33263323,-2.1617594,0.85021603,2.005813,0.32783067,1.540071
4.312527418136597,-0.9037289,-1.3963586,0.345715,1.3141309,-0.13130009,1.3592567
4.332935094833374,-0.6747695,-0.83200246,0.26007923,1.4621859,-0.32835203,1.2642725
4.3528313636779785,-0.535761,-0.53700453,0.19518304,1.0835451,-0.19325277,1.1948123
4.3728954792022705,-0.535761,-0.53700453,0.19518304,1.0835451,-0.19325277,1.1948123
4.392985105514526,-0.38329488,-0.86273617,1.0556964,0.9194963,-0.35187066,1.1528333
4.413092374801636,-0.65100956,0.8367127,0.2780673,-0.5419104,0.25911477,1.4791683
4.43326997756958,-0.32678315,2.2491455,-1.1295656,-1.8237855,0.1336365,1.7673628
4.453399181365967,-0.102760226,1.336067,-0.87096614,-2.449953,-0.021527324,0.94954664
4.473450422286987,0.0069089243,1.4860312,-0.87077355,-2.6620412,-0.48354355,1.4543114
4.493595123291016,-0.055403545,1.578794,-1.0536219,-2.6311598,-0.60821277,1.5196654
4.513773679733276,-0.083616614,1.5508002,-1.0244792,-2.6545882,-0.610503,1.4793072
4.5338616371154785,-0.083616614,1.5508002,-1.0244792,-2.6545882,-0.610503,1.4793072
4.553955793380737,-0.104626894,1.5703189,-0.98903364,-2.6972768,-0.62692165,1.5407702
4.574382066726685,-0.14305983,1.5487858,-0.9320926,-2.7070549,-0.6456142,1.5254047
4.5942583084106445,-0.17723355,1.4956691,-0.82357836,-2.7048104,-0.6520626,1.4933498
4.614720821380615,-0.22928202,1.4354934,-0.66984516,-2.681166,-0.59833795,1.5436642
4.634580850601196,-0.25022882,1.3753653,-0.5116039,-2.6656003,-0.54817694,1.5726616
4.654623031616211,-0.2604979,1.3013585,-0.35262498,-2.649668,-0.527547,1.5655242
4.674744129180908,-0.2604979,1.3013585,-0.35262498,-2.649668,-0.527547,1.5655242
4.69490122795105,-0.25473055,1.2116208,-0.18216829,-2.611281,-0.5049055,1.5550709
4.714949131011963,-0.20990227,1.124218,0.018067116,-2.5352097,-0.46068797,1.546375
4.735014915466309,-0.18982437,0.9485148,0.22629622,-2.339391,-0.36776397,1.4445218
4.755102157592773,-0.5552033,1.8792149,-0.73221266,-2.628263,0.24795899,1.1237184
4.775444746017456,-0.49728256,1.2488151,-0.19808233,-2.3145857,-0.3493081,1.2815154
4.807429075241089,-0.49728256,1.2488151,-0.19808233,-2.3145857,-0.3493081,1.2815154
4.8516786098480225,-0.49728256,1.2488151,-0.19808233,-2.3145857,-0.3493081,1.2815154
4.871731758117676,-0.36666968,0.799224,0.17079534,-1.8288622,-0.38566032,1.1659142
4.891785144805908,-0.66674054,1.6014866,-0.41976926,-2.214494,0.21426465,1.0976719
4.9120776653289795,-0.5669518,0.7064547,0.12156617,-1.6440301,-0.43822518,0.8320353
4.933164119720459,-0.3249893,0.5767422,0.29387203,-1.5232519,-0.2247305,0.93862754
4.953498840332031,-0.3249893,0.5767422,0.29387203,-1.5232519,-0.2247305,0.93862754
4.97347354888916,-0.71238667,1.1237037,-0.07089675,-1.9705482,0.28711203,0.66661805
4.993554353713989,-0.41501784,0.526222,0.31360626,-1.460568,-0.4381992,0.74780446
5.013674736022949,-0.6309742,1.320274,-0.41246644,-1.8003795,-0.030798499,0.9295594
5.033770561218262,-0.58554524,-0.025671959,0.42737147,-1.1119072,-0.65174454,0.0035892613
5.053861618041992,-0.70864075,1.1565104,-0.49677736,-1.5628209,-0.32411253,0.6554274
5.073915719985962,-0.4377642,-0.21713454,0.40710872,-1.0833249,-0.6148832,-0.21560647
5.094012260437012,-0.4377642,-0.21713454,0.40710872,-1.0833249,-0.6148832,-0.21560647
5.11411190032959,-0.5883335,0.8514713,-0.30618918,-1.4145489,-0.46764073,0.5718581
5.134171009063721,-0.27445927,-0.38934392,0.5921783,-0.63250196,-0.5410512,-0.2417872
5.154245376586914,0.056409985,-0.47495252,0.82936484,-0.6757688,0.5380962,0.38836744
5.174702405929565,-0.095310636,-0.24068838,0.25435036,0.7374958,0.34019318,-0.25385982
5.194536924362183,-0.77680075,0.2794367,0.43915665,0.27474812,-0.44655654,-0.35446754
5.214625358581543,-1.0193682,0.7177584,-0.82183444,1.152943,-1.3787621,-0.61364645
5.234706163406372,-0.38357767,-1.9682876,0.5695875,1.0509107,-1.4313501,-1.7865162
5.255062580108643,-0.38357767,-1.9682876,0.5695875,1.0509107,-1.4313501,-1.7865162
5.275290489196777,0.38497245,-1.9100918,0.48145556,2.5451362,0.27715638,-0.46033934
5.29534387588501,1.0825135,-1.4315575,0.2167697,3.0614438,1.2235196,1.0353994
5.315428972244263,1.0610298,-1.0642073,0.115855046,2.7397876,1.2140244,1.6885065
5.335660934448242,1.1943007,-1.9840438,0.6967462,2.9215603,1.7025412,2.0361886
5.355594873428345,0.9961977,-1.2936949,0.44914833,2.5638409,1.5168712,1.8041787
5.375725030899048,0.9173434,-1.2556748,0.16214061,2.491858,1.5218428,1.9434094
5.395819902420044,0.8230263,-2.0174322,0.6135453,2.652792,1.4800231,2.1402879
5.4161176681518555,0.8230263,-2.0174322,0.6135453,2.652792,1.4800231,2.1402879
5.436234712600708,0.5381573,-1.4246424,0.2704843,2.5077243,1.1200129,1.8608993
5.45630669593811,0.44152978,-1.2853838,-0.12311997,2.5289292,0.9482622,2.0154347
5.476388454437256,0.48212534,-2.1952505,0.6602586,2.820253,0.9908431,2.0660927
5.4964799880981445,0.0046364972,-1.6863784,0.23896894,2.498221,0.6458395,1.8371469
5.516551733016968,0.068484575,-1.5721855,-0.1467813,2.6816144,0.82334894,2.0328584
5.536941766738892,-0.09369686,-2.3621078,0.7147657,2.8396869,0.6718877,1.9865031
5.557739734649658,-0.09369686,-2.3621078,0.7147657,2.8396869,0.6718877,1.9865031
5.57789421081543,-0.42326754,-2.0107403,0.17410122,2.6153514,0.6107388,1.8648242
5.597973823547363,-0.27322343,-2.3620324,0.7080715,2.9923973,0.74855494,1.8418732
5.618043661117554,-0.40730956,-1.9250494,0.31272852,2.6821358,0.4082308,1.6445202
5.638389587402344,-0.038526207,-1.6687008,0.130563,2.771617,0.5724518,1.7903453
5.658329725265503,-0.06172049,-2.458281,0.7564834,3.0111783,0.7383449,2.0033536
5.678706407546997,-0.52157545,-1.8923093,0.25547683,2.499445,0.1643546,1.670805
5.699084997177124,-0.52157545,-1.8923093,0.25547683,2.499445,0.1643546,1.670805
5.7192301750183105,-0.16672847,-1.5892475,0.19156548,2.7152371,0.21806118,1.6483752
5.739429712295532,-0.14484766,-2.321796,0.6443338,2.885263,0.35544613,1.7926495
5.7593982219696045,-0.75003076,-1.6074042,0.08150713,2.3411913,-0.29329088,1.7851577
5.77980899810791,-0.28393778,-2.31952,0.8856892,2.8414516,-0.17667621,1.5269822
5.79972243309021,-0.74378246,-1.6692442,0.411601,2.3186855,-0.58557653,1.4465679
5.819793462753296,-0.43691984,-1.2021415,0.39050263,2.4925451,-0.6824594,1.3620931
5.839879512786865,-0.43691984,-1.2021415,0.39050263,2.4925451,-0.6824594,1.3620931
5.859999656677246,-0.39305764,-0.9455241,0.28408936,1.7703004,-0.43866584,1.3020505
5.880327939987183,-0.49823225,-0.3751167,0.08540937,1.2057108,-0.12834063,1.4915533
5.900201320648193,-1.0124342,-1.4404643,0.61173683,0.9568799,-1.7729131,-0.63709
5.920309066772461,-1.1787008,-1.2282226,0.23397323,1.7139654,-2.4553459,-0.843259
5.940426349639893,-0.019802181,-0.39684948,0.8887829,0.16550067,-1.5377921,0.7746015
5.960464715957642,-0.82525975,0.12699229,-0.48699552,0.18082795,-0.8581614,-0.13919075
5.980598211288452,-0.82525975,0.12699229,-0.48699552,0.18082795,-0.8581614,-0.13919075
6.000715255737305,-0.46521232,0.40259928,-0.23414513,-1.2271129,-0.81063896,0.05217271
6.020837306976318,-0.109616086,1.0617039,-0.49536598,-1.5009322,-0.6081053,0.62116563
6.040889739990234,-0.08512801,1.1800343,-0.7519979,-1.9331427,-0.40737334,0.5977258
6.061159372329712,0.08932334,1.4117148,-1.080293,-2.2689528,-0.56483656,0.98861665
6.081233501434326,0.08271235,1.450739,-1.0912951,-2.400166,-0.6238138,1.135158
6.101660251617432,0.042188033,1.4822594,-1.0782667,-2.417125,-0.691248,1.258137
6.121503591537476,0.0014090847,1.4727308,-1.0464059,-2.4238884,-0.72724813,1.2701142
6.141707420349121,-0.037967086,1.4435692,-0.9727296,-2.4269783,-0.73536235,1.2703032
6.1618523597717285,-0.037967086,1.4435692,-0.9727296,-2.4269783,-0.73536235,1.2703032
6.181845664978027,-0.07997137,1.4187617,-0.8583526,-2.415693,-0.6769356,1.3891635
6.201991558074951,-0.094671786,1.3862416,-0.7658511,-2.4064555,-0.67269593,1.4144384
6.222066402435303,-0.11258216,1.3224043,-0.6461678,-2.3849258,-0.68284804,1.3672456
6.242480754852295,-0.12636265,1.2300893,-0.48311043,-2.3458502,-0.6866866,1.3081446
6.262407541275024,-0.16671288,1.0494081,-0.27312437,-2.251615,-0.66470784,1.1990901
6.282445430755615,-0.2511252,0.71985424,-0.007299578,-2.0786884,-0.56252724,1.0200853
6.302617788314819,-0.2511252,0.71985424,-0.007299578,-2.0786884,-0.56252724,1.0200853
6.323081016540527,-0.056515247,0.37520838,0.45271173,-1.7678065,-0.3851091,0.96960825
6.342933893203735,-0.408357,1.6268992,-0.3726223,-2.3715835,0.2527944,1.0474951
6.3629889488220215,-0.3252269,0.9791181,0.049563073,-2.08293,-0.36394128,1.0109712
6.383096694946289,-0.17476694,0.27091748,0.5713598,-1.328052,-0.33337578,0.64231426
6.403177261352539,-0.40271702,1.4281626,-0.24124122,-1.8592377,0.22908114,0.6412752
6.423662185668945,-0.342707,0.74821436,0.10247039,-1.8661335,-0.41228756,0.66134495
6.443696022033691,-0.342707,0.74821436,0.10247039,-1.8661335,-0.41228756,0.66134495
6.463783025741577,-0.18282048,0.2687359,0.47704864,-1.3752418,-0.3222387,0.49275932
6.483852863311768,-0.427314,1.3002384,-0.245536,-1.8769917,0.12725918,0.45207736
6.503918409347534,-0.32914338,0.4929726,0.23632297,-1.7783775,-0.42483798,0.4265888
6.524250030517578,-0.641576,1.8982116,-0.82754433,-1.9912114,-0.20495993,0.69088817
6.5442187786102295,-0.4598951,0.4553609,-0.07013743,-1.4757072,-0.5982037,-0.15211885
6.564507246017456,-0.1184904,-0.66313756,0.8056479,-0.4785932,-0.4737579,-0.33879897
6.584599018096924,-0.1184904,-0.66313756,0.8056479,-0.4785932,-0.4737579,-0.33879897
6.605116844177246,0.20491007,-1.2594569,0.9504519,0.25987604,0.74591905,0.14231668
6.624952793121338,0.46065912,-0.97750723,0.8029426,1.1401113,0.9974173,0.5733847
6.645061016082764,0.9624144,-0.97740316,0.65118533,1.748106,1.5494179,1.037447
6.665104389190674,1.0237614,-1.2061574,0.81622994,2.0450623,1.7899483,1.2604177
6.68522834777832,1.0581276,-1.2472484,0.83710843,2.1809878,1.8932986,1.3359599
6.705587387084961,1.0200565,-1.1986172,0.79865164,2.1998866,1.8821231,1.3648449
6.725470066070557,0.9404372,-1.0890698,0.69059354,2.1626494,1.8156307,1.403104
6.745919466018677,0.82025695,-0.89869803,0.4770789,2.087361,1.7132391,1.5082245
6.766030788421631,0.82025695,-0.89869803,0.4770789,2.087361,1.7132391,1.5082245
6.786135196685791,0.67162484,-0.6181106,0.11059823,1.9668192,1.5838679,1.7453907
6.806493759155273,0.71139705,-2.1019812,0.8628432,2.3302572,1.3532611,1.8728418
6.826420307159424,0.28058752,-1.2754761,0.6211457,2.1604464,0.9541816,1.3896511
6.8465025424957275,0.2010394,-1.1968448,0.33287853,2.167244,0.88833874,1.4275148
6.866931676864624,0.038868695,-0.9615923,-0.010913515,2.1482594,0.66122967,1.6121765
6.8867833614349365,0.2060368,-2.1509743,0.8865134,2.5009904,0.6115543,1.6431272
6.907362699508667,0.2060368,-2.1509743,0.8865134,2.5009904,0.6115543,1.6431272
6.927562952041626,-0.30030957,-1.6286374,0.60544115,2.1788793,0.16619155,1.1979957
6.9476189613342285,0.04247406,-1.3853818,0.44031727,2.3593225,0.48526356,1.37401
6.967792272567749,-0.10740343,-1.1925454,-0.02276933,2.3417392,0.47519198,1.6930512
6.987899303436279,0.1595039,-2.1684701,0.73573583,2.4327,0.8145322,1.8632164
7.007981538772583,-0.58667195,-1.3435688,0.31767002,1.8638605,0.013430324,1.3991351
7.0280303955078125,-0.2941077,-1.2194926,0.20924827,2.0550995,0.2772062,1.3697944
7.0480968952178955,-0.2941077,-1.2194926,0.20924827,2.0550995,0.2772062,1.3697944
7.068231582641602,-0.02173659,-1.6524608,0.7314732,2.381643,0.2806862,1.5767912
7.088319301605225,-0.48088473,-0.94227225,0.08709732,1.729159,0.1687445,1.6703126
7.108704566955566,-0.051623136,-1.6698167,0.937733,2.0403888,0.19525811,1.571639
7.128974914550781,-0.65007406,-0.44719017,0.26049563,1.1524546,0.077363044,1.4446108
7.149109601974487,-1.2227968,0.54674023,-0.36341628,-0.038731012,-1.1419238,0.25446305
7.169234275817871,-0.45590326,-0.25086936,0.03415245,-0.47791323,-1.1354733,-0.39276466
7.1892664432525635,-0.1702413,-0.35287258,0.2897675,-0.57256746,-1.3409483,-0.06264168
7.209647178649902,-0.1702413,-0.35287258,0.2897675,-0.57256746,-1.3409483,-0.06264168
7.229761600494385,-0.59869325,1.0349483,-0.7732846,-1.5085084,-0.5302191,0.72133905
7.249911308288574,-0.18449381,1.131094,-0.6992948,-1.8521254,-0.6431808,0.6413225
7.269937992095947,-0.06838003,1.0757333,-0.6735183,-2.0876288,-0.55505246,0.7755574
7.2900474071502686,0.006737382,1.3314756,-0.8855347,-2.2986977,-0.67762965,1.2187696
7.310107469558716,-0.07622984,1.2595837,-0.7660501,-2.340686,-0.6793875,1.2629592
7.330227851867676,-0.07272683,1.1941258,-0.58332556,-2.3124287,-0.681615,1.3438396
7.350341796875,-0.07272683,1.1941258,-0.58332556,-2.3124287,-0.681615,1.3438396
7.370434522628784,-0.11003992,1.1628488,-0.48626643,-2.3198013,-0.67422324,1.3355465
7.390497207641602,-0.12508105,1.0900772,-0.35181266,-2.3005595,-0.6664919,1.290386
7.410573720932007,-0.12357956,0.9885812,-0.1802971,-2.2588668,-0.6588133,1.2541883
7.430907487869263,-0.09204166,0.86977506,0.023506636,-2.1903863,-0.63058144,1.2237895
7.451025009155273,-0.17093304,0.52139693,0.24722813,-1.9714861,-0.5324858,1.0077287
7.4714014530181885,-0.54863864,1.816821,-0.7034734,-2.3989284,-0.014234724,1.1711318
7.491252183914185,-0.44354698,0.8921912,-0.124449424,-1.9905562,-0.46762243,0.6714434
7.5113465785980225,-0.44354698,0.8921912,-0.124449424,-1.9905562,-0.46762243,0.6714434
7.531425714492798,-0.3131667,0.3189022,0.27072346,-1.4932728,-0.56507725,0.49559924
7.551547050476074,-0.7014218,1.8722957,-0.8385272,-1.9274393,-0.19614479,0.8253911
7.5716118812561035,-0.50437844,0.64262104,-0.24172327,-1.6087852,-0.5740178,0.075552866
7.591702699661255,-0.29433432,-0.20799863,0.4700566,-1.232509,-0.61275613,-0.057243373
7.611782789230347,-0.6376741,1.4980538,-0.5908514,-1.8213029,-0.28967252,0.72777325
7.63187313079834,-0.46169877,0.14442527,0.18727542,-1.2907128,-0.62256116,-0.14473084
7.651917457580566,-0.76786923,1.5256513,-0.7782281,-1.7597954,-0.42851695,0.40274817
7.672001123428345,-0.76786923,1.5256513,-0.7782281,-1.7597954,-0.42851695,0.40274817
7.692111968994141,-0.44792107,-0.12783328,0.3021477,-1.0205792,-0.6568035,-0.4038327
7.712179660797119,-0.71563494,0.92248106,-0.3938897,-1.2543992,-0.61158,0.2435477
7.732609748840332,-0.28069064,-0.9214921,0.6901315,-0.5626815,-0.55470794,-0.91805106
7.752671480178833,0.3667779,-1.3317763,0.39337263,1.4043903,0.4374826,-0.25022224
7.772841691970825,0.89280677,-1.6115841,0.58443093,2.2641315,1.1066755,0.7033637
7.792846441268921,1.0248083,-1.1743886,0.22905931,2.3501263,1.5368686,1.4443669
7.8129072189331055,1.2585175,-1.0572956,0.17271462,2.35814,2.0500114,1.9362444
7.833202600479126,1.2585175,-1.0572956,0.17271462,2.35814,2.0500114,1.9362444
7.8534417152404785,1.2168237,-1.8204902,0.5005416,2.3994174,2.0233796,2.0356262
7.873470783233643,1.1152812,-1.0077674,0.260165,2.3915837,1.9215282,1.9619161
7.8934571743011475,1.1115267,-0.63849795,-0.15091385,2.222114,1.9977089,2.2360094
7.913565158843994,1.1281288,-2.135787,0.598605,2.4185498,1.851961,2.27568
7.9336488246917725,0.73252684,-1.0610436,0.18258947,2.3225281,1.4692892,1.90926
7.953718900680542,0.7764766,-1.9055256,0.48388028,2.4221528,1.4916309,2.0199614
7.974083185195923,0.5285424,-1.2868795,0.09608793,2.3856862,1.209517,1.8501238
7.994162321090698,0.5285424,-1.2868795,0.09608793,2.3856862,1.209517,1.8501238
8.014263391494751,0.54060996,-2.3018775,0.8603636,2.7615302,1.2174181,1.9171517
8.034355640411377,0.25982723,-1.6698407,0.4743651,2.4712625,0.8836201,1.501029
8.054431200027466,0.20241466,-1.5627965,0.13933855,2.510748,0.79733306,1.6269258
8.074519395828247,0.10225779,-2.396759,0.9279735,2.8969803,0.649263,1.6190629
8.094614028930664,-0.2848928,-1.9959098,0.5432852,2.4992614,0.39280155,1.2610537
8.114709377288818,-0.2848928,-1.9959098,0.5432852,2.4992614,0.39280155,1.2610537
8.135207414627075,0.11565974,-1.624024,0.33805823,2.6360426,0.72773635,1.5378282
8.15606141090393,0.11565974,-1.624024,0.33805823,2.6360426,0.72773635,1.5378282
8.176132678985596,0.05493197,-1.4428732,0.041047134,2.7668476,0.31811813,1.5799598
8.196491241455078,0.19450453,-2.4050207,0.779715,2.865226,0.7605701,1.8264601
8.216415166854858,-0.49995026,-1.8303382,0.32304662,2.319441,0.009857324,1.3429192
8.236478567123413,-0.19810888,-1.5974928,0.27862135,2.5232255,0.30130675,1.4301438
8.256558895111084,0.10195765,-1.3146244,0.15728405,2.5267725,0.55903405,1.6773362
8.276890516281128,-0.24995562,-2.1107557,0.90129507,2.362702,0.0715964,1.6683131
8.296844959259033,-0.24995562,-2.1107557,0.90129507,2.362702,0.0715964,1.6683131
8.316944360733032,-0.42370728,-1.2771143,0.53945285,1.9777863,-0.18902543,1.236408
8.337101697921753,-0.3058283,-0.87098604,0.23195295,1.8651742,0.21156812,1.5185876
8.357246160507202,-0.29201558,-0.96961135,0.51103836,1.1760947,0.39569438,1.5395818
8.377214670181274,-0.42180386,0.20536771,-0.06174349,0.6827389,0.612254,1.4512773
8.397334098815918,-0.06705837,-1.000193,0.66575074,-0.24253345,-0.74984604,0.07839163
8.417449474334717,-0.46566653,0.34365326,-0.31662798,-1.2684829,-0.027536888,0.8587422
8.438982725143433,0.13949235,1.2232611,-0.45403352,-2.1611314,-0.4840283,1.4566305
8.459068775177002,0.13949235,1.2232611,-0.45403352,-2.1611314,-0.4840283,1.4566305
8.479133367538452,-0.03939691,1.0903703,-0.6023709,-2.0860677,-0.556864,1.180367
8.499222755432129,0.0169497,1.1057893,-0.5531888,-2.183389,-0.6575914,1.2756495
8.519283294677734,0.050523072,0.95538485,-0.32635987,-2.0569751,-0.6105277,1.3306296
8.539381980895996,0.03780502,0.87646127,-0.14368741,-2.0172877,-0.61538035,1.344693
8.55954122543335,0.050871506,0.771989,0.0016649012,-1.9797785,-0.57980245,1.3238771
8.57979941368103,0.033255838,0.78337467,0.07437792,-2.0294516,-0.5716309,1.3476865
8.599984407424927,0.05719894,0.78127086,0.1492177,-2.031147,-0.5576451,1.3567412
8.620062589645386,0.05719894,0.78127086,0.1492177,-2.031147,-0.5576451,1.3567412
8.6401526927948,0.07167968,0.8175893,0.20562924,-2.0403152,-0.5177807,1.3438227
8.660266637802124,-0.3199269,1.540633,-0.7007608,-2.3432376,0.019322868,1.1264267
8.680298328399658,-0.29091254,1.0976107,-0.21201235,-2.0961244,-0.5415512,1.0203686
8.700398206710815,-0.21216324,0.8207983,-0.11992686,-1.6534066,-0.68656963,0.8979864
8.720837831497192,-0.23717383,0.3530888,0.17503178,-1.3836381,-0.6647321,0.62707365
8.74074387550354,-0.49615148,1.4101852,-0.4704734,-1.8283718,-0.2748585,0.97351235
8.760847091674805,-0.49615148,1.4101852,-0.4704734,-1.8283718,-0.2748585,0.97351235
8.780888557434082,-0.40442654,0.53773785,0.00011670031,-1.4979926,-0.6056599,0.33637446
8.800980567932129,-0.13818032,-0.20349687,0.5556453,-1.0291479,-0.60065705,0.16003744
8.821075677871704,-0.4598349,1.2823192,-0.36402118,-1.8155246,-0.10946347,0.6450869
8.841478109359741,-0.33171389,0.31968647,0.14735521,-1.5437021,-0.6259427,0.2360213
8.86141324043274,-0.31382033,0.4856217,0.00601227,-1.5432435,-0.49615237,0.45195866
8.881479501724243,-0.12452707,-0.42490026,0.7201414,-0.8503813,-0.5596301,-0.11433332
8.90160322189331,-0.06992021,-0.6881929,0.6670371,-0.78304505,-0.042726252,-0.46124443
8.921931743621826,-0.16449064,-1.9043684e-05,-0.066328354,0.37494197,0.41920254,-0.28887385
8.942018508911133,-0.16449064,-1.9043684e-05,-0.066328354,0.37494197,0.41920254,-0.28887385
8.962104320526123,0.12632811,-1.164779,0.9417542,-0.13373813,-0.4380468,-0.3308322
8.982212543487549,-0.16978185,-1.0156665,0.36249632,1.2849514,0.2456666,-0.40237984
9.002305746078491,0.17150536,-0.7087256,1.0482894,0.7480124,0.5689557,1.351355
9.022376298904419,0.22731334,-0.51045656,0.5726717,1.1114695,1.0717171,1.0864091
9.042455673217773,0.4814992,-0.47864985,0.37942573,1.3181562,1.4220909,1.3250586
9.062520265579224,0.6230295,-0.3259859,0.06579602,1.4974631,1.610063,1.686893
9.0825777053833,0.6230295,-0.3259859,0.06579602,1.4974631,1.610063,1.686893
9.10271668434143,-0.61739707,-2.0227776,1.0676472,1.5141157,-0.58188355,-0.45067126
9.12283730506897,-0.15229079,-2.1878514,0.481599,2.460464,-0.6066427,-0.33746028
9.142885684967041,0.69651276,-1.5559036,0.4189986,3.0935392,0.5488686,0.8717646
9.163305521011353,0.9295497,-0.8645465,-0.059805483,2.8884676,0.65603954,1.5829054
9.183401823043823,1.0465516,-1.8192888,0.7234947,2.6120934,1.1077,2.0336761
9.203566074371338,0.26134947,-0.761895,0.060449444,1.744787,0.93911815,1.934465
9.223591089248657,0.82356334,-1.9163059,0.84713817,2.178624,1.3086034,1.9397672
9.243841171264648,-0.112581044,-0.725623,0.1711762,1.4246448,0.88704705,1.7710311
9.263935804367065,-0.112581044,-0.725623,0.1711762,1.4246448,0.88704705,1.7710311
9.284082174301147,0.5416939,-1.6441675,0.96213967,1.9117292,1.0727245,1.7229892
9.30413818359375,-0.0602569,-0.51304245,0.4199395,1.3619516,0.825684,1.4673735
9.324188470840454,0.056315273,0.17116737,-0.10975317,1.0067415,1.1677461,1.643627
9.344297409057617,-0.4020189,-0.7884598,0.55293953,-0.33080384,-0.3102211,0.064402714
9.364448308944702,-0.35890657,0.74238014,-1.0954473,0.19476292,-0.25366184,0.0713938
9.384490966796875,-0.019549636,-0.30785605,0.3124393,-1.183713,-0.5234993,-0.005178008
9.404987096786499,-0.26663682,1.445529,-0.93058544,-2.3098955,-0.042503033,1.372695
9.425084352493286,-0.26663682,1.445529,-0.93058544,-2.3098955,-0.042503033,1.372695
9.445159435272217,-0.058603093,1.0595713,-0.5528695,-2.1051626,-0.6911465,0.92965317
9.465261459350586,0.012240768,0.82625103,-0.4476106,-1.9247184,-0.72951645,0.80481076
9.48531460762024,0.057898134,1.016751,-0.5284149,-2.0791092,-0.7619458,1.1215683
9.505475759506226,-0.014397859,0.9142544,-0.34614936,-2.1291234,-0.7263605,1.0804318
9.52550745010376,0.002742798,0.76688635,-0.06788287,-2.0513039,-0.70859253,1.0813563
9.558757066726685,0.002742798,0.76688635,-0.06788287,-2.0513039,-0.70859253,1.0813563
9.57881236076355,0.002742798,0.76688635,-0.06788287,-2.0513039,-0.70859253,1.0813563
9.59890341758728,0.060275078,0.57371587,0.22104251,-1.8982008,-0.66065836,1.0280603
9.619010210037231,-0.2904352,1.9558352,-1.0916518,-2.5836945,-0.16249433,1.15067
9.639050960540771,-0.23233716,0.9578159,-0.5360686,-2.0977018,-0.73851484,0.5561566
9.659169912338257,-0.2327936,0.39408648,-0.0343638,-1.6315227,-0.8486313,0.39542544
9.67923355102539,-0.06785506,-0.24581286,0.5223573,-1.1999984,-0.60061556,0.21629258
9.699322700500488,-0.4146146,1.138201,-0.36716372,-1.8336881,-0.14253482,0.5184818
9.719916343688965,-0.4146146,1.138201,-0.36716372,-1.8336881,-0.14253482,0.5184818
9.73999571800232,-0.29628953,0.129727,0.22973143,-1.5394453,-0.6497002,0.1169008
9.760344743728638,-0.61376774,1.4508699,-0.79724735,-1.8267666,-0.38414887,0.5089845
9.780274152755737,-0.36717203,-0.017496347,0.12633255,-1.2882675,-0.69889325,-0.38034067
9.800338745117188,-0.035954244,-0.7438251,0.73591506,-0.7372592,-0.5881693,-0.43554354
9.820430278778076,0.015667947,-1.2957143,0.66238886,-0.05572558,0.1053497,-0.77697134
9.840556621551514,-0.039775446,-1.1125071,0.38056207,1.3551612,0.66822714,-0.3592588
9.860607385635376,0.7505338,-1.6811166,0.63344085,1.8492329,1.3713335,0.9752788
9.880642652511597,0.9849706,-1.3126694,0.4043561,2.188705,1.8497494,1.5022022
9.900822639465332,0.9849706,-1.3126694,0.4043561,2.188705,1.8497494,1.5022022
9.920936107635498,1.0418067,-1.0483503,0.25128654,2.1650896,2.0753114,1.8378284
9.941067457199097,1.011711,-0.58879143,-0.14315838,2.041193,2.1097836,2.1909518
9.961485147476196,1.0791976,-2.0847387,0.6406693,2.2906857,1.88996,2.2592201
9.981534719467163,0.63610125,-1.0727277,0.1546295,2.1567824,1.606407,1.9141136
10.001611232757568,0.77961934,-2.1940842,0.8848482,2.5029063,1.6891145,2.0097027
10.02173399925232,0.43438917,-1.4786676,0.4357568,2.2159877,1.4626912,1.637495
10.042205810546875,0.43438917,-1.4786676,0.4357568,2.2159877,1.4626912,1.637495
10.061980247497559,0.36433336,-1.3299394,0.06969373,2.141416,1.4552228,1.8038758
10.082051038742065,0.3851595,-2.2907615,0.9276212,2.5416975,1.264032,1.8674338
10.102137327194214,-0.08414337,-1.8200957,0.44190043,2.1749196,0.9700517,1.5060863
10.122217416763306,0.17228928,-1.3342677,0.3572711,2.2846284,1.0054436,1.5353578
10.142368078231812,0.10570499,-1.3167332,-0.032503963,2.194472,0.91995066,1.7506292
10.16237998008728,0.034174174,-2.2464905,0.91628546,2.4263024,0.7654978,1.7756126
10.18246603012085,-0.5636003,-1.8182139,0.44616026,2.022216,0.32135025,1.3181432
10.202538967132568,-0.5636003,-1.8182139,0.44616026,2.022216,0.32135025,1.3181432
10.222638607025146,-0.36903992,-1.5982361,0.3915984,2.1208239,0.4096034,1.2900466
10.242729187011719,-0.23274836,-1.3374667,0.3496973,2.1560636,0.35839948,1.3737975
10.262784242630005,-0.14109668,-0.99980825,0.28539693,2.1169732,0.34241882,1.4866078
10.282872676849365,-0.20859581,-0.70933163,0.11997714,1.6329618,0.48379335,1.5007514
10.302961587905884,-0.13710323,-1.6729344,1.087927,1.7265137,0.09903455,1.0316172
10.323044300079346,-0.35073385,-0.5074164,0.4161251,1.402668,0.19600293,1.1354607
10.34310269355774,-0.6449299,-0.12916851,0.29489028,1.4827936,-0.11892107,0.76069885
10.363774538040161,-0.6449299,-0.12916851,0.29489028,1.4827936,-0.11892107,0.76069885
10.383882761001587,-1.0415819,1.0999283,-0.44269037,-0.6474861,-1.0480655,0.7081786
10.403974294662476,-0.16437732,0.34160346,-0.40927714,-1.030303,-0.67542875,-0.11325851
10.424022912979126,0.08493145,0.22403395,0.041140817,-1.2644049,-0.65839124,0.3128765
10.444106817245483,0.1381469,0.5559294,-0.047663815,-1.844305,-0.5023404,0.8465045
10.464209794998169,0.12515593,0.91641915,-0.38004726,-2.0386612,-0.57657737,1.3271575
10.484275102615356,-0.0019796928,0.90434146,-0.3386847,-2.1295342,-0.6127207,1.3028244
10.504378080368042,-0.0019796928,0.90434146,-0.3386847,-2.1295342,-0.6127207,1.3028244
10.52450442314148,0.016995909,0.9067234,-0.23930651,-2.1415188,-0.6205763,1.3582143
10.544562339782715,0.016204895,0.85702,-0.1474897,-2.113473,-0.6326167,1.3209865
10.564644575119019,0.021242412,0.7721759,-0.016288644,-2.079573,-0.62702686,1.2687209
10.584712505340576,0.051690027,0.6724663,0.14456406,-2.0275679,-0.60460204,1.2344178
10.604818105697632,0.10567181,0.5705498,0.3272755,-1.9363402,-0.56760204,1.1923156
10.624916076660156,-0.30660838,1.8569084,-0.751781,-2.660913,0.028466012,1.3454556
10.645001411437988,-0.19584885,1.0182744,-0.3860441,-2.1049213,-0.6340278,0.8350205
10.665445804595947,-0.24425986,0.5429679,-0.038986154,-1.6226861,-0.80466473,0.6015392
10.68572449684143,-0.24425986,0.5429679,-0.038986154,-1.6226861,-0.80466473,0.6015392
10.705678939819336,-0.14812538,-0.029043555,0.39207304,-1.3011799,-0.65372455,0.4361188
10.72571873664856,-0.57873815,1.6375953,-0.6677597,-1.8425864,-0.20344558,0.85571885
10.745821714401245,-0.3850219,0.4351437,-0.07134359,-1.5179155,-0.5842795,0.11430839
10.766076803207397,-0.14664647,-0.43329883,0.60780203,-1.0689323,-0.64918625,-0.075638175
10.786100625991821,-0.07897715,-0.6202052,0.38232613,-0.55890894,-0.48274255,-0.11071895
10.806154489517212,-0.24738252,-0.5470747,0.47102344,-0.17835733,-0.4008674,0.018715847
10.826228857040405,-0.11238186,-0.7811027,0.4980324,0.19533084,-0.4144253,0.099073574
10.846301794052124,-0.11238186,-0.7811027,0.4980324,0.19533084,-0.4144253,0.099073574
10.86638331413269,-0.0060536033,-0.60394526,0.86371714,0.29518184,-0.39148822,0.3905438
10.886476039886475,0.24093315,0.058593392,0.75067496,-0.49572173,0.6541483,1.0646272
10.906538963317871,-0.2262844,0.9634334,-0.34814563,-0.28944638,0.06691239,0.13022791
10.926622867584229,0.070216134,-0.48243606,0.28931785,-0.91576463,-0.5155086,-0.4393642
10.947064876556396,-0.022709189,-0.3042071,-0.3540225,-1.2549437,0.08783698,-0.46455756
10.966921329498291,-0.021753935,-0.5753401,0.49221522,-1.1699921,-0.40021595,-0.4130379
10.987645626068115,-0.021753935,-0.5753401,0.49221522,-1.1699921,-0.40021595,-0.4130379
11.00766396522522,-0.11753528,-0.2843065,-0.76858586,-0.07903907,0.19582655,-0.4611186
11.027708053588867,-0.060617104,-1.1502303,0.65393215,-0.6428201,-0.75526315,-0.617559
11.047873258590698,0.07822706,-1.3366985,0.09375047,1.1898954,0.12626952,-0.24321947
11.06790542602539,0.8433069,-2.0708587,1.1039063,2.1641765,1.2938992,1.3421168
11.08797001838684,0.9742056,-1.2814461,0.7735111,1.9330792,1.875943,1.3217996
11.108058214187622,1.0856507,-0.8179714,0.553769,1.8297293,2.1246269,1.5441147
11.128464460372925,1.0457458,-0.14615598,0.04435245,1.6201327,2.1766608,2.019008
11.148584842681885,1.0457458,-0.14615598,0.04435245,1.6201327,2.1766608,2.019008
11.168653011322021,-0.4601717,-1.9966327,1.0724182,1.4483067,-0.38477218,-0.14037825
11.18873381614685,-0.06662837,-2.0254028,0.37818587,2.304457,-0.29159352,-0.11365433
11.20882248878479,0.8964274,-1.1750332,0.3033602,2.6139178,1.1441442,1.5274074
11.228901386260986,0.9123931,-0.21873005,-0.34306943,1.9501781,1.5676904,2.2661154
11.248988151550293,-0.41641402,-1.9881614,0.8427855,1.3909981,-0.8188041,-0.3538541
11.269080877304077,-0.41641402,-1.9881614,0.8427855,1.3909981,-0.8188041,-0.3538541
11.28937554359436,-0.2288801,-2.1842513,0.44461608,1.9690034,-0.7723981,-0.38302568
11.30935788154602,0.59171003,-1.3022243,0.412766,2.6298609,0.4563776,1.1070967
11.32957148551941,0.8477243,-0.40524685,-0.16703247,2.2731867,0.92457014,1.7636243
11.34956407546997,-0.59025455,-1.8721019,0.8151341,1.0687292,-1.1255445,-0.73694164
11.369953155517578,-0.3139224,-2.0603018,0.33825412,1.9794769,-1.1677353,-0.6472662
11.390029668807983,-0.3139224,-2.0603018,0.33825412,1.9794769,-1.1677353,-0.6472662
11.41011905670166,0.570395,-1.0981444,0.4040043,2.709045,-0.059051428,0.81875485
11.430229663848877,0.91212994,-0.16807373,-0.39234686,1.9992464,1.1161019,2.010139
11.450316429138184,-0.2813301,-1.3634984,0.6304565,0.6155374,-0.64494866,-0.29307005
11.470443964004517,-0.22676623,-0.35059,-0.38140094,1.4893954,-0.6776466,-0.15254895
11.490500926971436,-0.45479962,-2.1661217,0.8058019,1.1367071,-1.6801687,-1.3342896
11.51058292388916,0.21166462,-2.1625733,0.5341943,2.1390295,-0.81710434,-0.3757095
11.530810356140137,0.780779,-0.7743758,0.108794294,2.4967914,0.04220369,0.5726549
11.550953388214111,0.780779,-0.7743758,0.108794294,2.4967914,0.04220369,0.5726549
11.571111917495728,1.2267251,-0.69830316,0.6625874,1.0570012,1.532677,2.3097556
11.591105222702026,0.35925958,1.2352611,-0.60450274,0.3156303,1.4935735,2.0558867
11.611438274383545,0.001325057,0.559865,-0.21658239,-0.9596834,0.2593127,0.69515675
11.631486415863037,0.17298816,1.0532674,-0.7577141,-2.0209038,-0.48248094,1.267189
11.651587963104248,0.19334996,1.0589768,-0.9120643,-2.1964254,-0.53039,0.9517458
11.671683073043823,0.22133595,1.2714182,-1.1053957,-2.2706223,-0.68915707,1.086811
11.691741228103638,0.19422388,1.2534165,-1.0274345,-2.354208,-0.66020906,1.0442452
11.711836814880371,0.19422388,1.2534165,-1.0274345,-2.354208,-0.66020906,1.0442452
11.731927633285522,0.1476037,1.2330606,-0.9118014,-2.36901,-0.6844663,1.0842067
11.75200343132019,0.08165753,1.1843677,-0.783555,-2.3553257,-0.70178944,1.1169465
11.772131204605103,0.05350606,1.1485816,-0.6273696,-2.3304777,-0.6615374,1.197281
11.792232751846313,0.005978898,1.0904074,-0.48868406,-2.2712088,-0.71578234,1.1913617
11.812323570251465,-0.077312686,0.9814558,-0.23779303,-2.1825883,-0.81078047,1.21305
11.83236312866211,-0.14296891,0.44405913,0.17694959,-1.7265868,-0.6495165,0.8294187
11.852467775344849,-0.2405009,0.869185,-0.013413256,-1.7253623,-0.27389783,0.867153
