liuyurong129/humanoid-gym/humanoid/data/robot1_actual_20250621-222223.csv
timestamp,joint_1,joint_2,joint_3,joint_4,joint_5,joint_6
0.0002760887145996094,0.0,0.0,0.0,0.0,0.0,0.0
0.020326852798461914,0.0,0.0,0.0,0.0,0.0,0.0
0.0404055118560791,0.0,0.0,0.0,0.0,0.0,0.0
0.060515403747558594,0.0,0.0,0.0,0.0,0.0,0.0
0.08057856559753418,0.0,0.0,0.0,0.0,0.0,0.0
0.1007375717163086,0.0033333333315266264,-0.0033333334135024545,0.003333333333333334,0.0033334394793954206,0.003331708033714634,0.0033332327162752117
0.12099218368530273,0.006666661616519734,-0.0066673536972828105,0.006666666666666668,0.0066667919591096554,0.0066644625551019274,0.0066665469403096
0.140974760055542,0.013333181614269564,-0.013334717516633713,0.013333157707104524,0.013333454688233175,0.013330257023486872,0.01333321914965273
0.1610424518585205,0.019999640653944724,-0.020002093085376812,0.01999964451353787,0.020000095194783043,0.019995722791515562,0.019999885598084445
0.1811380386352539,0.023332975047151767,-0.023335595624168256,0.023332977846871203,0.02333343092237769,0.023328560728851238,0.023333215868283456
0.20121312141418457,0.0299996502478638,-0.030003153507583806,0.02999964451353787,0.030000048524574212,0.029993052491512642,0.02999992426235302
0.2213132381439209,0.036666322746105484,-0.036670173512203946,0.03666631118020454,0.0366667107301398,0.03665826476303919,0.036666592743831244
0.24135923385620117,0.043332997661328684,-0.04333720449462083,0.04333297784687121,0.04333336750186653,0.04332318437559429,0.04333326586167147
0.261476993560791,0.04666633610591645,-0.046670724569878475,0.04666631118020454,0.04666669371293385,0.04665552886333218,0.04666660427592771
0.2816903591156006,0.05333301515256359,-0.05333777484335908,0.05333297784687121,0.05333334143254907,0.05331997558624562,0.05333328511577835
0.30173182487487793,0.0599996913337764,-0.06000469015256649,0.05999964451353788,0.06000000332334494,0.05998491822152565,0.05999995353169178
0.3219282627105713,0.0666663631072365,-0.0666714639587893,0.06666631118020454,0.0666666848288435,0.06665050683844126,0.06666660465307754
0.34208202362060547,0.06999969942475334,-0.0700048532717567,0.06999964451353786,0.07000002583888142,0.0699832459449853,0.06999992986282304
0.3620622158050537,0.07666637302755343,-0.0766716371449825,0.07666631118020452,0.07666670823503216,0.07664860745790071,0.07666657968010193
0.3821144104003906,0.08333304133371006,-0.08333833447816713,0.0766663111802045,0.08333335882089105,0.08331519274505354,0.08333326127015375
0.4025146961212158,0.0866663942038265,-0.08667195020481967,0.07333297784687118,0.08666664979423616,0.08664620596070707,0.08666663785233694
0.4226036071777344,0.09333306915396797,-0.09333872062150905,0.06666631118020452,0.09333334434632924,0.09331153637580802,0.09333328826899101
0.4426898956298828,0.09999975035620161,-0.10000555719065775,0.05999964451353786,0.10000005814441552,0.09997608492753575,0.09999993871973394
0.4628329277038574,0.10666643384212429,-0.10667240426488273,0.053332977846871195,0.1066667919847084,0.10664042355267976,0.10666658822114725
0.48284459114074707,0.11333306149752595,-0.11333888363142099,0.04666632661865898,0.11333342758819205,0.11331047611663889,0.11333320769660551
0.5030429363250732,0.11666639242353995,-0.11667221715874421,0.04333299310550429,0.11666676092152538,0.11664380944489587,0.11666654176188572
0.5231280326843262,0.12340395682586454,-0.12001810340062372,0.03683200416524271,0.12037994148630873,0.11964618431304357,0.12634841041095035
0.5432066917419434,0.13043499226691663,-0.12237699943689899,0.02998165630303675,0.12450142053836817,0.12248351101074345,0.13563227671463055
0.5637412071228027,0.13380593808504793,-0.12301114631049129,0.026747330828754783,0.12557232950917724,0.12417530578150315,0.141248333847393
0.5838513374328613,0.127164016385164,-0.12406793377828544,0.02024807033651914,0.12713732957743576,0.13277295747806342,0.1528799679851158
0.6039209365844727,0.12044000844732704,-0.12492697024396401,0.013704998749070984,0.12924554213561099,0.14193798974282842,0.16395692466619738
0.624032735824585,0.11735848706974111,-0.12598360033904632,0.016584485025280725,0.1321593861140086,0.14493316097468614,0.1676990751703993
0.6441075801849365,0.1111741096108221,-0.12784263628196868,0.015662496849290195,0.13794293212399758,0.150855724238202,0.1752319161615682
0.6641952991485596,0.10506379771969238,-0.1296654198275749,0.014560472305966651,0.14440101280355847,0.1558494271794579,0.1821193797567187
0.6847198009490967,0.09896455622460212,-0.13126229683216015,0.02004725320121621,0.1511331152563892,0.1601596942186681,0.18875622214411947
0.7048404216766357,0.09590923246984744,-0.132006894983634,0.022780019286003494,0.15456707631538522,0.1620517547824784,0.19201698848255136
0.7249119281768799,0.08974823835696513,-0.13309995433914285,0.014928145824040211,0.16107098244037668,0.16673689842793007,0.19887258690990198
0.7450320720672607,0.0835717078236968,-0.1337975520531124,0.020129015135773143,0.16777585261989186,0.17284870573249222,0.187481930729784
0.7661864757537842,0.0773878619604928,-0.13634033253279132,0.025669533190299472,0.1754661192319812,0.17538581650392712,0.19323237662667578
0.7862658500671387,0.07426536559755126,-0.1377951359064821,0.028503980238001433,0.17934114005369428,0.17633235286609594,0.19609279542821498
0.8063962459564209,0.06794384834437935,-0.14076442418977528,0.03429363521763201,0.18693002056074307,0.17811650192774656,0.2019850774864873
0.8264446258544922,0.06152936006289857,-0.14386735693083064,0.04023063859143781,0.19433222566150274,0.17981630912325755,0.20807432140723678
0.8465161323547363,0.05828803046932357,-0.1454974269433147,0.04325453776780084,0.19796521903982828,0.1806883511353043,0.21118883960591894
0.8666458129882812,0.0517455220721324,-0.1489202346432556,0.04939994681621409,0.20511782202125076,0.18258044931106132,0.21366949638291516
0.8867354393005371,0.058430753035818996,-0.15184659611299406,0.04230232947648824,0.21183868450020663,0.18520183298249457,0.21033739484756445
0.9069926738739014,0.05164551241430306,-0.15201889962939943,0.04809615051424526,0.21815697580183754,0.18897450025083895,0.19047403899336288
0.9270999431610107,0.048127850037501675,-0.15102449329547216,0.044242931571280265,0.22107476832882186,0.19156394476097183,0.16250833287257074
0.9471697807312012,0.041252055672431676,-0.15014126655286314,0.04314980243308391,0.22795159879239174,0.19494894473772392,0.11697053823570552
0.9672496318817139,0.03778591937981808,-0.1500901218870474,0.04597743820043197,0.23146957919392047,0.19675997625404107,0.0967317553169366
0.9873373508453369,0.03068854339903906,-0.14852850859541325,0.03815652030813246,0.23839600102236946,0.20068122203605146,0.042007934362839144
1.0076866149902344,0.023793487207594857,-0.1485599875140835,0.04368986529393859,0.24620300268951967,0.20247865879138582,0.0035568388872463004
1.027620792388916,0.016830231063359236,-0.14865872504546468,0.04927029152682566,0.2541077291633638,0.20386996368960894,-0.036322449007358724
1.0477235317230225,0.013246961820672882,-0.14814944300231322,0.045369752485296934,0.2579565172095887,0.20484489138048026,-0.06194032002750226
1.068110704421997,0.006289964194686474,-0.14807059065705735,0.04417782446922214,0.2663067551568634,0.20493888797725707,-0.10343162335252573
1.0880165100097656,-0.0012386707358083868,-0.1474287894265418,0.04340034120993901,0.2726737792168296,0.21289220722470548,-0.1733067540951444
1.1081807613372803,-0.0050257777575442135,-0.14696328722109728,0.039634269313567984,0.2760276392756544,0.216687653084862,-0.20781099114571672
1.128356695175171,-0.012603652032299463,-0.14694552417047177,0.045604941349253414,0.2828147097323029,0.22461420637698443,-0.271517363384642
1.1483888626098633,-0.02058483125279799,-0.14578345512981483,0.0383043870722745,0.2896336259663734,0.23364781238094115,-0.3444052212753893
1.168447732925415,-0.028473428324762372,-0.14582414373805103,0.04442059456420118,0.2968444800305712,0.2287037461376387,-0.4077245937849466
1.188544750213623,-0.03256142231895212,-0.14538049407212045,0.0407980544393143,0.3009471488657841,0.2267783051553238,-0.4637506425851612
1.208721399307251,-0.04064529890880092,-0.14495191398369808,0.040249444570409756,0.3084768402383032,0.22048724119780364,-0.5335984703716702
1.2287068367004395,-0.04851086176488249,-0.1451448379998624,0.039657200427193624,0.3161123794321444,0.21948645058664146,-0.6003156608490767
1.2489426136016846,-0.05268624401499553,-0.14495198862483552,0.036007992835012596,0.32051325704103517,0.2251185033954885,-0.6385436498549631
1.26930570602417,-0.06125163900912765,-0.1458629429770809,0.041912405231735124,0.3278387214326323,0.23805715977893602,-0.6288929905865621
1.289919137954712,-0.06962970546914564,-0.14672750495587766,0.04788389667239743,0.3369929212953649,0.25088329314348107,-0.6366682381642362
1.3099603652954102,-0.0742037138097991,-0.14642206254613988,0.044188536315537146,0.3423168521223789,0.25920366732995237,-0.6638593520290055
1.3302028179168701,-0.07863417911659397,-0.14619149610336601,0.04052700678254624,0.34769563847462853,0.26363673362846973,-0.6949786957929932
1.350271224975586,-0.08737902220502627,-0.1467982054364723,0.04653134553533782,0.3578831980967169,0.2721725517728915,-0.7232667348028604
1.370284080505371,-0.09206887373882831,-0.14653014560059277,0.04290461054373264,0.36323007202187324,0.2778221303744279,-0.7388768932453003
1.3904192447662354,-0.1015377643308478,-0.14608263481842187,0.04211477213004074,0.37434489953044786,0.2879473369719369,-0.7361715512465654
1.4104664325714111,-0.11155549156549939,-0.14502390371443533,0.041242314438235804,0.38521409878546237,0.29791756449518597,-0.701642725052048
1.430574893951416,-0.1166738782607246,-0.14433049457156893,0.0378103664970449,0.39110789721258454,0.30356552265207404,-0.6838413156917152
1.450650930404663,-0.12663290164173888,-0.14389654218586842,0.043271872850433886,0.4020851751058438,0.3111300907641955,-0.6558284269305716
1.4706952571868896,-0.13632218829622902,-0.14452767307307327,0.04848423337975524,0.41052167164984854,0.32304767645665877,-0.6535184393782985
1.4908108711242676,-0.14166333779609247,-0.14457307192727292,0.044971962933134664,0.41516258164915937,0.32649098126537257,-0.6455149328608722
1.5109097957611084,-0.15272414353669084,-0.14494812180023475,0.04425435840605379,0.42426855145721504,0.34636332323348684,-0.630836534258088
1.5309925079345703,-0.16340856195385228,-0.14534760499628638,0.044905576726316794,0.4351192777289474,0.3599973950886829,-0.610536154208863
1.5510385036468506,-0.16960573680777827,-0.14492686605131486,0.043023341851813744,0.4428564082084021,0.37403168816774063,-0.5972161706847614
1.5711803436279297,-0.18125427605468822,-0.14449657527641463,0.047620639264407655,0.45518772341231994,0.39095692612876554,-0.5920077721662956
1.5912072658538818,-0.1919984409311894,-0.1451545238611581,0.05259351208813183,0.4669517653317282,0.4006362282321581,-0.5788901922106204
1.611581563949585,-0.2030740870667811,-0.14601602508681402,0.05779947337225314,0.4813867640665324,0.4162416128798067,-0.5624588816011596
1.631497859954834,-0.2018454789397997,-0.14607577280492673,0.06033970524849914,0.4892429460500234,0.4165502110394463,-0.5556246526169916
1.6516098976135254,-0.20644288735047275,-0.14620176043874072,0.06523167559789839,0.5012555431588435,0.4255015573657229,-0.5391393047546116
1.6716618537902832,-0.21131791185863447,-0.1467814959404876,0.0700063040256061,0.5106790721192291,0.4419668994806991,-0.5289485601104106
1.6920802593231201,-0.21046990642718477,-0.1466682781378363,0.07234608831737109,0.5159982307959612,0.4459647883020447,-0.5248270226607399
1.7122061252593994,-0.20866835300745462,-0.1460470795201291,0.07692124539931236,0.5248489071505721,0.4517616332039546,-0.5116439753122485
1.7322776317596436,-0.2063702535076158,-0.14530945156203426,0.081361092225488,0.5287990661933394,0.45239178154815435,-0.49645021566436354
1.7523515224456787,-0.21696405177954017,-0.14582522704076728,0.08566841291627939,0.525436144207769,0.4642973011754782,-0.46354691587233776
1.7724597454071045,-0.2224704239751315,-0.14582556105136074,0.08776004340311096,0.5243031419829778,0.4678912647360306,-0.45070517538064847
1.7925398349761963,-0.23363860398976533,-0.14573386924095386,0.09182567520821089,0.5189421849359821,0.4769136186521792,-0.42111175709146875
1.812586784362793,-0.2450896695211899,-0.14565895997290557,0.0958397496260644,0.5123458516719778,0.48895543664827956,-0.39506964413660517
1.8327391147613525,-0.2508921281292139,-0.14574037592889993,0.09788672708980915,0.5094615486015984,0.49612140659935894,-0.37520569316264685
1.8528084754943848,-0.26264313381198445,-0.14595367426571104,0.10202439814352383,0.5043563145206602,0.5112445441806488,-0.3355839704689048
1.8728785514831543,-0.2745640957030764,-0.1462675355741651,0.1062266690777508,0.5001888526687267,0.5273933854477693,-0.2971417776794187
1.8931057453155518,-0.27407416934321804,-0.14624007259864993,0.10830085840601976,0.4980760366429481,0.5347578910354123,-0.278088061848068
1.913078784942627,-0.2796480527868392,-0.14649302567381695,0.11250009860156668,0.4949384872541084,0.5531547899841466,-0.24418957014769255
1.933164119720459,-0.2917665596355014,-0.1470190068191015,0.11683494622402561,0.4922337836887167,0.5711934667181578,-0.19719909854976486
1.9534125328063965,-0.29785781721068605,-0.14736664514315304,0.11903368152149209,0.49130426539115984,0.5806331008881698,-0.17445161817546787
1.973571538925171,-0.3101041109734805,-0.14815002552615134,0.12347787635335669,0.48998128183155465,0.5996040452808894,-0.1313845874016682
1.9936168193817139,-0.32161722568211487,-0.14903185500278138,0.12797841428780396,0.48934866859400405,0.6188526175855368,-0.08849822711044687
2.0137133598327637,-0.3212080287348028,-0.14953185225443547,0.1323785112408592,0.48924269781790214,0.6388235793277353,-0.04771461723283919
2.03381609916687,-0.32741663475285765,-0.1501079713709704,0.1346381251237337,0.4894474660099257,0.6507267936852587,-0.02719889788680896
2.054036855697632,-0.33362788855770653,-0.1506703520320496,0.1369248016898811,0.4897824689141895,0.6617064012861713,-0.010246855086374733
2.074154853820801,-0.3334212631792179,-0.1512310472012661,0.141406756862127,0.491610502814908,0.6836887541896466,0.02427934876857197
2.0943546295166016,-0.34557390043844616,-0.15262054187525773,0.1460352902054333,0.4937092695286029,0.7080482121348157,0.05350126738075584
2.115105152130127,-0.34515800515710815,-0.15346204606684752,0.15064891155243737,0.4980321916523299,0.7300089360820883,0.06124722026166969
2.1352076530456543,-0.3446628746301099,-0.15394589709137851,0.15301085305744913,0.5011301014064108,0.7384733880455218,0.05532521798609721
2.1553573608398438,-0.3434633342443185,-0.15481460459871071,0.1577822678942016,0.508008374770172,0.7512334112488951,0.048396082793899044
2.1759190559387207,-0.3429606424242628,-0.15543082774742895,0.16016003425685835,0.5106650858835826,0.7613009561312503,0.04552089592730862
2.1960365772247314,-0.34198499937882026,-0.1565317543285661,0.16491638929212227,0.5165151823896248,0.7806104727969921,0.039398088273642516
2.2161054611206055,-0.3406999601152015,-0.15619464396461316,0.16979791397569383,0.5285498584333675,0.7778767201606938,0.028679160881141412
2.237396240234375,-0.3400548372443299,-0.1560232840613731,0.17224357648543565,0.5348457744472616,0.776728454916716,0.023104489360569223
2.258307695388794,-0.3394059878204825,-0.15585410435459265,0.17469319341022882,0.5413296807765492,0.7757671739853899,0.017385985299640846
2.2789294719696045,-0.33790597459218236,-0.15576158714575405,0.17968229776979355,0.5550594727431322,0.7762154036633023,0.005335617111258046
2.2990314960479736,-0.3370639443143454,-0.1558391812276364,0.18222142912358488,0.5623525689700465,0.7777271496838981,-0.001027677998316841
2.319114923477173,-0.3353889713933254,-0.15602613343947497,0.18731366635862012,0.5776661976223242,0.7817558072461197,-0.014293721418218462
2.339179515838623,-0.3345526645948965,-0.1561435155033953,0.18986799662696396,0.5856951439964726,0.7843224303548506,-0.021200839111093748
2.359262228012085,-0.3328732695031771,-0.15644625624745648,0.19499541680929264,0.6025115928572511,0.7907010129657135,-0.035567660631996484
2.3793447017669678,-0.33116490186982517,-0.1568746264309407,0.20015264630134208,0.6203393002459903,0.7989141578132194,-0.050659851672618675
2.3995187282562256,-0.3293969842304739,-0.15747565748760511,0.20534651836487464,0.6391523840308704,0.8091306080612714,-0.06644200121425917
2.41951584815979,-0.32848023578903424,-0.15785592113774422,0.20795960217062204,0.6489147481715655,0.815039945919727,-0.07457702649853508
2.4396324157714844,-0.32656902411718236,-0.15878496855176094,0.21321384731719947,0.6690949470077329,0.8286130693975038,-0.09127588587394433
2.4601807594299316,-0.3251634698573784,-0.15971773925281196,0.21590780964142472,0.6777618821230376,0.8393164615157819,-0.09850385481521191
2.4803056716918945,-0.3220416663658601,-0.16200020639904789,0.22138679796466207,0.6948361255549116,0.8626402454017247,-0.11270403628684197
2.5003631114959717,-0.31855226886940763,-0.16477724650980197,0.2269655702313847,0.7114892118384623,0.8875093786269205,-0.1264541354445058
2.520598888397217,-0.31676058353250813,-0.1662500652021091,0.22973955021034206,0.7195391082752006,0.9006135483071599,-0.1330682281029696
2.5407156944274902,-0.31348373666568224,-0.16905269469681247,0.23513711679314253,0.7364645291803685,0.928141975157329,-0.1467205255637553
2.5607316493988037,-0.31018270174355556,-0.1719965009432852,0.24059269291964783,0.7545912837713957,0.9549045630968495,-0.16107826457510463
2.5808193683624268,-0.30845334118345913,-0.17356096435775892,0.2433740910384063,0.7641103123185895,0.9678494438882297,-0.16851707700704527
2.600904703140259,-0.3047876652262552,-0.1769180108584428,0.24900570287121998,0.7830355209357216,0.9935265666331262,-0.1831799666207775
2.621349573135376,-0.3008545999838434,-0.18056025324161554,0.25472590315671306,0.8017212748213557,1.0187458797808762,-0.19749539612880151
2.6411406993865967,-0.29878964419399573,-0.18248285734401232,0.25761856944817507,0.810943985578871,1.031113372198189,-0.20450405033056787
2.6612374782562256,-0.29448307511246996,-0.18650262579202156,0.2634626561619541,0.8291742864577247,1.0554413115228065,-0.21824247828089377
2.681321859359741,-0.28995883168370207,-0.19071046679330408,0.26933552922763837,0.8464508554650184,1.0815538884905156,-0.23112604040386145
2.702601194381714,-0.2876112994537828,-0.19289940283098625,0.2723018413201873,0.8549022732750926,1.0941595363010728,-0.23738617968524386
2.7227134704589844,-0.28276982102094117,-0.19746900520300856,0.2782934440536543,0.871574637840856,1.115636125996271,-0.24972251735198409
2.7428081035614014,-0.2779729241124101,-0.20170201484175118,0.28407480509491584,0.8878501311074105,1.1382584725703642,-0.2615567856944947
2.76314115524292,-0.2729013595108749,-0.20606324536334278,0.289817837522891,0.9009623150712202,1.1595379556706136,-0.27137371735045995
2.7832345962524414,-0.27031168082930557,-0.20834432919578577,0.29268200190222976,0.905906934450788,1.1700600831821464,-0.2753407919033866
2.8033487796783447,-0.265019273320306,-0.21298579461783543,0.2984431664187261,0.9158879273151626,1.1915015944042382,-0.2832807508730282
2.8233869075775146,-0.26621293232398163,-0.21763876104087646,0.3041990148550167,0.925654748573187,1.2153199995908115,-0.2909993272796246
2.8434624671936035,-0.27010016233369427,-0.2199595865425754,0.30707823464684175,0.9306753163518129,1.2282205841184657,-0.2948922746359599
2.863560199737549,-0.2645138287115655,-0.22480355493185666,0.31293185579231997,0.9408538722672146,1.2502244092647805,-0.30280273387821066
2.8836357593536377,-0.27210602545103396,-0.22951756062151513,0.31875070565360114,0.95110724118813,1.2761266540743386,-0.3106104246201283
2.9037585258483887,-0.26924698158252086,-0.23195892067324358,0.3216952842920866,0.9562343790247202,1.287108786386992,-0.3145440366067985
2.9238240718841553,-0.2700268316194046,-0.23683815929136967,0.32760002190864507,0.9665554302658953,1.3112900005242087,-0.3223447073065227
2.9439191818237305,-0.27734885550322463,-0.24169101508223734,0.3335212183948079,0.977337099204444,1.3377487553633776,-0.33023275482329306
2.9646806716918945,-0.2779763970496736,-0.24664687540347272,0.3395032064201072,0.988428079673568,1.3624481861734052,-0.3382195515898927
2.9848015308380127,-0.27492294451961324,-0.2491717726325278,0.3425197734879973,0.9940015642674879,1.3740961446194042,-0.3422149638896334
3.004892587661743,-0.2819531836817255,-0.2541083206703025,0.3485427566799641,1.0053778008617806,1.401571483551662,-0.3501609151158681
3.024984359741211,-0.28891141688594707,-0.25905855396472016,0.35459478078595824,1.0169487388383478,1.428918254991442,-0.35811574424688214
3.0450565814971924,-0.29236062690130826,-0.261545164831681,0.3576342843196195,1.0227535723882115,1.4423598321906512,-0.36207436800771436
3.0651423931121826,-0.29923323542152985,-0.2664823446486745,0.3637047133163036,1.0341089804003625,1.4684857754319847,-0.36986223151690745
3.085261821746826,-0.30700607647071865,-0.2705032989196948,0.36958520132653117,1.0410400248028275,1.4859135511892754,-0.3757330645123537
3.105740547180176,-0.315344051663224,-0.27436841050261174,0.3751087491108793,1.04632777104724,1.499859654755245,-0.38149486121147613
3.1257851123809814,-0.3194787663332987,-0.2763149158427132,0.3778652741118615,1.0492671440688908,1.5069812776359561,-0.38448443904337554
3.1458780765533447,-0.3150555101656457,-0.28007079982006583,0.3830842281695194,1.0530297737514613,1.5141489677036262,-0.3902675663309743
3.166759967803955,-0.31033295268936134,-0.2837580894678944,0.38822816243435465,1.0567718960365278,1.5193308773711092,-0.3962545554577471
3.1867775917053223,-0.31414588261405785,-0.28560437328438537,0.3908364329084093,1.0595991251553112,1.5233403863866908,-0.39945743772433556
3.2068657875061035,-0.3217589255384856,-0.2891599145363054,0.3960852731332314,1.0659173611784376,1.5323619278533804,-0.40603621111236854
3.227468967437744,-0.32572836025575386,-0.2907730057780621,0.39868665661414554,1.0691923821131741,1.5367050163783667,-0.4093711197619855
3.247570514678955,-0.33399773729815785,-0.2938458533424552,0.40380909588173364,1.0753548573570841,1.5441814675035541,-0.41601409035160336
3.2676591873168945,-0.3428113921994162,-0.2964171164082903,0.40884063005684457,1.081388139672953,1.5510616002239352,-0.4226878289802291
3.28804087638855,-0.35204627061816834,-0.2986557780160534,0.4137932468337786,1.0877158810755403,1.557419474709664,-0.42949456139918757
3.308138608932495,-0.35673434310382723,-0.29975428404774235,0.4162626750414269,1.091021426880802,1.5605661769534438,-0.4329402712252319
3.3283333778381348,-0.3662520427790278,-0.3019916836940285,0.4212777206385927,1.0977208449234417,1.566671647720184,-0.4398445470345945
3.3485898971557617,-0.37126941406603303,-0.30308399279720094,0.42399264783634266,1.1011261511543302,1.5701163287211939,-0.4432230577723898
3.368617057800293,-0.36917193158840683,-0.30492084156503685,0.4291808060137557,1.1057289061743245,1.5755955339647894,-0.44969853809251437
3.3887062072753906,-0.3794654045391962,-0.3071394165717948,0.4345807498109548,1.1124674677490798,1.5825614429436452,-0.45639902525057974
3.4093971252441406,-0.3776887436736411,-0.30878638416465315,0.4397659034363845,1.1175003458639468,1.5872253316859104,-0.46269536783503223
3.4294774532318115,-0.38277757641867693,-0.30978270688793996,0.4425329082124779,1.1217498876167444,1.5907929097037459,-0.46593596681954036
3.449890375137329,-0.38712129658319583,-0.31160652615797685,0.4478513979401115,1.1279490937985654,1.5957595424492563,-0.4721016360044177
3.4702506065368652,-0.3873800474456413,-0.31335664457579687,0.45301953048561583,1.1326988043630992,1.5990544440177477,-0.47808688844754016
3.4903252124786377,-0.3883381952709632,-0.31429777536690745,0.45562543615414236,1.135290195598089,1.6007597953981507,-0.48110990972787515
3.510425329208374,-0.39158862018686763,-0.3163480702890791,0.4608686325647068,1.1407726786474972,1.6041096470211154,-0.48719976429250994
3.5305371284484863,-0.3899264068411266,-0.31831145281077194,0.4659437705182333,1.1450079373802018,1.6055535481778334,-0.4931503313105548
3.5506086349487305,-0.39501779007555177,-0.31960853794486904,0.4686803146911661,1.1483617724513557,1.6083285022257345,-0.49630536674175674
3.570681095123291,-0.3987451717950604,-0.32201985149348633,0.4740756766980455,1.1555408088538,1.6130877537878225,-0.50265526555765
3.590782642364502,-0.4026567421543283,-0.3244521552856944,0.4793712262985791,1.1618941465404897,1.6162327621318995,-0.5090002821825327
3.6114118099212646,-0.40736457097422846,-0.3257938994932813,0.4821420492976174,1.1662550668968725,1.6195103501639283,-0.5122938973917693
3.63151478767395,-0.40503900397625575,-0.3283440236669254,0.4873867854169417,1.172766235240965,1.624416943706817,-0.5189802428558385
3.6516306400299072,-0.4146085281619978,-0.3311733897791161,0.4928579131694196,1.18111578357237,1.6302573773141402,-0.5255495076083103
3.6716952323913574,-0.4122204860383778,-0.33383069054223397,0.4980556708480054,1.1875137621214322,1.6349959450411893,-0.5323043886399769
3.692103147506714,-0.4171335222607895,-0.33538765779137114,0.5007154511514973,1.191069090486671,1.6374852438679726,-0.5357438615192829
3.712000846862793,-0.42063368711478066,-0.3383618694506136,0.5059892484605683,1.1982179035195322,1.6428588796031074,-0.5426288516129137
3.73201847076416,-0.42471600275187815,-0.34133099375357845,0.5112479335379,1.2046758644991138,1.6471731529354674,-0.549389903347211
3.752103328704834,-0.42963159287207175,-0.3428546313835828,0.5139953490879605,1.2093072149735695,1.6501944494242766,-0.5528666135572134
3.7722201347351074,-0.4274703582415497,-0.3456585304279436,0.5192422752033233,1.216582375851219,1.6549259057708532,-0.5596765847511125
3.792320728302002,-0.4256863421800345,-0.3485871076284954,0.5244145021230309,1.2226026041055829,1.658359994200952,-0.566418833228269
3.8123974800109863,-0.43076962243918937,-0.35022642045843144,0.5271290212421045,1.226706773578408,1.6606066554433492,-0.5698695566307381
3.8324697017669678,-0.43386480300153396,-0.35364305480768304,0.5322528876736078,1.2340489726559631,1.6651778216659006,-0.5768860076409512
3.852573871612549,-0.4371994839269544,-0.3571581809225614,0.5373246717650928,1.2405824828203889,1.6690850898558542,-0.5838573326323608
3.8737030029296875,-0.44173146656880663,-0.3589634054418405,0.5399589438029779,1.2447791151919352,1.6716851884543853,-0.5873874811567832
3.8939805030822754,-0.4388445477671225,-0.3623931906138008,0.5448593279863643,1.250527951635248,1.6753405515284916,-0.594344053566956
3.9139652252197266,-0.4480858129817904,-0.36611348326147214,0.5500701593561249,1.2582867582787798,1.6798454717964688,-0.6013737589155008
3.93402361869812,-0.4548978119024526,-0.3698116368452736,0.5552985152360658,1.2667096496203902,1.6852670876654714,-0.6084470732249272
3.9541146755218506,-0.45339488275743456,-0.3715957575078703,0.5577507358225978,1.2698171886239684,1.6873830555962621,-0.611958250721354
3.974252462387085,-0.4567974875305972,-0.3753788050911117,0.5627382188475966,1.2759699632831893,1.6907271296553525,-0.6189632589334867
3.995103359222412,-0.461356438546296,-0.3773292173394716,0.565352238541718,1.280045767963768,1.693039094036637,-0.6224949691554894
4.015294551849365,-0.47028416070154183,-0.38124324633016515,0.570633565175699,1.2888865473281301,1.6985745625301023,-0.6295915152949076
4.0353169441223145,-0.46753085246913256,-0.3849405773796415,0.5754239834489252,1.2948582292826671,1.7024422515161575,-0.6366979237552458
4.055396318435669,-0.4765914462260013,-0.3890454140622467,0.5806843449200481,1.3031129029291402,1.7070439537382487,-0.643774440097342
4.075479745864868,-0.47514660020743105,-0.39092820329587447,0.5830803424611845,1.3063657132376514,1.7090707399482346,-0.6473462785884662
4.095568895339966,-0.47842511211315636,-0.39497674367134167,0.5880490733297717,1.3130109285732434,1.712469997262106,-0.6544458085263127
4.1156861782073975,-0.48135579346496293,-0.3990371741493943,0.5931024393467789,1.3207918922512611,1.716958366311372,-0.6615656635819032
4.13628888130188,-0.4845367818900897,-0.4031831718892072,0.5980738982485041,1.3277290859391482,1.7204785115777197,-0.6686886660009377
4.156376361846924,-0.488988631951003,-0.4053757037737092,0.600728135173437,1.3320183424003356,1.7226932095262368,-0.6722288773776742
4.1764960289001465,-0.4862080637672344,-0.4093064380512159,0.6054243137874652,1.338678701705713,1.7267232345568644,-0.6794372757411771
4.196563720703125,-0.4951294476190065,-0.41377289196441436,0.6107185256844045,1.3472009626324808,1.7308739906560113,-0.6865044083636422
4.216655731201172,-0.4935950452774643,-0.41576129057442657,0.6130945210398435,1.3510260429128131,1.7332458526705965,-0.6901091198911286
4.236758232116699,-0.49672378022892516,-0.4200862193795801,0.618060619516228,1.358395775495091,1.737007382860025,-0.6972414268727963
4.25683856010437,-0.49961166301328114,-0.4244304990622315,0.623091547425624,1.3666295203042447,1.74132803153111,-0.7043650181584243
4.276907682418823,-0.4982317151228362,-0.4265306448233702,0.6254149749770631,1.3698877391459916,1.743120330869866,-0.7079697245580907
4.297003984451294,-0.5071761270658048,-0.43122618466802787,0.6307087853752941,1.3783366944364313,1.7467012952786294,-0.7150026187805775
4.317090749740601,-0.5041704894685837,-0.4354402120563682,0.635422011721943,1.3860103020012848,1.751220945596323,-0.7221924805292492
4.337180852890015,-0.5086558167924806,-0.4378247136390914,0.6380691594405541,1.3902747733232594,1.752931584907738,-0.7257042997697543
4.357396841049194,-0.5113970541482159,-0.4423524763050578,0.6431514682583555,1.3992296985367039,1.757347516868228,-0.7327825485659601
4.377532958984375,-0.5143333691336979,-0.4469741144469952,0.6481772669517359,1.407484420255525,1.7610647021607704,-0.7398616549496463
4.397725343704224,-0.5170748535744479,-0.4516469673668535,0.6532838057454216,1.4164443490372476,1.7652763565004947,-0.7469006175942751
4.418023347854614,-0.5153663681461013,-0.4538548511801395,0.655698595852031,1.420961642319529,1.7677719299322887,-0.7504485362944888
4.438076734542847,-0.5243429020445272,-0.4588863410875659,0.6610319427473297,1.42955554125524,1.7702532833572984,-0.7574135142209497
4.4581053256988525,-0.5208325958460652,-0.4634453871663796,0.6659325135974844,1.4389503782711084,1.7754751508505968,-0.7644459571104649
4.478169679641724,-0.5253160552463396,-0.46600046221154673,0.668613935465002,1.4433251702468193,1.7765537943307415,-0.767910227147395
4.498257398605347,-0.528083016526541,-0.4708993247717159,0.6737511603168215,1.4525008153010617,1.7799132777192677,-0.7748836958279182
4.518415212631226,-0.5308281995554577,-0.475842474603997,0.6788895470905704,1.4616759071566432,1.783197377500537,-0.7818313534892956
4.538750410079956,-0.5353051810133368,-0.4784837452135576,0.6815877867064538,1.4660425221668634,1.7839117587420563,-0.7852788345260637
4.559123516082764,-0.5318937338285804,-0.4832641111216392,0.6864820468287086,1.475717440688532,1.7883830402739755,-0.7922337889594402
4.5790510177612305,-0.5408269194859102,-0.48864258582241205,0.691893375200678,1.4844497766269302,1.7894792752693924,-0.7990954706776915
4.599082708358765,-0.5374639958987135,-0.4935502702655843,0.6967770111027073,1.4941925001063434,1.793571837897711,-0.8060028332378609
4.619275331497192,-0.5419503370100678,-0.4962708318733331,0.6995567355616905,1.4989622609373188,1.7937625561490824,-0.8093570794232592
4.639307498931885,-0.544860990163457,-0.5014807914807904,0.7048556614380651,1.509311882362567,1.7955476507228214,-0.8160965198694629
4.6594016551971436,-0.5477432451294587,-0.5067371707168415,0.710155786372209,1.5196510777848542,1.7972291060293843,-0.8228174911912545
4.679535388946533,-0.5522003432833484,-0.5095480777811199,0.7129646748756625,1.524404784771397,1.7970176446955446,-0.8261487969787742
4.699617147445679,-0.5490367290381895,-0.5146564649954727,0.717999016232175,1.5356028701719038,1.7999344284302043,-0.8328822777413077
4.719732999801636,-0.5456530150589604,-0.5198900162219791,0.7231143026662014,1.5462694985167955,1.8020224293668174,-0.839506445110181
4.739825248718262,-0.554480552699119,-0.5256538420506042,0.7287549635108227,1.555443407053478,1.800892692325813,-0.8461352588709273
4.759906768798828,-0.5529184193872515,-0.5283000283164871,0.7312663740327991,1.560825459037056,1.801837894306384,-0.8494326931606556
4.780016660690308,-0.5499957569206176,-0.5333007541933854,0.7361420536836142,1.572390798060509,1.8048186353639801,-0.8559898971888628
4.8001086711883545,-0.5484589662022427,-0.5358075575693662,0.7386121187323385,1.5782503775687844,1.8062728217701105,-0.8592563938577804
4.820282697677612,-0.5544950416408929,-0.5411756981888972,0.7439247841076155,1.5890401632909699,1.807164395700054,-0.8657922086152225
4.840306043624878,-0.5515543083917377,-0.5462768113137225,0.7488096661260077,1.6010168162210665,1.8099441438326338,-0.8722694176172685
4.860384225845337,-0.5569643462784506,-0.5516715428823484,0.7541671581809022,1.6121428513217058,1.8107751811846653,-0.8787467610584417
4.880934476852417,-0.5539467435051201,-0.5568399341136507,0.7590927576449648,1.6244988359491312,1.8134062296928788,-0.885153405670732
4.920875787734985,-0.5539467435051201,-0.5568399341136507,0.7590927576449648,1.6244988359491312,1.8134062296928788,-0.885153405670732
4.940906047821045,-0.5589477748711729,-0.562307983374784,0.764430033597356,1.6358562533367027,1.8141496067656628,-0.8915811651698196
4.961023807525635,-0.5558221785312778,-0.5675730636940928,0.7693969198463639,1.6484309847545335,1.8165502196945393,-0.8979306219874381
4.981174945831299,-0.5602812430370232,-0.5704016023865878,0.7721872041844732,1.6538781025502483,1.8163703839624767,-0.9011402531437108
5.001263856887817,-0.5631285552845298,-0.5759323661282795,0.777485574216108,1.6655800765443263,1.8170814363267183,-0.9075123644275919
5.02163028717041,-0.5598512201830276,-0.5812630454387918,0.7825363626972981,1.6782579494841017,1.8192989479379529,-0.9137482252686088
5.04182767868042,-0.5581668154586779,-0.583920481921109,0.7850912103109084,1.684640053847302,1.8204991133680384,-0.9168224407148302
5.063324213027954,-0.5669198662212858,-0.5897600771871019,0.7907681370182013,1.6951984581006203,1.8195332537523454,-0.92315067987738
5.083674430847168,-0.5652223280732218,-0.5924879884019485,0.7933341819887801,1.7015951444045618,1.8205163085778615,-0.9262194854791924
5.103866338729858,-0.5635072656532166,-0.5952313555393546,0.7959023374042243,1.707982198459611,1.8214719373112223,-0.9292832990582082
5.123998641967773,-0.5600276677834968,-0.6007501560341236,0.8010342765908777,1.7207711756005668,1.8233121380360757,-0.9354166537055542
5.143967151641846,-0.5686061190326313,-0.6067564462042025,0.806767895128784,1.7311830837314848,1.8217175070888096,-0.9417630975330465
5.164060115814209,-0.5668326769663495,-0.6095944623602993,0.8093492601967183,1.737588073639667,1.822373711825636,-0.9448368800000563
5.184139013290405,-0.5632247273213357,-0.6153161771681211,0.814512817285339,1.7501961852014276,1.8235364190949321,-0.950988921728353
5.204296827316284,-0.5595332156401898,-0.6211129536878813,0.8196992683603934,1.7627316701589832,1.8245022158840063,-0.957132163849848
5.224522829055786,-0.5557258614046142,-0.6269936203276371,0.8249262571477142,1.7751272845184363,1.8251829454567934,-0.9632746691389723
5.244600772857666,-0.5537581085807816,-0.6299707644060395,0.8275662247611829,1.7812293624476145,1.8253588863645973,-0.9663505703174381
5.264787435531616,-0.5497843987272751,-0.6359716954842314,0.832855984538203,1.793416379739751,1.825590184764599,-0.9724906580655258
5.2849180698394775,-0.5458267961918464,-0.6420155371908602,0.8381237952421432,1.805715957573534,1.8258242813130732,-0.9785983079613993
5.3052077293396,-0.5417698281714026,-0.6481329231990809,0.8434274648457925,1.81790560044135,1.8258068526008242,-0.9847092635666527
5.32533597946167,-0.5397042360793564,-0.6512180709554601,0.8460926852154926,1.8239581296993224,1.8257043151655397,-0.9877667974312229
5.345380783081055,-0.5355125997200164,-0.6574265461212442,0.8514472985421724,1.8359983496957308,1.825320583025981,-0.9938646553320278
5.365472316741943,-0.5312150634154067,-0.6637020631213074,0.8568439002475129,1.8479115469389604,1.8246608238319098,-0.9999739968926805
5.38557767868042,-0.5290952003458558,-0.6668427564044811,0.8595246958768472,1.8539795795108738,1.8243957227192822,-1.0030032380871206
5.40568733215332,-0.5231394161922287,-0.6602092362770483,0.8656997336107815,1.8618068438491977,1.8195042635980403,-0.9962669631440001
5.425915241241455,-0.5169170080264361,-0.6534204956872073,0.8588327088190688,1.8563925687130696,1.8140680524104331,-0.9894774322915086
5.446882247924805,-0.5105801898360783,-0.6466783372166451,0.8519887650304041,1.8505491511992598,1.8084021183005201,-0.9827392340320916
5.467003345489502,-0.5073785962056903,-0.6433110724405225,0.8485839096541156,1.847547034544578,1.8054865447989852,-0.9793782342196279
5.487065076828003,-0.5008178008477178,-0.6366148076298357,0.8418589391282749,1.8411441406774487,1.7991648907526414,-0.9726900460283319
5.507143974304199,-0.49415114762494694,-0.6299482338378126,0.8351922473604151,1.8344775676569245,1.7924984261166585,-0.9660233684982459
5.527541160583496,-0.4908178075647251,-0.6266149199512181,0.8318588649930266,1.831144265887571,1.7891651041967853,-0.9626900553424207
5.547559022903442,-0.48609749209580466,-0.619134020956739,0.8241318984492866,1.8295659479278996,1.7896969168901502,-0.9556100465293261
5.567664861679077,-0.4817024229403574,-0.6115164440693495,0.8162586095504013,1.8289437427287487,1.7914709635544752,-0.9484575114271365
5.587786436080933,-0.4769408877444396,-0.6040467497888876,0.8085974679913953,1.8406938091366816,1.7918561346834134,-0.9413846072385568
5.607915878295898,-0.47516794838888315,-0.6002471727053242,0.8045624336424307,1.8448149024185305,1.791569686522361,-0.9378288867406048
5.627966642379761,-0.47215234558828606,-0.592721274302066,0.7961325844952729,1.851162865580429,1.790446139330626,-0.9375816850433045
5.648306369781494,-0.470107637798916,-0.5915357692884459,0.7937524646782657,1.8585536059321563,1.7895866724629506,-0.9439446298109573
5.668212413787842,-0.46940290171513716,-0.5941500453765831,0.7957623975612041,1.8629306290093979,1.7898333483338453,-0.9470355718611323
5.688649892807007,-0.4650794858905631,-0.6000753842967242,0.8012936882060782,1.8723404817515246,1.788187053723925,-0.953333680100181
5.708527326583862,-0.4604401472934756,-0.6059646795916224,0.807016794500824,1.8835881858796275,1.7877038105930003,-0.9595119907499507
5.728602886199951,-0.4556766070289036,-0.6118920339513282,0.8127184730838494,1.8954766754319017,1.7873758664988268,-0.9657587434372855
5.748709678649902,-0.4523432736841664,-0.6085587006999933,0.8160518064171827,1.8988100089253495,1.7840425334175274,-0.9624254101241801
5.768778324127197,-0.44577804426491924,-0.6018993512034493,0.8160243314519522,1.899033805616296,1.7775087941967889,-0.9557514156587462
5.788855314254761,-0.4391706048718121,-0.5952137005748999,0.8093117429860932,1.892439189871417,1.7710138650762532,-0.9490825220786812
5.809305906295776,-0.4359744827494084,-0.5918347816605612,0.8059000542183199,1.888998949632889,1.7678899886271697,-0.9457341278987638
5.829132795333862,-0.42948588190602605,-0.5851043026984852,0.7991298961884168,1.8821922683695897,1.7625585494425926,-0.9390469441306254
5.849228382110596,-0.42281919725669803,-0.5784376494384426,0.7924632410627185,1.875525635718278,1.7582723967620233,-0.9323802789374586
5.869503736495972,-0.4194858564679695,-0.5751043255639667,0.7891299123976367,1.8721923179609121,1.754939048840573,-0.9290469450361741
5.889423608779907,-0.4133764808536964,-0.5682079210916239,0.7821295059273624,1.8650936359255927,1.7481192219674833,-0.9223056954605786
5.909508943557739,-0.4082188148216652,-0.5609121638127947,0.7745686703497278,1.8572716850824817,1.7410315417802604,-0.9154322290851454
5.929570436477661,-0.40488546517684,-0.5575788505034399,0.7712353438067594,1.85393839379505,1.7376982320531005,-0.9120989044308879
5.949692010879517,-0.4000638216756723,-0.550102413537237,0.7634932071698414,1.8592251239856263,1.7304687223556807,-0.9051423131416003
5.969854831695557,-0.3949888779104937,-0.5427344925176121,0.7559169448931198,1.864750276377558,1.723316097616017,-0.898220651650385
5.989902973175049,-0.3896497492376262,-0.5486918886471974,0.7485382960160889,1.8728754689643932,1.7202769530252402,-0.9047842246738693
6.010020971298218,-0.38702043808223857,-0.5515113513003014,0.7514726224979345,1.8785178130741407,1.7208165766602834,-0.9081192116775588
6.030091285705566,-0.3880113359680546,-0.557450440999319,0.7575703710429196,1.888447902378982,1.7195944688282077,-0.9147782345669178
6.050161600112915,-0.3890388906324254,-0.5634199986767897,0.7636471036609872,1.8983317078662099,1.7180901685280456,-0.921447410798485
6.070242881774902,-0.38645977694805655,-0.56625407332373,0.7665443632264015,1.9040241530825406,1.718509990711337,-0.9247820182133251
6.090407371520996,-0.3898397885004239,-0.5721481299419051,0.77251415607831,1.9144231120775417,1.7177442240878766,-0.9314591243736873
6.110469818115234,-0.39797605780131723,-0.5779212372290948,0.7783382914198271,1.9257656508708625,1.7181152919922134,-0.9381433056172263
6.130530834197998,-0.40527691374984526,-0.5840294992234895,0.7847116662516619,1.9350515331605398,1.715099103684908,-0.9447773003603797
6.150631666183472,-0.4090416307868064,-0.5868933098493941,0.7818116942915277,1.9404197518345119,1.7144744633641673,-0.9480711872117217
6.170710563659668,-0.4101196091514533,-0.5925745811105225,0.7822308888055721,1.951698741548999,1.7139437543930613,-0.9546414000376054
6.19079852104187,-0.4109368741019238,-0.598225860803496,0.7832202356789414,1.9626842425241817,1.712580190055942,-0.9613138501620415
6.211056232452393,-0.41460801895392524,-0.6012469421640491,0.78127754875427,1.967469812706504,1.7110212596653889,-0.9646436335806711
6.231217622756958,-0.4094354118729232,-0.6067015007183344,0.787088993860561,1.9783793809078203,1.7097904480100745,-0.9579347647877711
6.251269340515137,-0.41645474761050244,-0.6128943465359569,0.7802770375837498,1.9867958612969618,1.7051542520552039,-0.964605688450367
6.271371126174927,-0.4112602480710988,-0.618522081780702,0.7860516492968602,1.9971274450218226,1.7028855996816694,-0.9579252333487883
6.291449069976807,-0.41492764454345227,-0.6216170246826667,0.7891803288990756,2.00131315600651,1.700540100658136,-0.9612594104008739
6.311524868011475,-0.4165971646141029,-0.6268956306168272,0.7947620436441422,2.012602005368253,1.6992494107642924,-0.9680568918385138
6.331578016281128,-0.4123567627497667,-0.631732515584459,0.7998767695865953,2.0260033062716745,1.7002725616806245,-0.974962371616695
6.351660966873169,-0.41021997105217817,-0.6341557145574924,0.802432180877345,2.0327302497111663,1.7009022808978382,-0.9784180401665529
6.37176775932312,-0.4134603276579464,-0.6392445288482038,0.8078794756210749,2.0448381251493277,1.7007235836824766,-0.9852366022603665
6.391852378845215,-0.4214919953585205,-0.6445638396306218,0.8135680298261425,2.056030698784013,1.6995397792533014,-0.9920237332117614
6.412652254104614,-0.4169332811294358,-0.6492289513846682,0.8187351732316911,2.0698301347488792,1.701224156537714,-0.9988918659629329
6.432784795761108,-0.42094912662956374,-0.6519054554710852,0.8215760756151965,2.075522596990744,1.700655421408063,-1.0022898859610532
6.4528210163116455,-0.42360668956541847,-0.6569771894290131,0.8270006430393722,2.088167869403185,1.7007465718300951,-1.0090704100907688
6.472925186157227,-0.4190830067633321,-0.6560301671228871,0.8328509979382047,2.09834361502611,1.6982040480709024,-1.0091393276778715
6.493013620376587,-0.4157894518887968,-0.6526590430161117,0.8361506113698092,2.1017333428518143,1.694930500279611,-1.0058052626500102
6.513107061386108,-0.4091228491918145,-0.6459920644708568,0.8294839447031426,2.0950657950516427,1.6882629811932437,-0.9991384155142291
6.533213138580322,-0.4024561241715201,-0.6393256777094066,0.822817278036476,2.088399914254337,1.694930391033556,-0.9924719178734053
6.553761005401611,-0.3957897613867307,-0.6326586217170701,0.816150552426081,2.0817334811850348,1.7015967378305124,-0.9858052685718929
6.573864221572876,-0.3924633492122258,-0.62931421956263,0.8128136589626085,2.0784018318782507,1.7049249921441652,-0.9824707882083057
6.5939459800720215,-0.3857967093254735,-0.6226474929723157,0.8061469861146111,2.071735119763806,1.7114325361376135,-0.975804114685683
6.614042043685913,-0.3791300371257556,-0.6159808683524178,0.7994803161423959,2.0650685173832795,1.716860334839895,-0.969137457287917
6.635234117507935,-0.3757966930635608,-0.6126475528484877,0.7961469895283557,2.061735220145643,1.7191742781461754,-0.9658041275196545
6.6552863121032715,-0.3691452508431402,-0.6059749057255871,0.7894646111343661,2.0550408993684304,1.7231342868097685,-0.9591355162550862
6.67539644241333,-0.3624805007076965,-0.5993075758582036,0.7827960582113758,2.048370589374739,1.7263392900397705,-0.9524684843936336
6.695461988449097,-0.3558138058791075,-0.5926409377735047,0.7761294131667635,2.041703993472504,1.7289347686372836,-0.9458018244198833
6.71555233001709,-0.3524804576271674,-0.5893076159381171,0.7727960922217073,2.0383706930770993,1.7300412586078266,-0.9424684945190719
6.735643148422241,-0.34581376381888396,-0.5826409708286749,0.766129448393809,2.0317040877548957,1.7319333608471723,-0.9358018343905248
6.755744695663452,-0.33914707281808826,-0.5759743237089638,0.759462802766638,2.0250374772555557,1.73346596710448,-0.9291351740776532
6.776097297668457,-0.3358137285469887,-0.5726409996235939,0.7561294790116049,2.021704170059463,1.734119343149949,-0.9258018438274259
6.796489238739014,-0.32914701770859073,-0.5659743761197069,0.7494628504731521,2.015037617324254,1.7352365596679553,-0.9191351908822918
6.816485166549683,-0.32248031315972375,-0.5593077509113991,0.7427962165399623,2.0083710555037753,1.736141513671761,-0.9124685376117511
6.836504220962524,-0.3158136145140331,-0.5526411244931608,0.7361295771137996,2.0017044854201154,1.736874535145308,-0.9058018840490175
6.856877088546753,-0.30914692105860503,-0.545974497022543,0.729462932575852,1.9950379080153757,1.7374682906423855,-0.8991352302878198
6.876742839813232,-0.3058135760303907,-0.542641182878592,0.7261296085708527,1.991704616840614,1.7377214208693126,-0.8958019033661799
6.896868705749512,-0.2991468888970438,-0.5359745536818791,0.7194629574898828,1.985038030021359,1.7381542787671462,-0.8891352494994084
6.916975021362305,-0.2924802050807164,-0.5293079231392283,0.7127963028471103,1.9783714378077644,1.738504900018224,-0.882468595660211
6.937034845352173,-0.28581352395655696,-0.5226412911347517,0.7061296452508552,1.9717048408446955,1.738788909181542,-0.8758019418975173
6.957127332687378,-0.2824801854592514,-0.519307983366878,0.7027963119175219,1.9683715666115476,1.7389100740130616,-0.8724686205382048
6.977216005325317,-0.27581349752753465,-0.5126414290053254,0.6961296452508553,1.9617051669244905,1.732243731797859,-0.8658020083138057
6.997369766235352,-0.26914680399630425,-0.5059748994416313,0.6894629785841887,1.9550388173452902,1.7337177424557655,-0.8591354092322222
7.017409324645996,-0.26248011660151027,-0.49930834118801337,0.6827963119175221,1.9483724004499536,1.7349116440991723,-0.8524687958660365
7.037538290023804,-0.2591467735409738,-0.49597505904459727,0.6794629785841888,1.9450391838834353,1.735420615003058,-0.849135487548674
7.057842969894409,-0.25248008862677507,-0.4893084890065829,0.6727963119175222,1.9383727354341425,1.736290939780975,-0.8424688678506475
7.077723741531372,-0.24581340523495832,-0.482641911673843,0.6661296452508556,1.9317062677594714,1.7369958835443369,-0.8358022443191659
7.097881555557251,-0.23914672326457773,-0.4759753274873729,0.659462978584189,1.9250397822479683,1.737566869843744,-0.8291356172323284
7.117911338806152,-0.23581338278195382,-0.47264203295867,0.6561296452508557,1.921706533221025,1.7378102836510194,-0.8258023024363056
7.138047695159912,-0.2291467027631591,-0.465975439291979,0.6494629785841891,1.9150400234249485,1.7382265088667095,-0.8191356704895789
7.158126592636108,-0.2224800239311816,-0.4593088398168071,0.6427963119175225,1.908373498990885,1.7385636359900658,-0.8124690355914095
7.178253889083862,-0.21581323773445063,-0.4526428488290949,0.6361296452508559,1.9017082425600167,1.7388383315829519,-0.8058026870238708
7.198312997817993,-0.2091463540868021,-0.44597742049141387,0.6294629785841893,1.8950441297917981,1.739062163477962,-0.7991366005932847
7.218493938446045,-0.20581291757606243,-0.4426446814960001,0.626129645250856,1.8917120074391114,1.7391575158599542,-0.7958035443708097
7.2387261390686035,-0.19914605476061606,-0.4359791556221365,0.6194629785841894,1.8850476368235993,1.7393204346712108,-0.7891374068593783
7.258766412734985,-0.19247923745204448,-0.42931338460834034,0.6127963119175228,1.8783827520892087,1.7394518386419415,-0.7824711539888308
7.27883768081665,-0.18581240013302974,-0.42264773825528423,0.6061296452508562,1.871718070132825,1.7395585075897841,-0.7758049534472568
7.299184560775757,-0.18247898591858935,-0.41931489391828547,0.6027963119175229,1.8683856753902695,1.7396039228391638,-0.7724718420997256
7.319267749786377,-0.17581216601906938,-0.4126491644068877,0.5961296452508563,1.8617207834281717,1.7396814708539017,-0.7658055980391987
7.339386701583862,-0.16914535699072408,-0.40598338254371746,0.5894629785841897,1.8550557616431267,1.7397441443931478,-0.7591393265941697
7.359531879425049,-0.1624785582477003,-0.39931755077729214,0.5827963119175231,1.8483906179112115,1.7397947771288762,-0.7524730290584679
7.379570960998535,-0.1591451625551286,-0.3959846169236778,0.5794629785841898,1.8450580026831698,1.7398163134957223,-0.7491398709020057
7.399658441543579,-0.1524783781820222,-0.3893187147183327,0.5727963119175232,1.8383926900536847,1.7398530484500903,-0.7424735365851313
7.419731140136719,-0.14581160271110627,-0.3826527683804033,0.5661296452508566,1.8317272736829577,1.739882688706182,-0.735807179270808
7.439815998077393,-0.13914483562269855,-0.3759867800775472,0.55946297858419,1.8250617602695383,1.7399065889371286,-0.7291408001404333
7.459974050521851,-0.13581137791366849,-0.37265431820201483,0.5561296452508567,1.8217298961985244,1.7399182711374375,-0.7258078339587769
7.480089426040649,-0.12914447585775737,-0.3659893292001777,0.5494629785841901,1.8150660129542946,1.7399380718691841,-0.7191418664133614
7.500158786773682,-0.1224775911305676,-0.3593242545960003,0.5427963119175235,1.8084019304557963,1.7399538895579378,-0.7124758530471608
7.52025032043457,-0.11581072280322184,-0.35265909803469325,0.5361296452508569,1.8017376604712836,1.7399664926403213,-0.7058097959561077
7.540393114089966,-0.10914386997581633,-0.3459938630517128,0.5294629785841903,1.7950732142665695,1.7399765031858039,-0.6991436971987119
7.560463190078735,-0.1058104491015032,-0.3426612172267293,0.526129645250857,1.7917409284659502,1.7399806975876035,-0.6958106328274218
7.580547094345093,-0.09914361790201999,-0.33599587099884876,0.5194629785841904,1.785076237967779,1.7399877326381374,-0.6891444753408509
7.600643157958984,-0.09247680008421648,-0.3293304547060133,0.5127963119175238,1.778411397253111,1.7399932597013947,-0.6824782811508958
7.6207146644592285,-0.08580999485452684,-0.32266497149982576,0.5061296452508572,1.7717464158803655,1.739997575297859,-0.6758120521621918
7.641091346740723,-0.08247659672073128,-0.31933220575960897,0.5027963119175239,1.7684138753061156,1.7399993556433029,-0.672478925199924
7.661178112030029,-0.07580980895328944,-0.3126666278573144,0.49612964525085723,1.7617486998487029,1.7400022889756985,-0.6658126474744527
7.681323051452637,-0.06914303192615266,-0.3060009904521166,0.4894629785841905,1.755083405608054,1.7400045270555198,-0.6591463394883917
7.701355695724487,-0.06247626495459662,-0.2993352963243943,0.4827963119175238,1.748418000555458,1.7400062107112355,-0.6524800029619646
7.721653461456299,-0.05580950738472253,-0.29266954815189494,0.4761296452508571,1.7417524922357364,1.7400074536598658,-0.6458136395583728
7.741777658462524,-0.05247613192942567,-0.28933665460802405,0.47279631191752375,1.7384197015950622,1.7400079392822971,-0.642480448281442
7.761813402175903,-0.04580938730264148,-0.2826708301690578,0.46612964525085704,1.7317540516206447,1.7400086875288685,-0.6358140475524341
7.781893253326416,-0.0391426505753422,-0.27600495794269064,0.45946297858419033,1.7250883154624133,1.7400091922261731,-0.6291476238461556
7.802178859710693,-0.03580946004677565,-0.2726716049008045,0.4561290858588575,1.7217549821290798,1.7400082694895531,-0.6258143716297083
7.822290420532227,-0.029143062340942077,-0.26600488970007646,0.44946134591427633,1.715088315462413,1.7400066929101738,-0.6191478598015795
7.842352390289307,-0.022476643347046965,-0.2593381625805219,0.44279366487801713,1.7084216487957462,1.740005417414272,-0.6124813383696733
7.862731456756592,-0.01581020445047181,-0.2526714234723675,0.43612603941607875,1.7017549821290794,1.7400043855999496,-0.6058148078086779
7.882725954055786,-0.009143746962157768,-0.24600467230677758,0.4294584663528703,1.6950883154624126,1.7400035509871727,-0.5991482685707475
7.902817726135254,-0.005810511635641674,-0.24267129218125075,0.4261246985205168,1.6917549821290792,1.7400031955735362,-0.5958149958333956
7.92297887802124,0.0008562570002722683,-0.23600645275841284,0.4194580318538501,1.685090077944225,1.7400086936077632,-0.5891487679932103
7.943052530288696,0.00752301217019483,-0.2293415229977168,0.4127913651871834,1.6784250241524976,1.7400129700619933,-0.5824824980441072
7.963089942932129,0.01418975470420112,-0.22267650642761122,0.4061246985205167,1.6717598306361545,1.74001627382303,-0.5758161885147401
7.983196496963501,0.017523121511152553,-0.219343966746149,0.40279136518718334,1.6684271844630953,1.740017623867913,-0.5724830196963165
8.003283023834229,0.024189846736521508,-0.2126788268355295,0.3961246985205166,1.6617617989564728,1.7400198246242868,-0.565816655472834
8.023369550704956,0.030856561452955646,-0.2060136090973291,0.3894580318538499,1.655096296415761,1.7400214749984364,-0.5591502577525796
8.043418169021606,0.03752326643271974,-0.19934831690751226,0.3827913651871832,1.6484306850182067,1.7400226899069013,-0.552483828787635
8.063570022583008,0.04085661550086748,-0.19601564391523063,0.37945803185384985,1.6450978409209656,1.7400231637543215,-0.5491506032641285
8.08361530303955,0.04752330722972849,-0.18935024611507847,0.37279136518718314,1.6384320805204053,1.7400238933434637,-0.542484131431013
8.103724002838135,0.05418996714644391,-0.18268428316476154,0.36612469852051643,1.6317659032281853,1.7366926069451765,-0.535817554421858
8.123781681060791,0.06085671240757363,-0.1760189758635372,0.3594580318538497,1.6251000915939298,1.7340240466107448,-0.5291511115913385
8.143914937973022,0.06419004798284575,-0.17268617428185565,0.35612469852051637,1.6217670875542427,1.734624147632001,-0.5258178442989284
8.164005041122437,0.07085669380038806,-0.1660200641646816,0.34945803185384966,1.6151007509456226,1.727961788082524,-0.5191512270198154
8.185583353042603,0.07752338134582125,-0.15935408611500274,0.34279136518718295,1.6084344647861304,1.730250609989317,-0.5124846501619236
8.205662965774536,0.07752338134582125,-0.15935408611500274,0.34279136518718295,1.6084344647861304,1.730250609989317,-0.5124846501619236
8.225805759429932,0.08419003600085266,-0.15268831345248504,0.33612469852051624,1.6017682636406358,1.732107548431259,-0.5058180617140858
8.24587106704712,0.08752334498615864,-0.1493550050388149,0.3327913651871829,1.5984349386041576,1.7287762699895544,-0.5024847107327788
8.266059875488281,0.09419002764598321,-0.14268895860300007,0.3261246985205162,1.5917685712102945,1.7268995419740494,-0.4958181121624989
8.286043643951416,0.10085665562668082,-0.13602267371451343,0.31945803185384947,1.5851020610102118,1.724880791736076,-0.48915144222798773
8.306135416030884,0.10418997812670898,-0.1326897057110722,0.3161246985205161,1.5817688749710848,1.721549578973167,-0.4858181261669343
8.326246738433838,0.11085665240942241,-0.1260235616277838,0.3094580318538494,1.5751024159763927,1.7244594701255516,-0.47915150234035275
8.346321821212769,0.11752333420535904,-0.11935796338913401,0.3087211812800764,1.568436147971789,1.717794692997753,-0.4724849152874218
8.366411209106445,0.12418995256717844,-0.11269106735246834,0.3020545146134097,1.5617693644260096,1.7220169201263822,-0.46581818564456584
8.386733055114746,0.12752326515560083,-0.10935802137435029,0.29872118128007635,1.5584361037468786,1.7237227094380472,-0.46248484382576294
8.406678438186646,0.1341899379511716,-0.10269202614005281,0.29872118128007635,1.551769636900934,1.7219231560765633,-0.45581821003588197
8.426735162734985,0.14085656436045796,-0.09602530853036753,0.29872118128007635,1.545102924422152,1.7207339661233139,-0.4491514986749214
8.446829795837402,0.14752318417341495,-0.0893591825405506,0.29205451461340964,1.538436336454861,1.72439906450455,-0.4424847910966738
8.466906309127808,0.1508564933326069,-0.08602611230452527,0.2887211812800763,1.5351030335322793,1.7259615595371016,-0.43915143460659545
8.486991167068481,0.15752316519047663,-0.07936009684019338,0.295387847946743,1.5284364995950568,1.7192953048584778,-0.4324847820739251
8.507088661193848,0.16418977992278586,-0.07269333113463146,0.2887211812800763,1.5217697530353922,1.723233219143687,-0.4258180510085416
8.527441263198853,0.17085639065800587,-0.0660268593601267,0.2820545146134096,1.5151030452868046,1.7165713630257606,-0.4191513160127548
8.54744267463684,0.17418975247077298,-0.06269389967233566,0.28538784794674293,1.5117697963907473,1.7132358681070918,-0.4158180185160546
8.567447662353516,0.18085637005370603,-0.05602712752972961,0.28538784794674293,1.5051030599194182,1.7080337035944848,-0.4091512891736666
8.587594270706177,0.18752299933726013,-0.04936070059893586,0.2787211812800762,1.4984363673767187,1.703017669121595,-0.4024845717513684
8.607816219329834,0.19085630770143538,-0.04602756866009438,0.27538784794674287,1.4951030152680702,1.6996864269363594,-0.3991512031570603
8.627910137176514,0.19752298683967134,-0.03936149525011359,0.2820545146134096,1.488436399974147,1.6930186176350306,-0.3924845469780127
8.647993326187134,0.20418961573201833,-0.03269489510991076,0.27538784794674287,1.481769683578889,1.6863550633183442,-0.3858178251809088
8.66811466217041,0.210856278656633,-0.026028847960145665,0.27182128674446976,1.4751030186908558,1.679688331787311,-0.37915114312421383
8.688210010528564,0.21418962297683683,-0.022695652512683146,0.27246432882540916,1.4717696995824976,1.6763539774613418,-0.37581782373960276
8.70830774307251,0.22085625191789557,-0.01602894052318172,0.26970973336492127,1.4651029849409103,1.6763571698423414,-0.3691511006371088
8.728394508361816,0.22752291615930714,-0.009362731209314554,0.26970973336492127,1.4584362942028077,1.6763568635765034,-0.36248442035961576
8.748564958572388,0.2341895356626855,-0.002695913756377358,0.26970973336492127,1.4517695802014576,1.6763609897213643,-0.35581768324036417
8.76867151260376,0.2375228420643284,0.0006372809126382931,0.2663764000315879,1.448436200800521,1.679696370256966,-0.35248430506204936
8.788755416870117,0.244189508385959,0.007303465714734951,0.2730430666982546,1.4417694871900895,1.6730290135677515,-0.34581762702883256
8.808839559555054,0.2508561341564004,0.013970127007125301,0.2663764000315879,1.4351027706302806,1.6663657136894734,-0.33915089457903375
8.829118728637695,0.2575227987238946,0.02063648131104367,0.27056695309354123,1.428436058699243,1.6596986679121342,-0.3324842168983477
8.849236011505127,0.2608561103000346,0.02397007536698579,0.2672336197602079,1.4251027467686732,1.6630342779547198,-0.3291508527045078
8.869377613067627,0.26752277207777597,0.0306363087756498,0.2672336197602079,1.4184359934472006,1.6630338168271803,-0.3224841691012382
8.889391660690308,0.27418940555849813,0.037302936549245956,0.2672336197602079,1.4117692887496334,1.6630364711940517,-0.3158174467269309
8.909602880477905,0.27752270954464364,0.04063616438027672,0.2639002864268745,1.408435904769716,1.6663719924412237,-0.3124840636048088
8.92979621887207,0.2841893742077589,0.04730236959128208,0.27056695309354123,1.4017691248488173,1.65970446385792,-0.30581738730342956
8.949822425842285,0.290855997168853,0.05396907384174402,0.2639002864268745,1.39510243639246,1.6530414568084568,-0.2991506478066333
8.969887971878052,0.2841892807934147,0.06063573982506564,0.2572336197602078,1.3884357351644225,1.6463788419742134,-0.29248389815332015
8.989964723587036,0.277522556552977,0.06730228084943274,0.2505669530935411,1.3817689903202952,1.6397165439855481,-0.29915046740227963
9.010129690170288,0.2741891950626175,0.07063556167040914,0.24723361976020777,1.3784356214780158,1.6363853583648662,-0.302483753276546
9.030287981033325,0.26752248860890265,0.07063560103420244,0.24056695309354112,1.3784356140137308,1.6297220129668688,-0.309150355431068
9.050265789031982,0.2608558181067235,0.0639687248000635,0.24056695309354112,1.3851022052790036,1.623055105417149,-0.31581700924815037
9.070338487625122,0.25418910362785613,0.05730197324592643,0.24723361976020777,1.391768807921073,1.6163920588332483,-0.3224835912075362
9.090709686279297,0.2508557471923817,0.05396859402272892,0.2505669530935411,1.3951021093056086,1.613060461365914,-0.325816882328686
9.110847473144531,0.24418903603863784,0.0473018275276154,0.2572336197602078,1.4017687122227962,1.6063971088433764,-0.33248346531595513
9.130911350250244,0.23752232724002614,0.04063504930951012,0.2639002864268745,1.4084353155606117,1.5997335421576224,-0.3391500497881149
9.151000499725342,0.23085562087978742,0.03396825815227716,0.27056695309354123,1.4151019196662882,1.5930697565306688,-0.3458166363339165
9.171131610870361,0.227522268641609,0.030634857333119235,0.2739002864268746,1.4184352221412087,1.5897377801440986,-0.34914993056866095
9.191207885742188,0.2208555661075375,0.023968044420213337,0.2805669530935413,1.4251018282565522,1.5830736573278201,-0.3558165213322684
9.211268424987793,0.21418881454991542,0.017300784996763137,0.287233619760208,1.4317683130894852,1.5764125832505398,-0.3558163292375566
9.23197340965271,0.21085541542678066,0.013966925825299103,0.29056695309354136,1.4351014993965128,1.5730834904244049,-0.3524828436254547
9.252072811126709,0.2175220356676663,0.007299398219598163,0.29723361976020807,1.4417679912685357,1.5664190199837138,-0.345816050707542
9.272161722183228,0.22418868050639815,0.013965202418958466,0.3039002864268748,1.4351011767295672,1.5597526474861234,-0.3391493078912821
9.292237281799316,0.23085525927095596,0.020631602980386878,0.29723361976020807,1.4284343988997423,1.5530923457137953,-0.3324824456044002
9.312330484390259,0.2341885345700939,0.023964421406259807,0.2939002864268747,1.4251009264111731,1.5497625876849972,-0.3291489682507096
9.332402229309082,0.24085516892931227,0.030630367382420715,0.2927562970555419,1.4184340840222385,1.5430970722428252,-0.32248220056067917
9.35250210762024,0.24752179027122032,0.037297321528959884,0.291393373288009,1.4117674657935761,1.5431011239940755,-0.3158154498208219
9.372556924819946,0.25418838279246725,0.04396366832660175,0.2847267066213423,1.4051006822820302,1.5431061838528424,-0.30914860879804634
9.392628192901611,0.2608550200811284,0.05062964494038953,0.2847267066213423,1.3984337967387919,1.536440301956438,-0.3024818430845556
9.414056301116943,0.26418831569846374,0.05396242084154105,0.28806003995467566,1.3951002721671875,1.5331086372950542,-0.2991483986229409
9.434167385101318,0.2575215764056671,0.06062884610078274,0.28139337328800895,1.388433506227822,1.5264469532262321,-0.30581489472224344
9.454246997833252,0.2508547927338661,0.06729485727677637,0.27472670662134224,1.3817665784931474,1.5197876559044359,-0.3124812685549321
9.474332094192505,0.24418807205427154,0.060627910617097346,0.26806003995467553,1.3769499268799688,1.5131243492639872,-0.3191477947445518
9.494454145431519,0.23752137050400168,0.05396079574661704,0.27472670662134224,1.3836164013846017,1.5064591616492728,-0.32581434366805806
9.514568567276001,0.23418799138146976,0.050627114188659825,0.2780600399546756,1.3869495846417126,1.5031283755235818,-0.3291475421673153
9.534597396850586,0.22752123916456113,0.04395971345271208,0.2847267066213423,1.3936159502723524,1.4964663010786723,-0.33581394674394427
9.554729700088501,0.2208544951869592,0.03729226022508092,0.291393373288009,1.4002823166421352,1.4898035490923207,-0.335813696330962
9.575014352798462,0.21418775973472695,0.03062475109287562,0.2980600399546757,1.406948686112803,1.4831401064956804,-0.32914679288388066
9.595103979110718,0.21085439528581576,0.027290974685991808,0.3013933732880091,1.4102818728887372,1.4798081235814324,-0.3258133468839352
9.634739398956299,0.21418774433602691,0.023957482291464098,0.30472670662134244,1.4069485011805807,1.476473310622767,-0.3224800393546522
9.671955108642578,0.21418774433602691,0.023957482291464098,0.30472670662134244,1.4069485011805807,1.476473310622767,-0.3224800393546522
9.69219160079956,0.2208544080911036,0.023956776919239336,0.31139337328800915,1.4002816191364758,1.469805357166462,-0.31581330592631407
9.71220850944519,0.22752105643876497,0.030622894288781517,0.31139337328800915,1.3936147681011377,1.4698054632383313,-0.30914654279603415
9.732263326644897,0.23418767506987037,0.03728925265862169,0.30472670662134244,1.3869479802159808,1.4698082254214624,-0.30247972527217915
9.752359867095947,0.23752097754460558,0.04062214347745122,0.3013933732880091,1.3836144685664338,1.4664760766451612,-0.29914627055420556
9.772471904754639,0.23085425847498067,0.04728858517478173,0.29472670662134237,1.3769476954192985,1.4598126017929098,-0.29247944456419467
9.792585849761963,0.2241875331177165,0.05395450462808867,0.28806003995467566,1.3702806905215632,1.453148283974389,-0.2991458735710047
9.812725305557251,0.2175208135028599,0.06051307065836362,0.28139337328800895,1.3636139126245561,1.4464847662215097,-0.3058123757501836
9.83279800415039,0.21418745386568672,0.057179965809047974,0.2780600399546756,1.366947359177604,1.4431538399776207,-0.3091456736593178
9.85287094116211,0.20752080788358065,0.05051261423688598,0.2780600399546756,1.3736137013544447,1.4364840194541029,-0.3158122936176124
9.872929334640503,0.20085411545148724,0.04384516844019734,0.2847267066213423,1.3802800087933713,1.4298172258420436,-0.3224787723897896
9.89303731918335,0.19752077260127068,0.04051142228926737,0.28806003995467566,1.3836131608333107,1.4264835597259382,-0.3258120174435343
9.913119077682495,0.19085409381059898,0.033843881599743574,0.29472670662134237,1.3902794634967346,1.4198156809965525,-0.3324785201520424
9.933282136917114,0.18418742446364808,0.027176273948443613,0.3013933732880091,1.3969457671104724,1.4131470644256934,-0.33914504137997364
9.95365047454834,0.17752076484615745,0.020508596370177806,0.3080600399546758,1.4036120753391397,1.4064776991506671,-0.34581158326096134
9.973787069320679,0.17418743877811732,0.017174730421844774,0.31139337328800915,1.406945232411103,1.4031427323992565,-0.3491448626376952
9.993940591812134,0.16752079431366954,0.010506942313260922,0.31806003995467585,1.4136115550909059,1.3964722240528487,-0.3558114397003862
10.013975381851196,0.16418747599542688,0.007173019388496777,0.3213933732880092,1.4169447218050009,1.3931366798386002,-0.35914473798111635
10.034064054489136,0.1575208473876245,0.0005051138686272285,0.3280600399546759,1.4236110688945645,1.386465004843387,-0.3658113555824513
10.054203271865845,0.15085422976078186,-0.0061628738129702754,0.33472670662134263,1.4302774383162207,1.3797925392054762,-0.37247800338242315
10.074254274368286,0.14418760925069188,-0.012830458670111379,0.34139337328800934,1.4369439300375686,1.373121088051302,-0.37914469842848975
10.094295024871826,0.13752098039091076,-0.019497602138169846,0.34806003995467605,1.4436105319894925,1.3664510375027898,-0.3858114251822171
10.114452838897705,0.13418766765942902,-0.022831188242125006,0.3513933732880094,1.4469438373118715,1.3631158901517197,-0.3891447935427751
10.134486198425293,0.12752104569738654,-0.029498390134588413,0.3580600399546761,1.4536104581915703,1.3564453477081928,-0.3958115409329477
10.154619932174683,0.1208544285456579,-0.036165632878185666,0.3647267066213428,1.4602770948869834,1.3497744702284127,-0.4024783035372486
10.174779891967773,0.11418781638080885,-0.04283291802523972,0.37139337328800953,1.4669437501388103,1.3431032520306985,-0.40914508261283644
10.194862842559814,0.11085451222543032,-0.046166576993564246,0.3747267066213429,1.4702770856238923,1.3397675133783575,-0.41247847874358534
10.215282440185547,0.10418790788630863,-0.05283392872406832,0.3813933732880096,1.476943774203824,1.3330957733782838,-0.4191452850730837
10.235123872756958,0.09752130900426498,-0.059501326875695676,0.3880600399546763,1.4836104889090767,1.3264236783034096,-0.42581211140623343
10.255228996276855,0.09085471577898858,-0.06616877311276183,0.394726706621343,1.490277233066811,1.3197512223372518,-0.4324789593277731
10.275296926498413,0.08752142135185191,-0.06950251479275721,0.39806003995467637,1.4936106172788461,1.3164148571889969,-0.43581239190867793
10.29540228843689,0.08085483700060242,-0.07617003635367062,0.4047267066213431,1.500277412246316,1.3097418488714814,-0.4424792754214551
10.315527200698853,0.07418825883413942,-0.08283761031270265,0.4113933732880098,1.5069442457780666,1.3030684648972726,-0.44914618496977143
10.335561275482178,0.0675216870749307,-0.08950523845843165,0.4180600399546765,1.513611121850549,1.296394699259344,-0.45581312254403794
10.356148719787598,0.06418840366926645,-0.09283907342057439,0.42139337328800985,1.5169445771361758,1.2930576714219881,-0.4591466024985692
10.37647008895874,0.057521810789425226,-0.09950646397014143,0.42806003995467656,1.52361143666027,1.2863855955485477,-0.46581349003598244
10.396631717681885,0.05085519050928566,-0.10617356441249964,0.4347267066213433,1.530278236599227,1.2797155782690786,-0.47248029922850837
10.416587591171265,0.04418857325974538,-0.11284069115845025,0.44139337328801,1.5369450599655208,1.2730453873799454,-0.4791471227886745
10.436732530593872,0.03752195916099664,-0.11950784517415886,0.4480600399546767,1.5436119088930251,1.2663750191766023,-0.4858139618406709
10.45687198638916,0.03418865333153508,-0.12284143271687492,0.45139337328801005,1.546945343638835,1.2630397674088705,-0.48914738754773646
10.476983547210693,0.02752204419081726,-0.12950862950446249,0.45806003995467676,1.5536122351494794,1.2563691261540797,-0.4958142521100925
10.497027397155762,0.02085543851428219,-0.13617585609210792,0.46472670662134347,1.5602791580434716,1.2496982980347708,-0.5024811353111152
10.517183065414429,0.017522137015672394,-0.13950948089168677,0.4680600399546768,1.5636126320464354,1.2463628126680386,-0.505814584336379
10.537334203720093,0.01085553678029046,-0.14617675418006526,0.47472670662134353,1.5702796068056841,1.2396916968108835,-0.5124814981549494
10.557378053665161,0.004188940338993424,-0.1528440599799383,0.48139337328801024,1.5769466195163928,1.2330203840496823,-0.5191484342888721
10.577479362487793,-0.002477734160776755,-0.1595106817402306,0.4876282805051492,1.5836132566881223,1.226354266614906,-0.5258150817756725
10.597545385360718,-0.0058110940963005415,-0.1628437779454656,0.48941048328692494,1.5869464478152466,1.223022664253185,-0.5291483094203469
10.617624521255493,-0.01247774244269609,-0.16951078521533652,0.49228685954350204,1.5936133336549756,1.2163552021336672,-0.5358151588676475
10.637847661972046,-0.019144392328100102,-0.17617762538134474,0.4933085340847746,1.6002801121248997,1.2096875146802104,-0.5424819116694726
10.658475875854492,-0.025811062664117333,-0.18284427993830682,0.49270393330435375,1.6069467655792822,1.2030211239198252,-0.5491485751438244
10.67856764793396,-0.029144339640066463,-0.1861781004497979,0.49225981126946583,1.6102804594336002,1.1996842427752425,-0.5524821635752666
10.698663711547852,-0.035811002218075254,-0.19284479997360246,0.48911889834687233,1.6169471578939336,1.1930173243727218,-0.5591488522167309
10.718737840652466,-0.04247759605317644,-0.19951207606345578,0.48674038528624125,1.6236143212426102,1.1863460906462044,-0.5658158645667472
10.738936185836792,-0.03914430681616149,-0.2028450449298392,0.48409631978770745,1.6269473453225676,1.183015520228905,-0.5691489840875759
10.75902771949768,-0.03914422427034272,-0.20951238627069238,0.4850499941723604,1.6336146085510819,1.176343681675474,-0.5758160627812203
10.779106378555298,-0.045810932258856074,-0.21617878327634288,0.4847661207552108,1.6402810976373214,1.1696799947073473,-0.5824826761010529
10.7997567653656,-0.04914420282215497,-0.21951262592390738,0.48143278742187745,1.6436149207047808,1.1663427573013672,-0.5858163466905182
10.819854021072388,-0.042477430402641084,-0.2261802028441551,0.4857914304666356,1.6502826092697884,1.1596699676904474,-0.5924838085235193
10.839935779571533,-0.04914406344770467,-0.23284713761942807,0.4791247637999689,1.6569495664491867,1.153001203443835,-0.599150676173488
10.860061407089233,-0.042477287904808876,-0.2395146708510358,0.4857914304666356,1.6636171716530743,1.1463277195095307,-0.6058179840932875
10.880110263824463,-0.04914396784938417,-0.24618123069574022,0.4791247637999689,1.6702837278617282,1.1396618765211444,-0.6124845770247984
10.900244951248169,-0.0458105860207362,-0.2495149474608373,0.48245809713330223,1.6736175020160824,1.1363254748087765,-0.6158182087780045
10.92035174369812,-0.04581056504449944,-0.25618178055830965,0.48245809713330223,1.6802843649821508,1.1296574980145722,-0.6224850144613292
10.940373420715332,-0.04581048256080889,-0.26284910130862915,0.48245809713330223,1.6869518323185275,1.1229855672219715,-0.6291522226494685
10.96049451828003,-0.042477079237817884,-0.2661829924941354,0.4857914304666356,1.6902858727121577,1.119647773507278,-0.6324860399776017
10.980677604675293,-0.04914375869823725,-0.2728495567683203,0.4791247637999689,1.696952418390156,1.112981911127098,-0.6391526267592712
11.000713586807251,-0.04247700869626529,-0.27951688984573636,0.4857914304666356,1.703619966330415,1.1063098176086137,-0.6458198895314672
11.020808458328247,-0.0491436878050486,-0.2861834564909448,0.4791247637999689,1.71028650781274,1.0996439438064316,-0.6524864738773466
11.040884256362915,-0.04581030157452896,-0.28951721747832027,0.48245809713330223,1.7136204364997039,1.0963070847955703,-0.6558202092950757
11.060971021652222,-0.04581031716730039,-0.29618375471627584,0.48245809713330223,1.7202869182140696,1.0896414726922177,-0.6624867536389981
11.081055402755737,-0.045810226903543444,-0.3028511645082706,0.48245809713330223,1.726954673137294,1.0829686480848175,-0.6691541574162346
11.101134300231934,-0.04581024182133234,-0.309517704045594,0.48245809713330223,1.7336211493787372,1.076303027758368,-0.6758206983102564
11.121234655380249,-0.049143537667006874,-0.31285135289100385,0.4791247637999689,1.7369549670467712,1.0729670726109293,-0.6791543612971286
11.141366481781006,-0.043554359924965695,-0.31951878434315456,0.4857914304666356,1.7436228222316126,1.0662939944741177,-0.6858218343214109
11.161418914794922,-0.05022103772416229,-0.3261853574004925,0.4791247637999689,1.7502893541075748,1.0596280904733666,-0.6924884132321885
11.18153190612793,-0.04355428150365683,-0.3328528114223725,0.4857914304666356,1.7569573054287795,1.052954766392625,-0.6991559556459536
11.20159649848938,-0.05022095848325003,-0.33951938910431756,0.4791247637999689,1.763623839459822,1.0462888307806877,-0.7058225362944186
11.22174334526062,-0.0488640500654409,-0.3428532172530848,0.48245809713330223,1.7669580066238766,1.042951262050983,-0.709156437357595
11.241913080215454,-0.05097623256176968,-0.3495197616847795,0.48245809713330223,1.7736244664900975,1.0362856300381742,-0.715822966719261
11.261918306350708,-0.05097614183316525,-0.3561872959796461,0.48245809713330223,1.7802926532455885,1.0296115053096546,-0.7224906745722186
11.28393816947937,-0.04764277313446434,-0.35952097413548806,0.4857914304666356,1.783626605840233,1.0262752179627892,-0.7258244357267525
11.304028034210205,-0.05430944870521653,-0.3661875582471537,0.4791247637999689,1.7902931422636328,1.0196092414525408,-0.7324910185577351
11.324087142944336,-0.0489396214102326,-0.37285434803280726,0.4857914304666356,1.7969600315978205,1.0129415018660581,-0.7391578375856314
11.344197511672974,-0.05227295866034531,-0.3761876398172048,0.48245809713330223,1.8002932889922703,1.0096085281657965,-0.7424911190193908
11.364313840866089,-0.05687526722032298,-0.3828544414428826,0.48245809713330223,1.8069602063412438,1.002940675751408,-0.7491579577232228
11.384663343429565,-0.061350683419688586,-0.38952118410106396,0.48245809713330223,1.8136270188109413,0.9962733455131813,-0.7558247260980958
11.405251026153564,-0.06468401105819667,-0.3928545846241094,0.4791247637999689,1.8169604800319954,0.9929394208439436,-0.759158147554909
11.425415992736816,-0.05801732245108306,-0.3995215177701956,0.4857914304666356,1.8236276570544077,0.9862703893329748,-0.7658251663065327
11.445501565933228,-0.0646840042988446,-0.4061879924303199,0.4791247637999689,1.830293952988227,0.9796054123589456,-0.7724915774502256
11.46558403968811,-0.05824632447146666,-0.41285492065582163,0.4857914304666356,1.8369611319960042,0.972936402863723,-0.7791585989645181
11.485703945159912,-0.06157966498534322,-0.41618815093084116,0.48245809713330223,1.8402942622048906,0.9696039865617597,-0.7824917918276109
11.505845546722412,-0.06824632713361126,-0.4228548872457519,0.48245809713330223,1.846961067219804,0.9629366907690459,-0.789158554478407
11.52588415145874,-0.07491299979034775,-0.42952145344674286,0.48245809713330223,1.853627532639897,0.9562709264412724,-0.7958250815316147
11.54604458808899,-0.07491299600444341,-0.4361881892433032,0.48245809713330223,1.860294338903497,0.9496036296897536,-0.8024918455063251
11.566587924957275,-0.07157966193337113,-0.43952153681239625,0.4857914304666356,1.8636277011586437,0.9462701668681684,-0.8058251990283866
11.586709022521973,-0.0782463293377814,-0.44618818904425417,0.4791247637999689,1.8702943385673814,0.9396036305840294,-0.8124918453346623
11.606783151626587,-0.07157966157356463,-0.45285488198725443,0.4857914304666356,1.8769610590935277,0.9329367222131286,-0.8191585497499815
11.62688946723938,-0.07824633646754221,-0.4595213381121642,0.4791247637999689,1.883627290513031,0.9262719776866389,-0.8258249107868957
11.646945238113403,-0.07491300232301026,-0.4628546972009345,0.48245809713330223,1.886960676918452,0.9229384046223592,-0.8291582814761893
11.667032480239868,-0.07491300870157881,-0.4695211229660454,0.48245809713330223,1.8936268411388106,0.9162739611365571,-0.8358245932496592
11.687121152877808,-0.07491300287086451,-0.47618808876971785,0.48245809713330223,1.900294132655025,0.9096044888616583,-0.8424917036018601
11.707188844680786,-0.07491300426984582,-0.48285465316213766,0.48245809713330223,1.9069605859427703,0.902938775841093,-0.849158218965122
11.727518796920776,-0.07824633751095943,-0.4861879955268085,0.4791247637999689,1.9102939380336292,0.8996053574915612,-0.8524915656151526
11.74765419960022,-0.07163134791967805,-0.49222401396039683,0.48513780489520353,1.9197228462258304,0.9006863760939319,-0.8614881839598716
11.767714977264404,-0.07804024999672379,-0.4976164557805674,0.4900407359865046,1.9294596751578776,0.9122513137667855,-0.8707215363748256
11.787798404693604,-0.08444876865156258,-0.5030511956020359,0.4958145615339602,1.9388429302084413,0.9225929982000162,-0.8796277707324729
11.808017253875732,-0.08760957036109085,-0.5056932330336187,0.49867336692575487,1.9435100447034597,0.928709275806298,-0.8840654320773388
11.827988147735596,-0.0941142393932587,-0.5107117627631336,0.5039247193277994,1.9542105190729393,0.942394059199262,-0.8941356282606784
11.848082542419434,-0.09451957022658604,-0.5155271044233736,0.5087471744508025,1.9738461870293575,0.9631376285889579,-0.9043583590716401
11.868823528289795,-0.09164305945458744,-0.5178955112272763,0.5111343450067811,1.9863191923018475,0.9760336405672709,-0.9081001810186895
11.888960123062134,-0.08460681496729096,-0.5230794544369838,0.5164881445928349,1.9985785666323153,0.9931737935687613,-0.9057621406482537
11.909079313278198,-0.0908124775805647,-0.5285960652877351,0.5224037802491617,2.007316628542545,1.0041931177158694,-0.9007086755384128
11.929101943969727,-0.09672190518145825,-0.5338520117437182,0.5275546975534072,2.0218420657863954,1.0209612633737333,-0.9000459683095949
11.94919490814209,-0.09371054898264398,-0.5364318253893833,0.5300131050599766,2.0357141236770517,1.0341484801918446,-0.9043519810651881
11.969289064407349,-0.08743239129736614,-0.5416319109431594,0.5351072016098466,2.062380597979221,1.0614248180115256,-0.9119164685774384
