liuyurong129/humanoid-gym/humanoid/data/robot1_actual_20250621-221106.csv
timestamp,joint_1,joint_2,joint_3,joint_4,joint_5,joint_6
0.00034618377685546875,0.0,0.0,0.0,0.0,0.0,0.0
0.020403623580932617,0.0,0.0,0.0,0.0,0.0,0.0
0.040485382080078125,0.0,0.0,0.0,0.0,0.0,0.0
0.06056571006774902,0.0,0.0,0.0,0.0,0.0,0.0
0.08067798614501953,0.0,0.0,0.0,0.0,0.0,0.0
0.10080099105834961,0.0,0.0,0.0,0.0,0.0,0.0
0.12086224555969238,-0.004999949239574657,-0.004999999579774697,-0.004999988486588024,-0.005000000000000001,-0.0050000009599408405,0.005000102034612699
0.1409451961517334,-0.007499950378988804,-0.0025000691587436716,-0.007499988486588024,-0.0074998730333642166,-0.007499937987840745,0.007500088701556608
0.16105437278747559,-0.01249995790520843,-0.002500069106878971,-0.012499972776328323,-0.012499873033364218,-0.01249993456976341,0.012499821910671319
0.18108129501342773,-0.017499950001869605,-0.00750006532719256,-0.01249997558549915,-0.012499883229431658,-0.017499932265983342,0.017499511105917655
0.2016124725341797,-0.019999949913103467,-0.010000061430827885,-0.009999975585499149,-0.00999989761759613,-0.01999993400050766,0.019999513995808186
0.2217092514038086,-0.024999949877631905,-0.015000057375887334,-0.004999974787616721,-0.004999916266566073,-0.024999933834930856,0.02499950160115592
0.24211430549621582,-0.029999949752154427,-0.020000053152128643,2.6060983801968335e-08,6.076745072587653e-08,-0.029999931882240812,0.029999486092571637
0.2621004581451416,-0.03499994953518338,-0.02500004874598869,0.005000026968244843,0.005000033441116011,-0.03499992810946819,0.034999467508036765
0.28210926055908203,-0.03999994948515772,-0.03000004416079365,0.010000027038323185,0.010000001723340068,-0.039999922818681054,0.03999947169234904
0.3022007942199707,-0.042499949072344466,-0.032500044137914595,0.012500028086589237,0.012500001723340069,-0.042499922397456036,0.04249943827394632
0.32232046127319336,-0.04749994855286023,-0.03750003932482044,0.01750002921689104,0.01749996559620097,-0.04749991486795824,0.04749940939975367
0.34238195419311523,-0.052499947941102076,-0.042500034294820355,0.02250003043652093,0.022499925060063035,-0.05249990547564654,0.0524993776800312
0.3624727725982666,-0.05499994800709246,-0.04500002908057377,0.02500003043652093,0.024999880135150393,-0.0549998947986542,0.05499938954011595
0.3826282024383545,-0.059999948001710594,-0.05000002363752669,0.030000030548133414,0.02999983086614779,-0.05999988227335959,0.05999939755066531
0.4030160903930664,-0.0649999480125514,-0.05500001796615572,0.035000030673164886,0.034999777323862245,-0.06499986800357516,0.06499940671242464
0.4253096580505371,-0.06749994787443071,-0.057500017959944194,0.03750003081276977,0.03749977732386225,-0.06749986792447864,0.06749940010101112
0.4455902576446533,-0.06999994804195982,-0.060000012065896106,0.040000030812769774,0.039999719611403264,-0.06999985205410551,0.06999941709572348
0.46553802490234375,-0.07499994809239416,-0.06500000593932348,0.04500003096802615,0.044999657868022305,-0.07499983451479394,0.07499942876291409
0.48563647270202637,-0.07999994816639017,-0.06999999959256155,0.05000003113990023,0.049999592273937944,-0.0799998155040939,0.07999944176556509
0.5057711601257324,-0.08249994797520777,-0.07249999958353329,0.05250003132920433,0.052499592273937946,-0.08249981540972932,0.0824994334734559
0.5258595943450928,-0.08749994805884002,-0.07749999302567945,0.057500031536547445,0.05749952305549359,-0.08749979507445439,0.08749944731381623
0.545921802520752,-0.09249995411022131,-0.0774999866332309,0.057500025627217295,0.05749945049063854,-0.0924997767813415,0.09249975378466906
0.5661716461181641,-0.09749995232764914,-0.07749997952279244,0.05250003397818471,0.052499380156718,-0.09249976061905603,0.09749934708502273
0.5863018035888672,-0.09999995260618483,-0.07999997340904284,0.050000033978184706,0.04999931167915176,-0.0899997425622726,0.09999937065891806
0.6064860820770264,-0.10499994569212967,-0.08499996731385465,0.045000043196202974,0.05101085810418184,-0.08499972113866405,0.10499888168459179
0.626518964767456,-0.10999995286727418,-0.08999996151304776,0.050000039581898234,0.05601079601701295,-0.07999970474825091,0.10999908076737924
0.6465981006622314,-0.11499995297537448,-0.09499995545759182,0.055000039759266484,0.061010736915343006,-0.07499968499004445,0.11499909299946807
0.6666858196258545,-0.11749995324263572,-0.09749994992102337,0.057500039759266486,0.06351066864243916,-0.07749950233366705,0.11749911478818949
0.6867566108703613,-0.12249995335893488,-0.1024999436976402,0.06250003995310141,0.06851060879855035,-0.08249948103540153,0.12249912735174905
0.7068376541137695,-0.12749995154052987,-0.10749993730541177,0.0667399664757052,0.07351054637492407,-0.08749945906948925,0.12749910242977522
0.7269027233123779,-0.12999995229745587,-0.109999926105738,0.06830589920616736,0.07601040598390124,-0.08999938992229761,0.1299991438321028
0.7470662593841553,-0.13499996453900745,-0.1049999206643421,0.06330589093091103,0.07101034642884967,-0.09499938595074765,0.13499952006407834
0.7671477794647217,-0.13999995928887163,-0.1099999143001195,0.05830590028525903,0.06601028750186597,-0.08999936501480207,0.13999909223696086
0.7872879505157471,-0.14499990651070577,-0.11500012233012243,0.05885541322966857,0.0710087903194536,-0.08988109253747449,0.1450000399404949
0.8077337741851807,-0.14999989752112913,-0.12000012710396724,0.06385543470057199,0.07600904150419456,-0.08488080628564623,0.14999990085881923
0.8280911445617676,-0.15249989714115936,-0.12250012686858136,0.06635544550938133,0.07850918536609364,-0.08238058114244454,0.15249976648132965
0.8480453491210938,-0.15749989681148582,-0.12250012653228971,0.0663554560567727,0.07850933107864934,-0.0773803547767021,0.15749963054001687
0.8682215213775635,-0.1624998968112951,-0.12250012653228882,0.06635545605682223,0.07350933107864933,-0.07738035477668671,0.16249963053846456
0.888385534286499,-0.16499989594560618,-0.1250001272151142,0.0688554663626563,0.07100944065807159,-0.07988030473878356,0.16499953122339828
0.90848708152771,-0.1699999122858872,-0.12000015658156071,0.06385543669806257,0.06600916088322886,-0.08488053684167994,0.16999959623433697
0.9285721778869629,-0.17499988758208754,-0.11500029354217083,0.05885531318833187,0.061008088414298035,-0.08988038627384724,0.17500021294409673
0.9486589431762695,-0.17999987856879487,-0.11129501709165439,0.05385528436422294,0.05600787321224061,-0.08487966281874226,0.18000018774415252
0.968817949295044,-0.1824998785688498,-0.11056238709714547,0.05135528436422294,0.053507873190773866,-0.08237966279983965,0.1825001877485757
0.9888536930084229,-0.18749986169041696,-0.11117377308438954,0.04681442320665498,0.053507873190773866,-0.07737965335809849,0.18749924053918168
1.008943796157837,-0.1924998727784434,-0.10981745623614432,0.04247761417605345,0.053507971881839714,-0.0723797182212385,0.19249952512771087
1.0291271209716797,-0.19499987301412092,-0.10731745122898555,0.03997761417605345,0.051007926256753704,-0.0698797139649245,0.19499954025839775
1.049243688583374,-0.1999998470555021,-0.11231744637750217,0.034977622470194994,0.046007884526390985,-0.0748796980016974,0.19999917587424362
1.0693066120147705,-0.20499981954454372,-0.11731744078853733,0.03997763647036129,0.051007991297962005,-0.07987940886553824,0.20499915023924212
1.0894136428833008,-0.2099998195445425,-0.11231744078854722,0.04497763647036158,0.046007991298157525,-0.08487940886578585,0.2099991502391877
1.1094863414764404,-0.21249981954447567,-0.10981744078854722,0.042477636470379346,0.04350799129815752,-0.08737940886577761,0.2124991502383777
1.1295654773712158,-0.2174998195444748,-0.10481744078855108,0.03747763647037968,0.03850799129823034,-0.08737940886591296,0.2174991502383416
1.149651288986206,-0.22249981851294964,-0.10370826862109499,0.03247763708767135,0.03350799129823034,-0.08237940850784373,0.2224991154806949
1.1697354316711426,-0.2274998156607917,-0.10746001355658695,0.027477639513277554,0.03350799129823034,-0.07737940714875383,0.22749898232644805
1.18984055519104,-0.22999981577797568,-0.10996000910384761,0.024977639513277555,0.03600794578094258,-0.07487939576580467,0.22999899705717197
1.2099230289459229,-0.2349998226621188,-0.11496000457934243,0.029977636734863023,0.04100790039642784,-0.06987938465492918,0.23499917814320626
1.230017900466919,-0.23999982821899069,-0.11644040170922512,0.03497763402144869,0.03600789822495389,-0.06487939118610213,0.23999935122024688
1.2500975131988525,-0.24249980833904966,-0.11894040164795212,0.03747763838082155,0.03850789822495389,-0.0673793888208283,0.24249911989573678
1.2701725959777832,-0.24749979945582362,-0.11894039881016032,0.037477641806196116,0.03850792344010397,-0.06737929139956264,0.2474991118597988
1.2902517318725586,-0.2524997994557541,-0.11894039881016018,0.03247764180620964,0.03350792344010396,-0.06237929139955485,0.2524991118590392
1.310333013534546,-0.2574998015621417,-0.12394040738550252,0.027477626495637595,0.02850757163767526,-0.057378131648659216,0.2574993888188374
1.3309967517852783,-0.25999977768350696,-0.12644040884568725,0.02497762277816793,0.02600747838913062,-0.054877904635968956,0.25999936939636026
1.3511087894439697,-0.2649997616301917,-0.13144039595160778,0.02997762913758476,0.03100738013343381,-0.04987718809888857,0.26499940793254834
1.3711943626403809,-0.2699997647141511,-0.13644038424983168,0.03497763314608573,0.02600731806491819,-0.04487659068146093,0.2699994430742169
1.3912639617919922,-0.27499976471408877,-0.13144038424983182,0.0399776331460891,0.021007318064918193,-0.049876590681459644,0.27499944307410806
1.411346435546875,-0.277499764714163,-0.12894038424983142,0.03747763314608465,0.018507318064918194,-0.047376590681462126,0.2774994430743281
1.4315991401672363,-0.2824997647141628,-0.12394038424983142,0.03247763314608475,0.013507318064918195,-0.04237659068146203,0.2824994430743182
1.4515924453735352,-0.28749976471415234,-0.11894038422642024,0.027477633146084788,0.00850731775565738,-0.037376590719186004,0.2874994431121233
1.471709966659546,-0.29249976471415234,-0.11394038422642024,0.02247763314608479,0.0035073177556570836,-0.0323765907191861,0.2924994431121233
1.4917802810668945,-0.2949997647141391,-0.11144038422488833,0.01997763314608479,0.0010073177302940594,-0.029876590725888413,0.29499944311397613
1.5118677616119385,-0.29999976508971843,-0.10644038421323711,0.014977634076503743,-0.003992682269705941,-0.024876590536710937,0.2999994246530521
1.5319085121154785,-0.304999765372487,-0.10144038023057685,0.00997763492414581,-0.00899269572653152,-0.01987659662633847,0.3049994133152105
1.5520167350769043,-0.309999770195679,-0.10112476527189572,0.0049776444049013,-0.01399270866305655,-0.01487659788427593,0.3099991532805698
1.5721192359924316,-0.3124997684346303,-0.10362476507141145,0.0031596636488606202,-0.011492708663056551,-0.012376590707140296,0.3124984614656048
1.592188835144043,-0.3174997677627488,-0.10862476251579233,0.004023470555304621,-0.006492713202539293,-0.007376584503731528,0.31749847201966774
1.6123006343841553,-0.32249974881769267,-0.11362475875227608,0.009023471147728833,-0.0014927194828894146,-0.003316766631978408,0.3224984080237243
1.6323432922363281,-0.3274997806502038,-0.11862475536324968,0.009023477187673953,-0.0014927340019639775,0.0005871095995090138,0.3274989558297561
1.652904748916626,-0.3299997805834342,-0.12112475186556233,0.0065234771876739525,-0.003992736269989795,0.003087111651154435,0.3299989558506268
1.673032522201538,-0.33499976853734,-0.12612474846048927,0.0015234775058277036,0.0010072635213258948,0.008087119733023226,0.3349984418360322
1.6931064128875732,-0.33999976746893,-0.13112474497892956,0.006523473135949037,0.006007267581704438,0.013087127541276385,0.33999832944812425
1.7131898403167725,-0.3449997692423091,-0.13612474139267275,0.011523473290729511,0.0010072747476952098,0.018087133891678115,0.3449983818816846
1.7332847118377686,-0.3499997681061964,-0.14112473793182395,0.0065234736395056395,0.003479483403382804,0.02308713154205592,0.3499983664747706
1.7533643245697021,-0.35249976201091016,-0.14362473801051032,0.009023467444079641,0.005979483403382804,0.02558713574173117,0.3524979005305003
1.7734425067901611,-0.3574997619903793,-0.14862473404737636,0.014023467444079642,0.010979426006264318,0.025587396299574554,0.357497906057901
1.7935707569122314,-0.3624997673320256,-0.15362473015761371,0.014023477147335534,0.010979437880417471,0.020587397051369766,0.36249875256049674
1.8140764236450195,-0.3649997673041162,-0.15612472686104753,0.011523477147335533,0.008479446760099037,0.018087397571674563,0.36499874977275765
1.834244728088379,-0.3699997994057565,-0.16112453275717908,0.006523605230202711,0.004473581977078666,0.013087868692591256,0.3699980307891774
1.8543014526367188,-0.3649998112576975,-0.16612452151749316,0.0115235887545172,0.009472855904959339,0.008089851830306586,0.3749986026561489
1.8743743896484375,-0.35999981125794683,-0.16112452151749743,0.016523588754514915,0.004472855904959338,0.013089851830296803,0.379998602657248
1.894463062286377,-0.3574998112578255,-0.1586245215174953,0.014023588754514663,0.001972855904959338,0.012355040798096297,0.3824986026567518
1.9145512580871582,-0.3524998112577666,-0.15362452151749437,0.009023588754514018,-0.0030271440950406622,0.009193710869113626,0.3874986026564933
1.9346544742584229,-0.34749981125776547,-0.14862452151749436,0.004023588754514008,-0.008027144095040663,0.0041937108691136645,0.3924986026564892
1.9556427001953125,-0.34499981125739715,-0.14612452150464036,0.0015235887545140083,-0.010527144118907953,0.0016937110019806874,0.3949986026593418
1.9757847785949707,-0.3399998112573971,-0.14112452150464036,-0.003476411245485993,-0.015527144118907954,-0.0033062889980193092,0.39999860265934145
1.9958322048187256,-0.33499981125694855,-0.13612452149312615,-0.008476411245485994,-0.020527144202008036,-0.008306288894066212,0.40499860266620813
2.0159194469451904,-0.32999981086576524,-0.13112452130565566,-0.013476410660839764,-0.02552714504192335,-0.013306288115094057,0.409998594507294
2.036036252975464,-0.3274998107290084,-0.12862451832511296,-0.015976410660839765,-0.028027154694442606,-0.015806283661703578,0.41249859638042574
2.0562102794647217,-0.3224998102566713,-0.12362451541919901,-0.020976410090082612,-0.03302716684588218,-0.020806280034662204,0.4174985880392172
2.0761752128601074,-0.31749980983571846,-0.1186245125813749,-0.02597640952928916,-0.038027181425297485,-0.025806277349650478,0.4224985777813504
2.096349000930786,-0.3149998096345519,-0.11612451257607859,-0.028476408974598348,-0.04052718142529749,-0.028306277204581547,0.4249985622025992
2.116398811340332,-0.30999980933046944,-0.11112450979533355,-0.03347640842227696,-0.04552719835575253,-0.033306275463843904,0.4299985477923332
2.1365132331848145,-0.30499980908052127,-0.10612450706693975,-0.0384764078687718,-0.05052721755452485,-0.038306274704133565,0.4349985316721909
2.156845808029175,-0.2999998089008847,-0.10112450475495152,-0.04347640730870935,-0.055527208299355445,-0.043306280973927205,0.43413823647980154
2.1769561767578125,-0.29749980872926096,-0.09862450243397933,-0.045976407308709354,-0.05802720989135665,-0.04580628644364317,0.4316382406419449
2.197178602218628,-0.29249980857571345,-0.09362449983011435,-0.05097640674331794,-0.06302723532131817,-0.05080628861214455,0.42663822185477995
2.2171785831451416,-0.28749980847190165,-0.08862449725434167,-0.05597640616763031,-0.06802726262725912,-0.05580629170954305,0.42163820163119164
2.237199068069458,-0.2824998084153306,-0.08362449470201833,-0.06097640557925613,-0.07302729169327271,-0.06080629570230308,0.4166381800875676
2.2572953701019287,-0.27999980862949314,-0.08112449465212919,-0.06347640497618236,-0.07552729169327271,-0.06330629538527646,0.4141381505291087
2.2774112224578857,-0.27499980704921817,-0.07612449349181225,-0.06794588811538788,-0.08052729986518356,-0.06830628329396109,0.40913816115962615
2.2974801063537598,-0.26999980586400685,-0.0711244930120548,-0.07156616936595084,-0.08552729636862688,-0.0733062634726919,0.4041381647261409
2.317568302154541,-0.26499980493516373,-0.06612449228290843,-0.0744985970914902,-0.09052729817006043,-0.07830624843455836,0.39913816390070816
2.337646722793579,-0.26249980482986196,-0.06362449130795565,-0.07574873738234118,-0.09302730485477274,-0.08080623757205808,0.39663816778387945
2.3579461574554443,-0.2574998040904233,-0.058624490168673014,-0.07788647711923709,-0.09802731601409212,-0.08580623013691788,0.3916381638257474
2.377876043319702,-0.2524998035286703,-0.05362448884329709,-0.07961804623449531,-0.10302733124283474,-0.09080622569583695,0.3866381564363016
2.3979647159576416,-0.24749980311564615,-0.048624487349573024,-0.08102061714965034,-0.10802735013705107,-0.09580622383833129,0.3816381460466377
2.41908860206604,-0.24499980302225505,-0.04612448731060021,-0.08161855502930537,-0.11052735013705108,-0.0983062235677869,0.37913812591215396
2.4392383098602295,-0.23999980285870967,-0.04112448564695231,-0.08264102910111666,-0.11552737229174273,-0.1033062238901416,0.37413810992619695
2.459271192550659,-0.23499980278102847,-0.03612448385122706,-0.08346923303708634,-0.12052739729838975,-0.10830622613417967,0.36913809217278604
2.479355812072754,-0.22999980277393559,-0.031124481942365886,-0.08414007816874841,-0.12552742474224987,-0.11330623002107937,0.36413807304697055
2.4994328022003174,-0.22499980282391746,-0.02612447994031667,-0.08468346267543836,-0.13052745419945128,-0.11830623529472778,0.3591380529354117
2.5195200443267822,-0.22249980255768292,-0.023624477992149368,-0.08491511640789452,-0.1330274852339198,-0.12080624220456095,0.35663806318884944
2.539597988128662,-0.21749980264006588,-0.0186244758818735,-0.08531124367498823,-0.13802751739418537,-0.12580624957063336,0.351638043088503
2.5596799850463867,-0.21249980275921895,-0.01362447374418133,-0.0856321067306394,-0.14302755021011052,-0.13080625761979786,0.34663802265360033
2.5797903537750244,-0.2099998031998431,-0.011124473594111452,-0.08576889531513689,-0.14552755021011052,-0.13330625707474797,0.34413799046164545
2.6001083850860596,-0.20499980336597395,-0.006124471446186511,-0.08600280444907205,-0.15052758318958107,-0.13830626556427653,0.339137970163223
2.6200122833251953,-0.1999998035367174,-0.001124469326892595,-0.08619227084596978,-0.15552761581519384,-0.1433062742909779,0.3341379507429987
2.6400954723358154,-0.19499980370315004,0.0038755327338256917,-0.08634573863951525,-0.16052764754097285,-0.14830628302184867,0.3291379325700812
2.66015362739563,-0.18999980385656012,0.008875534703813907,-0.08647004757961045,-0.16552767778914163,-0.15330629151574898,0.32413791601514236
2.6802897453308105,-0.18749980358166024,0.01137553639349575,-0.08652304282164941,-0.16802770594697589,-0.155806300043282,0.32163792753146336
2.700495958328247,-0.18249980373231034,0.016375538089122166,-0.08661366407888405,-0.17302773136375907,-0.16080630725073874,0.31663791230449523
2.7204902172088623,-0.1774998038596404,0.021375539589277442,-0.08668706735416247,-0.17802775334786033,-0.16580631340858693,0.3116378991382069
2.740541458129883,-0.1724998039557857,0.026375540852474004,-0.08674652408289454,-0.183027771163954,-0.17080631821961978,0.30663788837554706
2.7606453895568848,-0.16999980416872962,0.028875540948447832,-0.08677187125523941,-0.185527771163954,-0.17330631789039053,0.30413787348765053
2.7807276248931885,-0.1649998041285059,0.033875541895777274,-0.08681521543006943,-0.19052778403039777,-0.17830632114722486,0.29913787068923264
2.800804376602173,-0.15999980402352768,0.038875542505735515,-0.08685032437224746,-0.19552779111678661,-0.1833063224338454,0.2941378718028623
2.820868968963623,-0.15499980384482925,0.04387554272719844,-0.0868787628064555,-0.2005277915416979,-0.1883063213979502,0.28913787722525675
2.8412771224975586,-0.15249980386941547,0.046375542606960585,-0.08689088652580995,-0.20302778437064378,-0.19080631739182813,0.2866378762946429
2.8611764907836914,-0.14749980368933668,0.051375541962828314,-0.08691161834618993,-0.20802776861424577,-0.19580631033179477,0.2816378827702615
2.8813180923461914,-0.14249980342900767,0.05637554077150656,-0.08692841135504314,-0.21302774322664575,-0.20080629971595151,0.27663789375309294
2.901801586151123,-0.13999980277392143,0.05887554050227673,-0.08693557106865345,-0.21552774322664575,-0.20330630049740098,0.2741379233687154
2.921935796737671,-0.13499980220677504,0.0638755385952872,-0.08694781375655648,-0.22052770710416839,-0.20830628619430241,0.2691379500653778
2.9419877529144287,-0.1299998001029057,0.06887553766430074,-0.08695773196078703,-0.2255277071041684,-0.21330628894060982,0.2641380487602127
2.962083101272583,-0.12499979747971716,0.07387553646242598,-0.08696576651255011,-0.2305277071041684,-0.21830629250398642,0.25913817312629056
2.9822347164154053,-0.12249979595757153,0.07637553574815795,-0.0869691921126987,-0.2330277071041684,-0.22080629462778462,0.2566382456882588
3.0022497177124023,-0.11749979245941113,0.08137553406772251,-0.08697505063127497,-0.2380277071041684,-0.22580629963663998,0.25163841313229407
3.022308111190796,-0.11249978831087326,0.08637553201535418,-0.08697979709596607,-0.2430277071041684,-0.2308063057710583,0.24663861249596575
3.0427589416503906,-0.1099997859752681,0.08887553083536767,-0.08698182103844461,-0.2455277071041684,-0.23330630930442187,0.2441387249818147
3.0628502368927,-0.10499978074537224,0.09387552813720486,-0.0869852829418854,-0.2505277071041684,-0.23830631739790212,0.23913897728578187
3.082916259765625,-0.09999977472107481,0.09887552494468553,-0.08698808845121853,-0.2555277071041684,-0.24330632699503146,0.23413926840474852
3.102992296218872,-0.09499976784127007,0.10387552120240294,-0.08699036241550878,-0.2605277071041684,-0.2483063382681999,0.22913960127026012
3.123081684112549,-0.0899997600429456,0.10887551685109782,-0.08699220597010836,-0.2655277071041684,-0.2533063514025375,0.22413997890791856
3.143173933029175,-0.0874997557791448,0.11137551442746424,-0.08699299259149067,-0.2680277071041684,-0.2558063587290783,0.22164018548648687
3.163271903991699,-0.08249974648091793,0.1163755090428352,-0.08699433916062631,-0.2730277071041684,-0.2608063750311085,0.21664063615046728
3.183380603790283,-0.077499736098845,0.12137550288352932,-0.08699543191334275,-0.2780277071041684,-0.2658063937153353,0.21164113953249974
3.204110622406006,-0.07499973047986697,0.12387549949057339,-0.08699589861276787,-0.2805277071041684,-0.2683064040228865,0.20914141202651249
3.224337100982666,-0.06999971834221981,0.12887549203015217,-0.08699669843608573,-0.2855277071041684,-0.27330642672081423,0.20414200072685468
3.24454665184021,-0.0649997049455813,0.13387548360340779,-0.08699734876113467,-0.2905277071041684,-0.2783064524088631,0.1991426505659195
3.264442205429077,-0.059999690217588726,0.1388754741262122,-0.08699787818049186,-0.2955277071041684,-0.2833064813552718,0.19414336502110596
3.2844886779785156,-0.054999674084784435,0.14387546351012742,-0.08699830986158541,-0.30052770710416843,-0.288306513842766,0.18914414762031706
3.3045902252197266,-0.052499665468363016,0.1463754577461848,-0.08699849506448207,-0.30302770710416843,-0.29080653150673863,0.1866445655880739
3.324673891067505,-0.047499678075572684,0.15086412877939837,-0.08699875907731537,-0.30802770710416844,-0.2958065078987404,0.18164401620737783
3.3447508811950684,-0.04249967659893377,0.15449994984035537,-0.08699899485262545,-0.31302784025263225,-0.30080657034788,0.17664409380037685
3.365262269973755,-0.03749967588367969,0.1574449620007846,-0.08699918583062662,-0.3180279037424553,-0.30580660109428587,0.17164413150142574
3.385366678237915,-0.03499967606834012,0.1587004659177629,-0.0869992669423148,-0.3205279037424553,-0.3083066007824233,0.1691441245870298
3.4054558277130127,-0.029999675527690256,0.16084737698481666,-0.08699940735236791,-0.3255279037424553,-0.313306602139203,0.16414415356014042
3.4256398677825928,-0.02499967383968992,0.16258637414104243,-0.08699952324583957,-0.33052790374245533,-0.3183066060768989,0.15914423639102518
3.4456098079681396,-0.019999671067908883,0.16399496104364972,-0.0869996192115089,-0.33552790374245534,-0.3233066125472821,0.15414436992209135
3.4657185077667236,-0.0174996692913141,0.1645954635754067,-0.08699966091885518,-0.33802790374245534,-0.3258066167238557,0.1516444549021096
3.4858226776123047,-0.012499664980988458,0.16562232230339863,-0.08699973378500486,-0.34302790374245534,-0.3308066269555052,0.14664466002486717
3.505894422531128,-0.007499659685274655,0.1664540770802682,-0.08699979482191857,-0.34802790374245535,-0.3358066397016094,0.14164491072680632
3.5259673595428467,-0.0049996566746205225,0.16680866696374072,-0.08699982162440105,-0.35052790374245535,-0.33830664702589375,0.1391450527898757
3.546055793762207,3.50063598439105e-07,0.16741501504258047,-0.08699986900313668,-0.35552790374245535,-0.3433066636036452,0.1341453698046407
3.5661468505859375,0.0050003577515989,0.16790615615403143,-0.08699990942830321,-0.36052790374245536,-0.34830668280166827,0.12914573021615633
3.5862605571746826,0.010000366387722816,0.16830397959654866,-0.08699994425848527,-0.36552790374245536,-0.35330670469128317,0.12414613374729934
3.6063826084136963,0.0125003710623568,0.16847357766941023,-0.08699995993127585,-0.36802790374245536,-0.3558067166716868,0.12164635166945544
3.6264491081237793,0.01750038112945606,0.1687635896795602,-0.08699998838957249,-0.37302790374245537,-0.36080674276343555,0.11664681992564553
3.646526575088501,0.022500392162894522,0.16899849846674087,-0.0870000136676745,-0.3780279037424554,-0.36580677178492715,0.1116473316709868
3.667088508605957,0.02500039804627402,0.169098643414097,-0.08700002533056232,-0.3805279037424554,-0.3683067874301153,0.10914760399363445
3.687201976776123,0.03000041055654913,0.1692698905035213,-0.08700004706799806,-0.3855279037424554,-0.3733068210665244,0.10414818189946307
3.7078537940979004,0.03500042407355619,0.16940859959778307,-0.08700006709639786,-0.3905279037424554,-0.37830685794053787,0.09914880471832374
3.7282135486602783,0.03750043121582289,0.16946773305292817,-0.08700007660203649,-0.3930279037424554,-0.3808068776346836,0.0966491332047913
3.748528480529785,0.040000438617467715,0.16952095286756474,-0.0870000858294931,-0.3955279037424554,-0.3833068981908264,0.09414947321108715
3.768672227859497,0.0450004542099899,0.16961195786838396,-0.08700010360757876,-0.4005279037424554,-0.38830694196336935,0.08915018821218824
3.788713216781616,0.0500004708739287,0.16968567071774454,-0.08700012071068142,-0.4055279037424554,-0.39330698941047154,0.08415095060941473
3.8087878227233887,0.05500048863279984,0.1697453768686178,-0.08700013736927578,-0.4105279037424554,-0.3983070406898154,0.07915176132588121
3.828871488571167,0.05750049793029053,0.16977083003751028,-0.08700014559253778,-0.4130279037424554,-0.4008070678170971,0.07665218509795894
3.848952531814575,0.0625005173763476,0.1698143539231141,-0.0870001619291776,-0.4180279037424554,-0.40580712514996214,0.07165307006212811
3.8690359592437744,0.0675005379770046,0.16984960686579645,-0.08700017823404156,-0.4230279037424554,-0.41080718672681865,0.06665400570606837
3.8890950679779053,0.07250055975570077,0.16987816028310643,-0.08700019462296507,-0.4280279037424554,-0.4158072527170662,0.06165499295989558
3.909818410873413,0.07500057109397099,0.1698903324670564,-0.08700020287924863,-0.4305279037424554,-0.4183072874205533,0.05915550622448831
3.929959297180176,0.08000059468222125,0.1699111457028142,-0.08700021956602264,-0.4355279037424554,-0.42330736035132976,0.05415657257853385
3.95003604888916,0.08500061950383209,0.16992800279906012,-0.08700023654105779,-0.44052790374245543,-0.4283074381232508,0.04915769273430376
3.970338821411133,0.09000061566676806,0.16994167134841412,-0.08700019159825681,-0.44552758934444336,-0.43330726134316394,0.0441574744514875
3.9905619621276855,0.09250061366586884,0.16994749826067929,-0.08700017243843113,-0.4480274255935763,-0.43580716868387037,0.04165736040194678
4.01062273979187,0.09750060949626592,0.16995746187066704,-0.0870001396751292,-0.4530270847314878,-0.4408069745662693,0.03665712226224077
4.030692100524902,0.10250060509902212,0.16996553185226979,-0.08700011313685466,-0.45802672572354103,-0.44580676836875244,0.03165687044330044
4.050751447677612,0.10750060046974855,0.16997206798930406,-0.08700009164085228,-0.4630263481882551,-0.4508065496760735,0.02665660460751567
4.070859909057617,0.1100005980668278,0.1699748542336204,-0.08700008247676705,-0.46552615235946077,-0.45330643551532007,0.024156466332115566
4.091022729873657,0.11500059308208566,0.16997961828746305,-0.0870000668061813,-0.47052574636549255,-0.4583061973103644,0.019156178873446582
4.111140251159668,0.12000060162255977,0.16998348115193498,-0.08700007571660566,-0.47552574636549255,-0.46330622654818604,0.014156559907638202
4.131180286407471,0.1250006105533479,0.16998660947574581,-0.08700008414147824,-0.48052574636549256,-0.46830625750142835,0.00915695786060706
4.151265382766724,0.12750061516680652,0.16998794289132235,-0.08700008821258522,-0.48302574636549256,-0.47080627363781397,0.006657163250076504
4.171376705169678,0.13250062469227464,0.16999022255008817,-0.0870000961377671,-0.48802574636549256,-0.47580630726001977,0.0016575869492754564
4.191433906555176,0.1375006346185181,0.16999206842532302,-0.08700010384540421,-0.49302574636549257,-0.4808063427198177,-0.0033419720209928823
4.211569309234619,0.14250064494813589,0.16999356291610296,-0.08700011140601212,-0.49802574636549257,-0.4858063800611925,-0.008341513564141279
4.231686115264893,0.14500065026481307,0.16999419977579033,-0.08700011514904359,-0.5005257463654925,-0.48830639945052795,-0.010841277779250829
4.25175142288208,0.15000066120267894,0.16999528827170643,-0.0870001225893194,-0.5055257463654924,-0.4933064396911121,-0.015840793072242922
4.271846771240234,0.1550006725470041,0.16999616923803795,-0.08700012999911204,-0.5105257463654923,-0.49830648191158633,-0.020840290841528344
4.291907787322998,0.1600006842975989,0.16999688208764094,-0.08700013740726999,-0.5155257463654922,-0.5033065261459954,-0.025839771108839702
4.312033653259277,0.16250069032495884,0.16999718569688316,-0.08700014111765463,-0.5180257463654921,-0.5058065490281525,-0.028339504695762973
4.332089424133301,0.16750070268276132,0.16999770428796993,-0.08700014856134433,-0.523025746365492,-0.5108065963398961,-0.03333895882886965
4.352156400680542,0.17250071544265658,0.16999812357265776,-0.08700015604536983,-0.5280257463654919,-0.5158066457355359,-0.03833839567118503
4.372217416763306,0.17750072860146535,0.1699984624043462,-0.087000163577428,-0.5330257463654918,-0.5208066972364563,-0.04333781537105387
4.392378807067871,0.18000073532923083,0.16999860654322813,-0.08700016736278575,-0.5355257463654918,-0.5233067237819754,-0.045837518849002494
4.412394285202026,0.18500074907854447,0.1699988524015792,-0.08700017497294087,-0.5405257463654917,-0.5283067784719944,-0.050836913193968776
4.43251371383667,0.1900007632150148,0.16999905072543406,-0.08700018263462192,-0.5455257463654916,-0.5333068353026419,-0.0558362909286038
4.452568769454956,0.1950007777324206,0.16999921053533626,-0.08700019034439925,-0.5505257463654915,-0.538306894280392,-0.06083565233006648
4.472656965255737,0.19750078513179536,0.16999927833881248,-0.08700019421566504,-0.5530257463654914,-0.5408069245752024,-0.06333532700242084
4.492757081985474,0.20250080020706648,0.16999939363560482,-0.08700020198662659,-0.5580257463654913,-0.5458069867756765,-0.06833466450318573
4.51283073425293,0.20750081564399375,0.16999948617156843,-0.08700020978857759,-0.5630257463654912,-0.5508070511191174,-0.0733339865216473
4.533276796340942,0.21250083143341159,0.16999956026480223,-0.08700021761203128,-0.5680257463654911,-0.5558071175954751,-0.07833329345985734
4.554234504699707,0.21500083945722004,0.16999959151637664,-0.08700022152853375,-0.570525746365491,-0.5583071516290152,-0.08083294140886685
4.574333190917969,0.22000085575643785,0.16999964429375425,-0.0870002293639614,-0.5755257463654909,-0.5633072212751435,-0.08583222655495967
4.59452486038208,0.22500087238176997,0.16999968617268282,-0.08700023719248709,-0.5805257463654908,-0.568307293007467,-0.0908314977731874
4.614562034606934,0.23000088932134685,0.16999971922255358,-0.0870002450013151,-0.5855257463654907,-0.5733073667985665,-0.09583075558071846
4.634622812271118,0.23500090656258896,0.16999974512112587,-0.08700025277704007,-0.5905257463654906,-0.5783074426160235,-0.10083000052505874
4.655125141143799,0.2375009152922172,0.16999975582450955,-0.08700025664816244,-0.5930257463654905,-0.5808074812731427,-0.10332961835259444
4.6749114990234375,0.24250093296089853,0.16999977346488662,-0.08700026434805289,-0.5980257463654904,-0.5858075600584702,-0.10832884509174864
4.694998264312744,0.2475009508969111,0.16999978688932876,-0.0870002719794094,-0.6030257463654903,-0.5908076407674224,-0.11332806046011801
4.715069532394409,0.25000095996056637,0.16999979227901837,-0.08700027576480801,-0.6055257463654903,-0.5933076818279387,-0.11582766408007648
4.735178470611572,0.2550009782696722,0.16999980084387797,-0.08700028326579357,-0.6105257463654902,-0.5983077653278076,-0.12082686360421964
4.755362033843994,0.26000099680812694,0.169999806934871,-0.08700029066128967,-0.6155257463654901,-0.6033078506183956,-0.1258260534071487
4.7948243618011475,0.26000099680812694,0.169999806934871,-0.08700029066128967,-0.6155257463654901,-0.6033078506183956,-0.1258260534071487
4.814927816390991,0.2650010155598608,0.16999981103199166,-0.08700029793638363,-0.62052574636549,-0.6083079376384418,-0.13082523418671416
4.834991216659546,0.27000103450836976,0.16999981352567325,-0.08700030507620128,-0.6255257463654899,-0.6133080263222581,-0.13582440665973303
4.855084180831909,0.27250104405115,0.16999981427300007,-0.08700030859076108,-0.6280257463654898,-0.6158080712663812,-0.13832399001000636
4.875158786773682,0.27750106326304047,0.16999981493871458,-0.08700031550003025,-0.6330257463654897,-0.6208081623134022,-0.1433231514039771
4.895253896713257,0.2825010826288518,0.16999981468904143,-0.08700032223745544,-0.6380257463654896,-0.6258082548416991,-0.14832230635366883
4.9153501987457275,0.2875011021309306,0.16999981371512413,-0.08700032878882434,-0.6430257463654895,-0.6308083487714635,-0.1533214556268142
4.93541693687439,0.29000111192749234,0.16999981300661138,-0.08700033199038408,-0.6455257463654894,-0.6333083962359726,-0.15582102837738027
4.955599546432495,0.2950011316004065,0.169999811230507,-0.08700033823675006,-0.6505257463654893,-0.6383084921105443,-0.16082017059643544
4.975752830505371,0.3000011513646043,0.16999980906994727,-0.0870003442630787,-0.6555257463654892,-0.6433085891719423,-0.16581930909731696
4.995774030685425,0.30500117120188225,0.16999980662047404,-0.08700035005653826,-0.6605257463654891,-0.6483086873288987,-0.17081844467350574
5.015918731689453,0.30750118114222363,0.16999980531258435,-0.0870003528620702,-0.663025746365489,-0.6508087367889435,-0.17331801161358465
5.035979747772217,0.3125012010549022,0.16999980257313613,-0.08700035828329318,-0.668025746365489,-0.6558088364122716,-0.1783171442957373
5.056208848953247,0.3175012209950564,0.16999979971707097,-0.08700036344189502,-0.6730257463654888,-0.6608089368917641,-0.1833162760439426
5.0761637687683105,0.32250124094453325,0.1699997967937552,-0.08700036832702014,-0.6780257463654887,-0.6658090381279103,-0.18831540765189136
5.096567392349243,0.32500125091712684,0.16999979532003054,-0.08700037066381508,-0.6805257463654887,-0.6683090889981562,-0.19081497365011232
5.1166698932647705,0.33000127084682923,0.16999979237095864,-0.0870003751198165,-0.6855257463654886,-0.6733091911790462,-0.19581410652538384
5.13674521446228,0.33500129074110324,0.169999789445509,-0.08700037927814984,-0.6905257463654885,-0.678309293860997,-0.20081324122046765
5.156883716583252,0.34000131058241856,0.16999978657036746,-0.08700038313040338,-0.6955257463654884,-0.6833093969398382,-0.2058123785046252
5.177216291427612,0.3450013303535205,0.16999978376812266,-0.08700038666893029,-0.7005257463654883,-0.6883095003107529,-0.2108115191358728
5.197366714477539,0.3475013402074348,0.1699997824004509,-0.08700038831837163,-0.7030257463654882,-0.6908095520728816,-0.21331109094001946
5.217467546463013,0.35250135984156666,0.1699997797426363,-0.0870003913737011,-0.7080257463654881,-0.6958096556847179,-0.21831023798420324
5.237446546554565,0.3575013793638164,0.16999977720054424,-0.08700039409967929,-0.713025746365488,-0.7008097593257723,-0.2233093902097647
5.257841348648071,0.36000138907797397,0.16999977597701604,-0.0870003953376266,-0.7155257463654879,-0.7033098111245225,-0.22580896848660473
5.277967214584351,0.36500140840257067,0.16999977363219648,-0.08700039756082781,-0.7205257463654878,-0.7083099146133628,-0.23080812980041926
5.2980828285217285,0.3700014275761702,0.16999977143208783,-0.08700039944424408,-0.7255257463654877,-0.7133100178711881,-0.23580729802271935
5.318137884140015,0.3750014465839567,0.1699997693854975,-0.08700040098519055,-0.7305257463654876,-0.7183101207956725,-0.24080647380913214
5.338242530822754,0.37750145602118096,0.16999976842217016,-0.08700040162663279,-0.7330257463654876,-0.72081017210132,-0.2433060647377491
5.358297824859619,0.3825014747536082,0.1699997666196194,-0.08700040265071404,-0.7380257463654875,-0.7258102743371472,-0.24830525305091117
5.378404855728149,0.38750149328550443,0.16999976498734662,-0.08700040332935813,-0.7430257463654873,-0.730810375990693,-0.2533044504678736
5.398756980895996,0.39000150247220045,0.16999976423664595,-0.08700040353920278,-0.7455257463654873,-0.7333104265689808,-0.2558040527703944
5.418898105621338,0.3950015206793072,0.1699997628688044,-0.08700040370052063,-0.7505257463654872,-0.7383105271695827,-0.26080326490968186
5.43895959854126,0.40000153865477034,0.16999976168204592,-0.08700040351872695,-0.7555257463654871,-0.7433106269520446,-0.2658024875368619
5.4590606689453125,0.40500155638722035,0.16999976067932876,-0.08700040299619827,-0.760525746365487,-0.7483107258265305,-0.27080172115880885
5.47993540763855,0.4075015516971084,0.16999977095821392,-0.08700036269657845,-0.763025258833952,-0.750810237042639,-0.273302096889595
5.499760389328003,0.41250154246594284,0.16999978875475344,-0.08700029378422854,-0.7680242922206444,-0.7558092607115445,-0.27830284196880184
5.519899606704712,0.4175015334429176,0.16999980348129823,-0.08700023796522512,-0.7730233379262439,-0.7608082871825846,-0.28330357771001596
5.539930582046509,0.4225015246326166,0.16999981573176315,-0.08700019275183234,-0.7780223965388574,-0.7658073171806076,-0.2883043036402298
5.560795068740845,0.4250015203085282,0.16999982108240955,-0.0870001734766491,-0.7805219308605741,-0.7683068337256302,-0.290804662785148
5.580918788909912,0.4300015118247746,0.16999983049008432,-0.08700014051608576,-0.7855210098681378,-0.7733058703476244,-0.29580537316618966
5.6009910106658936,0.4350015035629419,0.16999983845595404,-0.08700011381802947,-0.7905201031156014,-0.7783049122554195,-0.3008060726628613
5.621081829071045,0.4400014955258123,0.16999984526230988,-0.08700009219260386,-0.7955192110798587,-0.7833039601277937,-0.3058067608905836
5.641210556030273,0.44250149159224234,0.1699998483037497,-0.08700008297334348,-0.7980187707208674,-0.7858034865084594,-0.3083071006655352
5.661340236663818,0.44750148389628164,0.1699998537842899,-0.08700006720840822,-0.8030179015827811,-0.7908025445649656,-0.3133077713258828
5.6813976764678955,0.45250147642978783,0.16999985859563302,-0.08700005443881065,-0.8080170482099149,-0.79580161021017,-0.31830842987044017
5.7014265060424805,0.4575014691938122,0.16999986287108332,-0.08700004409543662,-0.8130162109636414,-0.8008006840615902,-0.32330907600673203
5.7216880321502686,0.46000146566246775,0.16999986484227322,-0.08700003968589295,-0.8155157984918241,-0.803300224252181,-0.3258093943376283
5.741817951202393,0.46500145877321053,0.16999986850847848,-0.0870000321455733,-0.8205149860403955,-0.8082993115268996,-0.3308100213710936
5.761891603469849,0.47000145211506,0.1699998718691359,-0.08700002603791437,-0.8255141904739345,-0.8132984084623479,-0.33581063538090233
5.782055377960205,0.4750014456874703,0.16999987498638902,-0.08700002109071064,-0.8305134120381883,-0.8182975156022644,-0.3408112361669011
5.802063465118408,0.4800014394894713,0.16999987791001195,-0.08700001708347561,-0.835512650946415,-0.8232966334674434,-0.3458118235548906
5.822167158126831,0.482501436476153,0.16999987931197563,-0.08700001537512805,-0.838012276962375,-0.8257961965783097,-0.3483121121772142
5.842248201370239,0.48750143061983253,0.16999988201712754,-0.08700001245385372,-0.843011542216361,-0.8307953314560058,-0.35331267919753884
5.862354278564453,0.4925014249889288,0.16999988461340085,-0.08700001008762151,-0.848010825208166,-0.8357944782562406,-0.3583132324956489
5.882389545440674,0.4950014222572961,0.1699998858778929,-0.08700000907885935,-0.8505104733891954,-0.8382940562644168,-0.3608135039709602
5.902554273605347,0.5000014169600537,0.16999988835125526,-0.08700000735387607,-0.8555097831718772,-0.8432932217572324,-0.3658140365314669
5.922629117965698,0.5050014118817798,0.16999989076304253,-0.08700000595663962,-0.8605091108943257,-0.8482924002137372,-0.3708145551988672
5.9426867961883545,0.5100014070193243,0.16999989312542257,-0.08700000482487809,-0.8655084565860064,-0.8532915920053229,-0.37581505994579184
5.962766885757446,0.5150014023692411,0.16999989544779812,-0.08700000390815124,-0.870507820248265,-0.8582907974772506,-0.38081555076732687
5.982897520065308,0.5175014001226861,0.16999989659630207,-0.08700000351733611,-0.8730075088113071,-0.8607904054440542,-0.38331579096050494
6.002947568893433,0.5225013957841016,0.1699998988715608,-0.08700000284904225,-0.8780068993726123,-0.8657896320263566,-0.38831626093211596
6.0230512619018555,0.5275013916481108,0.16999990112153443,-0.08700000230772421,-0.8830063077907074,-0.8707888730370527,-0.3933167170595656
6.043134927749634,0.5300013896547455,0.1699999022381338,-0.0870000020769518,-0.8855060186689128,-0.8732884990331778,-0.39581693995218764
6.063237905502319,0.5350013858144756,0.16999990445616606,-0.08700000168233096,-0.8905054536962209,-0.8782877621528877,-0.4008173754466204
6.08333945274353,0.5400013821656161,0.16999990665549183,-0.08700000136268808,-0.895504906311337,-0.8832870402847147,-0.40581779730191314
6.103428363800049,0.5450013787033716,0.16999990883731836,-0.08700000110377734,-0.9005043763668449,-0.8882863336165919,-0.4108182056318117
6.124235391616821,0.5500013754227933,0.16999991100228934,-0.08700000089405964,-0.9055038636942052,-0.8932856423107891,-0.41581860056688297
6.144041299819946,0.5525013738490454,0.16999991207853205,-0.08700000080465367,-0.9080036137766601,-0.89578530246253,-0.4183187930565388
6.164124250411987,0.5575013708314003,0.16999991421849273,-0.08700000065176947,-0.9130031266523331,-0.9007846344491536,-0.4233191681787604
6.184189796447754,0.5625013679825067,0.16999991634149694,-0.08700000052793326,-0.9180026562934638,-0.9057839820938104,-0.4283195303002301
6.20459771156311,0.5650013666196781,0.16999991739649167,-0.08700000047513994,-0.9205024273287198,-0.9082836618124072,-0.4308197065421398
6.224771976470947,0.5700013640138911,0.16999991949307278,-0.08700000038486334,-0.9255019816750237,-0.9132830330781102,-0.4358200495082697
6.244802236557007,0.5750013613878538,0.16999992056517962,-0.08700000031173931,-0.9305015211874447,-0.918282375837216,-0.44082040378756304
6.264889478683472,0.5800013745853708,0.16999986244783574,-0.08700008678253862,-0.9355012820305579,-0.9232821152442421,-0.4458199994062109
6.284970998764038,0.5850014028832329,0.16999976493388777,-0.08700023103762733,-0.9405012820305578,-0.9282822776305892,-0.450818857389042
6.305050849914551,0.587501416646137,0.16999972445547687,-0.08700029066024438,-0.9430012820305578,-0.93078235639079,-0.4533183036189589
6.3251471519470215,0.5925014434146332,0.169999657390069,-0.08700038895708395,-0.9480012820305577,-0.9357825091301551,-0.4583172298522508
6.345223426818848,0.5975014691931871,0.16999960588699667,-0.08700046383135435,-0.9530012820305576,-0.9407826556110953,-0.4633162001703007
6.365291595458984,0.6000014817187018,0.16999958502294005,-0.08700049392963694,-0.9555012820305575,-0.9432827265491612,-0.4658157015039505
6.385378837585449,0.6050015060572069,0.1699995514914727,-0.08700054185212151,-0.9605012820305574,-0.9482828639113842,-0.4708147358020933
6.405474662780762,0.6100015294657395,0.16999952713578306,-0.08700057607824295,-0.9655012820305573,-0.9532829953784769,-0.47581381131294787
6.425546646118164,0.6150015519684072,0.16999951020124507,-0.08700059927851411,-0.9705012820305572,-0.9582831211008425,-0.4808129268796167
6.4458534717559814,0.6200015735893194,0.16999949926380037,-0.08700061361921535,-0.9755012820305571,-0.9632832412311189,-0.4858120813440353
6.465773820877075,0.6225015840766411,0.16999949567367392,-0.08700061803021965,-0.978001282030557,-0.9657832992474278,-0.48831167280122556
6.485856533050537,0.627501604420024,0.16999949163355277,-0.08700062227096525,-0.9830012820305569,-0.9707834112795974,-0.49331088344369384
6.505939722061157,0.6325016239416583,0.16999949109389226,-0.08700062144513858,-0.9880012820305568,-0.975783518108251,-0.498310130097741
6.526024580001831,0.6375016426653397,0.16999949336658163,-0.08700061659594378,-0.9930012820305567,-0.980783619890536,-0.5033094116177945
6.546258449554443,0.6400016517353382,0.16999949537833814,-0.08700061293389522,-0.9955012820305567,-0.9832836689385179,-0.5058090650966968
6.56642484664917,0.6450016479257877,0.16999955306389664,-0.08700049647645514,-1.000500211930885,-0.9882818638667168,-0.5108098843628317
6.586465120315552,0.6500016444454503,0.16999960093587932,-0.08700040214592866,-1.0054991869536234,-0.9932801129795887,-0.5158106687707746
6.606561183929443,0.652501642823251,0.16999962178218314,-0.0870003619313358,-1.0079986909788712,-0.9957792576246969,-0.5183110482216471
6.6266655921936035,0.657501639804116,0.16999965827736593,-0.08700029316438199,-1.0129977312589828,-1.0007775866362605,-0.5233117822422808
6.646728038787842,0.662501637071433,0.16999968893192405,-0.08700023746314942,-1.0179968134507424,-1.0057759679772307,-0.5283124839189542
6.6669557094573975,0.6675016346089349,0.16999971483447607,-0.08700019234515102,-1.0229959362859777,-1.0107744008613646,-0.5333131542442888
6.687438249588013,0.6700016334740532,0.16999972628625212,-0.08700017311063592,-1.0254955125506597,-1.0132736363783834,-0.535813477958681
6.707552194595337,0.6750016313873889,0.16999974666043347,-0.0870001402196151,-1.0304946939907225,-1.0182721450399461,-0.5408141031037033
6.727663278579712,0.6800016295323724,0.16999976418310847,-0.08700011357788823,-1.0354939129417005,-1.0232707031566832,-0.5458146993476215
6.748706579208374,0.6850016278944641,0.16999977937499197,-0.08700009199808946,-1.040493168170351,-1.0282693098505378,-0.5508152676543235
6.768761873245239,0.6850016278944641,0.16999977937499197,-0.08700009199808946,-1.040493168170351,-1.0282693098505378,-0.5508152676543235
6.788827180862427,0.6900016264596338,0.16999979265790877,-0.08700007451845247,-1.0454924584571592,-1.0332679642223608,-0.555815808976518
6.808927059173584,0.6925016258141288,0.16999979869298873,-0.08700006706660722,-1.0479921163703905,-1.0357673090013033,-0.5583160698128028
6.829460620880127,0.6975016246587322,0.16999980973243725,-0.08700005432395184,-1.0529914569914576,-1.040766033163458,-0.56331657241728
6.849398851394653,0.7000016241456547,0.16999981479894352,-0.08700004889155666,-1.0554911394045232,-1.0432654123110565,-0.5658168144154565
6.86951470375061,0.7050016232410178,0.16999982415831108,-0.08700003960216089,-1.0604905277073724,-1.048264204143803,-0.5708172803717182
6.8895673751831055,0.710001622488482,0.16999983263353902,-0.08700003207775032,-1.0654899463553833,-1.0532630398904341,-0.5758177230206111
6.909664630889893,0.7150016218765876,0.16999984037203167,-0.08700002598297776,-1.070489394217624,-1.0582619185784718,-0.5808181432432502
6.929858922958374,0.7175016216199388,0.1699998440032902,-0.08700002338467999,-1.0729891287563815,-1.060761373719213,-0.5833183452154754
6.950079441070557,0.7225016211986296,0.16999985085355696,-0.08700001894159079,-1.0779886183656424,-1.0657603149776487,-0.5883187334137073
6.970100164413452,0.727501620891524,0.16999985722495717,-0.08700001534268854,-1.0829881344555423,-1.0707592967127328,-0.5933191013131616
6.990515470504761,0.7325016206889159,0.16999986318838797,-0.08700001242757772,-1.0879876759722371,-1.0757583179299552,-0.5983194497330879
7.01056694984436,0.7350016206238982,0.16999986603555922,-0.08700001118481995,-1.0904874559427535,-1.0782578430329097,-0.6008196168890845
7.03072452545166,0.7400016205608967,0.1699998714915715,-0.08700000905970416,-1.095487033675542,-1.0832569216040606,-0.6058199375843263
7.050753116607666,0.7450016205802316,0.1699998766640654,-0.08700000733836036,-1.1004866343051185,-1.0882560371646228,-0.6108202407645252
7.070851564407349,0.7500016206738553,0.1699998815874441,-0.0870000059440719,-1.10548625686262,-1.093255188719134,-0.6158205271810462
7.090930938720703,0.7525016207461344,0.16999988396469834,-0.0870000053496647,-1.1079860760684632,-1.0957547776838723,-0.6183206643322392
7.1110310554504395,0.7575016209370861,0.169999888565384,-0.08700000433322841,-1.1129857297564998,-1.1007539813701868,-0.6233209269680319
7.131117820739746,0.7625016211841563,0.1699998929778221,-0.08700000350991502,-1.117985403061272,-1.105753218578828,-0.6283211746302099
7.151275634765625,0.7650016213266824,0.16999989511889615,-0.08700000315892352,-1.1204852467940813,-1.1082528494480195,-0.6308212930595815
7.1713786125183105,0.770001621645834,0.16999989927993592,-0.08700000255872804,-1.125484947883001,-1.1132521351082865,-0.6358215195304302
7.191589593887329,0.7750016220055668,0.1699999032898542,-0.08700000207256971,-1.1304846664385102,-1.1182514518602216,-0.6408217326898105
7.21158242225647,0.780001622400358,0.16999990715921096,-0.08700000167878146,-1.1354844016459396,-1.123250798747249,-0.6458219331666115
7.231716632843018,0.7850016235969489,0.16999988502021612,-0.08700000135981298,-1.1404837140633062,-1.1282490753520376,-0.6508224536829016
7.251790761947632,0.7875016246167145,0.1699998639923479,-0.08700000122383168,-1.1429831682918687,-1.1307476950175048,-0.6533228667968519
7.271860837936401,0.7925016267417115,0.16999982977029165,-0.08700000099130366,-1.147982122376077,-1.1357450172500316,-0.6583236583189291
7.292011976242065,0.7975016289655176,0.16999980428052938,-0.08700000080295596,-1.1529811351194126,-1.1407424476055827,-0.6633244052463466
7.3122398853302,0.8000016301090714,0.16999979426196957,-0.08700000072266036,-1.1554806626886769,-1.143241202428209,-0.6658247626035931
7.332290887832642,0.8050016324493062,0.16999977876624298,-0.08700000058535488,-1.1604797586627855,-1.1482387895706057,-0.6708254463067762
7.352393627166748,0.8100016348476252,0.16999976831513003,-0.08700000047413745,-1.165478907057581,-1.153236477667762,-0.6758260902218012
7.372463703155518,0.8150016372896739,0.1699997618990138,-0.08700000038405134,-1.1704781055041495,-1.1582342638905783,-0.6808266961708259
7.39257287979126,0.8200016397621446,0.16999975870054876,-0.08700000031108159,-1.1754773517055919,-1.1632321454359627,-0.6858272659189267
7.412673473358154,0.8225016410059063,0.16999975809595488,-0.08700000027997343,-1.1779769920162209,-1.1657311210863994,-0.6883275377536916
7.43291163444519,0.8275016435012522,0.16999975852391455,-0.08700000022677848,-1.182976305699963,-1.1707291404230245,-0.6933280563859285
7.452970743179321,0.8325016459980734,0.16999976074446957,-0.08700000018369057,-1.1879756617088995,-1.1757272482047783,-0.6983285429826832
7.472927570343018,0.8350016472438919,0.1699997624021292,-0.08700000016532151,-1.190475354942509,-1.1782263344196773,-0.7008287747600889
7.4931640625,0.8400016497245338,0.16999976660496618,-0.08700000013391043,-1.1954747706205566,-1.1832245698314001,-0.7058292162275545
7.5131707191467285,0.8450016521833803,0.16999977176164804,-0.08700000010846745,-1.2004742236334696,-1.1882228870250384,-0.7108296294783834
7.533255577087402,0.8500016546125736,0.16999977764327784,-0.08700000008785864,-1.2054737121055141,-1.1932212834022318,-0.7158300159453941
7.55337381362915,0.8550016570050263,0.1699997840650125,-0.08700000007116551,-1.2104732342283968,-1.1982197564054469,-0.7208303770084573
7.5734703540802,0.8575016581854612,0.1699997874306117,-0.08700000006404895,-1.212973007362004,-1.2007190208541256,-0.7233305484304527
7.593522310256958,0.8625016605111042,0.1699997943921276,-0.08700000005187966,-1.2179725767156104,-1.2057176040940283,-0.7283308738611778
7.613597631454468,0.8675016627854061,0.16999980157337938,-0.08700000004202253,-1.2229721754875529,-1.2107162577544046,-0.733331177111811
7.6336510181427,0.8700016639018141,0.16999980521858385,-0.08700000003782028,-1.2254719854089868,-1.2132156102393545,-0.7358313207970453
7.653797626495361,0.8750016660904973,0.16999981257224678,-0.08700000003063443,-1.2304716253641965,-1.2182143650383266,-0.7408315930155304
7.673979997634888,0.8800016682172279,0.16999981995979768,-0.0870000000248139,-1.235471290902574,-1.223213184336591,-0.7458318459673431
7.693961143493652,0.8850016702787525,0.16999982733138808,-0.08700000002009925,-1.2404709805969278,-1.2282120658487978,-0.7508320807345863
7.714029550552368,0.8900016722723325,0.16999983464730317,-0.0870000000162804,-1.24547069307914,-1.2332110073382652,-0.7558322983534388
7.734123229980469,0.8925016732429201,0.16999983827426385,-0.08700000001465236,-1.2479705574539697,-1.2357104998889696,-0.7583324010437469
7.75420069694519,0.8975016751304932,0.16999984544974972,-0.08700000001186842,-1.2529703016785623,-1.2407095272584954,-0.7633325947851984
7.7742979526519775,0.9025016769453124,0.16999985250292576,-0.08700000000961342,-1.2579700655200188,-1.245708609230256,-0.7683327737753163
7.794354677200317,0.9075016786861864,0.1699998594166901,-0.08700000000778686,-1.2629698478059017,-1.2507077437420149,-0.7733329388986464
7.814495325088501,0.9100016832212677,0.16999981587704224,-0.08700000000700818,-1.265469288641415,-1.253205529757264,-0.7758333664919302
7.834557771682739,0.915001692042437,0.16999974543226182,-0.08700000000567663,-1.2704682315359355,-1.258201272785913,-0.7808341755928534
7.854900121688843,0.9200017005118933,0.16999969368245874,-0.08700000000459807,-1.2754672540261438,-1.2631972449821902,-0.7858349247669957
7.874853610992432,0.9250017086246649,0.16999965694326083,-0.08700000000372443,-1.280466351724006,-1.2681934393138343,-0.7908356173082791
7.894944190979004,0.9275017125461427,0.16999964324674746,-0.087000000003352,-1.2829659274500613,-1.2706916176136955,-0.7933359433357102
7.915027141571045,0.9325017201177337,0.16999962361138563,-0.08700000000271511,-1.287965130094923,-1.2756881322133455,-0.7983365568228155
7.935113906860352,0.9375017273263856,0.16999961255816753,-0.08700000000219923,-1.2929643976992533,-1.2806848518772314,-0.80333712135356
7.955406665802002,0.9425017341718187,0.16999960832767097,-0.08700000000178137,-1.2979637264446764,-1.2856817699903889,-0.8083376397818852
7.975578784942627,0.9450017374585542,0.16999960831467642,-0.08700000000160324,-1.300463412594627,-1.288180301432369,-0.8108378825667435
7.9957334995269775,0.9500017437611,0.16999961173536574,-0.08700000000129862,-1.3054628262310712,-1.2931775050899905,-0.815838336931989
8.015867948532104,0.9550017497045211,0.16999961891185666,-0.08700000000105187,-1.3104622921345157,-1.2981748912092594,-0.8208387518133075
8.035896301269531,0.9600017552921566,0.16999962900600052,-0.087000000000852,-1.3154618070146644,-1.3031724536188034,-0.8258391296593102
8.05599594116211,0.9650017605282003,0.1699996413402348,-0.08700000000069014,-1.3204613677239485,-1.3081701862767519,-0.8308394728095072
8.076076984405518,0.9675017630159012,0.1699996481719377,-0.08700000000062112,-1.3229611643190193,-1.310669114596411,-0.8333396320756858
8.096146821975708,0.9725017677341079,0.1699996628736442,-0.0870000000005031,-1.327960788173431,-1.3156670915837176,-0.8383399273375289
8.116228103637695,0.9775017721144658,0.16999967863816112,-0.08700000000040752,-1.3329604505881778,-1.3206652242862067,-0.84334019329486
8.136500120162964,0.9800017741799978,0.16999968681636307,-0.08700000000036676,-1.3354602954140662,-1.3231643472806605,-0.845840315907312
8.156591892242432,0.9850017780661645,0.169999703594931,-0.08700000000029706,-1.3404600106889408,-1.3281627031279801,-0.8508405415932031
8.176670551300049,0.9900017816320281,0.16999972074926786,-0.08700000000024061,-1.345459758065961,-1.3331612009784417,-0.855840742750221
8.196754932403564,0.995001784885451,0.16999973809378588,-0.0870000000001949,-1.3504595351757058,-1.338159835577325,-0.8608409211268186
8.217059850692749,1.0000017878346914,0.16999975547980775,-0.08700000000015787,-1.3554593397653505,-1.3431586018009896,-0.8658410783834888
8.236976861953735,1.0025017891979187,0.16999976415026835,-0.08700000000014207,-1.3579592516920949,-1.3456580327066994,-0.8683411495874347
8.257066011428833,1.0075017917071027,0.16999978138367838,-0.08700000000011508,-1.3629590935234617,-1.350656987046177,-0.8733412780925257
8.277138710021973,1.0125017939341336,0.1699997984057878,-0.08700000000009322,-1.367958957688458,-1.3556560607711434,-0.8783413892635127
8.297341108322144,1.0150017949447208,0.16999980681627036,-0.0870000000000839,-1.3704588975565468,-1.3581556409388706,-0.8808414387816186
8.317479848861694,1.0200017967658974,0.1699998234016161,-0.08700000000006795,-1.3754587917400027,-1.3631548850261135,-0.8858415265076174
8.337810516357422,1.0250017983283284,0.16999983963588955,-0.08700000000005503,-1.3804587037591347,-1.3681542370633168,-0.8908416001996139
8.357744455337524,1.0300017996416115,0.16999985548380642,-0.08700000000004457,-1.3854586319837383,-1.373153692697623,-0.8958416610515749
8.377803087234497,1.0350018007154205,0.1699998709186317,-0.0870000000000361,-1.3904585748749092,-1.3781532477007539,-0.9008417101895657
8.397902250289917,1.0375018018965692,0.1699998178235175,-0.08700003562441745,-1.3929585748749092,-1.3806532527678566,-0.9033416466561098
8.417964935302734,1.0425018029986468,0.1699997500108441,-0.08700008413589211,-1.397958574874909,-1.385653261364278,-0.9083415391352553
8.43808102607727,1.0475018065232071,0.16999974157353306,-0.08700006815007261,-1.4029582191140182,-1.3906519442614709,-0.9133419483781726
8.458105564117432,1.0525018087030085,0.1699997495080518,-0.0870000552015588,-1.4079579379241804,-1.3956511726404799,-0.918342291966159
8.478220224380493,1.055001809301913,0.16999975849323726,-0.08700004968140293,-1.410457823050646,-1.3981509866480444,-0.920842440746073
8.498316049575806,1.0600018095465067,0.16999978461540652,-0.08700004024193637,-1.4154576403720147,-1.4031510041989013,-0.925842695415618
8.518465280532837,1.065001808558792,0.1699998195174508,-0.08700003259596847,-1.4204575148694083,-1.4081515279058259,-0.9308428969011747
8.53860068321228,1.0700018063853554,0.16999986111254548,-0.08700002640273446,-1.4254574401383033,-1.4131525421907272,-0.9358430497950285
8.558626413345337,1.072501804868584,0.16999988387883982,-0.08700002376246102,-1.4279574199005276,-1.4156532285231798,-0.9383431093906377
8.579029321670532,1.0775018010041206,0.16999993245020756,-0.08700001924759343,-1.4329574100329043,-1.4206549501978383,-0.9433431974947747
8.598897695541382,1.0825017960705907,0.16999998407757247,-0.08700001559055068,-1.4379574363405574,-1.4256571249698284,-0.9483432474740018
8.61896824836731,1.0875017901143833,0.17000003776742434,-0.08700001262834606,-1.4429574935281464,-1.4306597384341595,-0.9533432631277703
8.639235734939575,1.090001786767182,0.17000006512850094,-0.08700001136551146,-1.4454575321286764,-1.4331612052662208,-0.9558432592120732
8.659383296966553,1.0950017793631597,0.17000012045639387,-0.08700000920606428,-1.4504576263556148,-1.4381644504942355,-0.9608432300420926
8.679444313049316,1.1000017710506904,0.1700001761203257,-0.08700000745691207,-1.4554577395065402,-1.4431680998707055,-0.9658431751374155
8.699527978897095,1.1050017618744816,0.17000023165092404,-0.08700000604009878,-1.4604578672897364,-1.448172140164377,-0.9708430975890263
8.71979808807373,1.107501756976253,0.17000025924505988,-0.08700000543608889,-1.4629579354007365,-1.4506743028617108,-0.9733430512379826
8.739858865737915,1.1125017465866722,0.1700003138909018,-0.087000004403232,-1.4679580776690169,-1.4556789054525618,-0.9783429451117546
8.760127305984497,1.1175017354417915,0.17000036759331122,-0.08700000356661793,-1.4729582249941513,-1.4606838673405096,-0.9833428232643333
8.780195713043213,1.1225017235834225,0.17000042013439512,-0.08700000288896051,-1.4779583739862456,-1.4656891764573168,-0.988342688159895
8.800280094146729,1.1275017110523604,0.1700004713401608,-0.08700000234005802,-1.4829585214951246,-1.4706948210636688,-0.9933425420980446
8.820433855056763,1.1300017045470219,0.17000049639784937,-0.08700000210605222,-1.4854585937725797,-1.4731977655963726,-0.9958424656332651
8.840506553649902,1.1350016910810068,0.17000054535034798,-0.08700000170590229,-1.4904587336555488,-1.478203892140708,-1.000842307102498
8.860643148422241,1.1400016892111233,0.17000046451676515,-0.08700000138178086,-1.4954587571556428,-1.483204760922603,-1.0058422762449761
8.880751848220825,1.1450016872876931,0.17000039988101961,-0.0870000011192425,-1.5004587783080794,-1.4882056627292366,-1.0108422461466704
8.900803089141846,1.1475016863067289,0.1700003726445028,-0.08700000100731825,-1.5029587879395279,-1.4907061258812315,-1.0133422314247098
8.9208984375,1.1525016843097815,0.17000032666117917,-0.08700000081592778,-1.5079588051739603,-1.4957070755427493,-1.0183422027430977
8.940973281860352,1.1575016822705877,0.17000029014272294,-0.08700000066090151,-1.5129588195388128,-1.500708054883094,-1.0233421752079093
8.961281061172485,1.1625016801942507,0.17000026123683076,-0.08700000053533022,-1.5179588308592102,-1.5057090622094271,-1.0283421489594426
8.981193542480469,1.1650016791436761,0.1700002491583325,-0.0870000004817972,-1.5204588353299673,-1.5082095758580658,-1.0308421363569158
9.001420021057129,1.1700016770206165,0.17000022895267636,-0.08700000039025572,-1.5254588418100887,-1.5132106221462152,-1.0358421122648804
9.021442413330078,1.1750016748720222,0.17000021313179325,-0.08700000031610713,-1.5304588449147987,-1.518211692498757,-1.040842089738689
9.041515588760376,1.1800016727020826,0.1700002008137642,-0.08700000025604678,-1.5354588445505273,-1.523212785466019,-1.0458420688641448
9.061599731445312,1.1825016716103474,0.1700001957398413,-0.0870000002304421,-1.5379588430438451,-1.5257133399949945,-1.0483420590693997
9.081676483154297,1.1875016694156855,0.17000018738310896,-0.08700000018665811,-1.5429588373445529,-1.5307144643080546,-1.0533420408044356
9.10179352760315,1.1925016672090383,0.1700001809949805,-0.08700000015119308,-1.5479588280281755,-1.5357156078923073,-1.0583420243495991
9.12204122543335,1.1950016661022629,0.17000017840511217,-0.08700000013607377,-1.5504588220041926,-1.5382161865244504,-1.0608420168149304
9.142155408859253,1.2000016638837605,0.1700001742116466,-0.08700000011021976,-1.5554588072148638,-1.5432173567277185,-1.0658420031533302
9.162243604660034,1.2050016616610808,0.17000017108768842,-0.08700000008927801,-1.5604587887686936,-1.5482185432368452,-1.0708419913913285
9.182324886322021,1.2100016594369238,0.17000016878887939,-0.08700000007231519,-1.5654587666765138,-1.5532197449655096,-1.0758419815482143
9.202402114868164,1.2150016572137534,0.1700001671184071,-0.0870000000585753,-1.5704587409630513,-1.5582209608819455,-1.0808419736349515
9.222491264343262,1.2175016561032443,0.17000016646802232,-0.08700000005271777,-1.5729587267596572,-1.5607215738526763,-1.083341970403333
9.242591857910156,1.2225016538856646,0.17000016545312024,-0.08700000004270139,-1.5779586956889717,-1.5657228092316513,-1.0883419653888653
9.26265573501587,1.2275016516742185,0.17000016472710028,-0.08700000003458813,-1.5829586611142314,-1.5707240564473628,-1.0933419622996305
9.28271746635437,1.2325016494705692,0.1700001641985689,-0.08700000002801639,-1.5879586231025475,-1.5757253146468104,-1.0983419611226017
9.303153276443481,1.2350016483721271,0.1700001639848949,-0.08700000002521475,-1.590458602831727,-1.5782259476119815,-1.1008419612455684
9.323264837265015,1.240001646182807,0.1700001636201936,-0.08700000002042396,-1.59545855981339,-1.5832272207918543,-1.1058419629004865
9.343628168106079,1.245001644004478,0.17000016329686488,-0.08700000001654341,-1.600458513570793,-1.5882285030291383,-1.1108419664120368
9.363598823547363,1.2500016418380413,0.17000016297344298,-0.08700000001340016,-1.6054584642055232,-1.5932297936323014,-1.1158419717501338
9.383618593215942,1.252501640759506,0.17000016280113545,-0.08700000001206015,-1.6079584383860266,-1.595730441866846,-1.1183419750936907
9.403717279434204,1.2575016386121338,0.17000016241813853,-0.08700000000976872,-1.6129583845461735,-1.6007317438165174,-1.1233419831070588
9.423804521560669,1.2625016364779844,0.17000016196535042,-0.08700000000791266,-1.6179583278748555,-1.6057330525899411,-1.1283419928561988
9.452009916305542,1.2625016364779844,0.17000016196535042,-0.08700000000791266,-1.6179583278748555,-1.6057330525899411,-1.1283419928561988
9.484667778015137,1.2625016364779844,0.17000016196535042,-0.08700000000791266,-1.6179583278748555,-1.6057330525899411,-1.1283419928561988
9.504719257354736,1.2650016354159292,0.17000016170696075,-0.0870000000071214,-1.6204582985178497,-1.6082337093636456,-1.1308419983688347
9.524819374084473,1.2675016343572272,0.17000016142466157,-0.08700000000640926,-1.6229582685024664,-1.6107343676419483,-1.1333420042996898
9.544922351837158,1.2725016322498264,0.17000016078191424,-0.0870000000051915,-1.6279582065668858,-1.6157356884667233,-1.1383420173937808
9.56502389907837,1.2775016301555435,0.1700001600260932,-0.0870000000042051,-1.632958142213236,-1.6207370145968032,-1.1433420320927596
9.585052967071533,1.2825016280739372,0.1700001591486694,-0.08700000000340613,-1.6379580755936844,-1.6257383456021282,-1.1483420483493012
9.605733394622803,1.2850016270376945,0.17000015866223775,-0.08700000000306551,-1.6404580414836365,-1.6282390128086193,-1.1508420570465108
9.625859498977661,1.290001624973833,0.17000015759057102,-0.08700000000248306,-1.6454579717655982,-1.633240350400071,-1.1558420755479542
9.646214008331299,1.2950016229206613,0.17000015638360355,-0.08700000000201129,-1.6504579001920203,-1.6382416919494869,-1.1608420954837506
9.666131496429443,1.3000016208770309,0.17000015503792676,-0.08700000000162914,-1.655457826938836,-1.6432430371509772,-1.1658421168034696
9.68618369102478,1.3050016188415907,0.1700001535508957,-0.0870000000013196,-1.6604577521886967,-1.648244385732411,-1.1708421394564663
9.706631183624268,1.307501617826464,0.17000015275370228,-0.08700000000118764,-1.6629577143111958,-1.6507450612146304,-1.1733421512671276
9.726589679718018,1.312501615800329,0.17000015105084615,-0.08700000000096199,-1.6679576376729242,-1.6557464144279401,-1.1783421758252988
9.748156547546387,1.3150016147888548,0.17000015014479353,-0.08700000000086579,-1.6704575989620905,-1.6582470921113972,-1.1808421885603115
9.76822805404663,1.3200016127678296,0.1700001482225565,-0.08700000000070128,-1.6754575208851779,-1.6632484495276771,-1.1858422149112797
9.788313388824463,1.322501611757734,0.17000014720604176,-0.08700000000063116,-1.6779574815717078,-1.6657491292246749,-1.188342228515038
9.808399200439453,1.3275016097369157,0.17000014506141656,-0.08700000000051124,-1.6829574025297138,-1.6707504905213189,-1.1933422565491227
9.828763246536255,1.330001608725568,0.1700001439329834,-0.08700000000046011,-1.6854573628565939,-1.6732511720966774,-1.1958422709676964
9.848958253860474,1.3350016066993315,0.17000014156304052,-0.0870000000003727,-1.690457283348259,-1.678252537054945,-1.2008423005792173
9.869248867034912,1.3400016046659935,0.1700001390411365,-0.08700000000030188,-1.695457203819182,-1.683253904383112,-1.2058423311862105
9.889289617538452,1.345001602622501,0.1700001363657081,-0.08700000000024452,-1.700457124511122,-1.6882552740589478,-1.2108423627459177
9.909540891647339,1.3475016015959302,0.17000013496988337,-0.08700000000022007,-1.7029570850178877,-1.6907559597783446,-1.2133423788702555
9.92970895767212,1.3525015995309793,0.17000013206081702,-0.08700000000017825,-1.7079570065137761,-1.6957573329982714,-1.218342411783618
9.949764490127563,1.357501597447228,0.17000012899342412,-0.08700000000014438,-1.7129569288740434,-1.7007587086384215,-1.2233424455527386
9.96986722946167,1.3600015963971,0.17000012739962983,-0.08700000000012995,-1.7154568904635872,-1.7032593973898573,-1.225842462747431
9.989972352981567,1.3650015942777995,0.1700001240902426,-0.08700000000010526,-1.7204568146376373,-1.7082607768187088,-1.2308424977371741
10.010064840316772,1.3700015921295359,0.1700001206161054,-0.08700000000008525,-1.725456740381002,-1.713262158920732,-1.2358425335032392
10.030580520629883,1.375001589936951,0.17000011710806262,-0.08700000000006905,-1.7304566675022202,-1.7181872665522364,-1.2408425702689612
10.05059814453125,1.3800015876558775,0.17000011404221452,-0.08700000000005592,-1.7354565942386735,-1.7223330480994647,-1.2458426090480723
10.070777177810669,1.3825015865101078,0.17000011237425225,-0.08700000000005033,-1.7379565585285208,-1.7241004572250247,-1.2483426286360138
10.090740442276001,1.387501584211618,0.17000010889740066,-0.08700000000004077,-1.74295648867503,-1.7271227216234561,-1.2533426682912037
10.110798120498657,1.3925015819078337,0.17000010535582244,-0.08700000000003302,-1.747956420608556,-1.7295707496516421,-1.258342708668464
10.131086826324463,1.3975015796027206,0.17000010185253064,-0.08700000000002675,-1.7529563540348019,-1.7315536468138915,-1.2633427498418053
10.15123438835144,1.4000015784506716,0.17000010013654065,-0.08700000000002407,-1.7554563212343057,-1.7323989851709762,-1.26584277074363
10.171283721923828,1.4050015761491745,0.17000009680221856,-0.0870000000000195,-1.7604562564913173,-1.7338445099945734,-1.270842813200412
10.191376209259033,1.4100015738527438,0.17000009361725074,-0.08700000000001579,-1.7654561927763373,-1.7350153803425714,-1.2758428565471853
10.211447954177856,1.415001571562739,0.17000009059065938,-0.08700000000001279,-1.7704561299888895,-1.7359637807064394,-1.28084290079579
10.231540203094482,1.4175015704204128,0.1700000891363491,-0.08700000000001151,-1.772956098922345,-1.7363680969934772,-1.2833429232590259
10.251628398895264,1.422501568141359,0.17000008634042066,-0.08700000000000932,-1.777956037421246,-1.7370594744052854,-1.2883429688599002
10.271709442138672,1.4275015658697556,0.1700000836837374,-0.08700000000000754,-1.7829559767553123,-1.7376194856160456,-1.2933430153497358
10.291913509368896,1.4325015636052119,0.17000008115008605,-0.08700000000000611,-1.7879559169394563,-1.7380730901961232,-1.2983430627104378
10.312098264694214,1.4350015624753583,0.1700000799237628,-0.0870000000000055,-1.7904558873617502,-1.7382664672368802,-1.3008430867101064
10.332177639007568,1.4400015602198344,0.1700000775403346,-0.08700000000000445,-1.7954558289019256,-1.738597138499049,-1.305843135330749
10.352280139923096,1.445001557968777,0.17000007523337457,-0.0870000000000036,-1.8004557714313136,-1.7388649776207201,-1.3108431847533515
10.37232255935669,1.450001555720586,0.17000007298424438,-0.08700000000000292,-1.805455715040492,-1.7390819226476166,-1.3158432349425706
10.392412662506104,1.4525015545969873,0.17000007187574084,-0.08700000000000263,-1.807955687283124,-1.7391744079084503,-1.3183432603125804
10.412488222122192,1.457501552349479,0.17000006968013906,-0.08700000000000213,-1.8129556327197398,-1.739332554057606,-1.3233433115773334
10.432704210281372,1.4625015500996303,0.17000006749959304,-0.08700000000000173,-1.817955579536566,-1.7394606475947922,-1.3283433635046165
10.452691793441772,1.4675015478449158,0.17000006531893602,-0.08700000000000141,-1.8229555278807505,-1.7395643984358304,-1.33334341604723
10.473169326782227,1.4700015467148797,0.17000006422414446,-0.08700000000000127,-1.8254555026755355,-1.7396086271213536,-1.3358434425337433
10.493268251419067,1.4750015444476143,0.17000006201741164,-0.08700000000000103,-1.8304554536180342,-1.739684254309558,-1.3408434959045812
10.513370275497437,1.4800015421681465,0.17000005977763094,-0.08700000000000084,-1.8354554065178605,-1.7397455071963177,-1.3458435497604146
10.533466577529907,1.4850015398731462,0.17000005749345934,-0.08700000000000069,-1.8404553615710075,-1.7397951168116943,-1.350843604044464
10.553537130355835,1.4875015387187203,0.1700000563314356,-0.08700000000000062,-1.8429553399700171,-1.7398162641203567,-1.3533436313286282
10.573646306991577,1.4925015363936933,0.1700000539613891,-0.0870000000000005,-1.8479552986501693,-1.7398524219205653,-1.358343686142979
10.593756198883057,1.4975015340438407,0.1700000515223958,-0.0870000000000004,-1.8529552600327261,-1.7398817042948083,-1.3633437412325364
10.613859176635742,1.5025015316650572,0.17000004900590412,-0.08700000000000031,-1.8579552243611193,-1.7399054174850572,-1.3683437965317489
10.633965253829956,1.505001530463472,0.17000004771608762,-0.08700000000000029,-1.8604552077098548,-1.7399155246182398,-1.370843824238815
10.654041290283203,1.510001528033103,0.17000004506858168,-0.08700000000000023,-1.8654551769437742,-1.739932803480813,-1.375843879724193
10.6742422580719,1.5150015255625517,0.1700000423246004,-0.08700000000000019,-1.870455149793193,-1.7399467936042166,-1.3808439352445196
10.694297790527344,1.5200015230469142,0.1700000394773114,-0.08700000000000016,-1.8754551265511334,-1.7399581197602065,-1.3858439907255495
10.71436619758606,1.5225015217705908,0.17000003801288405,-0.08700000000000015,-1.877955116491426,-1.7399629459846393,-1.3883440184274363
10.734522342681885,1.5275015191776096,0.17000003499853547,-0.08700000000000012,-1.8829550996942097,-1.7399711942567027,-1.3933440737047746
10.754543542861938,1.5325015165262357,0.1700000318651327,-0.08700000000000009,-1.887955087603995,-1.7399778692926549,-1.3983441287460792
10.774853467941284,1.5375015138107153,0.1700000286067753,-0.08700000000000006,-1.8929550805676016,-1.7399832699197986,-1.403344183468117
10.795206308364868,1.540001512427033,0.17000002692894034,-0.08700000000000005,-1.8954550790574218,-1.739985569878675,-1.405844210682677
10.815319299697876,1.545001509603947,0.17000002347243495,-0.08700000000000005,-1.9004550802878977,-1.7399894980032333,-1.4108442647639423
10.835463523864746,1.5500015067012056,0.17000001987686272,-0.08700000000000005,-1.9054550875117184,-1.7399926734150868,-1.4158443183061644
10.855506658554077,1.55500150371214,0.17000001613675222,-0.08700000000000005,-1.9104551011349478,-1.73999523904362,-1.4208443712166374
10.875858068466187,1.5600015006298074,0.17000001224669345,-0.08700000000000005,-1.9154551215816935,-1.7399973106621178,-1.425844423399844
10.895949125289917,1.5625014990514197,0.17000001024375466,-0.08700000000000005,-1.9179551345014814,-1.739998191261999,-1.4283444491880923
10.916015148162842,1.5625014938125164,0.17000001517413496,-0.08700000000000005,-1.922955111056935,-1.7400010169359281,-1.4333445798596263
10.936089754104614,1.557501490465509,0.17000000925888537,-0.08700000000000005,-1.9279551498286487,-1.74000197890584,-1.438344630235005
10.957123279571533,1.5550014887477097,0.17000000635735646,-0.08700000000000005,-1.9304551723574925,-1.74000238629064,-1.440844655019588
10.977370977401733,1.5500014849081447,0.16999999768688867,-0.08700000000000005,-1.9254552494682768,-1.7400030267978168,-1.4358446933350053
10.997427701950073,1.545001481101006,0.16999996173575602,-0.08200002334704908,-1.920455268472437,-1.7400030712040977,-1.4308446388109006
11.017525911331177,1.5400014777625628,0.16999996680829452,-0.07700002334704907,-1.9154552990087435,-1.7400036996302861,-1.4258446931968063
11.03760313987732,1.5350014744441132,0.16999997199405004,-0.07200002334704907,-1.910455319969773,-1.74000426889404,-1.4208447519145957
11.057697534561157,1.5325014727891442,0.169999974623504,-0.06950002334704906,-1.9079553269800849,-1.7400045354688287,-1.4183447828382614
11.078102111816406,1.5275014694813254,0.16999997994582758,-0.06450002334704906,-1.9029553342932304,-1.7400050393660786,-1.4133448476952915
11.097971439361572,1.522501466167929,0.1699999853419291,-0.059500023347049055,-1.8979553329633647,-1.7400055118686155,-1.4083449164048256
11.11815094947815,1.5175014628390122,0.16999999080103514,-0.05450002334704905,-1.892955323339164,-1.7400059605745855,-1.403344988773594
11.138261318206787,1.5150014611656706,0.16999999355140805,-0.05200002334704905,-1.89045531552218,-1.7400061779733926,-1.400845026269562
11.15835452079773,1.5100014577951806,0.16999999908908164,-0.047000023347049044,-1.8854552940828855,-1.7400066021314085,-1.3958451037629578
11.178507328033447,1.5050014543850088,0.17000000467067033,-0.04200002334704904,-1.880455265167542,-1.7400070157211396,-1.390845184428787
11.19851565361023,1.5000014509257635,0.17000001029069842,-0.037000023347049035,-1.8754552290841782,-1.740007422347063,-1.3858452680709952
11.21859884262085,1.4975014491748455,0.17000001311364346,-0.03450002334704903,-1.8729552084480285,-1.7400076239800355,-1.3833453109467897
11.238710880279541,1.4925014456247168,0.17000001878277318,-0.029500023347049032,-1.8679551621687993,-1.7400080254257022,-1.3783453986845264
11.258962631225586,1.4875014420027057,0.17000002447972976,-0.024500023347049035,-1.862955109450049,-1.7400084261397202,-1.373345488905768
11.27912187576294,1.4825014382999555,0.17000003020100135,-0.019500023347049037,-1.8579550505684477,-1.7400088278001198,-1.3683455814125085
11.299198865890503,1.480001436415577,0.17000003306971517,-0.01700002334704904,-1.8554550189010026,-1.7400090294151336,-1.3658456284609712
11.319360256195068,1.4750014325754432,0.1700000388212748,-0.012000023347049037,-1.8504549512779307,-1.7400094349176836,-1.360845724024017
11.339431762695312,1.4700014305978757,0.17000005079332808,-0.01700002334704904,-1.8454548438123948,-1.7400092792293544,-1.3558458059275444
11.360186576843262,1.4650014269841762,0.17000005733514242,-0.022000023347049036,-1.8504547546307601,-1.7400096831675302,-1.350845904878734
11.380192041397095,1.4625014251530952,0.17000005815549873,-0.024500023347049035,-1.8529547203605279,-1.7400097915951274,-1.3483459507357363
11.400261163711548,1.4575014215613336,0.17000005871989232,-0.029500023347049032,-1.8579546559827567,-1.7400099174891475,-1.34334604098793
11.42030143737793,1.4525014180564126,0.17000005808080665,-0.03450002334704903,-1.8629545973667652,-1.740009942759418,-1.338346129129199
11.440890073776245,1.4500014163338488,0.17000005738422094,-0.037000023347049035,-1.8654545703003413,-1.7400099242799567,-1.3358461723476485
11.460779190063477,1.4450014129430988,0.1700000553606159,-0.04200002334704904,-1.8704545208164247,-1.74000983610597,-1.3308462569592947
11.480829000473022,1.4400014094591476,0.1700000499859128,-0.047000023347049044,-1.8654544955210934,-1.740009632537115,-1.3258463313030382
11.50104284286499,1.4350014075710666,0.17000003772516048,-0.04200002334704904,-1.8604545192924076,-1.7400084872644894,-1.3208463502000947
11.521046161651611,1.430001404294839,0.17000004028233676,-0.037000023347049035,-1.8554544663254684,-1.7400086438945268,-1.3158464317493275
11.541181564331055,1.4275014026276975,0.17000004178637282,-0.03450002334704903,-1.852954437674433,-1.7400087390495635,-1.3133464733701468
11.56122875213623,1.4225013992301372,0.1700000451754213,-0.029500023347049032,-1.8479543761935007,-1.7400089586013285,-1.3083465581863916
11.581300973892212,1.4175013957413427,0.17000004899461946,-0.024500023347049035,-1.842954309344279,-1.7400092122051978,-1.303346644944597
11.60137677192688,1.412501392153195,0.1700000531658299,-0.019500023347049037,-1.8379542373657012,-1.7400094949101315,-1.2983467334552963
11.622192621231079,1.4100013903193636,0.17000005536302978,-0.01700002334704904,-1.8354541995260494,-1.7400096458848988,-1.2958467783085095
11.642282724380493,1.4050013865672601,0.1700000599463852,-0.012000023347049037,-1.8304541202895634,-1.7400099649213459,-1.2908468690918604
11.662364482879639,1.4000013826961033,0.17000006474324358,-0.007000023347049036,-1.8254540364982705,-1.7400103043295703,-1.2858469611525878
11.68265986442566,1.3950013786982562,0.17000006971456705,-0.002000023347049036,-1.8204539483743818,-1.7400106616785704,-1.2808470543004438
11.702603816986084,1.3925013766494763,0.17000007225530397,0.0004999766529509642,-1.8179539027561733,-1.7400108464428343,-1.2783471012226213
11.722697496414185,1.3875013741636901,0.17000008238887726,0.0004999766529509646,-1.8179537885389798,-1.7375117155202124,-1.273347181036718
11.742945194244385,1.3825013706401597,0.17000007771865333,-0.004500023347049036,-1.8229537300133154,-1.7355124120021777,-1.2683472518888066
11.763208866119385,1.3800013686861965,0.17000008024134955,-0.007000023347049036,-1.825453680219677,-1.73596240584478,-1.2658472994074055
11.78326416015625,1.375001364857064,0.1700000834154832,-0.012000023347049037,-1.8304535852232262,-1.736731831558118,-1.2608473935151139
11.803397417068481,1.3700013611307806,0.1700000845639911,-0.01700002334704904,-1.8354534962505593,-1.7373549838884264,-1.2558474862483278
