liuyurong129/humanoid-gym/humanoid/data/robot2_action_20250621-221215.csv
timestamp,joint_1,joint_2,joint_3,joint_4,joint_5,joint_6
0.00019478797912597656,0.0,0.0,0.0,0.0,0.0,0.0
0.020511150360107422,0.0,0.0,0.0,0.0,0.0,0.0
0.04043436050415039,0.0,0.0,0.0,0.0,0.0,0.0
0.06051492691040039,0.0,0.0,0.0,0.0,0.0,0.0
0.08059239387512207,0.0,0.0,0.0,0.0,0.0,0.0
0.10068416595458984,0.0,0.0,0.0,0.0,0.0,0.0
0.12078666687011719,-0.86791956,-1.066974,-1.4166197,1.955852,-0.82337785,-0.17524162
0.14088797569274902,-1.5277618,-1.5652394,-1.5456855,3.8289342,-2.1722047,-1.2142469
0.16095924377441406,-2.2368236,-1.985024,-1.4092531,3.821174,-2.8260026,-1.8941833
0.18104052543640137,-2.3535137,-2.0835826,-1.4233584,3.8701265,-3.1457872,-2.0183346
0.20117878913879395,-2.3477178,-2.037094,-1.4331894,3.8974223,-3.2256637,-1.9843421
0.22130990028381348,-2.3164337,-1.9895462,-1.4235436,3.904641,-3.2106588,-1.9508746
0.2416841983795166,-2.3164337,-1.9895462,-1.4235436,3.904641,-3.2106588,-1.9508746
0.2615928649902344,-2.2795572,-1.9664739,-1.3884233,3.8967373,-3.1491292,-1.9491478
0.28177404403686523,-2.240336,-1.9661633,-1.3368961,3.8839145,-3.0632708,-1.9807512
0.3017690181732178,-2.1992223,-1.9832412,-1.2729213,3.8719885,-2.9589264,-2.0396037
0.3218514919281006,-2.154564,-2.0133379,-1.1974958,3.8653464,-2.8322651,-2.121072
0.3420088291168213,-2.101136,-2.055057,-1.1096739,3.8736637,-2.6665754,-2.2255905
0.3620445728302002,-2.0324736,-2.1104238,-1.0069643,3.9097564,-2.4375937,-2.3602953
0.38221287727355957,-2.0324736,-2.1104238,-1.0069643,3.9097564,-2.4375937,-2.3602953
0.4022345542907715,-1.9563627,-2.1837451,-0.8874972,3.9525616,-2.1608455,-2.5261347
0.42237067222595215,-1.8659327,-2.2702496,-0.7477257,3.9940917,-1.8350265,-2.717229
0.44245338439941406,-1.7705424,-2.3808506,-0.57909787,4.041122,-1.4670584,-2.960344
0.46252942085266113,-1.6694843,-2.443627,-0.42574272,4.0925837,-1.0387383,-3.1949573
0.48262572288513184,-1.6217997,-2.426578,-0.20433408,4.1753645,-0.5515875,-3.416487
0.5027287006378174,-1.5746531,-2.3367386,0.09367097,4.2002273,0.21029568,-3.6313593
0.5230112075805664,-1.4801176,-2.2855363,0.38583788,4.0631733,1.0759232,-3.9412553
0.543290376663208,-1.4801176,-2.2855363,0.38583788,4.0631733,1.0759232,-3.9412553
0.5636062622070312,-1.3624005,-2.0970232,0.57624376,3.940263,1.604003,-3.9699872
0.5835881233215332,-1.3370559,-1.9384209,0.71346873,3.9340026,1.9541683,-4.0418367
0.6039779186248779,-1.3584768,-1.8527983,0.79016304,3.9238517,2.0647464,-4.0406837
0.6238555908203125,-1.3679239,-1.8266779,0.8014833,3.908288,2.0829403,-3.9986794
0.643967866897583,-1.3685511,-1.8324567,0.7840315,3.9114697,2.0846255,-3.9595082
0.6640455722808838,-1.364587,-1.8462327,0.7622898,3.9195476,2.0817685,-3.9304874
0.6841268539428711,-1.3611798,-1.8495107,0.74179614,3.8485024,2.0358098,-3.8469062
0.7042174339294434,-1.3611798,-1.8495107,0.74179614,3.8485024,2.0358098,-3.8469062
0.7243244647979736,-1.3387177,-1.8879802,0.6963152,3.9212158,2.1308143,-3.7862892
0.744483232498169,-1.3443868,-1.9361786,0.67577434,3.9530292,2.1470768,-3.7849777
0.764531135559082,-1.3596524,-1.9815855,0.66400707,3.7635136,1.9246624,-3.753916
0.7846775054931641,-1.405553,-2.073294,0.6788675,3.4222224,1.4980202,-3.6374228
0.8048348426818848,-1.4108808,-2.2214751,0.6332061,3.4929626,1.3827541,-3.6346111
0.8250637054443359,-1.4108808,-2.2214751,0.6332061,3.4929626,1.3827541,-3.6346111
0.8451740741729736,-1.4371444,-2.2299943,0.60962105,3.5169296,1.2649231,-3.5913646
0.8652157783508301,-1.4566233,-2.202239,0.6051794,3.473091,1.0862553,-3.5218608
0.8852732181549072,-1.4630107,-2.2041898,0.591909,3.4307935,0.96416754,-3.4771523
0.9053707122802734,-1.4562899,-2.2155547,0.5694435,3.4226701,0.9142059,-3.454956
0.9256012439727783,-1.3752115,-2.4587605,0.293604,4.066567,1.3075783,-3.8262455
0.9456632137298584,-1.4218944,-2.0088797,0.6897538,3.4015715,0.9919161,-3.3659415
0.9658479690551758,-1.4218944,-2.0088797,0.6897538,3.4015715,0.9919161,-3.3659415
0.9858794212341309,-1.401373,-1.8919317,0.63472223,3.5030339,1.3009174,-3.3549578
1.0059726238250732,-1.4078242,-2.0582116,0.6188614,3.1825366,0.9483757,-3.2847207
1.0262086391448975,-1.4012426,-2.1630354,0.49435607,3.6433625,1.0891974,-3.543195
1.0461764335632324,-1.3571093,-2.0413752,0.6115083,3.2564762,1.0088322,-3.3809364
1.066263198852539,-1.3789785,-1.9633042,0.5942488,3.3769383,0.93359405,-3.3260653
1.0864756107330322,-1.3789785,-1.9633042,0.5942488,3.3769383,0.93359405,-3.3260653
1.1065597534179688,-1.2547892,-2.0375018,0.5660819,3.1771789,1.115325,-3.331392
1.1266415119171143,-1.1419356,-2.5399618,0.23895158,4.271745,1.699095,-3.7311065
1.1467540264129639,-1.3683665,-2.0380528,0.559631,3.3538074,1.1050093,-3.4446943
1.1668596267700195,-1.3051224,-2.070187,0.43818626,3.5618722,1.2782326,-3.5353253
1.1869440078735352,-1.1873922,-2.273561,0.42757893,3.5441225,1.3903707,-3.5300877
1.2070021629333496,-1.2916873,-2.0374913,0.27487084,3.5767195,1.2670009,-3.4239693
1.2270770072937012,-1.2916873,-2.0374913,0.27487084,3.5767195,1.2670009,-3.4239693
1.2471675872802734,-1.1633513,-2.2461388,0.102026075,3.9751909,1.744197,-3.561632
1.2672500610351562,-1.1681148,-2.2722652,0.061028074,3.929872,1.8050954,-3.5799644
1.2875268459320068,-1.2860831,-2.2786694,0.00052799005,4.018053,1.8076184,-3.5083687
1.3075437545776367,-1.070133,-2.5332637,0.073229045,3.823386,1.8664911,-3.3543403
1.327617883682251,-0.9171976,-2.8088362,0.11652398,3.8494115,1.959041,-3.571236
1.3476884365081787,-0.7943988,-2.9131012,0.14188085,3.7592094,2.0501423,-3.617643
1.3686432838439941,-0.7943988,-2.9131012,0.14188085,3.7592094,2.0501423,-3.617643
1.3887526988983154,-0.6532526,-3.0271044,0.17190945,3.6264653,2.118311,-3.5709312
1.4088551998138428,-0.48568463,-3.1412892,0.20798923,3.3641248,2.1098049,-3.4541347
1.42891526222229,-0.3640014,-3.224943,0.18504627,3.0063837,2.0359194,-3.284139
1.449115514755249,-0.3630111,-3.2465625,0.16308357,2.3354878,1.9471017,-2.9077857
1.4691102504730225,-0.3593704,-3.2945578,0.18408488,1.3559822,1.8990085,-2.567734
1.4891791343688965,-0.37241876,-3.3054433,0.23013346,0.04921779,1.8605804,-2.1537774
1.5092706680297852,-0.37241876,-3.3054433,0.23013346,0.04921779,1.8605804,-2.1537774
1.5293872356414795,-0.43796086,-3.171463,0.2921826,-1.2111052,1.6094308,-1.7876884
1.5494656562805176,-0.5277263,-3.1709428,0.28603718,-2.1418781,1.151422,-1.6779982
1.5695385932922363,-0.45836616,-3.1759784,0.27250448,-2.505298,0.9698623,-1.6700824
1.5896117687225342,-0.3282224,-3.1322372,0.24641745,-2.6108568,0.91485786,-1.6631228
1.6096787452697754,-0.15225206,-3.0816846,0.20560937,-2.6124349,0.8576358,-1.5871814
1.629776954650879,0.014499556,-2.9962058,0.16094701,-2.567293,0.84773034,-1.499704
1.650423288345337,0.014499556,-2.9962058,0.16094701,-2.567293,0.84773034,-1.499704
1.670464038848877,0.16663827,-2.909749,0.12689309,-2.456511,0.88678175,-1.425419
1.6907715797424316,0.34101623,-2.8344977,0.073624775,-2.2853482,0.97806567,-1.284273
1.7116177082061768,0.62105376,-2.6906533,-0.05294158,-1.9644573,1.1004636,-0.94047993
1.7315287590026855,0.79694724,-2.5794578,-0.090388194,-1.6945945,1.2378733,-0.7981378
1.7517127990722656,0.9777503,-2.44538,-0.14984931,-1.4748174,1.3008121,-0.67206466
1.771721363067627,0.9777503,-2.44538,-0.14984931,-1.4748174,1.3008121,-0.67206466
1.791804552078247,1.1496472,-2.296765,-0.20183577,-1.2777892,1.3574171,-0.54259986
1.8118906021118164,1.3332038,-2.136796,-0.25121662,-1.0748311,1.408964,-0.40668723
1.832026720046997,1.5019926,-1.9726893,-0.29293093,-0.8794718,1.463248,-0.27354875
1.8521296977996826,1.5771585,-1.824485,-0.30243263,-0.76245797,1.4732615,-0.19900617
1.8722269535064697,1.6698132,-1.6741561,-0.33316126,-0.62112546,1.5224866,-0.081401445
1.8922557830810547,1.5436038,-1.4945632,-0.27736017,-0.4281287,1.5070852,0.05059614
1.9130802154541016,1.5436038,-1.4945632,-0.27736017,-0.4281287,1.5070852,0.05059614
1.933267593383789,1.5069481,-1.3482078,-0.2509242,-0.27757433,1.590162,0.12116989
1.9532947540283203,1.4768589,-1.2178711,-0.23466907,-0.13893452,1.6778942,0.19096825
1.9733688831329346,1.4280661,-1.0884109,-0.22054936,-0.00627169,1.771482,0.26763383
1.9934642314910889,1.3560286,-0.96123105,-0.2071184,0.120233804,1.8618277,0.35232547
2.0138802528381348,1.2698,-0.8508447,-0.19092263,0.23388869,1.9375577,0.43437484
2.033759117126465,1.2132446,-0.8427269,-0.16887935,0.24975649,2.0124006,0.44524148
2.0538244247436523,1.2132446,-0.8427269,-0.16887935,0.24975649,2.0124006,0.44524148
2.0740127563476562,1.1688728,-0.8027584,-0.14239855,0.31375876,2.085193,0.44666043
2.0940277576446533,1.1213392,-0.74836594,-0.11275743,0.39107075,2.160209,0.45202246
2.1145999431610107,1.140404,-0.72820014,-0.1382867,0.415488,2.1767633,0.48002133
2.134530782699585,1.1255925,-0.69474745,-0.13172798,0.4648252,2.217516,0.4832451
2.1546061038970947,1.0981684,-0.62916756,-0.12383084,0.52943265,2.2646248,0.50821704
2.174670696258545,1.0612411,-0.54417276,-0.10892065,0.61031544,2.3259456,0.5471792
2.194788694381714,1.0612411,-0.54417276,-0.10892065,0.61031544,2.3259456,0.5471792
2.2148654460906982,1.0201623,-0.44264114,-0.093463555,0.7038971,2.395157,0.6011109
2.234973430633545,0.99110484,-0.33335835,-0.0763533,0.80516636,2.4786775,0.6555116
2.255030870437622,1.0593777,-0.5293344,-0.1527509,0.56881976,2.4636152,0.60433805
2.2754180431365967,1.010822,-0.43212402,-0.03330939,0.77507186,2.4879296,0.5246855
2.2952888011932373,0.93822813,-0.39229035,-0.04643031,0.5866648,2.474974,0.4746175
2.315938949584961,0.93822813,-0.39229035,-0.04643031,0.5866648,2.474974,0.4746175
2.335847854614258,1.0033544,-0.34234408,-0.031767804,0.7253225,2.5917118,0.5080806
2.3559365272521973,0.9455677,-0.52331626,-0.20363395,0.23779407,2.3884583,0.60624605
2.3760321140289307,1.0300467,-0.24087277,0.012027395,0.9270508,2.64106,0.57877743
2.3961071968078613,0.83382076,-0.46904254,-0.24625309,0.035780817,2.3219528,0.62313545
2.4161949157714844,1.0307344,-0.09751925,0.016442407,1.0027171,2.7545602,0.69310063
2.436401605606079,1.0307344,-0.09751925,0.016442407,1.0027171,2.7545602,0.69310063
2.4565718173980713,0.6298647,-0.5484012,0.009258625,0.21549961,2.5771673,0.07153592
2.476727247238159,0.8528735,-0.70020175,0.09577754,0.28014854,2.630162,-0.36467668
2.4967451095581055,1.1321139,-0.9920136,0.076684,0.19585857,2.7113492,-0.6702338
2.516831159591675,1.2205163,-1.0979614,0.090454176,0.11352071,2.6375275,-0.89887834
2.5369222164154053,1.328705,-1.1651304,0.0796891,-0.032424003,2.5688326,-1.0331368
2.557309865951538,1.4500477,-1.1854829,0.060246598,-0.1512008,2.5347714,-1.0872282
2.577423095703125,1.4500477,-1.1854829,0.060246598,-0.1512008,2.5347714,-1.0872282
2.5975091457366943,1.5582914,-1.1608105,0.047665548,-0.2263991,2.5321553,-1.0968717
2.6175718307495117,1.6630621,-1.0952148,0.032298785,-0.26335862,2.5544257,-1.0642713
2.6382851600646973,1.7614132,-0.9988436,0.017674427,-0.26918057,2.607054,-1.0009309
2.658343553543091,1.8489621,-0.87575024,0.0038678618,-0.24448374,2.6939132,-0.9077122
2.6784415245056152,1.948125,-0.6566596,-0.018558357,-0.091013044,2.860859,-0.6673588
2.699270248413086,2.0015714,-0.26713464,-0.01028509,0.33823177,3.1837199,-0.22136953
2.71933650970459,2.0015714,-0.26713464,-0.01028509,0.33823177,3.1837199,-0.22136953
2.739441394805908,1.9245634,-0.2421748,-0.15821116,0.18933192,3.1966403,0.15256178
2.7595627307891846,1.8352472,0.13044868,-0.17221741,0.7357689,3.2685707,0.7058548
2.779780387878418,1.7282205,0.34677398,-0.17577274,0.9427496,3.3984358,1.0324774
2.7999074459075928,1.6290916,0.5564526,-0.18419348,1.255603,3.5965526,1.320747
2.819955825805664,1.4413869,0.9543734,-0.23443297,1.6205746,3.8846092,1.5885327
2.8402886390686035,1.4413869,0.9543734,-0.23443297,1.6205746,3.8846092,1.5885327
2.8616855144500732,1.3461425,1.0598866,-0.79587543,2.201815,3.5831735,1.3631092
2.8823282718658447,2.3931673,1.969056,-0.8491956,3.0950973,4.2722397,1.6031014
2.9024195671081543,1.6861389,2.972,-0.47737005,3.3471725,3.3425572,1.7411869
2.9228267669677734,1.1465933,3.6220953,-0.039377246,3.124538,2.8706448,1.8024472
2.942941427230835,1.1465933,3.6220953,-0.039377246,3.124538,2.8706448,1.8024472
2.9630799293518066,0.66541916,3.6831336,0.11943106,2.403405,2.2491179,1.8409337
2.983149528503418,0.98477584,3.5723984,-0.16212028,2.2981663,2.2670133,1.9140569
3.003305196762085,1.3214478,3.9213748,-0.38433382,3.1228926,2.8708231,2.1333294
3.023390293121338,0.540929,3.8665304,-0.039858747,2.8341603,2.3271637,2.1198838
3.0434584617614746,0.44018155,3.6754928,0.0055000903,2.1927698,1.9344329,1.9931382
3.0637168884277344,0.9029396,3.7155032,-0.31587145,2.2381098,2.1541636,2.0148945
3.0838775634765625,1.0070966,3.8432796,-0.3839188,2.9824991,2.5526617,2.096741
3.1039845943450928,1.0070966,3.8432796,-0.3839188,2.9824991,2.5526617,2.096741
3.1240580081939697,0.42043614,3.8049147,-0.08020668,2.688813,2.1984959,2.1006064
3.1441447734832764,0.3944664,3.9024787,-0.07407172,2.4887767,2.107012,2.089366
3.164217948913574,0.42144245,3.8902774,-0.12880841,2.3930192,2.0532734,2.0748982
3.1843554973602295,0.48619378,3.9108653,-0.19579452,2.517715,2.1449718,2.1211197
3.2044310569763184,0.34893215,3.8419156,-0.14151509,2.3985426,2.0278563,2.0958076
3.224483013153076,0.34625417,3.8283446,-0.15392521,2.3189194,1.9906938,2.07738
3.2445666790008545,0.34405047,3.7916782,-0.17566495,2.261653,1.9619844,2.0642111
3.2646632194519043,0.34405047,3.7916782,-0.17566495,2.261653,1.9619844,2.0642111
3.284742832183838,0.3255825,3.7455258,-0.18582435,2.203021,1.9240164,2.046089
3.304825782775879,0.31111318,3.7032578,-0.19750135,2.143723,1.891384,2.029268
3.3250343799591064,0.2955135,3.6605067,-0.21044867,2.0861745,1.8594384,2.0141208
3.345123052597046,0.2775594,3.6178627,-0.22320814,2.0298934,1.8271866,1.9999968
3.3652114868164062,0.25809288,3.5757546,-0.23611522,1.974139,1.7949109,1.98673
3.3852896690368652,0.23725577,3.5339582,-0.24924521,1.9187557,1.7623324,1.9741789
3.405414342880249,0.23725577,3.5339582,-0.24924521,1.9187557,1.7623324,1.9741789
3.42559552192688,0.2152964,3.4924295,-0.26244393,1.8633697,1.7293632,1.9621519
3.44559907913208,0.1926371,3.4511042,-0.27564657,1.8077399,1.6959955,1.9504513
3.4657034873962402,0.16936322,3.4096718,-0.2885792,1.75151,1.6620097,1.9387234
3.4857704639434814,0.17386092,3.2744622,-0.34568408,1.6280266,1.6247889,1.9164182
3.5058488845825195,0.27346528,2.9351869,-0.50578475,1.3918127,1.5809944,1.873858
3.52605938911438,0.31325334,2.8575404,-0.55578685,1.453001,1.5601134,1.8581795
3.546119451522827,0.32464468,2.7946918,-0.5685909,1.4029416,1.5747855,1.8293672
3.5668821334838867,0.32464468,2.7946918,-0.5685909,1.4029416,1.5747855,1.8293672
3.5869998931884766,0.2982425,2.7064295,-0.5734232,1.3153256,1.5305206,1.7945156
3.6073038578033447,0.30941236,2.6484475,-0.58395314,1.247182,1.5132203,1.7677177
3.6272382736206055,0.3091464,2.5810182,-0.5934483,1.1726779,1.490654,1.7437664
3.6473286151885986,0.30538017,2.5128257,-0.59988,1.0953327,1.4654021,1.7195096
3.667497158050537,0.3032558,2.4421809,-0.6051372,1.013013,1.44191,1.6938834
3.687532901763916,0.2997905,2.363815,-0.60881585,0.9236314,1.417399,1.66631
3.7076001167297363,0.29592276,2.27693,-0.61004835,0.82609224,1.3928733,1.6358645
3.727865695953369,0.29592276,2.27693,-0.61004835,0.82609224,1.3928733,1.6358645
3.747936248779297,0.28939545,2.1766086,-0.607522,0.716288,1.3680129,1.6011994
3.768022060394287,0.2777657,2.0557284,-0.59979063,0.58759916,1.3420799,1.5612612
3.788133144378662,0.25739014,1.9072753,-0.5867547,0.4347379,1.311355,1.5162369
3.808201789855957,0.10016157,1.795315,-0.5976344,0.30330774,1.2437035,1.4799544
3.8282837867736816,0.0006467812,1.5559617,-0.57142055,0.12843934,1.1365783,1.4462456
3.8483428955078125,-0.058761287,1.3728917,-0.56446177,0.0035710335,1.1197115,1.3991504
3.868434190750122,-0.058761287,1.3728917,-0.56446177,0.0035710335,1.1197115,1.3991504
3.8886423110961914,-0.76292664,1.1713483,-1.0022048,0.49769297,0.69593614,1.2888354
3.9086906909942627,-0.12830506,1.4350152,-0.50889796,0.3729762,1.4964491,1.2782773
3.928739070892334,-0.88726014,1.0537659,-0.93069214,0.49427345,0.7757577,1.1935674
3.948824405670166,-0.2343695,1.2753559,-0.48669425,0.30760518,1.3727145,1.13476
3.9689018726348877,-0.9743912,0.83577883,-0.84313715,0.42824748,0.79488224,1.0841795
3.988985538482666,-0.59769225,1.0204859,-0.41920647,0.25063643,1.1950139,1.0094748
4.009925365447998,-0.59769225,1.0204859,-0.41920647,0.25063643,1.1950139,1.0094748
4.030027866363525,-1.3746355,0.40338594,-0.17866223,0.39482313,0.5950977,1.0920417
4.050106763839722,-1.4812675,-0.022156097,-0.067260206,0.5350077,0.8799111,0.7159337
4.07020378112793,-1.3096986,-0.71903783,-0.06904556,0.58290696,0.88370997,0.03955569
4.090313673019409,-1.313708,-1.6978691,0.102111876,0.9567908,1.0014118,-1.2105204
4.110609531402588,-1.2161714,-2.5963666,0.08894655,1.2695596,1.2349534,-2.601935
4.130538463592529,-1.1435639,-3.2032971,0.17296857,1.2446526,1.2810613,-3.699833
4.150649547576904,-1.2133896,-3.5895786,0.2593262,0.8129785,1.2917085,-4.2154245
4.1707541942596436,-1.2133896,-3.5895786,0.2593262,0.8129785,1.2917085,-4.2154245
4.190823078155518,-1.3120604,-3.8027844,0.2956634,0.12685296,1.2753637,-4.3283167
4.21124005317688,-1.4403654,-3.7840288,0.33770642,-0.6155989,1.1753674,-4.1516676
4.23119592666626,-1.5705806,-3.7371912,0.3589795,-1.4322417,0.9510581,-3.8806267
4.251216650009155,-1.6900915,-3.6206856,0.38160184,-2.2108428,0.65612483,-3.5841506
4.271276473999023,-1.7320417,-3.508921,0.39478368,-2.83451,0.39440912,-3.3564737
4.29139256477356,-1.6889849,-3.44279,0.38620254,-3.1927018,0.20933193,-3.2590406
4.311446666717529,-1.4474084,-3.364132,0.35631052,-3.3312461,0.15274125,-3.2938855
4.331577777862549,-1.4474084,-3.364132,0.35631052,-3.3312461,0.15274125,-3.2938855
4.351734399795532,-1.165825,-3.2777362,0.34233758,-3.3819382,0.16247445,-3.3162363
4.371829509735107,-0.83140624,-3.177033,0.33551556,-3.4005075,0.21608728,-3.3731904
4.391872406005859,-0.4501779,-3.060073,0.33190027,-3.3895805,0.30034655,-3.4595253
4.4119768142700195,-0.14395402,-2.9175234,0.33532673,-3.2969964,0.36643583,-3.4388635
4.432059288024902,0.20641626,-2.7576768,0.32822058,-3.1448667,0.46590185,-3.4754863
4.452116012573242,0.52464277,-2.5058966,0.28862488,-2.85362,0.4472081,-3.2561343
4.472232341766357,0.6889614,-2.2603762,0.26783398,-2.618482,0.51422364,-3.1071916
4.492254734039307,0.79034674,-2.0529797,0.24823011,-2.4390042,0.5720648,-2.9822073
4.512389898300171,0.79034674,-2.0529797,0.24823011,-2.4390042,0.5720648,-2.9822073
4.532606601715088,0.39446968,-1.9240767,0.31895664,-2.2972171,0.5482511,-2.7948663
4.552579879760742,0.72971904,-1.8437191,0.23033364,-2.175416,0.66860384,-2.7992332
4.572751998901367,0.36639297,-1.759819,0.3109049,-2.0880976,0.6333089,-2.6830251
4.592770338058472,0.25333548,-1.7430922,0.31284997,-2.02919,0.64873797,-2.6495574
4.613014459609985,0.6227635,-1.7124795,0.23116593,-1.940612,0.76996875,-2.709917
4.633314609527588,0.27900606,-1.6338726,0.3182272,-1.9332659,0.702403,-2.6261804
4.653156757354736,0.27900606,-1.6338726,0.3182272,-1.9332659,0.702403,-2.6261804
4.673264026641846,0.6129661,-1.5828419,0.23995991,-1.885666,0.83704007,-2.6475184
4.69344687461853,0.25733417,-1.4912162,0.32400206,-1.8806994,0.7599974,-2.5600972
4.713522672653198,0.14720751,-1.4454051,0.32293382,-1.8419675,0.7706249,-2.5093172
4.7335205078125,0.5203403,-1.403149,0.24806891,-1.742967,0.98588413,-2.5072048
4.753630876541138,0.18658043,-1.3046468,0.32791162,-1.739754,0.8354692,-2.46009
4.773757457733154,0.25195748,-1.2508135,0.2906634,-1.6626592,0.9449723,-2.4212692
4.816932916641235,0.25195748,-1.2508135,0.2906634,-1.6626592,0.9449723,-2.4212692
4.843291759490967,0.25195748,-1.2508135,0.2906634,-1.6626592,0.9449723,-2.4212692
4.863375663757324,0.3137924,-1.1751639,0.28187418,-1.5826598,1.023238,-2.3881714
4.8835225105285645,0.110911146,-1.0110012,0.31850076,-1.5221157,0.87141913,-2.3181794
4.903584003448486,0.3912432,-0.9449426,0.24781169,-1.3489033,1.2593509,-2.1912086
4.923690557479858,0.1881947,-0.6040445,0.28885844,-1.2389241,0.91781646,-2.159391
4.944081544876099,0.36448848,-0.8242137,0.25495657,-1.1246067,1.2942876,-1.8280963
4.964064121246338,0.098337784,0.13743268,0.16380219,-0.68172526,1.0216193,-1.675439
4.984032154083252,0.07643415,-0.27184337,0.14769807,-0.7316376,1.1499794,-1.0530723
5.004181861877441,0.07643415,-0.27184337,0.14769807,-0.7316376,1.1499794,-1.0530723
5.024295091629028,-0.32034627,-0.45717204,0.061231013,-0.7981218,0.67369634,-1.4794054
5.044496297836304,0.17796852,-0.04049395,0.27741107,-0.23491925,1.905941,-0.8179331
5.064482927322388,-0.09243937,0.27772552,-0.17362571,-0.4644502,0.5246802,-0.66696084
5.084734916687012,0.24046479,0.14743368,-0.08457007,0.12790483,1.8250045,0.26659808
5.104788064956665,-0.15475486,0.56383735,-0.33090186,0.19577563,1.5177863,0.66099524
5.124901294708252,-0.56302446,0.6181978,-1.2169566,0.85270536,0.8826048,0.20723724
5.144947290420532,0.46375293,1.7677922,-0.7158035,1.9863323,1.5092932,0.54077315
5.165078401565552,0.46375293,1.7677922,-0.7158035,1.9863323,1.5092932,0.54077315
5.1851770877838135,0.45023963,3.0270958,-0.35422036,1.9643048,1.3163874,1.2136964
5.205319166183472,0.27655172,3.6507661,-0.38031754,1.9072672,1.3441875,1.7345891
5.225420951843262,0.1379158,3.9208746,-0.4366059,1.958122,1.2404102,1.8534073
5.245484828948975,0.089569226,4.0700336,-0.46664283,2.013676,1.2254112,1.909459
5.265565872192383,0.08454819,4.1152205,-0.40281478,1.9299967,1.1961682,1.9340705
5.285649538040161,0.08062132,4.132455,-0.4106256,1.9032086,1.1933697,1.9470145
5.3060901165008545,0.08062132,4.132455,-0.4106256,1.9032086,1.1933697,1.9470145
5.32620096206665,0.07011582,4.122598,-0.41240883,1.8836492,1.1875226,1.951723
5.346320867538452,0.06621386,4.0972223,-0.40546227,1.8377811,1.1765451,1.9485716
5.366379499435425,0.061983835,4.064726,-0.41216847,1.8065734,1.1672907,1.9423696
5.386736154556274,0.057434034,4.029085,-0.4162375,1.7757493,1.1579515,1.9350086
5.406853675842285,0.053690445,3.990838,-0.4198127,1.7402655,1.1473707,1.9260732
5.427066087722778,0.0499403,3.950873,-0.42470983,1.7052314,1.1361039,1.9163209
5.447759389877319,0.0499403,3.950873,-0.42470983,1.7052314,1.1361039,1.9163209
5.467634201049805,0.04631127,3.90971,-0.42908856,1.6686771,1.1241165,1.9060062
5.487972021102905,0.04287703,3.867254,-0.43332133,1.630277,1.1112549,1.8949991
5.507932662963867,0.039604675,3.8235507,-0.43747672,1.5903839,1.0975695,1.8833624
5.528051137924194,0.03657223,3.778642,-0.4414488,1.5488375,1.083085,1.8709393
5.548370361328125,0.033819806,3.7326174,-0.44531098,1.5057746,1.0678239,1.8576074
5.568394422531128,0.03152783,3.685612,-0.44906583,1.4613174,1.0517421,1.8433259
5.588397264480591,0.029472183,3.6377087,-0.4531902,1.4161468,1.0349935,1.8282353
5.608922481536865,0.029472183,3.6377087,-0.4531902,1.4161468,1.0349935,1.8282353
5.628986835479736,0.027436089,3.588949,-0.45743406,1.3700302,1.0175114,1.8125294
5.649158239364624,0.025499176,3.5393662,-0.46145162,1.3225539,0.9992405,1.7962292
5.669591188430786,0.023651313,3.4889395,-0.46539798,1.2740244,0.9803118,1.7793444
5.689544200897217,0.021873664,3.4376168,-0.46920064,1.2244565,0.9607827,1.7618834
5.709523677825928,0.0201918,3.3852553,-0.47281915,1.1737165,0.9406508,1.7438083
5.729636192321777,0.018608104,3.3316646,-0.47629723,1.1217841,0.9199074,1.7250345
5.74972128868103,0.018608104,3.3316646,-0.47629723,1.1217841,0.9199074,1.7250345
5.771047830581665,0.017126452,3.276618,-0.47960773,1.0685335,0.8985103,1.7054545
5.791141510009766,0.017126452,3.276618,-0.47960773,1.0685335,0.8985103,1.7054545
5.811220407485962,0.015640568,3.2198238,-0.48275456,1.0139347,0.8764149,1.6847776
5.833537340164185,0.0140841715,3.1609366,-0.48559502,0.95784414,0.8536534,1.6626786
5.853639364242554,0.012473118,3.0996013,-0.48795584,0.89999676,0.83022857,1.6391021
5.873693466186523,0.010787021,3.0352855,-0.48975262,0.84009314,0.80619454,1.614004
5.894832134246826,0.0087095015,2.9694738,-0.48890305,0.7686044,0.7724842,1.5839214
5.914798974990845,0.0087095015,2.9694738,-0.48890305,0.7686044,0.7724842,1.5839214
5.934915065765381,0.00648297,2.9087663,-0.48399076,0.66904664,0.71039087,1.5422953
5.95503306388855,0.05466659,2.574932,-0.5638596,0.35452303,0.6350158,1.4488257
5.9750425815582275,0.009557735,2.259075,-0.719129,0.29885548,0.6001263,1.2927268
5.995282411575317,-0.033439565,2.0209885,-0.6444455,0.14783177,0.4926009,1.1445037
6.01530385017395,-0.12183903,1.6225202,-0.527494,-0.06831202,0.30335593,0.8860655
6.035385608673096,-0.06393729,1.26873,-0.48481405,-0.2942049,0.29970187,0.6125457
6.055526494979858,-0.030733634,0.82909435,-0.4899342,-0.43536386,0.26942146,0.39673862
6.076201438903809,-0.14327376,0.35229522,-0.4299989,-0.44710517,0.112041704,0.2472043
6.096820831298828,-0.14327376,0.35229522,-0.4299989,-0.44710517,0.112041704,0.2472043
6.116691589355469,-0.8617295,0.0721242,-0.6945558,-0.08906537,-0.3747706,0.24942154
6.1367950439453125,-1.3777307,-0.09421332,-0.2487566,0.24828514,-0.4321298,0.023418568
6.156835317611694,-1.6488503,-0.7038073,0.017934617,0.539729,-0.46443573,-0.60208356
6.177253723144531,-1.7409046,-1.6836541,0.04687142,1.207333,-0.72689444,-1.9618732
6.197103977203369,-1.8561423,-2.296134,0.093274705,1.7973702,-0.7202664,-3.1261895
6.217172384262085,-1.9643035,-2.6637197,0.21498004,2.076021,-0.6605666,-3.843087
6.2372894287109375,-1.9643035,-2.6637197,0.21498004,2.076021,-0.6605666,-3.843087
6.257458448410034,-2.0060325,-2.8352237,0.32632607,2.1991909,-0.5887319,-4.199474
6.277556896209717,-1.8165513,-2.8443599,0.4405822,2.1307404,-0.35098946,-4.306469
6.297610521316528,-1.8211145,-2.9966652,0.45174652,2.288913,-0.12929171,-4.5048013
6.317692041397095,-1.7860839,-3.06788,0.5130513,2.3600786,0.05898216,-4.64778
6.337762355804443,-1.7197804,-3.1076021,0.5657952,2.3692534,0.23791695,-4.737573
6.35783839225769,-1.6958487,-3.0986843,0.4843134,2.596453,0.41520423,-4.538991
6.377962589263916,-1.6703866,-3.136213,0.5392134,2.412679,0.3408754,-4.640361
6.397984504699707,-1.6703866,-3.136213,0.5392134,2.412679,0.3408754,-4.640361
6.418090105056763,-1.5471025,-3.1485026,0.5885352,2.3538795,0.5583166,-4.6869135
6.43817138671875,-1.5948014,-3.088451,0.46600547,2.8338354,0.70596755,-4.469146
6.458248853683472,-1.675777,-3.0788784,0.5593222,2.5869062,0.44948304,-4.6480184
6.478368043899536,-1.6093173,-3.0455813,0.48032704,2.5761545,0.52002823,-4.3619947
6.498460531234741,-1.5882168,-3.0591724,0.5437919,2.4730256,0.45249772,-4.533916
6.518615007400513,-1.4151822,-3.078213,0.60105747,2.2292554,0.6305091,-4.5211916
6.538627624511719,-1.4070578,-3.0186017,0.47599965,2.6364791,0.8460381,-4.293312
6.558959484100342,-1.4070578,-3.0186017,0.47599965,2.6364791,0.8460381,-4.293312
6.579139232635498,-1.4484919,-3.0329952,0.564958,2.407033,0.62935174,-4.4621363
6.5992231369018555,-1.4522879,-2.9780016,0.46317425,2.5909877,0.7320006,-4.219586
6.619287490844727,-1.4285402,-3.0008187,0.5388397,2.306405,0.5353183,-4.3511066
6.639541149139404,-1.252422,-3.0200708,0.5933446,2.1895962,0.85225433,-4.3930235
6.659634113311768,-1.2456052,-2.947227,0.48787126,2.36335,0.9200544,-4.159911
6.67992639541626,-1.2217746,-2.9846115,0.5641829,2.1121013,0.74831015,-4.3020377
6.699856758117676,-1.1985455,-2.9235148,0.4287936,2.2786367,0.8633736,-4.047261
6.720126152038574,-1.1461912,-2.9671712,0.51605695,2.0334976,0.7384859,-4.174458
6.740234136581421,-1.1461912,-2.9671712,0.51605695,2.0334976,0.7384859,-4.174458
6.760312795639038,-0.9298481,-2.9889517,0.5829692,1.8830925,1.1188438,-4.2454348
6.780399322509766,-0.8858997,-2.912261,0.46167022,1.9773998,1.1551445,-4.0220566
6.80048942565918,-0.8426955,-2.9575958,0.5392194,1.7637573,1.0534,-4.1318264
6.820565462112427,-0.6864493,-2.9281883,0.5005498,1.7232587,1.3045764,-4.0356164
6.8406500816345215,-0.58002496,-2.9226553,0.5580161,1.5224085,1.3247256,-4.102965
6.860751390457153,-0.5604065,-2.8378985,0.41087452,1.5814306,1.1891127,-3.8560283
6.88082480430603,-0.46186766,-2.8858345,0.45203796,1.3679982,1.2340688,-3.8974493
6.900969505310059,-0.46186766,-2.8858345,0.45203796,1.3679982,1.2340688,-3.8974493
6.921032905578613,-0.25396276,-2.823735,0.4758666,1.1433817,1.4421805,-3.9288366
6.941205978393555,-0.049423773,-2.7393975,0.46048656,0.8388841,1.474092,-3.916242
6.9612157344818115,0.25521675,-2.532261,0.3279077,0.63258624,1.4041231,-3.6733115
6.98554801940918,0.25521675,-2.532261,0.3279077,0.63258624,1.4041231,-3.6733115
7.005624771118164,0.44127244,-2.3957033,0.29374,0.2832475,1.4532387,-3.4171548
7.029595613479614,0.4151842,-2.1423259,0.3179395,-0.15737423,1.2227997,-3.3967845
7.04970383644104,0.49942005,-2.0997868,0.27342618,-0.68235075,1.0255054,-3.2785923
7.069721937179565,0.63323593,-1.9965993,0.26006496,-1.0902585,0.97027916,-3.153104
7.090142726898193,0.7436967,-1.8714284,0.26172003,-1.4774408,0.9890849,-2.9669259
7.110058069229126,0.818759,-1.7120506,0.27295935,-1.7883871,1.0760401,-2.7475889
7.1301109790802,0.83483833,-1.5404627,0.28970167,-2.0133271,1.1540444,-2.5436726
7.150886297225952,0.83483833,-1.5404627,0.28970167,-2.0133271,1.1540444,-2.5436726
7.171061992645264,0.81358755,-1.3910449,0.3056887,-2.1684208,1.1856766,-2.384096
7.191082000732422,0.7653345,-1.2762868,0.3106319,-2.2582073,1.1806324,-2.2633498
7.211186408996582,0.7000209,-1.1851745,0.30415437,-2.286881,1.1663013,-2.1640158
7.231248378753662,0.6280385,-1.0951304,0.29133686,-2.2691357,1.161532,-2.0655546
7.251343488693237,0.55097145,-0.99416846,0.2741786,-2.2138255,1.1637361,-1.9583343
7.271429777145386,0.465334,-0.86892444,0.25121942,-2.1208043,1.1662526,-1.8257437
7.2914886474609375,0.36964482,-0.6865415,0.21159267,-1.9707881,1.1617953,-1.6278567
7.311581373214722,0.36964482,-0.6865415,0.21159267,-1.9707881,1.1617953,-1.6278567
7.331697463989258,0.2739362,-0.3442188,0.10581109,-1.6824297,1.1268699,-1.2581552
7.352025508880615,0.44318628,-0.49511802,-0.5842246,-0.48271272,1.603291,-0.5891813
7.3719329833984375,0.6481686,0.48214036,-0.93375134,0.71614146,2.0250227,0.21456668
7.392058849334717,0.12280764,0.74235266,-0.7516515,0.9942931,0.6603239,0.39183548
7.4121317863464355,0.53769934,1.7298723,-0.7153399,1.398846,1.0217607,1.0035375
7.432197570800781,0.4641469,2.2976127,-0.76962554,1.4246775,1.0692242,1.4012841
7.4522645473480225,0.35485524,2.655064,-0.7764503,1.552782,0.99613494,1.568656
7.472381591796875,0.35485524,2.655064,-0.7764503,1.552782,0.99613494,1.568656
7.492480039596558,0.2951007,2.9417715,-0.79678273,1.6211544,1.0327593,1.6621832
7.512529134750366,0.23532511,3.0888016,-0.8007786,1.645149,1.0177584,1.7024219
7.532613039016724,0.20202567,3.187807,-0.80411994,1.6444597,1.0112108,1.7283111
7.552721977233887,0.17611314,3.236927,-0.80777013,1.6210283,0.9923399,1.7406974
7.573132514953613,0.15773942,3.2580585,-0.81123745,1.5870806,0.96789473,1.7438781
7.592963457107544,0.14377822,3.2606645,-0.8150219,1.5446557,0.9401249,1.7409035
7.613363027572632,0.13262685,3.2509165,-0.8186313,1.4969832,0.90957016,1.733382
7.633294105529785,0.13262685,3.2509165,-0.8186313,1.4969832,0.90957016,1.733382
7.6534693241119385,0.12360223,3.2332215,-0.822011,1.4455072,0.8776358,1.722748
7.673490047454834,0.11597128,3.2096932,-0.8250748,1.3910381,0.8445461,1.7096883
7.693538188934326,0.10932352,3.181703,-0.8278699,1.33425,0.81061953,1.6945087
7.71385931968689,0.10323359,3.1501946,-0.8304108,1.2758409,0.77602744,1.6774849
7.7339606285095215,0.0974132,3.1158812,-0.8326704,1.2161733,0.7409012,1.6589528
7.754026412963867,0.041057955,2.9791822,-0.8042748,1.1362067,0.65919846,1.6251625
7.774769306182861,0.011195015,2.8123822,-0.78335667,1.0177988,0.6063226,1.5902544
7.79481053352356,0.011195015,2.8123822,-0.78335667,1.0177988,0.6063226,1.5902544
7.81488037109375,0.031541955,2.6540189,-0.7617928,0.87284553,0.56569177,1.5487638
7.8351311683654785,0.028788876,2.508414,-0.7751649,0.7825004,0.5219402,1.4856964
7.855091333389282,0.03121842,2.3684068,-0.768954,0.6896341,0.47838697,1.4304152
7.875296115875244,0.034236383,2.2302284,-0.75382847,0.5847391,0.4437246,1.3763572
7.89531397819519,-0.027368058,2.1206043,-0.76010716,0.57143545,0.4844371,1.3082646
7.915389537811279,0.012965571,1.9849674,-0.6389805,0.4557578,0.43284795,1.2692407
7.935452699661255,-0.009890426,1.9209882,-0.6696708,0.36070845,0.49554837,1.2092807
7.955772399902344,-0.009890426,1.9209882,-0.6696708,0.36070845,0.49554837,1.2092807
7.975736379623413,0.065726,1.3021753,-0.78583527,0.08077179,0.4001038,1.0379637
7.995794057846069,-0.019487668,0.7820143,-0.928286,-0.026932418,0.3284412,0.7312385
8.015877485275269,-0.048160065,0.33849758,-0.8898203,-0.15530209,0.2089545,0.50993764
8.036055564880371,-0.15013646,-0.035298362,-0.85468644,-0.32037285,0.1621259,0.24802616
8.056122064590454,-0.30434304,-0.43155783,-0.77033776,-0.35158592,-0.17239994,0.042371057
8.07621693611145,-0.5798041,-0.30445313,-1.2074131,0.13756828,-0.4276684,0.08473801
8.096253395080566,-0.5450346,-0.08618195,-0.62996185,-0.2819623,-0.25654826,0.029783167
8.116362810134888,-0.5450346,-0.08618195,-0.62996185,-0.2819623,-0.25654826,0.029783167
8.136450290679932,-0.4506859,-0.716801,-1.2775133,0.24459434,-0.36969957,-0.16570565
8.156644105911255,-0.6051513,-0.33608812,-0.5682154,-0.37472937,-0.3934101,-0.3175954
8.177307367324829,-0.58537704,-0.50672853,-0.87119067,0.0061766803,-0.4848558,-0.094660945
8.197315216064453,-0.84567434,0.18283097,-0.60506785,0.16675666,-0.1959934,0.16264227
8.217432975769043,-0.2710023,-0.4910314,-1.0525755,0.26603204,-0.12865022,-0.15376505
8.237536668777466,-0.10772498,-0.18403627,-0.3683697,-0.5041379,0.0075646597,-0.40503195
8.257585287094116,-0.10361396,-0.8031441,-0.8344615,-0.2512131,-0.33297104,-0.5402674
8.277665853500366,-0.10361396,-0.8031441,-0.8344615,-0.2512131,-0.33297104,-0.5402674
8.297826528549194,-0.15087916,-0.8699878,-0.09333631,-0.5540092,-0.26753417,-1.3082116
8.317846775054932,-0.3414334,-1.3363322,0.22740097,-0.14733185,0.07472726,-1.8672129
8.33812141418457,-0.72635365,-1.8816322,0.32289237,-0.33261886,-0.2762785,-3.387727
8.35807752609253,-0.8209873,-2.1991773,0.34624967,-0.20541087,-0.16116947,-3.7546895
8.378190755844116,-0.56189907,-2.0363421,0.52302116,0.14405599,0.19355038,-3.726844
8.398290634155273,-0.46579245,-2.068894,0.6443375,0.528365,0.54609543,-4.010113
8.418328285217285,-0.6192201,-2.1330318,0.6775969,0.68680215,0.43050173,-3.9898264
8.438619613647461,-0.6192201,-2.1330318,0.6775969,0.68680215,0.43050173,-3.9898264
8.45872688293457,-0.542958,-2.1745307,0.76375353,0.99901056,0.30225328,-3.8565676
8.478848457336426,-0.6611992,-2.035642,0.6934172,1.1009377,0.52500015,-3.8837564
8.498903274536133,-0.59141815,-2.1103315,0.7503322,1.2254379,0.41867962,-3.7948644
8.518975734710693,-0.6104104,-2.0029945,0.6980909,1.30568,0.7033664,-3.7927763
8.539132833480835,-0.64257514,-2.0438335,0.7086478,1.4504546,0.6472423,-3.8042054
8.559268951416016,-0.70490766,-2.005702,0.7038152,1.6065308,0.8766227,-3.7087648
8.579260110855103,-0.74168026,-2.0642464,0.67491674,1.5709059,0.79052037,-3.789115
8.59974479675293,-0.7539229,-2.1153936,0.6602044,1.7497518,0.98301774,-3.6385083
8.61984372138977,-0.7539229,-2.1153936,0.6602044,1.7497518,0.98301774,-3.6385083
8.640238523483276,-0.7214875,-2.3789096,0.6387769,1.4657696,0.805105,-3.6883721
8.660264492034912,-0.6521536,-2.6058145,0.6477039,1.3016231,1.070312,-3.936359
8.680776596069336,-0.5538854,-2.3472857,0.58337426,1.5047711,1.184947,-3.6838052
8.70087742805481,-0.6371902,-2.625062,0.6277732,1.2773343,1.0011845,-3.793286
8.720974445343018,-0.48469442,-2.6427717,0.66674054,1.153148,1.2382114,-3.921897
8.741251230239868,-0.5750116,-2.343982,0.6450746,1.3658442,1.3975493,-3.7087872
8.761385440826416,-0.5750116,-2.343982,0.6450746,1.3658442,1.3975493,-3.7087872
8.781471490859985,-0.29262453,-2.4758286,0.6521647,1.0658206,1.1925441,-3.5052788
8.801541805267334,-0.16468918,-2.5071948,0.65326935,0.8186939,1.4837384,-3.687907
8.821636438369751,-0.07525727,-2.1589706,0.67336386,0.97895944,1.6790826,-3.6765382
8.84174370765686,-0.21312994,-1.9995197,0.57324076,1.1821702,1.4790442,-3.3091123
8.861869812011719,-0.22214092,-2.3673906,0.64780354,0.78262866,1.3476437,-3.2396667
8.881980895996094,0.007023547,-2.3570957,0.62682796,0.52051353,1.526838,-3.3818743
8.902047634124756,0.26891613,-1.6831843,0.48645607,0.7468066,1.8591027,-3.1823537
8.923640251159668,0.26891613,-1.6831843,0.48645607,0.7468066,1.8591027,-3.1823537
8.943737745285034,0.0038008504,-1.7767531,0.4904394,0.561674,1.4869821,-2.7751594
8.963938236236572,0.09197447,-1.462456,0.305849,0.6977618,1.6142703,-2.4144614
8.984004259109497,0.24763206,-1.6275129,0.36667526,0.3854485,1.4898432,-2.195656
9.00405740737915,0.45248482,-1.3650115,0.24278833,0.12940454,1.667636,-1.9040395
9.024163246154785,0.5054374,-1.1022172,0.17469196,-0.12880573,1.6609893,-1.4870015
9.044260025024414,0.48030597,-0.7425655,0.009300274,-0.3597006,1.5517904,-0.9459267
9.064314603805542,0.675166,0.14576454,-1.0304497,0.3897241,1.7076522,-0.113215454
9.0845046043396,0.675166,0.14576454,-1.0304497,0.3897241,1.7076522,-0.113215454
9.10459280014038,0.53730595,1.0338246,-1.0174793,1.0917038,1.2470732,0.520971
9.125022172927856,0.6215478,1.7981421,-0.805992,1.0695312,1.0965889,1.171276
9.144870281219482,0.51481843,2.1040444,-0.8202325,0.9610121,1.032187,1.4922734
9.164934873580933,0.43859875,2.3187582,-0.85787076,1.0273932,0.982884,1.5881287
9.185011625289917,0.39128244,2.4821126,-0.8683622,1.0799721,0.9746466,1.6275055
9.205125570297241,0.35652494,2.584036,-0.86716455,1.0826254,0.95673007,1.6469138
9.225183248519897,0.33363783,2.6508524,-0.8667879,1.067052,0.9403186,1.6575854
9.245841026306152,0.33363783,2.6508524,-0.8667879,1.067052,0.9403186,1.6575854
9.265954971313477,0.31362975,2.686646,-0.86743,1.0378588,0.92013353,1.6594993
9.286414623260498,0.2964698,2.6987045,-0.8678267,0.9981538,0.8950768,1.6530206
9.30633544921875,0.28197527,2.693197,-0.86809254,0.9503329,0.86705524,1.6398506
9.326342344284058,0.2690562,2.674108,-0.8680726,0.8960092,0.8365461,1.6216255
9.346433639526367,0.25716233,2.644236,-0.86765873,0.83606267,0.80406946,1.5995685
9.366666078567505,0.24583466,2.6050344,-0.8667159,0.7707497,0.76971376,1.5743028
9.386708498001099,0.20110644,2.4849272,-0.8445308,0.68300605,0.69710904,1.5334866
9.4067862033844,0.14896746,2.267895,-0.8054551,0.5516807,0.6177854,1.4767836
9.427335977554321,0.14896746,2.267895,-0.8054551,0.5516807,0.6177854,1.4767836
9.447757720947266,0.10777058,2.1151042,-0.80022514,0.48567936,0.66562086,1.4113402
9.467701435089111,0.09290756,1.9078747,-0.7566489,0.3413311,0.6100657,1.3063984
9.487712383270264,0.09458454,1.6906556,-0.7190366,0.16428164,0.58492386,1.2097625
9.522483825683594,0.06844236,1.4283079,-0.68601775,-0.039766204,0.5435805,1.0847061
9.55712103843689,0.06844236,1.4283079,-0.68601775,-0.039766204,0.5435805,1.0847061
9.577220916748047,0.06844236,1.4283079,-0.68601775,-0.039766204,0.5435805,1.0847061
9.597320556640625,0.023155939,1.1342646,-0.6632612,-0.22996816,0.46540865,0.9312823
9.617461442947388,-0.06975798,0.643266,-0.6764062,-0.34694478,0.22850806,0.7258002
9.637609243392944,0.0043901913,0.4457848,-1.0622379,0.27632192,-0.1916889,0.40012667
9.657655954360962,0.02675308,0.1975082,-0.74459285,-0.19606131,0.2490377,0.49130055
9.67805004119873,-0.14154716,0.43640065,-0.9587118,0.31923085,-0.097250484,0.262314
9.697890281677246,0.09245081,0.11251287,-0.66782236,-0.31015882,0.18623377,0.5041053
9.71824049949646,-0.2397769,0.36194867,-0.91511726,0.19908196,-0.13479286,0.17216355
9.73841404914856,-0.2397769,0.36194867,-0.91511726,0.19908196,-0.13479286,0.17216355
9.758522510528564,-0.009946514,-0.020996228,-0.61527896,-0.37265795,0.03343718,0.37729403
9.778613090515137,-0.35271853,0.16833447,-0.81263816,0.10826716,-0.2659889,0.08202853
9.79867935180664,-0.104124114,-0.29170436,-0.9405339,0.17163487,-0.14423898,0.0959497
9.818812608718872,-0.15147175,0.07326941,-0.40335426,-0.5973171,-0.18469638,0.06694012
9.841546297073364,-0.15147175,0.07326941,-0.40335426,-0.5973171,-0.18469638,0.06694012
9.859010457992554,-0.10183798,-0.44630075,-1.1150897,-0.11174534,-0.44623676,-0.18154556
9.879133224487305,-0.10183798,-0.44630075,-1.1150897,-0.11174534,-0.44623676,-0.18154556
9.899194717407227,-0.31762296,-0.20469625,-0.2530528,-0.73194253,-0.36627623,-0.47844642
9.9194016456604,-0.53662705,-0.868362,-0.05343168,-0.4801116,-0.7224017,-0.5351487
9.939507722854614,-1.1244886,-1.4764289,0.2463948,-0.34511617,-0.9007764,-2.173854
9.959557056427002,-1.4765248,-2.0265653,0.2737023,0.023041874,-1.0076827,-3.2334569
9.979683876037598,-1.475658,-2.0019944,0.37337342,0.514065,-0.9782932,-3.1638677
9.99982762336731,-1.4766245,-1.960552,0.42053863,0.8600817,-0.88146096,-3.1357281
10.019985437393188,-1.4766245,-1.960552,0.42053863,0.8600817,-0.88146096,-3.1357281
10.040071487426758,-1.4936271,-2.0862029,0.41262564,0.9856291,-0.8374077,-3.2181485
10.060154676437378,-1.449587,-2.0977144,0.43141314,1.0716646,-0.7366528,-3.2417822
10.080248832702637,-1.3688061,-2.1047366,0.4600688,1.0996802,-0.5743407,-3.2821863
10.100524425506592,-1.2480537,-2.1283798,0.49739835,1.1016814,-0.3311662,-3.3631434
10.120567560195923,-1.057615,-2.176941,0.54016244,1.0927104,0.04981294,-3.480759
10.140623807907104,-0.7823272,-2.231106,0.58798647,1.0785357,0.584817,-3.63339
10.160742282867432,-0.71953523,-2.2858496,0.5799334,1.1444907,0.91340595,-3.625221
10.180944442749023,-0.58446556,-2.53127,0.5884362,1.1177659,0.81217146,-3.7150702
10.201142311096191,-0.58446556,-2.53127,0.5884362,1.1177659,0.81217146,-3.7150702
10.221165657043457,-0.56263846,-2.6527,0.62625414,1.0429255,1.0748652,-4.002795
10.241256713867188,-0.61440474,-2.4623542,0.56263095,0.9529779,1.0294733,-3.771025
10.261322975158691,-0.41401693,-2.5621188,0.59568524,0.9387884,0.98573565,-3.7213523
10.28176760673523,-0.39632297,-2.6327777,0.6493449,0.8237113,1.1901693,-3.9711812
10.301599740982056,-0.5522964,-2.3743865,0.61760277,0.9024075,1.3289456,-3.7701316
10.321695327758789,-0.27655786,-2.5091648,0.6352291,0.79915535,1.1022065,-3.592137
10.341848611831665,-0.24291162,-2.5583324,0.6475141,0.60683775,1.3036745,-3.8448224
10.361982107162476,-0.24291162,-2.5583324,0.6475141,0.60683775,1.3036745,-3.8448224
10.382029294967651,-0.2763958,-2.304758,0.64559126,0.6202457,1.5523374,-3.729365
10.402262210845947,-0.19833013,-2.4769096,0.68308854,0.54980516,1.2655935,-3.6619322
10.422229766845703,-0.112411246,-2.1496673,0.6523814,0.4972138,1.5890965,-3.6905386
10.442390203475952,-0.07356964,-1.8581268,0.52815926,0.6369728,1.5753176,-3.2226083
10.462404012680054,-0.15901004,-2.052095,0.5385227,0.5680572,1.2055514,-3.0700102
10.482536315917969,-0.061687578,-2.0801632,0.5545859,0.32915467,1.370229,-3.0797582
10.50262451171875,-0.061687578,-2.0801632,0.5545859,0.32915467,1.370229,-3.0797582
10.522729873657227,0.17248045,-1.8932115,0.46700194,0.26563674,1.4369013,-2.9380763
10.542807340621948,0.2657983,-1.7383907,0.44292688,0.12303278,1.4366081,-2.6756613
10.562992811203003,0.3350063,-1.2131248,0.3139679,0.19266444,1.5697594,-2.3300946
10.583290338516235,0.15654156,-0.651079,0.26816753,0.16310465,1.77227,-1.5693117
10.603400468826294,0.0580702,0.113665715,-0.18595251,0.622162,1.2526422,-0.4733315
10.623517274856567,0.55912244,0.10373108,-0.5766692,0.019322984,0.86961305,-0.090471305
10.64354658126831,0.63186234,0.65856713,-1.0783507,0.5200212,1.1156144,0.67376417
10.663620471954346,0.38414693,1.0951267,-0.83218396,0.6512687,0.70402366,0.9183291
10.683727264404297,0.38414693,1.0951267,-0.83218396,0.6512687,0.70402366,0.9183291
10.703941345214844,0.48729467,1.411976,-0.7885064,0.5249151,0.7162169,1.1434242
10.723965644836426,0.439051,1.7125775,-0.8580469,0.6320908,0.8795969,1.3334423
10.744032859802246,0.46076453,1.9371516,-0.8757975,0.6045586,0.84216976,1.4114646
10.764268159866333,0.4220149,2.1100273,-0.8949169,0.65376043,0.8293462,1.4789511
10.784311056137085,0.40151036,2.2485428,-0.89709866,0.6789918,0.82474345,1.5190976
10.804340839385986,0.37507176,2.3413358,-0.8982954,0.67569864,0.81582534,1.5472049
10.824419498443604,0.3525951,2.3989065,-0.8988147,0.6583934,0.7978022,1.5592666
10.844928503036499,0.3525951,2.3989065,-0.8988147,0.6583934,0.7978022,1.5592666
10.865052223205566,0.33439428,2.4286191,-0.8987352,0.62815154,0.7760029,1.5604746
10.885111570358276,0.30886346,2.4396808,-0.8985768,0.6000426,0.75474733,1.5535784
10.905219316482544,0.22724344,2.368578,-0.8743196,0.5834496,0.7042266,1.5179096
10.925472259521484,0.18103535,2.2390094,-0.83562744,0.5094204,0.66004914,1.462088
10.945630550384521,0.19577189,2.1161942,-0.8120924,0.39035645,0.6482252,1.4069098
10.965760707855225,0.19109298,1.9549037,-0.782963,0.25488886,0.6038396,1.336542
10.98577094078064,0.193437,1.722797,-0.761158,0.06979797,0.5666459,1.2504951
11.005833148956299,0.193437,1.722797,-0.761158,0.06979797,0.5666459,1.2504951
11.025945901870728,0.2070321,1.1488122,-0.84032774,-0.23329961,0.45875293,1.0730097
11.04600715637207,0.1256779,0.52009034,-0.8783654,-0.41539973,0.2789027,0.7735927
11.066088676452637,-0.035678435,0.113418505,-0.6851096,-0.4570028,-0.002804507,0.43907467
11.086184024810791,-0.07914092,0.15635239,-0.9929691,0.14854655,-0.2741741,0.14904708
11.106265783309937,-0.0051921792,-0.14800395,-0.5776378,-0.47997588,-0.13412327,0.22346169
11.126652002334595,-0.25937593,0.16712858,-0.76554817,0.098063454,-0.26627722,-0.0047502294
11.14653468132019,0.10390289,-0.26680052,-1.0788709,0.3213301,-0.17813164,0.08513453
11.166829586029053,0.10390289,-0.26680052,-1.0788709,0.3213301,-0.17813164,0.08513453
11.186930656433105,-0.104692146,0.042898044,-0.46253452,-0.6042137,-0.14505382,0.034404777
11.207023620605469,0.1267233,-0.18455376,-1.2167506,-0.07490967,-0.431023,-0.1289506
11.227159023284912,0.020086687,-0.0921147,-0.55983377,-0.7070584,-0.18697242,-0.3118337
11.247242212295532,-0.031746406,-0.3866049,-0.98184824,-0.112976044,-0.33204925,-0.46242064
11.267383337020874,-0.09423365,-0.04046835,-0.20558806,-0.95569944,-0.40343568,-0.4805945
11.287468671798706,-0.48023254,-0.83863133,0.039343257,-0.98742974,-0.6169757,-0.70771885
11.30751657485962,-1.2986317,-1.5958784,0.24145938,-1.0425798,-1.0243884,-2.6160285
11.328073501586914,-1.3949333,-2.0778148,0.21692555,-0.5461179,-1.1446676,-3.1527493
11.348130226135254,-1.3949333,-2.0778148,0.21692555,-0.5461179,-1.1446676,-3.1527493
11.368271589279175,-1.2448452,-1.9801853,0.34586737,0.1543966,-1.0426503,-3.1079638
11.388340473175049,-1.2607496,-1.8688172,0.40692678,0.44099447,-0.878884,-3.040634
11.408416271209717,-1.2459295,-1.8302537,0.43300197,0.6335169,-0.78283817,-3.0143197
11.428568840026855,-1.2369752,-1.971669,0.44365776,0.6848221,-0.74477416,-3.0813558
11.448606729507446,-1.160424,-1.9856476,0.46306512,0.74991333,-0.6089559,-3.1121747
11.468697786331177,-1.013783,-1.9920907,0.48909405,0.77085114,-0.36012733,-3.152294
11.488783836364746,-0.791029,-2.0014884,0.51945615,0.7595786,0.01491886,-3.2259977
11.50905442237854,-0.791029,-2.0014884,0.51945615,0.7595786,0.01491886,-3.2259977
11.529031991958618,-0.49532908,-1.9743537,0.549305,0.7276186,0.48218617,-3.3418171
11.549111127853394,-0.64083135,-1.9538822,0.60788536,0.49852726,0.8934064,-3.3002384
11.569191217422485,-0.4655359,-1.8753684,0.51226866,0.72974193,0.8550512,-3.3097875
11.589286088943481,-0.7013093,-2.044837,0.5355094,0.6823728,0.8782383,-3.2881384
11.609363317489624,-0.47670078,-2.3423035,0.53905064,0.6621802,0.5535738,-3.3521402
11.62947416305542,-0.27395433,-2.4181771,0.55651236,0.3917643,0.8657871,-3.465906
11.649523973464966,-0.12631,-1.8890297,0.5215265,0.49555895,1.3626318,-3.46419
11.67011547088623,-0.12631,-1.8890297,0.5215265,0.49555895,1.3626318,-3.46419
11.69023585319519,-0.41728663,-1.8491671,0.6163261,0.5848056,1.471959,-3.2468574
11.710310459136963,-0.2969718,-2.0009186,0.5835584,0.5534395,1.0769715,-3.1899936
11.730442523956299,-0.24383081,-2.3081212,0.6056602,0.3967631,1.0880793,-3.4541
11.750518560409546,-0.21282198,-2.1624613,0.6064125,0.25471264,1.339088,-3.423672
11.770629167556763,-0.1913525,-1.8729857,0.564273,0.42127547,1.3556501,-3.2929118
11.79068899154663,-0.33725795,-1.8102671,0.58916086,0.27126992,1.4923055,-3.0437198
11.810803890228271,-0.23459564,-1.7774487,0.5082426,0.33492777,1.2411795,-2.936566
11.830905437469482,-0.23459564,-1.7774487,0.5082426,0.33492777,1.2411795,-2.936566
11.851009368896484,-0.24097823,-1.8907124,0.5071691,0.04019001,1.3303448,-2.8675282
11.87113094329834,-0.010501478,-2.033399,0.50760037,-0.012404412,1.0763547,-2.810127
