liuyurong129/humanoid-gym/humanoid/data/robot2_action_20250621-221030.csv
timestamp,joint_1,joint_2,joint_3,joint_4,joint_5,joint_6
0.00034928321838378906,0.0,0.0,0.0,0.0,0.0,0.0
0.020323991775512695,0.0,0.0,0.0,0.0,0.0,0.0
0.04049277305603027,0.0,0.0,0.0,0.0,0.0,0.0
0.06053805351257324,0.0,0.0,0.0,0.0,0.0,0.0
0.08065319061279297,0.0,0.0,0.0,0.0,0.0,0.0
0.10071182250976562,0.0,0.0,0.0,0.0,0.0,0.0
0.1208655834197998,-0.70788586,0.24196145,0.23717225,0.43358323,-0.9981458,0.043643378
0.1409454345703125,5.204574,0.9721345,-1.7972429,12.8613205,8.380936,4.2178802
0.1610407829284668,-5.228285,-1.248051,-4.136867,7.250904,3.6457775,5.0253143
0.18116307258605957,-7.839859,1.2282345,-4.6187124,17.911415,10.012208,1.0199779
0.2012021541595459,-8.2111025,-0.041707188,-5.467803,8.14725,8.760829,6.555429
0.22203826904296875,-8.2111025,-0.041707188,-5.467803,8.14725,8.760829,6.555429
0.24224233627319336,-1.4890305,-1.1043012,-4.6508083,15.044533,9.19367,5.680485
0.26227450370788574,-6.939769,1.3367425,-3.4527898,13.465092,5.224684,0.97895384
0.2823829650878906,-8.749621,6.4303994,-2.562662,12.311037,3.0020747,-1.1840473
0.302443265914917,-11.400367,9.924488,-3.8195887,13.95722,2.746298,-3.7309682
0.3225264549255371,-12.089438,11.092855,-4.7185125,16.925863,3.872748,-5.492723
0.3426499366760254,-11.156128,10.962417,-5.148716,16.957989,4.2398105,-6.5124326
0.36281371116638184,-9.501976,9.813934,-4.703321,15.62074,4.5118785,-6.1697893
0.384080171585083,-9.501976,9.813934,-4.703321,15.62074,4.5118785,-6.1697893
0.4042782783508301,-8.417944,8.836032,-4.5385866,14.707498,4.4658575,-5.8341374
0.42439723014831543,-7.822063,7.435699,-3.9701273,13.886403,4.2084165,-5.3947277
0.4445967674255371,-7.4515414,6.9449825,-4.2422915,14.591617,4.2252035,-5.934992
0.4645402431488037,-6.6574655,6.2587166,-4.130592,14.827779,4.516017,-6.1772337
0.4846231937408447,-5.8923297,5.3084903,-3.8060174,13.932248,4.5570536,-5.470082
0.5047237873077393,-5.6504674,4.984875,-4.1336727,14.73524,4.6272507,-5.6490197
0.5247931480407715,-3.4758472,3.1372817,-3.7636006,13.396128,5.1088085,-2.9829552
0.5459651947021484,-3.4758472,3.1372817,-3.7636006,13.396128,5.1088085,-2.9829552
0.5660743713378906,-3.910582,3.578678,-4.1138134,17.570923,5.9787354,-4.267669
0.5861563682556152,2.2691932,0.91145027,-2.6293182,16.866308,7.696971,4.353029
0.6063046455383301,-0.4596494,-3.7522035,-4.9800854,22.218584,5.8170443,6.7178974
0.6265730857849121,-6.607075,3.649369,-3.7218618,33.16404,12.690786,-3.4799385
0.6466872692108154,-0.66641694,2.9328046,-5.108088,24.86263,9.170687,-1.6427637
0.6667735576629639,4.5414963,-2.8979032,-3.3635225,24.552597,6.9924874,3.028416
0.6868190765380859,-1.1565648,2.0399861,-3.0292926,30.638662,9.671891,-2.605976
0.7069220542907715,-1.1565648,2.0399861,-3.0292926,30.638662,9.671891,-2.605976
0.7270064353942871,2.5222187,-0.72254944,-3.9266505,20.258772,7.181308,0.64434636
0.7471115589141846,5.9942794,-3.4721446,-2.2644656,20.236797,5.687943,0.60167754
0.7671692371368408,-6.452872,7.114467,-2.416691,27.687069,6.979701,-5.6863027
0.7872583866119385,-11.083755,12.409769,-6.765708,31.972795,9.352814,-7.6913595
0.8073484897613525,-15.579338,14.079346,-5.314577,20.847332,7.477713,-8.280773
0.827406644821167,-13.308303,12.66683,-5.106028,18.774563,6.5870876,-8.406003
0.8475601673126221,-12.5455065,9.61028,-4.1633825,14.790244,4.344349,-7.055333
0.8677024841308594,-12.5455065,9.61028,-4.1633825,14.790244,4.344349,-7.055333
0.887814998626709,-11.150377,7.9801445,-4.11555,13.812184,3.6907153,-6.738991
0.907921314239502,-10.912565,7.4011087,-4.9918895,15.515204,4.017057,-7.6159215
0.9279758930206299,-10.05212,6.96793,-6.005877,17.73975,4.765647,-8.825232
0.9481165409088135,-8.68,6.219512,-5.7760725,17.197296,5.1851425,-8.629819
0.9681546688079834,-7.9747686,5.281866,-5.68459,16.859905,5.3559675,-8.125988
0.9882261753082275,-7.2008524,4.354677,-5.578331,16.93553,5.53889,-7.6839037
1.0082874298095703,-6.4674087,3.52335,-5.2461033,16.634384,5.699863,-6.9897804
1.0292143821716309,-6.4674087,3.52335,-5.2461033,16.634384,5.699863,-6.9897804
1.0492560863494873,-5.882323,2.8968132,-4.8458157,16.051136,5.977045,-6.041042
1.0693349838256836,-4.903523,2.134533,-4.300185,14.494721,6.0102525,-4.462041
1.0894312858581543,-4.1052704,1.684386,-3.9622183,13.577955,6.34509,-3.259454
1.109487533569336,-2.3722367,0.6919892,-2.897938,11.793793,7.0132427,-0.68533653
1.1295793056488037,6.465997,-3.836802,-2.306681,21.510187,12.047941,2.6739333
1.1497838497161865,-1.8692375,2.9524033,-2.2588675,27.508482,8.133538,0.8250984
1.169790267944336,1.684106,-3.1334665,-5.8775587,33.427914,15.742941,8.112457
1.189915657043457,1.684106,-3.1334665,-5.8775587,33.427914,15.742941,8.112457
1.2099854946136475,-1.493899,3.1602962,-2.470115,29.677443,10.650869,1.7610685
1.2301113605499268,5.0280166,-4.9341483,-5.309617,31.236975,17.690357,5.150757
1.250220775604248,-3.3974195,4.6669073,-2.3068879,27.464499,8.458269,0.5068091
1.2703170776367188,-4.401385,-0.091465384,-6.897857,25.45394,12.77251,-0.036475085
1.2903516292572021,-4.019793,2.7267501,-3.7611592,14.1802435,8.971072,-0.117954515
1.3103952407836914,-6.994056,2.4448874,-5.6387463,15.068512,7.049099,-1.0146517
1.3305988311767578,-6.994056,2.4448874,-5.6387463,15.068512,7.049099,-1.0146517
1.3506767749786377,-11.60614,8.905571,-4.4020004,16.118229,4.9199505,-4.0303974
1.370786428451538,-12.662056,16.04715,-7.005827,30.54856,7.034066,-10.847233
1.3908360004425049,-13.131597,18.274605,-8.514766,35.270386,7.964142,-14.926208
1.4109280109405518,-11.902896,18.492285,-9.4970875,38.97396,8.8105755,-17.506886
1.4310691356658936,-10.638672,17.979265,-10.043248,42.253777,9.667094,-19.373781
1.451080560684204,-9.129242,17.354725,-10.645987,47.071465,10.858953,-20.985626
1.471527338027954,-9.129242,17.354725,-10.645987,47.071465,10.858953,-20.985626
1.4919648170471191,-8.242843,16.907885,-11.054167,50.607468,11.971629,-22.036255
1.5118434429168701,-7.9704995,16.524343,-11.333239,51.705505,12.756903,-22.597916
1.5319304466247559,-8.015745,16.10215,-11.479672,51.30471,13.184398,-22.709438
1.5520029067993164,-7.730296,15.587174,-11.446764,51.031357,13.414442,-22.4766
1.5723767280578613,-7.238587,15.074019,-11.324331,51.01728,13.582065,-22.119057
1.5922958850860596,-6.837115,14.601498,-11.159624,50.78289,13.696899,-21.70119
1.6125397682189941,-6.480024,14.099482,-10.945354,50.288742,13.773074,-21.193432
1.632730484008789,-6.139199,13.506731,-10.656148,49.421776,13.809962,-20.537336
1.6531519889831543,-6.139199,13.506731,-10.656148,49.421776,13.809962,-20.537336
1.6729953289031982,-8.237591,12.877837,-10.859735,46.97094,13.527489,-20.367039
1.6930766105651855,-7.7260647,12.125373,-10.522412,46.0439,13.204388,-19.838545
1.7132563591003418,-7.462857,11.471223,-10.220457,44.637604,12.979567,-19.138174
1.733273983001709,-7.2229953,10.792398,-9.893028,43.19215,12.720276,-18.374086
1.7533483505249023,-7.015219,10.101806,-9.540781,41.590954,12.42287,-17.551659
1.7734503746032715,-6.816752,9.395578,-9.169554,39.87181,12.087128,-16.690256
1.7934918403625488,-6.600397,8.682005,-8.777894,38.086636,11.7212715,-15.803753
1.8135802745819092,-6.600397,8.682005,-8.777894,38.086636,11.7212715,-15.803753
1.833702564239502,-6.372357,7.968338,-8.374776,36.263718,11.335226,-14.90402
1.8537530899047852,-6.138484,7.259452,-7.9689326,34.42617,10.936384,-13.999548
1.873828411102295,-5.8963675,6.5657024,-7.5688596,32.60841,10.5362835,-13.0963955
1.8939692974090576,-5.627929,5.9144835,-7.1710687,30.849556,10.171358,-12.175984
1.9140188694000244,-3.4224145,5.520976,-6.360487,29.582058,9.782946,-10.884908
1.9341387748718262,-2.7969618,4.945263,-6.0404034,28.775972,9.728996,-9.872903
1.954197645187378,-3.1007524,4.3845825,-5.36672,27.069044,9.113556,-9.256681
1.9743545055389404,-3.1007524,4.3845825,-5.36672,27.069044,9.113556,-9.256681
1.994791030883789,-2.518065,3.751398,-5.1305094,25.451761,9.184362,-8.1073675
2.014724016189575,-2.7198627,3.2156858,-4.3536158,24.499275,8.710083,-7.0157037
2.0347936153411865,-1.2234622,1.8935622,-3.8477015,22.300764,8.5560255,-5.198288
2.054882764816284,2.0663743,-2.1501853,-2.6482058,20.32679,7.4437585,-1.1161294
2.0750062465667725,-3.805079,1.2719535,-2.4959667,22.484707,6.1504974,0.75058925
2.095094919204712,10.178857,-1.4599274,-4.3911524,38.465923,21.121935,5.99845
2.115126371383667,11.440226,-1.7295934,-2.8449607,34.478756,14.872933,5.3232136
2.135220527648926,11.440226,-1.7295934,-2.8449607,34.478756,14.872933,5.3232136
2.1553103923797607,9.372161,-2.3112671,-2.1021621,35.471085,13.031012,4.053156
2.175403356552124,5.370062,0.048009723,-1.9448293,29.952717,11.119888,1.9105934
2.195469379425049,10.386205,-6.1883607,-2.843258,26.874645,11.645802,3.6199806
2.215555191040039,-4.348976,5.549338,-2.2415628,23.627611,4.9095736,-3.0682113
2.2356715202331543,-10.647189,15.083868,-5.4922657,30.360636,8.442705,-6.0130625
2.2557339668273926,-16.222391,16.707754,-5.837466,23.971252,6.7472467,-8.312471
2.275843381881714,-14.785966,15.825145,-5.8247747,23.58322,6.44437,-9.602438
2.2959237098693848,-14.785966,15.825145,-5.8247747,23.58322,6.44437,-9.602438
2.3160436153411865,-13.231769,14.918326,-6.6397295,24.327192,6.6916823,-11.048918
2.3360955715179443,-11.819409,14.276234,-7.415111,25.373447,6.970272,-12.377754
2.3561694622039795,-10.514474,13.534378,-7.93663,26.633577,7.222823,-13.343202
2.37626576423645,-9.222559,12.773308,-8.331264,28.707222,7.7365365,-14.234526
2.396357774734497,-8.107017,11.99966,-8.48468,30.989641,8.2941475,-15.020313
2.416594982147217,-7.29685,11.454216,-8.581796,32.996304,8.916206,-15.619157
2.4368577003479004,-6.727885,11.10832,-8.668578,34.59771,9.536873,-15.908092
2.4571382999420166,-6.727885,11.10832,-8.668578,34.59771,9.536873,-15.908092
2.4771368503570557,-6.2405496,10.873361,-8.746103,35.868786,10.094373,-16.078606
2.497190237045288,-5.8192444,10.655465,-8.780012,36.824715,10.561224,-16.14272
2.5172839164733887,-5.469295,10.35818,-8.729357,37.38061,10.942213,-16.03849
2.5373499393463135,-5.196628,9.975678,-8.605345,37.43319,11.152867,-15.737999
2.5574774742126465,-4.969631,9.523465,-8.421302,37.05815,11.207518,-15.279368
2.5775556564331055,-4.7703366,9.027599,-8.185431,36.3357,11.149857,-14.720786
2.5975987911224365,-4.582127,8.499563,-7.917325,35.359337,11.006754,-14.098407
2.6176910400390625,-4.582127,8.499563,-7.917325,35.359337,11.006754,-14.098407
2.637799024581909,-4.398154,7.951297,-7.62945,34.210266,10.800177,-13.438465
2.657893419265747,-4.398154,7.951297,-7.62945,34.210266,10.800177,-13.438465
2.6782262325286865,-4.220579,7.394169,-7.328354,32.94584,10.549028,-12.757957
2.700204610824585,-4.051474,6.83512,-7.01779,31.607836,10.268666,-12.068741
2.7202835083007812,-3.890225,6.2780056,-6.6998315,30.223516,9.9706335,-11.378603
2.7403340339660645,-3.7280495,5.726308,-6.3731995,28.814066,9.665148,-10.692474
2.7604053020477295,-3.5523767,5.1828003,-6.0300484,27.403208,9.366484,-10.013387
2.780520439147949,-3.3679116,4.6592565,-5.666793,26.004923,9.095142,-9.341925
2.8005263805389404,-3.1684287,4.169877,-5.296835,24.63904,8.859098,-8.649864
2.820842981338501,-3.1684287,4.169877,-5.296835,24.63904,8.859098,-8.649864
2.8409557342529297,-2.967707,3.7132797,-4.927353,23.299181,8.654061,-7.9307203
2.86108136177063,-2.7146478,3.1211803,-4.51509,22.345213,8.35,-7.197815
2.8811428546905518,-1.5053934,2.073705,-3.9417398,21.564814,8.076218,-5.922908
2.9012205600738525,2.0767033,-0.9449192,-3.0518894,21.148563,7.2611985,-2.2535422
2.9214043617248535,-2.7012308,-1.276332,-3.0430293,20.196203,5.3403635,2.4649098
2.9414665699005127,7.1113515,1.150031,-3.378107,38.371094,17.665003,1.7501062
2.961550235748291,17.86728,-7.915466,-3.8793073,42.86235,17.817019,8.409805
2.9822115898132324,17.86728,-7.915466,-3.8793073,42.86235,17.817019,8.409805
3.0023505687713623,5.450316,2.6726792,-2.2235181,35.726875,13.53931,4.970931
3.022388219833374,8.227696,-5.7352595,-4.690145,34.417877,16.425177,4.2004223
3.0424656867980957,-4.483581,5.731422,-2.6085105,26.397491,6.141305,-1.4084567
3.06254243850708,-6.5239453,8.194456,-5.4426603,24.674885,8.242409,-5.0690775
3.082627058029175,-13.549778,14.402811,-5.089056,21.600077,5.8476,-6.4027624
3.102729320526123,-13.682208,15.099611,-5.7289057,23.005161,6.190803,-8.563364
3.1227867603302,-12.767555,14.9897585,-6.906465,25.020042,6.6623945,-10.819471
3.1432595252990723,-12.767555,14.9897585,-6.906465,25.020042,6.6623945,-10.819471
3.163339853286743,-11.689543,14.728659,-7.893487,26.96477,7.095193,-12.658962
3.1834185123443604,-10.3524885,14.066373,-8.440978,29.099277,7.606668,-14.076555
3.203511953353882,-9.038646,13.274935,-8.700319,31.66215,8.206906,-15.136711
3.2236244678497314,-7.970308,12.55996,-8.855598,33.988045,8.832155,-16.03094
3.2436933517456055,-7.2493277,12.075972,-8.95774,35.812317,9.521537,-16.505236
3.263787031173706,-6.7224545,11.726059,-9.024664,37.15042,10.134694,-16.693933
3.2838642597198486,-6.7224545,11.726059,-9.024664,37.15042,10.134694,-16.693933
3.30391788482666,-6.2643933,11.440006,-9.072395,38.151505,10.640371,-16.792677
3.324112892150879,-5.876347,11.182599,-9.066347,38.852222,11.024487,-16.781916
3.3441102504730225,-5.5311503,10.867516,-8.991181,39.19642,11.3294325,-16.611443
3.3641915321350098,-5.251555,10.461108,-8.855603,39.114056,11.504086,-16.278028
3.3842766284942627,-5.0281253,9.986441,-8.662195,38.61258,11.538982,-15.796888
3.4043924808502197,-4.832098,9.464411,-8.415302,37.77182,11.464133,-15.215205
3.4244771003723145,-4.646662,8.908524,-8.134031,36.68122,11.303017,-14.566841
3.444507360458374,-4.4642754,8.332269,-7.831982,35.422577,11.078073,-13.878993
3.464860200881958,-4.4642754,8.332269,-7.831982,35.422577,11.078073,-13.878993
3.484849452972412,-4.285403,7.747306,-7.5187693,34.05846,10.80796,-13.171671
3.5048859119415283,-4.113336,7.1628404,-7.198201,32.631405,10.508601,-12.457471
3.5249831676483154,-3.9495492,6.5834675,-6.872377,31.169933,10.192132,-11.744541
3.5450432300567627,-3.791224,6.0121717,-6.5427823,29.68883,9.867064,-11.0382185
3.565138578414917,-3.6219754,5.4507895,-6.2019873,28.21314,9.544937,-10.340462
3.585214376449585,-3.4412608,4.9059067,-5.84354,26.756708,9.244125,-9.653868
3.6053237915039062,-3.2501855,4.3920517,-5.4693027,25.333864,8.981343,-8.966412
3.6257541179656982,-3.0439584,3.9166992,-5.092044,23.952345,8.759531,-8.248728
3.645857334136963,-3.0439584,3.9166992,-5.092044,23.952345,8.759531,-8.248728
3.6659770011901855,-2.8128657,3.3881197,-4.699975,22.80525,8.498836,-7.545693
3.686047077178955,-2.5060375,2.7356868,-4.246901,22.13476,8.273237,-6.5710583
3.706113815307617,0.9004778,0.5302075,-3.4329274,20.513525,7.8039694,-4.0660114
3.7262182235717773,-0.20701785,-2.3140743,-3.029366,19.585531,5.4526024,1.6690589
3.7463107109069824,-1.0273806,0.8512813,-3.6006923,32.9245,12.23022,-2.174799
3.7664105892181396,4.8314857,-1.9634626,-3.98202,28.91468,10.398119,3.3989568
3.7870066165924072,4.8314857,-1.9634626,-3.98202,28.91468,10.398119,3.3989568
3.8071494102478027,11.515708,-1.1922544,-2.494463,39.28495,14.998782,5.875194
3.827256679534912,14.291186,-4.5332136,-2.7835422,39.007072,18.192335,6.9804816
3.847327470779419,2.9130955,3.745097,-2.1709204,31.22093,11.291519,2.8537493
3.8674426078796387,2.697741,-3.4015048,-7.5873356,34.548065,15.2174015,5.139822
3.887509822845459,-11.202627,8.289421,-4.081552,27.264503,8.900413,-3.647852
3.907608985900879,-10.68867,11.06368,-4.089079,20.189028,6.6693287,-4.0412555
3.9278392791748047,-12.636704,12.765695,-4.1516504,18.037842,5.952449,-5.248892
3.948051929473877,-12.172688,12.24699,-4.5853724,17.966927,5.708098,-6.4566708
3.9681437015533447,-12.172688,12.24699,-4.5853724,17.966927,5.708098,-6.4566708
3.988402843475342,-11.144444,11.606858,-5.1971025,18.486952,5.726084,-7.601387
4.008303165435791,-10.021583,11.015779,-5.861063,19.374079,5.9412675,-8.693083
4.028336524963379,-9.121332,10.534195,-6.432626,20.42306,6.222962,-9.6425705
4.048451900482178,-8.2228,9.975318,-6.8108397,22.038252,6.5595436,-10.460354
4.068509340286255,-7.251143,9.410113,-7.047078,24.298307,7.0238075,-11.341807
4.0885820388793945,-6.46707,9.006252,-7.170539,26.342667,7.518012,-12.057659
4.109236001968384,-6.46707,9.006252,-7.170539,26.342667,7.518012,-12.057659
4.1294941902160645,-5.957579,8.783187,-7.2468762,27.93955,8.05576,-12.525175
4.149474620819092,-5.560636,8.6190195,-7.3301196,29.229887,8.52463,-12.806389
4.169626951217651,-5.1947026,8.474135,-7.423829,30.264595,8.930416,-12.957392
4.189702033996582,-4.878543,8.2506,-7.4547443,30.986853,9.311075,-12.97101
4.20977520942688,-4.6221337,7.940153,-7.396995,31.256317,9.580462,-12.817803
4.229870557785034,-4.412747,7.566288,-7.2631836,31.10846,9.712471,-12.51194
4.250023365020752,-4.2336984,7.1454067,-7.0746784,30.62704,9.723515,-12.094309
4.270103216171265,-4.0752106,6.691892,-6.847578,29.888039,9.641817,-11.601911
4.290978670120239,-4.0752106,6.691892,-6.847578,29.888039,9.641817,-11.601911
4.31084942817688,-3.9250035,6.2145395,-6.591637,28.963066,9.49424,-11.059695
4.330933332443237,-3.7698002,5.720293,-6.30865,27.913824,9.303335,-10.483223
4.3511011600494385,-3.6058345,5.2157497,-6.000433,26.775242,9.08942,-9.886803
4.3711302280426025,-3.4331865,4.713217,-5.667528,25.581642,8.877693,-9.283468
4.391252756118774,-3.252442,4.22863,-5.3223104,24.36368,8.677084,-8.656872
4.411383628845215,-3.0557961,3.7782094,-4.9707103,23.143835,8.504229,-7.984351
4.4314048290252686,-2.8362584,3.2812483,-4.6081038,22.107563,8.301544,-7.30861
4.451534986495972,-2.8362584,3.2812483,-4.6081038,22.107563,8.301544,-7.30861
4.471663951873779,-2.5341735,2.6533809,-4.186978,21.504452,8.11982,-6.4099083
4.491694688796997,1.4564512,0.19681153,-3.3424046,19.605463,7.667985,-3.5374491
4.511802673339844,-1.4492704,-2.3577242,-2.9603562,17.621693,4.847017,2.5164263
4.532967805862427,0.28974095,1.6465405,-3.1982107,33.12549,13.686968,-2.7558012
4.553021669387817,0.17445128,-2.0903308,-4.5337853,26.309273,8.113571,4.645629
4.57309889793396,8.153745,0.85249054,-3.013129,36.6821,14.953997,2.4655125
4.593188762664795,16.835526,-8.330451,-3.4698875,37.916958,17.5764,7.3026395
4.613284587860107,16.835526,-8.330451,-3.4698875,37.916958,17.5764,7.3026395
4.633364677429199,2.4400654,4.550075,-2.332829,32.5271,11.067831,3.5017693
4.653525114059448,2.5824974,-3.1808379,-7.4912853,34.999077,15.178395,4.442752
4.673559665679932,-10.317659,8.04483,-3.2908673,28.609823,8.11411,-5.35171
4.693636655807495,-13.704369,14.375302,-4.944561,25.533812,7.028598,-5.9516563
4.713726043701172,-14.269038,14.430213,-4.9899054,20.56605,6.3663,-6.848798
4.739451169967651,-14.269038,14.430213,-4.9899054,20.56605,6.3663,-6.848798
4.771080732345581,-14.269038,14.430213,-4.9899054,20.56605,6.3663,-6.848798
4.79665994644165,-14.269038,14.430213,-4.9899054,20.56605,6.3663,-6.848798
4.816778659820557,-12.563893,13.434591,-5.511423,20.420994,6.2367315,-7.8097076
4.83696985244751,-11.19854,12.517376,-6.079711,20.783642,6.217162,-8.824679
4.857025384902954,-10.090822,11.837966,-6.656104,21.57869,6.3954835,-9.835919
4.87704610824585,-9.139591,11.185341,-7.0596094,22.80827,6.6388335,-10.718388
4.8972227573394775,-8.113327,10.470056,-7.252438,24.606205,7.0359073,-11.481463
4.91737961769104,-7.134393,9.844355,-7.3889985,26.627293,7.5081015,-12.254206
4.937419176101685,-6.4482036,9.436429,-7.449783,28.255465,8.021957,-12.775695
4.957545042037964,-5.973617,9.168872,-7.488154,29.560928,8.509579,-13.0963745
4.977631092071533,-5.973617,9.168872,-7.488154,29.560928,8.509579,-13.0963745
4.997732877731323,-5.552325,8.957593,-7.559516,30.628227,8.9334545,-13.293285
5.017840623855591,-5.18486,8.76422,-7.624723,31.485939,9.296156,-13.372891
5.037903070449829,-4.8702793,8.486372,-7.621216,32.02197,9.632669,-13.315374
5.058038949966431,-4.6180243,8.135656,-7.5302353,32.113308,9.847103,-13.096163
5.078096389770508,-4.4123063,7.729623,-7.3717394,31.822227,9.92804,-12.7398815
5.098283290863037,-4.239172,7.2858343,-7.165525,31.223879,9.899181,-12.285791
5.118605136871338,-4.0834355,6.8149157,-6.926301,30.394606,9.787962,-11.767621
5.138712644577026,-4.0834355,6.8149157,-6.926301,30.394606,9.787962,-11.767621
5.158782243728638,-3.934588,6.323688,-6.662114,29.399961,9.618216,-11.205862
5.179094076156616,-3.7821536,5.818662,-6.374094,28.294935,9.409668,-10.614565
5.1989991664886475,-3.6208744,5.305876,-6.0631256,27.111471,9.179395,-10.004896
5.219151735305786,-3.4498773,4.7951016,-5.7282553,25.87927,8.9514065,-9.390049
5.239290237426758,-3.270422,4.302251,-5.378623,24.628153,8.7387295,-8.758977
5.259462833404541,-3.0731177,3.843071,-5.022608,23.381136,8.554984,-8.0848255
5.279492378234863,-2.8576949,3.356688,-4.6603727,22.287601,8.354712,-7.4084845
5.299633741378784,-2.8576949,3.356688,-4.6603727,22.287601,8.354712,-7.4084845
5.319735527038574,-2.6233222,2.7482054,-4.23652,21.533766,8.137479,-6.5594544
5.339861154556274,0.77146643,0.71860015,-3.5614228,19.895964,7.762598,-4.1497583
5.360558748245239,-0.512585,-1.8860376,-2.9302516,19.841944,5.993721,0.6617974
5.3806445598602295,-1.3211285,0.46687922,-3.289846,27.858667,10.622462,-0.7425128
5.400733709335327,7.577909,-2.9928231,-4.0931044,32.131413,12.853422,5.036671
5.420821905136108,6.9246917,2.855244,-2.5549731,39.014076,13.954472,4.979083
5.440927267074585,6.9246917,2.855244,-2.5549731,39.014076,13.954472,4.979083
5.4610490798950195,12.811898,-7.843729,-3.5418768,37.70239,18.651241,6.0587754
5.481088161468506,0.78616637,5.2827764,-2.6208324,31.164387,9.411358,2.45105
5.501171827316284,3.9039612,-2.6854944,-8.035734,38.74977,16.178324,3.3658946
5.521401882171631,-2.0206962,5.0109487,-2.6189692,25.461668,6.406573,-0.9676825
5.541380167007446,-4.9627643,6.215588,-5.2277713,26.983719,8.712984,-4.4760914
5.561540603637695,-13.497956,14.193666,-4.5199423,21.093956,5.8126388,-4.7991495
5.581559181213379,-14.014258,15.244172,-5.391097,22.515985,6.175713,-7.4468985
5.6021997928619385,-14.014258,15.244172,-5.391097,22.515985,6.175713,-7.4468985
5.622292518615723,-13.237403,15.185246,-6.607754,24.66431,6.5952063,-9.832991
5.642376899719238,-12.220269,14.955161,-7.783037,26.818815,7.0568423,-12.016226
5.664089918136597,-10.906527,14.465486,-8.477477,29.06571,7.55797,-13.70247
5.684307813644409,-10.906527,14.465486,-8.477477,29.06571,7.55797,-13.70247
5.704617261886597,-9.531585,13.72632,-8.760884,31.518177,8.197166,-14.858021
5.724506855010986,-8.336918,12.919061,-8.911768,33.853508,8.773569,-15.813742
5.7445666790008545,-7.5031323,12.347219,-8.992359,35.694496,9.437429,-16.374279
5.764673233032227,-6.925026,11.914486,-9.032055,36.984386,10.038289,-16.582138
5.784889221191406,-6.925026,11.914486,-9.032055,36.984386,10.038289,-16.582138
5.804906129837036,-6.4306293,11.56749,-9.057554,37.92604,10.536193,-16.67177
5.825040102005005,-6.0089064,11.266519,-9.0544815,38.6119,10.91909,-16.684706
5.845200538635254,-5.644427,10.975286,-9.002571,39.030403,11.202498,-16.577984
5.865265607833862,-5.327634,10.600925,-8.895118,39.104668,11.420884,-16.312738
5.88536524772644,-5.084618,10.151127,-8.729078,38.75277,11.505238,-15.894282
5.90541934967041,-4.8809385,9.647002,-8.501059,38.035496,11.472668,-15.360346
5.925487756729126,-4.694995,9.103547,-8.231902,37.034786,11.344633,-14.745575
5.946239233016968,-4.694995,9.103547,-8.231902,37.034786,11.344633,-14.745575
5.966345548629761,-4.5144944,8.534677,-7.937048,35.836628,11.144131,-14.079564
5.986602306365967,-4.336637,7.9527273,-7.6278334,34.51114,10.891327,-13.385725
6.006659984588623,-4.164208,7.36804,-7.310053,33.10748,10.603095,-12.679283
6.02672553062439,-3.999598,6.7867565,-6.9860177,31.659555,10.293352,-11.970144
6.046844005584717,-3.8419232,6.2122345,-6.657889,30.186495,9.971576,-11.26494
6.066919803619385,-3.679617,5.646806,-6.3219233,28.708553,9.647685,-10.566851
6.087024211883545,-3.503531,5.094015,-5.9702697,27.24511,9.336702,-9.877804
6.107064485549927,-3.3182337,4.566788,-5.599174,25.808283,9.060128,-9.196205
6.127189874649048,-3.3182337,4.566788,-5.599174,25.808283,9.060128,-9.196205
6.147267818450928,-3.1156766,4.0780377,-5.2221375,24.414507,8.825579,-8.490295
6.167394161224365,-2.9075654,3.602679,-4.846054,23.107592,8.605607,-7.7815847
6.1874680519104,-2.682149,2.9908664,-4.4119887,22.188868,8.299406,-6.9901924
6.2075560092926025,-0.6707347,1.6446742,-3.7864466,21.071646,8.019532,-5.4220924
6.2276811599731445,1.401445,-1.06207,-3.2194858,22.071466,6.755507,-1.3038545
6.2478110790252686,-2.6099038,-0.7002307,-3.3165753,21.560835,5.9708066,1.5226864
6.268176078796387,8.615218,0.20536289,-3.6255536,37.757576,17.837133,3.870618
6.288431167602539,8.615218,0.20536289,-3.6255536,37.757576,17.837133,3.870618
6.3084540367126465,20.3407,-7.4763684,-3.9959617,45.757217,21.632975,8.9683075
6.328510284423828,3.661625,3.4508555,-2.2162786,35.27586,13.139086,5.112735
6.348638534545898,5.0957475,-3.736669,-6.662136,36.78904,15.409684,4.3148146
6.368726015090942,-8.124707,6.336067,-2.4240592,27.119,7.5269513,-4.316064
6.388795375823975,-13.606635,16.11403,-6.018421,33.835995,8.117734,-7.8264637
6.40887975692749,-16.260794,16.715082,-6.194849,24.319284,6.76005,-9.323892
6.429198741912842,-16.260794,16.715082,-6.194849,24.319284,6.76005,-9.323892
6.449306488037109,-13.91128,15.68678,-6.9606442,25.122934,6.8536453,-10.802317
6.469404935836792,-12.329438,14.743544,-7.6085567,25.767342,7.003213,-11.913738
6.489518165588379,-10.996181,13.957476,-8.00062,26.55163,7.17774,-12.750213
6.509679555892944,-9.689466,13.034294,-8.252714,27.95968,7.5976534,-13.477446
6.529700517654419,-8.496829,12.146343,-8.341229,29.744871,8.0715685,-14.133778
6.549818277359009,-7.532308,11.3864765,-8.353349,31.351492,8.546264,-14.709554
6.569887399673462,-6.8686323,10.880499,-8.357404,32.707943,9.075933,-15.009598
6.589938163757324,-6.8686323,10.880499,-8.357404,32.707943,9.075933,-15.009598
6.6103410720825195,-6.3376184,10.534892,-8.37434,33.8245,9.568226,-15.142784
6.630282402038574,-5.8826385,10.263497,-8.397898,34.735977,9.986324,-15.222879
6.6503236293792725,-5.48441,9.994396,-8.391163,35.414135,10.343193,-15.208778
6.6704511642456055,-5.1582994,9.641907,-8.324972,35.72458,10.621227,-15.024717
6.690497636795044,-4.906609,9.222398,-8.182288,35.584827,10.753358,-14.670154
6.710603475570679,-4.700219,8.755367,-7.97904,35.066803,10.761417,-14.196478
6.730638027191162,-4.5141883,8.254802,-7.737914,34.262066,10.673311,-13.644575
6.751187562942505,-4.5141883,8.254802,-7.737914,34.262066,10.673311,-13.644575
6.7713141441345215,-4.3367457,7.731555,-7.4712763,33.25389,10.512548,-13.041928
6.7914063930511475,-4.1667957,7.1955194,-7.186597,32.103767,10.29917,-12.407679
6.811580657958984,-4.004521,6.653145,-6.888531,30.85774,10.049638,-11.755533
6.831615686416626,-3.8481412,6.1085215,-6.579015,29.54724,9.777039,-11.094727
6.851733922958374,-3.683537,5.566559,-6.255493,28.202652,9.493414,-10.430925
6.871788740158081,-3.5090873,5.03149,-5.9130383,26.84059,9.214975,-9.769201
6.891856670379639,-3.3260224,4.517061,-5.551116,25.48235,8.96247,-9.108817
6.911991834640503,-3.3260224,4.517061,-5.551116,25.48235,8.96247,-9.108817
6.932119131088257,-3.1255007,4.037048,-5.183775,24.15017,8.744339,-8.418805
6.952353000640869,-2.922569,3.5777335,-4.818673,22.87343,8.544903,-7.714311
6.972380876541138,-2.6909237,2.9710019,-4.3977714,21.99079,8.2531,-6.944083
6.992408275604248,-0.61198336,1.6190923,-3.794622,20.858051,7.9763217,-5.3985353
7.012523889541626,1.040028,-0.8337914,-3.2885394,22.004917,6.639479,-1.4808626
7.032625198364258,-1.952989,-0.93841565,-3.2976243,21.214272,5.813849,1.708964
7.052633762359619,9.167194,-0.2546505,-3.3844876,38.265373,16.768013,3.2640135
7.072755336761475,9.167194,-0.2546505,-3.3844876,38.265373,16.768013,3.2640135
7.092843294143677,19.028679,-6.80899,-3.7022138,45.327328,19.937029,9.12942
7.11292290687561,4.866644,2.9990182,-2.1263456,35.298927,13.579144,5.268874
7.133028507232666,6.738671,-5.070405,-4.8199706,33.29702,16.323095,3.6568282
7.153079509735107,-6.751614,6.664396,-2.7318153,25.800226,5.7379713,-2.570897
7.173158884048462,-10.557956,13.451631,-5.023263,27.373423,7.687931,-5.9874797
7.193279266357422,-14.977929,16.12673,-5.6360188,24.065588,6.65215,-8.05377
7.213391304016113,-13.968979,15.976832,-6.6376595,25.487305,6.8838654,-10.27181
7.233481168746948,-13.968979,15.976832,-6.6376595,25.487305,6.8838654,-10.27181
7.2535765171051025,-12.748615,15.48686,-7.689956,27.172445,7.1633873,-12.313232
7.273669481277466,-11.345691,14.873227,-8.42735,29.027887,7.49664,-13.8728
7.2937469482421875,-9.947602,14.079123,-8.73597,31.050137,8.041125,-14.93022
7.313863515853882,-8.663221,13.217103,-8.889148,33.185093,8.5869055,-15.793206
7.333935260772705,-7.7109423,12.539168,-8.989348,35.104675,9.218954,-16.409794
7.354038953781128,-7.076301,12.0542,-9.05035,36.560417,9.848657,-16.675613
7.3744590282440186,-6.5579543,11.692675,-9.0893955,37.65732,10.393728,-16.783752
7.394526958465576,-6.5579543,11.692675,-9.0893955,37.65732,10.393728,-16.783752
7.414650201797485,-6.126202,11.394917,-9.106064,38.482468,10.831002,-16.82671
7.434736728668213,-5.7568846,11.11597,-9.06983,39.03128,11.163597,-16.75747
7.454814672470093,-5.428373,10.757939,-8.966518,39.217934,11.426332,-16.526365
7.474903106689453,-5.169783,10.318509,-8.809322,38.97268,11.54237,-16.133785
7.494985818862915,-4.95649,9.822118,-8.592478,38.3441,11.532576,-15.612444
7.515300989151001,-4.7652965,9.285109,-8.330369,37.409275,11.42297,-15.003815
7.535368204116821,-4.7652965,9.285109,-8.330369,37.409275,11.42297,-15.003815
7.555724620819092,-4.5817676,8.720282,-8.03966,36.256035,11.236404,-14.339005
7.57564115524292,-4.400884,8.139997,-7.732451,34.95951,10.993681,-13.643033
7.595722436904907,-4.2245326,7.55486,-7.416391,33.5746,10.711876,-12.933052
7.61580491065979,-4.0559163,6.9725833,-7.0939627,32.138157,10.405715,-12.219632
7.636050701141357,-3.8953872,6.3966703,-6.767068,30.673761,10.085844,-11.50973
7.656220197677612,-3.736874,5.829589,-6.4351683,29.196413,9.760954,-10.80776
7.676226377487183,-3.5639427,5.273248,-6.0894003,27.730597,9.443963,-10.115074
7.696342468261719,-3.5639427,5.273248,-6.0894003,27.730597,9.443963,-10.115074
7.7164130210876465,-3.3809042,4.737394,-5.72402,26.287203,9.155849,-9.433635
7.736527681350708,-3.1842504,4.2363873,-5.3490458,24.882326,8.906559,-8.738726
7.756587028503418,-2.9808664,3.7711713,-4.9737873,23.513094,8.693343,-8.015762
7.776668548583984,-2.7266653,3.1870475,-4.5617447,22.5113,8.389897,-7.2917066
7.796756267547607,-1.8999895,2.2912107,-4.0340524,21.93659,8.166123,-6.0622587
7.816925048828125,2.3884668,-1.0158168,-2.928655,20.66141,7.3587832,-2.4375412
7.83696174621582,-2.7460058,-1.155747,-2.8962717,20.134493,5.3767705,2.5380733
7.8570685386657715,-2.7460058,-1.155747,-2.8962717,20.134493,5.3767705,2.5380733
7.877167463302612,8.029112,1.1767312,-3.2856,38.54477,17.943487,2.2902234
7.897228956222534,18.517544,-8.314231,-3.995845,44.33235,18.7586,8.968828
7.917330265045166,4.520899,2.7823632,-2.2385979,35.29895,13.183613,4.9126077
7.937397241592407,6.9790215,-4.9180117,-5.6944075,35.440277,15.652294,4.3304167
7.957658529281616,-7.276154,5.8409367,-2.4978046,25.178404,6.1095543,-3.0233579
7.9776387214660645,-10.594709,12.727349,-4.926485,26.901186,7.260751,-6.0470266
7.997731447219849,-14.579163,14.9474125,-5.251078,21.801125,6.1583004,-7.6930447
8.017860174179077,-14.579163,14.9474125,-5.251078,21.801125,6.1583004,-7.6930447
8.03806447982788,-13.275778,14.5085,-5.974326,22.497587,6.307044,-9.208542
8.058085918426514,-11.933521,13.923899,-6.8089166,23.620451,6.5488787,-10.710665
8.078176498413086,-10.811555,13.397531,-7.506006,24.803,6.8535743,-11.900473
8.098290920257568,-9.582703,12.643381,-7.9311314,26.493963,7.2699285,-12.907421
8.118392705917358,-8.413689,11.864623,-8.130337,28.770164,7.792659,-13.759104
8.138476610183716,-7.46424,11.193912,-8.22624,30.824806,8.326561,-14.52009
8.158520698547363,-6.8125277,10.764232,-8.2803955,32.474014,8.922145,-14.943488
8.178638219833374,-6.8125277,10.764232,-8.2803955,32.474014,8.922145,-14.943488
8.19871473312378,-6.30333,10.475792,-8.331155,33.760788,9.473112,-15.141605
8.218837976455688,-5.858931,10.247079,-8.384161,34.787067,9.940231,-15.266434
8.238966941833496,-5.4680495,10.014463,-8.398885,35.542953,10.334726,-15.280103
8.259018898010254,-5.1499877,9.688739,-8.346849,35.910187,10.642975,-15.116791
8.279303789138794,-4.907954,9.286192,-8.215576,35.80764,10.794226,-14.775808
8.29924464225769,-4.708204,8.829122,-8.01901,35.31345,10.813586,-14.309637
8.319336652755737,-4.526975,8.333808,-7.781315,34.519836,10.731586,-13.760852
8.339407682418823,-4.526975,8.333808,-7.781315,34.519836,10.731586,-13.760852
8.3595130443573,-4.3521686,7.812405,-7.516556,33.51452,10.573331,-13.158661
8.37960171699524,-4.1831264,7.276515,-7.232895,32.362637,10.3605175,-12.523222
8.399709463119507,-4.020866,6.7335205,-6.9355392,31.112482,10.11035,-11.869003
8.419790029525757,-3.8648434,6.187888,-6.626984,29.796421,9.836176,-11.205747
8.439868450164795,-3.7031846,5.644495,-6.305731,28.443262,9.549741,-10.539616
8.459968328475952,-3.5298803,5.10748,-5.966179,27.074244,9.266557,-9.875223
8.479986906051636,-3.3481417,4.5894647,-5.6060066,25.708414,9.008417,-9.21438
8.500730276107788,-3.3481417,4.5894647,-5.6060066,25.708414,9.008417,-9.21438
8.520835638046265,-3.150237,4.1047783,-5.2389894,24.36798,8.784084,-8.528102
8.540958404541016,-2.9519238,3.6526873,-4.873873,23.051067,8.588741,-7.813577
8.561222553253174,-2.7029023,3.0517461,-4.460624,22.14723,8.2896805,-7.0739946
8.581214189529419,-1.068381,1.8611792,-3.8611245,21.200327,7.9960713,-5.713542
8.601271152496338,1.8075616,-0.98402846,-3.1558383,21.732218,6.9947085,-1.8581599
8.621382236480713,-2.9235628,-1.0986563,-3.1959774,20.453226,5.532714,2.169675
8.641563177108765,7.8959336,1.3796386,-3.439903,38.52314,18.342424,2.6081069
8.661642074584961,7.8959336,1.3796386,-3.439903,38.52314,18.342424,2.6081069
8.681765079498291,7.8959336,1.3796386,-3.439903,38.52314,18.342424,2.6081069
8.703093528747559,20.011002,-8.280082,-4.1455812,46.457123,20.304754,8.9746685
8.723151922225952,4.630858,3.0235012,-2.1910806,35.286274,13.315948,5.4168067
8.743231058120728,6.9538274,-4.8826914,-5.2119036,34.90773,16.081575,4.0136795
8.76333212852478,-6.7038445,6.1504693,-2.5783968,25.094301,5.645148,-2.406591
8.783511400222778,-6.7038445,6.1504693,-2.5783968,25.094301,5.645148,-2.406591
8.803550243377686,-9.506655,12.741302,-5.11819,28.662504,8.00708,-6.278232
8.823639154434204,-15.016042,15.838186,-5.5640955,23.371515,6.453416,-8.066772
8.843708753585815,-13.87328,15.648402,-6.4327555,24.53927,6.6681724,-9.925452
8.863804817199707,-12.59509,15.11414,-7.4037995,25.968586,6.9645853,-11.700546
8.883936882019043,-11.334194,14.542254,-8.130022,27.495386,7.2519197,-13.135514
8.90401315689087,-9.975264,13.733157,-8.469966,29.322847,7.744241,-14.173811
8.924451351165771,-9.975264,13.733157,-8.469966,29.322847,7.744241,-14.173811
8.94452691078186,-8.714666,12.865874,-8.631283,31.49687,8.270263,-15.023842
8.964659214019775,-7.7247567,12.142375,-8.719362,33.441116,8.843514,-15.723712
8.98477292060852,-7.0548153,11.650033,-8.772249,34.985123,9.459583,-16.058035
9.004844903945923,-6.53272,11.296974,-8.81091,36.159348,10.009101,-16.19179
9.02493929862976,-6.080644,11.013733,-8.841911,37.06694,10.466136,-16.264864
9.045035123825073,-5.6911564,10.750394,-8.827043,37.712627,10.825213,-16.232468
9.065152406692505,-5.3565917,10.410941,-8.745396,38.00275,11.11409,-16.039328
9.085254669189453,-5.3565917,10.410941,-8.745396,38.00275,11.11409,-16.039328
9.105333805084229,-5.0980268,9.987971,-8.604725,37.84875,11.25425,-15.675903
9.125406503677368,-4.8873973,9.50913,-8.399983,37.29861,11.265785,-15.183563
9.145525455474854,-4.698535,8.989311,-8.150009,36.437157,11.17545,-14.602421
9.165604591369629,-4.516807,8.441075,-7.871195,35.35378,11.006395,-13.964277
9.18582558631897,-4.3382354,7.8767548,-7.5752463,34.122513,10.77953,-13.293459
9.20593523979187,-4.1656833,7.3071632,-7.267817,32.795143,10.512869,-12.605568
9.226059675216675,-4.1656833,7.3071632,-7.267817,32.795143,10.512869,-12.605568
9.246153354644775,-4.0011616,6.738243,-6.952036,31.408892,10.220841,-11.911381
9.266236066818237,-3.8433495,6.173639,-6.630144,29.985825,9.913766,-11.217969
9.286315679550171,-3.6800408,5.616296,-6.298505,28.54922,9.6022835,-10.52938
9.306417465209961,-3.503686,5.0698614,-5.949895,27.118269,9.301962,-9.848383
9.326780319213867,-3.3184683,4.54781,-5.5818577,25.707205,9.033514,-9.172623
9.34666919708252,-3.1160603,4.0630293,-5.208293,24.333975,8.804573,-8.470535
9.367023706436157,-2.908958,3.5910351,-4.8354053,23.042044,8.589222,-7.763953
9.387343883514404,-2.6851735,2.9809766,-4.40415,22.131279,8.288265,-6.9729114
9.407452821731567,-2.6851735,2.9809766,-4.40415,22.131279,8.288265,-6.9729114
9.42756986618042,-0.6275118,1.6243919,-3.7860188,20.994486,8.010794,-5.3991117
9.447670936584473,1.2245706,-0.952268,-3.2554493,22.07601,6.6980534,-1.3640554
9.478574991226196,-2.2846565,-0.8338083,-3.3208475,21.448812,5.9094677,1.6049415
9.521812200546265,-2.2846565,-0.8338083,-3.3208475,21.448812,5.9094677,1.6049415
9.542185068130493,8.92756,0.104154676,-3.4500756,37.879807,17.126421,3.5452983
9.56208872795105,20.472855,-7.5405536,-4.090722,46.727592,21.20555,9.486384
9.582313060760498,3.8087149,3.4650724,-2.2112398,35.16143,13.195301,5.328423
9.602471828460693,3.8087149,3.4650724,-2.2112398,35.16143,13.195301,5.328423
9.622526407241821,5.1447587,-3.8614428,-6.1795197,35.433147,15.825739,4.2278175
9.642640590667725,-8.579628,6.8887587,-2.5263271,25.929073,6.512601,-3.8261664
9.662701845169067,-12.95681,15.308548,-5.3647413,29.745493,7.4614196,-6.913431
9.682793855667114,-15.434857,16.320644,-6.0144186,24.154093,6.706552,-8.850586
9.702909708023071,-13.646111,15.632804,-6.8574166,25.192635,6.880698,-10.584088
9.72299075126648,-13.646111,15.632804,-6.8574166,25.192635,6.880698,-10.584088
9.743074178695679,-12.259352,14.861545,-7.665124,26.258524,7.0679355,-12.042751
9.76319146156311,-10.92718,14.127734,-8.193727,27.549921,7.3097806,-13.210327
9.7832612991333,-9.580645,13.287924,-8.436771,29.278439,7.807112,-14.042705
9.803369283676147,-8.38962,12.418609,-8.535299,31.194048,8.302848,-14.778628
9.823442220687866,-7.482495,11.723805,-8.575149,32.864532,8.8471365,-15.328554
9.843865394592285,-6.857467,11.246903,-8.595806,34.210316,9.407248,-15.584285
9.86374020576477,-6.3406014,10.906094,-8.621201,35.27768,9.910151,-15.7039585
9.88416051864624,-6.3406014,10.906094,-8.621201,35.27768,9.910151,-15.7039585
9.904270887374878,-5.9013805,10.630415,-8.641472,36.128887,10.325411,-15.768229
9.924412965774536,-5.517139,10.35555,-8.62071,36.728867,10.669522,-15.722967
9.944435834884644,-5.202581,9.994279,-8.536678,36.9558,10.929196,-15.508068
9.964557409286499,-4.9603333,9.561708,-8.383807,36.737137,11.039778,-15.127108
9.984647750854492,-4.759543,9.081102,-8.170502,36.145035,11.029663,-14.629662
10.00471305847168,-4.5759816,8.565259,-7.918748,35.269215,10.92512,-14.053304
10.024803876876831,-4.3978033,8.025698,-7.64283,34.195652,10.748786,-13.427786
10.04581093788147,-4.3978033,8.025698,-7.64283,34.195652,10.748786,-13.427786
10.065959453582764,-4.225186,7.4740705,-7.3504977,32.986748,10.520507,-12.772766
10.086257219314575,-4.0599627,6.918186,-7.0465355,31.688787,10.256925,-12.102053
10.106199264526367,-3.902201,6.3621635,-6.733306,30.333815,9.970993,-11.42508
10.126274585723877,-3.744586,5.8100114,-6.411029,28.944475,9.673097,-10.748102
10.146352529525757,-3.5737338,5.264637,-6.0728097,27.54593,9.376685,-10.074406
10.166457891464233,-3.393882,4.735607,-5.7139306,26.152342,9.102742,-9.407801
10.18649935722351,-3.2013018,4.23726,-5.3450975,24.784023,8.861625,-8.726746
10.206605911254883,-3.2013018,4.23726,-5.3450975,24.784023,8.861625,-8.726746
10.226685285568237,-2.9979832,3.7752285,-4.9745464,23.445267,8.6566,-8.013133
10.247059106826782,-2.750804,3.2096608,-4.5738025,22.431322,8.375896,-7.300606
10.267001152038574,-2.0749645,2.3890986,-4.079085,21.871807,8.163183,-6.156001
10.287288188934326,2.2248683,-0.8062788,-2.934468,20.341513,7.3637094,-2.7525172
10.307272911071777,-2.645802,-1.5311185,-2.889491,19.337431,4.9854813,2.9450648
10.327356815338135,6.092401,1.3118109,-3.1389196,37.781387,17.397043,0.8276881
10.347418069839478,14.285086,-7.3347964,-3.6845455,37.70742,14.334652,7.6908174
10.368961334228516,14.285086,-7.3347964,-3.6845455,37.70742,14.334652,7.6908174
10.38906717300415,6.104896,2.6451452,-2.3210409,36.400703,13.704607,4.474379
10.40912938117981,9.077782,-6.3043547,-4.2852454,34.04021,16.849579,4.5767703
10.429223775863647,-2.9270382,6.078295,-2.6631765,28.449968,7.451312,-0.41835585
10.449338674545288,-4.6363564,2.935333,-5.351103,22.549593,9.948601,-2.8598022
10.469402313232422,-9.2083025,7.3830457,-3.714219,14.097045,5.345154,-3.8339434
10.489604711532593,-11.74927,12.783762,-4.4755135,19.479342,4.648215,-5.4647493
10.509825706481934,-11.74927,12.783762,-4.4755135,19.479342,4.648215,-5.4647493
10.529935359954834,-12.73785,14.729441,-5.964617,23.631842,6.0760646,-8.777138
10.550047874450684,-12.56332,15.231905,-7.5782857,27.131426,6.911879,-11.907519
10.570100545883179,-11.376729,15.149802,-8.616329,30.56204,7.63945,-14.373551
10.590159177780151,-9.942124,14.585438,-9.129234,34.095245,8.482091,-16.074915
10.610510110855103,-8.68312,14.013375,-9.470481,37.331676,9.305485,-17.413076
10.630524396896362,-7.8397975,13.581514,-9.720122,39.7934,10.186339,-18.205019
10.650801181793213,-7.2760053,13.228424,-9.855544,41.405464,10.940157,-18.51727
10.670722246170044,-7.2760053,13.228424,-9.855544,41.405464,10.940157,-18.51727
10.690813064575195,-6.8238974,12.903342,-9.908376,42.465034,11.5145855,-18.622274
10.710897207260132,-6.445983,12.597171,-9.889193,43.08472,11.910754,-18.592737
10.73097562789917,-6.1041923,12.29452,-9.811993,43.373528,12.168536,-18.44225
10.751317977905273,-5.7766957,11.916114,-9.679725,43.33651,12.359414,-18.153166
10.771403312683105,-5.484904,11.453113,-9.486361,42.877197,12.448622,-17.690418
10.79151177406311,-5.2464943,10.914445,-9.243852,42.02636,12.404167,-17.088728
10.811586141586304,-5.0369353,10.325854,-8.949976,40.864304,12.251522,-16.398325
10.832038164138794,-5.0369353,10.325854,-8.949976,40.864304,12.251522,-16.398325
10.85214638710022,-4.8382874,9.704961,-8.624128,39.480553,12.017284,-15.650196
10.872227430343628,-4.6442046,9.067847,-8.280218,37.955032,11.725789,-14.870119
10.892659187316895,-4.4541597,8.427025,-7.9284325,36.35067,11.396734,-14.078556
10.912589311599731,-4.269972,7.7908897,-7.5758905,34.712704,11.043871,-13.289888
10.932650327682495,-4.093436,7.1654167,-7.2252426,33.070896,10.678428,-12.512982
10.952715635299683,-3.925235,6.5548344,-6.876795,31.439394,10.309166,-11.752081
10.97321605682373,-3.925235,6.5548344,-6.876795,31.439394,10.309166,-11.752081
10.993324279785156,-3.762487,5.9598436,-6.5294747,29.824343,9.942753,-11.009135
11.013493299484253,-3.5872226,5.380961,-6.1733913,28.24602,9.590245,-10.283207
11.033531188964844,-3.3996181,4.8269153,-5.800898,26.714945,9.272039,-9.574947
11.053946256637573,-3.199092,4.3125114,-5.415517,25.240889,9.002323,-8.863235
11.07404637336731,-2.9919627,3.8361309,-5.030747,23.817316,8.773007,-8.1276865
11.09411907196045,-2.7388105,3.2564166,-4.614232,22.750017,8.462162,-7.401802
11.114487171173096,-2.235083,2.5491405,-4.1287756,22.444784,8.298199,-6.1957917
11.134424686431885,-2.235083,2.5491405,-4.1287756,22.444784,8.298199,-6.1957917
11.154518127441406,2.3031144,-0.6472784,-2.9714057,20.344547,7.5656548,-2.69857
11.174598455429077,-2.3378873,-1.7426991,-2.925167,18.923573,4.74911,3.0789993
11.194736003875732,4.4133396,0.86651194,-3.1523557,36.811718,16.292313,-0.019881867
11.21485710144043,11.403718,-6.5194345,-3.7446094,33.747375,11.403965,7.4029174
11.234869718551636,4.675913,2.5030525,-2.443616,34.845787,12.7141,2.9493802
11.25494384765625,9.350792,-6.494262,-4.353908,34.02057,15.69426,5.296751
11.275040864944458,-3.8520367,5.8582463,-2.6738067,27.7914,7.3296046,-0.9125656
11.295146226882935,-3.8520367,5.8582463,-2.6738067,27.7914,7.3296046,-0.9125656
11.315290689468384,-6.3810544,4.819648,-5.615819,20.135752,8.482895,-3.690679
11.335352897644043,-12.184358,12.4394865,-4.305604,18.906282,5.409695,-4.542047
11.355490446090698,-12.96368,13.638665,-5.0322776,20.42912,5.668828,-7.134054
11.375486612319946,-12.17791,13.816344,-6.299694,22.770906,6.285873,-9.436197
11.395566940307617,-11.281172,13.75526,-7.417374,24.96338,6.8061385,-11.459437
11.415714263916016,-10.126076,13.317656,-8.138453,27.413324,7.340664,-13.119214
11.435753583908081,-8.856776,12.677255,-8.483561,30.41266,7.996323,-14.3997
11.456202030181885,-7.836069,12.079439,-8.674036,33.011055,8.657529,-15.4347925
11.476279973983765,-7.836069,12.079439,-8.674036,33.011055,8.657529,-15.4347925
11.4965500831604,-7.1324153,11.674634,-8.780403,34.973907,9.36356,-15.994675
11.51651382446289,-6.6254983,11.376823,-8.847516,36.349895,9.982345,-16.228405
11.536818504333496,-6.174867,11.123611,-8.902244,37.372475,10.486843,-16.362226
11.55696177482605,-5.7811203,10.884909,-8.908348,38.095642,10.870539,-16.380032
11.577083587646484,-5.4381337,10.58542,-8.84778,38.46254,11.175875,-16.229713
11.597136735916138,-5.1687536,10.190257,-8.724792,38.39611,11.348138,-15.906742
11.61767864227295,-5.1687536,10.190257,-8.724792,38.39611,11.348138,-15.906742
11.63779616355896,-4.9534554,9.72853,-8.5319195,37.908752,11.384167,-15.443617
11.657899856567383,-4.762903,9.217989,-8.287664,37.085945,11.310543,-14.880069
11.67804479598999,-4.580933,8.673326,-8.010137,36.01866,11.151592,-14.249792
11.698269605636597,-4.580933,8.673326,-8.010137,36.01866,11.151592,-14.249792
11.71841812133789,-4.40194,8.108172,-7.7125645,34.786484,10.929659,-13.579639
11.738531351089478,-4.227253,7.534199,-7.4031143,33.448624,10.663528,-12.888423
11.758713006973267,-4.0594764,6.9596634,-7.0852723,32.04634,10.369091,-12.188534
11.778698205947876,-3.899189,6.388611,-6.761276,30.606527,10.05788,-11.488124
11.798775911331177,-3.7400723,5.824312,-6.4310265,29.146757,9.739111,-10.792341
11.818866491317749,-3.567111,5.269708,-6.086509,27.69259,9.426046,-10.103214
