liuyurong129/humanoid-gym/humanoid/data/robot2_actual_20250621-222223.csv
timestamp,joint_1,joint_2,joint_3,joint_4,joint_5,joint_6
0.0002760887145996094,0.0,0.0,0.0,0.0,0.0,0.0
0.020326852798461914,0.0,0.0,0.0,0.0,0.0,0.0
0.0404055118560791,0.0,0.0,0.0,0.0,0.0,0.0
0.060515403747558594,0.0,0.0,0.0,0.0,0.0,0.0
0.08057856559753418,0.0,0.0,0.0,0.0,0.0,0.0
0.1007375717163086,-0.003333332771116637,-0.0033332769042967174,-0.0033333333333333335,0.0033332228528680833,-0.003331644106549466,-0.0033332285686936657
0.12099218368530273,-0.006666671018062778,-0.006667442079713452,-0.006666666666666667,0.006666558062619892,-0.0066645912073788685,-0.006666565255168496
0.140974760055542,-0.013333299950134448,-0.01333496293193137,-0.013333543884925286,0.013333308564453514,-0.013331272959714837,-0.013333263974947777
0.1610424518585205,-0.019999997695709357,-0.020002508200993745,-0.020000425449854697,0.02000014924835935,-0.019998356239154327,-0.01999995338614236
0.1811380386352539,-0.023333328094343117,-0.023336051181668253,-0.02333375878318803,0.023333542757379394,-0.023331922426764167,-0.02333333828847676
0.20121312141418457,-0.0299999738040942,-0.030003840005058048,-0.0300004254498547,0.03000057531445976,-0.029999814661595285,-0.03000031701164492
0.2213132381439209,-0.036666628168758444,-0.03667095258775137,-0.03666709211652137,0.03666747620041951,-0.03666750184166759,-0.03666716895371199
0.24135923385620117,-0.043333278482782074,-0.04333808398872,-0.043333758783188035,0.04333445374624748,-0.04333552956143713,-0.04333407158574026
0.261476993560791,-0.04666660202071362,-0.04667165748499615,-0.04666709211652137,0.046667974027375436,-0.0466696757925512,-0.04666754276205332
0.2816903591156006,-0.05333324563313747,-0.05333882159916479,-0.05333375878318804,0.05333508335055345,-0.05333824178726806,-0.05333452659058438
0.30173182487487793,-0.059999892044768945,-0.06000587110515667,-0.05970038290486923,0.060002178807405514,-0.060006838826788075,-0.060001481964725004
0.3219282627105713,-0.06666654330360958,-0.06667279218457293,-0.06488731015294408,0.06666922763997928,-0.06667533967947273,-0.0666683853715301
0.34208202362060547,-0.06999986849667636,-0.0700062489180983,-0.06709857913764967,0.07000276257082529,-0.070009617041889,-0.07000184061183656
0.3620622158050537,-0.07666651790582484,-0.07667315741863745,-0.07087984910149624,0.07666985439858327,-0.07667822800081905,-0.07666875894111727
0.3821144104003906,-0.08333317075557677,-0.0833400023285187,-0.06915853085801328,0.08333696830936341,-0.07716450989419583,-0.08333566158561077
0.4025146961212158,-0.08666648550814547,-0.08667355477571799,-0.06582519752467995,0.08667044861882042,-0.07460005631484928,-0.08666913482283219
0.4226036071777344,-0.09333314076500682,-0.09334034959186034,-0.059158530858013286,0.09333744966374935,-0.06793510461063902,-0.09333597402211445
0.4426898956298828,-0.09999979164347922,-0.10000718075204383,-0.05249186419134662,0.10000445880337665,-0.061270107282546823,-0.10000282717729846
0.4628329277038574,-0.10666644057454647,-0.10667401936792689,-0.04582519752467995,0.10667149089668478,-0.054605291848366475,-0.10666968876613978
0.48284459114074707,-0.11333310724011388,-0.11334068604446593,-0.03915853085801328,0.11333815760156857,-0.0479386254064685,-0.11333635545059915
0.5030429363250732,-0.11666644234538118,-0.11667401940800701,-0.03582519770872609,0.1166714909349019,-0.04460529206230232,-0.11666968757632727
0.5231280326843262,-0.12347549484876316,-0.12295787687482669,-0.030109534429068347,0.12086329899308063,-0.04057928804241263,-0.12077630474863743
0.5432066917419434,-0.1306824443708661,-0.1278404453236126,-0.02451746556216891,0.1262897418809867,-0.033305219427614774,-0.1262254907672656
0.5637412071228027,-0.1341816483520206,-0.13076996938934887,-0.021783224362065593,0.12848497911607373,-0.03107140048405196,-0.12838758373091919
0.5838513374328613,-0.1412394039470285,-0.13646885742398068,-0.01640306669515988,0.1317610332215486,-0.023457389254023332,-0.1331811141357266
0.6039209365844727,-0.14836027856109882,-0.14198827581669632,-0.011059306643214879,0.1350838053991613,-0.01596478928014149,-0.1381884843690992
0.624032735824585,-0.15233872548555488,-0.14326669477066326,-0.00835744048547584,0.13850474091582318,-0.009678511273151034,-0.14170487506739296
0.6441075801849365,-0.16040635875937537,-0.14572711277471095,-0.003022059927694001,0.14529244469658406,0.003380113011002033,-0.1486995676921792
0.6641952991485596,-0.1687567270775122,-0.14758469030780144,0.002308451924827232,0.15281692702942065,0.017785616020446714,-0.14898232593903638
0.6847198009490967,-0.17731335644269142,-0.14914782240117436,0.007585830847887365,0.16098490427549622,0.03291943328383587,-0.15739598246835676
0.7048404216766357,-0.18165778630123613,-0.1498641443949563,0.010213695468713332,0.16528758820365327,0.04069702054081881,-0.1618223335240816
0.7249119281768799,-0.1905289111411439,-0.15148157464186313,0.015321595294961262,0.17158339501878353,0.05894120082233262,-0.15738774665681063
0.7450320720672607,-0.19987905214317653,-0.1522225151085877,0.02032716350422327,0.17863383328730711,0.08035225655772289,-0.15987676845087873
0.7661864757537842,-0.2086534669110212,-0.15415847905681704,0.016572736002922164,0.1885936152211778,0.09625556021777043,-0.17005865270070566
0.7862658500671387,-0.21295444276180295,-0.1553513524031946,0.012736068791099559,0.19415324484819488,0.10350639742224987,-0.1756903907391519
0.8063962459564209,-0.22143909877553172,-0.1581617202917995,0.005054724070944783,0.2046153857521318,0.11686439200846742,-0.1862820962745441
0.8264446258544922,-0.22976915608837153,-0.1614903299410852,-0.0026168734845016905,0.2142367735719699,0.1288060104359312,-0.19601409632085945
0.8465161323547363,-0.23386352756954001,-0.16335726992233746,-0.0064388870281253535,0.21873640400167602,0.13419997435724387,-0.200559310674104
0.8666458129882812,-0.2419211735775281,-0.16746607936981228,-0.014046639935672237,0.22720328665464354,0.1439648743422972,-0.20910311510502227
0.8867354393005371,-0.2500780983962853,-0.17194947772897934,-0.021828086499062156,0.23248863845448448,0.15500104904614667,-0.2146462892811734
0.9069926738739014,-0.2595705011711162,-0.17464044385578287,-0.017173645477383124,0.235932010022858,0.17194157163693816,-0.21872010582474818
0.9270999431610107,-0.2647576365174506,-0.17562766655422143,-0.015176563685583897,0.23554139236769414,0.18266347620796322,-0.21884243511207085
0.9471697807312012,-0.275108288158893,-0.17758977920145574,-0.010851097406633814,0.23766083290888662,0.2044086866307945,-0.22190653632195784
0.9672496318817139,-0.28017766173395825,-0.1787325655231307,-0.008556255704332006,0.23962003086458128,0.21470681755087728,-0.22428243994491087
0.9873373508453369,-0.29112986966794746,-0.18053286406203523,-0.004402321788558484,0.24026585793823918,0.24058225606973857,-0.22618744898695575
1.0076866149902344,-0.3018145019014551,-0.18254081783291246,0.0002263140881754483,0.2454181974184413,0.2652441256532472,-0.232353425757545
1.027620792388916,-0.3126271125431036,-0.18468426642599975,0.00488907698026194,0.2509060155922063,0.2908970886782096,-0.23891134533935737
1.0477235317230225,-0.31836941816603087,-0.18569492989705283,0.007068778428033701,0.2518069992722708,0.30618096825330776,-0.24058683442135784
1.068110704421997,-0.32982752287994194,-0.1876640159889977,0.01168587561986524,0.25685137572894157,0.3373372528191836,-0.23628719425854497
1.0880165100097656,-0.34080062821797036,-0.1919482487502195,0.016334929759472056,0.24183691501358034,0.3705286420334966,-0.2399681221870583
1.1081807613372803,-0.34653964191682535,-0.19402424223177303,0.01864530746948479,0.23388073786026017,0.38892568048027837,-0.24133909539926174
1.128356695175171,-0.357370643814814,-0.19890396908934407,0.02360175743055302,0.21713811517018544,0.4204486881965936,-0.24083505944065522
1.1483888626098633,-0.36871882688441393,-0.20422529273030116,0.028426686252603847,0.19236861565183466,0.4530425144583965,-0.2444325751418415
1.168447732925415,-0.37943914390053796,-0.20983521053245213,0.03364339062931291,0.17138038978474107,0.47949787393492693,-0.2465267764464467
1.188544750213623,-0.38497227689052566,-0.2129392647396592,0.036217344831143285,0.15769431410807216,0.4892053548775097,-0.24797513064539808
1.208721399307251,-0.39639872410112015,-0.21886809052670927,0.041460363826696864,0.13235850081582395,0.5074096094197819,-0.24150806179298676
1.2287068367004395,-0.4081427171009597,-0.2247383711235306,0.04691037145871226,0.11105193075503636,0.5307109181832602,-0.23903941703897247
1.2489426136016846,-0.41429149963691875,-0.2278211619985723,0.04959867954527059,0.09731067186329395,0.5437469585614352,-0.2427138078114107
1.26930570602417,-0.4257027821163605,-0.23406498029375714,0.055182128668389716,0.07782486839003906,0.5683298503355804,-0.23979744973712058
1.289919137954712,-0.43693735512224663,-0.23957783695445062,0.060793743690008964,0.06297772699733974,0.5959986669456204,-0.24057364872052955
1.3099603652954102,-0.4429195535829103,-0.24232097008713918,0.06343622351799441,0.05237554882544917,0.6096300957474817,-0.23659285635390195
1.3302028179168701,-0.44895863251987356,-0.2452169593358097,0.0661412230023997,0.04041036071475904,0.6228318976606867,-0.24033643372718988
1.350271224975586,-0.46010308668229166,-0.250575459112434,0.07169026791420585,0.024994991381333275,0.6397280376697657,-0.2377151725279381
1.370284080505371,-0.46611682739822863,-0.253566639602625,0.07439868034086258,0.013359901189068294,0.6513203880938316,-0.23749774920100733
1.3904192447662354,-0.4713187737344491,-0.25866176461088697,0.07980067126654566,-0.006075857815239347,0.6647372677408895,-0.24438913042912344
1.4104664325714111,-0.46996867969231376,-0.26305420707822647,0.08497055123796171,-0.023798486390599477,0.6695714974582315,-0.24132333207031337
1.430574893951416,-0.4695238320146623,-0.26534506613556064,0.08756557188982007,-0.034416477536753635,0.6739764254581618,-0.2390690887594399
1.450650930404663,-0.4676915690897493,-0.2680256824763161,0.09257359314265849,-0.0369566935704898,0.6703425279028701,-0.2414901449304105
1.4706952571868896,-0.47495984140344355,-0.27019310817747455,0.09773612102650706,-0.027508383778893954,0.6719125243307027,-0.2513382368426218
1.4908108711242676,-0.4740203638770093,-0.27079113410396055,0.09955574919992533,-0.02153031894870682,0.6708507295365392,-0.25304294958992957
1.5109097957611084,-0.47188009986534496,-0.2719465797622532,0.1035897979968518,-0.008958560542642336,0.6668952063566921,-0.25752882787166825
1.5309925079345703,-0.46985950996243664,-0.273525354251148,0.1085867780376461,-0.004414726805779354,0.6664403311077649,-0.25982054825521667
1.5510385036468506,-0.469296454194614,-0.27433763895758556,0.11093184338248073,-0.00921277261020366,0.6679338467447533,-0.26076803923880104
1.5711803436279297,-0.4687919481930244,-0.2750837425574781,0.11564347141796404,-0.008594737233315197,0.6673969497090587,-0.2704112146883217
1.5912072658538818,-0.46756860931409244,-0.2768910840735604,0.1208051651952544,-0.009182350818322643,0.6703821765108456,-0.2664595906680133
1.611581563949585,-0.46579338437364215,-0.2797541312337301,0.12602736024977088,-0.016968705799824426,0.6693555084322254,-0.26564155566096437
1.631497859954834,-0.4652963733751505,-0.2806127446286633,0.12855144913520236,-0.017715911241347592,0.6682286543497356,-0.2676288773651949
1.6516098976135254,-0.46457821653150416,-0.28201263872827564,0.13355623998762295,-0.01911140496214146,0.669435374226955,-0.2628558325567995
1.6716618537902832,-0.4634380525423601,-0.28300401028509287,0.1385017890349695,-0.017774041637681866,0.6672940660596617,-0.2600258862535849
1.6920802593231201,-0.46312548216865396,-0.2831458497581702,0.14088459777810147,-0.016613612596850968,0.6636569622832584,-0.25638019369748927
1.7122061252593994,-0.4633152556981182,-0.28324783542414184,0.1456572834956102,-0.015435777181743522,0.6632237365557448,-0.25029187082437115
1.7322776317596436,-0.464099039253776,-0.28282686279327957,0.15043514415150008,-0.014511473951994678,0.6644815134975367,-0.25426710572584565
1.7523515224456787,-0.46439931440737825,-0.28254553435561996,0.15548768064715196,-0.012992233396368038,0.6715919264513092,-0.2566354530580719
1.7724597454071045,-0.46441784732984404,-0.281844476685044,0.15785340170318843,-0.011764314666727728,0.6661861021135519,-0.26365074139464667
1.7925398349761963,-0.46493678876560535,-0.28021927660052787,0.1626478057885999,-0.010523145034812,0.6591617859639947,-0.2769850046066731
1.812586784362793,-0.46572991710008105,-0.2786263889960242,0.16751011219752052,-0.010553295317616833,0.6550870087804312,-0.28949972764223547
1.8327391147613525,-0.46604241889541836,-0.27791365784907357,0.16996974950578517,-0.010578772037218655,0.6530859172157508,-0.2957458756908127
1.8528084754943848,-0.4666586043035919,-0.27662107682259246,0.17493414844113497,-0.011096937409419057,0.6495461100214379,-0.3078829458166616
1.8728785514831543,-0.46722765204867933,-0.27551855028566025,0.17995891352924348,-0.012078215892086444,0.6465432246768873,-0.3196706343346004
1.8931057453155518,-0.46749798460737374,-0.274748287625319,0.18240216333039508,-0.01196122031849966,0.6418598234186962,-0.32588635437549646
1.913078784942627,-0.467851983879517,-0.27355787879235216,0.18743007287178717,-0.013003171708785038,0.6350857308243214,-0.33741069392681766
1.933164119720459,-0.4681807925152647,-0.2727652876268632,0.19257890210681836,-0.014353138524720225,0.6321587321561858,-0.34890222364309414
1.9534125328063965,-0.46829091205810813,-0.2724426788289742,0.19517228992794655,-0.014964280557245914,0.6308202038312285,-0.3547030112240883
1.973571538925171,-0.4684566994502693,-0.2719130020632981,0.20039690531334173,-0.01627421487390381,0.6283590048079737,-0.3662382487646934
1.9936168193817139,-0.4685307511642752,-0.2715081147798767,0.20565773299464665,-0.017595093006100807,0.6257285005988735,-0.3777545557621258
2.0137133598327637,-0.468622441530304,-0.2705098589704793,0.21076728149715027,-0.01764490190982365,0.616135811448719,-0.38998562632260014
2.03381609916687,-0.4684663015178089,-0.2704568498146541,0.21344988604448528,-0.018613332348205464,0.6147067798551972,-0.39548723625721405
2.054036855697632,-0.4683265683454646,-0.2704400443741231,0.2161348533745722,-0.019403348136484228,0.6135137215192324,-0.40115991270178564
2.074154853820801,-0.46831189523708416,-0.26944353962103806,0.22128609188214005,-0.019184294528075237,0.6031360907702868,-0.4136128826042261
2.0943546295166016,-0.4676873753573956,-0.2696240641240744,0.22672339338967953,-0.02059647290383197,0.600116033998322,-0.42506994856576635
2.115105152130127,-0.4673263585839788,-0.26906327988933615,0.23196684069037668,-0.020665129536731285,0.5897046039992179,-0.4373237591914759
2.1352076530456543,-0.4670481044054432,-0.2690281428198074,0.23463546412514585,-0.021101430235830814,0.5848600631460863,-0.44313266390416867
2.1553573608398438,-0.4664847339796811,-0.26900558010412007,0.2399908032077776,-0.02121591923606242,0.5749714545314981,-0.4553983890626659
2.1759190559387207,-0.46607736376605036,-0.26896121197700307,0.2426798908423093,-0.02115168536880773,0.56993017963848,-0.4616443408441491
2.1960365772247314,-0.46531045955131767,-0.2688037624310388,0.24806615063602153,-0.02105939885297164,0.5591482177162725,-0.47409914999715513
2.2161054611206055,-0.4653616386769537,-0.2688244446746679,0.25345362273336003,-0.02300358450911527,0.5485536799691296,-0.484799280618957
2.237396240234375,-0.4653823342991086,-0.2688583804031024,0.2561509173135859,-0.02378396585168805,0.5435222839615588,-0.4903367220139846
2.258307695388794,-0.4653951449660414,-0.2689120850564466,0.2588529608862945,-0.024490351347644473,0.5386484118763659,-0.4959515095208094
2.2789294719696045,-0.4654458797683788,-0.2696031510750922,0.2643387255754211,-0.02759475182921754,0.5347409047762791,-0.5059407703271828
2.2990314960479736,-0.46546810126161914,-0.2702262069240835,0.26711791614040953,-0.030097245980622193,0.5352960864421993,-0.5102002805543794
2.319114923477173,-0.46542067233530676,-0.2715019455863494,0.27267339968980303,-0.035116169348307844,0.5356213066600367,-0.5186732396235968
2.339179515838623,-0.46534365378189446,-0.2721598184741373,0.2754494256593576,-0.0376364058430167,0.535372873959585,-0.5228825363772485
2.359262228012085,-0.4650689287454688,-0.2735267640914329,0.28099734420203143,-0.04271288736296515,0.534046044202287,-0.5312325830473323
2.3793447017669678,-0.4646040664447359,-0.27498192371669905,0.28654205663925536,-0.047906847725993455,0.5315264788146914,-0.5394263051057344
2.3995187282562256,-0.4639101090913815,-0.2765531448874442,0.2920868289574656,-0.05327440601263705,0.5277203542795232,-0.54741090154446
2.41951584815979,-0.4634648895720941,-0.27739348550874304,0.29486114926622226,-0.056039281883938995,0.5253256924944283,-0.5513116396296189
2.4396324157714844,-0.4623930277066975,-0.279174553698279,0.30041210336571955,-0.06177707834404755,0.5198835734173504,-0.5588906064445426
2.4601807594299316,-0.46212046681869856,-0.2809230690409222,0.3033221864977082,-0.06557955922757887,0.5323199748921733,-0.5580926268592092
2.4803056716918945,-0.461320892986389,-0.28475929908235514,0.30922164391725254,-0.07376422949872495,0.5586261620208319,-0.5567172672491307
2.5003631114959717,-0.46011853215037934,-0.288956087079651,0.3152007367031052,-0.08162113989595078,0.5855965061003916,-0.5574635869293226
2.520598888397217,-0.4594124616645045,-0.29094044071670355,0.31815663142810646,-0.08346577202090334,0.5988409981222399,-0.5605007959499324
2.5407156944274902,-0.45748988853065525,-0.2936599146899789,0.32382089730844454,-0.07821723483441859,0.6131731137691651,-0.5569518763881512
2.5607316493988037,-0.454891348964675,-0.29611192194920194,0.3293656568836424,-0.07265903315798407,0.6156175300101405,-0.5590158736098352
2.5808193683624268,-0.4533803934362588,-0.29746282196089086,0.3321523974178138,-0.0708351547462584,0.614082899615163,-0.566774384108837
2.600904703140259,-0.4500867772205749,-0.30031541681197116,0.3377432118401348,-0.06752123966908072,0.6094028741184125,-0.5819554785934294
2.621349573135376,-0.4464571819772332,-0.3033666307372292,0.3433581458084351,-0.06459533545425213,0.6028746270553536,-0.5967603181779624
2.6411406993865967,-0.4445232517083554,-0.3049681581612657,0.3461762158622291,-0.06328719120990084,0.5989983227523612,-0.6040204950619209
2.6612374782562256,-0.4404504877585192,-0.30830667091174674,0.3518307465918053,-0.0609677147777223,0.5902131183094659,-0.6182796002269946
2.681321859359741,-0.4363854977379702,-0.3117297305070548,0.35754240068466686,-0.057352348843436624,0.5858052656439239,-0.6337847248444437
2.702601194381714,-0.43424508782383936,-0.3135051348368573,0.36040823104370295,-0.055567370953089654,0.5830933450678154,-0.6415103390182443
2.7227134704589844,-0.4293423844950728,-0.31707653147945813,0.3661200464776567,-0.05242412918050531,0.5696219815690514,-0.6615118369243914
2.7428081035614014,-0.4242383922569469,-0.31973796668849247,0.3716882249836715,-0.04649758887391316,0.5478488274688947,-0.6801799571728103
2.76314115524292,-0.4190473890250323,-0.32220916920958725,0.37735511420594015,-0.038902395479332046,0.5270295330962665,-0.6990468685925385
2.7832345962524414,-0.41640820420328445,-0.32338120008239535,0.38024564817400447,-0.03483119356525121,0.5169412589864257,-0.7087921944119003
2.8033487796783447,-0.41108601177620213,-0.3258373660853549,0.3860618342388985,-0.027124513249326597,0.4972467392673489,-0.7280125904665697
2.8233869075775146,-0.4059361265351379,-0.32827832598291556,0.39193663251285227,-0.019833909911472308,0.4805825624454063,-0.7470417925542786
2.8434624671936035,-0.4034566961754715,-0.3294974869033584,0.39487917109350285,-0.016106068527091424,0.47372845869023095,-0.7566889297194213
2.863560199737549,-0.3980530517807849,-0.33222473308085815,0.4007791525202162,-0.008883487338150212,0.4556660984003476,-0.7757821743545458
2.8836357593536377,-0.39309046901525935,-0.3347984123356029,0.4067250229903652,-0.0021709781483242063,0.44278791071440365,-0.7945668128105905
2.9037585258483887,-0.39039577783559676,-0.3361975401788759,0.40969801695862845,0.0014716705691982762,0.4341684969144559,-0.8042272650598344
2.9238240718841553,-0.385202169249044,-0.33899456698987596,0.41569108133374094,0.007618433404426988,0.4197415871112089,-0.8225922518299926
2.9439191818237305,-0.38022073949784696,-0.3417546237041411,0.4216855408575051,0.013907406368844152,0.40830429348739794,-0.8411715193508533
2.9646806716918945,-0.37504134392541755,-0.3446851430274453,0.4276885997886542,0.020205529205417395,0.39508278611245984,-0.8598069678246787
2.9848015308380127,-0.3723524244571607,-0.346226416664001,0.4307057034862299,0.02295825924966172,0.3874684681742228,-0.8687792309461315
3.004892587661743,-0.3673830234639575,-0.3491283368609161,0.43674757848976414,0.02807752382339611,0.37708172646277494,-0.8864154809696526
3.024984359741211,-0.362420893566136,-0.3520482667601607,0.4427926657582868,0.0335828905495301,0.3670679090049467,-0.9044525842209628
3.0450565814971924,-0.359943556736311,-0.3535266001097326,0.44582399563427666,0.03630895922170152,0.36225388127852376,-0.9134592861399967
3.0651423931121826,-0.3550227505029711,-0.3564409038391164,0.4519159353090177,0.0419776422657052,0.35280990158870423,-0.9317023977538803
3.085261821746826,-0.3503627818278335,-0.3587438743802693,0.4580661814278769,0.05160912311626494,0.3413518261156991,-0.9516582960454305
3.105740547180176,-0.3459497678070814,-0.3604737782169437,0.46414755365627347,0.06837269371961699,0.3289881793993304,-0.9641249876137528
3.1257851123809814,-0.3437786886323012,-0.3613144240518004,0.46719662235099724,0.07698209396732902,0.3230862404782955,-0.966474049862543
3.1458780765533447,-0.33958658453946816,-0.36264082360146416,0.47328738697390127,0.09530346572570801,0.3100879321306163,-0.9442603442711628
3.166759967803955,-0.3359436850392091,-0.36410242815982785,0.4793893232361454,0.11317801219998924,0.3071680411060885,-0.8801676091710895
3.1867775917053223,-0.3342787084638097,-0.36494921124298013,0.4824149458526404,0.12212072879400855,0.31154852521359133,-0.8641768415632113
3.2068657875061035,-0.3312134637311623,-0.3667951949894372,0.48849674266530935,0.1409974381044401,0.32367519736249817,-0.8503191437354493
3.227468967437744,-0.3298919516633702,-0.367682656894429,0.4914920473415443,0.15004890223113979,0.33132523384738033,-0.8465083673184131
3.247570514678955,-0.32743276713222774,-0.369317119969429,0.4974725609202353,0.16878019443836348,0.3470659512523016,-0.8301576427521906
3.2676591873168945,-0.3253581163837976,-0.37056920766270446,0.5034041352169287,0.18626546962067553,0.36103615808342515,-0.806818607578128
3.28804087638855,-0.32337041775589714,-0.37154021267137505,0.509319553567689,0.2020411302872748,0.3698680568525601,-0.8073348808271291
3.308138608932495,-0.3223635788473902,-0.3720101040974712,0.5122920509252977,0.2096809133925405,0.37338014370441164,-0.8055698970567239
3.3283333778381348,-0.32025541431613597,-0.3730760392777404,0.5183240375944688,0.2217497878908913,0.37761431781973986,-0.8019459485179958
3.3485898971557617,-0.3188518823420102,-0.37373888315188736,0.5212923523446042,0.22002971555801076,0.3699627156221124,-0.8010202828801609
3.368617057800293,-0.3163853926291732,-0.3743910431676645,0.5273353400285375,0.2173747460121364,0.3485239848444084,-0.8002847276747722
3.3887062072753906,-0.3135497960707531,-0.3755557728064726,0.5332471785334334,0.21393817674326496,0.331843207797367,-0.795415551706284
3.4093971252441406,-0.31102932075080447,-0.3761830903381584,0.5393027161474135,0.21073682084472722,0.30797273421652865,-0.7899419283676431
3.4294774532318115,-0.3095591382182929,-0.3769408987498369,0.5422857908646429,0.20853409973183093,0.2996192209680605,-0.7866594058858137
3.449890375137329,-0.3068245628604994,-0.3780805635575867,0.548361968768648,0.2055055707183171,0.2800994011070327,-0.7807229035314368
3.4702506065368652,-0.3041887747047564,-0.3789897513446936,0.5545581091844836,0.20337127673568106,0.258250189058573,-0.7756811640053121
3.4903252124786377,-0.30281493518113506,-0.3795212493672663,0.5576737623017505,0.20214935501006795,0.2474948609606757,-0.7737611390712437
3.510425329208374,-0.29997119634104463,-0.3807442890382068,0.5639543888076106,0.20006475841794316,0.2268904067330505,-0.7697109803847532
3.5305371284484863,-0.2972229103242049,-0.3817144706068017,0.5703643206489462,0.1993951992586138,0.2033817506768576,-0.7687960231988415
3.5506086349487305,-0.2956213728711197,-0.38264395604501583,0.5735235565765535,0.19827852344219857,0.19509522483937206,-0.7744635356968911
3.570681095123291,-0.29240519384673547,-0.38428243637643733,0.5798675873048431,0.19563778966792972,0.17717699697316686,-0.7804348680371673
3.590782642364502,-0.28914043809635254,-0.38587093751348506,0.5863161810332916,0.19368592686977518,0.15840202054245137,-0.7875056940894875
3.6114118099212646,-0.2874452766604209,-0.3868610770953562,0.589493187486031,0.19295680851179145,0.150636059629588,-0.7935742231859514
3.63151478767395,-0.2839217708830065,-0.38833287994105187,0.59596138988691,0.18858358402911451,0.1329565907004952,-0.8027747895052751
3.6516306400299072,-0.2803970283002981,-0.39031606190604246,0.6023346836373785,0.18996838033922872,0.11661406646866196,-0.8177916379921621
3.6716952323913574,-0.27688990547203157,-0.3918474388653628,0.6089492319211964,0.18606939757503788,0.09968988443219541,-0.8281251336777303
3.692103147506714,-0.2750457570055116,-0.3928506598215564,0.6122108640994489,0.18728191926053764,0.09470345059870651,-0.8362243120512133
3.712000846862793,-0.2714799566916312,-0.394663519844258,0.6188043022377003,0.18811527893251206,0.08423368831838257,-0.8509577414240166
3.73201847076416,-0.2676503832712943,-0.3964579584056864,0.6254365937747305,0.18604930720817428,0.06841722923127551,-0.8631431696964238
3.752103328704834,-0.26555449113173274,-0.39750658307328485,0.6286943735557255,0.18376080709931825,0.06089401460468068,-0.8679962562400214
3.7722201347351074,-0.2615323302405502,-0.39911988066909404,0.6353625393043342,0.17805061394190455,0.0376574126184038,-0.876949791684012
3.792320728302002,-0.25741309642100063,-0.4008073189100691,0.6421881186608768,0.17151839377781108,0.011809453881643905,-0.8852211325037189
3.8123974800109863,-0.25519838481962925,-0.4019442628890163,0.6455689237239265,0.1684849353059073,0.0023598143383451228,-0.8894371333510325
3.8324697017669678,-0.2512339780592241,-0.40382384444485236,0.6526243579078872,0.17629689118759864,-0.003907956995243281,-0.9111067920409328
3.852573871612549,-0.24729080609839513,-0.4057327934409968,0.6597845034962041,0.18423536603404336,-0.010615519693962742,-0.9329193935440723
3.8737030029296875,-0.2452604371931935,-0.4068311682109533,0.6633103665165847,0.1875437323854472,-0.011907877903249217,-0.9430797611515842
3.8939805030822754,-0.24155400970802005,-0.4084643084287777,0.6706327237850999,0.19663958346312937,-0.019390480503151213,-0.9660772108953317
3.9139652252197266,-0.23756362460981206,-0.4106877118850983,0.6778112465703637,0.20343659301440142,-0.02167738087916418,-0.9865542443398398
3.93402361869812,-0.23367183719204257,-0.41284013405658027,0.6849934018145168,0.2104771592859685,-0.022717613767286187,-1.0072163718101637
3.9541146755218506,-0.23190041093234942,-0.41367309599303403,0.6887069477862585,0.2151316738183277,-0.025135745043253457,-1.0187584718524725
3.974252462387085,-0.2282118864455551,-0.4156651400672341,0.6961352345656465,0.22349876905372482,-0.028525288849395317,-1.0408309027220093
3.995103359222412,-0.22628717254398126,-0.4168240850266271,0.6997751521820313,0.22698449720059544,-0.028238894448122654,-1.051080653217695
4.015294551849365,-0.22247845439373204,-0.4191427119701657,0.7070369564696041,0.2339831254511569,-0.026434394630934877,-1.0715480352940085
4.0353169441223145,-0.21921439329043116,-0.42077388526393633,0.7146710806990935,0.24420459179847112,-0.02954033189101089,-1.0954409450156566
4.055396318435669,-0.21545654318240212,-0.4232385387077132,0.7220388150712259,0.2512657820314232,-0.0346580173753979,-1.115901321393512
4.075479745864868,-0.21388449954595726,-0.42407220707928506,0.725889188917807,0.25626018456519084,-0.03541493105973947,-1.1276837603817922
4.095568895339966,-0.2104873002183963,-0.4262064620765273,0.7335141917169715,0.2648238301680035,-0.040828455810019676,-1.1497050775975362
4.1156861782073975,-0.20713056211364553,-0.4283680771564637,0.7411130618255215,0.2728124632458129,-0.04429066472785973,-1.1710696069089528
4.13628888130188,-0.20384095377720732,-0.4305726484602567,0.7488179080447974,0.28097861196637797,-0.04864348617717365,-1.1925978922434857
4.156376361846924,-0.20201988085008224,-0.43192379060643393,0.7525706864370544,0.28406386543620266,-0.05270336336072418,-1.2022978365940438
4.1764960289001465,-0.1992225416445309,-0.43363304210952086,0.760537115751515,0.2929504938938991,-0.05231410776036353,-1.2246212528352431
4.196563720703125,-0.1956526191821963,-0.4363869505627097,0.7681064470325113,0.29878986061542195,-0.05965169350081224,-1.2436266639257978
4.216655731201172,-0.1943002670170126,-0.4372615914332266,0.7720968761808653,0.3028790463337938,-0.05850532651309817,-1.2543749935697182
4.236758232116699,-0.1912233071997914,-0.43956056276825023,0.7799542110898087,0.3098238233229407,-0.06088289637332572,-1.2745364684834382
4.25683856010437,-0.18816299068015074,-0.4418970369121324,0.787788790202458,0.3162943840443209,-0.062212835184521885,-1.2941591878341887
4.276907682418823,-0.18689059239422573,-0.4428270392254813,0.7918630752671827,0.3202141827419863,-0.060523163485906036,-1.3046895359979083
4.297003984451294,-0.18342604347272262,-0.4457459073835881,0.7995402089365327,0.32525777714196125,-0.06619446618330384,-1.322759741793734
4.317090749740601,-0.1809407070988369,-0.44761688303984387,0.8076821927538524,0.33201984107137633,-0.06230811966631507,-1.3426675696939456
4.337180852890015,-0.17921106347678456,-0.4491118603344956,0.8115448310364397,0.33416659391470244,-0.06517279812281211,-1.3513248218738105
4.357396841049194,-0.17620252336731215,-0.45161087834948327,0.8194516105498361,0.3391294833879806,-0.06849608125281854,-1.3693295705021107
4.377532958984375,-0.17322657513991996,-0.45416521898776957,0.8274278050541585,0.34363118517032754,-0.07195387864738614,-1.386874699674871
4.397725343704224,-0.17021947275036173,-0.4567759924985334,0.8353821419773385,0.3476960494739428,-0.07570680558435527,-1.403951362424435
4.418023347854614,-0.16898108461417108,-0.4578144632098879,0.8394712670606097,0.35010636498903824,-0.0763397754476013,-1.412853758679457
4.438076734542847,-0.16545980615876102,-0.46107074842934775,0.8472721353350405,0.3523175204491925,-0.08213814223741021,-1.4280751770749003
4.4581053256988525,-0.1629516427860099,-0.46325734151095993,0.8554650883175707,0.3561649619399662,-0.08500485933169293,-1.444879848512843
4.478169679641724,-0.16115779879065587,-0.46494164110039393,0.859371594601559,0.35660961611155245,-0.08816957891190146,-1.4518492298672074
4.498257398605347,-0.1580896694707921,-0.46778432930084946,0.8674013460745146,0.3583888942875411,-0.09264564203338516,-1.466672175566575
4.518415212631226,-0.15502170469880075,-0.47066115098599126,0.8754456070493033,0.35969395740689425,-0.09664203917276971,-1.480996530913222
4.538750410079956,-0.153179417504887,-0.4724399823437463,0.879362127740018,0.3595895881108028,-0.10002619161511911,-1.487429316333681
4.559123516082764,-0.15064925763940482,-0.4747942465507566,0.8876641108412385,0.3609094916391257,-0.10144023362360911,-1.5017739953328209
4.5790510177612305,-0.14689963910055592,-0.47845491534734125,0.8955159688276285,0.3598933564594311,-0.1083373864350545,-1.5138480646426036
4.599082708358765,-0.1443328484476257,-0.4808968205346551,0.903877098794909,0.35996475024445646,-0.10896218174140145,-1.5269882072947445
4.619275331497192,-0.14226779129392692,-0.48285678416239264,0.9077049553792966,0.35682297297029514,-0.11425476180597385,-1.5305695999377642
4.639307498931885,-0.1386712441535596,-0.4862310701041133,0.9156586689002276,0.34929100005475167,-0.12107450488347808,-1.5366902427752955
4.6594016551971436,-0.13500464584786342,-0.4896555261221948,0.9236403012242925,0.341472340530143,-0.12819779558078284,-1.5425628650683663
4.679535388946533,-0.1327964907929656,-0.49174136841530114,0.927470640772879,0.33768895718140984,-0.13428297948665954,-1.5455909002877803
4.699617147445679,-0.1295644134293677,-0.49468597878368065,0.9358057008977598,0.32814887320518105,-0.13828039255671642,-1.5500306208677137
4.719732999801636,-0.12602790181964796,-0.49780210487737436,0.9439938675550575,0.3189795563099215,-0.1542743842168599,-1.554772863357871
4.739825248718262,-0.12134454703436395,-0.5021847106996474,0.9516856686389714,0.3098395339932419,-0.1677955418017359,-1.5594368376517092
4.759906768798828,-0.11955399108171762,-0.5037170069853664,0.955852473234992,0.3039891186189589,-0.17070402123414435,-1.5607120553494696
4.780016660690308,-0.11629594111361943,-0.5064633706322744,0.9643638847364808,0.29283188618183703,-0.1834023322117217,-1.5637521201395017
4.8001086711883545,-0.11462614812065856,-0.507864519720328,0.9685639847489451,0.2866304089714051,-0.19277619865637435,-1.5646708962372646
4.820282697677612,-0.11055028124267943,-0.5114956521113758,0.9765989899121084,0.27500592329536055,-0.2003190363941332,-1.5671398302236874
4.840306043624878,-0.10711044948744987,-0.5142922245712495,0.9851158724912438,0.26030148007175247,-0.20852087946077522,-1.567039475607815
4.860384225845337,-0.10293789473332812,-0.5179775839616336,0.9931158716920716,0.2478250396659387,-0.21744454560914883,-1.5687315709594107
4.880934476852417,-0.09928303143723033,-0.5208635312436005,1.001608452993003,0.2318339874675384,-0.22637336622187043,-1.5675617038752838
4.920875787734985,-0.09928303143723033,-0.5208635312436005,1.001608452993003,0.2318339874675384,-0.22637336622187043,-1.5675617038752838
4.940906047821045,-0.09494364306689947,-0.5245761273522068,1.0096629303024527,0.21796718625508862,-0.23076402218459435,-1.5681555402745704
4.961023807525635,-0.09103704491789498,-0.5275793874912263,1.0181356106514803,0.20098362432768424,-0.2404938109880725,-1.5662249106684285
4.981174945831299,-0.08864334188649649,-0.5296792425413756,1.022035543521334,0.19455346569941392,-0.24149405450914108,-1.5669520959120748
5.001263856887817,-0.08415099008123741,-0.5333646363540496,1.0301460501036062,0.1794837087018813,-0.2476498636809558,-1.5666548204925461
5.02163028717041,-0.07975699673599068,-0.5364424763889758,1.038504207826286,0.16447092946365563,-0.25704616707322625,-1.5669361862673028
5.04182767868042,-0.07742411583954634,-0.537974455667566,1.0426427867443842,0.15818691397103446,-0.2613567022653988,-1.5683314784364828
5.063324213027954,-0.07197621609690182,-0.5423741491010018,1.0503430086849355,0.14743154608581688,-0.2648555430432819,-1.5722769423546825
5.083674430847168,-0.06955272081096399,-0.54396540876533,1.054480378844354,0.14066271454567383,-0.2698748268938236,-1.5733066502353703
5.103866338729858,-0.06709564880184075,-0.5455744215018132,1.0586214373575853,0.13369935225077634,-0.2750944239926043,-1.5741840917733207
5.123998641967773,-0.06210784817119227,-0.5488589757859259,1.0669278001037121,0.11824190745135475,-0.28689653374059526,-1.5746407309319979
5.143967151641846,-0.056919168219111874,-0.5535208531296162,1.074602024338602,0.10512842100029145,-0.2925567431523886,-1.5766191477904248
5.164060115814209,-0.054314659184595104,-0.5552538019028973,1.0787469866909547,0.09625824007169509,-0.29973648752480253,-1.5759263509047563
5.184139013290405,-0.04898953500737053,-0.5587785786915784,1.0870430307648051,0.07785539588250061,-0.31471372674366843,-1.5740374314418488
5.204296827316284,-0.043503840740849384,-0.562408849526296,1.095330064026691,0.05853102803974515,-0.33067184142934414,-1.5714677900245013
5.224522829055786,-0.03826030900940758,-0.5661753522151604,1.1035823951009247,0.038467069259414455,-0.34729134911247056,-1.5683624209892346
5.244600772857666,-0.03602121884452298,-0.5681313927181364,1.1076814729669897,0.02828349996719704,-0.35565330665608785,-1.5667056126773784
5.264787435531616,-0.03129611682185151,-0.5721073700652974,1.1158765470375154,0.007295974512824658,-0.3731464392121935,-1.5629766635120843
5.2849180698394775,-0.02531981231345852,-0.5761034774806838,1.1241075871030808,-0.014822809800503463,-0.392205024019562,-1.5584949688083427
5.3052077293396,-0.019223430815324974,-0.5802151303347429,1.1322960420975117,-0.03750786089539281,-0.4117290066428223,-1.5536613943698647
5.32533597946167,-0.0161357052248637,-0.5823129513612205,1.1363729283549846,-0.04903058061517991,-0.42162339033725665,-1.5511401031394323
5.345380783081055,-0.010600726048842098,-0.5865837051836915,1.1445034371149463,-0.07214007473884732,-0.44142743474515406,-1.5461547974733771
5.365472316741943,-0.005144939980622123,-0.590969745495419,1.1525725919664336,-0.0954949268241142,-0.46128702354487594,-1.5410773482124407
5.38557767868042,-0.001978055403928087,-0.5931385548728215,1.1566249258383843,-0.10750236810951368,-0.471714842581621,-1.5383682322652563
5.40568733215332,0.004539344903372886,-0.5856188709477517,1.1502892369060627,-0.12022655613592387,-0.4735116653168363,-1.5272664684251385
5.425915241241455,0.011174846854124655,-0.5785142576874995,1.1438575146681609,-0.11680114205612824,-0.4719784877645639,-1.5183628150728967
5.446882247924805,0.017819132294532893,-0.5714851971780963,1.1373813393292536,-0.11265834929315545,-0.4691818607449462,-1.5099418781150542
5.467003345489502,0.02114473053273313,-0.5680031093275786,1.134125874622518,-0.1103253560208369,-0.4673601348860346,-1.5059121713781154
5.487065076828003,0.02113944459243383,-0.5612144413600876,1.1275228013053151,-0.10445754448172448,-0.46188693339471026,-1.498687625348455
5.507143974304199,0.014472878788838078,-0.5545482578601685,1.1208561346386483,-0.09778924265490686,-0.45522025464865984,-1.4920224408656142
5.527541160583496,0.011139719224673338,-0.5512149486665238,1.1175223986557934,-0.09445590932157354,-0.45188703664284097,-1.4886879268081927
5.547559022903442,0.004330998084703314,-0.5554646802020616,1.1120020720604016,-0.10154169477932107,-0.46514907964667584,-1.485777565519296
5.567664861679077,-0.002498975929514934,-0.5593232757200995,1.106606180297891,-0.11127451442780542,-0.4826606226440627,-1.4810269305947785
5.587786436080933,-0.00919390786505404,-0.5636414201376067,1.1009480837593795,-0.13206799966652763,-0.49720341144026375,-1.4778738350327034
5.607915878295898,-0.005922652472325082,-0.5655926788809753,1.0994102869293119,-0.14430956303652515,-0.5075019373851528,-1.4750823940059923
5.627966642379761,0.0005775253294256957,-0.569327080048546,1.0955213552313245,-0.17157399139483537,-0.5316227503623004,-1.467467753415757
5.648306369781494,0.007003494879752877,-0.5721708995218956,1.0906972668391386,-0.20705884968184002,-0.567765409678794,-1.4541649363119757
5.668212413787842,0.010189340187007534,-0.5732842730947516,1.08832946692377,-0.22770301854136635,-0.5902288825016234,-1.4456178605634322
5.688649892807007,0.016648967166597594,-0.5777636274773886,1.0957890426706842,-0.25225840312733194,-0.6099623231173779,-1.4400390262615181
5.708527326583862,0.023125420235362792,-0.5822379630995004,1.1031358249613235,-0.27633346692696037,-0.629313096373198,-1.4349771229656392
5.728602886199951,0.029543056854393124,-0.5867017313044653,1.1104543363673236,-0.3004107818398985,-0.6486345195117493,-1.4300248263327096
5.748709678649902,0.03287486785054115,-0.5833603482473794,1.1071219365148066,-0.30378149367384866,-0.6453376938523508,-1.4266646045524496
5.768778324127197,0.039514448969688955,-0.5765866296715406,1.1004783682435377,-0.30443218634469893,-0.6393788188659637,-1.4195341430176815
5.788855314254761,0.04615110532276009,-0.569811250795514,1.0938406776452043,-0.2984998452333558,-0.6336431643332101,-1.4123679616958658
5.809305906295776,0.049471191879210064,-0.5663798860774991,1.090549961094756,-0.29595070961486575,-0.6313575848218018,-1.4085083707766046
5.829132795333862,0.05612384345998214,-0.5595825775768121,1.0839404288927126,-0.2903067901811535,-0.6260439005719739,-1.4011542471994276
5.849228382110596,0.04945741729523013,-0.5529161986315,1.0772734635909593,-0.28363928052337817,-0.6193770156549557,-1.394487379774129
5.869503736495972,0.04612411558264512,-0.5495830928483891,1.073940130257626,-0.2803051234551805,-0.6160433847808687,-1.3911547127022992
5.889423608779907,0.039444745421269065,-0.5491639999157588,1.0674680157772183,-0.27693654922126115,-0.6137739588694712,-1.3889227125957266
5.909508943557739,0.03273599540734927,-0.5480338640531927,1.0613125154965115,-0.27916654475461966,-0.6190984929664975,-1.3895533196547374
5.929570436477661,0.02940288642234113,-0.5447005885954465,1.0579788332882547,-0.2758332114212863,-0.615765258460967,-1.3928855729309098
5.949692010879517,0.022680524163775674,-0.5499904640500758,1.0519109503501252,-0.28001007370165504,-0.6240160177616911,-1.3921896545904038
5.969854831695557,0.01646379156825055,-0.5554766373408104,1.0503901175886545,-0.2961125559650751,-0.6304321035211568,-1.3924447596488965
5.989902973175049,0.023118062121609138,-0.560623479607386,1.0574823266752884,-0.31361054242250885,-0.6398648733189332,-1.3918900781119632
6.010020971298218,0.026458339888328596,-0.5628599765904923,1.0610632833033915,-0.324377100521214,-0.6478774487480418,-1.3903185733988466
6.030091285705566,0.026440793100709473,-0.5679895751788001,1.068083159847209,-0.34171221554625564,-0.6573293816528324,-1.3899669962810803
6.050161600112915,0.026372254396283934,-0.5731389991812279,1.075101107343605,-0.3592250961015038,-0.667232055294629,-1.3895426989768285
6.070242881774902,0.02963998125893727,-0.5753666064576631,1.0786933841642226,-0.37054749316196284,-0.6761190116351163,-1.3876869161828063
6.090407371520996,0.03614400857193324,-0.5802737357819008,1.08575078289268,-0.3900135132271122,-0.6888044441194944,-1.3860476742007226
6.110469818115234,0.029192328660702427,-0.5848251964399901,1.0835108729352436,-0.41226858387655024,-0.7058730082157574,-1.3826812124974277
6.130530834197998,0.02221178167169545,-0.5903825774517456,1.0902710925795107,-0.4243743577395925,-0.7063279506303742,-1.385885880000966
6.150631666183472,0.018581421271727516,-0.5928874058648207,1.0936246449492248,-0.4309683427497844,-0.7063645691438243,-1.3871150460281934
6.170710563659668,0.01113481397183333,-0.5975565790800419,1.1003805522625096,-0.44587086530059494,-0.7081461837855377,-1.3884395518056116
6.19079852104187,0.0037103290982616714,-0.6025261678581165,1.1070924465614127,-0.45977837040053327,-0.7086528980775886,-1.3903654802427914
6.211056232452393,8.383667352411485e-05,-0.6052478972712116,1.1104511787053122,-0.46583830068951154,-0.7080053950337715,-1.3919015677582405
6.231217622756958,-0.0077630425743013196,-0.6095007297646704,1.1173200137093369,-0.48365557411004895,-0.7123386401317295,-1.3912005506518588
6.251269340515137,-0.01481838727393863,-0.6154608238803049,1.1240193916651524,-0.4936545398190955,-0.7088721510721686,-1.395651930453492
6.271371126174927,-0.022787523931915098,-0.6199031635003811,1.1308905272978962,-0.5114170172723931,-0.7125718415278665,-1.3948476032913897
6.291449069976807,-0.026434942346565165,-0.622742114087505,1.1342779510490997,-0.5173151541982691,-0.7116138921250664,-1.3964520698382372
6.311524868011475,-0.028217989094697592,-0.6267096351850405,1.1413726161635585,-0.5346175312432302,-0.7132847527546782,-1.3959891460272644
6.331578016281128,-0.024446317869370418,-0.629479925432594,1.1485109201931394,-0.5592820016528007,-0.7201512640560142,-1.3901223248933197
6.351660966873169,-0.02263119855901946,-0.6308093686334354,1.15207556242185,-0.571940663302575,-0.7231717486776018,-1.3868787449699422
6.37176775932312,-0.01835643774479687,-0.6341902965484578,1.1591662548123978,-0.5915567590403288,-0.7228127727400221,-1.3843179753844177
6.391852378845215,-0.013601263789611427,-0.6380719004516117,1.1662052096694195,-0.6066883786726115,-0.7186483000322685,-1.3848450608111749
6.412652254104614,-0.009902056115354678,-0.6404708861595997,1.1734589995158462,-0.6265378104347216,-0.7159012386904394,-1.381881684903695
6.432784795761108,-0.007551058401412557,-0.6424083911455292,1.1769946892187935,-0.6342381003230103,-0.7138460768328184,-1.38201019565729
6.4528210163116455,-0.0033969191858482656,-0.6455851706002907,1.1841839810125065,-0.6520544772838283,-0.7103772323153705,-1.3804231746750566
6.472925186157227,0.001699403909530678,-0.6433944829792076,1.18453652777007,-0.6591560649713938,-0.7059404130392697,-1.3751647199263302
6.493013620376587,0.004992396348341871,-0.6399887663304592,1.1812169388656155,-0.6560282028391335,-0.7027079392396665,-1.3716898042671928
6.513107061386108,0.011659075977749886,-0.6333224779992443,1.1745502721989487,-0.6493606615242441,-0.6960404616593258,-1.3650237743307934
6.533213138580322,0.018325763495626694,-0.6266565264492246,1.1678836055322819,-0.6426923262310063,-0.689372210438869,-1.358358313529342
6.553761005401611,0.024991938855601043,-0.6199890544784669,1.161216724074658,-0.6360286113008248,-0.6827088125615643,-1.3516896582799043
6.573864221572876,0.028317399685354263,-0.616641603459575,1.1578789810409789,-0.632742480134003,-0.6794213630814852,-1.3483238660981485
6.5939459800720215,0.03498407288196962,-0.6099755160993816,1.151212314374312,-0.6260744199900883,-0.6727532660831685,-1.3416581800673102
6.614042043685913,0.04165074228381134,-0.6033094551489083,1.1445456477076452,-0.6194062762212093,-0.6660850545865798,-1.334992545504861
6.635234117507935,0.04498407531656505,-0.5999764141092158,1.1412123143743118,-0.6160722231367576,-0.6627509545390495,-1.3316597114373545
6.6552863121032715,0.051643723024757886,-0.593296011254917,1.1345399853861329,-0.6094636128922946,-0.6562329701277463,-1.324963044062872
6.67539644241333,0.05830971643913977,-0.5866278992539519,1.127872659066289,-0.6028029188999751,-0.6495837897691625,-1.3182936679380455
6.695461988449097,0.0649763719412327,-0.5799617460322669,1.1212059923996223,-0.5961349413275995,-0.6429156405836272,-1.311627886921249
6.71555233001709,0.06830969843627505,-0.5766286605039848,1.1178726590662889,-0.5928009689041551,-0.639581573750343,-1.3082949822852878
6.735643148422241,0.07497634909666359,-0.5699624722712264,1.111205992399622,-0.586133055856353,-0.6329134565815897,-1.301629145831176
6.755744695663452,0.0816429968853108,-0.5632962620091397,1.1045393257329552,-0.5794651839486133,-0.6262453625519849,-1.2949632745619686
6.776097297668457,0.08497631978822044,-0.5599631489306224,1.1012059923996218,-0.576131262973226,-0.6229113246260943,-1.291630326385646
6.796489238739014,0.09164294804849467,-0.5532972061499714,1.094539325732955,-0.5694626436613586,-0.616242299888259,-1.2849649337564857
6.816485166549683,0.09830957236273523,-0.5466312328428808,1.0878726590662882,-0.5627940807745124,-0.6095733099540438,-1.2782994935325454
6.836504220962524,0.10497619316947956,-0.5399652295278631,1.0812059923996213,-0.5561255746898446,-0.6029043595097803,-1.2716340064887404
6.856877088546753,0.11164281085400203,-0.5332991974303066,1.0745393257329545,-0.5494571238302708,-0.596235450619317,-1.2649684746342462
6.876742839813232,0.11497611864224867,-0.5299661709533191,1.071205992399621,-0.5461229186502222,-0.5929010123757843,-1.2616356924989998
6.896868705749512,0.12164273233722556,-0.523300097839797,1.0645393257329543,-0.5394545479340674,-0.5862321694781656,-1.25497009694231
6.916975021362305,0.1283093438160561,-0.5166339987335303,1.0578726590662875,-0.5327862290172615,-0.5795633728778267,-1.2483044610962815
6.937034845352173,0.13497595341842408,-0.509967874650185,1.0512059923996206,-0.5261179607219078,-0.5728946243029202,-1.2416387865773615
6.957127332687378,0.13830925761852786,-0.5066348035451349,1.0478726590662872,-0.5227838452169731,-0.569560268537821,-1.2383059352920422
6.977216005325317,0.14497586501461818,-0.49996864378719785,1.0412059923996204,-0.516115650864427,-0.5628915950220585,-1.23164020556717
6.997369766235352,0.15164247132636122,-0.49330246136992817,1.0345393257329536,-0.5094475046163038,-0.5562229734083478,-1.224974440761963
7.017409324645996,0.15830907684753778,-0.4866362571401524,1.0278726590662868,-0.5027794056193458,-0.5495544050607297,-1.2183086421444824
7.037538290023804,0.16164237939981746,-0.4833031470988251,1.0245393257329534,-0.49944537359468666,-0.5462201412572301,-1.2149757305276419
7.057842969894409,0.16830898425668214,-0.476636911648452,1.0178726590662865,-0.49277734404114204,-0.5395516551181396,-1.208309883373469
7.077723741531372,0.17497558899855145,-0.4699706563280536,1.0112059923996197,-0.4861093599262208,-0.5328832251510998,-1.20164400519297
7.097881555557251,0.18164219387162933,-0.4633043818521411,1.004539325732953,-0.47944142063286493,-0.5262148523041086,-1.1949780969592918
7.117911338806152,0.18497549643048022,-0.45997123764540887,1.0012059923996195,-0.47610746761523814,-0.5228806875614599,-1.19164513185647
7.138047695159912,0.19164210193126124,-0.45330493570723185,0.9945393257329529,-0.4694395945035372,-0.5162124018862128,-1.184979180209074
7.158126592636108,0.19830870811693782,-0.4466386162664861,0.9878726590662863,-0.4627717648697098,-0.5095441751212755,-1.1783132006329087
7.178253889083862,0.20497530177806184,-0.43997235341492275,0.9812059923996197,-0.4561037283906553,-0.5028756711272832,-1.1716473403961116
7.198312997817993,0.21164188318038324,-0.4333061438333545,0.9745393257329531,-0.44943549355677387,-0.4962069036026629,-1.1649815945578252
7.218493938446045,0.21497517440612962,-0.4299730311206047,0.9712059923996198,-0.4461013966760308,-0.4928725494058176,-1.161648708979164
7.2387261390686035,0.2216417580498222,-0.4233067902777768,0.9645393257329532,-0.4394332437668545,-0.4862039004588311,-1.1549829129345477
7.258766412734985,0.22830833362020236,-0.41664057886642514,0.9578726590662866,-0.432764970194361,-0.47953510604893124,-1.1483171887148653
7.27883768081665,0.23497492098280956,-0.4099742987054899,0.95120599239962,-0.4260969251259049,-0.4728666160995596,-1.141651328072646
7.299184560775757,0.23830821545806266,-0.4066411515491203,0.9478726590662867,-0.4227629227045319,-0.4695324010512214,-1.1383183858860404
7.319267749786377,0.2449748060888192,-0.39997484350906726,0.9412059923996201,-0.4160949576969033,-0.4628640304712398,-1.131652478202788
7.339386701583862,0.25164143610168527,-0.39330834562133077,0.9345393257329535,-0.4094276727850257,-0.4561965585380716,-1.1249861730806574
7.359531879425049,0.25830803157416804,-0.3866420025927156,0.9278726590662869,-0.40275981273966305,-0.4495283452466741,-1.1183202046524865
7.379570960998535,0.26164133027514513,-0.3833088248147359,0.9245393257329536,-0.3994259021335744,-0.44619426770756615,-1.114987209305899
7.399658441543579,0.26830792966314443,-0.3766424570940517,0.917872659066287,-0.3927581193824269,-0.43952617020371715,-1.1083211966631783
7.419731140136719,0.27497453176080383,-0.36997607363015994,0.9112059923996204,-0.38609038737029844,-0.43285814846609755,-1.1016551551743938
7.439815998077393,0.28164113662588086,-0.3633096749867917,0.9045393257329538,-0.37942270538780887,-0.42619020112520206,-1.0949890853469098
7.459974050521851,0.2849744401093339,-0.35997647014661527,0.9012059923996205,-0.376088882916909,-0.42285625487464085,-1.0916560399668687
7.480089426040649,0.2908372905571148,-0.3533100788603745,0.8945393257329539,-0.3694211629785567,-0.4161882745944623,-1.0849899934341105
7.500158786773682,0.2922374246053863,-0.34664367424089415,0.887872461180245,-0.36275364959106954,-0.4095206274569635,-1.0783231281407015
7.52025032043457,0.29739572910591794,-0.33997713905562876,0.8812055887864673,-0.3560865180185008,-0.4028534805301618,-1.0716559602153315
7.540393114089966,0.2907289714996367,-0.33331085447826686,0.8745389221198007,-0.3494183685131716,-0.3961850171200985,-1.0649901728580047
7.560463190078735,0.2940623478967208,-0.32997734196968276,0.8712055887864674,-0.3460857355867117,-0.39285254910664674,-1.0616564311753034
7.580547094345093,0.29406226038585886,-0.32331104177174413,0.8645389221198008,-0.3394176396444307,-0.3861841776756713,-1.0549906157278948
7.600643157958984,0.29200822833073353,-0.31664439198518257,0.8578722554531342,-0.332750915867616,-0.37951749112924144,-1.0483240003729315
7.6207146644592285,0.2898265067640299,-0.3099779389817607,0.8512053925624156,-0.3260835617949634,-0.37285010357559595,-1.041657011762805
7.641091346740723,0.2864931360713838,-0.3066447627644083,0.8478720592290823,-0.3227496136937006,-0.3695160651409413,-1.0383240498249082
7.661178112030029,0.28312662637956965,-0.2999782633302396,0.841205203277606,-0.316082410093082,-0.36284886842895697,-1.031656992419983
7.681323051452637,0.27646022081711136,-0.29331177383878465,0.8345383320486349,-0.3094151979107248,-0.3561816738702368,-1.0249898752928868
7.701355695724487,0.26979349162521926,-0.2866453735653703,0.8278716653819683,-0.3027474902963125,-0.34951385334934804,-1.0183238439549682
7.721653461456299,0.2631270856903865,-0.27997886945492567,0.8212047911899869,-0.2960803274969597,-0.3428467264850621,-1.0116566694373603
7.741777658462524,0.2597940330434932,-0.27664556999395035,0.8178712567827705,-0.2927469941636264,-0.3395134749883717,-1.0083225465681305
7.761813402175903,0.2531278989888495,-0.2699789666182791,0.8112042069573617,-0.28608032749695966,-0.3328469643522511,-1.0016543666327442
7.781893253326416,0.24646172787056983,-0.26331235763031935,0.8045371814698412,-0.27941366083029295,-0.32618044379693667,-0.9949862724413638
7.802178859710693,0.24312862890461803,-0.2599790511510393,0.8012036774891073,-0.2760803274969596,-0.32284717990575024,-0.991652256721817
7.822290420532227,0.23646240516241887,-0.2533124344532213,0.7945366863370558,-0.2694136608302929,-0.31618064511785826,-0.9849842864144555
7.842352390289307,0.2297959057205984,-0.2466459814672629,0.7878698655497629,-0.26274627060434064,-0.3095133090627058,-0.9783174525398478
7.862731456756592,0.22312916019442505,-0.23997967887330715,0.7812031988830963,-0.2560782286349257,-0.30284526629352265,-0.9716516529284521
7.882725954055786,0.21646242058419535,-0.23331335462011876,0.7745365322164297,-0.2494102791374953,-0.29617733497191473,-0.9649857985092697
7.902817726135254,0.21312908725221105,-0.22998002128692596,0.7712031988820812,-0.24607694580416198,-0.2928440016389884,-0.9616524651717767
7.92297887802124,0.20646235597645007,-0.2233136663670368,0.7645365322154146,-0.23940912769573686,-0.286176225415944,-0.9549865323405151
7.943052530288696,0.19979599543711815,-0.21664703025675475,0.757869623650038,-0.2327424610290702,-0.27950965422900176,-0.9483188723163518
7.963089942932129,0.19312934560538725,-0.21305180084158282,0.7512029404992577,-0.22607579436240355,-0.2728429942112662,-0.941652141706286
7.983196496963501,0.18979627938131124,-0.2128161210546133,0.7478693940583534,-0.22274246102907022,-0.2695097433989831,-0.938317933959998
8.003283023834229,0.1913067261176913,-0.20614950661734696,0.7412022924201062,-0.21607579436240357,-0.2628432431247085,-0.9316494842782305
8.023369550704956,0.18464009830216713,-0.21281617661962585,0.7345355960134152,-0.2094091276957369,-0.25617658628810197,-0.9249827024950995
8.043418169021606,0.1913072249354231,-0.2061495514938206,0.7278685773271648,-0.20274246102907026,-0.24951004817776784,-0.918314609081464
8.063570022583008,0.187973863541386,-0.2028163723043147,0.7245352439938315,-0.19940859506859662,-0.24617615281359087,-0.9149816044452288
8.08361530303955,0.1813074454832962,-0.20281619286211933,0.7178684078493061,-0.19274259426075763,-0.23951021656761332,-0.9083138326081874
8.103724002838135,0.1813076233044756,-0.20281638726548837,0.7112015790318935,-0.18607534635426523,-0.23284297824065475,-0.9016468791697587
8.123781681060791,0.1813075449136085,-0.2028163810692787,0.7045349708099882,-0.17940867968759858,-0.2261762918783942,-0.8949804459722689
8.143914937973022,0.17797440033483133,-0.20614972964389397,0.7012014944306254,-0.17607534635426525,-0.22284300619065353,-0.8916465492504378
8.164005041122437,0.17130767301454639,-0.19948344028313553,0.6945348277639588,-0.169407493122198,-0.21617498377632208,-0.8849806181890141
8.185583353042603,0.1646412269256655,-0.194544139968178,0.6878679889870419,-0.16274116331100796,-0.20950886328089058,-0.878313124686212
8.205662965774536,0.1646412269256655,-0.194544139968178,0.6878679889870419,-0.16274116331100796,-0.20950886328089058,-0.878313124686212
8.225805759429932,0.15797430190880157,-0.2012109650198131,0.6812014906020899,-0.1560739735617962,-0.2028415428917759,-0.871647441403449
8.24587106704712,0.15464094827709687,-0.19787777003371226,0.6778681572687566,-0.15274022286311725,-0.19950767672355016,-0.8683143558511983
8.266059875488281,0.1479740198582289,-0.1978779165881611,0.6712016563362899,-0.14607308345902512,-0.19284040612152958,-0.8616486168940891
8.286043643951416,0.14204148103767772,-0.1978780922978604,0.6645348103586565,-0.13940597090150422,-0.1861732447485213,-0.854981554747343
8.306135416030884,0.13970219234558812,-0.19454477572177306,0.6612012642449139,-0.1360726375681709,-0.18283996999502153,-0.8516474622972442
8.326246738433838,0.13303585146760993,-0.20121125956678246,0.6545343723936952,-0.12940653946856778,-0.17617413453239533,-0.8449796586592558
8.346321821212769,0.12636969687972707,-0.19454462495699498,0.6478673465134234,-0.12273987280190113,-0.1695075622959231,-0.8383117151409127
8.366411209106445,0.11970302527117688,-0.1901137218014559,0.6412006798467568,-0.11607315203074693,-0.1628410872432872,-0.8316451591373474
8.386733055114746,0.11636970316059363,-0.18893132822204545,0.6378673465134235,-0.11274010878427078,-0.15950829420746354,-0.8283116947068248
8.406678438186646,0.10970323917543778,-0.18842858012381325,0.6312005246186212,-0.10607382291072928,-0.15284226843805548,-0.8216443024401892
8.426735162734985,0.10303705506040364,-0.18560058779553645,0.6245335097091417,-0.09940715624406263,-0.14617568406564999,-0.8149764726892157
8.446829795837402,0.09637055683533326,-0.17893419314382103,0.6178666816409429,-0.09273992303896941,-0.1395083364350213,-0.8083096500218225
8.466906309127808,0.0930372011953457,-0.1756011147078313,0.6145333483076096,-0.08940604975113703,-0.13617432748680075,-0.804976661609469
8.486991167068481,0.08637027205362653,-0.18226801508110982,0.6078668488425139,-0.082738878596616,-0.12950695174078936,-0.7983108547981171
8.507088661193848,0.07970387662120156,-0.17560159235529463,0.601199991716194,-0.07607176779378766,-0.12283974929260527,-0.7916438731437496
8.527441263198853,0.07303717913054014,-0.16893536877588475,0.5945333250495274,-0.06940427990299544,-0.11617204194699376,-0.7849777361830267
8.54744267463684,0.06970385991490433,-0.1722684867590443,0.5911999917161941,-0.06607137933664273,-0.1128394228648514,-0.7816441704693574
8.567447662353516,0.06303716567657403,-0.17226894755829547,0.5845333250495275,-0.05940386477734688,-0.10617140585062701,-0.7749779880309371
8.587594270706177,0.05637099230760145,-0.16560229929145476,0.5778660445008433,-0.052737198110680214,-0.09950483952184018,-0.7683097939690734
8.607816219329834,0.053037879245640164,-0.16226897374997412,0.5745324163746846,-0.04940386477734688,-0.09617155248888118,-0.76497575395846
8.627910137176514,0.04637143953297942,-0.16893548301264857,0.5678654677165266,-0.04273747849939319,-0.08950541180325856,-0.7583082894349948
8.647993326187134,0.039704930660797326,-0.1622690153322456,0.5611985344350137,-0.036070505288491275,-0.08283821864762088,-0.7516412201207339
8.66811466217041,0.03303826198077849,-0.16866711184820612,0.5545317476568768,-0.029403838621824607,-0.07617156380716507,-0.7449743655249718
8.688210010528564,0.03386707034363635,-0.16533377426336948,0.5511977595422004,-0.026070505288491273,-0.0728382964514561,-0.7416400223027416
8.70830774307251,0.031280016451112704,-0.16533346968146187,0.5445308477882678,-0.019404003961854786,-0.06617113442559334,-0.734972608663719
8.728394508361816,0.024613635441915988,-0.1653338930618114,0.5378634962381422,-0.012736899501948822,-0.059503792621986254,-0.7283050530335012
8.748564958572388,0.01794721376332014,-0.1586672312162205,0.5311955239011129,-0.006070232835282154,-0.05283723852067576,-0.721636534272897
8.76867151260376,0.014613956480934373,-0.15533389925291108,0.5278615565603073,-0.0027368995019488207,-0.0495039553450519,-0.7183023780518134
8.788755416870117,0.007947178897397284,-0.1620005641797865,0.5211947079225934,0.003929767164717846,-0.04283729661137356,-0.7116355850019044
8.808839559555054,0.0012806064236286913,-0.15533389891490212,0.5145269210941704,0.010596433831384514,-0.03617069963560093,-0.704967739147809
8.829118728637695,-0.005386241409327343,-0.14866723090438044,0.5078591045402039,0.01726310049805118,-0.029504090795357797,-0.6983001225278564
8.849236011505127,-0.008719591439464965,-0.15199985396641225,0.5045257712068706,0.020596187883586074,-0.026170532093372674,-0.6949665238970283
8.869377613067627,-0.01232923439901179,-0.15200016138204794,0.49785855708362164,0.027262736907675014,-0.01950538512883613,-0.688299678176605
8.889391660690308,-0.015911440611357873,-0.14533351088637828,0.49119135478966336,0.033929559807802497,-0.012837693270497413,-0.681632736657614
8.909602880477905,-0.019245043601850434,-0.14200017788759275,0.487857503687949,0.03726289314113583,-0.009504368787102847,-0.6782992808734597
8.92979621887207,-0.0259119904127956,-0.14866622402481963,0.48119033836757075,0.04392962261102684,-0.002836554626042077,-0.6716324113532404
8.949822425842285,-0.032578597771801304,-0.14200068962375068,0.47452367170090404,0.050596011028625994,0.003827320909596232,-0.6649659706706772
8.969887971878052,-0.03924522655178042,-0.13533465804798242,0.4678570050342373,0.05726246444316835,0.010492401783519914,-0.6582993791128628
8.989964723587036,-0.04591185213446881,-0.12866861162310733,0.4611903383675706,0.06392885301263536,0.017157360844201813,-0.6516327494622727
9.010129690170288,-0.04924519956340202,-0.13200174835655343,0.45785700503423726,0.06726238692657784,0.013825294756992186,-0.6549660353496101
9.030287981033325,-0.055911829904105745,-0.1386688684488341,0.45785700503423726,0.06726211497165652,0.013823415456945442,-0.6616327694911139
9.050265789031982,-0.06257845113929857,-0.14533613901595765,0.464523671700904,0.06059514978506934,0.02048819310051939,-0.6682994674037026
9.070338487625122,-0.0692451061870736,-0.15200296958288384,0.464523671700904,0.05392846223612745,0.020488209389361304,-0.6749661032461768
9.090709686279297,-0.07257842231551459,-0.15533660790944961,0.4611903383675706,0.05059498677800311,0.01715413109234706,-0.6782994207629
9.110847473144531,-0.07924506730155294,-0.16200371326770963,0.4545236717009039,0.043927926717526995,0.0238178913694205,-0.6716328606919857
9.130911350250244,-0.08591171280521334,-0.1686709499052823,0.4478570050342372,0.037261000883159784,0.030483399794478283,-0.6649661160958237
9.151000499725342,-0.08797012033126335,-0.1753379514984761,0.4411903383675705,0.03059398763568971,0.037147405196164864,-0.658299511663815
9.171131610870361,-0.08463678636194398,-0.17867131052903684,0.43785700503423713,0.03392721540517316,0.040479481526706676,-0.6549662561803429
9.191207885742188,-0.07797010902809816,-0.18533852342374893,0.4311903383675704,0.040593513865360496,0.047144513510937916,-0.6482994500433489
9.211268424987793,-0.07130342797639844,-0.19200572833649895,0.4245236717009037,0.04725977509542119,0.05380921381931073,-0.641632634516375
9.23197340965271,-0.067970086061476,-0.19533932819902333,0.42119033836757036,0.050592893672720976,0.05714143417077162,-0.638299224172665
9.252072811126709,-0.06130339944487808,-0.2020065235676797,0.41452367170090365,0.05725911064441389,0.06380560514448015,-0.6316324000620387
9.272161722183228,-0.05463671191677781,-0.19534030364555324,0.40785700503423694,0.06392533653779967,0.07046887492905496,-0.6249656680673555
9.292237281799316,-0.06130336659547254,-0.18867386714413564,0.40119033836757023,0.070591804860102,0.0771353225713788,-0.6182988296163048
9.312330484390259,-0.06273231623730259,-0.1853406077327153,0.3978570050342369,0.07392499931784823,0.08046640623509227,-0.6149656079242453
9.332402229309082,-0.06068502039709915,-0.17867427234626784,0.39119033836757017,0.08059122304391413,0.08712880249570404,-0.6082989781934278
9.35250210762024,-0.06068500779973245,-0.1786744710701175,0.38452367170090346,0.08725769621166611,0.09379539975583837,-0.6016321272203398
9.372556924819946,-0.0606849827756493,-0.17867477377656737,0.37785700503423675,0.09392396751324159,0.1004590395090958,-0.5949653902325143
9.392628192901611,-0.06068496819162974,-0.17867496307718897,0.37119033836757004,0.10059042047491927,0.10712552146358466,-0.5882985311338651
9.414056301116943,-0.06401827885492399,-0.1820085390966693,0.3678570050342367,0.10392343557164191,0.11045715707212127,-0.5849650544472197
9.434167385101318,-0.0706849025442698,-0.17534228291229428,0.36119033836757,0.11058955998857652,0.10378651923290495,-0.5782982364193141
9.454246997833252,-0.07735152076168142,-0.16867602143708,0.3678570050342367,0.11725569356082147,0.10280911127155902,-0.5849648485194715
9.474332094192505,-0.08401816764073594,-0.17534286783963696,0.3745236717009034,0.11058881938436829,0.09614180523961573,-0.5916313752456334
9.494454145431519,-0.0906847967054074,-0.18200986751982676,0.3811903383675701,0.10392171200414642,0.10280481024480208,-0.5982979878602948
9.514568567276001,-0.094018143733634,-0.18534307715969164,0.37785700503423675,0.10058855846610452,0.10614001536963477,-0.6016313042812118
9.534597396850586,-0.1006847641424911,-0.19201025853216766,0.37119033836757004,0.10058789168877996,0.11280324424280429,-0.6016309831110656
9.554729700088501,-0.10068473553712344,-0.19867721834144114,0.36452367170090333,0.10725417346373022,0.11946667971482029,-0.594964228510922
9.575014352798462,-0.09401801496279108,-0.20534440348568028,0.3578570050342366,0.11392017059228221,0.12612844553834668,-0.5882973063716223
9.595103979110718,-0.0906846527399029,-0.20867799796418673,0.35452367170090326,0.11725317284437833,0.12945916784565906,-0.5849638479454204
9.634739398956299,-0.08735129978747672,-0.21123039393085405,0.3511903383675699,0.12058632218783988,0.13279011029417875,-0.5816305083420042
9.671955108642578,-0.08735129978747672,-0.21123039393085405,0.3511903383675699,0.12058632218783988,0.13279011029417875,-0.5816305083420042
9.69219160079956,-0.0806846065937124,-0.2101942543011319,0.3445236717009032,0.12725278452110073,0.139453286958642,-0.57496387909196
9.71220850944519,-0.08068458450338824,-0.2035277833061586,0.3378570050342365,0.1339191740964138,0.14611908571759985,-0.5682969990241794
9.732263326644897,-0.0806845372347123,-0.19686144347077647,0.3311903383675698,0.14058543945310545,0.15278122502016897,-0.5616302466058551
9.752359867095947,-0.07735116697319677,-0.1935283668749101,0.3278570050342364,0.14391841852741724,0.15611188985093769,-0.5582967492255245
9.772471904754639,-0.08401783011245413,-0.18686173214616836,0.3211903383675697,0.15058501957583953,0.1627788388848817,-0.5516299995787798
9.792585849761963,-0.09068445539934837,-0.18019530715857465,0.3168620964267076,0.15725135937693388,0.16944193750708453,-0.5582965955889931
9.812725305557251,-0.09735098402762621,-0.18686223092602336,0.3235286715464918,0.15058429756072786,0.16277250918727434,-0.5649635553671567
9.83279800415039,-0.10068429640120832,-0.19019567562382844,0.32686200487982514,0.14725083613494303,0.16610343026874097,-0.5682969333408883
9.85287094116211,-0.10735088653420578,-0.19686286351142487,0.33352867154649185,0.140583366695089,0.1727647592470254,-0.5749631902007106
9.872929334640503,-0.11401752709826962,-0.20352974460925072,0.34019533821315856,0.13391632317140711,0.172763788919852,-0.5816295578661024
9.89303731918335,-0.11735082743290427,-0.206863341487899,0.3435286715464919,0.13058256157417925,0.1694279419774405,-0.5849626469000383
9.913119077682495,-0.12401743187966029,-0.2135305334542011,0.3501953382131586,0.1239150619665214,0.16275634774915385,-0.5916288384784836
9.933282136917114,-0.13068404141841392,-0.2201977226385117,0.35686200487982533,0.11724759402554656,0.15608491991681367,-0.5982950462320635
9.95365047454834,-0.13735065592402548,-0.22686490974822837,0.36352867154649204,0.1105801567063563,0.14941367090266336,-0.6049612686058654
9.973787069320679,-0.14068396500123487,-0.23019850276041234,0.3668620048798254,0.10724644921408136,0.14607811749852095,-0.6082943847938955
9.993940591812134,-0.14735058673091747,-0.23686568819921736,0.3735286715464921,0.10057905595816949,0.13940716132571612,-0.6149606262221112
10.013975381851196,-0.15068389935520424,-0.24019928083609904,0.37686200487982546,0.09724536996217971,0.1360717620435515,-0.6182937510880036
10.034064054489136,-0.15735052805599953,-0.24686646649716582,0.3835286715464922,0.09057801868159965,0.1294011300870969,-0.6249600082055604
10.054203271865845,-0.1640171612779431,-0.2535336534538722,0.3901953382131589,0.08391069432882914,0.1227307327072725,-0.6316262739807907
10.074254274368286,-0.1706837989329982,-0.2602008426942653,0.3968620048798256,0.07724339614548584,0.1160605853324791,-0.6382925470342868
10.094295024871826,-0.17735044094666894,-0.2668680352687132,0.4035286715464923,0.07057612345780809,0.10939070395743349,-0.6449588260519419
10.114452838897705,-0.18068376356895643,-0.27020163315195606,0.40686200487982566,0.06724249648986029,0.10605586816814959,-0.6482919674072805
10.134486198425293,-0.1873504120160039,-0.2768688328378739,0.41352867154649237,0.06057526099190295,0.09938641697153888,-0.6549582530777982
10.154619932174683,-0.19401706470946126,-0.2835360387685218,0.4201953382131591,0.05390804974104014,0.09271727409982597,-0.6616245417875695
10.174779891967773,-0.20068372164013165,-0.2902032522264523,0.4268620048798258,0.047240862439365226,0.08604845735136514,-0.6682908325420261
10.194862842559814,-0.2040170516980176,-0.2935368621979963,0.43019533821315914,0.043907277711932154,0.08271417695969334,-0.6716239784073321
10.215282440185547,-0.21068371502016478,-0.3002040895046691,0.43686200487982585,0.037240126065224116,0.07604588374637584,-0.6782902706272184
10.235123872756958,-0.21735038266611925,-0.3068713278530752,0.44352867154649256,0.03057299822024766,0.06937796305221827,-0.6849565629526898
10.255228996276855,-0.22401745621376074,-0.3135380099722706,0.45019446897720006,0.023906331553580993,0.06271132859390594,-0.6916246734033074
10.275296926498413,-0.22735092648614372,-0.3168713483421218,0.4535273582591778,0.02057299822024766,0.059378010602159255,-0.6949587008272807
10.29540228843689,-0.2312190643868866,-0.32353803269096554,0.4601935738912273,0.013906377419828714,0.05942202784474313,-0.7016262126042151
10.315527200698853,-0.2350335929681848,-0.33020500831515165,0.466860240557894,0.007239470080093491,0.06230139740863806,-0.7082925776779966
10.335561275482178,-0.23529627562066377,-0.33687167616749414,0.47352642175762494,0.000572847516565546,0.06522299619664505,-0.7149601951178444
10.356148719787598,-0.23253275648806798,-0.3402051151506141,0.4768597550909583,-0.002760621196624103,0.06855862149337813,-0.7182932633853168
10.37647008895874,-0.23919944935925005,-0.34687213459010335,0.483526421757625,-0.0094276777301203,0.0748934516965139,-0.7249593307834613
10.396631717681885,-0.23844477754432225,-0.3535391645078803,0.4901930884242917,-0.016094660158743626,0.08155928202208118,-0.7316257406222704
10.416587591171265,-0.23177814801825114,-0.3602062086068103,0.4968597550909584,-0.02276168225562216,0.08822495348779749,-0.7382921205977767
10.436732530593872,-0.2315714616241596,-0.3668730276645329,0.5035264217576251,-0.029428588637346407,0.09489485083764627,-0.7449583744155275
10.45687198638916,-0.22895758898295837,-0.3702063517535375,0.5068597550909584,-0.03276187000163503,0.09822637425553231,-0.7482918583523092
10.476983547210693,-0.22327179417159831,-0.3768731786644919,0.513526421757625,-0.039428757959810976,0.10489456179071796,-0.7549582268555369
10.497027397155762,-0.21860168906751765,-0.383540021208273,0.5201930884242916,-0.046095702167807846,0.1115638920517873,-0.7616244813011941
10.517183065414429,-0.2173985991471492,-0.3868735310352612,0.5235264217576249,-0.04942932058619363,0.1148996703018502,-0.764957408264566
10.537334203720093,-0.2107319599646422,-0.3935403575524102,0.5301930884242915,-0.056096204023252924,0.12156603591572897,-0.7716238820867867
10.557378053665161,-0.2040653639204479,-0.4002073945073417,0.5368597550909581,-0.06276346858836374,0.1282357087294891,-0.7782898143846286
10.577479362487793,-0.19884539509030985,-0.4068742625411061,0.5435264217576247,-0.0694305429431682,0.1349076807511556,-0.7849558146349194
10.597545385360718,-0.19551206130479118,-0.4102076088296191,0.546859755090958,-0.07276384464184486,0.1382380999448512,-0.7882893262078744
10.617624521255493,-0.18884549667579603,-0.4168747228615933,0.5535264217576246,-0.07943131567248028,0.14490887108298806,-0.794955010286346
10.637847661972046,-0.18217890961165345,-0.423541718744293,0.5601930884242912,-0.08609859696879651,0.15157886237324836,-0.8016209193071642
10.658475875854492,-0.17551229425780257,-0.4302085828594571,0.5668597550909578,-0.09276565034993763,0.1582478877225469,-0.8082870984034373
10.67856764793396,-0.17217898951153696,-0.4335420219078896,0.5701930884242911,-0.09609919509994232,0.16158249419244555,-0.8116201668133186
10.698663711547852,-0.16551238646392818,-0.44020891505217313,0.5768597550909577,-0.10276632371791421,0.1682519025407841,-0.8182862583934797
10.718737840652466,-0.15884579284400155,-0.4468758297580186,0.5835264217576243,-0.10943350876583063,0.17492158220050893,-0.8249522854538068
10.738936185836792,-0.15551249990084628,-0.45020929578409186,0.5868597550909576,-0.11276712414470814,0.1782565279243638,-0.8282852731305279
10.75902771949768,-0.1555125625576011,-0.4568761570397067,0.5935264217576242,-0.11943421647710031,0.18492656289403991,-0.8349513783227918
10.779106378555298,-0.15551257474213734,-0.46354287462276056,0.6001930884242908,-0.12610098484408314,0.19159194732236012,-0.841618000959097
10.7997567653656,-0.15217929706354913,-0.46687637361081996,0.603526421757624,-0.12943468844390402,0.19492727012159297,-0.8449508909648048
10.819854021072388,-0.14551275267244262,-0.4735433946590369,0.6101930884242907,-0.1361021580520583,0.201598173722133,-0.8516166026435624
10.839935779571533,-0.15217952156056888,-0.4802103401796803,0.6168597550909573,-0.14276946779479946,0.208269257533174,-0.858282466013966
10.860061407089233,-0.14551288050045427,-0.48687708606983826,0.6235264217576238,-0.1494363291951515,0.21493487587925184,-0.8649489874539545
10.880110263824463,-0.152179625780691,-0.4935439532411676,0.6301930884242904,-0.15610346206965928,0.21226480110305818,-0.8716150631449573
10.900244951248169,-0.1488462565872623,-0.49687719858034685,0.6335264217576237,-0.15943659591099038,0.21559612266094538,-0.874948667822019
10.92035174369812,-0.14884634529204435,-0.5035440859563194,0.6401930884242903,-0.166103773885578,0.21878276972767094,-0.8816146984851403
10.940373420715332,-0.14884635267938642,-0.5102107767369642,0.646859755090957,-0.17277050599594598,0.22198005513690233,-0.8882813187567664
10.96049451828003,-0.14551307091234883,-0.5135442374086094,0.6501930884242902,-0.17610414000479746,0.22531496654920824,-0.8916143025885465
10.980677604675293,-0.15217985321481428,-0.5202111793469492,0.6568597550909568,-0.18277144876574478,0.22758860174970855,-0.8982801918603436
11.000713586807251,-0.14551320244649885,-0.5268778875125808,0.6635264217576234,-0.18943822793778253,0.2342549842173433,-0.9049467604352716
11.020808458328247,-0.1521800088329348,-0.5335448758478796,0.67019308842429,-0.19610565357332588,0.2382001415351726,-0.9116125296073315
11.040884256362915,-0.14884662121220266,-0.5368780881674031,0.6735264217576233,-0.1994387093112258,0.24153133699879525,-0.9149462043945732
11.060971021652222,-0.14884677362320373,-0.543545098200823,0.6801930884242899,-0.20610619500609897,0.2472496575586578,-0.9216119209070455
11.081055402755737,-0.14884680385640606,-0.5502118383226217,0.6868597550909565,-0.21277305726103046,0.25272522015196625,-0.9282783886714455
11.101134300231934,-0.1488469863608525,-0.556878904927589,0.6935264217576231,-0.21944069329231594,0.2584394876423235,-0.934943953485922
11.121234655380249,-0.15218037308529272,-0.5602123549494964,0.6968597550909564,-0.2227743146371786,0.260578755413831,-0.9382769654385527
11.141366481781006,-0.1455136882074683,-0.5668789855067548,0.703526421757623,-0.229440912807484,0.2672444126240654,-0.9449437295762539
11.161418914794922,-0.15218051829667298,-0.573545998323791,0.7101930884242896,-0.23610842656935685,0.2739155266316779,-0.9516094456521221
11.18153190612793,-0.1455138380993304,-0.5802126397610992,0.7168597550909562,-0.2427750534486264,0.28058136094626773,-0.9582761750303419
11.20159649848938,-0.15218064359978964,-0.5868795957625691,0.7235264217576228,-0.24944244657418227,0.28356970695662675,-0.9649420459391085
11.22174334526062,-0.14884721415375485,-0.5902127325883696,0.7268597550909561,-0.2527753030974119,0.28690043391989206,-0.9682759108498094
11.241913080215454,-0.1488473616088079,-0.5968797035974532,0.7335264217576227,-0.2594427408036543,0.29357050172500065,-0.9749417419160847
11.261918306350708,-0.14884734946435596,-0.6035463500968485,0.7401930884242893,-0.26610937987752326,0.30023650964201126,-0.9816084505074546
11.28393816947937,-0.14551410968272407,-0.6068798754239527,0.7435264217576226,-0.26944321522796283,0.30357176758670457,-0.9849412505890424
11.304028034210205,-0.15218096810109144,-0.6135469314493214,0.7501930884242892,-0.27611088750093243,0.3064765603774195,-0.9916068453527251
11.324087142944336,-0.14551427518023924,-0.6202135489015226,0.7568597550909558,-0.282777459232879,0.31314222542930026,-0.9982736278593846
11.344197511672974,-0.14884768364135717,-0.6235470325597757,0.7601930884242891,-0.28611117564156857,0.3164772185883388,-1.0016065531454252
11.364313840866089,-0.14884766229486057,-0.6302136606346036,0.7666278618324552,-0.2927777685807066,0.3231431167440189,-1.0082733065245166
11.384663343429565,-0.14884782343965253,-0.636880650303228,0.7720139304376136,-0.2994452865338153,0.3298129897214432,-1.0149390829802984
11.405251026153564,-0.15218123593083827,-0.6402141425763378,0.7743492257216416,-0.30277904548794354,0.3331478306307233,-1.0182719746830322
11.425415992736816,-0.14551462788901515,-0.6468809369480915,0.7810158923883082,-0.3094461366996706,0.3398147257421866,-1.0249382264153717
11.445501565933228,-0.15218151888757495,-0.653548042618278,0.7848854425004385,-0.31611390988086013,0.3450273719150214,-1.0316037340677937
11.46558403968811,-0.14551494105838086,-0.6602148977700091,0.7915521091671051,-0.32278117467835804,0.3516948342502469,-1.0382698086226199
11.485703945159912,-0.1488481749892343,-0.663548027947995,0.7917996966646249,-0.3261139196660886,0.355026671563695,-1.0416037347715281
11.505845546722412,-0.1488483504147856,-0.6702150479186885,0.795355858745726,-0.33278157236584005,0.3616963897217805,-1.0482694059524076
11.52588415145874,-0.1488483767673222,-0.6768817635705859,0.799575035759108,-0.3394483421337454,0.36836380180427786,-1.0549359634863749
11.54604458808899,-0.14884853571402704,-0.6835487517088606,0.8037056284044852,-0.3461159187298384,0.3750331790449469,-1.061601721565721
11.566587924957275,-0.1455152943690518,-0.6868822707312232,0.8070389617378185,-0.3494497735810882,0.3783681193363952,-1.064934535199569
11.586709022521973,-0.1521819352886167,-0.6935488851852489,0.8047868618373755,-0.3561162916112902,0.38503436738911967,-1.0716013513861358
11.606783151626587,-0.14551543865793876,-0.7002158974316848,0.8114535285040421,-0.3627839412735989,0.3917039830474665,-1.0782670506366803
11.62688946723938,-0.15218234402265643,-0.7068830412536633,0.8154646079871846,-0.36945188524172795,0.39837536001819973,-1.0849324603010113
11.646945238113403,-0.15551575752785096,-0.7102165386218228,0.8187979413205179,-0.3727856867900835,0.40171007961393584,-1.0882653359213377
11.667032480239868,-0.16218266337797935,-0.7168836969986946,0.8254646079871845,-0.37945376295534033,0.4083808388774785,-1.0949306276226962
11.687121152877808,-0.16801449658257686,-0.7235506822889056,0.8321312746538511,-0.38612135524190955,0.41505005387831234,-1.1015963939422027
11.707188844680786,-0.17359656223972755,-0.730217825241978,0.8387979413205177,-0.3927893905627114,0.4217206122840657,-1.1082617323973905
11.727518796920776,-0.17692997479049735,-0.7335513242043766,0.842131274653851,-0.3961232010047506,0.42505528445623464,-1.1115946036150783
11.74765419960022,-0.1794494650987222,-0.7388892361126476,0.8487933021840434,-0.3967726868667477,0.43417656397304966,-1.123920343880245
11.767714977264404,-0.1875661973945855,-0.7439253068625621,0.8553825036652344,-0.39763634423090966,0.44062422876824864,-1.1362610688654216
11.787798404693604,-0.19562013735802378,-0.7488957560784867,0.861986063037046,-0.3978672669425871,0.45498004846628726,-1.1491675354636328
11.808017253875732,-0.1997427326077711,-0.7513393783440222,0.8652856921382497,-0.39779323676928,0.459120692275787,-1.1558099159534094
11.827988147735596,-0.20147695987530975,-0.7552292382709195,0.8719225723472049,-0.3919927175210762,0.4711934766871796,-1.1742111627820249
11.848082542419434,-0.19707000498471397,-0.7579488656229165,0.8785101211226356,-0.38466298383094055,0.47943147469465835,-1.1938890111664424
11.868823528289795,-0.19502080924463236,-0.759239026072848,0.8817808696774299,-0.38177405638677364,0.48095250798011396,-1.202978266547436
11.888960123062134,-0.20354762893090583,-0.763009003867555,0.8883922147916822,-0.3754606168280909,0.502397768354359,-1.2218483426780722
11.909079313278198,-0.21166826544273448,-0.7681717511822398,0.8950148408474552,-0.3752127011117141,0.5249130323664056,-1.2351059973558611
11.929101943969727,-0.20687219785408087,-0.7715370829170711,0.9016788923171646,-0.36479333613121756,0.5408872288456518,-1.2573222552725802
11.94919490814209,-0.20483605890370749,-0.7728363243671837,0.9049688237643364,-0.36037350471303037,0.5413231476586445,-1.2676017415680991
11.969289064407349,-0.20072313330829455,-0.7757402366007202,0.9115280847170382,-0.3528675299809129,0.5451813888147281,-1.2870136738189935
