liuyurong129/humanoid-gym/humanoid/data/robot1_action_20250621-221253.csv
timestamp,joint_1,joint_2,joint_3,joint_4,joint_5,joint_6
0.0003211498260498047,0.0,0.0,0.0,0.0,0.0,0.0
0.0204775333404541,0.0,0.0,0.0,0.0,0.0,0.0
0.04063725471496582,0.0,0.0,0.0,0.0,0.0,0.0
0.06066250801086426,0.0,0.0,0.0,0.0,0.0,0.0
0.08074259757995605,0.0,0.0,0.0,0.0,0.0,0.0
0.10092616081237793,0.0,0.0,0.0,0.0,0.0,0.0
0.12100100517272949,1.3298875,-0.9307179,0.7302446,2.5537727,1.8532199,0.943713
0.14205217361450195,2.1485946,20.965355,5.074718,-7.616857,3.9438078,11.467294
0.1621997356414795,-11.933781,12.190295,-2.7002933,-13.530186,6.713116,5.2384386
0.18240809440612793,10.348159,15.505999,2.7121584,6.0055885,-1.7662293,6.1249056
0.20239710807800293,1.3614044,18.535725,-3.8406482,-27.23985,8.014046,16.271276
0.2227330207824707,1.3614044,18.535725,-3.8406482,-27.23985,8.014046,16.271276
0.24266934394836426,-0.9406789,23.024473,2.0550237,-10.35885,8.045753,8.437636
0.26271915435791016,2.249023,29.223274,-11.38758,-15.584322,8.274862,20.151466
0.2828083038330078,6.150376,24.146156,-1.1626183,-12.714117,4.892283,18.83221
0.3028740882873535,2.7871056,7.9061728,-2.9408965,-11.78425,1.8147929,9.080384
0.32296085357666016,1.4209405,5.480727,1.1452901,-3.5341663,-0.9936498,5.1230326
0.3430607318878174,1.319927,9.859769,-6.7707863,-10.421523,5.3548937,8.733556
0.36313533782958984,1.9171627,12.901148,1.9038705,-5.1334834,2.446914,10.899642
0.3839683532714844,1.9171627,12.901148,1.9038705,-5.1334834,2.446914,10.899642
0.4039285182952881,-7.532448,13.230684,-10.416319,-1.5134425,3.497833,1.6899884
0.4239773750305176,8.969118,25.186647,-1.137071,15.170928,-2.546533,6.1278744
0.4440901279449463,14.773929,14.52072,6.2117653,-2.4174871,8.930983,28.038635
0.46416449546813965,-10.41551,21.415104,-17.923403,4.9509063,5.6988964,-10.610734
0.48426151275634766,11.372905,41.94275,-8.617417,4.6608787,2.804098,13.053014
0.5043380260467529,11.504648,21.88776,5.1176295,-13.622941,10.374722,29.12849
0.5246191024780273,-10.509223,18.546255,-15.972217,-0.7607398,8.98638,-8.286945
0.5446999073028564,-10.509223,18.546255,-15.972217,-0.7607398,8.98638,-8.286945
0.5647749900817871,6.149042,25.998524,-12.42827,6.757748,-2.8431718,3.2485292
0.5850224494934082,15.053232,7.8136806,2.0471857,-7.663761,7.4186125,22.065807
0.6049301624298096,-1.6475952,24.962484,-7.3127985,4.782702,6.0114884,-1.1952732
0.625115156173706,7.5741944,38.56332,-8.469058,4.4583035,2.9622078,6.88034
0.645402193069458,13.664154,35.38454,2.0142806,-32.421078,11.003218,36.05545
0.6653389930725098,5.856957,20.046862,-13.12007,-17.919659,13.220648,19.07751
0.6855015754699707,2.9275267,4.185385,-0.24174362,-10.925673,2.4082665,8.648538
0.7056021690368652,2.9275267,4.185385,-0.24174362,-10.925673,2.4082665,8.648538
0.7257359027862549,-2.8043244,16.169727,1.5995774,-0.9798603,1.7333218,4.6846695
0.7458271980285645,-0.37799934,64.09717,-12.556359,-29.122452,5.7474427,30.028816
0.7659451961517334,14.648248,28.605385,-9.449337,-16.70032,2.8379414,29.673725
0.7860355377197266,6.7000465,9.106111,-3.9453237,-10.774823,2.528829,8.45235
0.8063633441925049,0.103788584,18.89788,-1.4615406,0.8998213,4.431829,3.643349
0.8262484073638916,5.7782555,16.539394,0.9891937,-7.7640996,4.9959393,13.583554
0.8463349342346191,5.7782555,16.539394,0.9891937,-7.7640996,4.9959393,13.583554
0.8666982650756836,11.531032,23.609917,-6.670439,-24.954468,14.64962,30.807167
0.8865909576416016,6.0745907,7.4349766,-5.359056,-9.784782,3.8090758,9.641672
0.9067010879516602,-1.280278,19.361683,-1.4726619,3.3144073,2.8325903,2.6435213
0.9267852306365967,8.92964,31.38847,1.5679522,-6.368794,5.7429953,19.329157
0.9468708038330078,13.250343,17.535429,-6.5518484,-17.289469,12.5917425,26.959
0.9669630527496338,6.3725967,11.572455,-2.4066095,-5.0631557,5.0089707,8.428328
0.9871237277984619,-0.17974791,17.969109,-5.0416503,-0.22840688,1.1253631,3.8331432
1.0076861381530762,-0.17974791,17.969109,-5.0416503,-0.22840688,1.1253631,3.8331432
1.0278172492980957,4.785993,17.902828,-1.2474674,3.0775099,0.40156993,11.293228
1.0478851795196533,14.864786,30.47719,7.0132113,-14.436998,11.018963,37.564396
1.0679678916931152,-5.641023,24.880009,-22.770115,4.4897466,8.680386,-4.6784387
1.0880651473999023,10.1203375,47.428844,-9.325848,3.521769,3.0238597,15.305648
1.1081666946411133,10.618436,28.123306,2.6288843,-20.517214,11.54615,32.21455
1.128249168395996,-5.5139685,17.881546,-15.517491,-3.7745404,10.693911,-2.4208636
1.148296594619751,7.0798965,21.418924,-13.804505,5.47678,-2.3359187,1.474668
1.1695311069488525,7.0798965,21.418924,-13.804505,5.47678,-2.3359187,1.474668
1.1896641254425049,18.465662,19.72663,0.96833676,-18.296518,9.66023,30.688698
1.2097415924072266,2.1055849,15.59056,-2.5484495,-0.633389,8.669776,3.5868301
1.2299814224243164,1.2850434,13.812751,-2.037312,-0.6296687,3.3784516,4.89297
1.249995231628418,3.6017647,5.621687,1.9735438,-2.1591535,1.5918776,8.144275
1.2701029777526855,-5.993862,12.287387,-3.907732,-17.784279,8.9512005,10.804156
1.2902436256408691,7.686352,25.291172,-0.91640633,2.1159,-2.5080078,9.366895
1.3102750778198242,20.380474,27.401012,0.53754896,-23.201895,10.408583,37.56917
1.3303587436676025,7.8009467,10.512628,-5.0693264,-5.1536527,5.5633574,8.93973
1.3506486415863037,7.8009467,10.512628,-5.0693264,-5.1536527,5.5633574,8.93973
1.3707737922668457,-0.46556696,21.136719,-2.254959,1.1509695,2.8091142,4.371981
1.3908514976501465,6.6148744,18.678139,2.0175304,-1.2462628,3.9103866,12.724272
1.410937786102295,11.121793,17.514473,-2.9974298,-19.265484,12.161066,28.680845
1.4310452938079834,6.2900505,7.4843388,-2.4857419,-9.375535,1.3382522,9.222655
1.4512536525726318,0.29399362,22.585844,-4.89786,2.3013468,1.5239369,3.1402283
1.4715886116027832,7.8711224,18.965776,3.051014,0.21154645,2.8310988,15.36742
1.4914119243621826,8.109847,22.381187,-3.4378462,-24.592014,10.770227,29.500723
1.5114591121673584,8.109847,22.381187,-3.4378462,-24.592014,10.770227,29.500723
1.5316884517669678,7.5113,8.804845,-2.438314,-10.770111,0.6860786,9.176348
1.551802635192871,-0.92824316,17.20792,-2.8435574,1.6164129,0.60403925,1.2935073
1.57183837890625,6.643792,23.58282,-2.3790214,4.0209885,-0.008051786,12.163024
1.5919036865234375,12.923102,25.938744,6.2867985,-13.763015,10.4408455,34.518127
1.6120021343231201,-8.08369,22.95645,-19.706118,2.1808076,8.700457,-5.3871226
1.6320784091949463,9.686041,42.868847,-10.591729,4.59315,1.9197773,12.382663
1.6521456241607666,11.043345,24.25718,4.23149,-17.23773,10.522288,31.590328
1.672450065612793,11.043345,24.25718,4.23149,-17.23773,10.522288,31.590328
1.6925501823425293,-10.091319,20.735493,-17.50387,-1.9953475,10.028099,-6.0433855
1.7126455307006836,6.10163,21.524248,-13.193735,5.796221,-2.6976454,1.6176212
1.7327053546905518,20.023785,17.7127,1.1223642,-16.109045,9.705266,31.42942
1.752793312072754,2.1966374,18.411175,-3.1639814,2.1450982,8.052903,2.751066
1.772939920425415,0.9244424,21.505383,-1.678537,-2.1336231,6.456225,9.279893
1.7929487228393555,2.3940506,6.2824726,0.39336067,1.2951758,4.0271754,6.8062854
1.8130102157592773,11.040799,42.453808,3.1466458,-27.341217,12.472879,36.35506
1.8332014083862305,11.040799,42.453808,3.1466458,-27.341217,12.472879,36.35506
1.8532757759094238,6.1461186,31.336964,-21.952465,-11.464643,13.07362,26.024794
1.8733489513397217,3.357586,2.1367664,-0.6758464,-4.6521955,4.1835113,9.2832775
1.8935432434082031,-4.1561337,16.963175,1.4491359,2.9408717,-2.2636137,3.1096957
1.9135422706604004,1.2104995,95.70834,-12.154659,-51.835014,18.519697,47.85787
1.9336178302764893,21.764679,25.998913,-15.561567,-13.295173,3.0369995,23.149221
1.9537107944488525,1.2472173,19.459059,-0.52644646,1.0372329,3.0395744,7.6830187
1.9738199710845947,9.836933,18.773537,0.5024702,-12.957952,4.048359,17.655716
1.993945598602295,9.836933,18.773537,0.5024702,-12.957952,4.048359,17.655716
2.01406192779541,3.7330806,9.859748,-2.3687055,-18.017502,9.618428,16.006516
2.0341458320617676,3.288583,6.0395193,0.23582977,-4.916206,0.4756926,5.51795
2.0542120933532715,1.0900849,6.809146,-1.6674376,-12.607403,4.8717284,8.664691
2.0743539333343506,1.7890114,4.0146255,1.1974968,-1.4975777,-1.2187973,3.479948
2.094437599182129,-3.119496,20.348873,-5.2271614,-15.685927,7.0971203,13.082524
2.114532947540283,8.866473,33.192436,-1.8936735,7.947722,1.2121946,10.969668
2.134610414505005,8.313966,31.068127,4.6872587,-18.205912,9.751947,30.295938
2.1548678874969482,-7.8346395,18.546606,-18.752087,4.287619,8.045725,-9.59255
2.1750664710998535,-7.8346395,18.546606,-18.752087,4.287619,8.045725,-9.59255
2.1951215267181396,10.990083,43.06146,-7.3407936,7.661648,2.5142095,13.09851
2.215179204940796,11.790059,25.560785,5.7902203,-10.993336,10.960517,31.629627
2.2352890968322754,-10.117937,18.003716,-16.130747,0.78026915,8.999746,-8.425067
2.2553980350494385,7.9300795,31.941952,-11.316006,8.025367,-1.5468212,6.3274155
2.275486707687378,17.274017,9.158903,3.8003492,-6.149692,8.480459,26.308935
2.295560121536255,-7.2793927,26.818497,-12.109399,6.5636916,5.2936873,-7.9962573
2.315615653991699,11.245623,47.211834,-11.456184,9.518531,3.0868323,8.444558
2.336725950241089,11.245623,47.211834,-11.456184,9.518531,3.0868323,8.444558
2.3568150997161865,12.165234,32.84824,0.6297485,-32.34609,10.841609,33.345776
2.376986503601074,5.324164,12.367759,-8.828737,-18.387983,7.409885,14.844005
2.3969860076904297,-1.9303737,17.954372,2.139311,-4.334504,4.122513,7.1637874
2.417041778564453,2.8987203,43.188976,-14.658635,-20.81817,8.894608,25.566006
2.4371161460876465,13.824996,23.697222,-6.232651,-17.15535,7.3323293,23.442448
2.457355499267578,3.032478,21.039682,-3.771997,-5.401318,5.2841754,8.267435
2.4773318767547607,3.9840693,4.6659403,-1.2729272,-5.768178,2.380441,8.642579
2.497382879257202,3.9840693,4.6659403,-1.2729272,-5.768178,2.380441,8.642579
2.5174872875213623,-1.5977966,1.3760027,1.3531258,-3.1537867,-0.64498025,3.5153468
2.537571430206299,-0.91458845,42.093655,-13.588462,-12.696381,0.08779177,17.253035
2.557708263397217,7.0086293,28.157892,-6.179649,-20.876389,6.140119,27.457256
2.578097343444824,6.428077,11.156025,-3.088666,-9.42198,4.0670753,8.874881
2.5979301929473877,0.7155288,17.196232,-5.3301444,-2.0259237,2.8757153,5.0776176
2.6183183193206787,1.2906905,7.256183,-0.34638613,-2.5770507,4.037016,6.072751
2.638230085372925,7.23458,27.311165,3.0443583,-15.243578,7.3960276,25.702051
2.65830397605896,-4.4942536,33.499584,-21.595917,-4.9553485,8.871536,15.032903
2.678445339202881,-4.4942536,33.499584,-21.595917,-4.9553485,8.871536,15.032903
2.6985392570495605,3.0536,27.943241,-5.831993,9.057052,0.13558045,6.505872
2.7185981273651123,14.78349,19.942806,6.2962933,-7.476335,10.061441,30.746838
2.7388064861297607,-8.910689,22.643364,-21.171387,4.872519,7.7544355,-10.148484
2.758833885192871,10.78132,40.586132,-7.7134695,5.0045037,1.8635956,12.833053
2.7789371013641357,12.623115,22.330889,5.380219,-13.14425,10.694672,29.89016
2.7989895343780518,-9.4943,19.750195,-17.856009,0.06726983,9.729111,-8.115685
2.819047212600708,7.730787,29.550913,-11.43597,8.0304785,-2.6756568,5.369438
2.839165449142456,7.730787,29.550913,-11.43597,8.0304785,-2.6756568,5.369438
2.8592255115509033,17.60874,7.935689,2.796249,-5.847457,7.974659,24.586243
2.8794140815734863,-3.951358,28.292915,-10.515031,6.9761825,5.4905267,-4.4452906
2.8994295597076416,12.862013,49.019115,-11.259581,8.932668,2.9673054,9.877524
2.919516086578369,13.013917,33.71788,0.4559073,-33.23651,11.138194,34.598404
2.939605712890625,5.796453,13.028284,-8.559288,-19.405777,6.3985105,15.260269
2.959676504135132,-1.6963451,17.764513,1.9895625,-4.37699,4.601848,6.9630857
2.980107307434082,2.6570404,41.179276,-13.184622,-21.908855,9.470575,25.560108
3.0002200603485107,2.6570404,41.179276,-13.184622,-21.908855,9.470575,25.560108
3.020263195037842,13.267636,24.138311,-6.08181,-18.299425,7.686325,23.804
3.0404582023620605,3.1484978,20.186825,-4.384677,-6.6299973,5.3998756,9.169731
3.0604889392852783,4.795246,5.2419295,-1.3412719,-6.3240523,2.20497,9.812816
3.08058762550354,-2.144612,2.1414819,0.029685194,-4.514152,0.4933332,3.792942
3.100675582885742,2.046611,25.72453,-3.6449063,-13.015515,-2.9990952,13.366301
3.120776891708374,23.626083,29.905926,-9.42334,-24.481829,11.659316,39.634384
3.1408629417419434,7.7793665,16.013891,-3.5326302,1.8701463,7.504042,5.341508
3.160926103591919,7.7793665,16.013891,-3.5326302,1.8701463,7.504042,5.341508
3.183375835418701,3.2406123,11.33832,2.8620057,-0.25412175,5.892566,8.407196
3.2035746574401855,-11.104617,16.824524,-8.892303,5.904219,2.4830801,-5.8082733
3.2290689945220947,11.883535,45.31757,-6.7843256,7.0364804,2.3307607,17.875996
3.2490930557250977,11.207511,30.813957,4.5735235,-19.929115,12.525305,36.53848
3.26918888092041,-7.6519947,19.66325,-17.867765,-2.2838273,10.839832,-4.1568956
3.289341688156128,7.0215135,22.196222,-12.958075,5.2109885,-1.8928901,2.8637946
3.3093409538269043,7.0215135,22.196222,-12.958075,5.2109885,-1.8928901,2.8637946
3.329460620880127,21.409771,21.442257,2.3346539,-18.629688,10.646907,35.01607
3.349684953689575,-1.3189142,20.43887,-10.838138,5.5368123,10.0014925,-3.358758
3.3696415424346924,8.613505,40.20393,-11.04966,10.53431,5.6032186,5.8267193
3.3899779319763184,18.720861,31.065964,4.0446806,-25.53221,13.248646,38.718082
3.410076379776001,-3.6936681,23.699268,-18.728241,-10.5249405,12.431076,4.4834185
3.430166721343994,1.5393834,13.282217,0.30577868,4.382878,-1.5374175,2.143573
3.450228214263916,23.309288,36.793995,-0.5065728,-29.626297,11.119492,44.84792
3.470278263092041,23.309288,36.793995,-0.5065728,-29.626297,11.119492,44.84792
3.490408182144165,6.6761527,10.855658,-7.816751,-13.261547,2.8752482,12.854329
3.510484457015991,-1.2412182,19.887575,1.224029,-2.0736642,4.371023,6.0771856
3.5305676460266113,1.8941838,36.20429,-8.006495,-19.294792,8.733056,20.37843
3.5506420135498047,11.607677,25.197285,-7.5938067,-20.323921,8.612247,27.371456
3.5707345008850098,1.5533226,8.70683,-4.837781,-15.165078,5.0898595,12.321235
3.5911736488342285,2.7771463,6.57065,0.85191995,-3.4700027,0.013222781,5.6262393
3.611027479171753,0.9181917,10.461996,-3.0639875,-13.233591,7.7110605,11.339927
3.6311826705932617,4.716794,7.9403963,0.37712136,-0.7657633,-0.39974466,6.587219
3.651287794113159,4.716794,7.9403963,0.37712136,-0.7657633,-0.39974466,6.587219
3.6713669300079346,-0.6610919,8.355273,-0.46367162,-10.206356,4.028743,6.0132113
3.6914572715759277,5.309844,12.423502,1.1226962,4.9953294,-0.6968959,3.3579857
3.7115228176116943,7.8839793,34.769726,3.248848,-22.917963,10.6804085,31.473118
3.7316198348999023,-3.8076856,20.441006,-18.07343,4.259915,8.6434145,-5.2866755
3.7516961097717285,11.794826,45.177,-7.1817374,8.443206,2.9863405,13.890947
3.7718539237976074,10.66496,25.030575,5.394929,-10.352236,10.616911,30.139914
3.791914939880371,-10.261365,17.82108,-15.381936,1.5855613,8.177272,-8.445877
3.8120036125183105,-10.261365,17.82108,-15.381936,1.5855613,8.177272,-8.445877
3.832089900970459,8.571717,34.09246,-10.011418,7.659655,-0.16611263,7.783973
3.8521947860717773,14.604573,12.065945,4.689097,-7.7155986,8.948009,26.593575
3.8722422122955322,-11.088464,21.11075,-14.083861,0.6318612,7.0542245,-8.769702
3.8923516273498535,5.4869056,31.67965,-11.989638,10.913972,-0.4744765,2.625651
3.912473678588867,18.427856,10.612975,4.248447,-7.725308,9.577375,27.597727
3.9326672554016113,-6.980313,29.272053,-14.287183,6.4440103,6.751689,-7.733206
3.9526302814483643,8.513637,45.11535,-12.126672,12.627665,4.2426157,8.057663
3.9728035926818848,8.513637,45.11535,-12.126672,12.627665,4.2426157,8.057663
3.992945671081543,23.402771,24.941124,5.960929,-17.583817,13.524334,39.51666
4.012960195541382,-7.420624,22.478655,-17.673622,0.057727363,11.945034,-4.6692133
4.033032655715942,7.513857,25.860046,-10.8249,-0.66363335,-1.4430825,8.836495
4.053170919418335,25.75566,25.463326,-7.2589254,-22.077297,13.202181,40.150524
4.07349419593811,4.161908,20.632603,-4.964513,-6.3945413,5.3632216,10.451517
4.093487501144409,0.68971467,8.221181,0.86719054,-4.8929286,2.1448371,7.8971367
4.113555431365967,0.030976506,14.583259,-2.8776934,-14.116965,4.2322383,14.876187
4.134234666824341,0.030976506,14.583259,-2.8776934,-14.116965,4.2322383,14.876187
4.154370069503784,8.129928,13.420371,0.016159529,-8.123998,-0.52589077,14.642035
4.174427032470703,5.6748304,7.884328,-3.5334253,-13.686205,4.6034465,10.236093
4.19451904296875,0.89069545,3.1706548,0.7637421,-7.830318,0.10795149,6.3535366
4.2148191928863525,0.21920487,13.343715,-8.105395,-8.556878,3.404185,7.967787
4.234807968139648,4.152284,20.290958,2.7800329,-5.3858495,2.8282983,15.743721
4.255053281784058,-9.484055,23.64213,-14.333608,-5.607748,7.00021,8.274713
4.275008916854858,3.606799,23.824661,-2.422062,10.226596,0.13888189,5.7823067
4.29505181312561,13.886198,17.647552,6.466108,-7.1194396,9.976318,29.790796
4.315364599227905,13.886198,17.647552,6.466108,-7.1194396,9.976318,29.790796
4.335451602935791,-9.807094,21.593636,-19.981833,4.8980546,7.0970006,-10.760905
4.355545520782471,10.28653,38.822773,-7.3462796,4.4913325,2.2614663,12.153601
4.375639915466309,12.511766,21.916283,5.6392226,-13.553187,10.704174,30.29651
4.3959574699401855,-9.6064825,19.200113,-17.256838,0.15914395,9.53172,-8.168115
4.415984153747559,7.3839192,28.716282,-11.052419,7.680043,-2.5321279,5.1608763
4.435957908630371,17.38709,7.418946,2.7757952,-5.881983,8.015569,24.457973
4.45636773109436,-3.707546,27.819395,-9.762326,7.077996,5.277346,-3.985697
4.476293563842773,-3.707546,27.819395,-9.762326,7.077996,5.277346,-3.985697
4.496378660202026,12.023287,47.44836,-11.160167,8.402165,2.6593597,8.975131
4.516482591629028,12.833777,33.90563,0.7585003,-33.32438,11.089222,34.597553
4.53654670715332,6.053444,13.416828,-9.256273,-19.307766,8.567141,15.757199
4.556627035140991,-1.6671436,17.671028,1.9975879,-4.653217,4.5989585,7.187016
4.576798439025879,2.7323058,38.940285,-13.029922,-20.02704,8.551352,24.098925
4.596868276596069,12.932473,25.145618,-5.732614,-19.084166,8.190988,24.95018
4.616919040679932,2.9715207,16.664268,-4.717013,-8.92228,5.3561378,10.391486
4.637038230895996,4.586401,5.5533967,-0.50261015,-5.806533,1.0017867,9.740979
4.6584792137146,4.586401,5.5533967,-0.50261015,-5.806533,1.0017867,9.740979
4.678513526916504,-1.9193307,1.21603,-0.3348471,-5.2679496,0.07345685,3.017518
4.6985814571380615,2.5172102,19.122267,-1.0595933,-3.8833778,-6.55885,8.796851
4.732331991195679,2.5172102,19.122267,-1.0595933,-3.8833778,-6.55885,8.796851
4.75764012336731,2.5172102,19.122267,-1.0595933,-3.8833778,-6.55885,8.796851
4.77774715423584,21.550322,25.508266,-5.9454775,-21.392729,10.381731,36.87324
4.797818660736084,7.351845,17.788513,-4.6248913,0.31646398,6.522778,7.298972
4.818212985992432,2.9488158,5.7208743,1.3744922,-4.391308,4.1252503,6.650225
4.83812952041626,-6.056858,10.11427,-3.9720814,-14.034972,5.3964405,2.8732824
4.8581862449646,8.493573,30.617878,-2.2859013,4.8637757,-3.197561,11.170151
4.8782570362091064,10.956693,25.567532,1.8851585,-19.93118,9.475661,30.160252
4.898345708847046,-0.54352593,16.37891,-13.128333,-1.7280154,8.523638,-0.74156004
4.9185168743133545,5.678817,16.993618,-7.4369473,5.979523,2.5274498,1.239813
4.938619375228882,5.678817,16.993618,-7.4369473,5.979523,2.5274498,1.239813
4.958714962005615,10.302264,29.205742,5.1775317,-19.369019,9.914813,31.6404
4.978830337524414,-8.502266,21.668339,-18.149767,0.69755125,9.088198,-6.066823
4.998870372772217,7.877899,38.267815,-11.097254,5.9690475,0.8525682,8.696872
5.01913595199585,13.178411,19.3325,4.3523345,-13.645672,10.589783,29.681587
5.039100170135498,-11.063231,20.31971,-15.94253,-0.85527754,9.250105,-7.1670766
5.0591912269592285,5.759898,27.625008,-12.301971,6.971584,-2.1475365,3.6054413
5.079267501831055,16.431862,8.492981,2.4748056,-7.938974,8.042126,24.20718
5.099388122558594,16.431862,8.492981,2.4748056,-7.938974,8.042126,24.20718
5.119470596313477,-3.4824102,25.776747,-9.216236,6.0061727,5.775242,-3.5868266
5.139563798904419,11.512229,49.20151,-11.31268,8.784891,2.5520413,8.590302
5.1596457958221436,12.941444,33.95898,1.0566419,-33.276806,11.263668,34.59858
5.179791688919067,6.5698404,13.863667,-8.984995,-18.498243,10.770884,16.411173
5.1998279094696045,-1.7321811,15.351648,1.9395664,-5.7431564,4.7433558,6.993625
5.2199578285217285,3.0416687,36.180553,-11.998574,-16.788551,7.0255733,21.677229
5.240251541137695,12.972531,27.542498,-6.6413436,-22.187174,10.059885,29.497942
5.260236740112305,12.972531,27.542498,-6.6413436,-22.187174,10.059885,29.497942
5.280303001403809,2.5965333,8.603535,-5.217015,-15.152568,4.8120093,12.484645
5.30067253112793,2.6366527,5.6977177,1.2071433,-6.457346,-0.45548275,7.739752
5.320577383041382,0.04748985,13.812512,-6.9113617,-16.58746,8.223911,12.083613
5.3414857387542725,4.5329676,7.3821993,0.8937177,2.7309875,-1.5002788,3.5993671
5.361539840698242,16.444838,44.25594,1.1041559,-35.962368,14.972864,44.6795
5.38164758682251,13.719391,14.222336,-9.251423,-6.878074,7.5427914,12.293697
5.401970386505127,-1.3341953,17.087994,0.90989876,2.126874,2.2877145,6.1769686
5.422050476074219,-1.3341953,17.087994,0.90989876,2.126874,2.2877145,6.1769686
5.442158222198486,4.8451414,51.89061,-2.818252,-12.778698,6.6104207,22.678562
5.46222710609436,15.27612,23.50666,-6.97474,-18.324518,8.931988,32.601437
5.483023405075073,3.443864,7.773616,-5.299284,-9.901774,2.2157018,9.56917
5.502596378326416,-2.2550576,10.720605,0.58332425,-2.0832827,2.4563758,4.4059258
5.522674083709717,1.1734288,40.79941,-8.897003,-5.5022435,-4.192002,13.373548
5.542803525924683,17.574287,22.433481,-7.1123548,-13.967078,5.463422,29.757294
5.562861204147339,3.5171747,9.669341,-0.57638747,0.4224477,4.3758273,5.0990353
5.5842859745025635,3.5171747,9.669341,-0.57638747,0.4224477,4.3758273,5.0990353
5.6041929721832275,1.5344912,9.443502,1.4509252,-4.2613077,3.7043273,6.5655622
5.624283075332642,-7.0661535,10.412023,-7.8902674,4.9968014,1.849909,-5.79356
5.6443891525268555,14.021575,52.41886,-10.273512,11.049303,-3.185666,16.3619
5.664438962936401,13.470502,26.022049,3.006612,-10.080442,9.871087,32.828484
5.68457293510437,-11.175248,20.260803,-16.6509,1.7054667,8.439821,-7.829917
5.704713821411133,8.950019,41.771336,-13.0556755,5.5307126,2.0750911,10.319528
5.724738836288452,12.475677,22.811275,5.2180057,-13.84389,10.589876,30.822647
5.744867324829102,12.475677,22.811275,5.2180057,-13.84389,10.589876,30.822647
5.7649641036987305,-11.693843,18.496452,-15.795299,-1.5934882,9.156313,-8.02982
5.785048484802246,5.479815,22.754074,-13.181674,4.96324,-2.1290262,1.9740708
5.805089235305786,15.823269,13.606159,0.5875917,-13.622271,8.171698,24.667606
5.825211763381958,2.5147448,19.95492,-1.5925127,0.47087243,7.2663183,4.2282796
5.84525728225708,0.111270875,14.013052,-0.35265094,-8.745471,5.2245374,9.149087
5.865357160568237,1.8416972,8.673733,1.9066306,-0.2923245,-1.8523334,7.0740523
5.885422229766846,-2.6292698,22.420162,-4.4310474,-28.275667,11.669781,20.635784
5.905534505844116,-2.6292698,22.420162,-4.4310474,-28.275667,11.669781,20.635784
5.925682783126831,8.092912,24.163834,-0.8031574,0.65091944,1.0455581,9.74448
5.946049690246582,13.666425,31.192215,-0.76933485,-25.661709,10.735372,37.359383
5.965905666351318,5.1993284,8.958075,-6.811016,-12.702488,4.64319,11.778405
5.986027240753174,-1.4521288,20.45122,1.2903658,-0.15790984,5.1719337,5.268524
6.006086826324463,1.3040242,55.21786,-9.079961,-24.369217,9.874596,27.693642
6.02616810798645,14.831824,17.56861,-9.67542,-9.3674,3.3774614,19.16407
6.046626091003418,0.5815098,21.775818,-1.998639,2.0178947,4.2142277,5.9280834
6.066718578338623,0.5815098,21.775818,-1.998639,2.0178947,4.2142277,5.9280834
6.086801767349243,7.553273,16.879246,2.318469,-1.3754125,4.7193294,14.835826
6.106884717941284,10.241416,17.264938,-4.4003534,-20.15105,12.266738,25.23461
6.126992225646973,5.564834,10.47259,-1.6533812,-6.933848,4.289353,8.090067
6.147054672241211,-0.8669094,17.097557,-3.7858257,-1.1748185,1.8788029,3.7540865
6.1671295166015625,3.748775,17.306137,-1.0380131,6.737391,-0.6236169,8.129177
6.192996978759766,3.748775,17.306137,-1.0380131,6.737391,-0.6236169,8.129177
6.2169859409332275,15.426324,24.547821,6.358002,-12.397315,10.922129,35.838604
6.237071752548218,-7.507074,24.830173,-22.20039,5.536412,8.134852,-6.723826
6.257362365722656,9.928374,45.511013,-9.134589,4.4314733,2.7253127,14.256547
6.277345657348633,10.836749,25.960747,3.58855,-17.671328,11.014288,31.497015
6.297637462615967,-9.479829,20.230703,-17.886446,-0.8990588,10.185727,-6.483168
6.3175153732299805,6.2539587,27.199955,-12.7391405,6.674452,-2.6940882,3.5488703
6.337759971618652,6.2539587,27.199955,-12.7391405,6.674452,-2.6940882,3.5488703
6.357744216918945,17.035233,11.867728,1.8735098,-10.2286005,8.186253,25.900463
6.377925634384155,-1.3249154,23.211985,-7.4851213,4.5498643,7.140795,-1.5939248
6.397969007492065,7.443949,38.524227,-9.334996,5.0224547,2.968325,6.5832405
6.418046474456787,14.25678,36.132072,2.0305378,-32.885006,11.240093,36.989563
6.438143014907837,6.2963247,21.173798,-13.393242,-18.395872,13.488846,20.723064
6.458230257034302,3.1597931,4.2870827,-0.3961051,-10.629071,2.51397,8.790118
6.4785475730896,-3.25904,16.028744,1.7958612,-0.25379702,1.352089,4.6549416
6.498837947845459,-3.25904,16.028744,1.7958612,-0.25379702,1.352089,4.6549416
6.518996715545654,-0.5236082,73.75498,-13.998858,-31.114319,5.671766,33.605457
6.539095640182495,15.210385,28.875916,-10.643806,-15.507966,3.3169048,31.269058
6.559248208999634,6.8661556,8.59622,-3.5767632,-9.69638,2.9178004,8.788344
6.579295873641968,0.060672253,18.59124,-0.8492922,0.7482004,4.3882837,4.0817747
6.599350929260254,5.612421,17.403988,0.49730915,-9.79062,5.2180805,13.935924
6.619541883468628,11.77933,26.071623,-6.8904166,-26.661747,14.326566,33.76675
6.639535903930664,5.9492216,9.965846,-6.679163,-13.493425,4.481403,12.122387
6.659728288650513,5.9492216,9.965846,-6.679163,-13.493425,4.481403,12.122387
6.679829835891724,-0.71915555,12.191902,0.26830184,-1.3293738,4.287345,4.993478
6.700005531311035,1.7023599,29.192017,-3.909682,-15.93326,3.5026479,15.071725
6.720064401626587,12.15824,26.687248,-7.1358395,-23.716293,10.088791,32.76067
6.740211725234985,6.565938,10.208394,-7.1509156,-11.217917,3.234055,9.401863
6.760262727737427,-0.82762384,21.16853,-1.2016464,4.6374526,3.4305778,3.038771
6.78036904335022,7.3341365,31.478052,2.4054153,-5.023993,5.630415,19.05592
6.800399541854858,7.4601903,16.790955,-5.0144877,-14.249155,9.869071,20.111341
6.821180105209351,7.4601903,16.790955,-5.0144877,-14.249155,9.869071,20.111341
6.841296195983887,5.4900556,12.03211,-1.5091647,-4.86278,4.900574,7.951072
6.861619710922241,-1.0755832,8.121941,-1.6658069,-5.2737365,1.7370099,4.883409
6.881547212600708,3.446511,17.71154,-1.5864087,0.37452033,-4.9526734,8.13024
6.901612281799316,16.537733,27.71341,-0.859124,-23.10263,8.813485,34.163006
6.921691179275513,9.957603,10.963864,-3.6913133,-4.8309684,3.304313,8.132919
6.941771507263184,-0.55481535,23.94375,-7.7667165,2.2550564,0.5353499,4.2735925
6.961855411529541,5.8559265,29.091198,1.2663132,3.063002,3.4477699,16.908094
6.982250690460205,8.188733,44.95234,5.1059446,-21.307446,11.80357,39.767994
7.002356767654419,8.188733,44.95234,5.1059446,-21.307446,11.80357,39.767994
7.022456169128418,-3.0842144,22.281628,-19.817781,-1.12223,10.83039,-0.34685948
7.04252552986145,7.807832,31.22226,-10.454475,7.934816,-1.5646449,6.6447854
7.062921047210693,16.061903,16.855873,4.746964,-8.779611,8.967103,30.683853
7.082781553268433,-10.401845,23.272633,-19.060598,2.1627965,7.6047506,-8.0274515
7.102898359298706,9.888352,39.868702,-11.233813,4.866581,1.0430021,11.078509
7.122949838638306,12.043738,19.017845,3.8281162,-14.737058,10.0043125,27.969707
7.143012762069702,12.043738,19.017845,3.8281162,-14.737058,10.0043125,27.969707
7.163229465484619,-11.076607,19.988565,-16.19532,-1.9202762,9.099355,-7.5370483
7.183241844177246,5.565997,18.805649,-12.61883,5.304004,-3.0675862,0.6637196
7.203309059143066,19.744812,17.49192,-0.24256092,-15.992175,9.324741,31.184002
7.223403453826904,1.5691075,15.64405,1.300861,-4.821769,6.9619136,6.647427
7.243475675582886,0.32417867,13.333491,-1.2933137,-15.138037,10.341261,16.828587
7.263578653335571,1.8047702,6.2238584,1.9916486,-0.35154435,-2.1248868,4.5077267
7.283663511276245,-6.580654,22.836628,-4.0554204,-23.919495,10.878704,17.457973
7.30403995513916,-6.580654,22.836628,-4.0554204,-23.919495,10.878704,17.457973
7.32416558265686,7.2470007,25.422523,-0.09567649,3.9368224,1.8959124,8.966263
7.344237327575684,13.428304,28.906654,5.8035464,-18.73027,10.618303,33.873077
7.364365100860596,-6.276804,18.168148,-17.61253,0.98519564,9.586665,-6.9581037
7.384446620941162,8.541325,33.88006,-10.530022,10.98697,-0.4199876,6.1570425
7.40481162071228,16.322487,13.96996,5.4358015,-6.256486,9.384132,28.297623
7.4247658252716064,-11.088687,20.945421,-15.485326,1.6364179,6.830296,-10.0035095
7.445207595825195,6.8101983,34.2323,-11.13471,11.029707,0.7908798,4.709109
7.4655985832214355,6.8101983,34.2323,-11.13471,11.029707,0.7908798,4.709109
7.485473155975342,17.275381,16.462324,5.6806803,-10.096921,10.453646,30.755634
7.505534887313843,-10.68797,21.379576,-15.962917,1.140182,8.157819,-9.208997
7.5255982875823975,6.405246,31.38681,-12.169551,10.214955,-0.5530141,4.14526
7.545722484588623,20.3365,11.758803,4.3085923,-9.088361,10.305212,30.469528
7.565779447555542,-6.0652103,29.95587,-14.425523,6.540505,7.5957913,-7.0869856
7.5859010219573975,8.983789,43.685497,-12.209678,12.755931,4.2130513,8.134027
7.605919361114502,24.144848,26.3522,5.957002,-19.738506,14.134508,41.305256
7.626181125640869,24.144848,26.3522,5.957002,-19.738506,14.134508,41.305256
7.646282196044922,-6.217859,23.42564,-18.259686,1.3716035,12.459609,-4.683831
7.66637110710144,8.079015,28.928787,-8.843707,-2.8948092,-0.5193307,12.771226
7.686469316482544,22.06471,24.540657,-9.791804,-23.43637,15.526106,41.39237
7.706758499145508,3.1616654,24.293274,-7.163901,-9.6605015,6.2974424,14.136161
7.726943731307983,5.2326374,6.3470263,-1.2256945,-6.8958,2.973735,11.964705
7.74695611000061,-1.3967462,9.586245,1.5799874,-4.277678,3.0776594,4.68247
7.767018795013428,-0.39231947,40.5962,-10.298919,-23.747047,6.712253,23.495304
7.78712272644043,-0.39231947,40.5962,-10.298919,-23.747047,6.712253,23.495304
7.807242155075073,12.435081,31.406612,-5.615326,-18.239895,2.6100464,27.762283
7.827362298965454,4.09922,9.971502,-6.7217155,-12.924245,1.8866895,11.34239
7.847432374954224,0.030747147,8.382226,0.45928055,-4.8640924,4.5880995,4.755723
7.867522239685059,0.9219972,18.317924,-3.1803827,-16.507652,6.416908,12.153531
7.887591600418091,8.573571,28.496151,-4.6715627,-22.335558,7.8317075,28.4924
7.907689571380615,3.635914,10.878508,-4.7648,-15.630047,6.240604,11.859657
7.927775859832764,3.5467525,8.182429,-0.43898398,-2.3177743,2.7565138,5.1155405
7.947948694229126,-0.759897,5.002215,-0.024263864,-8.788586,2.430182,5.295784
7.968052864074707,-0.759897,5.002215,-0.024263864,-8.788586,2.430182,5.295784
7.988203763961792,5.8037324,16.173204,0.0146302525,8.41241,-2.977206,4.612913
8.008249521255493,9.834943,24.320438,4.462058,-12.241506,8.871099,27.757288
8.028324604034424,-10.442488,21.871698,-20.725374,9.283197,5.4224367,-12.525697
8.048424005508423,10.313891,45.417686,-8.734488,10.601169,1.1194044,12.145792
8.06850528717041,11.553058,26.031403,5.2873816,-9.651092,11.146001,30.980392
8.088573932647705,-10.6411915,18.721422,-16.642536,2.3856416,8.370457,-9.007997
8.108735084533691,9.410037,40.43488,-10.288737,6.2890134,1.5579367,10.445511
8.128799438476562,9.410037,40.43488,-10.288737,6.2890134,1.5579367,10.445511
8.148903369903564,12.372199,18.73286,5.170434,-10.972348,9.806467,28.515331
8.169225931167603,-12.271169,19.333303,-15.430854,-1.3444676,8.354204,-8.510807
8.189156770706177,5.140956,22.044786,-12.920137,6.034696,-3.0145967,1.2704421
8.209256887435913,17.523335,9.657617,1.1908492,-9.272987,8.154765,24.788723
8.229321002960205,0.9071489,21.479801,-3.5790699,3.0000367,6.566834,1.8459797
8.249410390853882,2.549393,27.5858,-1.9829062,-2.329847,6.83048,10.834716
8.26951551437378,4.8554087,4.849476,-0.33477098,-1.2104943,4.343784,10.013414
8.289952754974365,4.8554087,4.849476,-0.33477098,-1.2104943,4.343784,10.013414
8.310047149658203,3.0510082,4.1625147,1.4350535,-4.8661685,0.38704607,9.606069
8.330139398574829,-2.9534376,12.476476,-6.5270243,-17.699982,9.170706,10.75851
8.350252628326416,7.042528,23.867594,-1.0646378,2.1689353,-1.7135059,8.368597
8.370316982269287,19.763124,29.511526,0.59764904,-25.326626,11.111329,39.113422
8.390419244766235,8.4180355,10.445083,-7.016991,-8.338971,5.3206677,10.0489645
8.410496473312378,-1.5760772,20.223083,0.030565316,1.2656379,3.0827086,5.158286
8.430554866790771,3.4141536,42.200436,-2.803128,-26.511211,6.516313,22.589779
8.450607061386108,14.8282,22.354067,-8.261954,-21.241808,10.396665,32.228397
8.470712661743164,14.8282,22.354067,-8.261954,-21.241808,10.396665,32.228397
8.490957736968994,4.3864393,6.2023764,-4.7407675,-5.434734,3.8472962,8.056777
8.510989904403687,-1.8119893,16.70428,0.019956911,2.573204,2.616656,3.884222
8.53106427192688,4.101653,52.802097,-2.3970733,-31.179245,7.4835234,28.925484
8.551174640655518,16.380352,20.557678,-9.546714,-18.03575,9.633283,28.913303
8.571228504180908,5.1243954,11.083337,-2.3779597,0.11535695,5.7720103,6.6725006
8.591318368911743,-0.5992646,21.156883,-5.127888,3.5099561,1.9500211,4.45899
8.61141300201416,-0.5992646,21.156883,-5.127888,3.5099561,1.9500211,4.45899
8.631570100784302,8.090621,33.43238,4.0641665,4.4625545,3.5946612,19.227684
8.651731729507446,-0.15082243,25.251884,-2.0440917,-18.866184,3.3696275,26.161835
8.67206335067749,7.153185,13.772236,-5.0622582,-4.7594504,-1.0581158,9.306765
8.691904544830322,5.6281185,5.355764,-1.5143509,-6.7007165,0.44168457,6.4562445
8.712002515792847,-0.45648482,1.9009684,-0.33606225,-5.7564716,0.30362555,4.590531
8.732194185256958,2.406416,7.5592666,-0.3315612,0.3715494,-3.0991006,2.710569
8.75222134590149,17.154541,31.58136,0.14654368,-24.154795,11.304701,39.224075
8.772560119628906,17.154541,31.58136,0.14654368,-24.154795,11.304701,39.224075
8.792642593383789,10.379157,11.522403,-4.377915,-5.8280883,4.2843447,9.142968
8.81270170211792,0.09830734,23.258648,-5.2743034,1.3235676,1.4557158,4.8491855
8.832934379577637,4.1118336,24.596718,-0.037440844,1.5318522,4.37736,13.305872
8.852938652038574,8.055334,32.77188,5.095491,-19.368847,10.468554,32.332813
8.873017311096191,-7.624553,22.09324,-20.309078,4.7453074,7.8884387,-6.602389
8.89303970336914,11.031311,49.076168,-10.025097,7.156532,2.3737764,14.117572
8.913368701934814,11.031311,49.076168,-10.025097,7.156532,2.3737764,14.117572
8.933382987976074,10.021337,27.788715,3.7047856,-16.405956,11.212257,31.231552
8.953479290008545,-9.654512,19.398726,-17.445704,0.64425325,9.6225,-7.367237
8.973548650741577,8.060162,35.17185,-12.747876,7.954005,-1.9381598,6.523802
8.993666410446167,16.375116,11.416528,2.2856615,-8.489994,8.222259,26.025875
9.013763427734375,-4.1098943,21.296291,-7.5683928,3.546969,6.662795,-3.7986815
9.03381896018982,11.529378,50.982662,-11.83704,8.252754,2.786095,8.7184
9.053901195526123,11.757168,33.14807,0.25808924,-32.46473,10.695822,32.756836
9.073991775512695,11.757168,33.14807,0.25808924,-32.46473,10.695822,32.756836
9.094086170196533,5.402515,11.689065,-7.3992205,-17.655174,5.6539655,14.949042
9.11416745185852,-1.699487,18.138649,1.8313658,-2.5293689,3.9638574,6.37622
9.134234189987183,2.2484925,42.701527,-12.441969,-22.185575,9.58284,25.667393
9.15433406829834,12.6382675,22.493523,-7.009478,-17.08845,7.3720465,22.648499
9.174413204193115,2.29995,18.194487,-3.8962166,-6.0285497,5.1738057,8.189656
9.194514513015747,2.5642827,3.8220453,-0.6064709,-2.6855936,1.6431392,7.0489373
9.214725732803345,-1.3071678,2.3351064,1.4812937,-0.4208102,0.69707173,2.748234
9.235028266906738,-2.5627868,57.300953,-11.061358,-25.08553,3.181299,26.9202
9.255157470703125,-2.5627868,57.300953,-11.061358,-25.08553,3.181299,26.9202
9.275220155715942,4.6500454,39.77869,-9.05454,-16.935513,-0.2063295,32.23216
9.29532790184021,7.9814262,10.121757,-6.285761,-2.2169232,4.4719143,8.706084
9.315390348434448,0.31829306,14.333387,0.6365664,2.065372,5.0562415,3.9325244
9.335469722747803,6.182914,31.574543,1.894456,-16.540934,7.439503,20.746553
9.355562210083008,8.711114,13.861787,-5.5554895,-14.758172,10.538543,21.462729
9.381019353866577,8.711114,13.861787,-5.5554895,-14.758172,10.538543,21.462729
9.406730651855469,3.6976204,8.539634,-1.2090758,-5.445068,4.0180035,6.3322906
9.446510076522827,3.6976204,8.539634,-1.2090758,-5.445068,4.0180035,6.3322906
9.467891216278076,3.6976204,8.539634,-1.2090758,-5.445068,4.0180035,6.3322906
9.487990617752075,-2.317414,9.994548,-2.0979297,-4.6352487,1.437725,4.1003437
9.508076906204224,4.7369595,20.676928,-3.2997959,7.4200225,-7.9959064,8.219875
9.528215408325195,17.63245,22.490643,5.3336844,-11.018926,10.500284,35.851948
9.548276901245117,-8.265435,23.617163,-22.04064,6.1461616,7.13569,-8.57665
9.568303346633911,-8.265435,23.617163,-22.04064,6.1461616,7.13569,-8.57665
9.588483572006226,10.113921,43.39917,-8.475477,4.3933444,3.0772746,13.854658
9.60852336883545,11.634254,25.78849,4.4651365,-16.740656,11.227987,32.07604
9.628599882125854,-9.486186,19.177147,-17.547415,-0.63000727,9.813526,-7.162669
9.648688554763794,6.585156,27.996443,-12.411586,6.49177,-2.2965417,4.4104147
9.669119358062744,15.467678,11.170068,1.7211099,-10.53456,8.233672,24.769047
9.68898057937622,-1.1568182,21.77641,-6.3265867,3.3964753,7.138512,-1.106632
9.70903730392456,5.8737164,38.074192,-8.538407,3.534977,2.7107193,6.252743
9.729806661605835,5.8737164,38.074192,-8.538407,3.534977,2.7107193,6.252743
9.749915361404419,13.0556755,30.929096,1.6036236,-30.200315,10.174463,32.52294
9.770028114318848,5.3125024,16.188858,-10.250223,-17.29643,11.7745,15.813022
9.790099859237671,1.7945875,4.0491724,0.0894398,-9.712311,2.360047,7.1228414
9.81016230583191,-3.7451417,11.908501,1.3297352,0.91317844,-0.5054167,2.8994055
9.830257892608643,-0.74040294,77.08203,-12.083791,-38.43933,9.46586,36.238987
9.850334167480469,15.160459,27.564379,-11.417562,-11.9865,1.3667982,28.584625
9.870452880859375,5.995734,8.149556,-3.5327816,-8.837866,3.3177485,8.315064
9.890510559082031,0.06840202,18.95017,-1.1225187,0.39642194,4.3530593,3.990655
9.910618782043457,0.06840202,18.95017,-1.1225187,0.39642194,4.3530593,3.990655
9.930697917938232,5.1400046,17.88653,0.05614113,-11.285937,5.6195292,13.691544
9.95078992843628,13.128488,27.100893,-6.5753427,-27.19778,14.013923,35.93703
9.971230745315552,5.1708283,11.61676,-6.6951966,-16.61296,5.3285418,13.840784
9.991342306137085,2.7913072,10.244787,-0.9999171,-5.482313,3.3700895,5.395328
10.011442422866821,-0.30928352,5.373993,-0.81171024,-10.068575,3.3533053,8.0911875
10.031726121902466,4.5618386,13.9095745,0.031321697,6.6567545,-2.281901,4.400126
10.05169677734375,10.141049,27.350574,4.457946,-14.792091,8.81481,28.833782
10.071773767471313,10.141049,27.350574,4.457946,-14.792091,8.81481,28.833782
10.09188961982727,-8.814365,21.80896,-20.700306,8.817531,6.3852086,-10.753569
10.111991882324219,11.08988,46.960934,-8.505542,10.611927,1.334767,13.236376
10.132086277008057,11.031406,27.855652,5.1706805,-10.465867,11.22344,31.506407
10.152467966079712,-10.106862,18.42934,-16.42089,1.9458442,8.915683,-8.251971
10.172358989715576,9.527068,39.489677,-10.815862,7.187635,0.7499367,9.641453
10.192473888397217,13.388793,17.144829,4.788801,-10.067061,9.483651,28.270302
10.212578535079956,-12.164021,19.935175,-15.500293,-1.2330985,8.111214,-8.345548
10.232797384262085,-12.164021,19.935175,-15.500293,-1.2330985,8.111214,-8.345548
10.252926349639893,5.397725,23.012045,-13.051848,6.140118,-2.7718344,1.7156502
10.272990703582764,16.457249,8.904506,1.2566501,-8.772511,7.8226533,23.656345
10.29305911064148,0.56388754,21.706322,-3.6619773,2.9850583,6.183823,1.7307348
10.313156604766846,3.4243581,28.525646,-2.2972367,-1.9210458,5.993958,10.2162485
10.333251237869263,3.8918915,5.644553,-1.3288314,-5.5973773,4.8026195,10.217288
10.353420734405518,0.76877344,4.000498,1.8327945,-4.4386816,0.45510623,9.228444
10.3734610080719,-2.930669,21.814215,-14.655383,-9.561735,5.2513895,11.0962
10.393785953521729,-2.930669,21.814215,-14.655383,-9.561735,5.2513895,11.0962
10.413889646530151,3.163757,21.638083,-1.6049511,6.1659636,-3.328704,9.320484
10.434221744537354,23.836117,35.20374,1.067454,-29.382133,13.910358,45.39368
10.454213380813599,10.918617,12.790773,-9.670799,-7.401615,7.8084054,10.850936
10.474277019500732,-1.2518333,19.906013,0.55949676,0.8189721,3.2840083,6.4216223
10.494378089904785,2.9458296,44.7816,-4.3492193,-22.8735,6.071587,21.876286
10.514476537704468,15.578428,22.650219,-8.34563,-20.904978,10.294933,33.356274
10.534520387649536,3.5689306,7.730754,-6.1097813,-10.413132,3.1246083,10.234595
10.554626226425171,3.5689306,7.730754,-6.1097813,-10.413132,3.1246083,10.234595
10.574699640274048,-1.8212712,12.856849,0.34277257,-1.065772,3.3876371,4.465582
10.59511113166809,0.58639693,40.38492,-6.3697634,-16.632114,0.9846075,17.028294
10.615045070648193,12.624419,25.134682,-7.3665085,-20.390694,6.804914,32.04785
10.635088205337524,7.307023,9.425723,-3.7523928,-6.742622,4.522866,7.309352
10.655194997787476,-0.44131824,25.02872,-5.808631,3.8011742,2.894407,2.8377595
10.67528510093689,6.6104574,26.062683,2.4862766,-0.9997792,5.650744,16.855686
10.695339679718018,4.882984,17.495724,-4.0496187,-16.47033,7.387693,21.592773
10.715791702270508,4.882984,17.495724,-4.0496187,-16.47033,7.387693,21.592773
10.735911130905151,5.713867,8.625213,-1.7896715,-8.867279,1.1710765,9.021195
10.755993127822876,-0.106215596,20.736988,-3.6467798,3.0321307,1.9481276,2.083513
10.776069402694702,7.8153977,22.978102,2.0881,-1.6341443,4.3344054,15.915832
10.79621434211731,11.614144,16.845264,-3.6291537,-17.078962,11.075794,25.867664
10.816283226013184,6.9806347,7.8306627,-1.7756504,-8.355298,0.91789347,8.568568
10.836379289627075,0.7768926,22.144638,-4.687387,2.6481922,0.7434774,3.1879454
10.856431007385254,9.101992,15.870721,3.5177798,4.151646,1.591854,14.458733
10.876776695251465,5.1835785,29.730053,0.76821923,-21.751366,6.729304,33.13094
10.89688777923584,5.1835785,29.730053,0.76821923,-21.751366,6.729304,33.13094
10.916970014572144,6.350656,14.8155775,-7.463845,-12.575883,4.858701,12.010655
10.937070846557617,-1.065037,11.644048,1.3046583,-3.3384204,0.9462003,7.0557065
10.961366415023804,2.4278693,32.8631,-11.26273,-12.725913,3.2723973,15.082416
10.984963417053223,11.128943,26.345943,-8.050604,-22.666218,10.625105,31.62834
11.005088329315186,11.128943,26.345943,-8.050604,-22.666218,10.625105,31.62834
11.025148153305054,2.2341988,12.234211,-5.1213655,-18.682487,5.1060786,14.363082
11.045207262039185,3.9127572,8.366992,-0.19248968,-4.330852,0.9286781,5.393761
11.065348863601685,-0.46257046,4.9998837,-0.24524432,-10.476962,3.3959517,6.098506
11.085606098175049,5.58118,13.073939,1.0476884,7.1269436,-3.6460028,4.0910754
11.105632066726685,6.8222737,36.314835,3.7014546,-19.450768,8.779898,30.761415
11.125717639923096,-4.335925,20.56099,-18.470858,5.5814595,8.177413,-5.8525796
11.146516799926758,-4.335925,20.56099,-18.470858,5.5814595,8.177413,-5.8525796
11.166587352752686,12.470437,45.022163,-7.067566,10.309338,1.8253292,13.490169
11.186709880828857,10.134547,26.635712,5.5258436,-10.3903,10.695748,30.464611
11.206776142120361,-9.472539,17.87467,-15.927249,2.3616843,8.318792,-8.175226
11.226876258850098,10.048206,38.309788,-9.170117,7.629151,0.5989419,10.06101
11.246939897537231,13.280196,15.2832365,5.098213,-8.515403,9.09161,27.61469
11.26703929901123,-12.157307,20.042017,-15.060779,-1.2093959,7.540839,-8.270961
11.287108421325684,5.42502,21.593182,-12.782556,6.3829794,-3.0656414,1.3046738
11.307512521743774,5.42502,21.593182,-12.782556,6.3829794,-3.0656414,1.3046738
11.327611207962036,17.240936,8.236874,1.5719666,-7.9904685,7.9541855,24.246672
11.347740411758423,0.037882894,22.709427,-4.4912367,4.0393243,5.970645,1.0149338
11.368046045303345,3.917285,29.17394,-3.786467,-1.1802282,4.47014,8.154315
11.388267993927002,0.77013075,5.423607,-0.060362764,-9.689002,5.11457,7.012967
11.408292770385742,6.101703,5.099061,2.4598398,-4.7112164,1.3819767,12.110306
11.428375244140625,-14.650296,17.651012,-11.704558,-9.893634,5.4439063,-3.0579185
11.448475122451782,7.590294,24.293097,-14.443435,4.123426,-0.027363453,4.5740175
11.468549013137817,7.590294,24.293097,-14.443435,4.123426,-0.027363453,4.5740175
11.488710880279541,15.830576,20.432657,4.5485926,-17.042824,11.441309,32.154766
11.50879454612732,-8.70131,22.666422,-18.300915,4.527824,8.80275,-9.560986
11.528878450393677,10.069581,36.127064,-7.597889,2.3138742,2.10019,12.629878
11.54898452758789,15.050928,24.301357,3.4966273,-20.696297,11.5198555,34.393974
11.569335699081421,-9.0735235,19.22981,-16.410608,-2.277886,10.6271305,-6.155776
11.58924150466919,6.502181,16.890509,-12.2096405,5.154835,-2.930692,1.0403666
11.609307527542114,23.420681,23.281025,-0.87960654,-21.286245,10.657167,37.945618
11.629396438598633,23.420681,23.281025,-0.87960654,-21.286245,10.657167,37.945618
11.649503231048584,2.2622843,13.761415,0.4647867,-6.4643216,7.690512,7.398018
11.669587135314941,0.17726919,5.9980793,-0.42121524,-11.058552,5.78518,10.123441
11.68969464302063,0.7601813,3.8621974,1.5832819,-1.9136796,-0.37416938,2.6113076
11.710086584091187,-1.6278129,18.261045,-6.939201,-15.478694,6.9456954,15.223029
11.730150938034058,1.5722015,15.788579,-0.8764741,5.761247,1.4828869,4.030917
11.750218629837036,10.79806,25.906166,6.131031,-15.546512,9.330472,29.812922
