liuyurong129/humanoid-gym/humanoid/data/robot2_actual_20250621-220945.csv
timestamp,joint_1,joint_2,joint_3,joint_4,joint_5,joint_6
0.0008935928344726562,0.0,0.0,0.0,0.0,0.0,0.0
0.02096724510192871,0.0,0.0,0.0,0.0,0.0,0.0
0.04106926918029785,0.0,0.0,0.0,0.0,0.0,0.0
0.061475276947021484,0.0,0.0,0.0,0.0,0.0,0.0
0.08151817321777344,0.0,0.0,0.0,0.0,0.0,0.0
0.10150766372680664,-0.07078858615654188,0.01699999855593989,0.023717224597930905,0.04335822563525676,-0.09981427080634486,0.00436434853520286
0.12160277366638184,-0.1344983137604484,0.032299998865361855,0.04506272673606872,0.08238065191508155,-0.18964767783139336,0.008292247746494244
0.14176249504089355,0.28815636466363503,0.05846300017138496,0.019970814947869262,0.6291283280512161,0.17698538352347512,0.5784264825232472
0.16174960136413574,-0.3546592617130152,-0.18977467156761005,-0.0003536398922258967,1.0719937953118528,0.4739577665452527,1.0402356000131123
0.18182611465454102,-0.8838740127414123,-0.12141746655630357,-0.01681644831270298,1.430715178640229,0.7145072489570965,1.0378325155195411
0.2029430866241455,-1.3125379826306336,-0.10558539932004055,-0.03015132313328941,1.7212792025094168,0.9093582899519546,1.4123543902493085
0.22303462028503418,-1.3288851282005143,-0.20592959838372804,-0.03583619081996047,1.8451507377038434,0.9924253750729024,1.572019387249712
0.24311280250549316,-1.5232377864845303,-0.24961552003875853,-0.045557314564167985,2.056972820405967,1.1344627576683193,1.6413621370812284
0.2635178565979004,-1.8304226203501708,-0.16988853650084434,-0.05343142479697607,2.228547173270642,1.2495160005359902,1.2959961968324134
0.2838103771209717,-1.9613803480849468,-0.1358996170726865,-0.05678820409102291,2.301692455943578,1.2985643422275124,1.0453931399667131
0.30388402938842773,-2.1853180982382243,-0.07777864853203026,-0.06252844531372856,2.426769864775853,1.3824379328433407,0.3787271573182628
0.324237585067749,-2.366707665723891,-0.030700618853239384,-0.06717795478246022,2.5280827659829104,1.450375167594359,-0.26004544110483097
0.34420180320739746,-2.513633220703064,0.007432520825490008,-0.07094414337379278,2.610146517587836,1.505405067511657,-0.7823464058237111
0.36420345306396484,-2.6326410975994485,0.03831936605306378,-0.07399478051812014,2.676620011530319,1.5499811394411107,-1.205411001403669
0.38430166244506836,-2.683376965335572,0.0514873352443013,-0.07529530246630813,2.7049605966575827,1.568983025897242,-1.385770740508064
0.404371976852417,-2.770135338108545,0.0740047254863572,-0.07751919499770958,2.753418532578121,1.601476190515217,-1.6941844464273297
0.4244687557220459,-2.840409609939484,0.09224376105442529,-0.07932054794814476,2.7926709177979223,1.6277955420897288,-1.9439999480364456
0.44454383850097656,-2.8703686425188986,0.100019351549042,-0.08008849315333029,2.8094047973794987,1.6390159146677512,-2.050500210260387
0.46465444564819336,-2.9215985895841508,0.11331561366018424,-0.08140167945419755,2.838019688272545,1.6582027751521318,-2.2326156134356374
0.48478245735168457,-2.9630948024893606,0.12408550486860985,-0.08246535769111167,2.8611989890197003,1.6737438494232322,-2.380129396263241
0.5049419403076172,-2.996706771739392,0.13280919591300852,-0.08332693911720564,2.879972741433496,1.6863323847419973,-2.4996151556738773
0.525212287902832,-3.011036093613818,0.13652826951344227,-0.08369424520548507,2.88797567615896,1.691699136877911,-2.546778139264545
0.5453386306762695,-3.0355392198825033,0.1428877779805608,-0.08432233861644291,2.9016640054747254,1.7008761929524197,-2.631203007642267
0.5654423236846924,-2.7126519622460856,0.1480390848011597,-0.08483109427931874,2.9127483210515988,1.708309700217392,-2.3356494777310957
0.5855183601379395,-2.173622157313493,-0.16078825272426198,-0.08524318636624818,2.92172335454247,1.7143309508821616,-1.6689823320819221
0.6061668395996094,-2.1036457897388163,-0.37963848445024145,-0.08557697794887266,2.928995917179401,1.7192080701134405,-1.4935273725460902
0.6265287399291992,-2.2072812106113164,-0.3246746359825778,-0.08571927981173118,2.932096325461461,1.7212872631392162,-1.6356179113708955
0.646543025970459,-2.183395068856635,-0.23068644628902635,-0.08596261664750225,2.9373977262158713,1.7248426637743928,-1.859099209876124
0.6665644645690918,-2.2063371213483425,-0.1545560214909622,-0.08615971948447683,2.9416921581310653,1.727722557652328,-2.077580359983069
0.6867940425872803,-2.38373306830712,-0.09289037731940372,-0.08631937278242623,2.9451706451984716,1.7300552715897386,-2.2545500911307665
0.7068798542022705,-2.459359761491726,-0.06660133948758316,-0.0863874355041836,2.946653577431563,1.7310497443428876,-2.329995081513284
0.726994514465332,-2.5886813969017117,-0.02164716798001615,-0.08650382275838872,2.9491920876471998,1.7327505090093578,-2.4590063641924593
0.747236967086792,-2.693431922151647,0.014765714509996558,-0.08659809643429486,2.9512481599716516,1.7341280830441317,-2.563505494016712
0.7674837112426758,-2.778279857066036,0.044260229760039765,-0.08667445811177885,2.9529109770685857,1.7352437471727586,-2.6481494452806387
0.7876861095428467,-2.8144518713968427,0.05683420710375007,-0.08670701230060096,2.9536198690438544,1.735719372477381,-2.684234499216026
0.8078112602233887,-2.8763060159583604,0.07833570884568906,-0.08676267996348677,2.954832058678256,1.7365326923580753,-2.7459399389756216
0.8279266357421875,-2.926407872851769,0.09575192343937321,-0.08680777077042429,2.9558139909214423,1.7371914810819002,-2.7959213538160417
0.8572921752929688,-2.966990376773641,0.10985905568319743,-0.08684429432404367,2.9566094069484303,1.7377250992725295,-2.8364063072305843
0.8771762847900391,-2.984291338919162,0.11587314836039127,-0.0868598648916393,2.956948522884326,1.7379525888219125,-2.8536656846281967
0.897244930267334,-3.0138759841003786,0.12615724589659663,-0.08688649056222783,2.957528441575215,1.7383415953042598,-2.8831792243228027
0.917250394821167,-3.0264883854281908,0.13054151862577842,-0.08689784150600505,2.9577756840074336,1.7385074345812952,-2.8957613142766387
0.9373579025268555,-3.0480555908025813,0.13803861551070978,-0.08691725161986408,2.9581987748359264,1.7387910158849316,-2.9172767313063908
0.9574191570281982,-3.0655250258462834,0.14411124996147617,-0.0869329738120899,2.9585419317861565,1.739020708167682,-2.6061281181507847
0.9778702259063721,-2.398858366992455,-0.4456698271182834,-0.08694570878779281,2.9588169889957268,1.739206750863106,-1.9394611506789834
0.9976513385772705,-2.367330512824814,-0.328692384118546,-0.08695602411811218,2.9590355110726927,1.7393568907797332,-1.2732607781137468
1.0177533626556396,-2.0339971688164398,-0.5918231986538615,-0.08696042170630096,2.95913378691682,1.7394213472475197,-0.939927707546953
1.0378644466400146,-1.8445974998631636,-0.728776668045999,-0.08696794158210377,2.959293125325874,1.7395306629004996,-0.35847750147045915
1.0579543113708496,-1.6408044351620876,-0.8710090687500481,-0.08697403268150405,2.959425919175724,1.7396196423504189,0.1792444828765539
1.077974796295166,-1.4907240444025491,-0.9549172547465975,-0.08697896647201828,2.9595302542110935,1.739691442699461,0.5232193261866315
1.0982906818389893,-1.655651658301262,-0.8424254992174245,-0.08698106982481645,2.959575618466358,1.7397221393113713,0.578118315558912
1.1184279918670654,-1.937677827961731,-1.0689166600952853,-0.08698466655810132,2.959657424121397,1.7397750073874998,1.039985714774617
1.1384997367858887,-1.3949720913523507,-0.8335224732905792,-0.08698757991206206,2.9597214918469295,1.7398176134828662,0.9625218949788655
1.1585824489593506,-1.7265274032818572,-0.9134127876388298,-0.08698993972877027,2.959773462784515,1.7398521467771686,1.1858933918315264
1.1787126064300537,-1.6831305343566096,-0.707564343375873,-0.08699185118030392,2.9598159906789223,1.7398801516508469,0.9297282732147958
1.198822021484375,-1.8288174930556027,-0.6198078776992937,-0.08699266606227353,2.9598330586728783,1.7398919688139463,0.5963951177043305
1.2189264297485352,-2.0779422093366486,-0.4697442472710781,-0.08699405951044155,2.9598596391784913,1.7399118994191136,-0.06414367910869595
1.2391648292541504,-2.27973320965332,-0.3481927578798212,-0.08699518820345765,2.959883333913824,1.7399283446935843,-0.6236659568854157
1.2594797611236572,-2.365759905616862,-0.29637340178363436,-0.08699566938311189,2.95989221402389,1.7399352938779638,-0.8621989559430034
1.2795867919921875,-2.5128655362570163,-0.20776238922531023,-0.08699649220032063,2.959910444429106,1.7399474562544581,-1.2700908211965318
1.2996692657470703,-2.632021096680987,-0.13598748688123088,-0.08699715868225971,2.959925875901453,1.7399576643715893,-1.6004832154105304
1.3197650909423828,-2.7285370832489177,-0.07784992134849752,-0.08699769853263037,2.959941850006273,1.7399660382166289,-1.8681015754383843
1.3398346900939941,-2.7696833691046083,-0.053064981749103166,-0.08699792867936733,2.9599493892840534,1.7399696037298145,-1.9821916194710174
1.3599159717559814,-2.8400435146384018,-0.010682762833778843,-0.08699832223028753,2.9599631701002025,1.7399756636093529,-2.1772857332529796
1.3801090717315674,-2.89703522992896,0.02364680849625121,-0.0869986410065329,2.9599751594003503,1.7399805137698081,-2.335312095561267
1.4001851081848145,-2.9213316973603387,0.038282038936857846,-0.08699877690587961,2.959980520646577,1.7399825586448094,-2.4026812683929797
1.4203708171844482,-2.96287867505959,0.06330845331251658,-0.08699900929376249,2.959984164224642,1.7399858726851605,-2.5178818190981693
1.4405953884124756,-2.9965317268904283,0.08357984801790741,-0.08699919752794762,2.959987145965431,1.7399885573079465,-2.6111942694762367
1.460761308670044,-3.023790698665653,0.09999967575207795,-0.08699934999763757,2.9599896251940483,1.7399907314469112,-2.6867773634251684
1.4806952476501465,-3.045870465639575,0.11329973455822331,-0.08699947349808643,2.959991687030677,1.7399924917914504,-2.7479996771618804
1.5007872581481934,-3.0552834188759324,0.11896975907372356,-0.08699952614827779,2.9599925839600156,1.7399932419341377,-2.774099718722649
1.5208687782287598,-3.0713795688243946,0.12866550005740132,-0.086999616180105,2.9599941480434837,1.7399945240234094,-2.818730794089636
1.541015386581421,-3.084417450189276,0.13651904920144245,-0.08699968910588506,2.959995449004627,1.7399955616775276,-2.8548819699532895
1.561048984527588,-3.0949781318825176,0.14288040038048735,-0.08699974817576689,2.9599972670191996,1.7399963909347353,-2.8841645298678964
1.581186294555664,-3.099480317128699,0.14559234356403236,-0.0869997733581902,2.9599980830535855,1.7399967431543577,-2.8966481533278228
1.6016416549682617,-3.1071790537240136,0.15022976429554996,-0.08699981642013406,2.959999546845105,1.739997343155407,-2.9179951591290254
1.6214065551757812,-3.1134150301739028,0.15398607274072854,-0.08699985130030859,2.960000808508292,1.7399978265032678,-2.935286244581713
1.6416125297546387,-3.116073525334926,0.15558744557006252,-0.08699986617027773,2.960001371338473,1.7399980316615595,-2.9426577108569596
1.6616196632385254,-3.1206195519576267,0.1583257918252438,-0.08699989159792497,2.9600023753250397,1.7399983809439712,-2.9552629240580033
1.6817550659179688,-3.124301833409441,0.1605438508723198,-0.08699991219431921,2.9600032345316434,1.7399986621245804,-2.9654731532434853
1.7018051147460938,-3.1272844812944425,0.16234047754290676,-0.08699992887739856,2.9600039679834436,1.7399988884341226,-2.9737434441753483
1.7224676609039307,-3.128556031152712,0.16310640748201202,-0.0869999359896587,2.9600042929221346,1.739998984433878,-2.9772692015122195
1.742408037185669,-3.130730381361638,0.1644161470508036,-0.08699994815162355,2.9600048688827645,1.739999147789519,-2.9832982494232643
1.762474775314331,-3.132491604977377,0.16547703540999625,-0.08699995800281507,2.9600053578158563,1.7399992792127579,-2.9881817813899936
1.7825872898101807,-3.1339181960628473,0.16633635441900596,-0.0869999659822802,2.9600057720592288,1.7399993849316862,-2.992137444849325
1.8026411533355713,-3.1345263743536367,0.1667026954975082,-0.08699996938405218,2.960005954595049,1.7399994297604962,-2.993823807476558
1.8227779865264893,-3.1355663592076746,0.16732913843866407,-0.08699997520108227,2.960006276552535,1.73999950601731,-2.9967074889528886
1.8428027629852295,-3.1252640029710994,0.1678365879524497,-0.08699997991287664,2.9600055416991817,1.7399996021096138,-2.9990431260802723
1.863840103149414,-3.0820973700062497,0.16824765446601786,-0.08699998372943007,2.960003896531302,1.7399997161403529,-3.0009348394860007
1.8839752674102783,-3.0519514279227735,0.16842285527384795,-0.08699998535648706,2.9600045992752224,1.7399997157011313,-3.0017415111287864
1.9040443897247314,-2.929959062447652,0.16872248399511483,-0.08699998813875452,2.960004657309082,1.739999741643687,-3.0031207579783725
1.9241466522216797,-2.2632923981160826,0.14840184693989925,-0.08699999039239116,2.9600034861992817,1.7400000917881855,-3.0042376664568486
1.9442052841186523,-1.8304231720593327,-0.3902337526064812,-0.08699999221783684,2.959999081437787,1.739999974262376,-2.3375704496124476
1.96431303024292,-1.7834814030845931,-0.33421035172375324,-0.08699999299605315,2.959998269721914,1.7399998954206348,-2.271586629550938
1.9843785762786865,-1.4079004690755388,-0.490290972074933,-0.08699999432680305,2.959999287586046,1.7399999575932616,-1.878868072945362
2.0046348571777344,-0.758110450071097,-0.5915281088371176,-0.08699999540471047,2.959995948985329,1.7399995602256055,-1.2122009040008812
2.024589776992798,-0.21696948948328237,-0.7598376805711962,-0.08699999627781549,2.959993405063184,1.7399992700487383,-0.5455337598014148
2.044804334640503,0.01372743999793663,-0.9798538668714969,-0.08699999665003394,2.9599920352268643,1.7399990890515682,-0.2122001619431917
2.0649008750915527,0.20770451689093106,-0.7613815214895809,-0.08699999728652749,2.9599879519453025,1.7399986506010592,0.30743518489343435
2.0849967002868652,0.5653406117089376,-1.1791189360730303,-0.08699999780208727,2.9599856635429767,1.739998385302135,0.8207330732592348
2.1050961017608643,-0.10132610610681114,-0.922786269989095,-0.08699999821969069,2.9599843098676635,1.7399984694534445,0.15406685495356398
2.1251726150512695,-0.40519353029825683,-0.8135075825523042,-0.08699999839772161,2.959982740826193,1.7399982903241615,-0.16223945559934977
2.1452555656433105,-0.924806789111587,-0.6266410714492217,-0.08699999870215451,2.959982910946117,1.7399982284993072,-0.7031235526843004
2.165362596511841,-1.3456935402459214,-0.4752791380927702,-0.08699999894874515,2.9599810637989394,1.7399979574381301,-1.1412393759962263
2.18567156791687,-1.6866117890375216,-0.3526760114664524,-0.08699999914848358,2.9599814225175125,1.7399980337603498,-1.4961134332203225
2.2056374549865723,-1.8319506180182343,-0.30040837271104426,-0.08699999923363522,2.959981972314758,1.7399981231042025,-1.647401901788441
2.225759983062744,-2.0804800249631636,-0.21103065495053724,-0.08699999937924452,2.9599810802457727,1.7399982153639784,-1.9061049044494482
2.2458200454711914,-2.2817888439355585,-0.13863472685974215,-0.08699999949718806,2.959981262329784,1.739998840956372,-2.115654296445336
2.265886068344116,-2.444848958636857,-0.07999419534049515,-0.08699999959272234,2.9599870379275117,1.739999528232446,-2.285390149785101
2.286165475845337,-2.5769276420553653,-0.03249543174774408,-0.08699999967010509,2.959993875908092,1.7400000463615088,-2.4228765291336667
2.3062565326690674,-2.633234868812484,-0.012245971166511542,-0.08699999970309458,2.9599971811590824,1.7400002353376236,-2.4814892080509705
2.326350212097168,-2.729520225338764,0.02238059284725722,-0.0869999997595066,2.9600032581051234,1.740000493506062,-2.581716963434295
2.3464179039001465,-2.807511383035746,0.05042828464664746,-0.08699999980520035,2.9600024949836623,1.7400003996482745,-2.6629007195437593
2.366511583328247,-2.8706842204933687,0.0731469126753017,-0.08699999984221227,2.9600019524927332,1.7400003242695552,-2.7286595728658427
2.387446880340576,-2.8976157984796167,0.08283222172771784,-0.08699999985799103,2.960001746870375,1.7400002921291209,-2.756693614010738
2.4075615406036377,-2.943668796692247,0.09939409883236466,-0.08699999988497273,2.9600014397719785,1.7400002368483876,-2.8046318307294618
2.4276282787323,-2.9809717250856878,0.11280921769334057,-0.08699999990682791,2.960001242592911,1.740000191412747,-2.843461793621033
2.447831869125366,-3.011187096263204,0.12367545540588712,-0.08699999992453061,2.9600013598252173,1.7400001529022353,-2.8749141020905418
2.467843532562256,-3.0240683856142585,0.128307899191084,-0.08699999993207755,2.9600015690324737,1.7400001348361223,-2.888322740075488
2.48797869682312,-3.046095390088756,0.1362293745463417,-0.08699999994498281,2.9600020405804783,1.7400001008012007,-2.911251527270154
2.5080246925354004,-3.063937263362523,0.14264576558626932,-0.08699999995543607,2.960002551899715,1.740000069368136,-2.9298238633305465
2.528083086013794,-3.07838918042731,0.1478430389775946,-0.08699999996390322,2.960003074524497,1.7400000404263878,-2.944867470968459
2.5481820106506348,-3.0845502607661146,0.15005871756960346,-0.0869999999675129,2.9600033334830695,1.7400000268729587,-2.951280803572847
2.5682895183563232,-3.095085707989138,0.15384752608039096,-0.08699999997368545,2.9600038372181934,1.7400000015746293,-2.962247610974426
2.588409185409546,-3.103619420067001,0.15691645887091127,-0.08699999997868521,2.9600043133457747,1.7399999786426135,-2.971130734630413
2.608509063720703,-3.110531726709339,0.15940229269856096,-0.08699999998273501,2.9600047551214246,1.7399999580011014,-2.978326072745321
2.628556728363037,-3.1134785521266872,0.1604620423388685,-0.0869999999844615,2.96000496193261,1.7399999485081765,-2.9813935616115983
2.648658514022827,-3.107086491148483,0.16227424365755644,-0.08699999998741383,2.9600043620303484,1.7399999645650328,-2.9866388284224574
2.668743133544922,-3.0677735610892736,0.16374215413634974,-0.0869999999898052,2.9600029880907246,1.7400000077462592,-2.99088736515251
2.689243793487549,-3.0397177254192678,0.1643679073291222,-0.08699999999082468,2.960003705462395,1.7399999811251845,-2.9926987734197423
2.7093358039855957,-2.885999285087259,0.1654379831550245,-0.086999999992568,2.9600037071055114,1.739999960288656,-2.9957961092550773
2.729438543319702,-2.2193326266358673,0.027072700827979593,-0.08699999999398007,2.960000418421907,1.7399999995464905,-2.9973587262288346
2.749544382095337,-2.026419279718311,-0.28985941842560137,-0.08699999999512385,2.9599973413594625,1.739999954497049,-2.330691595300087
2.7696168422698975,-1.3597526201675283,-0.2024860808255112,-0.08699999999605032,2.959996242528386,1.739999881478253,-2.00141747769873
2.789879560470581,-1.026419292758128,-0.4782374368127834,-0.08699999999644528,2.95999541839477,1.739999830025686,-1.6680839711260194
2.809793472290039,-0.9385786803287005,-0.6367722365747838,-0.08699999999712067,2.9599928751250055,1.7399994744906726,-1.413350695839
2.82987380027771,-0.9255643270502059,-0.483485469912865,-0.08699999999766775,2.959992481855281,1.7399993504394615,-1.3347843484920778
2.8499155044555664,-0.4503151474054459,-0.6723231005077446,-0.08699999999811088,2.9599892315226732,1.7399990171668795,-0.8830997803619349
2.8701577186584473,-0.19628364491199385,-0.9010907566400291,-0.0869999999982998,2.959988909535236,1.7399989408101213,-0.5975224986694387
2.890169143676758,0.015376014188550058,-0.6975834289951395,-0.08699999999862283,2.959987047988509,1.739998669113287,-0.4756761192575502
2.9103055000305176,-0.17441227653329475,-0.7681203524601264,-0.08699999999888448,2.9599917261670656,1.739999201243113,-0.5357946489180893
2.930361747741699,-0.737873974238983,-0.5898774090034026,-0.08699999999909644,2.959990011600157,1.7399989425771971,-1.0057032304907505
2.9504282474517822,-0.9780866028877124,-0.5138895844967155,-0.0869999999991868,2.959987747057355,1.739998659892168,-1.2060324568207883
2.970524549484253,-1.3888501662823391,-0.3839504948282485,-0.08699999999934131,2.959987547223785,1.7399986465883934,-1.5485959335345338
2.9905972480773926,-1.7215686544650783,-0.27869980801135036,-0.08699999999946646,2.959986673446926,1.7399986318002212,-1.826072240820265
3.0106494426727295,-1.9910706324259397,-0.19344672489814174,-0.08699999999956784,2.9599851610478747,1.7399986670119434,-2.0508279164150336
3.0310652256011963,-2.1059635858691226,-0.15710197427320877,-0.08699999999961106,2.959984070341566,1.7399989499683457,-2.1466446427097954
3.0512545108795166,-2.3024305073862537,-0.09495261970990779,-0.08699999999968495,2.9599878061712643,1.7399996349693598,-2.3104920844410275
3.071276903152466,-2.461568698484592,-0.044611743774605424,-0.08699999999974481,2.9599941262370795,1.7400001918080068,-2.4432090210162802
3.0913429260253906,-2.5904706284211905,-0.0038356731002078294,-0.0869999999997933,2.960000480645288,1.7400005569051282,-2.5507099433616784
3.111431121826172,-2.64542355574646,0.013547802408752568,-0.08699999999981396,2.9600034162501334,1.740000676064871,-2.596539324550724
3.131509304046631,-2.7393930779946842,0.04327370099110946,-0.08699999999984931,2.9600033827567427,1.7400005599355717,-2.6749069383393564
3.1515724658966064,-2.8155083932455978,0.06735169843331032,-0.08699999999987794,2.9600027195944043,1.7400004535685578,-2.738384617121068
3.1716511249542236,-2.8479575539915545,0.07761652923113942,-0.08699999999989014,2.960002426855313,1.7400004085448773,-2.765446152344876
3.1917564868927,-2.903445618716884,0.09516938848791864,-0.08699999999991101,2.960001971855004,1.7400003313309746,-2.811721384098846
3.2118380069732666,-2.9483909509783337,0.1093872028477449,-0.08699999999992791,2.960001656320313,1.7400002682091713,-2.8492043293835465
3.231926441192627,-2.984796669973357,0.12090363105826683,-0.0869999999999416,2.9600014467046387,1.740000216314667,-2.8795655216035296
3.252006769180298,-3.0003170027628174,0.12581326575524118,-0.08699999999994744,2.960001373111797,1.7400001938684284,-2.8925089794728343
3.2720847129821777,-3.026856771756779,0.13420874024371504,-0.08699999999995743,2.960001274549256,1.740000154844302,-2.9146422962952854
3.292173147201538,-3.048353982652672,0.14100905333943636,-0.08699999999996552,2.9600018816161797,1.7400001147020137,-2.932570379068846
3.312268018722534,-3.0575185829631413,0.1439081327560521,-0.08699999999996896,2.960002186679809,1.7400000961462936,-2.9402134104219746
3.3324332237243652,-3.0731900492871658,0.14886555613277908,-0.08699999999997486,2.9600027868537957,1.7400000618385356,-2.9532830052101224
3.352458953857422,-3.085883936779881,0.15288106633479367,-0.08699999999997964,2.9600033614751826,1.740000031028859,-2.96386938956838
3.3725507259368896,-3.0961659854609356,0.15613362732847463,-0.08699999999998351,2.96000390041691,1.7400000034689278,-2.9724443713376028
3.3926210403442383,-3.1005493851001744,0.15752024468472448,-0.08699999999998516,2.9600041545148335,1.739999990835736,-2.9761000249146
3.412708282470703,-3.108044998380893,0.15989135910490498,-0.08699999999998798,2.960004629797455,1.7399999677225082,-2.982351198314945
3.4327900409698486,-3.1141164450251604,0.16181196038454285,-0.08699999999999027,2.9600050601452983,1.73999994729324,-2.9874146552012903
3.4529051780700684,-3.119034316714924,0.16336764627265166,-0.08699999999999211,2.9600054459274836,1.7399999293233437,-2.9915160605505724
3.47354793548584,-3.1211308830368067,0.16403085935341546,-0.0869999999999929,2.960005622599183,1.7399999211908104,-2.993264556139091
3.493651866912842,-3.124716011397435,0.16516495309506551,-0.08699999999999425,2.9600059450035716,1.739999906493082,-2.9962544864695424
3.5137453079223633,-3.0963102670925613,0.1660836044535257,-0.08699999999999533,2.9600050584024915,1.7399999337236867,-2.9986761628991103
3.533872365951538,-3.024084944392325,0.1668277249188195,-0.08699999999999622,2.960003923519586,1.7399999694557764,-3.000637660378815
3.5538909435272217,-2.7151216924695487,0.16743044925357442,-0.08699999999999694,2.9600034370554655,1.739999945573624,-3.002226550068251
3.5740394592285156,-2.381788359955193,0.04567007329914975,-0.08699999999999725,2.960002797123365,1.7399999577359422,-2.908831469938734
3.5944364070892334,-1.9980205078359796,-0.12172467432753023,-0.08699999999999777,2.9599986326220615,1.7399999151762577,-2.491442058841377
3.614291191101074,-1.6192960897781044,-0.24099239065883102,-0.08699999999999819,2.9599993760728323,1.7399998143405004,-1.8247754910078007
3.6343307495117188,-0.9526294351640917,-0.5673560547148915,-0.08699999999999854,2.959997378907193,1.7399997073699198,-1.1581085035676786
3.654433250427246,-0.6483665161497228,-0.806620367457205,-0.08699999999999868,2.959994493445035,1.7399993693013618,-0.8247747332805437
3.674543619155884,-0.12807690536491217,-0.6210624333295172,-0.08699999999999894,2.959992686547943,1.7399991349460837,-0.1581076748857263
3.694610595703125,0.2933576519013628,-1.0654604383409487,-0.08699999999999915,2.959988255554846,1.7399986038702036,0.4436435433753258
3.7146973609924316,-0.03997569617761121,-0.9419143737145216,-0.08699999999999923,2.9599882031491056,1.7399986618960166,0.23561692369830572
3.735065221786499,-0.62898034108405,-0.7306505913497332,-0.08699999999999938,2.9599878982134316,1.7399986296355057,-0.25734613741147316
3.7549524307250977,-1.1060741289653448,-0.5595268332429177,-0.0869999999999995,2.959984171457206,1.7399981424757793,-0.7801595591589182
3.7751097679138184,-1.4925200669609067,-0.4209166551755197,-0.08699999999999959,2.959984170427138,1.739998158123115,-1.2036388221683563
3.7952938079833984,-1.6572680770432013,-0.3618249179287746,-0.08699999999999963,2.959983192887127,1.7399980993056858,-1.38417457470849
3.815476417541504,-1.938987169850139,-0.2607780478989465,-0.0869999999999997,2.959981716306984,1.739998119927659,-1.6928907260196464
3.835517644882202,-2.167179638203439,-0.17893006562942862,-0.08699999999999976,2.9599800768533657,1.739998454439036,-1.9429506401630168
3.8556082248687744,-2.3520155148077895,-0.11263334040697301,-0.0869999999999998,2.959983472868528,1.7399991605144474,-2.1454997931429616
3.875694751739502,-2.430813959290562,-0.08437005070967711,-0.08699999999999981,2.9599865950620625,1.7399994940512133,-2.2318499492520747
3.8959336280822754,-2.501732556750987,-0.05893310817799877,-0.08699999999999983,2.959989991767015,1.7399997839425896,-2.309565181553728
3.916018009185791,-2.501732556750987,-0.05893310817799877,-0.08699999999999983,2.959989991767015,1.7399997839425896,-2.309565181553728
3.9361069202423096,-2.6230033547264866,-0.015435966156569968,-0.08699999999999986,2.959996745302209,1.7400002209719907,-2.442458382588004
3.9561662673950195,-2.721232698992371,0.019796697800933998,-0.08699999999999988,2.960002877533327,1.7400004893182694,-2.5501019893197463
3.976295232772827,-2.800798474690452,0.04833521796771631,-0.08699999999999991,2.960005809538173,1.7400005244021761,-2.637293069583884
3.9965620040893555,-2.834718627389843,0.060501697675959504,-0.08699999999999992,2.960005179790805,1.7400004722069624,-2.6744637555481576
4.016571283340454,-2.8927220883231923,0.08130637636261022,-0.08699999999999994,2.960004155275375,1.7400003830679083,-2.738025636056664
4.0366246700286865,-2.939704891480087,0.09815816422827943,-0.08699999999999994,2.960003385995181,1.7400003105522521,-2.7895107679320135
4.05670952796936,-2.9777609618756355,0.11180811078543422,-0.08699999999999994,2.960002815106241,1.7400002511743495,-2.8312137321959314
4.077550172805786,-2.9939848655175823,0.11762729797540022,-0.08699999999999994,2.960002589610512,1.7400002255571658,-2.848992366872487
4.097940683364868,-3.021727739884612,0.1275780990398898,-0.08699999999999994,2.9600024960209748,1.7400001794634172,-2.87939387286209
4.117870330810547,-3.0441994670793266,0.135638236778955,-0.08699999999999994,2.9600027799521946,1.74000013728311,-2.9040191431864484
4.138097524642944,-3.0624015657507275,0.14216694429308285,-0.08699999999999994,2.9600031411340755,1.7400000992236802,-2.923965630845899
4.158283710479736,-3.0771452653828764,0.1474551939793288,-0.08699999999999994,2.960003543737603,1.7400000648805105,-2.9401223015073668
4.178357839584351,-3.083430737235685,0.14970965718552107,-0.08699999999999994,2.9600037520727676,1.740000049010666,-2.9470101505312387
4.198459625244141,-3.0941788939450587,0.15356478735763948,-0.08699999999999994,2.9600041701773567,1.7400000197249015,-2.9587883811438744
4.218540906906128,-3.1028849007039816,0.15668744066092968,-0.08699999999999994,2.9600045780088697,1.7399999935305535,-2.9683287577527704
4.238935947418213,-3.1099367660356174,0.15921678807632259,-0.08699999999999994,2.960004965357897,1.7399999702172422,-2.9760564708868005
4.259820461273193,-3.1129430875249984,0.1602950882369408,-0.08699999999999994,2.9600051492639716,1.7399999595750562,-2.9793509196720356
4.279900312423706,-3.118083897194423,0.16213898054505899,-0.08699999999999994,2.9600054950507686,1.7399999401860384,-2.984984431528189
4.300200700759888,-3.1222479529413247,0.16363253224336993,-0.08699999999999994,2.9600058098405575,1.7399999231446166,-2.9895475810439387
4.320271253585815,-3.125620838027008,0.16484230824405213,-0.08699999999999994,2.960006093165782,1.7399999082361934,-2.9932437361625315
4.340266942977905,-3.121183474862121,0.16582223435551682,-0.08699999999999994,2.9600060780329036,1.739999904419282,-2.9962375860976835
4.3603456020355225,-3.0975953373658673,0.16624004650043242,-0.08699999999999994,2.96000431657102,1.7399999631035261,-2.997513656133592
4.380439043045044,-3.036789328659123,0.16695441671203246,-0.08699999999999994,2.9600041745509693,1.739999953911128,-2.9996961575650496
4.400529146194458,-2.7257435633808704,0.16753307946112725,-0.08699999999999994,2.960003319433849,1.7399999608747643,-3.00146388007165
4.420647621154785,-2.4778594823894897,0.1677797435056838,-0.08699999999999994,2.960003894314328,1.7399999396989896,-3.0022176217025884
4.440741539001465,-1.847063511930776,-0.10010343426438889,-0.08699999999999994,2.9599980670031765,1.7399999797188852,-2.623514146202786
4.460834741592407,-1.8951797274955844,-0.13541551789224238,-0.08699999999999994,2.9599982780265806,1.7399999849695094,-2.000615580689272
4.480907678604126,-1.2285130586461825,-0.3483319168487565,-0.08699999999999994,2.9599991219101165,1.7399999733602207,-1.3339490211331813
4.500962018966675,-0.5979956052877509,-0.7570690239480631,-0.08699999999999994,2.9599954891860762,1.7399995685424225,-0.6672818074117011
4.521060228347778,-0.32919607611148133,-0.6643620476546681,-0.08699999999999995,2.9599926626267576,1.7399992011138956,-0.3339480463666753
4.5414628982543945,0.13045112393202837,-0.8188330962926722,-0.08699999999999995,2.959987545020442,1.7399985596065646,0.3003476474823674
4.561933755874634,0.3264059871399082,-1.032949735473973,-0.08699999999999995,2.9599863882140647,1.739998412108225,0.5712131874818233
4.582197189331055,-0.320234678874866,-0.8043891764667765,-0.08699999999999995,2.9599830703003853,1.739998160146678,0.36368285133688494
4.602115869522095,-0.8559901471295303,-0.6192551018461239,-0.08699999999999995,2.959980391856159,1.7399977807553844,-0.2735846698753245
4.622513055801392,-1.289952060073789,-0.469296501569708,-0.08699999999999995,2.9599790023320454,1.739997595669354,-0.7933128765663722
4.6423797607421875,-1.641461190173397,-0.3478300747236547,-0.08699999999999995,2.959979719026507,1.7399977406439673,-1.214292963524371
4.6624674797058105,-1.7913150790725814,-0.296047029196562,-0.08699999999999995,2.9599804258533386,1.7399978594651817,-1.393763477067664
4.682608604431152,-2.047565238443275,-0.20749796581380836,-0.08699999999999995,2.959979802345604,1.73999800493404,-1.700657776242031
4.702682018280029,-2.2551278664185697,-0.13577325173160126,-0.08699999999999995,2.959980332398586,1.7399986924399482,-1.9492421323996347
4.722779989242554,-2.4232535662949797,-0.07767640522273007,-0.08699999999999995,2.9599864397636604,1.739999422713256,-2.1505963152914847
4.742821455001831,-2.494928202519324,-0.05290883170019957,-0.08699999999999995,2.9599899957212776,1.7399997218935939,-2.2364369312536114
4.771721363067627,-2.494928202519324,-0.05290883170019957,-0.08699999999999995,2.9599899957212776,1.7399997218935939,-2.2364369312536114
4.79888129234314,-2.494928202519324,-0.05290883170019957,-0.08699999999999995,2.9599899957212776,1.7399997218935939,-2.2364369312536114
4.818992376327515,-2.5594353737989177,-0.0306180261317914,-0.08699999999999995,2.9599935333367493,1.7399999701141653,-2.3136935406083765
4.839115619659424,-2.6697426347932733,0.007499233339157509,-0.08699999999999995,2.9600001499666053,1.7400003265318618,-2.4458024398846043
4.859166622161865,-2.7167683613527585,0.023749216950178273,-0.08699999999999995,2.9600031563679554,1.7400004449837727,-2.5021225829487346
4.879321575164795,-2.7971823679994947,0.051536823501225716,-0.08699999999999995,2.960003926227644,1.740000379288779,-2.598429483293673
4.899544715881348,-2.8623177183054325,0.07404482907234111,-0.08699999999999995,2.960003114238414,1.7400003077959647,-2.6764378718509456
4.9195733070373535,-2.915077351837337,0.09227631161038427,-0.08699999999999995,2.960002520507014,1.7400002497607256,-2.7396246757443694
4.939589977264404,-2.9578126548239325,0.10704381076303073,-0.08699999999999995,2.9600020947096706,1.7400002022122307,-2.7908059947653707
4.959721803665161,-2.9760313891980017,0.11333942823856942,-0.08699999999999995,2.960001932088033,1.74000018165817,-2.8126254018809727
4.9797751903533936,-3.0071854248824224,0.1241049331083441,-0.08699999999999995,2.9600016867856196,1.7400001458842607,-2.849936592704802
5.0000386238098145,-3.0204668821580563,0.12869443735219013,-0.08699999999999995,2.9600015972117206,1.7400001303057693,-2.8658429446046925
5.020231246948242,-3.043178173072628,0.13654247869002623,-0.08699999999999995,2.9600017971626573,1.7400000995022888,-2.893042855772527
5.040313243865967,-3.061574317574143,0.1428993798689298,-0.08699999999999995,2.960002357111909,1.7400000682687646,-2.9150748397317567
5.0603063106536865,-3.0764751943349213,0.14804846649011405,-0.08699999999999995,2.9600029185690557,1.7400000394934645,-2.9329207620917774
5.080394744873047,-3.0885449042777022,0.152219223874548,-0.08699999999999995,2.960003463301987,1.740000013131701,-2.947375971986457
5.10046911239624,-3.0936904121241997,0.15399728267915733,-0.08699999999999995,2.960003725395894,1.7400000008439884,-2.953538460445035
5.120539903640747,-3.1024892304147125,0.15703776168640632,-0.08699999999999995,2.9600042237232063,1.7399999780218682,-2.964076322823638
5.140616178512573,-3.1096162730897468,0.15950054795613663,-0.08699999999999995,2.960004683269784,1.7399999574740903,-2.9726119992761824
5.160979509353638,-3.1153891775423395,0.1614954034167154,-0.08699999999999995,2.9600051014274893,1.7399999391004164,-2.9795259037099693
5.18165922164917,-3.1178502578243257,0.16234584133142935,-0.08699999999999995,2.9600052947846693,1.7399999306907994,-2.982473412474182
5.2017481327056885,-3.1220587050448017,0.16380008939021934,-0.08699999999999995,2.9600056505435606,1.7399999153393437,-2.987513656017129
5.222177028656006,-3.1254675472253806,0.16497802945977552,-0.08699999999999995,2.96000596650708,1.739999901819862,-2.9915962572213792
5.2420384883880615,-3.128228709336434,0.16593216021638507,-0.08699999999999995,2.960006245108392,1.7399998899760676,-2.994903167404516
5.2621660232543945,-3.129405836323679,0.1663389209944226,-0.08699999999999995,2.960006371291534,1.7399998846330589,-2.9963129564783126
5.282387018203735,-3.1252389020862132,0.16703449865626116,-0.08699999999999995,2.960006045005502,1.7399998941103938,-2.9987236168743845
5.302433013916016,-3.093586733074224,0.1675979591692573,-0.08699999999999995,2.9600044003353636,1.7399999493605371,-3.000676050972289
5.322472810745239,-3.0270568515653298,0.16805432449678928,-0.08699999999999995,2.9600042902535124,1.7399999410661608,-3.002257704284067
5.343369722366333,-2.98900820754751,0.16824885571828402,-0.08699999999999995,2.96000503734647,1.7399999149673957,-3.00293210173958
5.363450527191162,-2.4042025198347616,0.16858157552166633,-0.08699999999999995,2.960004003352064,1.7399999285108438,-3.004084993127839
5.383516073226929,-1.8239779966563154,-0.17233856344182574,-0.08699999999999995,2.9599996954193593,1.7399999835480897,-2.493083228080187
5.403641939163208,-1.7963892151689271,-0.10729408734347545,-0.08699999999999995,2.9599948278877424,1.7399998368529799,-2.047437346001573
5.42368221282959,-1.4630558888974197,-0.3925646291218298,-0.08699999999999995,2.959993719108535,1.7399998023761345,-1.7141037771923917
5.443761825561523,-0.8077503212633511,-0.5673772742343738,-0.08699999999999997,2.9599920600950616,1.7399995333511842,-1.0474366912521238
5.463837385177612,-0.25717780304121207,-0.7402754419914189,-0.08699999999999997,2.959987884664113,1.739998980247252,-0.38264020134820764
5.483904600143433,-0.059502460612328494,-0.8490230084507071,-0.08699999999999997,2.95998520676744,1.7399986431857746,-0.06312201511750651
5.5042219161987305,-0.09284063742332435,-0.7471206358801442,-0.08699999999999997,2.9599832213974495,1.7399983699218846,-0.07555581978503052
5.524344205856323,0.3218990846186187,-1.0833728199922015,-0.08699999999999997,2.95998708855767,1.7399988322584403,0.09810295177213577
5.544424057006836,-0.3242908534368038,-0.8452319393977161,-0.08699999999999997,2.959987014297938,1.7399988514387612,-0.492246326247718
5.5648181438446045,-0.8592756301194644,-0.6523377835557443,-0.08699999999999998,2.9599855192728093,1.7399985825317743,-0.9704290134902692
5.584725856781006,-1.0873480770712032,-0.5701039766597005,-0.08699999999999998,2.959985804320026,1.7399985801998823,-1.1742859543660948
5.604808568954468,-1.4773519670372204,-0.4294841354068719,-0.08699999999999998,2.9599852501396495,1.7399984812756613,-1.5228811693116864
5.624881982803345,-1.7932551192413968,-0.31558203622957565,-0.08699999999999998,2.9599840253619987,1.7399983987512593,-1.8052431716381097
5.6449713706970215,-2.049136661843296,-0.22332136929270058,-0.08699999999999998,2.959984339184638,1.7399985348187963,-2.0339565692107446
5.6651997566223145,-2.1582230006097,-0.18398920480262831,-0.08699999999999998,2.9599849828811293,1.739998645457974,-2.1314607724791377
5.685256004333496,-2.344760640601321,-0.116731229630268,-0.08699999999999998,2.959986999622518,1.7399992975794654,-2.2981929342219893
5.705376386642456,-2.4958561095319793,-0.062252392087802796,-0.08699999999999998,2.9599926421730385,1.7399998941309822,-2.433246594880095
5.72544264793396,-2.6182434328799107,-0.01812458269989934,-0.08699999999999998,2.959998782467509,1.7400003137696165,-2.542640310686316
5.745511054992676,-2.6704190802454355,0.0006877896889279575,-0.08699999999999998,2.9600016995933927,1.740000459595684,-2.589276629744824
5.765808820724487,-2.759639446602167,0.03285703143181702,-0.08699999999999998,2.960003917865183,1.7400005115719552,-2.669024392713324
5.785741806030273,-2.83190795215338,0.058914199034491355,-0.08699999999999998,2.9600030575310563,1.7400004146212809,-2.7336197413087358
5.805837631225586,-2.890445441396595,0.08002050259823484,-0.08699999999999998,2.960002431862908,1.740000336426674,-2.7859419838944808
5.827515602111816,-2.915400897256237,0.08901845231680035,-0.08699999999999998,2.960002189364131,1.740000303010601,-2.8082477855182764
5.847586154937744,-2.9580747266427436,0.10440494503165837,-0.08699999999999998,2.9600018168928943,1.740000245459269,-2.846390712318491
5.867671251296997,-2.99264052829794,0.11686800261903235,-0.08699999999999998,2.9600015640976434,1.7400001981195936,-2.8772864899893817
5.887765645980835,-3.02063882675935,0.1269630700473989,-0.08699999999999998,2.960001657391984,1.7400001574262278,-2.902312111453721
5.907876968383789,-3.0433174474784717,0.13514006363586215,-0.08699999999999998,2.9600020896357035,1.7400001197242494,-2.922582914878001
5.927969455718994,-3.05298570142955,0.13862604347379312,-0.08699999999999998,2.9600023269494344,1.7400001021096028,-2.9312246860048643
5.948040246963501,-3.069518415444249,0.14458706620502193,-0.08699999999999998,2.9600028230990008,1.740000069179627,-2.9460021274930677
5.968147277832031,-3.0829099135283187,0.14941549146775598,-0.08699999999999998,2.9600033269231374,1.7400000391698134,-2.9579718695936976
5.988329172134399,-3.0886189205184817,0.1514739243473166,-0.08699999999999998,2.960003575645424,1.7400000252182541,-2.9630747644671067
6.008733034133911,-3.0983813223258316,0.15499384280774622,-0.08699999999999998,2.9600040580618834,1.7399999993480912,-2.971800722804159
6.02868390083313,-3.1062888676286486,0.15784497479139575,-0.08699999999999998,2.960004512588422,1.7399999760863538,-2.978868758100336
6.049049139022827,-3.112693979192725,0.16015439007757248,-0.08699999999999998,2.9600049332395066,1.7399999552973937,-2.9845938741275995
6.069029808044434,-3.1025521354724765,0.16113896362151064,-0.08699999999999998,2.9600040323868866,1.7399999829753825,-2.9870344238514974
6.089028358459473,-3.0609175899258014,0.16282257806562592,-0.08699999999999998,2.960002696528752,1.7400000233841042,-2.991207793869168
6.109112739562988,-2.863119512018081,0.16418634069692345,-0.08699999999999998,2.960000485952461,1.740000062485393,-2.99458807097375
6.129180431365967,-2.3780984759387653,0.07359007929906325,-0.08699999999999998,2.960002340044413,1.7399999776793038,-2.950222413938028
6.1503942012786865,-2.0447651457234963,-0.00846969579814065,-0.08699999999999998,2.9600011527554,1.7399999842202358,-2.9089958271834697
6.170496463775635,-2.003254835924591,-0.21695075431243047,-0.08699999999999998,2.959998121974594,1.7399999312907544,-2.2423287255169244
6.1905677318573,-1.3365881729548428,-0.14343008091416032,-0.08699999999999998,2.9599974896676184,1.7399999111906064,-1.596074284061842
6.210652828216553,-0.6939293726868421,-0.6785782818935029,-0.08699999999999998,2.9599950598384264,1.7399997057881205,-0.9294071851742136
6.230729579925537,-0.16498283893217425,-0.51734826768073,-0.08699999999999998,2.959990360119469,1.7399990753858785,-0.29291987841501244
6.250813961029053,0.06051542843691593,-0.7616133807388792,-0.08699999999999998,2.959989074121164,1.7399989193153569,0.037272425236604456
6.270906209945679,-0.06986949115453661,-0.8663067607289541,-0.08699999999999998,2.9599872659356823,1.7399987129980687,0.001112344536136789
6.2909839153289795,-0.653194340035554,-0.6694083632605345,-0.08699999999999998,2.9599844646082083,1.7399983235309586,-0.5708083344414192
6.3110671043396,-0.9018749190000861,-0.5854674909339714,-0.08699999999999998,2.9599845322907803,1.7399983058559374,-0.8146273005059685
6.331239223480225,-1.3271187157453637,-0.44192856128476077,-0.08699999999999998,2.95998339938255,1.7399981588165625,-1.2315575470481723
6.351641654968262,-1.6715661923776517,-0.32566199470345286,-0.08699999999999998,2.9599815614512623,1.7399980378746165,-1.5692709009377082
6.371492147445679,-1.950568635266572,-0.23148611489950058,-0.08699999999999998,2.959981628604492,1.7399981886146811,-1.8428189265249295
6.391581296920776,-2.1765606140852105,-0.1552036591017651,-0.08699999999999998,2.959982008551185,1.7399986447591897,-2.064392772145391
6.411983489990234,-2.27290455605963,-0.12268329124115424,-0.08699999999999998,2.959983762864349,1.7399990171753223,-2.158853395761381
6.431951999664307,-2.4376526823610782,-0.06707355475385207,-0.08699999999999998,2.959989787411896,1.7399996912784352,-2.320381524011749
6.452322244644165,-2.5710986569722114,-0.022029724649066884,-0.08699999999999998,2.959996479740656,1.740000176517525,-2.45121959617189
6.472378253936768,-2.6279887818574017,-0.002826838932922439,-0.08699999999999998,2.9599996566085007,1.7400003486305637,-2.50699798724177
6.492504596710205,-2.725270904853875,0.030010181604962834,-0.08699999999999998,2.9600022847574663,1.7400004316767528,-2.6023786924911687
6.512596368789673,-2.8040694333691203,0.05660825093961408,-0.08699999999999998,2.9600017261083544,1.7400003498365717,-2.679636722887345
6.532661199569702,-2.867896241206959,0.07815268487181619,-0.08699999999999998,2.9600013459414827,1.740000283968594,-2.7422157378978795
6.553059101104736,-2.9195959553507382,0.09560367445594356,-0.08699999999999998,2.960001099582985,1.7400002303854727,-2.79290474886891
6.572907209396362,-2.9416363597348734,0.10304330620450902,-0.08699999999999998,2.960001015693477,1.7400002073279615,-2.8145142776151575
6.592975378036499,-2.979325451120678,0.11576507535546052,-0.08699999999999998,2.960000909094238,1.7400001673398582,-2.851466577017199
6.613067150115967,-3.0098536142892347,0.12606969942278684,-0.08699999999999998,2.9600011119863723,1.7400001329036787,-2.8813979797952736
6.633219480514526,-3.034581425438177,0.13441643408127052,-0.08699999999999998,2.9600016267713745,1.740000100508944,-2.9056424651773995
6.653515577316284,-3.045123281621581,0.13797477718444554,-0.08699999999999998,2.960001900342056,1.740000085137471,-2.9159782798225358
6.6736485958099365,-3.0631498554471577,0.14405954103646504,-0.08699999999999998,2.9600024605217525,1.7400000559967552,-2.933652536024425
6.693735122680664,-3.0777513799704654,0.14898819652982578,-0.08699999999999998,2.9600030187084987,1.7400000289905062,-2.9479686984075664
6.7137980461120605,-3.0895786146089357,0.1529804047902774,-0.08699999999999998,2.9600035578968207,1.7400000041367587,-2.95956480230877
6.734179258346558,-3.0991586744819397,0.15621409125175562,-0.08699999999999998,2.960004066827586,1.7399999814412281,-2.968957656716275
6.754287004470825,-3.103242805209625,0.15759266211121756,-0.08699999999999998,2.9600043076680107,1.7399999708963862,-2.9729619822452147
6.774385690689087,-3.1102266686539406,0.15995001704711861,-0.08699999999999998,2.9600047594633274,1.739999951380506,-2.9798093845645552
6.794462203979492,-3.0974543097758542,0.16185952198240258,-0.08699999999999998,2.960003588624867,1.7399999875877468,-2.985355556165616
6.814621686935425,-3.0464657557702064,0.16340619758560665,-0.08699999999999998,2.960003399241432,1.7399999796016816,-2.9898480699650274
6.834743976593018,-3.013333306847713,0.16406554496650091,-0.08699999999999998,2.9600041230404543,1.7399999540066007,-2.9917634147665018
6.854807615280151,-2.490585040003522,0.16519309466224172,-0.08699999999999998,2.960003235200845,1.7399999613707753,-2.9950383525021684
6.874979734420776,-1.955827269897103,-0.020035410548784507,-0.08699999999999998,2.960000184328109,1.7400000005973173,-2.729067826204618
6.8963775634765625,-1.9032058937790277,-0.08277687174020706,-0.08699999999999998,2.9599991717215177,1.7399999849354677,-2.3957343504023823
6.918938875198364,-1.8558466616695033,-0.13924412686854004,-0.08699999999999998,2.9599962825595383,1.73999969904892,-2.062400666712168
6.9391090869903564,-1.189179994143705,-0.3546973663743446,-0.08699999999999998,2.9599972436083926,1.7399997297874883,-1.395734066218486
6.959144353866577,-0.5661358216134187,-0.7345523746070701,-0.08699999999999998,2.9599941336971223,1.7399993916641219,-0.7290668751971736
6.979248046875,-0.30052226405861915,-0.6440970766373808,-0.08699999999999998,2.9599920883245354,1.7399991214565118,-0.3957331951677162
6.9993369579315186,0.1536769174512933,-0.8024184815400469,-0.08699999999999998,2.959987635467734,1.7399985719496445,0.24474094233170923
7.019450426101685,0.04165773795523969,-0.8993588820300652,-0.08699999999999998,2.959985434501146,1.7399983912717238,0.45912656394019086
7.039538145065308,-0.5240857330125346,-0.6961806212691638,-0.08699999999999998,2.9599846507887078,1.739998285383846,0.1225808737765311
7.059816837310791,-0.7856771768933073,-0.6095625137498998,-0.08699999999999998,2.9599842727351806,1.7399982166077559,-0.1300573164255553
7.080047845840454,-1.2329985534519,-0.461445505374121,-0.08699999999999998,2.959982182793234,1.7399979577848614,-0.5755596017911189
7.100043535232544,-1.5953288497253877,-0.3414707670854696,-0.08699999999999998,2.95998227933367,1.7399980365529555,-1.0379128082347466
7.12011456489563,-1.888816392713668,-0.24429119716895303,-0.08699999999999998,2.9599813955204928,1.739998118534019,-1.4124187542708468
7.1402270793914795,-2.0139347619652157,-0.2028620307622846,-0.08699999999999998,2.959981684849938,1.7399982292007123,-1.5720766446139935
7.160288333892822,-2.227887179733516,-0.13201814908970183,-0.08699999999999998,2.9599820184904106,1.7399989001996166,-1.845091433418267
7.180373907089233,-2.4011886094731953,-0.07463477727641737,-0.08699999999999998,2.9599879750300966,1.7399996060744773,-2.066234269475809
7.200429439544678,-2.541562758328907,-0.028154311904935895,-0.08699999999999998,2.9599949192975012,1.7400001272627064,-2.2453603009297787
7.220928907394409,-2.601406473091217,-0.008338967187337707,-0.08699999999999998,2.959998245234082,1.7400003144549916,-2.3217246180159234
7.241029500961304,-2.703739224289404,0.025545260174712044,-0.08699999999999998,2.9600043095808317,1.740000565655332,-2.4523076686103695
7.261180877685547,-2.7866287669403165,0.052991618046625534,-0.08699999999999998,2.960004875320607,1.740000476872472,-2.5580794046957984
7.2812371253967285,-2.85376929898425,0.07522318984403004,-0.08699999999999998,2.960004622026395,1.7400003916853963,-2.6437544118971283
7.301341772079468,-2.882392369113252,0.08470087110316751,-0.08699999999999998,2.9600041519249207,1.7400003528021757,-2.680278969489868
7.321374177932739,-2.931337818893174,0.10090770470417122,-0.08699999999999998,2.9600033918233275,1.740000285966889,-2.7427359692261053
7.3414647579193115,-2.970983633059495,0.11403523835393825,-0.08699999999999998,2.9600028268444527,1.7400002311550877,-2.793326146236683
7.361530065536499,-3.0030967424066786,0.12466853926093897,-0.08699999999999998,2.9600024128589992,1.7400001859485072,-2.834304195817261
7.381654739379883,-3.0167870679284325,0.12920168287190184,-0.08699999999999998,2.9600022512474955,1.7400001663487472,-2.851773787485083
7.4017493724823,-3.040197524500299,0.13695335765587882,-0.08699999999999998,2.960002000473025,1.740000132199024,-2.881646792858832
7.421840190887451,-3.0591599931518973,0.14323220162572367,-0.08699999999999998,2.960002205032764,1.7400000986165118,-2.905843984399929
7.441923141479492,-3.0745195915481505,0.14831805204211454,-0.08699999999999998,2.9600027976791448,1.7400000640101567,-2.925443769577155
7.4619786739349365,-3.086960866016982,0.15243758811681474,-0.08699999999999998,2.9600033671540857,1.7400000329339051,-2.9413196082829587
7.482085466384888,-3.092264777688125,0.1541938104733004,-0.08699999999999998,2.9600036396353375,1.7400000186396234,-2.94808773321305
7.502512454986572,-3.101334466519347,0.15719694916205695,-0.08699999999999998,2.960004155473159,1.7399999923923195,-2.959661233924224
7.522379398345947,-3.108680914332916,0.15962948978198688,-0.08699999999999998,2.960004628939073,1.7399999690773296,-2.969035777391018
7.543148994445801,-3.111812820986717,0.16066651969093862,-0.08699999999999998,2.9600048491127904,1.7399999584487806,-2.973032295887941
7.5632383823394775,-3.1171683812890287,0.1624398398914373,-0.08699999999999998,2.9600052561818275,1.7399999391080707,-2.979866346849263
7.583301544189453,-3.1215063850504357,0.16387622820755943,-0.08699999999999998,2.9600056198017386,1.739999922134426,-2.985401932928415
7.603379964828491,-3.1250201680293523,0.16503970188889952,-0.08699999999999998,2.960005942024509,1.7399999073050751,-2.989885761572944
7.62347936630249,-3.1278663321871956,0.16598211487367798,-0.08699999999999998,2.9600062256109294,1.7399998944036987,-2.993517665971741
7.643565654754639,-3.1290796968891663,0.16638388018140046,-0.08699999999999998,2.9600063538923145,1.7399998886109558,-2.995066005207689
7.6637022495269775,-3.1311545504998524,0.16707089847985349,-0.08699999999999998,2.9600065854935966,1.739999878217687,-2.997713667032904
7.683754205703735,-3.1241004200138667,0.16762740718995195,-0.08699999999999998,2.9600059991567957,1.7399998964430736,-2.999858160476542
7.703843593597412,-3.0868572630955025,0.16807821634634273,-0.08699999999999998,2.960004322214667,1.7399999526707721,-3.0015950253483017
7.724463701248169,-3.059768742826597,0.16827036204135606,-0.08699999999999998,2.9600049475453267,1.7399999298902433,-3.0023356733147857
7.7445127964019775,-2.9591612799554854,0.16859896337560598,-0.08699999999999998,2.960004974897029,1.739999915778586,-3.0036020338423164
7.764601469039917,-2.292494612888289,0.16886515512926806,-0.08699999999999998,2.9600041984823005,1.7399999241179236,-3.0046276726125325
7.784695148468018,-1.846568428051581,-0.29943626478134067,-0.08699999999999998,2.9600006580265172,1.7399998992960013,-2.337960602064767
7.804792881011963,-1.911681135545318,-0.2524926086031429,-0.08699999999999998,2.959999576339727,1.7399998354457473,-2.2418868997785517
7.824974775314331,-1.6369492338579215,-0.27766445202890633,-0.08699999999999998,2.959999720492238,1.7399998722387677,-1.8220873721935578
7.845027208328247,-0.9702825815139425,-0.6005090295789219,-0.08699999999999998,2.9599973781786955,1.7399997186123979,-1.1554203419788391
7.865111827850342,-0.3888289361947379,-0.7358121932547121,-0.08699999999999998,2.9599928041260775,1.7399991640937265,-0.4887529502386452
7.886370420455933,-0.14094605845472202,-0.6452309349759692,-0.08699999999999998,2.9599918275293837,1.7399990343982332,-0.15541939355222428
7.906246662139893,0.2829336301353529,-1.0850369123645414,-0.08699999999999998,2.959986889560779,1.739998447741649,0.445821130084862
7.926339149475098,-0.09030221224797155,-0.8465798224481448,-0.08699999999999998,2.959984999200607,1.7399984132753443,0.44449284470145506
7.94641900062561,-0.6103940953703783,-0.7792609750660726,-0.08699999999999998,2.9599831571939643,1.7399981527020245,0.3721492159553799
7.966489553451538,-0.8633546996387622,-0.6843348463559734,-0.08699999999999998,2.9599834297971928,1.7399981619675422,0.26190700918313925
7.986671686172485,-1.2959173405404192,-0.5220111239755412,-0.08699999999999998,2.9599825134311417,1.7399980169528664,-0.14309875000875544
8.006864547729492,-1.6462930769925064,-0.39052888824848286,-0.08699999999999998,2.9599813691487387,1.7399979316143652,-0.6773766914488759
8.026956558227539,-1.795663780590412,-0.33447594868741176,-0.08699999999999998,2.959981443166952,1.7399979786165924,-0.9105387660749951
8.047032117843628,-2.0510876804562033,-0.23862542535701586,-0.08699999999999998,2.959981788843493,1.7399981515089533,-1.3092459351833527
8.067123889923096,-2.257981039284944,-0.1609865083174352,-0.08699999999999998,2.95998239164216,1.7399986010700508,-1.6321986947243967
8.087206602096558,-2.346182938367288,-0.12788785666546998,-0.08699999999999998,2.95998414427832,1.7399989607437998,-1.769878738465016
8.107292175292969,-2.4970081720878676,-0.0712892497427437,-0.08699999999999998,2.9599899990793297,1.739999616955836,-2.005312048216652
8.12769341468811,-2.619176603942609,-0.025444433078408615,-0.08699999999999998,2.959996505943726,1.7400000955978936,-2.1960133078002433
8.148114204406738,-2.671258934261952,-0.00590007441579855,-0.08699999999999998,2.9599996127175254,1.7400002675732087,-2.2773123214019066
8.168492317199707,-2.760319718065491,0.027520766472410276,-0.08699999999999998,2.9600053138052136,1.740000498942524,-2.41633370271327
8.188419818878174,-2.832458969471109,0.054591801536319304,-0.08699999999999998,2.9600049304795752,1.7400004133529232,-2.528940386595912
8.20866322517395,-2.890891765370565,0.07651936014498033,-0.08699999999999998,2.9600039645026905,1.7400003351422726,-2.620151708880686
8.2287437915802,-2.9158025888490893,0.08586742426337743,-0.08699999999999998,2.96000356373743,1.7400003018795063,-2.659036537292834
8.248830795288086,-2.958400096856936,0.10185261254800022,-0.08699999999999998,2.9600029223822992,1.7400002446272642,-2.725529600153149
8.269110441207886,-2.99290407818882,0.11480061349263095,-0.08699999999999998,2.9600024535491403,1.740000197553158,-2.7793889882851097
8.28937554359436,-3.007613670179792,0.12032055020394208,-0.08699999999999998,2.9600022709357456,1.7400001771698808,-2.802350098309105
8.309402227401733,-3.0327670724003344,0.12975964106237295,-0.08699999999999998,2.960001988358221,1.7400001416679047,-2.8416136006602866
8.329480171203613,-3.0531413281058852,0.13740530361184994,-0.08699999999999998,2.9600017933027862,1.7400001120786295,-2.873417042353978
8.349546909332275,-3.069644474032528,0.14359827742077405,-0.08699999999999998,2.9600020511250027,1.7400000818928465,-2.8991778885048025
8.36963963508606,-3.0766800251056154,0.14623843330984693,-0.08699999999999998,2.960002375477167,1.7400000654569567,-2.910160174114738
8.389700412750244,-3.088710817257873,0.1507530977058975,-0.08699999999999998,2.960003000501198,1.7400000349793203,-2.9289398925058006
8.409821033477783,-3.0984557586993655,0.1544099734321155,-0.08699999999999998,2.960003585591312,1.7400000075393225,-2.944151475589174
8.429859399795532,-3.106349161102668,0.15737204076109645,-0.08699999999999998,2.9600041245758737,1.7399999829613442,-2.9564728671119833
8.450045824050903,-3.109714243126219,0.15863481617059072,-0.08699999999999998,2.9600043758032437,1.739999971690134,-2.9617256739058817
8.470075130462646,-3.112742816915705,0.1597713136450695,-0.08699999999999998,2.9600046146708925,1.7399999610668404,-2.9664532018281067
8.490187644958496,-3.1154685332976584,0.16079416101535995,-0.08699999999999998,2.9600048412065987,1.7399999510678028,-2.9707079785942216
8.51024866104126,-3.120129508238632,0.16254322911343488,-0.08699999999999998,2.960005257901694,1.739999932845478,-2.977983651014312
8.530374526977539,-3.122116555418393,0.16328888405844413,-0.08699999999999998,2.960005448570086,1.739999924572845,-2.981085386889089
8.550453662872314,-3.125514406042996,0.16456395334629445,-0.08699999999999998,2.960005796257881,1.7399999095802199,-2.9863893582968135
8.57053542137146,-3.12826666499081,0.16559675873108093,-0.08699999999999998,2.9600061018074046,1.7399998964929095,-2.990685578520202
8.590736389160156,-3.1304959946913975,0.16643333049145195,-0.08699999999999998,2.9600063687853653,1.739999885117579,-2.9941655196556853
8.61075758934021,-3.131446393127348,0.166789974045558,-0.08699999999999998,2.9600064889650644,1.7399998800136725,-2.995649074407598
8.630851984024048,-3.1330715744274533,0.16739983419786586,-0.08699999999999998,2.96000670501042,1.7399998708626425,-2.9981859545227576
8.650997877120972,-3.0971675457198815,0.16789386415854518,-0.08699999999999998,2.960005479222323,1.7399999115568656,-3.000240623669414
8.671143770217896,-3.0192607698924827,0.16829403267455117,-0.08699999999999998,2.960004348776421,1.7399999485760205,-3.001904885924567
8.691249370574951,-2.6761081985064266,0.16861815951795553,-0.08699999999999998,2.9600037501799945,1.7399999250332117,-3.0032529999098836
8.71134638786316,-2.342774866070244,0.03072365069391661,-0.08699999999999998,2.9600030499231313,1.7399999399813137,-2.866863529908873
8.731389284133911,-1.96851346738211,-0.11797777889771977,-0.08699999999999998,2.959998276452114,1.739999880498287,-2.410779082470122
8.75147795677185,-1.598344843851615,-0.30720385479910906,-0.08699999999999998,2.9600015687948633,1.7399999261588335,-1.7441129114166287
8.771704912185669,-0.9316782162785229,-0.519135749914738,-0.08699999999999998,2.959995349200871,1.7399994084973966,-1.0774453593249556
8.791804313659668,-0.629510404384044,-0.5745323989269344,-0.08699999999999998,2.959994491631277,1.7399993211863916,-0.7441118404878418
8.811886310577393,-0.11280347582009803,-1.0277711182946405,-0.087,2.959990216823191,1.7399988123320158,-0.07744443176843446
8.83196234703064,0.3057291318345191,-0.8001945162281184,-0.087,2.959987361540124,1.7399985618706513,0.5089805671891268
8.852108240127563,0.6447405596134955,-1.2105574907802283,-0.087,2.959986341033572,1.7399984832228776,0.91734794142103
8.872443675994873,-0.02192617830833954,-0.948251476209325,-0.087,2.959983347713918,1.7399985584869422,0.25068187649274415
8.892661333084106,-0.33373357453625824,-0.8364263052043337,-0.087,2.9599837683339016,1.7399985777979103,-0.07528616489187928
8.912667274475098,-0.8669242316522501,-0.6452052243109383,-0.087,2.95998312033082,1.7399983873821305,-0.6326913104940654
8.932795763015747,-1.2988086762188962,-0.4903160830566586,-0.087,2.959980422492055,1.7399979803448633,-1.0841891520800895
8.953007936477661,-1.4829278168957019,-0.42428444311077196,-0.087,2.9599812138313615,1.7399980580135268,-1.2766700723842102
8.973143577575684,-1.7977715564534222,-0.3113702897200394,-0.087,2.959980914608636,1.7399980740412275,-1.6058122054812938
8.993217468261719,-2.052794975201041,-0.21990985834482255,-0.087,2.959981948910478,1.7399982827123603,-1.8724175052629937
9.013307094573975,-2.259363942895897,-0.14582692750531628,-0.087,2.959983477615163,1.7399987669415191,-2.088367804548213
9.03344178199768,-2.3474275494034162,-0.11424424788164916,-0.087,2.959985580596517,1.739999128907559,-2.180431003926153
9.053461074829102,-2.498016305092783,-0.0602379409895893,-0.087,2.959991626453382,1.7399997589883185,-2.3378594510855004
9.073543071746826,-2.619993191009812,-0.016492879663995985,-0.087,2.9599980353058473,1.7400002028721868,-2.465376735436998
9.093630075454712,-2.7187944664432684,0.0189405984964305,-0.087,2.960003902279875,1.74000047684855,-2.568665851799398
9.114984512329102,-2.7609150097832544,0.03404644442037552,-0.087,2.960006568746843,1.740000562387152,-2.6126996626142476
9.13505244255066,-2.8329411558863185,0.05987760157749642,-0.087,2.960005917460852,1.7400004641006963,-2.6879968097962164
9.155142307281494,-2.8912823364113396,0.08080085857728894,-0.087,2.9600047510240346,1.7400003765038548,-2.7489874097446583
9.175216436386108,-2.938538692436539,0.09774869487119632,-0.087,2.9600038669646533,1.7400003052497628,-2.7983898043926847
9.19532322883606,-2.958684823097962,0.10497382443681719,-0.087,2.960003510913358,1.740000274641681,-2.8194508282409663
9.215394973754883,-2.99313470586063,0.11732878907512166,-0.087,2.960003125768154,1.740000221912835,-2.8554652099272753
9.235630512237549,-3.0210391099690113,0.1273363006640014,-0.087,2.9600031296893428,1.7400001759510286,-2.8846369033122996
9.25558614730835,-3.0436416768597336,0.13544238022830915,-0.087,2.960003288893847,1.7400001345565868,-2.9082659972338574
9.277206182479858,-3.0532775078641934,0.13889812831044923,-0.087,2.9600034094057697,1.7400001153724558,-2.9183394605677795
9.297333240509033,-3.0697547786423662,0.14480745476158868,-0.087,2.9600037051029195,1.7400000797707391,-2.93556509562689
9.317357301712036,-3.0831013677073313,0.14959400606370593,-0.087,2.9600040457116705,1.7400000476143176,-2.9495178743989303
9.337465763092041,-3.0939121046332114,0.15347111002168948,-0.087,2.9600044056707744,1.7400000186728395,-2.9608196371428246
9.357532501220703,-3.1026688013663932,0.15661156207902618,-0.087,2.9600047668089595,1.7399999927457945,-2.969974074835663
9.377753496170044,-3.1064019193895844,0.1579503856675973,-0.087,2.960004943745868,1.7399999808519482,-2.973876759425555
9.397715330123901,-3.112785551113429,0.16023977281801144,-0.087,2.9600052847206832,1.7399999590804627,-2.9805503555170385
9.41779088973999,-3.1179562927040623,0.16209417509267002,-0.087,2.9600056035742726,1.7399999398288968,-2.985955974393376
9.437994003295898,-3.120160661452954,0.1628847356300345,-0.087,2.960005753512121,1.7399999310838474,-2.9882604770549226
9.458219528198242,-3.123930131956488,0.16423659342984567,-0.087,2.9600060332010525,1.7399999152256258,-2.9922011799028034
9.483969926834106,-3.109383986416355,0.16481295532573106,-0.087,2.9600047408741927,1.7399999567444642,-2.9938809581315944
9.524968147277832,-3.109383986416355,0.16481295532573106,-0.087,2.9600047408741927,1.7399999567444642,-2.9938809581315944
9.545061826705933,-3.0587387676439097,0.16579851301710424,-0.087,2.960003216214763,1.7400000041702932,-2.996753478831605
9.56538200378418,-2.8885407094396283,0.16659682416576269,-0.087,2.9600016786531014,1.7400000272172007,-2.9990801859873
9.585603713989258,-2.7657809355785083,0.16693707561446294,-0.087,2.960003653291305,1.7399999517911053,-3.0000724787345963
9.60570240020752,-2.09911427702706,-0.07607808442438584,-0.087,2.9600005819939077,1.7399999613218595,-2.8418090355088865
9.625898122787476,-1.9263853296491937,-0.16746883090289363,-0.087,2.959997222121354,1.7399998507000565,-2.175141881764721
9.645894050598145,-1.259718667556581,-0.41527723177824827,-0.087,2.959997033605591,1.7399997892423469,-1.508475135566888
9.665967464447021,-0.624746825284385,-0.6995678460361098,-0.087,2.95999429565764,1.7399994647386823,-0.841807992746273
9.686136722564697,-0.3532721709025637,-0.7348872026154094,-0.087,2.959991743554237,1.7399991259079037,-0.5084742425364194
9.706175327301025,0.11094950406257736,-0.9860071376201271,-0.087,2.9599893518933427,1.7399987952453473,0.1432737007654108
9.726258516311646,0.4620213661339091,-1.04806578065906,-0.087,2.9599915515023576,1.7399989163072989,0.38522168153428693
9.74636721611023,0.5998714686187216,-0.926259165775276,-0.087,2.959990253018189,1.7399988697217008,0.34505972390700435
9.766458749771118,-0.06679523998067355,-0.9339644096009065,-0.087,2.9599884883737473,1.739998706173985,0.442010168727769
9.78655219078064,-0.6507041952721815,-0.7242110797467771,-0.087,2.9599860021463265,1.73999844406327,0.20867405455263538
9.806689500808716,-1.1236704481324056,-0.5543108348608858,-0.087,2.9599829102804436,1.7399980276112441,-0.20024560799879915
9.826740503311157,-1.506773084603087,-0.4166916989773135,-0.087,2.959983250610004,1.7399980782642628,-0.701731657031887
9.846861362457275,-1.670095792255334,-0.35802245971457974,-0.087,2.9599824538049373,1.7399980377069264,-0.9324581385165931
9.866930961608887,-1.9493776177944895,-0.25769806289535796,-0.087,2.959981334380951,1.7399980896872655,-1.3270004438014353
9.887342929840088,-2.1755958990147297,-0.17643528857215124,-0.087,2.9599801324746973,1.739998451968388,-1.6465795651953037
9.907522678375244,-2.358832684630558,-0.11061257971016042,-0.087,2.9599838062159907,1.7399991682209612,-1.9054392654355863
9.927581310272217,-2.436949411738469,-0.082551368766355,-0.087,2.959986982565463,1.7399995017689833,-2.0157954875120505
9.947728872299194,-2.570529009027316,-0.034566742439670325,-0.087,2.9599938398586993,1.7400000306257666,-2.204504852569489
9.967779397964478,-2.678728479523728,0.004300775716260155,-0.087,2.960000316238768,1.7400003752767594,-2.3573595919969303
9.987883806228638,-2.7663700570449876,0.03578352372941191,-0.087,2.9600036528377625,1.7400004519909311,-2.4811717126599984
10.007941961288452,-2.8037330513948078,0.04920517183651417,-0.087,2.960003271984229,1.7400004067585981,-2.533954539160157
10.028059005737305,-2.8676237717624518,0.0721561903897492,-0.087,2.960002611343969,1.740000329799641,-2.6242131710545924
10.048148155212402,-2.9193752551524135,0.0907465144187533,-0.087,2.9600021085886064,1.740000267601634,-2.6973226674487165
10.068221092224121,-2.9612939565196004,0.1058046751444313,-0.087,2.960001757606741,1.7400002167042934,-2.7565413675571753
10.088388204574585,-2.9791645607283526,0.11222420622750683,-0.087,2.9600016272183285,1.7400001947266552,-2.781787237184895
10.108501195907593,-3.0097232938282703,0.12320160335014418,-0.087,2.9600014375531636,1.7400001565207985,-2.8249576789785755
10.128592014312744,-3.0344758675314885,0.13209329383922222,-0.087,2.960001322102363,1.7400001247296715,-2.859925742244394
10.14867115020752,-3.054525452142817,0.13929556213602912,-0.087,2.960001260916471,1.7400000981576482,-2.888249878064357
10.168765783309937,-3.0630729055196984,0.1423659908870772,-0.087,2.9600016211279208,1.7400000814847891,-2.9003249585685347
10.188854455947876,-3.0776890505798087,0.14761642154108925,-0.087,2.9600023183370676,1.7400000503475066,-2.9209733577864374
10.20896863937378,-3.089528127842756,0.15186926756483515,-0.087,2.96000297391032,1.7400000220519214,-2.9376985740588566
10.229020357131958,-3.099117780233469,0.1553140705189676,-0.087,2.9600035802048383,1.7399999964778685,-2.9512460099240507
10.24946141242981,-3.10320600040033,0.15678264364131264,-0.087,2.9600038635671897,1.7399999846733358,-2.9570214992701596
10.26964282989502,-3.110196856781445,0.15929390239461844,-0.087,2.96000438976163,1.7399999629454597,-2.966897591954496
10.289661169052124,-3.1158594503351917,0.16132802055566464,-0.087,2.960004862267383,1.7399999436017266,-2.97489723358601
10.30981707572937,-3.12044615102029,0.16297565509563824,-0.087,2.9600052829118497,1.739999926480014,-2.981376948675719
10.329831838607788,-3.1241613784993225,0.1643102381163821,-0.087,2.9600056546247604,1.739999911407328,-2.986625522284357
10.349903583526611,-3.1257452386103792,0.1648791916172939,-0.087,2.960005823238703,1.739999904583684,-2.9888630735215336
10.370044469833374,-3.1284536393593716,0.16585210158407865,-0.087,2.9600061284091086,1.7399998922498199,-2.9926892885191534
10.390161752700806,-3.117519653927325,0.16664019431078333,-0.087,2.9600052205048213,1.7399999219198319,-2.9957883544967925
10.410351753234863,-3.1066398927939805,0.16697614783300593,-0.087,2.9600055737717406,1.7399999089587084,-2.997109642995459
10.430585145950317,-3.0403931299638467,0.16755068442253046,-0.087,2.960004361469716,1.7399999488951305,-2.999368782188036
10.450908422470093,-2.8875327597516574,0.1680160293347277,-0.087,2.960004344209358,1.7399999312905676,-3.0011988313054916
10.470760822296143,-2.2208660964720948,0.0019157405721742932,-0.087,2.9600024599483703,1.7399999544057783,-2.9421908213759176
10.490830421447754,-2.011075336579748,-0.25558278921211697,-0.087,2.9599975831954803,1.7399998435731798,-2.2755234911406177
10.510953903198242,-1.677741996281124,-0.21961373072232176,-0.087,2.9599991393721394,1.7399999430654416,-2.041788102986261
10.531014680862427,-1.0110753490830664,-0.46451727703561235,-0.087,2.959995683278098,1.739999760812489,-1.4980921674225929
10.551122665405273,-0.6302603910563658,-0.6256588838137666,-0.087,2.9599921084075707,1.739999297463985,-1.0655061525102338
10.5711989402771,-0.30096131356835887,-0.7874836847163993,-0.087,2.9599930318579433,1.7399993427501494,-0.6428458865837741
10.591561555862427,-0.06186520632711581,-1.0047352625768462,-0.087,2.9599912824782026,1.7399991056208775,-0.3095122383602819
10.611689805984497,-0.4311188849414443,-0.7815354542682791,-0.087,2.9599872937180223,1.739998693454946,-0.5834416793737822
10.63175368309021,-0.9458063270099006,-0.6007436436931097,-0.087,2.9599864764059505,1.7399985385866237,-1.0442973350208775
10.652045249938965,-1.3627031586928338,-0.45430223963681765,-0.087,2.9599847292317096,1.7399983120608327,-1.4175902430386678
10.67201018333435,-1.5404328671511816,-0.391871917237964,-0.087,2.9599826904205586,1.7399981219782326,-1.5767307125075833
10.692403316497803,-1.8443506405543235,-0.28511616878547774,-0.087,2.959983032360763,1.7399982271962133,-1.8488614541656376
10.712271451950073,-2.09052403921517,-0.198643988619123,-0.087,2.959982594698276,1.739998355864619,-2.0692872360137406
10.732319593429565,-2.2899244897573614,-0.12860155948650093,-0.087,2.959983570295186,1.7399990136610686,-2.2478321427386194
10.752805233001709,-2.3749320389933612,-0.09874143327226531,-0.087,2.9599862074611147,1.739999362926215,-2.3239489897197885
10.772904396057129,-2.520294939427518,-0.04768067763794637,-0.087,2.9599926648461232,1.7399999418085843,-2.45410910092359
10.793077230453491,-2.6380388840422992,-0.006321503774894349,-0.087,2.9599991109468666,1.7400003330174352,-2.559538989365894
10.813099384307861,-2.733411487488656,0.027179502386271554,-0.087,2.960001866239592,1.7400004192110463,-2.6449369082663354
10.833184480667114,-2.8106633051300385,0.05431539926272844,-0.087,2.960001436089129,1.7400003396624972,-2.7141088847717905
10.853306531906128,-2.843596974753432,0.06588386056454364,-0.087,2.960001252672303,1.74000030599067,-2.743597990506089
10.873347759246826,-2.8999135496374047,0.0856659278416482,-0.087,2.9600009892366415,1.74000024840752,-2.794024368508017
10.893640756607056,-2.9455299751053516,0.10168940054168901,-0.087,2.960000833951393,1.7400002013574936,-2.8348697429924603
10.913628339767456,-2.964976977480186,0.10852045933879553,-0.087,2.960000787719031,1.7400001810445866,-2.8522827739080943
10.933699131011963,-2.9982313514384966,0.12020156880793857,-0.087,2.9600007434012854,1.7400001457085141,-2.8820590617132598
10.953833818435669,-3.02516739423044,0.12966326624051605,-0.087,2.9600007475310535,1.740000116249013,-2.9061778605150232
10.974130392074585,-3.0469855870203926,0.13732722130788375,-0.087,2.9600013929077793,1.7400000852342667,-2.9257141773416624
10.994017601013184,-3.0646583228387527,0.1435350210060032,-0.087,2.960002042075434,1.740000056290895,-2.9415386119815814
11.01411747932434,-3.0721924890492835,0.14618150272802752,-0.087,2.9600023611328647,1.7400000425945092,-2.948284824347745
11.034210205078125,-3.085075913082769,0.15070698426078452,-0.087,2.9600029783215076,1.7400000167703817,-2.9598208576702763
11.05428671836853,-3.0955114863434012,0.15437262182050365,-0.087,2.9600035585940403,1.7399999930591075,-2.9691650560708225
11.074368238449097,-3.103964300516045,0.15734178619146175,-0.087,2.960004095073637,1.7399999714627936,-2.9767338662032095
11.094751119613647,-3.1075678686082404,0.15860758716683057,-0.087,2.960004345724534,1.7399999614487802,-2.979960572580717
11.114879369735718,-3.1137299699545573,0.160772105702611,-0.087,2.960004811004466,1.7399999429512896,-2.9854782456815663
11.135280847549438,-3.1050099862487985,0.16252537979773793,-0.087,2.9600047317043745,1.739999943243486,-2.9899474942080064
11.155179023742676,-3.055930219554931,0.16394555987044096,-0.087,2.96000375859346,1.7399999739924592,-2.9935674531056424
11.175241947174072,-2.950272309450583,0.16509587807164963,-0.087,2.96000386764787,1.7399999553572558,-2.996499755180092
11.195353269577026,-2.6169389772207854,0.15373875155277944,-0.087,2.960003083624987,1.7399999687297403,-2.9977497235434765
11.215477228164673,-2.060885884131085,-0.11916578347771692,-0.087,2.9600015869159977,1.7400002588859407,-2.6655411789897583
11.235547304153442,-1.827394538704157,-0.3030223918234182,-0.087,2.9599959768182287,1.7399998713598703,-2.256581587332901
11.255620002746582,-1.464321983539499,-0.44894946153210924,-0.087,2.959995654490805,1.739999808990075,-1.8551851834059192
11.275695323944092,-1.1309886597995131,-0.6228558315140061,-0.087,2.9599946713239134,1.7399996860969644,-1.5218516488657023
11.295804977416992,-0.5190008338125202,-0.516793259085834,-0.087,2.9599932825201534,1.7399994584393332,-0.8551846309276167
11.315895318984985,-0.02329071052044021,-0.9810024378836706,-0.087,2.9599904138985997,1.7399990731749584,-0.18851737127142015
11.33598017692566,0.3086666792515669,-0.7623118893284687,-0.087,2.959987776938346,1.7399987927547977,0.3574148907736745
11.356138944625854,0.4867999747476536,-0.9820806150377469,-0.087,2.95998519579189,1.739998437809107,0.6225738973113795
11.376169204711914,0.31378660652610785,-1.044885247433556,-0.087,2.9599850087609054,1.739998574138198,0.5278835091034038
11.39624834060669,-0.3315921187788671,-0.8140569461484461,-0.087,2.9599822003168783,1.7399983206567209,-0.12580418828537654
11.41638994216919,-0.6124329203458336,-0.7156512230736715,-0.087,2.959982650673899,1.739998326652449,-0.41412360043921115
11.436466455459595,-0.8651896471508767,-0.6270860527736345,-0.087,2.95998233084176,1.7399982354287828,-0.6736109676509381
11.456543684005737,-1.092670713559083,-0.5473773541512591,-0.087,2.9599803621528546,1.739997955272386,-0.9071493601764136
11.47664761543274,-1.481663298838541,-0.41107558141881645,-0.087,2.9599812659608475,1.73999803114611,-1.3065005853860514
11.496981143951416,-1.7967472944406166,-0.3006711202278154,-0.087,2.9599812749124315,1.7399980896271297,-1.6299749657003935
11.516906499862671,-2.0519653340241253,-0.21124347438736352,-0.087,2.9599803091560264,1.7399981747352566,-1.8919890561321593
11.537176847457886,-2.258691945678041,-0.13880710312177602,-0.087,2.959980389275771,1.7399988069486534,-2.1042204187444757
11.557278633117676,-2.3468227508686614,-0.10792641273631232,-0.087,2.959983024146986,1.7399991733054243,-2.194698388971633
11.577358484268188,-2.497526417286395,-0.055120502106033406,-0.087,2.9599898007816896,1.7399997980600694,-2.3494160685191225
11.597427606582642,-2.6195963814637135,-0.01234775824470083,-0.087,2.9599966864004528,1.7400002315522058,-2.47473761445962
11.619146585464478,-2.671636733751562,0.005886929329459077,-0.087,2.9599998884854544,1.7400003822799002,-2.52816421421093
11.639246463775635,-2.760625745768138,0.03706833257824819,-0.087,2.9600025133901653,1.7400004459344296,-2.619523345300066
11.659330368041992,-2.8327068544382126,0.06232535263238917,-0.087,2.9600019306496095,1.7400003615630406,-2.6935238944480964
11.679412364959717,-2.8910925522161186,0.08278353672922441,-0.087,2.9600015282698364,1.7400002934460617,-2.753464349250967
11.699486494064331,-2.938384967221182,0.09935466400616735,-0.087,2.9600012619742064,1.7400002379265485,-2.8020161261676937
11.719749689102173,-2.9585464703965862,0.10641919658114243,-0.087,2.960001168917684,1.7400002140167634,-2.822714518193035
11.739719152450562,-2.993022640720533,0.11849954618362564,-0.087,2.9600010453991015,1.74000017254312,-2.858108773621354
11.759790420532227,-3.0209483371640413,0.128284613461694,-0.087,2.960001459472947,1.7400001356106165,-2.886778192012967
11.779952764511108,-3.0328535023180248,0.13245614025039587,-0.087,2.9600016972430474,1.7400001182400637,-2.899000426495832
11.800345182418823,-3.0532113344445806,0.13958944781975535,-0.087,2.960002208644681,1.7400000854916022,-2.9199004624076483
11.820231676101685,-3.0697011781486987,0.14536742327730112,-0.087,2.9600027417665387,1.7400000552735981,-2.9368295084251077
