liuyurong129/humanoid-gym/humanoid/data/robot2_action_20250621-221253.csv
timestamp,joint_1,joint_2,joint_3,joint_4,joint_5,joint_6
0.0003211498260498047,0.0,0.0,0.0,0.0,0.0,0.0
0.0204775333404541,0.0,0.0,0.0,0.0,0.0,0.0
0.04063725471496582,0.0,0.0,0.0,0.0,0.0,0.0
0.06066250801086426,0.0,0.0,0.0,0.0,0.0,0.0
0.08074259757995605,0.0,0.0,0.0,0.0,0.0,0.0
0.10092616081237793,0.0,0.0,0.0,0.0,0.0,0.0
0.12100100517272949,-0.86791956,-1.066974,-1.4166197,1.955852,-0.82337785,-0.17524162
0.14205217361450195,1.5037075,6.7887197,-0.87030286,7.538509,8.178584,13.11682
0.1621997356414795,-15.140893,7.042211,-5.2025666,14.252387,1.2898619,14.085347
0.18240809440612793,5.9954386,-8.654077,-10.497046,2.116231,0.3856241,12.99698
0.20239710807800293,-9.124578,19.917574,2.6525705,22.91574,9.339999,17.844645
0.2227330207824707,-9.124578,19.917574,2.6525705,22.91574,9.339999,17.844645
0.24266934394836426,2.3071103,6.103089,-7.3841457,11.453268,6.95934,17.260824
0.26271915435791016,-4.2533402,-5.063173,-10.560764,20.473444,-0.08915157,4.7597466
0.2828083038330078,-0.09371756,17.879408,-1.484213,15.370908,16.882338,18.611097
0.3028740882873535,-2.9364557,5.627032,-0.34598437,5.3040767,5.8853846,7.247189
0.32296085357666016,1.2085478,5.953706,-1.8121758,5.679363,9.400025,10.78414
0.3430607318878174,-3.3065646,-2.003284,-3.3765757,10.551019,-0.85238683,3.5593672
0.36313533782958984,0.2272378,6.509248,-2.0849476,5.6806493,9.2752695,10.842099
0.3839683532714844,0.2272378,6.509248,-2.0849476,5.6806493,9.2752695,10.842099
0.4039285182952881,-8.884075,3.2430253,-5.7774673,16.930704,-3.6104243,4.289075
0.4239773750305176,6.6761374,-20.19017,-15.152931,3.1882026,-6.3263206,-3.9293554
0.4440901279449463,-10.741991,14.335913,-2.0003147,17.308115,2.4234564,2.6849694
0.46416449546813965,-10.294561,5.8940325,-1.2094659,28.808243,-6.9468,7.4643097
0.48426151275634766,6.0357747,-21.753582,-14.242488,14.295764,-2.0824335,-0.7901615
0.5043380260467529,-7.1763844,15.462868,-2.600737,18.401812,7.5293264,5.8954535
0.5246191024780273,-9.874148,6.4108486,-0.5208844,27.6682,-4.838598,8.937029
0.5446999073028564,-9.874148,6.4108486,-0.5208844,27.6682,-4.838598,8.937029
0.5647749900817871,4.7007074,-11.560925,-9.5858,10.361289,-2.0088809,0.8584944
0.5850224494934082,-8.1294155,13.394191,3.246203,17.535286,10.205725,2.013305
0.6049301624298096,-2.0646617,2.102232,4.9719515,32.853386,2.526762,6.2445383
0.625115156173706,3.7948716,-3.9113357,-3.9486387,22.099443,-5.73832,7.018216
0.645402193069458,0.2922616,17.903027,-0.7981614,27.154741,25.583239,15.995898
0.6653389930725098,-11.272023,10.071471,-1.1100882,19.24941,-0.18693817,13.129485
0.6855015754699707,-2.8653994,9.457409,3.7760243,9.106314,10.246379,10.135803
0.7056021690368652,-2.8653994,9.457409,3.7760243,9.106314,10.246379,10.135803
0.7257359027862549,1.5867312,3.925572,-2.987042,11.7556,6.215876,10.105378
0.7458271980285645,0.48718882,-9.589057,-24.29999,27.364244,8.532078,14.898329
0.7659451961517334,-4.1824336,13.808322,-0.21598496,19.915483,9.893204,4.623038
0.7860355377197266,-1.3199978,11.807778,4.738745,10.40145,7.8702946,11.06586
0.8063633441925049,-0.28469992,1.0965327,-2.1981976,15.525039,-1.1299036,5.856162
0.8262484073638916,1.9111841,-9.454052,-10.115378,5.2742367,3.273875,6.4443226
0.8463349342346191,1.9111841,-9.454052,-10.115378,5.2742367,3.273875,6.4443226
0.8666982650756836,-0.9163687,17.029755,0.6311388,25.519815,9.89345,9.725798
0.8865909576416016,-1.1591873,9.1429405,3.5086422,10.106663,6.014607,8.795585
0.9067010879516602,-0.32298827,0.4505142,-2.2563496,16.217127,-1.7829573,4.468999
0.9267852306365967,4.698919,-16.557142,-17.854513,7.624289,2.34425,8.178807
0.9468708038330078,-4.244803,16.407143,0.9308604,24.535994,3.0814497,10.105136
0.9669630527496338,0.57081556,9.875887,2.5545533,12.432625,8.520669,11.071525
0.9871237277984619,-2.2381928,5.4233003,-1.5548359,16.156612,-2.3636076,3.3567078
1.0076861381530762,-2.2381928,5.4233003,-1.5548359,16.156612,-2.3636076,3.3567078
1.0278172492980957,1.5105953,-14.100661,-12.381313,3.5527468,-3.476939,-2.0145838
1.0478851795196533,-7.142929,16.743647,-4.488076,22.045475,10.708898,10.174421
1.0679678916931152,-10.34274,4.549953,-5.8910036,29.99356,-9.793399,10.18577
1.0880651473999023,5.807177,-25.25179,-19.51465,16.540998,-1.999599,0.72489035
1.1081666946411133,-4.117932,15.46284,-3.851751,21.06378,11.448373,7.8815403
1.128249168395996,-8.689943,6.2145834,-0.43390647,25.55643,-3.5063767,9.958138
1.148296594619751,5.9457684,-9.4732685,-9.469428,8.448836,-0.42092794,2.3370068
1.1695311069488525,5.9457684,-9.4732685,-9.469428,8.448836,-0.42092794,2.3370068
1.1896641254425049,-4.9187036,17.134726,2.215622,22.268606,16.65516,8.09199
1.2097415924072266,-0.09425472,4.85944,2.699171,21.047337,5.6559906,10.5108795
1.2299814224243164,-2.4843922,2.603011,-0.4004675,12.18189,-0.2677781,2.9365475
1.249995231628418,0.15539528,-0.628058,-3.0471394,5.749653,5.5558805,4.9721336
1.2701029777526855,-8.885178,5.572761,-3.7466755,12.486645,1.0354601,9.906807
1.2902436256408691,5.6222806,-16.144556,-16.123228,3.9479818,0.78199273,8.738422
1.3102750778198242,-3.5006196,16.835678,0.38367996,24.332418,17.596766,7.761078
1.3303587436676025,-1.3024921,9.78968,3.217417,13.917402,4.5727234,13.990006
1.3506486415863037,-1.3024921,9.78968,3.217417,13.917402,4.5727234,13.990006
1.3707737922668457,-1.4292686,2.4637978,-1.5862501,17.288984,-1.8050462,5.2410955
1.3908514976501465,3.574697,-12.956654,-11.950337,4.9612856,1.0213803,5.935697
1.410937786102295,-4.4381757,16.297995,-0.7899138,23.794151,4.6311026,10.391453
1.4310452938079834,0.32130003,9.792743,4.212534,9.3178,8.925301,10.5019
1.4512536525726318,-1.9086056,3.6771882,-2.6399698,19.74756,-4.8590894,3.2186925
1.4715886116027832,2.8650413,-11.373691,-11.144028,4.3472238,0.77891177,4.0447397
1.4914119243621826,-7.5276732,18.124712,-2.6297383,21.339972,5.8295918,16.044075
1.5114591121673584,-7.5276732,18.124712,-2.6297383,21.339972,5.8295918,16.044075
1.5316884517669678,0.15380575,9.886617,4.3370047,8.969359,9.254661,12.165547
1.551802635192871,-2.0977783,2.6985738,-1.7375954,14.568841,-3.2745469,3.9770038
1.57183837890625,1.6044059,-19.131243,-15.59112,3.4390123,-1.8036098,-2.9163015
1.5919036865234375,-7.562205,15.06297,-4.10144,20.096235,9.010139,8.247805
1.6120021343231201,-11.171882,4.9088283,-5.0762243,28.360126,-8.539632,9.815699
1.6320784091949463,5.730678,-23.857529,-16.920168,14.864258,-2.1131897,-0.6459259
1.6521456241607666,-5.7597165,15.604867,-3.3359883,19.686968,10.186072,7.5501323
1.672450065612793,-5.7597165,15.604867,-3.3359883,19.686968,10.186072,7.5501323
1.6925501823425293,-10.831639,6.22117,-2.495018,28.36066,-6.1973743,9.532968
1.7126455307006836,5.0022597,-10.018975,-9.017387,8.229993,0.048515614,1.5086232
1.7327053546905518,-5.2864223,16.78487,2.6656137,22.029577,15.598462,5.5892963
1.752793312072754,0.6534977,3.7005248,3.1278725,23.753056,5.021433,9.006685
1.772939920425415,-5.5433674,3.2470071,-3.0522063,14.369561,-1.5921923,1.8995563
1.7929487228393555,-2.6854577,-4.1716185,-3.0978203,4.3343306,1.9845309,0.90407526
1.8130102157592773,7.6810966,21.911203,-4.417613,26.3744,29.857714,20.63102
1.8332014083862305,7.6810966,21.911203,-4.417613,26.3744,29.857714,20.63102
1.8532757759094238,-13.3398695,5.299959,-9.335905,33.65025,-3.7992618,11.134301
1.8733489513397217,-6.689833,6.3682814,4.4834957,9.205273,6.470023,4.5670214
1.8935432434082031,2.4607933,2.0679328,-2.7108245,12.906735,5.559404,7.0499277
1.9135422706604004,-0.46382284,-8.011823,-35.545765,36.630386,12.28822,22.784857
1.9336178302764893,-2.3240752,19.780272,5.813703,22.317917,2.0531025,7.9139643
1.9537107944488525,-1.4411035,4.983976,-0.14353956,16.179594,1.6605078,10.06185
1.9738199710845947,2.1975923,-0.4468575,-3.909167,9.006799,10.8349905,9.716148
1.993945598602295,2.1975923,-0.4468575,-3.909167,9.006799,10.8349905,9.716148
2.01406192779541,-3.4927626,0.6677026,-2.2044325,9.806352,3.2537801,5.7226887
2.0341458320617676,0.92116356,6.0566206,-0.17970206,6.0370264,7.02526,9.168127
2.0542120933532715,-2.0620084,-0.24399646,-2.900387,5.226072,3.2468965,5.1786375
2.0743539333343506,1.0252359,0.8450324,-2.325132,2.3685904,5.1235223,6.173649
2.094437599182129,-4.0395045,0.81550044,-8.748083,15.05661,0.63607323,9.397903
2.114532947540283,8.959828,-19.437918,-19.92213,7.45624,-3.1261237,5.2452145
2.134610414505005,-3.5501885,16.13455,-5.0672565,20.196491,10.189453,12.011713
2.1548678874969482,-9.199895,6.8620405,-2.0133371,26.475546,-7.31644,10.448069
2.1750664710998535,-9.199895,6.8620405,-2.0133371,26.475546,-7.31644,10.448069
2.1951215267181396,5.9134974,-22.772688,-16.237597,14.098821,-4.017002,-2.1825392
2.215179204940796,-8.094396,15.562844,-5.0089884,19.288446,5.5448136,6.5354037
2.2352890968322754,-10.393802,6.5472274,-0.51457584,27.524874,-4.7438884,8.879063
2.2553980350494385,4.484836,-16.135942,-11.536238,11.539163,-3.1263971,-1.3585743
2.275486707687378,-8.127243,13.17332,2.4747007,17.239567,7.782961,0.22118583
2.295560121536255,-5.0213504,4.2986746,4.4524746,37.445015,1.0778322,7.0820875
2.315615653991699,5.5597258,-9.85842,-7.196424,23.356743,-10.318715,3.1011243
2.336725950241089,5.5597258,-9.85842,-7.196424,23.356743,-10.318715,3.1011243
2.3568150997161865,-0.57157516,16.983835,-0.016620059,27.445665,24.088861,15.093101
2.376986503601074,-7.8842006,10.557326,3.81592,11.485711,3.7934058,11.101075
2.3969860076904297,1.6048121,7.000677,-3.46625,14.006185,8.333108,14.176938
2.417041778564453,-2.6787596,-9.271211,-18.154207,25.40726,3.2560465,10.244412
2.4371161460876465,-0.3516438,22.6766,3.1751132,21.798723,18.023561,12.933187
2.457355499267578,-2.0867844,4.4987955,0.06547986,17.462206,0.026489552,8.2040615
2.4773318767547607,-1.947796,3.259972,0.6566498,8.536406,6.080221,3.89897
2.497382879257202,-1.947796,3.259972,0.6566498,8.536406,6.080221,3.89897
2.5174872875213623,-0.35286617,3.5108109,-0.44151297,5.0357237,7.923743,5.1890783
2.537571430206299,1.8036714,-14.438415,-20.62089,20.61731,-1.0911875,5.6241455
2.557708263397217,-3.7308645,6.7827153,-5.3641615,16.771826,9.548142,3.5917819
2.578097343444824,0.046063434,9.21638,1.9387276,10.740538,6.8349686,12.714248
2.5979301929473877,-1.2328132,5.256988,-2.5460622,15.525381,-1.4869124,3.8284984
2.6183183193206787,-0.85821843,-6.661895,-4.132642,3.7879431,-0.47215933,1.0864546
2.638230085372925,4.456984,13.348646,-3.985495,15.724845,19.761328,12.355853
2.65830397605896,-14.293968,5.3164406,-12.384031,34.321373,-7.066105,6.937149
2.678445339202881,-14.293968,5.3164406,-12.384031,34.321373,-7.066105,6.937149
2.6985392570495605,2.6033773,-16.85466,-14.797134,8.718845,-4.2228923,-1.5343436
2.7185981273651123,-9.032466,16.386148,-2.1743686,20.13117,6.3476543,6.2780766
2.7388064861297607,-9.740957,5.5561075,-1.7620085,30.081865,-8.947919,7.028594
2.758833885192871,5.122609,-22.191713,-15.0211735,13.501312,-2.0633628,-0.6820673
2.7789371013641357,-7.6416445,16.296701,-2.1485972,19.656958,8.068739,6.4230256
2.7989895343780518,-9.510862,6.080917,-0.73427474,28.79349,-6.10071,8.518102
2.819047212600708,4.9093237,-14.23487,-10.980148,10.976437,-2.3269014,-0.10874019
2.839165449142456,4.9093237,-14.23487,-10.980148,10.976437,-2.3269014,-0.10874019
2.8592255115509033,-7.9325166,13.346233,3.1002169,17.807198,9.251243,0.6332756
2.8794140815734863,-3.302927,3.5213685,5.4033194,38.24688,1.7767944,6.6261077
2.8994295597076416,6.253113,-9.933594,-7.5622587,23.74256,-9.073033,4.0080523
2.919516086578369,-0.64663076,17.06856,-0.2450613,27.772535,24.086477,15.192212
2.939605712890625,-6.982485,10.652647,3.7671704,11.424468,4.7142067,11.9413185
2.959676504135132,1.618444,6.9028835,-3.6055396,14.095647,7.8111,14.309796
2.980107307434082,-2.6197844,-9.00311,-17.643595,23.854948,4.019358,9.794812
3.0002200603485107,-2.6197844,-9.00311,-17.643595,23.854948,4.019358,9.794812
3.020263195037842,-0.15991352,22.424242,2.9111123,21.879955,18.233294,13.138691
3.0404582023620605,-2.4584434,4.8597026,-0.16068329,16.89831,0.23607618,7.8020673
3.0604889392852783,-1.6620011,4.158302,0.9634512,9.498375,7.1439357,4.507604
3.08058762550354,-0.66453576,4.3781605,-0.53170747,5.391534,6.5893197,4.956273
3.100675582885742,3.693788,-13.064781,-14.1093645,4.7801194,4.4201236,4.4160347
3.120776891708374,-1.4550635,17.412764,2.5682046,27.582262,16.864325,4.135663
3.1408629417419434,0.34676647,1.9263898,1.4307824,16.265802,0.8611978,10.085423
3.160926103591919,0.34676647,1.9263898,1.4307824,16.265802,0.8611978,10.085423
3.183375835418701,-5.965178,2.2726996,-4.123254,9.385038,-0.09770615,3.9212787
3.2035746574401855,-8.691701,6.249957,-9.822844,18.521324,-2.53508,17.508562
3.2290689945220947,6.329108,-26.31325,-21.819992,11.442935,-2.786986,-0.514585
3.2490930557250977,-5.712964,16.852884,-5.475797,22.26999,10.187912,8.760266
3.26918888092041,-11.021375,6.8556285,-2.793848,26.808691,-6.1958814,11.470195
3.289341688156128,5.0365667,-11.537406,-10.067178,7.620338,0.39991492,1.4696442
3.3093409538269043,5.0365667,-11.537406,-10.067178,7.620338,0.39991492,1.4696442
3.329460620880127,-4.589348,17.625822,1.9880298,23.264345,17.90634,6.6189585
3.349684953689575,-4.3620043,3.0819716,3.9313345,30.2362,0.028910693,6.7378902
3.3696415424346924,2.8442173,-8.180776,-3.8174396,24.730305,-11.270547,0.42428485
3.3899779319763184,-1.9541055,17.985966,-0.25896636,25.922619,19.195215,10.83898
3.410076379776001,-13.461893,8.555108,-4.1480303,26.181917,-6.171099,13.951041
3.430166721343994,0.784925,-10.36189,-9.802067,1.9298698,2.6612668,4.345053
3.450228214263916,-0.6977446,20.542467,-0.33547917,26.917913,24.715082,12.980046
3.470278263092041,-0.6977446,20.542467,-0.33547917,26.917913,24.715082,12.980046
3.490408182144165,-4.7848196,9.8937,3.3209362,9.354251,4.7575455,10.24984
3.510484457015991,1.1425791,4.865096,-3.3379254,14.801977,5.4368615,12.327044
3.5305676460266113,-1.2621012,-7.5418086,-14.331614,18.034376,5.7497153,7.7886157
3.5506420135498047,1.6492339,20.717728,0.45477065,21.957247,19.428144,12.078947
3.5707345008850098,-4.131314,6.100987,-1.7799343,7.8340445,4.369843,8.196994
3.5911736488342285,1.6785498,4.076784,-1.3087,6.394174,7.346121,9.677164
3.611027479171753,-4.3068976,-1.268983,-3.5571587,9.951981,1.3392681,5.0506954
3.6311826705932617,0.01137067,2.8842638,-0.294824,2.4674795,6.369627,5.6459312
3.651287794113159,0.01137067,2.8842638,-0.294824,2.4674795,6.369627,5.6459312
3.6713669300079346,-2.4501355,0.3795914,-3.2561514,6.3238635,4.374712,6.6679597
3.6914572715759277,3.6382992,-8.105367,-8.447133,2.4102538,-0.4577827,5.5200887
3.7115228176116943,-3.8405924,19.265566,-5.165996,23.258825,13.705401,17.754196
3.7316198348999023,-7.812757,6.4709435,-2.0770712,27.606153,-5.6103144,12.2174015
3.7516961097717285,6.0987606,-23.995386,-17.253336,14.723849,-4.2514744,-2.5923183
3.7718539237976074,-8.253619,14.003945,-5.544205,17.970057,4.441887,5.2099233
3.791914939880371,-10.051821,5.6306725,-0.52270496,27.506212,-4.101819,8.393628
3.8120036125183105,-10.051821,5.6306725,-0.52270496,27.506212,-4.101819,8.393628
3.832089900970459,4.125059,-18.720217,-12.7540245,11.330426,-3.036876,-1.8430544
3.8521947860717773,-8.809861,13.946433,0.24989186,16.791994,6.378233,1.945213
3.8722422122955322,-10.134273,7.285968,1.051284,28.481977,-3.0946686,6.84087
3.8923516273498535,4.129919,-12.260188,-8.419042,15.009078,-7.5360756,-1.6932615
3.912473678588867,-7.891248,14.310865,2.7098522,19.36109,9.256234,1.4286348
3.9326672554016113,-6.180353,3.0334668,4.399749,38.882523,-1.7647982,5.002153
3.9526302814483643,3.845407,-13.390751,-7.9912915,23.366314,-13.609563,-3.02654
3.9728035926818848,3.845407,-13.390751,-7.9912915,23.366314,-13.609563,-3.02654
3.992945671081543,-4.2807355,18.258806,1.1493717,26.278927,14.604945,6.7083573
4.012960195541382,-10.44793,5.7572403,-0.99206245,31.355013,-6.7100525,7.8449545
4.033032655715942,4.0847306,-14.5958395,-13.487453,6.8900094,3.7018108,4.0867534
4.053170919418335,0.20916845,18.465145,5.076824,30.746576,25.51284,4.752242
4.07349419593811,-3.0704913,5.8687444,1.3008856,17.981276,0.16520554,7.362222
4.093487501144409,-1.3612511,7.4769535,-1.1861802,9.2939,9.373685,10.903527
4.113555431365967,-2.4520962,-1.3193365,-7.6491795,10.080012,7.619834,7.6154556
4.134234666824341,-2.4520962,-1.3193365,-7.6491795,10.080012,7.619834,7.6154556
4.154370069503784,0.09906341,5.578561,-1.7889174,6.9147615,11.886011,7.120182
4.174427032470703,-1.5974596,2.9224024,-0.62667227,10.444122,6.2253323,8.041412
4.19451904296875,0.14355852,5.941966,0.13942169,6.3710833,8.625394,7.316403
4.2148191928863525,-2.9514513,-2.463576,-4.7234693,11.278413,-1.4785521,2.744599
4.234807968139648,1.4108355,4.0994806,-2.9566164,4.667341,11.568492,9.160773
4.255053281784058,-12.925198,4.794322,-10.256657,26.383707,-5.590725,6.8447366
4.275008916854858,3.751955,-16.960388,-14.4209795,5.5949855,-3.9837053,-1.1097959
4.29505181312561,-9.821431,15.43427,-1.8055633,19.095207,5.016743,4.6478314
4.315364599227905,-9.821431,15.43427,-1.8055633,19.095207,5.016743,4.6478314
4.335451602935791,-9.95794,5.272043,-1.6838444,29.3049,-8.43118,7.006428
4.355545520782471,4.8959126,-21.714155,-14.412814,12.73483,-1.6128173,-0.53130853
4.375639915466309,-7.881643,16.224876,-1.9968978,19.565573,8.087123,6.379637
4.3959574699401855,-9.594058,6.1910696,-0.68616474,28.306156,-5.8210335,8.611134
4.415984153747559,4.582845,-14.225274,-10.776196,10.687457,-2.0482814,0.044910572
4.435957908630371,-8.06479,13.144834,3.0767586,17.514204,8.988384,0.3433334
4.45636773109436,-3.0512586,3.7327354,5.0264025,37.684563,2.2846727,7.13581
4.476293563842773,-3.0512586,3.7327354,5.0264025,37.684563,2.2846727,7.13581
4.496378660202026,6.0740204,-9.0989,-7.1109324,23.363829,-8.472812,4.926792
4.516482591629028,-0.48963022,17.327326,-0.26333132,27.819792,24.589334,15.531726
4.53654670715332,-8.308361,10.526109,3.637805,12.4112,3.648384,11.8146105
4.556627035140991,1.2915859,6.999354,-3.3141625,14.017325,7.7626934,13.938108
4.576798439025879,-2.5291095,-8.929218,-17.184046,22.704088,3.6563954,9.771703
4.596868276596069,0.0016777627,22.621538,2.3773863,22.403728,19.68342,13.388173
4.616919040679932,-3.2217336,5.4537244,-0.52392924,13.930989,0.98051053,7.1510615
4.637038230895996,-0.68584013,5.3770437,0.70607823,9.293639,8.284991,6.0530033
4.6584792137146,-0.68584013,5.3770437,0.70607823,9.293639,8.284991,6.0530033
4.678513526916504,-1.4290001,2.6304379,-0.9812149,3.5457063,5.246703,4.691203
4.6985814571380615,3.7612886,-14.291577,-12.130194,1.7257303,1.0645766,1.8173968
4.732331991195679,3.7612886,-14.291577,-12.130194,1.7257303,1.0645766,1.8173968
4.75764012336731,3.7612886,-14.291577,-12.130194,1.7257303,1.0645766,1.8173968
4.77774715423584,-0.60006875,15.780467,2.2535715,24.856329,14.8787565,3.227503
4.797818660736084,-0.32724047,1.3919975,0.63108265,16.695374,-0.04390884,8.468288
4.818212985992432,-1.2662305,-1.0395945,-2.8798065,3.5980515,2.4260242,4.445395
4.83812952041626,-6.605033,7.9919605,-0.9188732,8.38763,0.7227937,11.048936
4.8581862449646,7.7228293,-20.734613,-18.565401,4.997132,-1.6049035,4.515529
4.8782570362091064,-5.705477,14.903093,-1.8050815,20.18837,13.402514,8.83833
4.898345708847046,-5.7754555,6.6169405,0.31385478,21.061544,-1.9820198,10.807065
4.9185168743133545,1.4870946,-5.953334,-2.9101095,11.375511,-2.271486,1.9544162
4.938619375228882,1.4870946,-5.953334,-2.9101095,11.375511,-2.271486,1.9544162
4.958714962005615,-3.9402213,16.582304,-3.116394,20.118292,14.258388,12.062432
4.978830337524414,-9.682741,6.9906774,-3.723856,29.243727,-5.964788,13.20056
4.998870372772217,5.3893747,-19.573088,-14.225944,14.420394,-2.2637577,-0.26669726
5.01913595199585,-7.745177,15.663533,-1.5822471,19.314081,8.333875,5.0871067
5.039100170135498,-10.334854,6.6002645,-2.0311422,28.87116,-5.0151067,9.944244
5.0591912269592285,4.9299173,-13.040029,-10.269553,11.521132,-1.669078,0.6449448
5.079267501831055,-7.815288,13.499211,3.0332685,17.960793,10.111661,1.6347228
5.099388122558594,-7.815288,13.499211,3.0332685,17.960793,10.111661,1.6347228
5.119470596313477,-3.0767922,2.334801,5.3225985,35.88819,2.0507221,6.0891204
5.139563798904419,6.3181863,-9.521724,-7.674221,25.071257,-8.533617,5.3988633
5.1596457958221436,-0.46492767,17.023174,-0.649547,26.959364,23.19414,15.185084
5.179791688919067,-9.149555,9.629806,2.741984,13.435253,2.4204648,11.991061
5.1998279094696045,0.6503906,7.5859103,-2.6691327,12.943167,8.453408,12.716334
5.2199578285217285,-1.770977,-8.721225,-16.71866,20.966898,3.472808,10.38244
5.240251541137695,1.2528303,22.774961,0.8615595,24.60702,22.349493,13.766971
5.260236740112305,1.2528303,22.774961,0.8615595,24.60702,22.349493,13.766971
5.280303001403809,-3.7821708,6.838516,-0.89013255,8.126947,4.269095,8.275851
5.30067253112793,1.2268925,6.9674444,-0.8250016,7.9357567,9.221619,10.764712
5.320577383041382,-4.968677,-0.26920897,-5.069559,13.0350275,1.0546675,7.9982653
5.3414857387542725,1.2429309,-2.9951642,-4.000036,0.96146595,2.6320384,4.816208
5.361539840698242,-2.0564418,22.104069,-3.6985202,29.74293,23.543873,19.052013
5.38164758682251,-2.5192244,7.535791,2.4322758,16.202429,2.2381186,17.330837
5.401970386505127,-1.3986654,2.2822332,-2.2317672,13.376128,0.65120476,6.745321
5.422050476074219,-1.3986654,2.2822332,-2.2317672,13.376128,0.65120476,6.745321
5.442158222198486,6.345723,-10.271358,-21.278996,18.480299,4.1731396,17.955889
5.46222710609436,-0.22548006,16.001402,-1.0729207,25.736696,11.609928,7.018403
5.483023405075073,-1.8052429,7.786129,1.3252214,8.437131,5.899655,7.582053
5.502596378326416,-0.67724633,4.0623965,-1.1594962,10.158645,3.927685,6.1102066
5.522674083709717,4.425314,-12.767501,-17.385218,15.541619,1.3277776,7.762774
5.542803525924683,-2.7279673,12.136351,1.0805807,20.675444,10.254092,1.0665699
5.562861204147339,0.35481358,7.035272,0.7163292,12.330955,6.494884,10.385153
5.5842859745025635,0.35481358,7.035272,0.7163292,12.330955,6.494884,10.385153
5.6041929721832275,-4.298788,2.948625,-3.5724978,6.179409,2.4227564,5.654487
5.624283075332642,-3.8556905,1.5020865,-2.8164465,14.695067,-0.53370327,4.314384
5.6443891525268555,9.772633,-25.277424,-19.46966,16.210955,-6.1150203,-1.8249997
5.664438962936401,-5.8203382,14.397509,-5.212006,19.409292,7.4881506,4.767161
5.68457293510437,-12.168331,6.328496,-2.7846508,27.269926,-6.8204947,8.324672
5.704713821411133,5.318462,-20.219065,-13.502835,16.753164,-4.2591395,-1.4189571
5.724738836288452,-6.5625043,16.292995,-2.9536066,19.523954,8.5255,7.342772
5.744867324829102,-6.5625043,16.292995,-2.9536066,19.523954,8.5255,7.342772
5.7649641036987305,-10.979757,7.162494,-1.4879206,27.539183,-4.6152964,10.055569
5.785048484802246,4.8166595,-9.3739605,-8.483705,9.608234,-0.9566942,2.0662034
5.805089235305786,-6.325171,15.143056,3.4289403,19.965368,13.673049,5.5594597
5.825211763381958,1.751473,3.8617334,1.33379,21.124708,4.7806625,10.161451
5.84525728225708,-5.412228,5.925258,-2.170866,7.5181513,1.9885765,3.4100945
5.865357160568237,1.9639988,-0.21093233,-6.32158,5.0734267,7.4896216,8.900018
5.885422229766846,-7.159922,6.8730164,-6.638265,21.25332,3.0924933,14.200916
5.905534505844116,-7.159922,6.8730164,-6.638265,21.25332,3.0924933,14.200916
5.925682783126831,7.282191,-10.941717,-13.648138,6.565649,2.9554732,11.317795
5.946049690246582,-0.18918331,18.946062,-2.2953415,23.190992,18.780832,10.6165
5.965905666351318,-4.732395,8.915667,2.9638815,9.2295065,3.7877882,9.001184
5.986027240753174,1.8674364,3.5349069,-4.072385,15.817991,4.809238,12.173824
6.006086826324463,-0.6718793,-5.1832237,-19.998943,25.864676,6.1430683,13.8639345
6.02616810798645,-1.3853922,17.982046,3.414483,17.868551,6.74236,7.0460696
6.046626091003418,-1.3580658,2.5748878,-0.9814981,18.337433,-1.0946128,6.846264
6.066718578338623,-1.3580658,2.5748878,-0.9814981,18.337433,-1.0946128,6.846264
6.086801767349243,2.697699,-9.696248,-9.307131,5.1144595,1.5279986,3.7043564
6.106884717941284,-5.8150053,15.970956,0.68297875,21.292805,3.59478,10.591338
6.126992225646973,0.32404184,9.879639,2.5063875,11.192331,8.687473,11.67571
6.147054672241211,-2.2612302,4.785123,-2.1871948,15.390014,-1.7596045,4.3410077
6.1671295166015625,2.2365608,-15.477519,-13.679696,2.8835614,-3.6508338,-1.2376875
6.192996978759766,2.2365608,-15.477519,-13.679696,2.8835614,-3.6508338,-1.2376875
6.2169859409332275,-8.666317,15.567282,-3.2861786,21.095274,8.547755,7.5304184
6.237071752548218,-10.589462,4.236027,-5.1497498,30.42161,-9.9546175,8.275427
6.257362365722656,5.6831093,-24.65648,-18.42117,15.768306,-2.3332627,-0.08981214
6.277345657348633,-5.234347,15.5258875,-3.797196,20.310682,9.931133,7.5414953
6.297637462615967,-10.352943,6.140792,-1.8964261,28.621965,-6.127039,9.283576
6.3175153732299805,5.3434153,-12.801625,-11.00466,10.490798,-1.1734334,0.79595387
6.337759971618652,5.3434153,-12.801625,-11.00466,10.490798,-1.1734334,0.79595387
6.357744216918945,-6.514196,14.284444,2.8538966,19.269835,12.449008,2.999924
6.377925634384155,-2.2612958,1.9456166,5.478884,31.30761,2.2668037,5.4012327
6.397969007492065,3.2401805,-3.5335875,-3.3696578,23.119812,-6.772292,7.740956
6.418046474456787,0.657778,17.99455,-1.015901,27.657606,26.003304,16.261835
6.438143014907837,-11.49218,9.4668865,-1.7104734,20.647158,0.004753645,13.426597
6.458230257034302,-2.9341545,9.434826,4.043584,9.273673,10.283642,10.042619
6.4785475730896,1.6302414,3.8535564,-2.9438558,12.155871,6.494684,9.71432
6.498837947845459,1.6302414,3.8535564,-2.9438558,12.155871,6.494684,9.71432
6.518996715545654,1.2311416,-10.100315,-27.977083,31.800785,8.746862,17.832514
6.539095640182495,-5.4216146,11.949314,-1.708087,21.643976,8.200811,3.2173746
6.559248208999634,-1.5815158,12.095114,5.00249,10.69613,7.973744,10.495836
6.579295873641968,-0.10538505,1.722273,-2.2302802,14.825491,-0.7088855,6.696127
6.599350929260254,1.8376608,-9.168925,-9.806913,5.3768315,4.005219,6.6443605
6.619541883468628,0.6774332,17.288454,0.37917873,26.227625,16.60954,9.755022
6.639535903930664,-1.8585172,8.54297,1.8349248,9.661997,4.9894514,7.8913383
6.659728288650513,-1.8585172,8.54297,1.8349248,9.661997,4.9894514,7.8913383
6.679829835891724,-0.14320539,4.0940313,-1.0104866,11.972109,3.4701507,7.1176434
6.700005531311035,2.0633025,-9.049306,-13.529041,9.302768,5.4861827,8.560982
6.720064401626587,-0.29690278,15.804341,-0.3900527,23.225943,16.329872,7.261751
6.740211725234985,-1.4145095,9.924058,3.1027002,10.054307,4.4050436,8.707141
6.760262727737427,-0.035646427,-0.18130614,-3.0332978,17.111273,-2.2563202,5.8761516
6.78036904335022,5.0691833,-13.385597,-17.50963,7.9309254,1.0502274,7.8982162
6.800399541854858,-7.009299,14.271526,0.6670629,19.61872,1.5771911,13.939913
6.821180105209351,-7.009299,14.271526,0.6670629,19.61872,1.5771911,13.939913
6.841296195983887,-0.1757829,8.583817,1.3477267,11.121717,7.402013,10.773847
6.861619710922241,-1.6795914,5.484594,-0.6997191,8.313039,2.7219775,4.86894
6.881547212600708,2.907127,-12.872243,-11.84169,2.6960716,0.2684074,3.618056
6.901612281799316,-3.0596848,14.951535,0.16691361,21.510157,17.219862,7.9493923
6.921691179275513,0.8270891,8.793567,2.423275,11.524932,4.8686943,15.958726
6.941771507263184,-2.255182,5.836342,-3.5771227,20.794785,-4.650213,1.9559914
6.961855411529541,4.432591,-15.763786,-16.377625,6.6456437,-3.0737355,-1.1818694
6.982250690460205,-2.920197,21.57531,-11.327642,25.423304,12.983252,22.035246
7.002356767654419,-2.920197,21.57531,-11.327642,25.423304,12.983252,22.035246
7.022456169128418,-10.452887,7.2917495,-4.3406878,27.99648,-5.8797455,15.73181
7.04252552986145,5.0194182,-17.570566,-13.801705,9.99146,-2.9381554,-1.9457463
7.062921047210693,-8.213935,15.785647,-0.9437121,19.139864,8.9164715,5.3161445
7.082781553268433,-11.106183,5.717407,-2.3418074,29.829634,-7.849842,6.72851
7.102898359298706,5.3357954,-20.48295,-14.110972,14.296411,-2.364526,-0.3269976
7.122949838638306,-6.8061767,14.62977,-0.8633441,18.787054,9.836533,4.948161
7.143012762069702,-6.8061767,14.62977,-0.8633441,18.787054,9.836533,4.948161
7.163229465484619,-10.574675,6.7387543,-0.8314322,28.274195,-5.1720448,8.503451
7.183241844177246,4.311168,-8.188622,-7.648203,7.28665,0.26721734,2.2625911
7.203309059143066,-5.5206013,17.73976,2.6034062,22.404247,15.433972,6.073382
7.223403453826904,1.7266004,5.853561,-1.1977719,14.003086,7.07507,13.581277
7.243475675582886,-4.6960635,-0.16713913,-5.038256,11.949731,2.5280097,4.0846777
7.263578653335571,2.9573529,1.6031259,-3.9780989,4.574778,7.5178337,9.195213
7.283663511276245,-9.574442,4.8066535,-7.331024,19.67034,0.6217914,11.131492
7.30403995513916,-9.574442,4.8066535,-7.331024,19.67034,0.6217914,11.131492
7.32416558265686,6.325696,-14.245973,-15.269396,6.3997874,0.5495873,8.451318
7.344237327575684,-5.0239635,17.759283,-1.1709424,22.349758,13.362845,9.2912655
7.364365100860596,-9.767578,7.9255476,0.31933412,25.92302,-6.097679,9.195454
7.384446620941162,3.2429013,-17.452665,-10.772346,13.280549,-6.388854,-3.4652288
7.40481162071228,-8.976721,14.994336,0.3714212,18.778824,7.0351257,3.0179377
7.4247658252716064,-10.53863,6.787593,1.0160619,28.27772,-4.302009,6.3662677
7.445207595825195,3.1554832,-15.024456,-8.933276,14.866206,-7.3151894,-3.4782982
7.4655985832214355,3.1554832,-15.024456,-8.933276,14.866206,-7.3151894,-3.4782982
7.485473155975342,-7.6997952,15.736888,0.7075144,19.94287,9.138115,3.4576685
7.505534887313843,-10.292347,6.2534485,0.9602853,29.58941,-4.4344664,6.3928967
7.5255982875823975,3.59842,-13.350118,-8.856577,13.804799,-5.7888927,-2.16971
7.545722484588623,-7.8959084,15.09848,2.9372668,20.456661,10.481793,1.4241077
7.565779447555542,-6.0796523,3.38125,4.3730803,39.37802,-1.9475601,5.3524504
7.5859010219573975,3.4610696,-13.369138,-7.6117945,22.425371,-12.892819,-3.6085126
7.605919361114502,-3.92284,18.64918,1.5324208,27.080341,16.399643,7.053798
7.626181125640869,-3.92284,18.64918,1.5324208,27.080341,16.399643,7.053798
7.646282196044922,-9.996019,5.4056196,-0.273981,32.568108,-6.9335823,7.274832
7.66637110710144,4.211096,-17.692385,-15.708246,6.980761,4.6385193,3.87972
7.686469316482544,1.6622837,19.237368,3.6946545,33.297634,27.320536,4.874315
7.706758499145508,-4.6211705,7.7277436,-0.11230029,21.070885,-0.7715363,6.5793395
7.726943731307983,-2.7586951,6.8201094,1.7926244,11.256044,7.742274,5.930829
7.74695611000061,1.132302,6.2079268,-2.447668,8.832671,8.943227,9.677136
7.767018795013428,-1.5063357,-7.6090884,-18.02185,20.80893,5.5015574,11.159801
7.78712272644043,-1.5063357,-7.6090884,-18.02185,20.80893,5.5015574,11.159801
7.807242155075073,-0.2889428,13.684939,-1.3505026,15.598949,16.325294,8.433617
7.827362298965454,-2.309682,8.713475,1.2696491,10.396642,7.4269457,9.155052
7.847432374954224,0.6615639,5.5409865,-1.6618729,8.2851715,5.28712,8.852615
7.867522239685059,-0.2870996,-4.687375,-8.062795,8.124917,4.877652,6.066464
7.887591600418091,1.3874016,14.2046175,-1.6563057,17.219187,21.062605,9.224125
7.907689571380615,-3.909855,2.3640258,-1.0248529,8.518251,3.7727354,7.3046074
7.927775859832764,0.78138065,5.2983875,-0.31920996,8.472382,5.6574516,9.075582
7.947948694229126,-2.5704765,1.4750036,-2.492151,3.0185997,3.3345242,5.1307683
7.968052864074707,-2.5704765,1.4750036,-2.492151,3.0185997,3.3345242,5.1307683
7.988203763961792,4.6291995,-11.290299,-11.203487,2.5727031,-3.3078742,2.1633275
8.008249521255493,-6.1308494,14.665265,-3.414126,17.679646,8.97061,8.618677
8.028324604034424,-8.955831,4.905322,-4.1814747,29.895113,-8.42117,8.649746
8.048424005508423,6.625774,-21.835026,-16.953844,15.972504,-5.8152876,-1.9576858
8.06850528717041,-8.429206,15.640729,-5.753793,19.513105,4.6264296,6.4004345
8.088573932647705,-10.325848,5.726476,-1.2369012,28.704147,-4.815547,9.035828
8.108735084533691,5.0083404,-20.398294,-14.023664,14.413318,-3.2156825,-1.550125
8.128799438476562,5.0083404,-20.398294,-14.023664,14.413318,-3.2156825,-1.550125
8.148903369903564,-8.087664,15.255152,-2.2421882,17.854097,6.616986,5.2019987
8.169225931167603,-10.802227,7.0013814,-0.9109477,28.178917,-4.2273664,8.927572
8.189156770706177,4.622565,-9.392779,-8.424834,8.901895,-1.1361382,1.1621734
8.209256887435913,-7.1902213,14.473471,3.6084545,18.846912,11.406573,2.752591
8.229321002960205,0.5236907,2.5400898,3.2634706,26.070017,3.914522,7.722106
8.249410390853882,-3.8523269,2.628583,-3.6209297,18.2487,-2.4357834,2.5681374
8.26951551437378,-2.7364876,1.5929021,-0.0351695,9.020613,4.4895597,3.2670925
8.289952754974365,-2.7364876,1.5929021,-0.0351695,9.020613,4.4895597,3.2670925
8.310047149658203,-0.2024083,5.486431,-1.5072987,9.255516,10.64767,7.470851
8.330139398574829,-7.0902877,3.408709,-4.488411,12.823361,0.27376413,10.41945
8.350252628326416,5.8345523,-14.4941635,-15.585542,4.0656667,0.4501453,8.568675
8.370316982269287,-2.9914615,17.312618,-0.25364104,24.908728,18.181541,8.456773
8.390419244766235,-2.8465815,11.176679,3.6851106,12.36152,3.4107714,14.029695
8.410496473312378,-0.12098645,3.0020974,-2.3883712,16.540195,1.8303033,8.351301
8.430554866790771,2.792893,-7.3571486,-15.686912,10.750237,11.512361,14.332006
8.450607061386108,-1.4993055,17.911772,0.73079276,25.940134,12.899195,7.9267206
8.470712661743164,-1.4993055,17.911772,0.73079276,25.940134,12.899195,7.9267206
8.490957736968994,-2.7014027,8.143236,2.6182837,10.322467,5.0304804,8.761319
8.510989904403687,0.2559793,2.273187,-1.3372613,15.181804,3.3703039,6.217044
8.53106427192688,3.4118056,-6.7705927,-19.74178,14.468875,12.627594,18.751356
8.551174640655518,-3.015408,17.186941,1.3512212,24.340841,7.7795353,8.894102
8.571228504180908,0.22947003,6.723772,2.596981,15.432017,6.8291693,10.128761
8.591318368911743,-3.2503455,1.4344953,-3.378305,17.213991,-3.6376145,1.393432
8.61141300201416,-3.2503455,1.4344953,-3.378305,17.213991,-3.6376145,1.393432
8.631570100784302,6.8866806,-15.865323,-16.703972,6.3482757,-1.6906836,2.1003406
8.651731729507446,-9.856156,21.28178,-8.752095,22.295698,9.731305,27.033165
8.67206335067749,-0.25900984,1.82137,-2.8206975,7.7857113,5.6377025,10.257065
8.691904544830322,-0.22602318,4.0297427,-0.7389816,7.8347287,7.893475,8.953404
8.712002515792847,-1.1938853,2.4401379,-0.84047246,3.9169016,5.9244184,4.5914207
8.732194185256958,2.030384,-5.5258102,-6.174516,0.23555824,0.5685373,1.8548282
8.75222134590149,-2.9615283,17.800234,-1.6381608,23.722015,18.436825,9.620792
8.772560119628906,-2.9615283,17.800234,-1.6381608,23.722015,18.436825,9.620792
8.792642593383789,-0.033891905,8.685157,2.3366184,12.178674,3.905607,17.064304
8.81270170211792,-2.254267,4.459025,-2.7690902,19.234758,-3.598434,3.8751774
8.832934379577637,5.2897973,-12.860789,-13.380459,6.2615056,-2.1179907,0.18614307
8.852938652038574,-2.4355407,15.915071,-6.733588,20.290915,9.854451,13.040187
8.873017311096191,-10.322842,4.7408495,-5.5357456,29.066347,-8.450845,11.628287
8.89303970336914,6.9988256,-23.567514,-18.195486,17.837961,-4.420253,-0.41445526
8.913368701934814,6.9988256,-23.567514,-18.195486,17.837961,-4.420253,-0.41445526
8.933382987976074,-4.953647,15.430192,-5.039427,19.749434,8.298891,7.140187
8.953479290008545,-10.022076,5.6723065,-1.6648902,28.95336,-5.594754,9.0971
8.973548650741577,5.5929775,-16.235788,-12.427373,13.63785,-3.4521797,-0.55936563
8.993666410446167,-6.4977274,13.124219,1.9990457,17.772535,9.811917,1.1885573
9.013763427734375,-4.109738,3.9877653,5.3015394,30.53774,3.4751341,6.3798175
9.03381896018982,7.241071,-9.657446,-8.356461,26.44411,-10.208307,7.0962114
9.053901195526123,-0.36505914,16.502886,-0.14614238,26.906027,22.87245,15.065993
9.073991775512695,-0.36505914,16.502886,-0.14614238,26.906027,22.87245,15.065993
9.094086170196533,-7.105043,9.360959,3.2289054,10.204695,4.5931287,10.565955
9.11416745185852,1.8635015,6.357991,-3.0655067,15.052228,8.320293,13.471391
9.134234189987183,-2.333016,-8.474971,-17.886267,24.059406,4.640197,9.906341
9.15433406829834,-0.5208135,21.977156,2.7348309,21.288248,15.688531,12.699026
9.174413204193115,-2.7746317,5.113949,0.30115804,15.640967,0.4569196,8.115327
9.194514513015747,-2.377492,3.5464923,0.9997088,6.8341937,5.6778626,4.0106335
9.214725732803345,0.35882092,3.3908079,-0.7668432,6.453728,7.1682706,4.7840667
9.235028266906738,0.74379873,-7.5544024,-22.46099,26.84973,4.9005322,14.809877
9.255157470703125,0.74379873,-7.5544024,-22.46099,26.84973,4.9005322,14.809877
9.275220155715942,-2.6271615,0.29978007,-13.480986,14.52381,9.466617,6.3716316
9.29532790184021,-3.2839925,7.416259,2.7695866,13.603001,3.6595418,6.3059483
9.315390348434448,-0.78125334,0.7118115,-0.9897386,12.796599,1.0066392,6.7421384
9.335469722747803,4.1110387,-1.859126,-12.829987,10.527367,9.352215,17.22476
9.355562210083008,-5.3877754,11.076358,0.7867938,18.578737,2.744463,10.361143
9.381019353866577,-5.3877754,11.076358,0.7867938,18.578737,2.744463,10.361143
9.406730651855469,-0.21740387,8.477343,1.7569757,9.398393,7.40665,9.456381
9.446510076522827,-0.21740387,8.477343,1.7569757,9.398393,7.40665,9.456381
9.467891216278076,-0.21740387,8.477343,1.7569757,9.398393,7.40665,9.456381
9.487990617752075,-2.2432027,5.149032,-1.6263247,9.154877,-0.0744204,4.714997
9.508076906204224,4.6923776,-18.778292,-14.908992,2.072852,-2.2598996,-1.0400053
9.528215408325195,-8.207339,16.0641,-2.0180292,21.045778,9.386738,6.436888
9.548276901245117,-10.6972885,4.741983,-4.2318125,29.485003,-10.22989,7.7222967
9.568303346633911,-10.6972885,4.741983,-4.2318125,29.485003,-10.22989,7.7222967
9.588483572006226,5.7644343,-23.528576,-16.835636,15.146403,-2.3326614,-0.46421656
9.60852336883545,-5.948769,16.217083,-3.7590837,20.442846,9.327432,7.940505
9.628599882125854,-10.206104,6.3292446,-1.5329331,27.93234,-5.8753905,9.720648
9.648688554763794,4.846731,-13.13869,-10.744303,10.961015,-1.6606472,0.79342663
9.669119358062744,-7.2164245,13.819683,2.7846174,18.752419,11.668822,2.9140403
9.68898057937622,-1.739022,2.2039614,5.208554,29.512455,2.8033264,6.256637
9.70903730392456,3.02389,-2.3716824,-3.4370933,23.261026,-5.30351,8.167901
9.729806661605835,3.02389,-2.3716824,-3.4370933,23.261026,-5.30351,8.167901
9.749915361404419,-0.399899,16.082752,-1.1549634,24.391962,21.570618,15.639241
9.770028114318848,-10.247182,10.021447,0.17761241,14.460494,0.05300468,13.223171
9.790099859237671,-2.4267168,8.476089,2.587795,7.838517,9.371286,10.183673
9.81016230583191,1.4354625,3.0385866,-1.3930417,11.296017,6.193646,6.6519413
9.830257892608643,0.7163291,-10.811595,-29.75172,29.826765,9.853906,17.180693
9.850334167480469,-4.814578,10.869301,-2.295526,19.952328,5.7774577,3.3624995
9.870452880859375,-1.6778766,12.061208,4.854104,10.548188,7.3538523,9.394043
9.890510559082031,-0.07772826,2.1090233,-2.1303334,15.275741,-0.45136303,6.8770742
9.910618782043457,-0.07772826,2.1090233,-2.1303334,15.275741,-0.45136303,6.8770742
9.930697917938232,2.2286146,-8.296734,-9.101197,5.631836,4.6054554,7.125746
9.95078992843628,1.4459391,17.453623,0.08245896,26.426413,19.746082,9.562343
9.971230745315552,-2.7443547,8.166219,0.20115982,9.617276,4.704578,9.181293
9.991342306137085,1.0528717,7.801435,-0.3428587,9.14846,6.3561406,11.04268
10.011442422866821,-2.3076727,1.2561315,-2.8756793,4.2981806,4.240336,4.8104033
10.031726121902466,3.2049577,-9.208155,-10.558622,2.4680698,-2.4399955,3.6223814
10.05169677734375,-5.4182377,15.40265,-3.4201064,18.804186,11.522717,10.764964
10.071773767471313,-5.4182377,15.40265,-3.4201064,18.804186,11.522717,10.764964
10.09188961982727,-8.890647,5.569915,-4.3325634,29.410254,-8.659777,9.294428
10.111991882324219,6.8158507,-22.724516,-17.727842,16.324308,-5.8392353,-1.6416563
10.132086277008057,-7.8583255,15.354043,-6.332263,19.568802,4.9810095,6.656643
10.152467966079712,-10.279673,5.776358,-1.2325753,28.487463,-4.6283627,9.28657
10.172358989715576,4.9140277,-20.06441,-13.757328,14.031687,-3.7169468,-1.6605014
10.192473888397217,-7.9574485,15.04708,-1.515606,17.871511,6.94295,4.342668
10.212578535079956,-11.021944,7.0739727,-0.84075534,28.205164,-4.476944,8.400964
10.232797384262085,-11.021944,7.0739727,-0.84075534,28.205164,-4.476944,8.400964
10.252926349639893,4.7268987,-10.0556755,-8.623598,9.394254,-1.3937007,1.0190707
10.272990703582764,-7.4891143,13.924283,3.5618224,18.212694,11.044692,2.520786
10.29305911064148,0.27096605,2.7556195,3.358474,26.521097,4.137498,7.8002996
10.313156604766846,-2.0045195,1.6417148,-3.2275343,18.617523,-1.9832624,3.7139244
10.333251237869263,-2.8217921,2.0297532,-0.49475303,10.292614,5.0776978,3.7150545
10.353420734405518,-0.39414144,5.105688,-2.6409771,8.642866,10.604949,8.19554
10.3734610080719,-7.0151854,-1.4382933,-10.597713,19.926626,-3.8707836,5.1777935
10.393785953521729,-7.0151854,-1.4382933,-10.597713,19.926626,-3.8707836,5.1777935
10.413889646530151,3.8050969,-9.886347,-14.170573,2.3968327,2.6898253,6.7726164
10.434221744537354,-3.6212716,20.582132,-0.62635124,29.455042,20.897257,11.060872
10.454213380813599,-3.7820911,10.911816,3.971088,15.796147,2.505331,15.616526
10.474277019500732,-0.63612604,3.4208703,-1.8390191,16.530424,2.5178835,8.489599
10.494378089904785,3.0031924,-6.7985816,-16.430464,14.768916,9.471865,15.2257
10.514476537704468,-0.6001148,18.258589,0.28711697,27.376303,13.920222,7.5367346
10.534520387649536,-2.3832622,9.242381,1.8099457,9.363397,6.0529346,8.436287
10.554626226425171,-2.3832622,9.242381,1.8099457,9.363397,6.0529346,8.436287
10.574699640274048,-0.18918322,3.9038324,-1.1586123,12.420276,3.660747,6.9417343
10.59511113166809,2.7137012,-10.1348505,-16.16054,13.809615,6.085642,9.903256
10.615045070648193,-2.9834435,12.489301,-1.4895843,20.415232,10.502309,4.1168704
10.635088205337524,-0.17312287,10.0359535,3.2549505,11.493243,5.757924,12.394522
10.655194997787476,-1.1851184,1.5331517,-2.8956006,21.155716,-4.9470086,2.1523008
10.67528510093689,4.1429415,-13.121306,-14.8036175,7.1351023,-0.62793595,3.9339812
10.695339679718018,-7.1939554,15.712843,-1.4736861,19.837059,5.016508,15.84469
10.715791702270508,-7.1939554,15.712843,-1.4736861,19.837059,5.016508,15.84469
10.735911130905151,-0.059164274,10.3176985,2.9796271,9.001966,8.188515,11.342231
10.755993127822876,-1.2535276,1.6967212,-2.3570867,17.367964,-4.311542,2.957824
10.776069402694702,3.168758,-13.406612,-13.320995,5.892486,0.85622495,5.1256714
10.79621434211731,-5.3473563,15.757446,-0.035606284,21.846996,3.4768445,10.561202
10.816283226013184,0.9522314,9.243524,3.9697592,8.972604,9.268086,10.592881
10.836379289627075,-2.0551271,3.9498653,-2.0905697,18.799578,-5.447511,2.5652058
10.856431007385254,1.561501,-10.894044,-9.45684,3.3798292,-0.3627016,0.2397038
10.876776695251465,-6.7348256,24.899132,-9.620468,22.355045,11.263021,25.870066
10.89688777923584,-6.7348256,24.899132,-9.620468,22.355045,11.263021,25.870066
10.916970014572144,-3.7022953,12.243182,1.5736166,13.1495075,4.3141813,15.888711
10.937070846557617,0.17007019,7.770206,-1.2056533,10.52479,9.357554,10.17611
10.961366415023804,0.4149146,-9.187583,-14.1760025,16.716019,3.2511315,7.3049827
10.984963417053223,2.863148,19.419031,-0.9192033,24.612223,23.143576,9.769659
11.005088329315186,2.863148,19.419031,-0.9192033,24.612223,23.143576,9.769659
11.025148153305054,-3.5244675,4.8449154,-2.4822912,8.308543,5.4959974,8.1931925
11.045207262039185,1.3436396,5.959792,-0.70978034,6.9045744,6.9918694,10.999748
11.065348863601685,-2.170732,-0.038611725,-3.4658847,2.8726852,3.3005955,4.6357594
11.085606098175049,3.6714027,-9.110139,-9.920107,1.2682848,-1.6204581,4.1943827
11.105632066726685,-3.2912211,18.559763,-6.1790833,20.602997,14.155701,17.763878
11.125717639923096,-7.116859,5.7441897,-3.1945772,27.894772,-6.044305,11.9788
11.146516799926758,-7.116859,5.7441897,-3.1945772,27.894772,-6.044305,11.9788
11.166587352752686,6.437591,-23.954245,-17.412046,14.112744,-5.12113,-3.0281622
11.186709880828857,-8.455191,14.54537,-6.148225,18.169863,4.4106536,5.929574
11.206776142120361,-9.408365,4.977441,-0.8520459,27.826075,-4.404728,8.334358
11.226876258850098,4.7540774,-20.955603,-14.252699,12.13487,-3.190137,-2.328851
11.246939897537231,-8.977925,14.576982,-1.5083121,16.908245,5.769142,3.7161522
11.26703929901123,-10.891463,6.8056827,-0.64464843,27.91172,-4.222292,7.871854
11.287108421325684,4.324364,-10.036655,-8.431824,8.278313,-1.1137544,0.7807661
11.307512521743774,4.324364,-10.036655,-8.431824,8.278313,-1.1137544,0.7807661
11.327611207962036,-7.6858325,14.071816,3.567405,18.1654,10.694194,1.9244119
11.347740411758423,-0.31551123,2.577816,3.8260996,28.679338,4.0013933,7.1754084
11.368046045303345,0.8271408,0.4800616,-2.6064334,18.189062,-1.1708009,4.853897
11.388267993927002,-1.2859623,-1.3372366,-2.1843176,8.96865,5.58784,1.7482147
11.408292770385742,-1.7037148,6.158865,-0.20139803,8.064093,8.177588,4.033888
11.428375244140625,-12.545591,7.6872244,-5.8553815,19.585674,-3.8255272,11.380149
11.448475122451782,5.086846,-14.672606,-11.46582,8.174539,-1.1121861,-0.15544733
11.468549013137817,5.086846,-14.672606,-11.46582,8.174539,-1.1121861,-0.15544733
11.488710880279541,-7.9269166,17.604609,0.92351735,22.374422,14.206773,6.6329503
11.50879454612732,-8.474126,4.9554205,-0.15730847,31.453127,-6.144987,6.894823
11.528878450393677,4.468859,-22.095583,-15.015187,10.848714,0.5037574,0.33014026
11.54898452758789,-4.7160554,16.594425,0.20384584,21.615324,14.812014,6.086454
11.569335699081421,-9.618411,7.2723117,-0.65061176,28.201044,-5.0138197,9.658974
11.58924150466919,3.3900216,-7.825144,-7.3629627,6.0400443,2.0367312,3.085635
11.609307527542114,-4.4552026,19.951889,2.122118,25.35505,19.192408,7.942501
11.629396438598633,-4.4552026,19.951889,2.122118,25.35505,19.192408,7.942501
11.649503231048584,0.5691509,7.027253,-0.95999205,13.901338,6.300957,14.194527
11.669587135314941,-1.6212552,2.3003576,-2.615921,7.527168,4.7225046,5.7778687
11.68969464302063,1.0355301,-0.33095425,-3.311806,2.351009,4.9666348,5.9409924
11.710086584091187,-4.7151556,-0.19451101,-7.2313004,15.272888,-1.6457158,6.012934
11.730150938034058,1.7770338,-10.700379,-10.827706,3.7235801,-1.0103054,3.9380467
11.750218629837036,-5.5170217,16.232141,-2.01086,19.646906,10.623426,8.804915
