liuyurong129/humanoid-gym/humanoid/data/robot1_actual_20250621-220904.csv
timestamp,joint_1,joint_2,joint_3,joint_4,joint_5,joint_6
0.00013971328735351562,0.0,0.0,0.0,0.0,0.0,0.0
0.020226716995239258,0.0,0.0,0.0,0.0,0.0,0.0
0.04030299186706543,0.0,0.0,0.0,0.0,0.0,0.0
0.06042170524597168,0.0,0.0,0.0,0.0,0.0,0.0
0.08072090148925781,0.0,0.0,0.0,0.0,0.0,0.0
0.10067462921142578,0.0,0.0,0.0,0.0,0.0,0.0
0.12109565734863281,-0.006666598929470917,-0.0066666661060512614,-0.006666651887992451,-0.006666666666666667,-0.0066666679432000496,0.006666802473044716
0.14099335670471191,-0.009999925700892904,-0.0033333327812273823,-0.010000003618639081,-0.01,-0.010000004102260244,0.010000358551896103
0.1611778736114502,-0.01666660494236796,-0.003333328620746865,-0.016666650802284806,-0.016666673975061046,-0.016666671728564047,0.016666573169852084
0.18116998672485352,-0.023333267776836676,-0.009999991535737605,-0.023333314783737666,-0.016666687180877927,-0.02333333083312615,0.023332560525196885
0.20136141777038574,-0.0299999293698315,-0.01666665620781852,-0.023095699409560164,-0.010000024037228234,-0.029999998056578173,0.029999661115897087
0.22151803970336914,-0.03333326262984317,-0.019999985891158978,-0.01976236607622683,-0.00666671452386239,-0.033333329928748524,0.0333329992668473
0.24159574508666992,-0.03999992904930015,-0.026666648673607372,-0.013095698625921682,-7.718373087146554e-08,-0.03999999247477918,0.03999964597802832
0.2616851329803467,-0.046666595646460925,-0.03333331123010156,-0.006429031896417428,0.006666554606437437,-0.04666665291189201,0.04666631695074911
0.28177332878112793,-0.05333326180787371,-0.03999997350288355,0.00023763573406901687,0.013333180830502762,-0.05333331051815927,0.0533329561672237
0.3018476963043213,-0.05666659514261395,-0.04333330650268391,0.0035709690674023504,0.016666509169598324,-0.05666664259413841,0.056666290305942564
0.3219635486602783,-0.06333326173482262,-0.049999968526640674,0.010237635836600404,0.02333312985489848,-0.06333329815442447,0.06333296290348774
0.342390775680542,-0.06999992833986764,-0.05666663026656713,0.016904302623082006,0.029999745081453387,-0.06999995130296023,0.06999963686312845
0.3622269630432129,-0.07333326178548573,-0.059999958390938905,0.02023763595641534,0.03333302165829154,-0.0733332688543927,0.0733329860588047
0.38231587409973145,-0.07999992845288896,-0.06666661955407742,0.026904302762080248,0.039999626471679595,-0.07999991743793942,0.0799996638521237
0.4024624824523926,-0.08666659514560489,-0.07333328043714882,0.033570969588626556,0.04666622649864708,-0.08666656397289026,0.08666634335562183
0.42249321937561035,-0.09333326186787529,-0.07999994105732368,0.04023763643743428,0.05333282215582328,-0.09333320870989635,0.09333302462911428
0.44256138801574707,-0.09999993001559648,-0.08666660099934019,0.04690430197796361,0.051513595212030534,-0.09999985108703249,0.09999978517795671
0.46268153190612793,-0.10333325454493074,-0.08999993396780112,0.04609228103168654,0.05484692854536387,-0.10333318104707981,0.10333279751571328
0.4828004837036133,-0.10999992973972048,-0.09666659715495977,0.04869478352045652,0.06151356356688414,-0.10999984432197123,0.10999973000626027
0.5028877258300781,-0.1166666065051224,-0.10069866054865123,0.0553614422517594,0.06694094610376744,-0.11666649189618154,0.11666677183761487
0.5239143371582031,-0.11999993978331709,-0.10132752357850341,0.058694775585092736,0.06882570741559822,-0.11999984639163377,0.12000010074054712
0.5438699722290039,-0.12666661239069094,-0.09466085583374793,0.05678005791604347,0.062159042021026976,-0.12666654111142145,0.126667086543161
0.5639669895172119,-0.13333327315418744,-0.08799418325988723,0.05011339665866288,0.055492301897537066,-0.13333320476360835,0.13333355749788356
0.5840435028076172,-0.1399999549213448,-0.08132751028532526,0.0434467265108815,0.048825554545394244,-0.12666653712796438,0.14000034955933396
0.6041197776794434,-0.14333327204721277,-0.08466084206789941,0.04011341368574835,0.04549222121206091,-0.12333319420427753,0.14333275671025655
0.6245541572570801,-0.1499999373817416,-0.09132750324957206,0.03344674938280907,0.03899813417303748,-0.11666650941334139,0.14999935282797594
0.6443800926208496,-0.15666661193073103,-0.09799416273309708,0.03344674361688936,0.03948673022663286,-0.10999981940090064,0.15666634147011851
0.664456844329834,-0.16333327859631405,-0.10466082396547789,0.04011341047860887,0.046153327187218644,-0.10333313628215322,0.16333302446453296
0.6845555305480957,-0.1666666121605986,-0.10799415173712866,0.043446743811942204,0.04948659315201105,-0.09999978485320365,0.1666663819210313
0.7046351432800293,-0.1733332217827154,-0.1146608187743147,0.050113430838387096,0.056153467801109566,-0.09333255873925653,0.1733330068962396
0.7247264385223389,-0.17999987701454842,-0.12132748943918888,0.056780117419763784,0.06282032042329735,-0.09999913395031372,0.17999964869363863
0.7448201179504395,-0.18666652320679145,-0.1279942073960811,0.05545701532972438,0.056153161930881976,-0.10666572727395254,0.18666646096217662
0.764904260635376,-0.18999985254959745,-0.13132754239761785,0.058790355806162826,0.05948655748520196,-0.10999903032694755,0.18999978270521278
0.785020112991333,-0.19666651285844403,-0.13132754341019484,0.05879036382747522,0.05948662806076562,-0.11666564302582583,0.19666643453017224
0.8050777912139893,-0.203333179525192,-0.1267436136774986,0.052123697160800585,0.05281996139409895,-0.1166656430258263,0.20333310119685988
0.8254351615905762,-0.20666651285851953,-0.12561807691807464,0.048790363827469874,0.04948662806076562,-0.11333230969249196,0.20666643453008318
0.8456392288208008,-0.2133331795250307,-0.13228474358474074,0.0421236971608642,0.04281996139409895,-0.10666564302580132,0.21333310119416637
0.8657565116882324,-0.21999982763867848,-0.138951402986274,0.04879037023848869,0.04948665383003662,-0.1123242660499383,0.2199997646589838
0.8858168125152588,-0.2266664943053395,-0.13330190945488493,0.05545703690515859,0.05615332049670329,-0.11729466668275694,0.22666643132550554
0.9060571193695068,-0.2299998276386555,-0.12996857612155224,0.056684460830095366,0.052819987163369955,-0.12062800001609056,0.2299997646588778
0.9260077476501465,-0.2366664943053554,-0.12330190945488262,0.05445580902921614,0.04615332049670329,-0.12062800001608412,0.23666643132482554
0.9462759494781494,-0.23666649430560235,-0.1166352427882115,0.04778914236249182,0.03948665383003662,-0.11396133334943821,0.24333309799357064
0.9662187099456787,-0.23333316097226717,-0.11330190945487814,0.04445580902915935,0.036153320496703285,-0.1106280000161045,0.2466664313268649
0.9864192008972168,-0.22666649430555025,-0.10663524278821229,0.037789142362503685,0.02948665383003596,-0.10994988188467357,0.2533330979930959
1.0064842700958252,-0.21999982763888232,-0.09996857612154561,0.03112247569583768,0.022819987163369294,-0.11661654855133988,0.2599997646597291
1.0265073776245117,-0.21333315555764343,-0.09330190854413105,0.024455825620745292,0.01615332049669824,-0.1232832103017772,0.266665967597244
1.04659104347229,-0.20666648811112334,-0.08663524173836888,0.01778916066282661,0.009486653830031572,-0.12994987620669515,0.2733325644242757
1.0666823387145996,-0.20333315480796205,-0.08330190354835089,0.014455827329493277,0.00615324961691171,-0.13328320017298023,0.27666592433973536
1.086778163909912,-0.19666648749006232,-0.07663523206404266,0.007789162329695367,-0.0005134878501997786,-0.13994985829406803,0.2833325490541049
1.1068751811981201,-0.18999982024972156,-0.0699685607729199,0.0011224973038981398,-0.007180224560535102,-0.1466165179048905,0.28999917438522005
1.1269936561584473,-0.18333315308225684,-0.06330188969560939,-0.005544167756853026,-0.013846959781550027,-0.1532831788938677,0.2966658007886499
1.147160291671753,-0.17999981938687895,-0.059968556177931266,-0.00887749953049631,-0.01718029311488336,-0.15661651141560398,0.2999990687313683
1.1672601699829102,-0.1733331523633725,-0.05330188533269022,-0.0155441646975489,-0.023847026052998883,-0.16328317364772862,0.3066656993675896
1.1874630451202393,-0.1666664853876213,-0.046635214758900895,-0.022210829941374705,-0.03051375584741354,-0.16994983696211283,0.313332332889604
1.2074353694915771,-0.159999818450494,-0.039968544491340914,-0.02887749528179368,-0.03718048156372043,-0.1766165011661698,0.3199989698575415
1.2275617122650146,-0.1566664849690495,-0.03663521097097963,-0.03221082734603341,-0.04051381489705377,-0.1799498337652624,0.3233322511895033
1.2475991249084473,-0.1499998182108927,-0.02996854166596291,-0.03887749529258542,-0.04718053256713815,-0.1866165005002001,0.3233323379857881
1.2676818370819092,-0.1433331513250267,-0.023301872353334772,-0.04554416098574721,-0.05384724339575668,-0.193283165876969,0.31666565281882736
1.2878639698028564,-0.13666648444185536,-0.016635203509982897,-0.052210826873827325,-0.06051394620335963,-0.1999498312508928,0.309998973177647
1.3078992366790771,-0.1333331510201589,-0.013301868609324767,-0.05554416020716066,-0.06384730630490831,-0.20328316330853047,0.30666565358423287
1.3279812335968018,-0.12666648032900182,-0.006635205094755859,-0.06152078310120653,-0.07051397297157497,-0.2099498395303906,0.2999995612878022
1.3480632305145264,-0.11999980867442156,3.1457660281369e-05,-0.0663618501756238,-0.07718063963824162,-0.2166165179433897,0.2933335744919753
1.3681621551513672,-0.11333313716851473,0.0066981206168578705,-0.07028311323188034,-0.08384730630490828,-0.22328319562222496,0.28666751880749686
1.3882274627685547,-0.10999980145883764,0.010031452152158409,-0.07195480920001948,-0.0871806396382416,-0.22661653425655007,0.28333447018697633
1.4083054065704346,-0.10333313009657806,0.016698115299019625,-0.07481340873762621,-0.09384730630490826,-0.23328321124913126,0.27666834038837745
1.42840576171875,-0.0966664587647921,0.023364778495591185,-0.07712887386098838,-0.10051397297157491,-0.23994988804969122,0.270002178023094
1.4485454559326172,-0.08999978740109532,0.03003144167683619,-0.07900440038528259,-0.10718063963824156,-0.24661656487132733,0.2633359950063409
1.4688987731933594,-0.08666645168549716,0.033364773240383644,-0.07980396695500828,-0.11051397297157489,-0.24994990335832862,0.2600028991964928
1.4890220165252686,-0.07999978013894331,0.040031436268343906,-0.08117122595626633,-0.11718063963824155,-0.256616580626677,0.25333670540805325
1.5091133117675781,-0.07333310836948102,0.04669809910066975,-0.08227870618973866,-0.1238473063049082,-0.2632832584862477,0.2466705168189883
1.5291945934295654,-0.06666643628837818,0.05336476165665519,-0.08317576588916588,-0.13051397297157485,-0.26994993718914184,0.24000434266088558
1.5492656230926514,-0.059999763800842154,0.06003142384998669,-0.08390238522808567,-0.1371806396382415,-0.27661661700518336,0.23333819171732914
1.569406270980835,-0.05666642737353208,0.06336475478205289,-0.08421215499497903,-0.14051397297157484,-0.27994995742032797,0.23000512759514072
1.589505672454834,-0.049999754086831064,0.07003141625633875,-0.0847418624010006,-0.1471806396382415,-0.28661663945592514,0.22333902717139745
1.6095530986785889,-0.04333308013404681,0.07669807712517036,-0.08517092709162177,-0.15384730630490814,-0.29328332336999974,0.21667297048468437
1.6296634674072266,-0.039999742873156614,0.0800314072988232,-0.08535384489525538,-0.15718063963824147,-0.2966166661388716,0.21333996098249325
1.6497952938079834,-0.03333306771086175,0.08669806705333263,-0.08566663601223946,-0.16384730630490812,-0.3032833535288076,0.2066739844358981
1.669865369796753,-0.026666391596682867,0.09336472591716037,-0.0859199992731976,-0.17051397297157478,-0.3099500437120684,0.20000807074630023
1.6899569034576416,-0.01999971441048539,0.10003138376350543,-0.08612522629425269,-0.17718063963824143,-0.3166167371007457,0.1933422272806341
1.7100281715393066,-0.013333036029398278,0.10669804045805807,-0.08629146329502906,-0.1838473063049081,-0.3232834341346203,0.18667646127052095
1.730142593383789,-0.009999696351719269,0.11003136832936165,-0.08636233407077908,-0.18718063963824141,-0.32661678416365947,0.18334360953618972
1.7502269744873047,-0.0033330159428656713,0.11669802302773612,-0.0864835259141496,-0.19384730630490807,-0.3332834875518907,0.17667797299025687
1.7702853679656982,0.0033336659775200124,0.12336467620516382,-0.08658169530232593,-0.20051397297157472,-0.3399501958092418,0.17001243142393732
1.7904078960418701,0.010000349538852149,0.1300313277006119,-0.08666121687221678,-0.20718063963824138,-0.34661690947556467,0.16334699162103786
1.8112692832946777,0.013333691975589099,0.13336465276520754,-0.08669511998740258,-0.2105139729715747,-0.349950268513599,0.16001431196278476
1.8313813209533691,0.020000378033305333,0.14002817054251032,-0.0867530975660223,-0.21718063963824136,-0.35661699077494496,0.15334902264365072
1.851461410522461,0.026667022180604974,0.1457228375332139,-0.08679995240400425,-0.223847306304908,-0.36328359398663695,0.14668083347728084
1.871544599533081,0.03333367496419348,0.15033551039228216,-0.08683792693629265,-0.23051397297157467,-0.3699502214156068,0.14001325479771004
1.8916330337524414,0.03666700437273717,0.15230196292203446,-0.08685412412241153,-0.233847306304908,-0.3732835438512163,0.13667967414630394
1.9117152690887451,0.04333366883804949,0.15566459156801177,-0.08688183623454662,-0.24051397297157465,-0.37995020553919817,0.13001289527673765
1.9318594932556152,0.05000034039618057,0.1583883142129075,-0.08690430160104663,-0.2471806396382413,-0.3866168889618997,0.12334658657593753
1.9518733024597168,0.05666701860164375,0.16059452320852607,-0.08692251612276346,-0.253847306304908,-0.3932835934635339,0.11668070746768766
1.9719648361206055,0.06000036008034747,0.16153506252689825,-0.08693028782184765,-0.25718063963824134,-0.39661695346447584,0.11334791828138031
1.9920549392700195,0.06666704759553327,0.16314338008316326,-0.08694358993704081,-0.26384730630490805,-0.4032836887520056,0.10668262254239472
2.01216459274292,0.07333374097474248,0.16444611122360583,-0.0869543806345863,-0.27051397297157476,-0.4099504442504421,0.10001768335167327
2.0322210788726807,0.08000044001017587,0.16550131738471666,-0.08696313672735285,-0.27718063963824147,-0.4166172198832733,0.09335308029208886
2.052309036254883,0.08333379159714832,0.16595116607470686,-0.08696687557060485,-0.2805139729715748,-0.41995061526264377,0.09002089949755848
2.0723886489868164,0.09000047544931902,0.16672041354487463,-0.08697322010558535,-0.2871803179947235,-0.4266172332808165,0.08335524502675598
2.0924527645111084,0.09666715245342732,0.167343524184936,-0.08697833669460452,-0.2938469846613902,-0.43328393572585133,0.07668921397403095
2.1127116680145264,0.10000049143806744,0.16760916549908098,-0.08698051941885981,-0.29718031799472355,-0.4366172888322607,0.0733562254663088
2.1328203678131104,0.10666717038047156,0.16806341094673052,-0.08698425477016322,-0.30384698466139026,-0.44328399892824316,0.0666903022037191
2.152975082397461,0.11333385063094775,0.16843134813593894,-0.08698728427176439,-0.31051365132805697,-0.4499507143582608,0.0600244502750092
2.1730129718780518,0.12000053220479201,0.16872937556991136,-0.08698974213592399,-0.3171803179947237,-0.4566174353228145,0.05335866948130468
2.193225145339966,0.12333387349338458,0.16885642869318376,-0.0869907915359578,-0.32051365132805704,-0.45995079794661964,0.050025805748800174
2.2133586406707764,0.13000055708558456,0.16907368815402288,-0.08699258918050119,-0.32718031799472375,-0.46661752761503217,0.04336013166472964
2.2334988117218018,0.13666724204735722,0.16924966644485168,-0.08699404952864752,-0.33384698466139046,-0.47328426336729806,0.03669452889242013
2.2536189556121826,0.14333392839840386,0.16939220690911716,-0.0869952367912475,-0.34051365132805717,-0.4799510054357116,0.03002899764285562
2.2740354537963867,0.14666727210099384,0.16945297337703985,-0.08699574467953762,-0.3438469846613905,-0.48328437891206266,0.02669625891082479
2.294154644012451,0.15333396057205217,0.16955688244476866,-0.08699661667288984,-0.35051365132805723,-0.4899511308969926,0.02003083536961003
2.3142342567443848,0.1600006504789989,0.16964104663305066,-0.08699732768666386,-0.35718031799472394,-0.4966178897882003,0.013365483879500402
2.3343453407287598,0.16666734183796006,0.1697092173853419,-0.08699790843290793,-0.36384698466139065,-0.5032846558189905,0.006700204567870755
2.3543944358825684,0.1733340346628871,0.16976443337093927,-0.08699838378518586,-0.37051365132805736,-0.5099514292174512,3.4997473818708814e-05
2.374490976333618,0.17666738162874734,0.16978797188967187,-0.08699858839225415,-0.3738469846613907,-0.5132848187488245,-0.0032975790090613143
2.394604444503784,0.1833340766729892,0.16982822087894833,-0.08699894219355554,-0.3805136513280574,-0.5199516036092248,-0.009962677950413858
2.4146790504455566,0.19000077320588074,0.16986082003223685,-0.08699923400390751,-0.38718031799472413,-0.5266183963692791,-0.016627705100901866
2.4358320236206055,0.1933341220317396,0.16987471656042943,-0.08699936046861124,-0.3905136513280575,-0.5299517957721147,-0.019960191881137925
2.455909252166748,0.196667471230706,0.16988722274013104,-0.08699947570215624,-0.39384698466139084,-0.5332851972205458,-0.02329266088583385
2.475989580154419,0.20000082080260378,0.16989847759636906,-0.08699958083939072,-0.3971803179947242,-0.5366186007360985,-0.026625112194142857
2.4962263107299805,0.20666752106324018,0.16991772131743565,-0.08699976480489587,-0.4038469846613909,-0.5432854140491665,-0.03328996209353154
2.5162203311920166,0.21333422280716038,0.1699333059435116,-0.0869999193577041,-0.4105136513280576,-0.549952235860656,-0.03995474243729332
2.5363097190856934,0.22000092602363294,0.16994592663701355,-0.08700005014998279,-0.4171803179947243,-0.5566190662996351,-0.046619454270515656
2.5563583374023438,0.22666763069755128,0.16995614648434856,-0.087000161747245,-0.42384698466139104,-0.563285905473145,-0.05328409883032479
2.5764472484588623,0.23000098357511162,0.16996050221840306,-0.08700021152877291,-0.4271803179947244,-0.5666193283623733,-0.05661639632260023
2.5966696739196777,0.23666769039708138,0.16996794823157502,-0.08700030101306983,-0.4338469846613911,-0.5732861807862282,-0.06328094271905836
2.616647243499756,0.24333439861906414,0.16997397646042206,-0.08700037921735375,-0.4405136513280578,-0.5799530421055207,-0.06994542579076221
2.636960506439209,0.24666775324557527,0.1699765451968342,-0.0870004147769042,-0.44384698466139116,-0.583286476107696,-0.07327764417285271
2.6570611000061035,0.2533344137732872,0.16998098047998605,-0.08700033596929241,-0.4505129369093347,-0.589952766559453,-0.07994484548823155
2.677154064178467,0.26000107409769757,0.1699845724903676,-0.08700027213512686,-0.4571788651055769,-0.5966190388384658,-0.08661206582527893
2.6974294185638428,0.2666677531955576,0.16998748420318066,-0.08700026221783193,-0.46384553177224364,-0.6032857662259606,-0.09327808990219988
2.717369318008423,0.27333443267722723,0.16998984175300633,-0.08700025587364109,-0.47051219843891035,-0.6099524962334748,-0.0999440968941946
2.7374656200408936,0.2766677725585577,0.16999084644738946,-0.08700025382147825,-0.4738455317722437,-0.6132858622162082,-0.10327709417980759
2.7575488090515137,0.2833344525932717,0.1699925637519208,-0.08700025158397443,-0.4805121984389104,-0.6199525961208228,-0.10994307682340324
2.7776389122009277,0.2900011329777785,0.16999395382086077,-0.08700025141746838,-0.4871788651055771,-0.6266193325784432,-0.11660904426475242
2.797797679901123,0.2933344732960305,0.16999454606215136,-0.08700025197556771,-0.4905121984389105,-0.6299527017500249,-0.11994202256105033
2.817894458770752,0.30000115417346757,0.16999555807508218,-0.08700025414636686,-0.4971788651055772,-0.6366194419438936,-0.12660796888784195
2.837958574295044,0.3066678353564886,0.16999637686821262,-0.08700025746599038,-0.5038455317722438,-0.6432861845514467,-0.1332739023417849
2.8580422401428223,0.3133345168252756,0.1699970391627415,-0.08700026167223499,-0.5105121984389104,-0.6499529294990998,-0.13993982394277346
2.878140449523926,0.3200011985589166,0.16999757470591292,-0.08700026654707219,-0.517178865105577,-0.6566196767032838,-0.14660573475490696
2.8982036113739014,0.32333453951824653,0.1699978026662896,-0.08700026917709026,-0.5205121984389103,-0.6599530511227881,-0.1499386864586683
2.918325185775757,0.33000122160780027,0.16999819180089504,-0.08700027472271137,-0.5271788651055769,-0.6666198015338545,-0.15660458316826067
2.9384002685546875,0.3366679039057775,0.16999850612928355,-0.08700028053476391,-0.5338455317722435,-0.6732865539506238,-0.1632704719124989
2.9584662914276123,0.34333458638822,0.16999875988788066,-0.08700028649455205,-0.5405121984389101,-0.6799533082569621,-0.1699363538732269
2.978573799133301,0.3466679276909546,0.1699988677488287,-0.08700028949770025,-0.5438455317722434,-0.683286686080131,-0.17326929268533303
2.9986603260040283,0.3533346104038365,0.16999905157871528,-0.08700029549452455,-0.55051219843891,-0.6899534429849589,-0.17993516673400714
3.018744468688965,0.3600012932388054,0.16999919970455188,-0.08700030141344593,-0.5571788651055766,-0.6966202014536995,-0.18660103703956077
3.0388121604919434,0.3666679761702251,0.16999931894347195,-0.08700030718569732,-0.5638455317722432,-0.7032869613434874,-0.19326690483840583
3.058905601501465,0.37000131766403155,0.16999936950019795,-0.08700030999793328,-0.5671788651055765,-0.7066203417749078,-0.1965998381852866
3.0790135860443115,0.3766680006916289,0.16999945543180767,-0.08700031544133047,-0.5738455317722431,-0.7132871035149748,-0.20326570454844597
3.0990664958953857,0.3833346837509214,0.16999952438823485,-0.08700032060409718,-0.5805121984389097,-0.7199538662932715,-0.2099315714993121
3.119302988052368,0.3900013668160531,0.16999957963690493,-0.08700032544467347,-0.5871788651055763,-0.726620629948356,-0.21659744026298725
3.139498710632324,0.3933347083427807,0.1699996029693688,-0.08700032773269056,-0.5905121984389096,-0.729954012053244,-0.21993037570349444
3.1595840454101562,0.40000139136866386,0.16999964246228316,-0.08700033202403627,-0.5971788651055762,-0.7366207767132158,-0.22659624944913778
3.1797022819519043,0.40666807433687563,0.1699996739599699,-0.08700033591225768,-0.6038455317722428,-0.7432875418325379,-0.23326212799353788
3.1996970176696777,0.4133347572227526,0.16999969903047266,-0.08700033937275466,-0.6105121984389094,-0.7499543072408803,-0.23992801248752677
3.219784736633301,0.41666809862726395,0.1699997095628805,-0.08700034093598066,-0.6138455317722427,-0.7532876900000044,-0.24326095731667882
3.2398674488067627,0.4233347813446889,0.16999972729993382,-0.08700034371711292,-0.6205121984389093,-0.7599544555213116,-0.2499268528221522
3.2599782943725586,0.4300014639208657,0.16999974135287033,-0.08700034602526042,-0.6271788651055759,-0.7666212209048023,-0.2565927570059614
3.2805492877960205,0.43333480514900685,0.16999974723910777,-0.08700034699801178,-0.6305121984389092,-0.7699546034919938,-0.25992571267319925
3.3004558086395264,0.44000148747191503,0.16999975713272608,-0.08700034857464958,-0.6371788651055758,-0.7766213683526687,-0.2665916317757464
3.320539951324463,0.4466681695997065,0.16999976496716393,-0.08700034965331874,-0.6438455317722424,-0.7832881326576477,-0.2732575620240788
3.34062123298645,0.4533348515125196,0.16999977118848095,-0.08700035022910446,-0.650512198438909,-0.7899548962450947,-0.2799235043200386
3.3610191345214844,0.4566681923823912,0.1699997738100381,-0.08700035032762209,-0.6538455317722422,-0.7932882777202908,-0.2832564802533017
3.380902051925659,0.4633348739378328,0.1699997782674976,-0.08700035014574377,-0.6605121984389088,-0.7999550399373145,-0.2899224421952403
3.4010233879089355,0.47000155523340204,0.16999978189088494,-0.08700034946025424,-0.6671788651055754,-0.8066218010519964,-0.2965884182028121
3.4212327003479004,0.47333489577871046,0.16999978345806763,-0.0870003489298232,-0.6705121984389087,-0.8099551811506386,-0.2999214117044792
3.4413394927978516,0.4800015766549892,0.1699997862166014,-0.08700034749719449,-0.6771788651055753,-0.8166219403433503,-0.306587410117637
3.461622714996338,0.4866682572338717,0.16999978859906098,-0.0870003455753041,-0.6838455317722419,-0.8232886980853853,-0.3132534242518878
3.4815549850463867,0.4933349375025225,0.1699997907296104,-0.08700034317371681,-0.6905121984389085,-0.8299554542496292,-0.31991945466323846
3.5016868114471436,0.49666827751684667,0.1699997917323428,-0.08700034179657869,-0.6938455317722418,-0.8332888317024513,-0.32325247612970764
3.5217461585998535,0.5033349572988614,0.16999979366510395,-0.08700033869774301,-0.7005121984389084,-0.8399555852786308,-0.3299185318641171
3.541898488998413,0.5100016367441206,0.16999979555799852,-0.08700033515164578,-0.707178865105575,-0.8466223369937937,-0.33658460499518145
3.562535524368286,0.5133349763377989,0.16999979650739816,-0.087000333215828,-0.7105121984389083,-0.8499557121223597,-0.33991764819301423
3.582669734954834,0.5200016383448042,0.1699998141296512,-0.08700026990482068,-0.7171780711935287,-0.8566216640851059,-0.34658491784178425
3.6027488708496094,0.5266683005738144,0.16999982888804993,-0.08700021862290475,-0.7238439646660608,-0.8632876253081355,-0.35325217140673604
3.623180389404297,0.5333349630249926,0.16999984133848864,-0.08700017708455283,-0.7305098794661603,-0.869953596712622,-0.35991940842859893
3.643009662628174,0.5400016256969257,0.16999985192651265,-0.08700014343848779,-0.7371758159949968,-0.8766195790555624,-0.36658662860885377
3.6633992195129395,0.5433349571150339,0.1699998566373952,-0.08700012909463901,-0.7405087925138696,-0.8799525745539062,-0.3699202323052766
3.683298349380493,0.55000162011387,0.1699998650838611,-0.0870001045666576,-0.7471747622349966,-0.8866185746301356,-0.37658742678442503
3.703383445739746,0.5566682833268338,0.16999987244089676,-0.08700008469899266,-0.7538407543835888,-0.89328458734696,-0.3832546039160593
3.723417043685913,0.5600016150124555,0.16999987577815362,-0.08700007622909339,-0.7571737589211123,-0.8966175986351236,-0.3865881859404163
3.743612051010132,0.5666682785393404,0.16999988188136353,-0.08700006174556564,-0.7638397849926496,-0.903283631424017,-0.39325533686202263
3.7638795375823975,0.5733349422698326,0.16999988734541915,-0.08700005001390818,-0.7705058337730863,-0.9099496782651478,-0.3999224702582585
3.783785343170166,0.5800016061987943,0.16999989229192075,-0.08700004051126563,-0.7771719052646807,-0.9166157396382234,-0.406589586144216
3.8038852214813232,0.5866682703206292,0.1699998968183676,-0.08700003281412516,-0.7838379994100884,-0.9232818159735412,-0.4132566845813663
3.823955774307251,0.5900016024520123,0.169999898949106,-0.08700002953271264,-0.7871710549443841,-0.9266148598729369,-0.4165902272880046
3.8440515995025635,0.596668266851784,0.16999990298672446,-0.08700002392149724,-0.7938371828389886,-0.9332809593498388,-0.4232572997633399
3.864380121231079,0.603334931428759,0.16999990677083043,-0.08700001937641276,-0.800503333000605,-0.9399470746476607,-0.42992435513204524
3.8842968940734863,0.6100015961761283,0.16999991034563555,-0.08700001569489432,-0.8071695051846516,-0.946613206023563,-0.43659139360019594
3.9044113159179688,0.613334928611517,0.16999991206580364,-0.0870000141254049,-0.8105025994457753,-0.9499462778078609,-0.4399249065708242
3.924454689025879,0.620001593601207,0.1699999153899644,-0.08700001144157797,-0.8171688041034038,-0.9566124336770739,-0.44659192015216526
3.94454288482666,0.6266682587433404,0.1699999185790005,-0.08700000926767816,-0.8238350299743069,-0.9632786060566977,-0.4532589174991459
3.964663505554199,0.6333349240304892,0.16999992165209615,-0.08700000750681931,-0.8305012766642258,-0.9699447950379643,-0.4599258989317785
3.984726905822754,0.6366682567261015,0.16999992314997134,-0.08700000675613738,-0.833834407683342,-0.9732778957704216,-0.4632593837875667
4.004814863204956,0.6433349222166941,0.16999992607604214,-0.08700000547247128,-0.8405006847860427,-0.9799441097275022,-0.4699263420061768
4.024941921234131,0.6500015878334974,0.16999992891731375,-0.08700000443270174,-0.847166981574561,-0.9866103403213343,-0.476593285221057
4.045042276382446,0.6566682535690022,0.1699999316814502,-0.08700000359048841,-0.8538332975453211,-0.9932765874929065,-0.48326021383373285
4.065104246139526,0.6600015864789374,0.1699999330364526,-0.08700000323143957,-0.8571664625600768,-0.9966097172661615,-0.486593672794545
4.085207223892212,0.6666682523785622,0.16999993569518249,-0.08700000261746604,-0.8638328063088074,-1.003275989108699,-0.4932605802941106
4.105285406112671,0.6733349183784654,0.1699999382884309,-0.0870000021201475,-0.8704991678837369,-1.0099422772146494,-0.4999274742658033
4.125417470932007,0.6800015844715014,0.1699999408187753,-0.08700000171731948,-0.8771655467119364,-1.0166085813968142,-0.506594355161014
4.145677804946899,0.6866682506506945,0.1699999432879918,-0.08700000139102877,-0.8838319422076304,-1.0232749014360452,-0.5132612234399212
4.165591478347778,0.6900015837704726,0.169999944500061,-0.08700000125192589,-0.8871651460199418,-1.026608067325381,-0.5165946529939087
4.185714960098267,0.6966682500662529,0.1699999468796249,-0.08700000101405997,-0.8938315653976093,-1.0332744106748466,-0.5232615032248538
4.2057671546936035,0.7033349158900107,0.16999993377924436,-0.08700000082138858,-0.9004975640320956,-1.039940189327727,-0.5299286651115185
4.226141691207886,0.7066682486130346,0.1699999213414458,-0.08700000073924971,-0.9038303625088674,-1.043272805435623,-0.5332623946818751
4.2462568283081055,0.7133349142681439,0.16999990123316736,-0.08700000059879226,-0.9104960044069241,-1.0499380820647213,-0.5399298199153264
4.266318321228027,0.720001580182127,0.16999988643392275,-0.08700000048502173,-0.917161704374022,-1.056603417030295,-0.5465972013888336
4.286410808563232,0.7266682463319563,0.1699998758967155,-0.0870000003928676,-0.9238274601848306,-1.0632688092139908,-0.5532645408362815
4.3064963817596436,0.7300015794883818,0.16999987195461996,-0.08700000035358084,-0.9271603583386059,-1.0666015263955393,-0.5565981953391559
4.3266441822052,0.7366682459509363,0.16999986627161373,-0.08700000028640047,-0.9338261937646919,-1.0732670021717061,-0.5632654749729025
4.346649885177612,0.7433349125960774,0.16999986302224165,-0.08700000023198437,-0.9404920795254855,-1.0799325321047424,-0.5699327168564889
4.368012428283691,0.7466682459809775,0.16999986214965698,-0.08700000020878593,-0.9438250406032601,-1.0832653169710642,-0.5732663241664685
4.388116359710693,0.7533349128637232,0.16999986164187667,-0.0870000001691166,-0.9504909978126443,-1.0899309256615246,-0.5799335125579873
4.408267974853516,0.7600015798822065,0.16999986248802532,-0.08700000013698445,-0.9571569999962093,-1.0965965851456028,-0.5866006673377501
4.428318500518799,0.7666682470195131,0.1699998643924692,-0.0870000001109574,-0.9638230450686814,-1.103262294014428,-0.5932677901096759
4.448391675949097,0.7700015806277242,0.1699998656648815,-0.08700000009986167,-0.9671560830474576,-1.106595166520126,-0.5966013399846821
4.468573808670044,0.776668247913825,0.16999986872275472,-0.08700000008088796,-0.9738221886320364,-1.1132609467653913,-0.6032684176769167
4.48873233795166,0.7833349152809942,0.16999987232363514,-0.08700000006551925,-0.9804883320755362,-1.1199267727641347,-0.6099354672162576
4.508918046951294,0.7866682489907768,0.16999987428261,-0.08700000005896733,-0.9838214173893468,-1.1232597024583453,-0.6132689818907258
4.529068231582642,0.793334916454876,0.16999987844285566,-0.08700000004776354,-0.9904876140187836,-1.1299255943054367,-0.6199359919506992
4.549151182174683,0.8000015839685788,0.1699998828434934,-0.08700000003868846,-0.9971538437795185,-1.1365915281851535,-0.6266029774624414
4.569258689880371,0.8066682515209842,0.1699998874022679,-0.08700000003133765,-1.0038201048742021,-1.143257502601309,-0.6332699397914553
4.589327812194824,0.8100015853085464,0.16999988971973534,-0.08700000002820388,-1.007153246625498,-1.1465905045435025,-0.6366034126767232
4.609598875045776,0.816668252900571,0.1699998943958203,-0.08700000002284515,-1.0138195514749837,-1.1532565369651182,-0.6432703426920008
4.6296563148498535,0.823334920508002,0.16999989908831273,-0.08700000001850457,-1.0204858834151647,-1.1599226062017705,-0.6499372527369468
4.649739980697632,0.8300015881230146,0.16999990375925436,-0.0870000000149887,-1.027152240852007,-1.1665887107829664,-0.6566041440140328
4.669947862625122,0.8333349219311383,0.16999990607695215,-0.08700000001348983,-1.0304854286499907,-1.1699217758724556,-0.659937582977347
4.690352916717529,0.8400016086842519,0.16999979678451557,-0.08700012251841588,-1.0371520953166575,-1.1765885391737634,-0.6666036411457706
4.7103564739227295,0.8466682871422265,0.16999974658641334,-0.08700015439729965,-1.0438181701334839,-1.1832541256855396,-0.6732704515740022
4.730372667312622,0.8533349582667965,0.1699997382479252,-0.08700012506181272,-1.0504837183561386,-1.1899186354513678,-0.6799379281075478
4.769500255584717,0.8533349582667965,0.1699997382479252,-0.08700012506181272,-1.0504837183561386,-1.1899186354513678,-0.6799379281075478
4.7976601123809814,0.8533349582667965,0.1699997382479252,-0.08700012506181272,-1.0504837183561386,-1.1899186354513678,-0.6799379281075478
4.817773342132568,0.8566682938115139,0.16999973586433495,-0.08700011255563145,-1.0538165238626958,-1.193250936068406,-0.6832716433893049
4.837817192077637,0.8633349648529266,0.169999734029394,-0.08700009117006147,-1.0604821946945353,-1.1999156259951211,-0.689939030212058
4.857898473739624,0.8700016358148287,0.1699997353959056,-0.08700007384774978,-1.0671479414463172,-1.2065804305042216,-0.6966063615876216
4.8780341148376465,0.8766683066805949,0.1699997392570282,-0.08700005981667733,-1.0738137596615174,-1.2132453452248901,-0.703273640846235
4.8980553150177,0.8800016420728161,0.16999974193995598,-0.0870000538350096,-1.0771466942220527,-1.216577842562544,-0.7066072619354559
4.918242931365967,0.8866683127678227,0.16999974850681598,-0.08700004360635777,-1.0838126116509046,-1.223242914520014,-0.7132744689677166
4.938295602798462,0.8933349833341693,0.1699997563390274,-0.08700003532114979,-1.0904785901504368,-1.2299080860038956,-0.7199416316196557
4.958378314971924,0.9000016537621505,0.16999976510198947,-0.08700002861013133,-1.0971446258614774,-1.2365733528558795,-0.7266087527529765
4.978483200073242,0.9066683240437704,0.16999977452609835,-0.08700002317420637,-1.1038107150931467,-1.2432387109934124,-0.7332758350985746
4.998552083969116,0.9100016591276348,0.1699997794165327,-0.08700002085678574,-1.1071437786713618,-1.2465714230405633,-0.7366093625441034
5.018686771392822,0.9166683291781716,0.16999978943940142,-0.08700001689399645,-1.1138099416267924,-1.2532369106309564,-0.7432763915474295
5.038764476776123,0.9233349990690699,0.16999979965881404,-0.08700001368413712,-1.1204761495980466,-1.2599024796671912,-0.7499433880319274
5.05883264541626,0.9300016687974029,0.1699998099501837,-0.08700001108415106,-1.1271423994651457,-1.2665681263720852,-0.7566103542884247
5.079330921173096,0.9333350036000229,0.1699998150909981,-0.08700000997573595,-1.130475539177496,-1.2699009776961856,-0.7599438267642795
5.099450588226318,0.9400016730816078,0.16999982531090957,-0.08700000808034612,-1.137141846379481,-1.27656673403362,-0.7666107517133922
5.119610548019409,0.9466683423983115,0.16999983539220453,-0.08700000654508036,-1.1438081883535516,-1.2832325590251952,-0.7732776516454176
5.139980316162109,0.9533350115509355,0.16999984528021822,-0.0870000053015151,-1.1504745625107613,-1.2898984492435932,-0.7799445284468424
5.159795045852661,0.9566683460662,0.1699998501380852,-0.08700000477136359,-1.1538077608881472,-1.293231417770497,-0.7832779587335145
5.179893255233765,0.9633350149760173,0.16999985965990133,-0.08700000386480451,-1.160474178776857,-1.299897399633101,-0.7899448041412447
5.200040578842163,0.9700016837272288,0.16999986890060012,-0.08700000313049167,-1.1671406229912753,-1.3065634386167793,-0.7966116306706691
5.220060586929321,0.9766683568807055,0.1699998377859436,-0.08700000253569824,-1.1738066144458188,-1.3132282221732743,-0.8032787866813168
5.240196228027344,0.9800016955288432,0.1699998075594686,-0.08700000228212842,-1.1771394039839542,-1.3165600294908522,-0.806612514950564
5.260314226150513,0.9866683722495577,0.1699997611867954,-0.08700000184852402,-1.1838050685313581,-1.3232238343962905,-0.8132799102296567
5.280419588088989,0.9933350482122529,0.1699997303694655,-0.08700000149730447,-1.190470840140404,-1.3298878839070518,-0.8199472287866724
5.300510883331299,1.0000017234304357,0.16999971189350715,-0.08700000121281662,-1.1971367108901994,-1.3365521673389817,-0.8266144763003952
5.320616960525513,1.0033350607651863,0.16999970645038626,-0.08700000109153495,-1.2004696810782027,-1.3398843935092077,-0.8299480751078037
5.340710163116455,1.0100017348968366,0.16999970177073512,-0.08700000088414331,-1.2071356865672622,-1.3465490083741385,-0.8366152260459347
5.361020565032959,1.0166684083271265,0.16999970383485924,-0.08700000071615607,-1.2138017731374784,-1.353213831627538,-0.8432823188355865
5.380906105041504,1.020001744785558,0.16999970690630997,-0.08700000064454047,-1.2171348447652954,-1.3565463183488642,-0.8466158448918846
5.4017133712768555,1.0266684172023737,0.1699997163164016,-0.08700000052207778,-1.2238010407821807,-1.3632114360331347,-0.8532828591129694
5.4216578006744385,1.0333350889711967,0.16999972918547052,-0.087000000422883,-1.2304673021760315,-1.369876738317218,-0.8599498263339799
5.443075180053711,1.0366684246198852,0.16999973663084564,-0.0870000003805947,-1.2338004556067126,-1.373209455855511,-0.8632832935802288
5.463157892227173,1.0400017601154186,0.169999744620542,-0.08700000034253523,-1.2371336232850225,-1.3765422161853118,-0.8666167505582519
5.483404874801636,1.0466684306592822,0.16999976190276544,-0.08700000027745353,-1.243799998783865,-1.3832078609096115,-0.8732836355429574
5.503493070602417,1.0533351006276905,0.16999978045449465,-0.08700000022473736,-1.2504664236718013,-1.3898736640508103,-0.8799504848087835
5.523691177368164,1.0600017700460262,0.16999979981260996,-0.08700000018203727,-1.2571328932605004,-1.39653961745782,-0.8866173016496123
5.543558835983276,1.0633351045569386,0.16999980967524458,-0.08700000016383354,-1.2604661434349704,-1.3998726480423642,-0.8899506988803486
5.563628196716309,1.0700017731983997,0.16999982957292906,-0.08700000013270516,-1.267132671937707,-1.4065388121926221,-0.8966174727872936
5.583721399307251,1.0766684352690643,0.16999973741445668,-0.08700008446666344,-1.2737993386043738,-1.4132055218633583,-0.9032838620349588
5.603921890258789,1.0833350938848911,0.1699997051529573,-0.08700012869872131,-1.2804660052710406,-1.4198722230478942,-0.9099503127491392
5.624183654785156,1.086668421963591,0.1699997074252925,-0.08700013874818578,-1.283799338604374,-1.4232055708067337,-0.9132835588479215
5.644320964813232,1.0933350758125278,0.1699997418525475,-0.08700013971082796,-1.2904660052710408,-1.429872261320529,-0.9199500880554288
5.664395332336426,1.100001726778647,0.16999980846920112,-0.08700012064179925,-1.2971326719377076,-1.4365389459707052,-0.926616661092011
5.684473752975464,1.1066683750905157,0.16999989965767237,-0.08700008695160136,-1.3037993386043745,-1.4432056256414367,-0.9332832718477034
5.704558610916138,1.113335020970509,0.17000000928453088,-0.08700004294545688,-1.3104660052710413,-1.4498723011247554,-0.9399499147680263
5.724785804748535,1.1166683520619025,0.17000000875642882,-0.08700003865091119,-1.3137992432810615,-1.4532067959498984,-0.9432833997850345
5.745210409164429,1.1233350124610288,0.1700000221519475,-0.08700003130723806,-1.3204658100857436,-1.4598762483918633,-0.9499502956417688
5.765012264251709,1.1300016705797953,0.1700000510444033,-0.08700002535886282,-1.3271324861585372,-1.4665462980662571,-0.9566171005161537
5.78508448600769,1.1366683265403796,0.17000009162490834,-0.08700002054067889,-1.3337992578671847,-1.4732169203418926,-0.96328382360037
5.805675268173218,1.1400016537491975,0.17000011531125298,-0.087000018486611,-1.3371326755621185,-1.4765524387147333,-0.9666171571830624
5.825811147689819,1.1466683066986791,0.17000016783888722,-0.08700001497415491,-1.3437995670484806,-1.483223875365756,-0.9732837735430224
5.8459577560424805,1.1533349577888918,0.17000022542852825,-0.08700001212906547,-1.3504665238133648,-1.489895826360243,-0.9799503285811724
5.866006135940552,1.160001614712831,0.1700002404904878,-0.08700000982454302,-1.357133400512902,-1.496565704735517,-0.9866168848367695
5.8860814571380615,1.1666682786671854,0.17000021582570926,-0.08700000795787985,-1.3638001564847648,-1.5032331785565975,-0.9932834816937756
5.9061524868011475,1.1700016105829367,0.17000020584929199,-0.08700000716209186,-1.3671335350686706,-1.5065669354595346,-0.9966167792063203
5.926316976547241,1.1766682743020374,0.17000018976831419,-0.0870000058012944,-1.3738002927799364,-1.513234486956467,-1.0032833728545871
5.946343898773193,1.1833349378845592,0.1700001779215644,-0.08700000469904845,-1.3804670504285708,-1.5199020857935157,-1.0099499652182515
5.966430902481079,1.1900016013456796,0.17000016938566848,-0.08700000380622924,-1.3871338071632044,-1.5265697286409279,-1.0166165568962742
5.986703634262085,1.1933349330352165,0.17000016612101576,-0.08700000342560632,-1.3904671849492596,-1.5299035655789543,-1.0199498526470037
6.006857395172119,1.2000015963407726,0.17000016120482103,-0.08700000277474113,-1.3971339389334079,-1.536571268603231,-1.026616444275401
6.027171611785889,1.2066682595590466,0.17000015800633872,-0.08700000224754031,-1.4038006902973539,-1.543239008111916,-1.0332830364353625
6.047022104263306,1.2133349227021848,0.17000015609666821,-0.08700000182050766,-1.410467438509711,-1.5499067813968666,-1.039949629514482
6.0671327114105225,1.2166682542491443,0.17000015551505496,-0.08700000163845689,-1.413800811289174,-1.5532406799039211,-1.043282926506072
6.087243556976318,1.2233349173005266,0.17000015491763165,-0.08700000132715008,-1.4204675539444167,-1.559908499130622,-1.0499495215825192
6.1072838306427,1.2300015803035154,0.17000015487725248,-0.08700000107499156,-1.4271342924434112,-1.5665763460633004,-1.0566161183375717
6.127423286437988,1.2366682432674068,0.17000015520016712,-0.08700000087074317,-1.433801026499213,-1.5732442185377993,-1.0632827170016605
6.147965431213379,1.240001574737385,0.17000015544865255,-0.08700000078366885,-1.437134391787238,-1.5765781637159066,-1.0666160171115528
6.167935848236084,1.246668237658383,0.1700001560399338,-0.08700000063477177,-1.4438011187658395,-1.5832460707543208,-1.0732826189925202
6.188000917434692,1.2533349005602055,0.17000015667111545,-0.08700000051416514,-1.450467840827555,-1.5899139985328457,-1.0799492232065693
6.208402872085571,1.2600015634495518,0.17000015725939277,-0.08700000041647377,-1.4571345578687387,-1.5965819453596901,-1.0866158298709
6.228553056716919,1.2666682263324314,0.1700001577409411,-0.08700000033734374,-1.4638012698287668,-1.6032499096659076,-1.093282439077135
6.248624801635742,1.2700015577731407,0.17000015792599119,-0.08700000030360937,-1.4671346238952707,-1.6065838979158336,-1.0966157446557607
6.268709421157837,1.2766682206561333,0.17000015816017214,-0.08700000024592358,-1.4738013282051758,-1.6132518857557232,-1.1032823577971738
6.2888243198394775,1.2833348835448115,0.1700001581880261,-0.0870000001991981,-1.4804680274475384,-1.6199198876575311,-1.1099489736146062
6.309180974960327,1.290001546442947,0.17000015798676632,-0.08700000016135045,-1.4871347216856385,-1.62658790244396,-1.1166155921298837
6.3293616771698,1.2933348778965783,0.17000015779499442,-0.0870000001452154,-1.490468066955831,-1.6299219143289523,-1.1199489024018796
6.349348306655884,1.300001540814688,0.17000015722176323,-0.08700000011762447,-1.4971347538686943,-1.6365899464564475,-1.126615524972561
6.369479417800903,1.3066682037491508,0.17000015638898217,-0.08700000009527582,-1.5038014360565912,-1.6432579889617998,-1.1332821502341754
6.3894829750061035,1.313334866701763,0.17000015529176188,-0.08700000007717341,-1.5104681136737517,-1.6499260410065535,-1.1399487781641287
6.409611940383911,1.3166681981852937,0.17000015464322868,-0.08700000006945607,-1.5138014508223954,-1.6532600703684508,-1.1432820931202028
6.429670333862305,1.3233348611673634,0.17000015314597935,-0.08700000005625942,-1.520468121918949,-1.6599281353426343,-1.1499487249912856
6.449779272079468,1.3300015241698304,0.170000151382548,-0.08700000004557013,-1.5271347889203546,-1.666596208139518,-1.1566153594385788
6.469812631607056,1.3366681871927375,0.1700001493548299,-0.0870000000369118,-1.5338014520489622,-1.673264288215823,-1.1632819964146408
6.489899158477783,1.340001518711741,0.17000014824268314,-0.08700000003322061,-1.537134782235003,-1.676598330835275,-1.1666153158349661
6.510009527206421,1.346668181764367,0.17000014582373552,-0.08700000002690869,-1.5438014400072602,-1.6832664209810921,-1.17328195650645
6.530083656311035,1.353334844835517,0.17000014314799528,-0.08700000002179603,-1.5504680945330063,-1.6899345173819795,-1.1799485995723962
6.550145149230957,1.3600015079236423,0.1700001402187892,-0.08700000001765479,-1.5571347460888407,-1.696602619755298,-1.1866152449756615
6.570267200469971,1.3633348394734681,0.17000013866014135,-0.08700000001588931,-1.5604680708433416,-1.6999366731123169,-1.1899485685357811
6.5903520584106445,1.3700015025832066,0.17000013535661196,-0.08700000001287034,-1.5671347184936788,-1.7066047840655687,-1.1966152173371343
6.610431909561157,1.376668165619738,0.17000013238987105,-0.08700000001042496,-1.5738013633790033,-1.712945717885732,-1.2032818679847033
6.630503177642822,1.3833348286106417,0.1700001294953455,-0.08700000000844421,-1.5804680058465315,-1.7180874699090367,-1.2099485206235918
6.651920557022095,1.3866681601253978,0.17000012789365165,-0.08700000000759979,-1.5838013264462618,-1.7202794766526925,-1.2132818478308525
6.672029733657837,1.3933348231924287,0.170000124541537,-0.08700000000615583,-1.5904679664354513,-1.7240278028061782,-1.219948503986319
6.692124843597412,1.4000014863086743,0.1700001211435697,-0.08700000000498623,-1.5971346048614128,-1.7270639410892015,-1.226615162429663
6.7122108936309814,1.4066681494736808,0.17000011782726454,-0.08700000000403883,-1.6038012417620122,-1.7295232082064609,-1.2332818231312328
6.7322587966918945,1.4133348126873826,0.1700001146724774,-0.08700000000327145,-1.6104678771571888,-1.7315152103914444,-1.2399484860692889
6.752353668212891,1.416668144312539,0.17000011317094813,-0.0870000000029443,-1.6138011942932775,-1.7323644309209127,-1.243281818371583
6.772554397583008,1.4233348075996248,0.17000011033604567,-0.08700000000238489,-1.6204678274447097,-1.7338165954013547,-1.249948484633515
6.7925639152526855,1.4300014709359992,0.17000010773361274,-0.08700000000193175,-1.6271344591023278,-1.734992845411411,-1.256615153094123
6.8129541873931885,1.4333348026227686,0.17000010651944844,-0.08700000000173858,-1.6304677743709186,-1.7354942981744834,-1.2599484881449035
6.833024740219116,1.4400014660336544,0.17000010425955633,-0.08700000000140824,-1.6371344037880753,-1.736351780134453,-1.2666151598793007
6.853117942810059,1.4466681294945387,0.17000010221188208,-0.08700000000114068,-1.6438010317142469,-1.7370463376059013,-1.273281833779466
6.873213291168213,1.453334793005596,0.17000010035796836,-0.08700000000092395,-1.6504676581555526,-1.737608926259526,-1.27994850983076
6.8932952880859375,1.4600014565669068,0.17000009867701388,-0.0870000000007484,-1.6571342831227511,-1.7380646201493033,-1.2866151880170402
6.9134202003479,1.4633347883664038,0.17000009789461756,-0.08700000000067355,-1.6604675950583854,-1.7382588885018249,-1.289948527905275
6.9335198402404785,1.4700014520030114,0.17000009643237987,-0.08700000000054559,-1.6671342178466007,-1.7385910850810062,-1.2966152092598142
6.953582048416138,1.4766681156895891,0.17000009508913205,-0.08700000000044193,-1.6738008392125368,-1.7388601612175143,-1.3032818927007557
6.973661184310913,1.4800014475515193,0.17000009445568723,-0.08700000000039773,-1.6771341493718859,-1.7389748713914988,-1.3066152351964753
6.993770360946655,1.486668111312396,0.17000009325290066,-0.08700000000032217,-1.683800768666628,-1.7391710232938546,-1.3132819217228522
7.0139501094818115,1.4933347751221726,0.17000009212019368,-0.08700000000026097,-1.6904673866324469,-1.7393299029623719,-1.3199486102733307
7.034013986587524,1.5000014389801801,0.1700000910402852,-0.08700000000021138,-1.6971340033196027,-1.7394585919911545,-1.3266153008187844
7.054078102111816,1.5066681028856026,0.17000008999724378,-0.08700000000017122,-1.7038006187862569,-1.739562826464065,-1.3332819933275666
7.0742270946502686,1.5100014348557982,0.17000008948492493,-0.08700000000015409,-1.707133926082322,-1.7396072618081033,-1.3366153403076093
7.094306468963623,1.5166680988304784,0.17000008847011092,-0.08700000000012482,-1.7138005398454743,-1.7396832432845677,-1.343282035696358
7.114389419555664,1.5233347628498521,0.17000008745777173,-0.08700000000010111,-1.7204671525705897,-1.7397447842728617,-1.3499487329578272
7.134441614151001,1.5300014269125386,0.17000008643604395,-0.08700000000008189,-1.7271337643465994,-1.7397946283123311,-1.3566154320509929
7.156028985977173,1.533334758959644,0.1700000859182013,-0.0870000000000737,-1.7304670699091556,-1.7398158759497777,-1.3599487822708665
7.176147222518921,1.5400014230843164,0.17000008486208018,-0.0870000000000597,-1.7371336804499165,-1.739852206035917,-1.3666154840284155
7.196216344833374,1.546668087248046,0.17000008377057857,-0.08700000000004836,-1.743800290308137,-1.7398816288509877,-1.373282187502487
7.216288328170776,1.553334751448783,0.17000008263445374,-0.08700000000003916,-1.750466899609663,-1.739905456616232,-1.379948892641748
7.236393213272095,1.5566680835623306,0.17000008204690734,-0.08700000000003524,-1.7538002040942415,-1.7399156128886164,-1.3832822458189267
7.256480932235718,1.5633347478142638,0.17000008082757329,-0.08700000000002854,-1.7604668128230272,-1.7399329763115259,-1.3899489533528244
7.2765631675720215,1.5700014120971164,0.17000007954246343,-0.08700000000002311,-1.767133421363602,-1.7399470355643907,-1.396615662409622
7.296705961227417,1.5766680764080352,0.1700000781836603,-0.08700000000001872,-1.7738000298868781,-1.7399584182766143,-1.4032823729265558
7.317235708236694,1.5800014085730576,0.17000007747420431,-0.08700000000001684,-1.7771333341994255,-1.7399632688056281,-1.4066157287120056
7.337339401245117,1.5866680729201568,0.17000007599042075,-0.08700000000001365,-1.7837999430495368,-1.7399715589720421,-1.413282441293769
7.3574488162994385,1.5933347372870266,0.17000007441385362,-0.08700000000001105,-1.7904665523757433,-1.7399782683159397,-1.4199491551631847
7.3775811195373535,1.6000014016698456,0.17000007273698986,-0.08700000000000895,-1.797133162404265,-1.7399836970301965,-1.4266158702447198
7.397849082946777,1.6066680660644816,0.17000007095231123,-0.08700000000000724,-1.8037997733792965,-1.7399880882711505,-1.4332825864589194
7.417950868606567,1.6100013982648507,0.17000007001718018,-0.08700000000000652,-1.8071330793032365,-1.7399899579405471,-1.4366159449648341
7.43813419342041,1.6166680626687437,0.17000006805657078,-0.08700000000000528,-1.8137996921978141,-1.7399931502764145,-1.4432826627201505
7.458119630813599,1.6233347270726552,0.17000006596907044,-0.08700000000000428,-1.820466306735041,-1.7399957296436577,-1.4499493813914706
7.478605270385742,1.6266680592729605,0.17000006487529593,-0.08700000000000385,-1.8237996147174158,-1.739996826725013,-1.4532827410413598
7.498682498931885,1.633334723666745,0.17000006258273753,-0.08700000000000312,-1.8304662323177068,-1.7399986976256538,-1.459949460908588
7.518775939941406,1.640001388046436,0.17000006014343133,-0.08700000000000252,-1.8371328523935422,-1.7400002062254865,-1.4666161814476875
7.538853168487549,1.6466680524056774,0.17000005754913536,-0.08700000000000205,-1.8437994753206817,-1.7400014212005852,-1.4732829025528087
7.558980464935303,1.6533347167376782,0.1700000547914113,-0.08700000000000166,-1.850466101501194,-1.7400023981791537,-1.4799496241131933
7.579119682312012,1.6566680488912175,0.17000005334856982,-0.08700000000000149,-1.8537994159446416,-1.7400028118559572,-1.4832829850281175
7.599197864532471,1.6633347131686254,0.17000005032942084,-0.0870000000000012,-1.8604660478200248,-1.7400035135835905,-1.4899497070526084
7.619237422943115,1.6700013773997846,0.17000004712480968,-0.08700000000000097,-1.8671326840781513,-1.7400040744333738,-1.496616429232975
7.6396543979644775,1.6766680415762278,0.1700000437255241,-0.08700000000000079,-1.873799325224241,-1.7400045210140598,-1.5032831514400495
7.659740447998047,1.6800013736411419,0.17000004194993493,-0.0870000000000007,-1.8771326477970818,-1.7400047083589396,-1.5066165125117044
7.680141448974609,1.6866680377184817,0.1700000382408455,-0.08700000000000056,-1.883799297294593,-1.7400050226377906,-1.5132832345043083
7.7000885009765625,1.6933347017175977,0.17000003431300703,-0.08700000000000045,-1.89046595309006,-1.7400052691046113,-1.519949956175745
7.720133304595947,1.7000013656280977,0.17000003015636536,-0.08700000000000037,-1.897132615810415,-1.7400054604887292,-1.5266166773764471
7.740243673324585,1.7033346975467065,0.17000002798903485,-0.08700000000000033,-1.9004659499737997,-1.7400055388284297,-1.5299500377518407
7.76031231880188,1.7100013613034868,0.1700000234698051,-0.08700000000000027,-1.907132624341474,-1.7400056662956467,-1.53661675795238
7.7803990840911865,1.716668024943017,0.17000001869557582,-0.08700000000000022,-1.913799307373117,-1.7400057609071344,-1.5432834772807433
7.80045485496521,1.7233346884527283,0.17000001365544964,-0.08700000000000017,-1.9204659998375415,-1.740005828754208,-1.549950195564896
7.820509433746338,1.726668020154792,0.17000001103220577,-0.08700000000000016,-1.923799349859404,-1.7400058542221657,-1.553283554259776
7.840636491775513,1.733334683444742,0.17000000557229183,-0.08700000000000013,-1.930466058012227,-1.740005890875954,-1.5599502706401118
7.86095929145813,1.7400013465704867,0.1699999998182266,-0.0870000000000001,-1.9371327777182101,-1.7400059114042974,-1.5666169855159946
7.880886793136597,1.7466680095170333,0.16999999375831928,-0.08700000000000008,-1.9437995099095864,-1.740005918724035,-1.5732836986908096
7.9009690284729,1.7500013409182216,0.1699999906099634,-0.08700000000000006,-1.947132880992461,-1.7400059181879932,-1.5766170545768523
7.921088457107544,1.7566680035662459,0.1699999840689123,-0.08700000000000005,-1.953799633771512,-1.7400059099838008,-1.5832837648151488
7.941144943237305,1.7633346659943312,0.16999997719188542,-0.08700000000000005,-1.9604664015929028,-1.740005893668611,-1.589950472828028
7.961233377456665,1.7700013281848295,0.16999996996649033,-0.08700000000000005,-1.9671331855748906,-1.7400058706413708,-1.5966171783921719
7.981306314468384,1.7733346591852506,0.16999996621923305,-0.08700000000000005,-1.9704665839912086,-1.7400058569741856,-1.5999505301839936
8.00159740447998,1.7800013209845271,0.169999958447663,-0.08700000000000005,-1.9771333944369252,-1.7400058259377336,-1.606617231638729
8.021555423736572,1.7866679824985683,0.16999995029598866,-0.08700000000000005,-1.9838002240942252,-1.740005790637525,-1.613283930050989
8.041614294052124,1.790001313142249,0.16999994607356617,-0.08700000000000005,-1.987133646539601,-1.7400057716041815,-1.6166172780377381
8.061697006225586,1.7966679741897127,0.16999993732738264,-0.08700000000000005,-1.9938005075234262,-1.740005731130447,-1.6232839714108833
8.081815242767334,1.8033346348990622,0.16999992816843215,-0.08700000000000005,-2.000467391158582,-1.7400056878472758,-1.629950661095078
8.101874828338623,1.8066679651198962,0.1699999234300242,-0.08700000000000005,-2.0038008419338253,-1.740005665280626,-1.6332840044685657
8.12207579612732,1.813334632464427,0.16999994220880985,-0.08699999930401582,-2.0104674930605513,-1.740004633420602,-1.6399506799164558
8.142085552215576,1.820001299814445,0.1699999573941275,-0.0869999987240461,-2.017134143889576,-1.740003797058736,-1.6466173554623085
8.162156105041504,1.8266679671694144,0.16999996966660422,-0.0869999982387287,-2.0238007944328738,-1.7400031190814398,-1.6532840311008916
8.182239770889282,1.8300013006714393,0.16999997442896356,-0.08699999841485583,-2.027134111378551,-1.7400028550903441,-1.6566173715806494
8.202350378036499,1.836667968035559,0.16999998334745256,-0.08699999804782398,-2.033800761417993,-1.7400023597637655,-1.663284047345334
8.222410202026367,1.8433346354029458,0.1699999905378871,-0.08699999773819743,-2.0404674112461056,-1.7400019579335226,-1.669950723171163
8.24249792098999,1.8500013027728883,0.16999999632464138,-0.0869999974761398,-2.047134060894902,-1.74000163182393,-1.6766173990444426
8.262690782546997,1.8533346366266747,0.16999999917991815,-0.08699999694873749,-2.050467394228235,-1.7400014684340026,-1.6799507343492976
8.282768249511719,1.8600013039969663,0.1700000033247851,-0.08699999673917373,-2.0571340437337584,-1.740001230122423,-1.6866174102666753
8.302881002426147,1.8666679713681549,0.17000000663264103,-0.08699999656175184,-2.0638006931363537,-1.7400010365051286,-1.6932840861945362
8.323023557662964,1.873334638739415,0.1700000092579273,-0.08699999641245666,-2.0704673424809417,-1.7400008790801507,-1.6999507621147174
8.3434157371521,1.8800013061098722,0.17000001132544118,-0.08699999628830653,-2.077133991817305,-1.740000750960929,-1.7066174380076058
8.363335609436035,1.8833346396328914,0.1700000118208495,-0.08699999665947587,-2.080467307867047,-1.7400007186512907,-1.7099507785543804
8.383382797241211,1.8900013070006576,0.17000001323875982,-0.08699999656845868,-2.087133957357225,-1.740000624004175,-1.7166174543519637
8.40344786643982,1.896667974364669,0.17000001431332198,-0.08699999649688958,-2.0938006070206585,-1.7400005466335975,-1.7232841300633104
8.423596858978271,1.9033346417238082,0.17000001510317533,-0.08699999644403827,-2.100467256929575,-1.7400004832458205,-1.7299508056630974
8.443644523620605,1.9066679755643747,0.17000001576266965,-0.08699999601070126,-2.1038005902629084,-1.7400004347084872,-1.7332841408593254
8.463735580444336,1.9100013090768975,0.1700000156554367,-0.08699999640963113,-2.1071339071626003,-1.7400004311729755,-1.736617481124234
8.48394227027893,1.9166679764226966,0.17000001600787898,-0.08699999639378465,-2.1138005578050834,-1.740000388254159,-1.7432841564177892
8.503991603851318,1.9200013102601603,0.17000001648586455,-0.08699999599661369,-2.1171338911384168,-1.7400003492242226,-1.7466174914931683
8.524062871932983,1.9266679775960014,0.17000001660291067,-0.08699999602209117,-2.123800542282763,-1.7400003172667973,-1.7532841665093335
8.544123888015747,1.9333346449220448,0.17000001658755773,-0.08699999607064714,-2.1304671940287694,-1.7400002906984091,-1.7599508412806575
8.564199924468994,1.9400013122368833,0.1700000164569055,-0.08699999614366204,-2.1371338464839695,-1.7400002684858362,-1.76661751577129
8.584296703338623,1.946667979539041,0.17000001622440594,-0.08699999624275265,-2.1438004997639757,-1.7400002497923013,-1.7732841899432163
8.604391813278198,1.9500013129943046,0.17000001563721426,-0.08699999661847738,-2.1471338206594957,-1.7400002601087827,-1.7766175292213304
8.624454021453857,1.9566679802665654,0.17000001524582478,-0.08699999673277821,-2.1538004759700167,-1.740000245026115,-1.7832842027896791
8.644534826278687,1.9633346475209374,0.1700000147705314,-0.08699999687403251,-2.1604671325041562,-1.7400002319947188,-1.7899508759303298
8.664817571640015,1.9700013147556095,0.17000001421643215,-0.08699999704424745,-2.1671337904133505,-1.740000220614733,-1.7966175485970333
8.684911012649536,1.9733346485887846,0.17000001445221607,-0.0869999969395505,-2.170467123746684,-1.7400001984469826,-1.7999508826038204
8.705027103424072,1.9800013158028174,0.1700000138259195,-0.08699999720045361,-2.177133783192206,-1.7400001894218977,-1.8066175545312682
8.725103616714478,1.9866679829937417,0.17000001313241525,-0.08699999750130263,-2.1838004443455192,-1.7400001813586041,-1.813284225862513
8.745512247085571,1.9933346501595421,0.17000001237302223,-0.08699999784502867,-2.190467107388627,-1.7400001740664368,-1.8199508965424334
8.765388011932373,1.9966679834582834,0.1700000112688543,-0.0869999980605258,-2.1938004391810866,-1.7400001859918508,-1.8232842335110984
8.785460948944092,2.003334650564474,0.17000001035520773,-0.08699999841125543,-2.2004671065936887,-1.7400001790842246,-1.8299509030251129
8.805557012557983,2.010001317638389,0.17000000937091753,-0.08699999880629515,-2.207133776508795,-1.740000172607773,-1.8366175717332498
8.825607061386108,2.016667984677636,0.17000000831516643,-0.08699999924872438,-2.213800449154005,-1.7400001664718983,-1.8432842395705273
8.845714092254639,2.0200013185282497,0.17000000868094228,-0.08699999971307432,-2.2171337824873385,-1.7400001499353106,-1.846617571550381
8.865808963775635,2.026667985535237,0.17000000759139333,-0.08700000032087754,-2.2238004581024864,-1.7400001446985247,-1.8532842380499794
8.88589358329773,2.0333346525032168,0.1700000064329183,-0.08700000099255852,-2.2304671369399562,-1.74000013965344,-1.859950903508602
8.905976057052612,2.0400013194295674,0.170000005203948,-0.0870000017321739,-2.2371338192649954,-1.7400001347575376,-1.8666175678509787
8.926239013671875,2.0433346524370344,0.17000000335046517,-0.08700000155895651,-2.240467172022681,-1.7400001440684214,-1.869950900808329
8.9467134475708,2.050001319263991,0.1700000019151601,-0.08700000228954274,-2.247133862171542,-1.7400001387844757,-1.8766175632128188
8.966544389724731,2.056667986040084,0.17000000039817462,-0.08700000308899197,-2.253800556683837,-1.740000133568235,-1.8832842242936432
8.986651182174683,2.063001068886504,0.1699999998386203,-0.08700000396108394,-2.2604672404107156,-1.7400001421511375,-1.8899508883290583
9.006909370422363,2.065700962725336,0.1700000012009523,-0.08700000468585414,-2.263800573744049,-1.7400001282450643,-1.8932842184939982
9.027065753936768,2.0703177801574544,0.17000000067411475,-0.08700000531210071,-2.2704672646668347,-1.7400001315487585,-1.8999508811771852
9.047119855880737,2.074057402182823,0.16999999964506007,-0.08700000622174896,-2.2771339628062006,-1.7400001317327605,-1.9066175414779132
9.067192554473877,2.077086495932954,0.16999999822737338,-0.08700000737084358,-2.2838006682425847,-1.740000129681333,-1.913284199418372
9.087257385253906,2.079540061783176,0.16999999650677766,-0.08700000872673537,-2.2904673811114638,-1.7400001260599816,-1.919950854999399
9.107388973236084,2.080586054819694,0.1699999934393278,-0.08700000785406183,-2.2938007682650023,-1.7400001338893174,-1.923284182584857
9.127434253692627,2.082374704147707,0.16999999121567363,-0.0870000092391513,-2.300467496600857,-1.7400001277526271,-1.9299508343482044
9.147526025772095,2.0838235100059124,0.16999998881215436,-0.08700001077405085,-2.307134233058143,-1.7400001211226628,-1.9366174836822636
9.167804956436157,2.084441159718184,0.1699999900880715,-0.08700001383197738,-2.3104675663914764,-1.7400001101232974,-1.939950807324519
9.187909364700317,2.0854973391114275,0.1699999876471476,-0.08700001584141223,-2.3171343112805403,-1.74000010403654,-1.9466174531309277
9.207978248596191,2.0863528443348884,0.16999998509052358,-0.08700001799612588,-2.323801064946509,-1.7400000978396897,-1.9532840963399718
9.228100061416626,2.0870458034794988,0.16999998242953898,-0.08700002029541,-2.3304678277665687,-1.7400000916268537,-1.9599507368677795
9.24813199043274,2.0803791393045725,0.1699999935679009,-0.08700002282406447,-2.337134341728402,-1.740000224020532,-1.9666174378900996
9.268423795700073,2.077045804401601,0.1699999872709518,-0.08700002054165802,-2.3404677921605415,-1.740000210407055,-1.9699507544678454
9.288368701934814,2.070379135109515,0.16999997366906153,-0.08700002292534426,-2.340468056368386,-1.7400001351919128,-1.9717618120803913
9.308433055877686,2.06371246267561,0.1699999532693559,-0.0836666872994765,-2.3338018312717663,-1.7400000647004163,-1.9670584159131006
9.329246520996094,2.0603791278372614,0.16999995117826622,-0.08033335396614318,-2.3304686104295693,-1.7400000638129656,-1.9637250661183996
9.349320411682129,2.0537124604894754,0.1699999538951294,-0.07366669331666871,-2.3238020424962564,-1.7400000622042149,-1.9570583723066526
9.369433403015137,2.0470457932858754,0.16999995698546275,-0.06700003190583799,-2.3171354614863127,-1.7400000644533744,-1.9503916827170684
9.389519214630127,2.040379126234016,0.16999996039785384,-0.06033336976933116,-2.310468867961523,-1.740000070108732,-1.9437249971899173
9.409638404846191,2.0337124593412335,0.16999996409157897,-0.05366670694111588,-2.3038022624583094,-1.7400000788163266,-1.9370583155711905
9.429715156555176,2.0303791266645286,0.16999996832364594,-0.050333376786811164,-2.300468929124976,-1.7400000718227933,-1.9337249747194276
9.458232164382935,2.0303791266645286,0.16999996832364594,-0.050333376786811164,-2.300468929124976,-1.7400000718227933,-1.9337249747194276
9.4938063621521,2.0303791266645286,0.16999996832364594,-0.050333376786811164,-2.300468929124976,-1.7400000718227933,-1.9337249747194276
9.513901233673096,2.023712459973538,0.16999997219928983,-0.04366671267038626,-2.293802312154451,-1.7400000819877395,-1.927058298201652
9.534040451049805,2.0170457934689034,0.1699999762955113,-0.037000047954195606,-2.2871356842025423,-1.740000094466527,-1.9203916252489475
9.554132223129272,2.0137124596877247,0.16999997657488128,-0.03366671462086227,-2.283802379063517,-1.740000120809207,-1.9170582927094946
9.574231147766113,2.0070457926579803,0.1699999794605326,-0.027000047954195604,-2.2771357329737225,-1.7400001424038343,-1.9103916290694234
9.594316244125366,2.0003791257627634,0.16999998258233034,-0.020333381287528936,-2.2704690759153903,-1.7400001664645561,-1.9037249677303223
9.614365339279175,1.993712458994999,0.16999998590378085,-0.013666714620862268,-2.263802408336955,-1.7400001929271336,-1.8970583086044823
9.634519577026367,1.9903791256668844,0.16999998740735417,-0.010333381287528934,-2.260469073758466,-1.7400001795649902,-1.893724976181238
9.654582738876343,1.9837124590329247,0.16999999064481428,-0.0036667146208622663,-2.25380239495181,-1.7400002064147724,-1.8870583194268316
9.674662351608276,1.97704579251188,0.1699999940164527,0.002999952045804401,-2.247135706484184,-1.740000235432592,-1.8803916647101009
9.694745302200317,1.9703791260971637,0.16999999750671055,0.009666618712471068,-2.2404690087163694,-1.74000026661456,-1.8737250119516335
9.714843273162842,1.967045793062279,0.1700000006958238,0.012999952045804402,-2.2371356408089222,-1.740000322247829,-1.870391692574584
9.73495626449585,1.9603791268309718,0.1700000046920098,0.01966661871247107,-2.230468926383711,-1.740000360432219,-1.8637250432905783
9.75504994392395,1.9537124606878555,0.17000000878919785,0.026333285379137737,-2.223802203554759,-1.7400004009842462,-1.8570583957443942
9.775161266326904,1.9470457946269042,0.17000001298312994,0.0329999520458044,-2.2171354725855825,-1.7400004439257093,-1.8503917498626674
9.795475006103516,1.9403791286422298,0.17000001727164638,0.03966661871247107,-2.2104687337161883,-1.7400004892805052,-1.8437251055729782
9.81540322303772,1.9370457953983755,0.17000001642863796,0.0429999520458044,-2.2071353912014433,-1.7400004554066566,-1.840391774877479
9.83552074432373,1.9303791294915376,0.17000002047992788,0.04966661871247107,-2.200468643787116,-1.7400004998841812,-1.8337251322929071
9.855575323104858,1.9237124636489438,0.17000002461963595,0.05633328537913774,-2.1938018889027466,-1.7400005466555306,-1.8270584911509642
9.875646829605103,1.9170457978650939,0.17000002885028828,0.0629999520458044,-2.187135126719439,-1.7400005957425868,-1.8203918513805273
9.895890474319458,1.9137124653529685,0.17000003538611305,0.06633328537913773,-2.1838017032565604,-1.7400006953125855,-1.8170585429046466
9.915875434875488,1.907045799665682,0.1700000401700493,0.07299995204580438,-2.1771349277168452,-1.74000075308021,-1.8103919055038167
9.936107158660889,1.9003791369888041,0.1700000716449731,0.06633328537913771,-2.1704678769959678,-1.7400009946740191,-1.8037253149768855
9.956193208694458,1.8937124712315714,0.17000006853668445,0.05966661871247105,-2.1771344443942406,-1.7400009827138476,-1.7970586754559883
9.97628927230835,1.887045805400329,0.1700000650230158,0.052999952045804384,-2.1838010188152577,-1.7400009698193866,-1.790392035683466
9.99666690826416,1.8837124721643475,0.1700000595989404,0.04966661871247105,-2.187134341697538,-1.740000891770516,-1.7870587053424485
10.016652345657349,1.8770458062757702,0.17000005611957877,0.04299995204580438,-2.1938009236134683,-1.74000086964448,-1.7803920641055584
10.036737203598022,1.8703791391039504,0.17000004228381752,0.036333285379137714,-2.1938009469278805,-1.7400007878653656,-1.7737254045511772
10.056915521621704,1.867045806354981,0.17000004420641343,0.03299995204580438,-2.1904675507616416,-1.740000833421772,-1.770392091273533
10.077108383178711,1.8603791374248144,0.17000002082263316,0.03966661871247105,-2.1838010566469723,-1.7400006656211662,-1.7637254016803523
10.097120761871338,1.8537124715451248,0.1700000251492352,0.046333285379137716,-2.1771343076274907,-1.7400006886724553,-1.7570587593172609
10.117472410202026,1.8470458057139376,0.17000002949725504,0.052999952045804384,-2.170467552414038,-1.7400007191253686,-1.7503921181917361
10.137325763702393,1.8403791399264529,0.17000003388314885,0.05966661871247105,-2.1638007911336974,-1.7400007560646797,-1.7437254782410703
10.157421112060547,1.837045806697348,0.17000003171635475,0.06299995204580439,-2.1604674465158205,-1.7400007013225782,-1.740392148041427
10.177520275115967,1.8303791409525316,0.17000003581469775,0.06966661871247104,-2.1538006786049264,-1.7400007414742058,-1.7337255093457398
10.197622060775757,1.8237124752415874,0.17000003997653154,0.0763332853791377,-2.147133904833312,-1.74000078634055,-1.7270588716925972
10.21767807006836,1.8170458095599826,0.17000004421392637,0.08299995204580435,-2.140467125275363,-1.7400008354850718,-1.7203922350173024
10.238326072692871,1.8137124771206938,0.17000005209053967,0.08633328537913768,-2.137133687284563,-1.7400009558397513,-1.717058928914602
10.258475065231323,1.8070458114827508,0.17000005687285286,0.09299995204580433,-2.130466896985288,-1.7400010165428916,-1.7103922938766267
10.278545618057251,1.8003791436987011,0.17000003823132567,0.09966661871247098,-2.123800283950227,-1.7400010399382106,-1.7037256410979864
10.298738479614258,1.7937124746081778,0.17000001333365833,0.10633328537913764,-2.1171337482932895,-1.7400012179103375,-1.697058996288668
10.318670749664307,1.7870458055731442,0.16999999353297268,0.11299995204580429,-2.1104672055872653,-1.7400013835518382,-1.6903923536142489
10.338780879974365,1.7837124710742527,0.16999998522769108,0.11633328537913762,-2.1071339317034,-1.7400014626620424,-1.687059033044548
10.35895848274231,1.7770458021094604,0.16999997128082625,0.12299995204580427,-2.1004673790926907,-1.740001614972562,-1.6803923933746685
10.379005670547485,1.7703791331831171,0.16999996030072498,0.12966661871247093,-2.093800820308468,-1.7400017610694314,-1.6737257555777396
10.399026870727539,1.7670457987323334,0.16999995573565188,0.13299995204580425,-2.0904675387053735,-1.7400018323177715,-1.6703924373495342
10.419138431549072,1.7603791222413279,0.16999989102416027,0.1263332853791376,-2.083801282962722,-1.7400038391721029,-1.663725919085091
10.439384460449219,1.7537124383403957,0.16999979982185215,0.11966661871247095,-2.0904686107849555,-1.7400073309268995,-1.6570595356027236
10.45929741859436,1.74704574897451,0.16999965861220595,0.11299995204580429,-2.0971364906371606,-1.7400096679472699,-1.6503930801356586
10.479575872421265,1.7437124041496779,0.16999959816268054,0.10966661871247096,-2.1004704466723707,-1.7400106069552446,-1.6470598474799958
10.499666213989258,1.737045724821136,0.16999958146057204,0.10299995204580431,-2.1071377982048034,-1.7400104851719294,-1.6403932908280754
10.519667148590088,1.7303790559704177,0.169999645846995,0.09633328537913766,-2.1138045728467683,-1.7400088803741385,-1.636182620550369
10.53973913192749,1.723712387090562,0.16999969787663843,0.089666618712471,-2.1204713522534715,-1.7400075605738785,-1.6325876066810119
10.559818744659424,1.7203790526228653,0.16999971982613923,0.08633328537913768,-2.1238047451760234,-1.7400069894773635,-1.6300627467002005
10.579931497573853,1.713712382992531,0.169999750241972,0.07966661871247102,-2.1171382634120266,-1.7400059475190024,-1.6233960885193277
10.59999966621399,1.707045742343865,0.16999988526039891,0.07370385297382952,-2.11047159674536,-1.7400048563179022,-1.616729052467133
10.620103597640991,1.7003790630021771,0.169999808371595,0.08037051964049617,-2.103805680104992,-1.740005332967205,-1.610062428221085
10.640190362930298,1.6970457187048005,0.1699997456350552,0.0837038529738295,-2.1004729386442507,-1.7400063744572851,-1.606729167772052
10.66025185585022,1.6903790304537845,0.1699996393993311,0.09037051964049615,-2.0938074201685786,-1.74000825940952,-1.6000626578446766
10.680347681045532,1.6837123426255978,0.16999955459787014,0.0970371863071628,-2.0871418563500135,-1.7400099245250995,-1.5933961619194845
10.700420618057251,1.6770456551787378,0.169999487010299,0.10370385297382946,-2.080476249598816,-1.7400114139138434,-1.5867296792575976
10.72243881225586,1.673712311585683,0.16999945857412752,0.10703718630716279,-2.0771434308571606,-1.740012104136385,-1.5833964426732505
10.742395639419556,1.6670456246357908,0.16999941058751225,0.11370385297382944,-2.0704777640717844,-1.740013394588685,-1.5767299785512732
10.762478590011597,1.660378937969121,0.16999937241231797,0.1203705196404961,-2.063812060076258,-1.7400145860151421,-1.570063525907095
10.782782077789307,1.6537122515487896,0.16999934200523467,0.12703718630716276,-2.0571463210474654,-1.7400156992974645,-1.5633970840527789
10.802736282348633,1.650378908419857,0.16999932918176958,0.1303705196404961,-2.0538134390596605,-1.740016232030911,-1.5600638669611744
10.822834253311157,1.6437122223029528,0.16999930740340677,0.13703718630716274,-2.0471476514345803,-1.7400172586076494,-1.5533974400367483
10.842895984649658,1.637045536346389,0.16999928978636594,0.1437038529738294,-2.040481833967738,-1.7400182431711895,-1.5467310222532726
10.863027572631836,1.6303788505183434,0.16999927532490366,0.15037051964049605,-2.033815988643927,-1.740019195483435,-1.5400646129810944
10.883484125137329,1.627045507642987,0.16999926901338155,0.15370385297382938,-2.0304830561427436,-1.740019662055567,-1.5367314113448662
10.90359354019165,1.6203788219513993,0.16999925778318026,0.16037051964049603,-2.0238171726511105,-1.7400205801590805,-1.5300650136984293
10.923796892166138,1.6137121363155238,0.16999924790686616,0.1670371863071627,-2.0171512660615067,-1.7400214827263765,-1.5233986230688197
10.943750143051147,1.6070454507090277,0.1699992388703873,0.17370385297382934,-2.010485338203699,-1.7400223742015686,-1.516732238891476
10.963853120803833,1.603712107909017,0.16999923453003937,0.17703718630716267,-2.0071523668604834,-1.740022816910527,-1.5133990490513543
10.983927965164185,1.5970454223008248,0.1699992259697556,0.18370385297382932,-2.000486410448066,-1.7400236981072679,-1.5067326735370807
11.00400710105896,1.5903787366634519,0.16999921729850526,0.19037051964049598,-1.9938204371794641,-1.7400245756554502,-1.500066303150817
11.024194478988647,1.5870453938273703,0.16999921283081423,0.1937038529738293,-1.9904874447583563,-1.740025013676926,-1.4967331197255633
11.044291496276855,1.5803787081084717,0.16999920347252867,0.20037051964049596,-1.9838214493940192,-1.7400258891966833,-1.4900667561120373
11.064376831054688,1.5737120327261285,0.16999930375580893,0.1937038529738293,-1.9771549233571308,-1.7400243342380732,-1.4834002616572315
11.084464073181152,1.5670453501454489,0.16999935490936427,0.18703718630716265,-1.9838218255390403,-1.7400256734706923,-1.4767339135618642
11.104521751403809,1.563712007767419,0.16999934639789388,0.18370385297382932,-1.9871554465089747,-1.7400260005475563,-1.4734007272999934
11.124618291854858,1.5570453230715444,0.16999933315523377,0.17703718630716267,-1.9938226992985961,-1.7400264343228953,-1.466734351691322
11.144705295562744,1.5503786382869882,0.16999932067447898,0.17037051964049602,-2.0004899850859634,-1.7400266118687837,-1.466734637271026
11.164758205413818,1.5437119536961383,0.16999931497704043,0.16370385297382936,-2.0071572712423897,-1.7400266035001484,-1.4734015854314633
11.184972763061523,1.5403786114092413,0.16999931292924003,0.16037051964049603,-2.0104909213808515,-1.7400265374741521,-1.4767350574656533
11.205098390579224,1.5337119268372381,0.16999931001534485,0.15370385297382938,-2.0171582368464227,-1.740026302529992,-1.4834019971027637
11.225204467773438,1.5270452422461145,0.16999930822157705,0.14703718630716273,-2.0238255740059383,-1.7400259535585956,-1.490068930367748
11.24528193473816,1.5203785576086961,0.16999930710335504,0.14037051964049607,-2.03049293462439,-1.7400255137825043,-1.4967358566877529
11.265365600585938,1.5170452152637155,0.16999930668545463,0.13703718630716274,-2.0338266242935,-1.7400252658926623,-1.5000693170593784
11.28732442855835,1.51371187289628,0.16999930631218257,0.13370385297382942,-2.0371603205080864,-1.740025002096277,-1.5034027754717176
11.307267189025879,1.5070451881265337,0.16999930625448545,0.12703718630716276,-2.043827728933392,-1.7400244361733275,-1.5070579876429269
11.327539920806885,1.5003785114411934,0.16999936222654338,0.12037051964049611,-2.0371614863584795,-1.7400220870650882,-1.5003914474901534
11.347490310668945,1.4937118277758625,0.16999936675853608,0.11370385297382946,-2.0304954904098835,-1.7400218140499506,-1.4937250078954085
11.367687463760376,1.4903784935519921,0.1699994139166086,0.11703718630716278,-2.0271622611328985,-1.740019444524315,-1.4903916556041834
11.387743949890137,1.4837118218988758,0.16999952406482793,0.12339794591487016,-2.0204955381161347,-1.7400181656993945,-1.4837251624343109
11.407883167266846,1.4770451391099007,0.16999950726150126,0.13006461258153681,-2.013829444854195,-1.740018800606507,-1.477058729301692
11.428128957748413,1.4703784563662818,0.16999949391631533,0.13673127924820347,-2.007163327835839,-1.7400194663126822,-1.4703923032481747
11.448149681091309,1.4670451150027002,0.16999948826695702,0.1400646125815368,-2.00383026095113,-1.7400198092781303,-1.4670590926867424
11.468188285827637,1.4603784322749926,0.16999947855774356,0.14673127924820345,-1.9971641114458463,-1.7400205132360462,-1.4603926761426371
11.488252878189087,1.4537117495249245,0.16999947045281388,0.1533979459148701,-1.9904979422858284,-1.7400212387297416,-1.4537262652466967
11.50837755203247,1.4470450667277952,0.16999946342727074,0.16006461258153676,-1.9838317550321993,-1.7400219831865162,-1.4470598594659225
11.52843689918518,1.4437117253042642,0.1699994601797099,0.16339794591487009,-1.9804986550991095,-1.7400223618351727,-1.4437266583320254
11.548554182052612,1.4370450423934489,0.16999945397605346,0.17006461258153674,-1.9738324435611259,-1.7400231307787557,-1.4370602592637767
11.568758249282837,1.4303783593803092,0.16999944788629523,0.1767312792482034,-1.9671662176939189,-1.740023913866047,-1.4303938640572464
11.588871479034424,1.4237116762454134,0.16999944162385333,0.18339794591487005,-1.9604999789534763,-1.7400247096430779,-1.4237274722438293
11.608938932418823,1.4203783346266639,0.16999943834954717,0.18673127924820337,-1.9571668552037347,-1.7400251118911172,-1.4203942774683698
11.629111766815186,1.4137116512761485,0.16999943137633042,0.19339794591487003,-1.950500599827793,-1.7400259244003713,-1.4137278899083197
11.649141311645508,1.407044967762243,0.16999942367202917,0.20006461258153668,-1.9438343351098888,-1.740026746756172,-1.4070615046550607
11.669487476348877,1.400378284071147,0.16999941505763752,0.20673127924820334,-1.9371680624228231,-1.7400275780581769,-1.4003951213089139
11.689408302307129,1.3970449421552962,0.16999941035805055,0.21006461258153666,-1.9338349235140917,-1.7400279968109817,-1.3970619302316403
11.709469318389893,1.3903782581762023,0.16999940007949005,0.21673127924820332,-1.9271686414016014,-1.7400288400625352,-1.3903955490411006
11.729562282562256,1.3837115739927857,0.16999938851015262,0.22339794591486997,-1.9205023546618463,-1.7400296904207089,-1.3837291688473727
11.749607563018799,1.377044889597204,0.16999937551531794,0.23006461258153663,-1.9138360645972123,-1.7400305472779674,-1.3770627893221616
11.769753217697144,1.3737115473178794,0.16999936844295724,0.23339794591486995,-1.9105029187198113,-1.740030977970061,-1.3737295997132626
11.789898872375488,1.367044862593184,0.1699993530700139,0.2400646125815366,-1.9038366260678221,-1.7400318435624877,-1.3670632206200781
