liuyurong129/humanoid-gym/humanoid/data/robot2_actual_20250621-214834.csv
timestamp,joint_1,joint_2,joint_3,joint_4,joint_5,joint_6
0.0003218650817871094,0.0,0.0,0.0,0.0,0.0,0.0
0.02041792869567871,0.0,0.0,0.0,0.0,0.0,0.0
0.04044508934020996,0.0,0.0,0.0,0.0,0.0,0.0
0.06076836585998535,0.0,0.0,0.0,0.0,0.0,0.0
0.08098554611206055,0.0,0.0,0.0,0.0,0.0,0.0
0.10096406936645508,0.0,0.0,0.0,0.0,0.0,0.0
0.12101912498474121,-0.006666596101180913,-0.006666666081981183,-0.00666665186318352,0.006666666666666668,-0.0066666601381836455,-0.0066671196073367234
0.14110040664672852,-0.01333326228547601,-0.013333328951469067,-0.013333317798485126,0.013333325898232462,-0.013333320313220421,-0.013333794608557251
0.1612098217010498,-0.016666595623367617,-0.016666658685753413,-0.01666665113181846,0.01666664715914831,-0.01666664541252746,-0.016667125538304614
0.18127727508544922,-0.023333261737944287,-0.023333321912722506,-0.023333317093013332,0.023333297596906846,-0.023333301984135427,-0.023333802849003778
0.20133209228515625,-0.02999992776606281,-0.029999985283491584,-0.029999983069855334,0.02999994435752451,-0.02999995702917756,-0.030000483114757642
0.22183585166931152,-0.036666593717680884,-0.03666664878190737,-0.03666664905421162,0.036666587924881616,-0.036666610771440906,-0.0366671659198943
0.24193334579467773,-0.03999992618111475,-0.039999982092263665,-0.039999981706728624,0.03999992125821495,-0.03999994383635492,-0.04000052334758157
0.26204586029052734,-0.04666659199797786,-0.04666664570103537,-0.04666664769018297,0.04666656212664839,-0.04666659650406978,-0.04666721063989065
0.28212857246398926,-0.053333257779817206,-0.053333309418987486,-0.053333313669516144,0.05333320080676366,-0.05333324837654973,-0.05333389908756562
0.3023233413696289,-0.05999992354362311,-0.05999997324417965,-0.05999997964521853,0.05999983783109777,-0.05999989973047225,-0.06000058821735059
0.32234740257263184,-0.06333325701915876,-0.06333330389284306,-0.06333331297855187,0.06333314042626235,-0.06333321779692251,-0.06333391382303645
0.34243059158325195,-0.06999992279774409,-0.06999996795037852,-0.0699999789533948,0.06999977585152774,-0.06999986900363118,-0.07000060268809162
0.3625023365020752,-0.07666658859482288,-0.07666663213584986,-0.07666664493250919,0.07666641140380613,-0.07666652063516591,-0.07666729135463818
0.3825829029083252,-0.08333334050985217,-0.08333330031659358,-0.08333332963226298,0.08333307807047279,-0.07715774969121554,-0.08333332503345955
0.4027113914489746,-0.08666667408195758,-0.0866666306635935,-0.08657692784760647,0.08666637531937453,-0.07459979410107917,-0.08666664642905478
0.4228789806365967,-0.09333335469809244,-0.09333329542331095,-0.07991026566503663,0.09333301132322908,-0.06793310918529455,-0.09333305844705847
0.44292521476745605,-0.10000002019732855,-0.09999995955364502,-0.07324359827510649,0.09999965031153521,-0.06126642189390049,-0.09999974559934607
0.4632837772369385,-0.10666668569081747,-0.10666662367047708,-0.06657693089388994,0.10666629251773406,-0.05459973442114498,-0.10666643039937912
0.4834563732147217,-0.1100000190241508,-0.1099999570038104,-0.06324359756055661,0.10999962585106739,-0.05126640108781164,-0.10999976373271245
0.5035154819488525,-0.11666668569081744,-0.11666662367047706,-0.05657693089388994,0.11666629251773404,-0.044599734421144975,-0.11666643039937939
0.5235490798950195,-0.12333608235290663,-0.12333035086679354,-0.04999240215762512,0.12285735909088973,-0.03801862286941469,-0.12289171493521302
0.543649435043335,-0.12668088951302858,-0.12664832612238797,-0.047018427207374765,0.12440550938169406,-0.035634137873721966,-0.12455071575688677
0.5637586116790771,-0.13343970628824486,-0.13298725810495232,-0.04097422671672259,0.12852707021383855,-0.028857966737264464,-0.12905690636368833
0.5838370323181152,-0.140148222529411,-0.13955920158478993,-0.035124953345121016,0.13104607906988894,-0.023727615249572565,-0.1320272626174793
0.6039066314697266,-0.14686856864660958,-0.14605868739567032,-0.02937646598874587,0.1327136611458174,-0.01866334324751323,-0.13375213156689852
0.6239876747131348,-0.15023317799250985,-0.14927382943492107,-0.026528092953328444,0.1332856717270332,-0.015998076015368384,-0.13545023431618772
0.6443674564361572,-0.15699824419146968,-0.15551462185653545,-0.020982044286066086,0.1337137311287284,-0.010414454293793288,-0.13972097395555802
0.6643085479736328,-0.16379896792163842,-0.16161431297516773,-0.015566274010822334,0.13326131834904323,-0.004693029216281876,-0.14310992695472927
0.6843490600585938,-0.1672041662031218,-0.1646602990936831,-0.012848803249315309,0.13300103123894652,-0.0017689079293522762,-0.14422761388016117
0.704456090927124,-0.17406141184202792,-0.17064292533990927,-0.0074543572681446445,0.13161086207367728,0.005074170141648351,-0.14787684693643682
0.7245559692382812,-0.18096777531659713,-0.1765515616315606,-0.0020422046795621125,0.12915427019898607,0.013125756253910463,-0.15252777411045518
0.7446014881134033,-0.18828943233821552,-0.1810564879594471,0.0034260072420378047,0.1312698051412147,0.028478542817477515,-0.15540392531387517
0.7646994590759277,-0.19184579945422517,-0.18375481635630986,0.00647140506830372,0.13427183122172598,0.03493807964327286,-0.15724149834302134
0.7849102020263672,-0.1988341344518125,-0.1895408973883419,0.012090425810356043,0.13368018539127674,0.04411537889891363,-0.1615555514278516
0.804908275604248,-0.20582635294464918,-0.19536608514312265,0.017775653784488976,0.1333250529398377,0.05355043504892446,-0.16759585070398797
0.8255653381347656,-0.20935419292694551,-0.19821878689386097,0.02058793726857767,0.13272852562561369,0.05883435554025236,-0.17041789265084312
0.8456840515136719,-0.21702615208940462,-0.20215090496069385,0.02635413800025363,0.1388051599880166,0.08053872869204845,-0.17528878629952044
0.8657488822937012,-0.22421438435410232,-0.20763973574444294,0.03241373515537478,0.14316952554880752,0.09479556099866199,-0.1808886175719906
0.8859391212463379,-0.23186900457923845,-0.2120472197535649,0.038501229263765695,0.15142395297812966,0.11783808192121085,-0.1853207713954522
0.906029224395752,-0.235413243182799,-0.21502052819096923,0.041451364786776294,0.15125715703451623,0.1240473407552877,-0.18941124844121437
0.9261233806610107,-0.24292853118726923,-0.2202503478656009,0.04743614552997483,0.15365346651172146,0.14853324849118726,-0.19310573371873122
0.9461827278137207,-0.25044773118171343,-0.22576229617534319,0.053210706046827344,0.15065871506571063,0.17513587667614727,-0.1959172543453498
0.9662940502166748,-0.25404108829431576,-0.22870324948594692,0.056171222210284165,0.1491625680440206,0.1835953213673554,-0.1984490697003383
0.9866464138031006,-0.26135411437774875,-0.23434741444675025,0.0615229525347394,0.13542691626980632,0.19923510240426562,-0.19332672230241593
1.006563425064087,-0.2683866391120049,-0.2400643201805027,0.06734730300300062,0.12729194609621444,0.20633746450048143,-0.18494756578015814
1.0266544818878174,-0.271981616376792,-0.24288561202216635,0.07005818021504331,0.11975930866244128,0.21076736481362776,-0.17913118780472773
1.0467479228973389,-0.27924641836028397,-0.2483917344353604,0.06893695492818114,0.10934716563249203,0.2211596892392406,-0.17112257705069786
1.0668511390686035,-0.2865838603108706,-0.25332934404338286,0.06152053735450654,0.11017121028009143,0.2286659930615361,-0.17266802253913094
1.0873873233795166,-0.2938852412146157,-0.2579111731368146,0.05417772431500178,0.11751180403397625,0.2297748416633629,-0.17975124444634163
1.1075294017791748,-0.297548682392225,-0.26023719297152326,0.05044256605959665,0.12064488086795902,0.23023830291646838,-0.182817408890664
1.127683401107788,-0.30489467557878336,-0.26502003216150316,0.04286388123266745,0.12558131480469245,0.2316526463180378,-0.18781719549956216
1.1476898193359375,-0.31229017390661723,-0.269927919050989,0.035150583364843724,0.1289753875626403,0.23413343266754966,-0.1915231994541922
1.1678688526153564,-0.3149143796814241,-0.2724119628023257,0.03124212824551267,0.13043276274213156,0.23484573853125823,-0.19314753686306424
1.1879024505615234,-0.31423604923766896,-0.2773624513594947,0.023276072459771778,0.1345666979600543,0.23123067683248358,-0.19724897477526693
1.2079699039459229,-0.3111851442115133,-0.27983316912880346,0.01920863135505387,0.1375150348700858,0.22703542265702262,-0.199974808525286
1.228379726409912,-0.3081235644491772,-0.28233905616998806,0.01510135054545263,0.14040240350466848,0.22287745348889174,-0.20265461466492596
1.2484087944030762,-0.3023316189675667,-0.2854675227101326,0.008716118394836912,0.14685413754553853,0.21411808902566373,-0.2080277521729281
1.2683913707733154,-0.2994394655395585,-0.286958004844415,0.005587880493437192,0.14988330225507626,0.20966025926752557,-0.2105111161926313
1.2884571552276611,-0.29403303130320224,-0.29012428817070296,-0.0012104845274467841,0.1828970990557506,0.21999840537971285,-0.24086608142783383
1.308565378189087,-0.28815752847472215,-0.29484059981215543,0.002489482335532831,0.1992755976930406,0.22262117228446798,-0.25624528715711414
1.3286714553833008,-0.2852357817955981,-0.2971712132916096,0.005072539099509665,0.20723410433101513,0.22448002063761283,-0.26375890560488274
1.3488109111785889,-0.27954947698978544,-0.3014720849620452,0.010372993232125316,0.22634578120164311,0.23009003656575375,-0.28128730635131616
1.368833303451538,-0.2738428390419211,-0.30590433547375123,0.015780327642096872,0.24345949948159812,0.2382032962286643,-0.29641504187689044
1.3891887664794922,-0.27100592579017835,-0.308122232692579,0.018495420328301513,0.2514298144446123,0.2433341549265645,-0.3031950861214577
1.409294843673706,-0.2653847299122925,-0.3125217487963194,0.02394015929910389,0.25338336198792777,0.25575009448556985,-0.31810947667953016
1.4294309616088867,-0.25979073526984564,-0.316986545424981,0.02741860968468814,0.2530808087180647,0.27128056150380075,-0.3311993144204249
1.449462652206421,-0.25410595542111303,-0.3217741245868802,0.019695302390709594,0.24926825872539687,0.28883831497931894,-0.34129635984205065
1.4695749282836914,-0.2512197761729021,-0.324270069636602,0.01580473549993382,0.24600431636940576,0.2976311842530474,-0.3384977605800124
1.4896447658538818,-0.24573501145149704,-0.3287932778256882,0.008544589333623169,0.24357002695699345,0.3241326434997917,-0.3369738445886587
1.5097215175628662,-0.24022388326139876,-0.33351702131582944,0.0014240983090394324,0.24606641925975745,0.3537699435720148,-0.33415747511577143
1.5298523902893066,-0.23746004741613722,-0.3359570632588688,-0.0021367822643521195,0.24964221680992502,0.36946599952077763,-0.33196236120754724
1.5499417781829834,-0.23207567569721665,-0.34063802341780214,-0.009165460705275606,0.2652275337117996,0.39803530504711415,-0.3347587637432575
1.570009708404541,-0.2266205029138334,-0.3455652451411554,-0.01622759508351737,0.2794581257715684,0.42612852403817875,-0.33639965825507007
1.590101718902588,-0.22081643174044066,-0.35088508318442235,-0.02334210986115483,0.2894235062471709,0.44867678371239106,-0.33397001554126465
1.6101672649383545,-0.21761412009845876,-0.3472777058192491,-0.027035347612043178,0.2909474260625161,0.45451407210943745,-0.3293913930852865
1.6303093433380127,-0.2112051813351412,-0.34009500172465285,-0.0344283319827601,0.2934907258330777,0.4665720000707842,-0.31985742809357115
1.6503682136535645,-0.21144331420024792,-0.33298697955046846,-0.04180040570738385,0.29502191111332216,0.4795268553860228,-0.30957142080229955
1.6707656383514404,-0.2148845134136532,-0.32946652466386234,-0.04549095240533161,0.29537527444275935,0.4860940075680252,-0.30410123748800705
1.6908934116363525,-0.22160863252076082,-0.3227042015533509,-0.052558832998851654,0.29867510435204875,0.4944898916774514,-0.29486394234754104
1.7109954357147217,-0.2283569218640739,-0.31591891298778185,-0.05931799438529907,0.3034988479069108,0.5048633714187076,-0.28700401720500707
1.7310423851013184,-0.22169189930787633,-0.3092494637268451,-0.06598678151444569,0.3101612544847308,0.511560785571117,-0.2803369880953227
1.751159429550171,-0.21835856691914396,-0.30591613159859254,-0.06932011769563878,0.31349458781806416,0.5148941209052319,-0.27700370613802733
1.771235704421997,-0.2116919000568479,-0.29924946545830855,-0.07598678436230544,0.3201612401746049,0.521560781171432,-0.27033702844614005
1.7913098335266113,-0.20502523339001022,-0.2925827987920986,-0.08265345102897209,0.3268279068285813,0.5282274478325253,-0.263670361769698
1.8115370273590088,-0.19835856672333818,-0.28591613212544614,-0.08932011769563875,0.33349457349484335,0.5348941144990151,-0.2570036951027191
1.8317196369171143,-0.195025233390002,-0.28258279879212034,-0.09265345102897207,0.3368279068279601,0.5382274478322538,-0.2536703617692184
1.851768970489502,-0.18835856688972522,-0.2759161326400672,-0.0993201185587944,0.3434945691742124,0.5448941132929174,-0.24700370676314284
1.8718721866607666,-0.1950252333955755,-0.26924946639600555,-0.10598678522546105,0.3501612230201723,0.5515607748599199,-0.2403370302837692
1.8921239376068115,-0.18835856665523837,-0.2625827999130102,-0.1126534518921277,0.35682788431981166,0.5582274387113195,-0.23367035934357858
1.9122166633605957,-0.18638905860006236,-0.25924946676856314,-0.11598678522546103,0.3601612118074927,0.561560769552369,-0.2303370214882348
1.9323620796203613,-0.18128316807774986,-0.25258280013434176,-0.12265345189212769,0.366827877463875,0.5682274357629609,-0.2236703540333017
1.9524104595184326,-0.18125538879858125,-0.24591613358585107,-0.1293201188335232,0.37349454413053096,0.5748941026764012,-0.21700369192213287
1.9725170135498047,-0.18423038739764586,-0.24258280025252044,-0.13265345216685653,0.37682787746377766,0.5782274360096962,-0.21367035858873204
1.9926033020019531,-0.177563720655873,-0.2359161337720551,-0.1393201188335232,0.383494538159095,0.5848940997903445,-0.20700368720938933
2.0127272605895996,-0.18423038732238695,-0.2292494671057718,-0.14598678550018984,0.3901612048131024,0.5915607664513848,-0.20033702053285055
2.032806634902954,-0.17756372058515402,-0.22258280061337113,-0.1526534521668565,0.39682786566966427,0.5982274303305473,-0.19367034928296437
2.0528523921966553,-0.18423038709476158,-0.21591613434015836,-0.15932011883352315,0.40349451882752807,0.6048940910604312,-0.18700367209593116
2.073040246963501,-0.1808970539867181,-0.21258280044407618,-0.16265345216685648,0.4012728218195523,0.6082274331187877,-0.18367035406464613
2.093158483505249,-0.18089705390349506,-0.20591613398802258,-0.16932011883352313,0.3996505479291054,0.6148940964992242,-0.17700368163879435
2.1132009029388428,-0.18089705405832357,-0.1992494669153395,-0.17598678550019026,0.3966567815355649,0.6215607693955381,-0.17033702634344974
2.133578062057495,-0.17756372065426254,-0.19591613377066222,-0.17932011883352358,0.3933234414077581,0.6248940998283632,-0.16700368769956736
2.1536974906921387,-0.18423038709516767,-0.18924946772311016,-0.18598678550019024,0.38665675220814033,0.6315607571707562,-0.16033700344682497
2.173771858215332,-0.177563720348557,-0.18258280104760755,-0.19265345168225892,0.37999007865020695,0.6382274205845704,-0.15367032376181733
2.1938529014587402,-0.18423038701521902,-0.1759161343809549,-0.19932011834892557,0.37332341198301555,0.6448940872510356,-0.14700365709474117
2.213970899581909,-0.18089705368849368,-0.1725828010271858,-0.2026534516822589,0.36999007942152135,0.6482274208709397,-0.14367032436238533
2.234039306640625,-0.1808970536937262,-0.1659161344232872,-0.20932011850710996,0.36332341275485464,0.6482274210335623,-0.1370036601227295
2.2541654109954834,-0.18756372043592492,-0.15924946834848205,-0.21598678665695412,0.3566567460881879,0.6415607558753166,-0.13033701620418528
2.2744836807250977,-0.19089705377367303,-0.15591613505092639,-0.21932012008092888,0.35332341275485457,0.6382274226339772,-0.12700368428061895
2.2945330142974854,-0.19756372051764928,-0.1492494690240225,-0.22598678837694125,0.35999007941467587,0.6315607576165309,-0.12033704313068809
2.314592123031616,-0.20423038727651874,-0.14258280299028275,-0.23265345665045353,0.3666567460813426,0.6248940926159189,-0.11367040182630554
2.3346924781799316,-0.2108970538830742,-0.149249469396041,-0.23932012255139778,0.3733234111836172,0.6182274245742222,-0.10700372182182818
2.3549671173095703,-0.21423038903457794,-0.14942083670084247,-0.2359868194397142,0.3766567445169506,0.6148941230197849,-0.10367087024398917
2.374957799911499,-0.22089705632320047,-0.1529083868886116,-0.22932015277304754,0.3833234792707807,0.6082274826295664,-0.10367092292480543
2.395305633544922,-0.22756372205059175,-0.1595750562005033,-0.2226534861063809,0.38999004705855983,0.6082274434270913,-0.11033751304453142
2.4152109622955322,-0.2342303882500913,-0.1662417241603155,-0.21598681943971423,0.3966566653619128,0.614894090573251,-0.11700414221471012
2.4356250762939453,-0.2375637213384356,-0.16957505816339902,-0.2126534861063809,0.39998997362702665,0.6182274136139978,-0.12033745607470238
2.4557182788848877,-0.24423038787492546,-0.1762417261027816,-0.20598682082017275,0.4066566140363154,0.6248940707172417,-0.1270041237791236
2.4757895469665527,-0.25089705419619523,-0.1829083936865352,-0.1993201541535061,0.4133232463473845,0.6315607226620211,-0.13367076363447924
2.4959452152252197,-0.2575637202859118,-0.1895750618668515,-0.19265348748683944,0.4199898563209589,0.6382273645673915,-0.14033738597055367
2.516293525695801,-0.26089705361924503,-0.1929083952001851,-0.18932015415350611,0.4233231896542817,0.6415606979007201,-0.14367071930387873
2.536162853240967,-0.26759950287421685,-0.19957509109752394,-0.18296992892590233,0.4284599908928471,0.6472259937856534,-0.14908776956548594
2.5562713146209717,-0.27435441228963325,-0.2062373784795472,-0.17706819840534438,0.4315818238569804,0.651287928514797,-0.15283541559680347
2.5764052867889404,-0.27774001687410527,-0.20956629798689225,-0.1741843716436356,0.432935641748049,0.6529481761785059,-0.15451933942799517
2.596468687057495,-0.2845689036356361,-0.2162074212966912,-0.16885982083877232,0.434151256288922,0.6542549664078052,-0.15658076477881072
2.61655592918396,-0.2913798454482659,-0.22283018765095022,-0.1632686470518698,0.4370935584202015,0.656429145090997,-0.16003759038718277
2.636627197265625,-0.298196488525501,-0.22944712663126443,-0.15773951035087014,0.4402623891694942,0.6576486801088209,-0.1635766042623507
2.657167434692383,-0.2917020683280637,-0.23605373653452927,-0.15242813892812598,0.44310561930222164,0.657110193041556,-0.1667047045694374
2.6775622367858887,-0.288456593451409,-0.23935727957553754,-0.14981761207211142,0.4442862477917809,0.6565342662015646,-0.16805343737460463
2.6974680423736572,-0.2819681166035168,-0.24596635427937005,-0.1447043343437155,0.44606525813880915,0.6546240547114502,-0.17023376560251702
2.717534065246582,-0.2754797809541144,-0.25257507784927563,-0.13968003534732507,0.44729646702248815,0.6520907392700793,-0.17193318284279135
2.7376065254211426,-0.2722302297740037,-0.25588246156853306,-0.1371683398164642,0.44778217041958557,0.6507375217428628,-0.17267113364539702
2.757707357406616,-0.2657205429777089,-0.2625064873492684,-0.13219074678029955,0.44828308479415807,0.6475169991935733,-0.17373010699916894
2.7777721881866455,-0.25919273354705497,-0.2691458392252262,-0.12726620430698743,0.44815327335311317,0.6436051175320647,-0.17422689460330615
2.797863006591797,-0.2559205422715598,-0.2724723654456885,-0.12482059380076994,0.4478541701634935,0.6413901966348292,-0.17426507014249298
2.8179330825805664,-0.24935593107012408,-0.2791410799464425,-0.11993977831708616,0.44020600251927144,0.6365543516644329,-0.1739943689373497
2.8380320072174072,-0.2428745152395279,-0.2858317238963579,-0.1150057458652393,0.42363966490460553,0.6348141158826739,-0.17225019272792763
2.8580939769744873,-0.23962807958749655,-0.28919251018313674,-0.11253075117727449,0.4148261274051934,0.6339711994151913,-0.17095958013863283
2.8784279823303223,-0.2331338258562195,-0.2959547123165806,-0.10767052621924592,0.3951567813822797,0.6320050044036032,-0.16674672465742296
2.8985395431518555,-0.22661947445293407,-0.3027702460406798,-0.10273048478597,0.3735527423117081,0.6311186339686868,-0.16109878718263787
2.918510675430298,-0.22010406344704378,-0.29627010331078485,-0.09762892820339876,0.35121123376020086,0.6321867227959808,-0.15504072767516894
2.9386026859283447,-0.21679284824832948,-0.29294479299949155,-0.1011194611890142,0.3464003096261788,0.6351350103727548,-0.1571968377273624
2.9587020874023438,-0.21015892152556898,-0.28630077186981095,-0.10804342815773385,0.343674251511784,0.6412418418412199,-0.15502734912940586
2.9788243770599365,-0.20351345260803577,-0.2796588499682059,-0.11491236227198372,0.3480093873968885,0.6474852120510122,-0.146508854155676
2.9988391399383545,-0.2001853925803104,-0.27633342317197523,-0.11830686763105619,0.35065184397921234,0.6506898614449489,-0.14262734286601683
3.018949270248413,-0.19352178654597244,-0.2696727059087676,-0.1250171179233009,0.3568248381213718,0.6572688128508972,-0.13557207598452375
3.039034128189087,-0.18685511107017938,-0.26300606927807557,-0.13168383669827333,0.3634908909116387,0.6639353875330021,-0.12890550482428628
3.059115171432495,-0.18018843520922959,-0.2563394367523786,-0.13835056623772674,0.3701569432866802,0.6706019693042791,-0.12223906737189343
3.079228639602661,-0.1768550968352835,-0.2530061173791744,-0.14168391036383074,0.37348977176418324,0.6739351702882187,-0.11890534198195782
3.0993216037750244,-0.1701884165906838,-0.24633949314098624,-0.1483506688337822,0.38015586331325657,0.6806017903275807,-0.11223932187346883
3.119678497314453,-0.16352173218883825,-0.23967287954157532,-0.1550174854962487,0.38682238109350714,0.6872686112067892,-0.1055745495960646
3.1395151615142822,-0.15685504846013665,-0.2330062585702275,-0.1616842818133729,0.3934889189645245,0.6939354194878151,-0.09890951710104906
3.1607584953308105,-0.15352171628224243,-0.22967293702197006,-0.16501764305974803,0.39682225229785784,0.6972687799985928,-0.09557657777479589
3.1808505058288574,-0.146855051756122,-0.22300629430850885,-0.17168436639305992,0.40348891896452455,0.7039355025216589,-0.08891070418088892
3.201153516769409,-0.1401883860738085,-0.21633963980449178,-0.178351061804105,0.41015558563118704,0.7106021978587527,-0.08224443638185731
3.221099615097046,-0.13352171940158047,-0.2096729731552041,-0.18501772847077166,0.4168222516161732,0.7172688642466225,-0.07557776917920414
3.2413384914398193,-0.12685505272402187,-0.20300630652270427,-0.19168439513743832,0.4234889169282077,0.7239355303548948,-0.06891110144783862
3.2614314556121826,-0.1235217193852637,-0.19967297320646057,-0.19501772847077165,0.42682224957690884,0.727268863403832,-0.06557776757663396
3.281501531600952,-0.11685505267803067,-0.19300630666820806,-0.2016843951374383,0.43348891104697485,0.733935527894955,-0.05891109682923768
3.301945447921753,-0.11018838599471044,-0.18633964005449863,-0.20835106180410495,0.43348890888560976,0.7406021936507825,-0.05224442846605914
3.3220458030700684,-0.10685505266002097,-0.1830063067256005,-0.21168439513743828,0.43015557536890525,0.743935526907531,-0.04891109498896543
3.3421218395233154,-0.10018838599301472,-0.17633964006009828,-0.21835106180410493,0.4234889086536176,0.7506021935544873,-0.04224442828423523
3.3622007369995117,-0.09352171932569919,-0.16967297339573803,-0.2250177284707716,0.41682224188996087,0.7572688601826987,-0.035577761541719655
3.382340669631958,-0.08685505265868283,-0.163006306730377,-0.23168439513743824,0.4101555751678865,0.7579579992240141,-0.028911094831785725
3.402395725250244,-0.08352171932337456,-0.15967297338385353,-0.23501772843958046,0.4068222418345531,0.7546246658593342,-0.025577761108225298
3.4224703311920166,-0.0835217186091573,-0.15300632087787383,-0.2416844306759235,0.4001555751678864,0.7479580367379683,-0.01891155895833354
3.4425535202026367,-0.08352171806960897,-0.1463396653424026,-0.24835112557811592,0.3934889085012197,0.7412913998352104,-0.012245265032639223
3.462977170944214,-0.08018838417932597,-0.14300634321021463,-0.25168448766368406,0.39015557516788635,0.7379580967687853,-0.008912316152814983
3.483105182647705,-0.08685505030009308,-0.136339678653898,-0.2583511543303508,0.38348881876925883,0.7312913983020548,-0.0022455795462644926
3.5036511421203613,-0.0801883836334219,-0.12967301198724906,-0.2650178209970175,0.37682215210184145,0.7246247316351297,0.004421087120987066
3.523373603820801,-0.08685504951246599,-0.12300636015211841,-0.2583511935106818,0.37015548543517474,0.7179581059654228,0.01108721298792516
3.5442116260528564,-0.09352171628998397,-0.1296730218822845,-0.26501784717905835,0.37682215210184145,0.7112914258215346,0.004420726399839401
3.5642945766448975,-0.09685504921147473,-0.13300636777839786,-0.2616845469359877,0.3801554854351748,0.7079581272797456,0.0010869280497470372
3.584376811981201,-0.10352171560571509,-0.1396730541044007,-0.25501793148313034,0.3868221521018415,0.7012915147341565,-0.005580461015236526
3.6044299602508545,-0.11018838147367999,-0.1463397335594909,-0.24835129035782252,0.3934886998596836,0.6946248317506393,-0.012247396587427238
3.624528646469116,-0.11352171508033547,-0.14967307691119489,-0.24501798248814793,0.39682203319301695,0.6912915256084758,-0.015581092222287153
3.644615650177002,-0.12018838229625113,-0.15633975439585965,-0.23835134295016497,0.40348869985968366,0.6846248880350169,-0.022248146549067017
3.66500186920166,-0.12685504968721603,-0.16300643151043198,-0.23168470162193355,0.4101553584735203,0.6779582455064331,-0.028915170504849298
3.6848666667938232,-0.13352171834308557,-0.16967311886211245,-0.22501808556845332,0.416822025140187,0.671291633384209,-0.0355825653958596
3.7049522399902344,-0.13685505184586083,-0.17300645366430897,-0.22168475579311991,0.42015535847352037,0.6712471916350026,-0.038915950055215934
3.7250547409057617,-0.14352171967136024,-0.17967313145686567,-0.21501811485743436,0.42682200791039204,0.67454054399987,-0.04558297342324476
3.7451295852661133,-0.1501883853132802,-0.18633979576271567,-0.208351443183163,0.43348867457705875,0.6745405391201595,-0.05224957660370599
3.7652010917663574,-0.1535217202833518,-0.18967314044886913,-0.20501813651055878,0.4368220079103921,0.6712072344880076,-0.05558328784710915
3.785290479660034,-0.16018838856368578,-0.19633981969885125,-0.19835149740090477,0.4434886470893165,0.677873918459449,-0.06225032134769861
3.8056840896606445,-0.1668550480118936,-0.20300649830236897,-0.19168485926371148,0.4501553214000103,0.6845406266279231,-0.06891749506028048
3.8255674839019775,-0.17375023147668484,-0.20968342746168964,-0.18570859129684547,0.4467755115680441,0.6958755077569639,-0.0684981696710929
3.8456385135650635,-0.17726628076648787,-0.21302226784425576,-0.18290432943525442,0.4424918342582298,0.7028000277609974,-0.06648357358315388
3.865722179412842,-0.18404063417046188,-0.21969968230618084,-0.17655017554317912,0.443890429075696,0.7119264442982813,-0.07035947736208313
3.886080265045166,-0.19084016778522503,-0.22640218753697627,-0.17030643904465867,0.4434323166321092,0.7219773912533145,-0.08449996729703245
3.906158685684204,-0.19419804975975666,-0.2297414721569845,-0.16705180775391548,0.44565090013567027,0.7260221228470962,-0.09202455106460694
3.9262378215789795,-0.20086471779235826,-0.23640815476204483,-0.16038517693232374,0.452317566802337,0.7326888263233423,-0.09869168679092158
3.9463841915130615,-0.20753138699543444,-0.24307485100734547,-0.1537185761827967,0.4589842334690037,0.7393555604162184,-0.10535920706999757
3.9664225578308105,-0.2141980548654791,-0.24974153338502847,-0.1470519434373742,0.46565088939905663,0.7460222565029769,-0.11202629756558916
3.986534357070923,-0.2175313881007474,-0.25307486700337845,-0.14371861010404088,0.4689842117670113,0.7493555845750413,-0.11535962222992965
4.006645441055298,-0.2241980560838251,-0.25974154961581297,-0.13705197809930858,0.47565087843367754,0.756022286260258,-0.12202672506712117
4.026716947555542,-0.23086472264805574,-0.2664082165820751,-0.13038531143264193,0.48231753371297553,0.7626889472522117,-0.12869338272135353
4.046949863433838,-0.2341980573115273,-0.2697415668705733,-0.1270520141521592,0.4856508670463089,0.7660223165157385,-0.1320271584242196
4.067058563232422,-0.24086472539245835,-0.2764082522506831,-0.1203853868633972,0.4923175337129756,0.7726890221386373,-0.1386943024978914
4.087129354476929,-0.2475313932657069,-0.283074937167012,-0.1137187575090389,0.4989841886325278,0.7793557193207451,-0.1453614063908446
4.107235431671143,-0.2541980625258804,-0.28974164042591827,-0.10705216634397882,0.5056508552991944,0.7860224595284594,-0.1520289682469018
4.127588748931885,-0.2608647303438426,-0.296408326299063,-0.1003855381067698,0.5123175099146853,0.7926891567216181,-0.15869607403390995
4.147541522979736,-0.2641980635680159,-0.2997416599660248,-0.09705220477343647,0.5156508310676269,0.7960224834113194,-0.16202939771263025
4.16761326789856,-0.2708647315295918,-0.3064083474265237,-0.09038557997098522,0.5223174977342935,0.8026891899456763,-0.1686965470524559
4.187697887420654,-0.27753139925447257,-0.3130750342158881,-0.08371895270041359,0.5289841520083726,0.8093558867298022,-0.17536365273458973
4.208007097244263,-0.2775314112394478,-0.3197417200696649,-0.07705231654623415,0.5356508186750392,0.8160225760288696,-0.18203061127963607
4.2279016971588135,-0.2741980790179705,-0.323075074012612,-0.07371902334916217,0.5389841520083725,0.8193559462284966,-0.18536439057846862
4.248091220855713,-0.2675314144628827,-0.32974178249807296,-0.06705243747038642,0.5456508186750391,0.826022686371124,-0.1920319468007243
4.268140554428101,-0.26086472689709833,-0.3364084591173981,-0.060385754323141416,0.5523173988730051,0.8326883984452884,-0.19869840438482753
4.288214206695557,-0.25419805641663845,-0.3430751399183431,-0.05371908818323823,0.5589835958657697,0.83935476597361,-0.20536468721369824
4.308314323425293,-0.25512713964873523,-0.3464084732527142,-0.050385754849904894,0.5623169291640238,0.8426880992856465,-0.2086980205192762
4.328410625457764,-0.25262999464470476,-0.3530751422715753,-0.04371909895636171,0.5689832402688062,0.8493549047272206,-0.2153644544434055
4.348502159118652,-0.24596339884926444,-0.35974180954563784,-0.03705249012293602,0.5689817815075543,0.8560223508134781,-0.2220301917091501
4.3685972690582275,-0.23929674085124747,-0.366408478817797,-0.03038583780363114,0.562314937653118,0.8626891353733699,-0.2286968215560497
4.389657735824585,-0.23596340430836898,-0.36974182753610446,-0.027052504588993668,0.5589811077901263,0.8660221812842495,-0.23202976044530205
4.409941911697388,-0.22929673724632227,-0.363075182384715,-0.03371921124196057,0.5656477744567929,0.8726888807220354,-0.225363504886964
4.4299092292785645,-0.22263006948474634,-0.35640853803966116,-0.04038591873083418,0.57231442861949,0.8793555740283415,-0.21869724549069752
4.450025320053101,-0.21596340032605932,-0.34974191484127254,-0.04705266609887447,0.5789810952861566,0.8860223091554369,-0.21203139785538833
4.470064401626587,-0.21263006552460817,-0.3464086030242909,-0.05038603928738647,0.5823144286194899,0.8893556767286893,-0.20869846626419697
4.490152359008789,-0.20596339551214599,-0.33974197892408753,-0.05705278462494093,0.5889810952861565,0.8960224117994376,-0.2020325871839929
4.510221719741821,-0.19929672499841078,-0.33307535416139017,-0.06371952851323796,0.5956477619528231,0.902689146642736,-0.19536668647412678
4.530290842056274,-0.1926300540355143,-0.3264087286875336,-0.07038627087824857,0.6023144286194897,0.9093558811080996,-0.18870076365992774
4.550691843032837,-0.18929671840140222,-0.32307541566890047,-0.07371964146709008,0.605647761952823,0.9126892481526153,-0.18536779382983928
4.570802688598633,-0.18263004685837164,-0.31640878903873965,-0.08038638141421,0.6123144286194896,0.9193559817740449,-0.17870183708611406
4.590903043746948,-0.175963383520493,-0.3097421179431174,-0.08705303818662945,0.6092356525290766,0.9260226379472783,-0.1720350624420151
4.6109678745269775,-0.16929671458420165,-0.303075472270095,-0.09371974313062532,0.60256898586241,0.9326893399074366,-0.16536875764462147
4.63102650642395,-0.16263004156658625,-0.2964088420856041,-0.10038647836830047,0.5959023191957434,0.9393560712552147,-0.15870274505038862
4.6511452198028564,-0.16263004156658625,-0.2964088420856041,-0.10038647836830047,0.5959023191957434,0.9393560712552147,-0.15870274505038862
4.671369552612305,-0.16263004156658625,-0.2964088420856041,-0.10038647836830047,0.5959023191957434,0.9393560712552147,-0.15870274505038862
4.69150972366333,-0.15596336802802724,-0.2897422107585015,-0.10705321247607893,0.5892356525290768,0.946022802054971,-0.15203671939538893
4.711821794509888,-0.14929675595093017,-0.2830755218486926,-0.11371984335751847,0.582569231873052,0.9526894437800085,-0.14536976223560535
4.731769800186157,-0.14263010900629708,-0.27640882893933455,-0.12038648480163561,0.575902708406708,0.9524289741030602,-0.13870289311469017
4.752149343490601,-0.13993617929084498,-0.2730754957495725,-0.12371981844115995,0.5725693750733747,0.949095641081349,-0.13536956278172263
4.772002696990967,-0.13555488494380832,-0.2664088478164167,-0.13038652268866432,0.5659027084067081,0.9424290111912227,-0.128703254490634
4.7921226024627686,-0.13046046832044186,-0.259742209276394,-0.1370532457704907,0.5592360417400415,0.9357623998951328,-0.12203712871275532
4.82249641418457,-0.12712713498701866,-0.2564088759434682,-0.14038657910465902,0.5559027084067082,0.9324290665626332,-0.11870379538754947
4.8498077392578125,-0.12712713498701866,-0.2564088759434682,-0.14038657910465902,0.5559027084067082,0.9324290665626332,-0.11870379538754947
4.870030879974365,-0.12712713498701866,-0.2564088759434682,-0.14038657910465902,0.5559027084067082,0.9324290665626332,-0.11870379538754947
4.8901097774505615,-0.12046046663128013,-0.249742221587817,-0.14705324577132567,0.5492355381140552,0.925762140202198,-0.1120367441142325
4.910448312759399,-0.1271271294883366,-0.2430755739153566,-0.15371995213486384,0.5425688714473886,0.9190955138386714,-0.10537047147846833
4.930411100387573,-0.12046046045754717,-0.23640892140190492,-0.16038664850031026,0.535902204780722,0.9124288774112785,-0.09870410183175965
4.950520753860474,-0.11951131923728665,-0.23307558981078927,-0.16371998555288714,0.5325688714473887,0.9090955479127262,-0.09537080611335767
4.970582008361816,-0.12199042236477296,-0.22640894165650666,-0.1703866918752282,0.5259022047807221,0.9024289222154468,-0.08870454229723346
4.990647554397583,-0.12199041969417582,-0.21974229023659342,-0.17705339148922405,0.5192355381140555,0.8957622897635314,-0.08203821334826662
5.010781764984131,-0.12199041725036085,-0.21627856302616139,-0.1837200890107454,0.5125688714473889,0.8890956553775546,-0.07537186652691079
5.030847072601318,-0.12532374791440745,-0.21616121157036017,-0.18705345682386626,0.5092355381140556,0.8857623582211498,-0.07203889482910622
5.0511884689331055,-0.11865707792304812,-0.20949456402783762,-0.19372016636025866,0.502568871447389,0.8790957366396631,-0.06537268258347417
5.07112193107605,-0.119656897107306,-0.21616123938374912,-0.20038685288253005,0.49590220478072233,0.8724290907747577,-0.06651544655331741
5.091202735900879,-0.11299022586903885,-0.2094945963882839,-0.2070535740323435,0.4892355381140556,0.8657624813084177,-0.07318270453451907
5.111266851425171,-0.10632355848651516,-0.20282793318190903,-0.21372024069901016,0.48256871756486447,0.8590957476966185,-0.07984925268328658
5.131357192993164,-0.10299023019009095,-0.2061612393830076,-0.21705351032620962,0.4792353842315311,0.8557623469870065,-0.08318188147799757
5.151500225067139,-0.10299022374640449,-0.20616126980084976,-0.21705357500893976,0.4725685701353661,0.8490956854837042,-0.08984915968717624
5.171553611755371,-0.10299022054897354,-0.2003566489292764,-0.2103869487758919,0.4725685701353661,0.842429061272147,-0.09651628160718065
5.191608905792236,-0.10325299763920524,-0.19479914594563472,-0.20372028210922524,0.4740522145649681,0.8357623072084348,-0.10318279025898117
5.212740898132324,-0.1065863307324525,-0.19146581364620302,-0.20038694877589192,0.47238765084796874,0.8324289542040406,-0.1065160886964585
5.232833623886108,-0.09991966494049569,-0.19813247147215116,-0.2070535949377724,0.47905431751463545,0.8257622656425216,-0.11318252186400242
5.252913236618042,-0.09325299521046745,-0.20479916747232918,-0.2003869961123742,0.47238765084796874,0.819095671554443,-0.11984997233095285
5.272989273071289,-0.09991965945648706,-0.21146584374623295,-0.19372032944570755,0.4657205690465126,0.8124288251365699,-0.12651631657178314
5.293077707290649,-0.1032529914439719,-0.2147991920642064,-0.19038703071961366,0.46238723571317925,0.8090955281543113,-0.12985005749318143
5.3131935596466064,-0.10991965640158383,-0.22146587852695143,-0.1837204097870474,0.46238723571317925,0.8024289092120414,-0.13651726666617764
5.333247900009155,-0.11658632193882826,-0.2281325612654681,-0.17705377994397947,0.46905390237984596,0.795762280806323,-0.14318437292625266
5.353427171707153,-0.12325298729397312,-0.23479925866892357,-0.17038718245395132,0.47572056904651266,0.7890956859784528,-0.14985186952111793
5.373544931411743,-0.1265863202307889,-0.2381326076136162,-0.167053883876879,0.479053902379846,0.7857623887000615,-0.15318562099988453
5.393904447555542,-0.13325298684957787,-0.24479929137021902,-0.1603872547385803,0.48572056904651273,0.7790957608732829,-0.15985274064068805
5.413811206817627,-0.13991965389445402,-0.25146597550235467,-0.15372062588469765,0.49238723571317944,0.7724291331971236,-0.16651986501831603
5.434081315994263,-0.14658632114435352,-0.2581326586424248,-0.14705399461200128,0.4990539023798461,0.7657625029332052,-0.17318696064999192
5.454136610031128,-0.14991965447768876,-0.261465991975794,-0.1437206612787441,0.5023872357131794,0.76242916959995,-0.17652029398425184
5.474360942840576,-0.15658632114435544,-0.2681326586424609,-0.1370539946120779,0.509053902379846,0.7626865583720467,-0.18318696065092402
5.494297742843628,-0.16325298833521865,-0.2747993238963404,-0.13038732794541125,0.5157206227311458,0.762686588355423,-0.18985367007104537
5.514388084411621,-0.16658632342907267,-0.2781326751710449,-0.12705403143155916,0.5190539560644791,0.7593532919477061,-0.19318744574111743
5.534491062164307,-0.17325299267666733,-0.284799364956452,-0.12038741166308035,0.5257206227311457,0.7660200052401659,-0.19985467304201388
5.5548789501190186,-0.1799196615350473,-0.29146605215361593,-0.11372078617075594,0.5323872893978123,0.7726867124326934,-0.20652182556279575
5.574909925460815,-0.18658633038029335,-0.29813273989224526,-0.10705416129473762,0.5390539560644789,0.7793534197984243,-0.21318897922687874
5.5953450202941895,-0.1899196634404272,-0.3014660711991412,-0.10372082400916689,0.5423872893978122,0.7760200826805626,-0.21652226718073733
5.615196228027344,-0.1965863354641035,-0.30813277690805213,-0.09705423319257203,0.5490539560644788,0.7760201550987662,-0.22318980855074885
5.63532567024231,-0.20325300498612295,-0.31479946580796747,-0.0903876095122642,0.5557206227311454,0.7826868626016285,-0.2298569693089094
5.655937194824219,-0.20658634097376383,-0.3181328203005938,-0.08705431664463527,0.5590539560644787,0.7860202339016058,-0.233190762091524
5.676034927368164,-0.21325301045477,-0.3247995102264658,-0.0803876939956904,0.5657206227311453,0.7926869413475608,-0.23985792262674638
5.696141004562378,-0.21991967790681416,-0.3314662037769125,-0.0737210687050679,0.57238712242932,0.7993535378975064,-0.24652491393842377
5.7162957191467285,-0.22658634729710908,-0.3381328947077049,-0.06705444695968579,0.5790537890959866,0.8060202450007393,-0.253192072274833
5.7363927364349365,-0.22991968047030611,-0.3414662248556794,-0.06372110764616883,0.5757204557626533,0.8093535728865656,-0.25652533959610263
5.756427764892578,-0.23658634982982696,-0.34813292059248724,-0.05705449476366211,0.5757204557626533,0.816020287221473,-0.2631925913687868
5.776521682739258,-0.24325301855155318,-0.3547996069079742,-0.050387864102837236,0.5757204557626533,0.822686985179905,-0.26985964546051383
5.796677350997925,-0.24658635374298643,-0.3581329629724799,-0.04705457243291772,0.57238712242932,0.8260203542025867,-0.2731934246817905
5.816729784011841,-0.25325302226095797,-0.36479965849575996,-0.04038795895975169,0.5657204557626534,0.83268706573247,-0.2798606596660814
5.8368000984191895,-0.2465863790240148,-0.37146635040594234,-0.033721324813907896,0.5590537890959868,0.8393537487385232,-0.2865275724124582
5.856916904449463,-0.23991971409537063,-0.37813306203799407,-0.027054741780651263,0.5523871224293202,0.8460204831930976,-0.29319512613709103
5.877141237258911,-0.23325304631382304,-0.3847997563460198,-0.02038811699630657,0.5457202861695967,0.8526870787999056,-0.29986210071799185
5.897227048873901,-0.22991971263001115,-0.38146644312318884,-0.017054821854704465,0.5423869528362634,0.8560204420623355,-0.30319583842414877
5.917360067367554,-0.22325304706196977,-0.3812174591467385,-0.017054778002016574,0.5357202861695968,0.8560204069887377,-0.30986204204010886
5.937565803527832,-0.2165863779300869,-0.3806601115077941,-0.017054843280850628,0.529053242299255,0.8560202441556602,-0.30986243209095443
5.957511901855469,-0.2099197122638519,-0.3739934402005516,-0.017054833507594225,0.5223865756325884,0.8560202360139859,-0.3031956599931182
5.97763729095459,-0.20658637867518648,-0.37066012851813956,-0.020388208943392376,0.5190532422992551,0.8526869359778021,-0.29986277458071287
5.997720956802368,-0.19991971315648935,-0.36399350230022076,-0.027054953665419674,0.5123865756325885,0.8593536644414839,-0.29319693607179126
6.017907381057739,-0.19325304426242723,-0.35732686142526104,-0.03372166121961726,0.505719738581512,0.8660202727779931,-0.2865305718642702
6.037898302078247,-0.18658637281073176,-0.35066023835279303,-0.040388416761903155,0.5123864052481786,0.8726870130334086,-0.2798648560239263
6.05830454826355,-0.1832530377526385,-0.3473269252738113,-0.04372179074817788,0.5157197385815119,0.8760203802696592,-0.2765319520463233
6.078186988830566,-0.17658636725487356,-0.34066029887704863,-0.05038853801729318,0.5223864052481785,0.8826871150948641,-0.26986613070226656
6.098586320877075,-0.1699196962842247,-0.3339936721215601,-0.05705528428074474,0.5290530719148451,0.8893538502701519,-0.2632002909478976
6.118451118469238,-0.1632530257147576,-0.32732704086101555,-0.06372202108176256,0.5352848854470849,0.896020578149645,-0.25653434497748895
6.138519525527954,-0.1599196904197886,-0.323993724374578,-0.06705538767936711,0.5378935176261007,0.8993539408495138,-0.2532013507700865
6.158725261688232,-0.15325302990573528,-0.3173270405738536,-0.07372201769727474,0.5312268509594341,0.9060205731852413,-0.24653429589761547
6.17886757850647,-0.14658635714613985,-0.3106604111122687,-0.08038875949372093,0.5245601842927675,0.9126873074858239,-0.23986838966712698
6.198877334594727,-0.14325302051316227,-0.30732709600453195,-0.08372213005433357,0.5212268509594342,0.9160206744917349,-0.23653543192724297
6.218933582305908,-0.13658634678193557,-0.3006604650604053,-0.09038887052991192,0.5145601842927676,0.9226874081850922,-0.22986950733171388
6.239025354385376,-0.12991967347493635,-0.2939938253150355,-0.09705559422360517,0.507893517626101,0.9278404487760502,-0.22320341384803705
6.25909948348999,-0.1232530038744628,-0.28732716881719433,-0.10372229530298073,0.5012270627248744,0.9261449664896536,-0.21653725811894287
6.279436111450195,-0.11991966656157356,-0.2839938524459841,-0.10705566505624173,0.49789372939154103,0.9228116667294606,-0.21320429003781582
6.299596071243286,-0.1134200877440366,-0.27713072378820786,-0.11361873857544032,0.4971812932631966,0.9179409904055987,-0.2106211380977035
6.319643020629883,-0.10675341784108754,-0.2704640722903783,-0.1202854382053566,0.4905146265965299,0.9112743548266576,-0.20395480793238355
6.339779853820801,-0.10008675039538875,-0.2637974106591049,-0.12695210751728656,0.48384780954731554,0.9046076239284501,-0.19728805332942415
6.359888792037964,-0.0967534161338196,-0.26046408176682845,-0.13028545066502428,0.4805144762139822,0.9012742999726782,-0.19395482188908691
6.379976034164429,-0.09008674920242717,-0.25379741637632913,-0.13695212016932484,0.4738478095473155,0.894607636029309,-0.18728818486619056
6.400096893310547,-0.08342008253575385,-0.2471307497096953,-0.14361878683606535,0.46718114288064877,0.8879409693627137,-0.18062151820030373
6.4202351570129395,-0.08008674618978769,-0.24379743238927432,-0.14695215641227327,0.4638478095473154,0.8846076712153317,-0.17728857143968388
6.440293788909912,-0.07342007369557767,-0.23713079742570603,-0.15361889539302,0.4571811428806487,0.8779410750539552,-0.17062268257721205
6.4603800773620605,-0.06675340410742803,-0.23046414732262258,-0.1602855980237443,0.4505144351624922,0.8712744267132598,-0.16395637661490545
6.480487823486328,-0.060086734064283664,-0.22379750013105146,-0.16695231012875103,0.44384776849582547,0.8646078048122962,-0.15729021065003468
6.5005552768707275,-0.05675340055744463,-0.22046416778179173,-0.17028564346208436,0.4405143941716283,0.8612744550944174,-0.15395684571632484
6.520637035369873,-0.05008673068965503,-0.21379752019052808,-0.17695235520484132,0.4338477275049616,0.8546078330370271,-0.14729068261932943
6.540714979171753,-0.043420059191978055,-0.20713088326668325,-0.18361909299596063,0.4271810608382949,0.8479412369889533,-0.14729148753863427
6.561317205429077,-0.03675339072891962,-0.20713089532067464,-0.18731725470204222,0.4205144939021871,0.8412746528469397,-0.15395863277869246
6.581462860107422,-0.03342005485072767,-0.21046424422000476,-0.1876456066242869,0.41718116056885374,0.8379413569991685,-0.1572924035558763
6.601518630981445,-0.040086716996235124,-0.21713093620167662,-0.1809789747128818,0.41051402378960206,0.8312745503870433,-0.16395911286475442
6.621621608734131,-0.04675337844278649,-0.22379763468586916,-0.17431238569839627,0.41718069045626877,0.8246079592830362,-0.17062669395759608
6.641698598861694,-0.05342004114469168,-0.2304643300877764,-0.16764578800942495,0.4238473571229355,0.8179413599831805,-0.17729417739980224
6.661947965621948,-0.06008670441762903,-0.2371310260166468,-0.1609791905558307,0.4305140237896022,0.8112747611287684,-0.1839616682023379
6.682056665420532,-0.06342003628126341,-0.24046437418455668,-0.1576458919263292,0.43384735712293554,0.8079414618539569,-0.18729541639363745
6.702148675918579,-0.07008670049097854,-0.24713107093985623,-0.1509792948810702,0.44051402378960225,0.8012748635794068,-0.1939629184179353
6.722217321395874,-0.0767533653844171,-0.2537977682723428,-0.1443126981479256,0.44718069045626896,0.7946082656314403,-0.2006304280491312
6.742412805557251,-0.08342003101400426,-0.2604644662050125,-0.13764610176150843,0.45384735712293567,0.7879416679611744,-0.20729794539173754
6.762541055679321,-0.08675336412253626,-0.26379781540412184,-0.1343128037098338,0.457180690456269,0.7846083692146958,-0.2106317069883979
6.7829344272613525,-0.09342003097413278,-0.2704644994287591,-0.12764617512011986,0.46384735712293573,0.7779417397685777,-0.21729883738521566
6.802834749221802,-0.10008669830999023,-0.2771311838168304,-0.12097954677996495,0.47051402378960244,0.7712751104043002,-0.22396597215631509
6.822918653488159,-0.10675336700238305,-0.28379788406067047,-0.11431295191894203,0.47718069045626915,0.7646085133101053,-0.230633517359509
6.843005657196045,-0.11008670173279965,-0.28713123445424654,-0.11097965468699242,0.4805140237896025,0.7612752147844408,-0.23396729303668073
6.863100051879883,-0.11675337019836916,-0.2937979196546381,-0.10431302695493182,0.4871806904562692,0.754608585513053,-0.24063443721464858
6.883209705352783,-0.1234200395763628,-0.3004646282712049,-0.09764645610436688,0.4938472825662501,0.7524450690234344,-0.24730221377757772
6.903418302536011,-0.12675349064700947,-0.30379799600463847,-0.09431317977859058,0.4971746097066492,0.753501198697975,-0.250631975444671
6.9235680103302,-0.13342009497829582,-0.31046467708158965,-0.0876466363208828,0.503840944379418,0.7468349032252357,-0.25730003330083245
6.9438793659210205,-0.14008672663864943,-0.3171313440049679,-0.0809800384692016,0.500464593291951,0.7401687987922722,-0.2639668718311556
6.963775157928467,-0.1467533738253594,-0.3237980373715438,-0.07431346696673632,0.5071310305020872,0.7468355985959305,-0.27063460355913277
6.983857154846191,-0.15008669560223564,-0.327131387803072,-0.0709801940244775,0.5104642214307296,0.750169013375854,-0.2739686020660176
7.004026889801025,-0.15675333967618418,-0.33379808506351033,-0.06431363960768419,0.5171306312881638,0.7568358404319957,-0.2806364988363123
7.0241193771362305,-0.163420004382477,-0.340464771845445,-0.05764705226121286,0.5228605897974749,0.7568360932283886,-0.28730344529846524
7.044318199157715,-0.17008667918934545,-0.347131464141395,-0.050980433356822126,0.5216849383291207,0.7568361334260304,-0.29397066135871014
7.065264463424683,-0.1734200173102599,-0.3504648184383402,-0.04764714026667194,0.5183516049957874,0.7601695011590853,-0.29730446792454623
7.085201263427734,-0.18008668921885027,-0.35713151036592805,-0.04098052233724221,0.5169532669292934,0.766836208901812,-0.30397170637819987
7.105314493179321,-0.18675336019591687,-0.36379819789776596,-0.03431389584701686,0.5102866002626268,0.7735029086200106,-0.3106388404384762
7.12544059753418,-0.18008669690329085,-0.3704648779419665,-0.034613694178031944,0.5168428129589898,0.7801695951163343,-0.3173057917827245
7.145507574081421,-0.17675336503950004,-0.3671315521784426,-0.03794704197177589,0.5201761462923231,0.7835029400348572,-0.3206392908422548
7.165590524673462,-0.1702433299257429,-0.36031156207276066,-0.044453656115447056,0.5237548235746075,0.789577757051364,-0.32316817524858027
7.185733318328857,-0.16382801264838615,-0.35339869164231247,-0.050895272026447363,0.5226106011937709,0.7958305127416099,-0.3204368688741272
7.206681728363037,-0.15735702302600807,-0.3465372262142599,-0.05739622367102032,0.5249439688680793,0.8022288513250792,-0.31684100799376647
7.226611137390137,-0.15410066013242552,-0.3431263070193432,-0.06067071843879053,0.5277551329226431,0.8056354348058219,-0.314746507817172
7.246691942214966,-0.14767970608562886,-0.3362080932582916,-0.06714896728696391,0.5267767282987227,0.8125712885654855,-0.31216163444769957
7.267016172409058,-0.14119673143836747,-0.3293491828786093,-0.0736776683550284,0.5299212950832054,0.8195689038827764,-0.3086947499496883
7.287005186080933,-0.1379736040786695,-0.32589931777485726,-0.07693211515674858,0.5294069133133745,0.8232571547079708,-0.3073909029675043
7.307066440582275,-0.13152362320263866,-0.3190010123506986,-0.08344821375118401,0.5285629796530712,0.8307506342961941,-0.30491128526670486
7.327152729034424,-0.12496570443266333,-0.31221710953282805,-0.09004003522639488,0.5249102865441206,0.8378827849236321,-0.30040727096538256
7.347368955612183,-0.11829906268927275,-0.3055504391162074,-0.09670673539279369,0.5182438798394063,0.8445487610529512,-0.29374112332574975
7.367682456970215,-0.11496575167686816,-0.30221708505605993,-0.10004006424395959,0.5149107947972971,0.8478814161331811,-0.2904078791685063
7.387530565261841,-0.1082991458122533,-0.29555036011184027,-0.10670672087087055,0.5082448654384595,0.8545462324408732,-0.2837414959610218
7.407653093338013,-0.10163245690318459,-0.28888372569112136,-0.1133733957648114,0.5015777621507522,0.8612111063927216,-0.2770742258551835
7.427732229232788,-0.09496586936610882,-0.28221704658719593,-0.12004003587051526,0.4949116275432645,0.8545444663698448,-0.27040744216754503
7.447851657867432,-0.09163253499622034,-0.2788837104419885,-0.12337336940971128,0.491578527829578,0.8512106789532683,-0.26707420849223995
7.467889308929443,-0.08496586521823392,-0.272217067868388,-0.1300400881693161,0.4849118611629113,0.844544062799288,-0.26040812017475257
7.488075256347656,-0.07829919648723316,-0.2655504193912176,-0.13670679195566235,0.4782451519730242,0.8378774126496341,-0.2537418354563307
7.50806450843811,-0.07163252842781233,-0.2588837611790571,-0.14337346854755417,0.47157832865943805,0.8312106840352885,-0.24707515964252105
7.528144359588623,-0.06829919350429332,-0.2555504443153939,-0.14670683837202442,0.4682449953261047,0.827877386693729,-0.24374224388124066
7.54833197593689,-0.061632524913250684,-0.24888379818211015,-0.15337355098178335,0.461578328659438,0.8212107655988393,-0.2370761085079391
7.568434238433838,-0.05496585540621945,-0.24221716325386206,-0.16004028929446834,0.4549116619927713,0.8145441703231735,-0.23041027855491203
7.588489294052124,-0.04829918704659859,-0.23555051621110834,-0.16670700081862438,0.44824499532610457,0.8078775486161066,-0.22374414289379235
7.608636856079102,-0.04496585335638924,-0.23221718697953997,-0.17004034359728515,0.4449116619927712,0.8045442247807906,-0.22041092222146752
7.628708362579346,-0.03829918512003974,-0.22555053935626618,-0.17670705436534806,0.4382449953261045,0.7978776025409632,-0.21374478511726985
7.648780107498169,-0.03163251697112484,-0.21888389129517793,-0.1833737645874958,0.4315783286594378,0.791210979905724,-0.21257099622616377
7.668856382369995,-0.02496584890688811,-0.21221724269367398,-0.19004047400541296,0.4249116619927711,0.7845443565839308,-0.21784795762355644
7.689328908920288,-0.021632514531722727,-0.20888392325055177,-0.19337384052565731,0.42157832865943773,0.7812110569652227,-0.22118170340342616
7.7094221115112305,-0.014965848863459967,-0.2155505753006155,-0.20004047225256966,0.414911661992771,0.7745443545345534,-0.22784793572264453
7.729488849639893,-0.00829917848166403,-0.20888394751385245,-0.19337390031096752,0.4082449953261043,0.767877783153498,-0.23451580581134557
7.7528486251831055,-0.014965845633931427,-0.21555060528342718,-0.18670721213880628,0.4015783286594376,0.7612110947283758,-0.24118220023547096
7.773036241531372,-0.014965845633931427,-0.21555060528342718,-0.18670721213880628,0.4015783286594376,0.7612110947283758,-0.24118220023547096
7.7931129932403564,-0.018299178202454643,-0.21888395166660937,-0.18337391053466678,0.39824499532610425,0.7578777928442073,-0.244515944367221
7.813400745391846,-0.02496584320082129,-0.22555064701383476,-0.17670731376332616,0.39824499532610425,0.7512111947466991,-0.25118352467988175
7.833345651626587,-0.03163250904773669,-0.23221733941814982,-0.1700407090819586,0.40491166199277095,0.744544588745365,-0.25785100595397537
7.853760004043579,-0.03829917557207623,-0.23888403220383145,-0.16337410444039355,0.41157832865943766,0.7378779828886697,-0.2645184913761461
7.8746888637542725,-0.04163250910254192,-0.24221737874512225,-0.16004080214415428,0.414911661992771,0.7345446800001373,-0.2678522356633882
7.8947978019714355,-0.04829917673090367,-0.24888407213620267,-0.15337419762085522,0.42157832865943773,0.727878074273427,-0.2745197274288852
7.915194511413574,-0.054965844572860675,-0.25555075604167465,-0.1467075704169283,0.42824499532610444,0.7212114462448133,-0.2811869200881325
7.935139179229736,-0.061632512963053096,-0.2622174402359341,-0.14004094332100833,0.43491166199277115,0.7145448182054147,-0.2878541156019497
7.955204486846924,-0.06829918194216207,-0.26888412473490186,-0.13337431635965846,0.44157832865943786,0.707878190126589,-0.29452131403509296
7.975303888320923,-0.07163251582584959,-0.27221746187057155,-0.1300409914330039,0.4449116619927712,0.7045448649452449,-0.2978547601651562
7.99543023109436,-0.07829918557762926,-0.27888414676456497,-0.12337436467924352,0.4515783286594379,0.6978782367867242,-0.3045219623148581
8.016037464141846,-0.08496586413714217,-0.28555082375198637,-0.11670774939350116,0.4582446536661597,0.6912117153878309,-0.31118731671355765
8.036058187484741,-0.08829920089505518,-0.28888416359069374,-0.11337442768527853,0.46157749308703455,0.6878784072566839,-0.3145193523956123
8.056167364120483,-0.0949659059003533,-0.2955508389472456,-0.10670781521087734,0.46824228674875357,0.6812126286685278,-0.3211817518501616
8.07653522491455,-0.10163260348443819,-0.3022175257504666,-0.10004119707171512,0.47490673062089733,0.6745466692186066,-0.3278439858841897
8.096428155899048,-0.10829926840288169,-0.3088842240096398,-0.09337461674213375,0.481573291135521,0.6812134408278998,-0.3345117603059315
8.116615533828735,-0.11163261815168653,-0.31221756199682016,-0.09004130651135027,0.48490570997549065,0.6778804452177,-0.33784276095728577
8.136641263961792,-0.11829931900681538,-0.3188842453028993,-0.08337469383929742,0.49157002653990595,0.6712143162888407,-0.3445036627696713
8.15678358078003,-0.12496597410503549,-0.32555093287577014,-0.07670810465848263,0.4982359884199174,0.6712146239978256,-0.3511708193584493
8.176769495010376,-0.13163261365323364,-0.33221762211844486,-0.07004153637444833,0.5049023781840352,0.6778814914914797,-0.3578387224160771
8.19697117805481,-0.13496593570114337,-0.33555096574081805,-0.06670824689634547,0.5082355939009536,0.6812149123621715,-0.36117260191722567
8.217024087905884,-0.141632573631535,-0.34221765619856753,-0.06004168743560558,0.5149019611211316,0.6878817897026488,-0.3678405764939303
8.237138986587524,-0.1482992140135299,-0.3488843437662659,-0.053375119630740535,0.5196213748855227,0.6945486529531434,-0.37450842445466
8.257238626480103,-0.15496589611549855,-0.35555102191681287,-0.046708479904475804,0.5129534680478555,0.7012155203153995,-0.3811742065130725
8.277369260787964,-0.1582992370703045,-0.3588843611542678,-0.043375159949035035,0.509619523245394,0.7045489491007293,-0.3845071021186796
8.297396659851074,-0.16496588002329193,-0.365551033871922,-0.036708575176204544,0.502951983004218,0.7112159368461123,-0.39117406954197714
8.317468643188477,-0.16496589347313145,-0.3722177232953636,-0.03004194921730452,0.49628531633755124,0.7178826337039936,-0.3978412102419968
8.337735891342163,-0.15829923649068503,-0.3788844160339412,-0.023375332733350004,0.48961864967088453,0.7245493394290013,-0.404508491775891
8.357833862304688,-0.15496779698916627,-0.3822162814426382,-0.020041108201133622,0.4862977587471943,0.7278624050044926,-0.40784909704165756
8.378195524215698,-0.14986842573048986,-0.3879549115405643,-0.026054679556983613,0.5156901452133158,0.7342795852667588,-0.43176059098436625
8.398190259933472,-0.14321683812320596,-0.38127367060218237,-0.0296687912148234,0.5093837820994389,0.7408387744148189,-0.42535278506743796
8.418199300765991,-0.13655912288045746,-0.374598162358253,-0.036327838040452906,0.5162638937213085,0.7474369237632841,-0.41883849443125515
8.438283681869507,-0.13323274330335072,-0.37125792491659265,-0.03965525298403106,0.5130976967742574,0.7507159435307618,-0.41562403782687274
8.458406686782837,-0.1265671605793214,-0.3645902003555705,-0.0463210405415592,0.5127180466828974,0.7573738440230937,-0.4089762268860228
8.478477478027344,-0.11990126287787531,-0.3579227825521344,-0.05298708668481161,0.5120377465851682,0.7640337333239023,-0.40232257709062813
8.498671293258667,-0.11359936512463895,-0.35086976114797247,-0.059304043723293696,0.5162718811962493,0.7700989402167747,-0.40361113131572596
8.518847465515137,-0.11041320563284167,-0.34738167804984454,-0.06251367073064985,0.5172013572716548,0.7735438307913624,-0.40341370955813344
8.539108753204346,-0.10405285774584243,-0.3403975600645983,-0.0689302936960128,0.518751707300039,0.7797007755799773,-0.4026881155177537
8.559033870697021,-0.09740298852669593,-0.33371426752785693,-0.0755863360071423,0.5124660329229646,0.7863489688137925,-0.39629691273602846
8.579102039337158,-0.09073632494369133,-0.3270476400061412,-0.08225308096993532,0.505799366256298,0.7930157054138828,-0.38963115718435165
8.599374294281006,-0.08740299119572574,-0.32371430795064016,-0.08558641430326865,0.502465987860726,0.7963490143848421,-0.38629778806825565
8.619329690933228,-0.0807363243781893,-0.3170476539898049,-0.09225310725402473,0.49579932119405934,0.7963490385004302,-0.3796314304349969
8.63951325416565,-0.07406965846732808,-0.31038101223646486,-0.09891982527641392,0.48913265452739263,0.7899434615858326,-0.3729653641641872
8.659619331359863,-0.06740299284447804,-0.3037143818044689,-0.10558656767927786,0.4824659878607259,0.7832768651950184,-0.3662995961924285
8.679702997207642,-0.06406966006733336,-0.30038106623935396,-0.10891993844568988,0.47913265452739257,0.7799435668525141,-0.362966711153144
8.699830293655396,-0.057402994569676305,-0.29371443439802225,-0.11558667906269326,0.47246598786072586,0.7732769697905812,-0.35630093832227716
8.719866037368774,-0.05073632913238046,-0.2870478015948945,-0.12225341840330449,0.46579932119405915,0.7666103721210027,-0.34963516100343367
8.739932298660278,-0.04406966313347568,-0.2803811526871886,-0.1289201235088935,0.45913265452739244,0.7599437421854464,-0.3429689693993326
8.76001524925232,-0.040736330447401325,-0.27704783542606537,-0.13225349198389677,0.4557993211940591,0.7566104426697786,-0.3396360756030033
8.7800931930542,-0.0340696631114688,-0.2703811886082681,-0.13892019343764891,0.44913250210043776,0.7499437394136933,-0.33296972627376387
8.800171375274658,-0.027402997756435378,-0.2637145523402164,-0.14558692782670768,0.44246583543377105,0.7432771386660941,-0.32630392550608484
8.820318460464478,-0.02406966507635243,-0.26038123382816253,-0.14892029444681984,0.4391325021004377,0.7399438378733416,-0.32297102184631266
8.840389728546143,-0.017402999703120377,-0.2537145960452601,-0.1555870265074092,0.432465835433771,0.7332772353843059,-0.3163052073822876
8.860498189926147,-0.01073633430266326,-0.247047957248504,-0.16225375695659067,0.4257991687671043,0.7266106316069223,-0.3096393826104152
8.88060712814331,-0.0040696688641703345,-0.24038131743737956,-0.16892048575173518,0.41913250210043757,0.719944026446307,-0.30297354661174264
8.900758981704712,-0.010736337037978798,-0.23371468223342418,-0.16225389254848732,0.41246583543377086,0.7132774327773964,-0.2963078746411222
8.920936107635498,-0.007403002840929594,-0.2303813363414601,-0.1655871965417031,0.4157991687671042,0.7099440702643645,-0.29297414070195643
8.940998315811157,-0.007403005198030399,-0.22371469658939758,-0.165587259117228,0.4157991687671042,0.7032774665695447,-0.2929749975146807
8.961085796356201,-0.014069670595748785,-0.2237146871281442,-0.1655872371016477,0.4091325021004375,0.6966107776151074,-0.29964135672130665
8.981265306472778,-0.017403005481489556,-0.22704803321626638,-0.16892060015598465,0.40579916876710415,0.6932774740524349,-0.30297510391368854
9.0014967918396,-0.02406967500864838,-0.233714726922665,-0.1622539970645146,0.39913250210043744,0.6866108705701386,-0.30964266595670553
9.021566152572632,-0.030736344702550596,-0.24038141902943103,-0.15558739015173328,0.40579916876710415,0.6799442625682817,-0.31631018273413924
9.04169774055481,-0.03740301514707624,-0.24704810925968196,-0.14892077794684033,0.41246583543377086,0.6732776491514642,-0.32297762510854183
9.061733484268188,-0.04406968645249031,-0.25371479982272166,-0.14225416576641323,0.41913250210043757,0.66661103556186,-0.3296450692716399
9.081893920898438,-0.04740302565172279,-0.25038149261468845,-0.13892089133021432,0.4157991687671042,0.6632777593289563,-0.33297924320391387
9.1019606590271,-0.054069687839678665,-0.2503814752087553,-0.1322541852813557,0.4091325021004375,0.6566110543854234,-0.33964533900450405
9.122023344039917,-0.060736356272643656,-0.2570481571994146,-0.1255875452548415,0.4024657131834075,0.6499443581516454,-0.3463122952989201
9.142157793045044,-0.06406969284081047,-0.26038150201372423,-0.1222542379045239,0.39913237985007416,0.6466110493346102,-0.34964600947797353
9.162540912628174,-0.07073636617585972,-0.26704819115965933,-0.11558762218847848,0.39246571318340745,0.6399444300429432,-0.3563134289695733
9.18244481086731,-0.07740303179330722,-0.2737148802161732,-0.10892098034264576,0.38579866628154547,0.6466109414744919,-0.36298016203307826
9.202541589736938,-0.0840697026926592,-0.28038158012672676,-0.10225439313881692,0.3924653329482122,0.6399443487629088,-0.36964803983065403
9.222599029541016,-0.09073637408521612,-0.28704825813454454,-0.09558775143843115,0.38579866628154547,0.6466110370226867,-0.37631507011271426
9.24271559715271,-0.09406970467887957,-0.29038159920863627,-0.09225441810509782,0.3891317397434843,0.6432776061538485,-0.37964820131954785
9.262796401977539,-0.10073637853375851,-0.29704826853024713,-0.08558777690866437,0.3891320208156959,0.6366110841139192,-0.38631546533268574
9.28287410736084,-0.10740305376289552,-0.3037149590584048,-0.07892116400197685,0.3891320208156959,0.6299444634871947,-0.392982935078865
9.302936792373657,-0.11073639178320267,-0.30704830357734,-0.07558785549027452,0.3924653541490293,0.6266111510412357,-0.39631663800468037
9.32334852218628,-0.10406972643982713,-0.31371499166966466,-0.06892121488075412,0.39913175182541394,0.6332776571980133,-0.40298346413799463
9.34329104423523,-0.09740306141320489,-0.30704834798556635,-0.0622545757375654,0.39246477010522945,0.6399441877849047,-0.39631694697097286
9.363370180130005,-0.09073639442588037,-0.3003816802030844,-0.06892123982841226,0.39913143677189616,0.6332775191580925,-0.389650243108006
9.383440732955933,-0.08406973238416045,-0.29371502620732465,-0.0755879323952814,0.39246475571838974,0.6399441743945478,-0.3829839391622738
9.403515338897705,-0.08073640378657516,-0.29038170600436053,-0.07892129516154708,0.3957980890517231,0.6432775333643062,-0.37965104111653664
9.423822164535522,-0.0740697452204528,-0.28371504250520996,-0.08558798843431488,0.39579837485425695,0.649944351713435,-0.3729849883395584
9.443751096725464,-0.06740308690657934,-0.27704839962869765,-0.09225470808988002,0.38913170818759024,0.6566110653883193,-0.36631909133907914
9.464279651641846,-0.060736427478569735,-0.27038175639678147,-0.0989214276962035,0.38246504152092353,0.663277779370614,-0.35965319346970337
9.484680414199829,-0.05740309737093755,-0.2670484346551951,-0.1022547874932694,0.3791317081875902,0.6666111364632427,-0.35632024420463976
9.504572868347168,-0.05073643641370674,-0.2603817909371557,-0.1089215071035559,0.37246504152092347,0.6732778508284446,-0.3496543450813648
9.544877529144287,-0.04740310558097691,-0.2570484689667897,-0.11225486692744362,0.3691317081875901,0.6766112080916369,-0.3463213952479571
9.582738876342773,-0.04740310558097691,-0.2570484689667897,-0.11225486692744362,0.3691317081875901,0.6766112080916369,-0.3463213952479571
9.602797031402588,-0.04073644324657663,-0.25038182481748705,-0.11892158663781062,0.3624650415209234,0.6832779227553126,-0.33965549509406046
9.622875928878784,-0.034069778682912034,-0.2437151685609158,-0.12558827986707555,0.3572207515354266,0.6832779618743293,-0.33298923125310964
9.643062353134155,-0.027403136599031153,-0.23704853941796683,-0.1322550237029083,0.35216753387687394,0.6766113575773076,-0.3263235933052656
9.663098096847534,-0.02406980481593443,-0.23371521665986625,-0.13558838268548856,0.3488342005435406,0.6732780476258371,-0.32299063632904196
9.6831955909729,-0.017403141072083662,-0.2270485703765436,-0.1422550991766325,0.3421675338768739,0.6666114263914834,-0.3163247083688462
9.70325493812561,-0.0107364770943002,-0.22038192309069196,-0.14892181371300248,0.33550086721020717,0.6599448033648789,-0.3096587613737541
9.723369836807251,-0.004069812886677077,-0.2137152748254735,-0.15558852630519998,0.32883420054354046,0.6532781785269605,-0.30299279487342395
9.74347472190857,0.002596855865242556,-0.20704862856026118,-0.1622552152100822,0.3221671224694652,0.6466113958634782,-0.29632614915968175
9.763591527938843,0.005930188163667099,-0.2037153036020167,-0.1655885698287233,0.31883378913613186,0.6432780818525154,-0.29299314843980834
9.783668041229248,0.012596860888087785,-0.19704865903019428,-0.17225523649538996,0.31216633379455716,0.6366111628331654,-0.28632586663852916
9.803876876831055,0.019263529146961823,-0.19038201590459153,-0.1768658971732196,0.30549928306798335,0.6299444058780788,-0.2796594361580344
9.823875665664673,0.022596861374475356,-0.18704869254651307,-0.17801548450574217,0.30216594973465,0.626611095940383,-0.2763265234650169
9.844001054763794,0.01593020009892007,-0.18038204646141284,-0.17134881783907552,0.2954985519484323,0.6199442097495104,-0.27770968877991364
9.86409854888916,0.009263533434596682,-0.1870487089274113,-0.16905485934922387,0.302165218615099,0.6132775327998217,-0.2843761663959492
9.884183406829834,0.002596859524791377,-0.1937154147872757,-0.16238829371828695,0.3088318852817657,0.6066109571803375,-0.2910445084839664
9.904252529144287,-0.004069819154563432,-0.20038213483190861,-0.15572176286183442,0.3154985519484324,0.5999444132959576,-0.29771343358914126
9.924342632293701,-0.007403159297754066,-0.20371549490924815,-0.15238849691451378,0.31883188528176576,0.5966111410376823,-0.30104789039006224
9.944417476654053,-0.014069835238476387,-0.21038219506538533,-0.1457219140176062,0.32549855194843247,0.5899445504236454,-0.3077159565948251
9.964503288269043,-0.020736512624988192,-0.21704889534028032,-0.13905533032188952,0.3321652186150992,0.5832779591533054,-0.3143840129254602
9.9845871925354,-0.027403191542625306,-0.22371559576873495,-0.13238874590938177,0.3388318852817659,0.5766113671739793,-0.3210520597525626
10.004693269729614,-0.030736535913099185,-0.2270489562653544,-0.12905547792487693,0.34216521861509924,0.5732780930213508,-0.3243864902849114
10.024847269058228,-0.03740321783115797,-0.23371565706052586,-0.12238889242420328,0.34883188528176595,0.5666114996240321,-0.3310545206649806
10.044967889785767,-0.044069911514786064,-0.2403823787338608,-0.11572235500252866,0.35549855194843266,0.5599449490030639,-0.33772335728151737
10.065056324005127,-0.05073659718471092,-0.2470490800812591,-0.10905576860412805,0.36216521861509937,0.5532783538160966,-0.3443913701563767
10.085095643997192,-0.054069948436629864,-0.2503824398119221,-0.10572249429759789,0.3654985519484327,0.5566117381272198,-0.3477256731591323
10.105201959609985,-0.06073663411739962,-0.25704913134483326,-0.09905589473323391,0.3721653517139063,0.5566118687183913,-0.3543935599120571
10.125267028808594,-0.06740331815620827,-0.2637158307864061,-0.09238929578049937,0.3788319377157453,0.5499452215795685,-0.36106127654573383
10.145360469818115,-0.07407003023369188,-0.27038255875913414,-0.08572276285194384,0.385498604382412,0.5499453351342942,-0.36773010398118067
10.165444135665894,-0.07740338613748346,-0.2737159243279582,-0.08238950028925392,0.38883193771574537,0.5532787291236106,-0.3710645836864645
10.185514688491821,-0.08407008293810411,-0.2803826338771537,-0.07572292686075976,0.3954986043824121,0.5599454752878759,-0.3777327377693826
10.205590009689331,-0.09073674251875144,-0.28704931636544767,-0.06905626019409311,0.4021648168640322,0.566611890142685,-0.3843990456912121
10.225707769393921,-0.09740339726336827,-0.29371600934576303,-0.06238959352742645,0.4088307321683425,0.5732781305651548,-0.3910651168328035
10.246110200881958,-0.10073672435382347,-0.2970493563281766,-0.059056260194093116,0.4121636775841375,0.5766112395912891,-0.39439814184139527
10.26603078842163,-0.10292116220675003,-0.30371604288326043,-0.05238959352742645,0.41802122761964006,0.5832774420770411,-0.4010643907983213
10.286127805709839,-0.09874872777375487,-0.3103827273105421,-0.0457229358827085,0.4236264225198825,0.5899438931848736,-0.40773088904747284
10.306179761886597,-0.09925747086191442,-0.31704940021440076,-0.03905628349651793,0.4236264225198825,0.5966105727290166,-0.4143977825419556
10.326289653778076,-0.10259081309532796,-0.3203827460454081,-0.03572297581168917,0.4202930891865491,0.599943926742479,-0.4177314882883596
10.346397638320923,-0.10925748885574993,-0.3270494233675333,-0.032985684645601934,0.4258200572060286,0.5932772759803663,-0.4243984508199886
10.366467714309692,-0.10263861575892728,-0.3336448071744612,-0.03957284105587933,0.4216825802877215,0.5999876885566179,-0.4331038567009534
10.386862516403198,-0.09623024684808866,-0.3266409273978591,-0.04587075294693609,0.4372560453651706,0.6038261286761654,-0.43327149891187766
10.406776666641235,-0.09315320198221722,-0.32297261930816806,-0.048837254000699507,0.44331982269258274,0.6048331598429817,-0.4372054270683566
10.426852703094482,-0.0866709354978521,-0.31606636712648295,-0.05524448297965838,0.443348594880947,0.6097512659443977,-0.4356976299233612
10.447235584259033,-0.08000426940538265,-0.3093997013743504,-0.06191115151138454,0.4366819282142803,0.6164179341661467,-0.42903098981736215
10.467336177825928,-0.07333761770629352,-0.30273306093786895,-0.06857787249826686,0.4300152615476136,0.6230846471203716,-0.4223651009476394
10.48745584487915,-0.07000429125743163,-0.2993997405141731,-0.07191123284807874,0.42668192821428025,0.6264180037726288,-0.41903215580098513
10.507552146911621,-0.06333763723671056,-0.2927330992825443,-0.07857795330386769,0.42001526154761354,0.6330847174054445,-0.41236626416140637
10.527620792388916,-0.05667098181232205,-0.28606645757285953,-0.08524467349127965,0.41334859488094683,0.6397514314488516,-0.4057003708671992
10.547741651535034,-0.05333765360647973,-0.28273313655074445,-0.08857803350433682,0.4100152615476135,0.6430847886141776,-0.40236742364969724
10.567802429199219,-0.04667099626775849,-0.2760664941940985,-0.0952447534063432,0.40334859488094676,0.6497515032109522,-0.3957015281678443
10.588204622268677,-0.040004337766964146,-0.26939985144808043,-0.10191147318901012,0.39668192821428006,0.6564182181337977,-0.3890356314068832
10.608109951019287,-0.033337678185842545,-0.2627332083427087,-0.10857819290387538,0.39001526154761335,0.6630849333474558,-0.38236973349635384
10.628542423248291,-0.03000434801366976,-0.25939988666388375,-0.1119115527508722,0.38668192821428,0.6664182910520808,-0.3790367841471765
10.648507118225098,-0.023337683725693368,-0.25273323334097136,-0.11857824589682955,0.38654425227658784,0.659751630448354,-0.37237045285524406
10.668613910675049,-0.01667101854913782,-0.24606654968533487,-0.12524486975425445,0.37987758560992113,0.6530849211023664,-0.36570312988275133
10.68866753578186,-0.010004357289853869,-0.23939990436500902,-0.13191158612769346,0.3732109189432544,0.6464183009353706,-0.359037202941776
10.708785772323608,-0.006671026523758797,-0.23606658128622293,-0.13524494353414784,0.36987758560992107,0.6430849901632206,-0.3557042317782881
10.728905439376831,-4.36472354700462e-06,-0.22939993430881805,-0.1419116567958799,0.36321091894325436,0.6364183672264686,-0.3490382737688605
10.748958587646484,0.006662303579590712,-0.22273328892315106,-0.14857834598913208,0.35654384210860135,0.6297515621201487,-0.3423716319028696
10.769266843795776,0.013328977822772418,-0.21606664527286593,-0.15524501265579874,0.34987637626172735,0.6230845903955551,-0.3357043397734305
10.789280652999878,0.016662314795077744,-0.21273332311659826,-0.15857834598913206,0.3465426540520022,0.6197511114983406,-0.3323707026541324
10.809366703033447,0.009995650251654178,-0.20606668561831162,-0.16524505948861182,0.3398756108761589,0.613084352625248,-0.3257045068084099
10.829428672790527,0.003328990221090414,-0.19940003990526387,-0.17191172615527847,0.3332082127341296,0.606417423971544,-0.31903727117491243
10.855926275253296,-0.0033376796723587924,-0.19273341146644518,-0.17857846326733795,0.3265411911482321,0.5997506986069336,-0.31237149315690477
10.87640643119812,-0.006671009330140255,-0.19606672702164027,-0.18191175155950204,0.32320785781489875,0.5964173230764308,-0.3090374079583581
10.896275043487549,-0.013337684247483841,-0.19606676755021277,-0.181911854723664,0.31654119114823204,0.5964174183071704,-0.3023724784326193
10.91651725769043,-0.013337692520938978,-0.1894001164604811,-0.1819119212190111,0.31654155647156923,0.5964175958370896,-0.2957072144104055
10.936434507369995,-0.006671033012797801,-0.18273346846686175,-0.1885786526482109,0.31654179012045097,0.5897510647437391,-0.28904181941473267
10.956553936004639,-0.0033377048401592143,-0.17940015986351301,-0.19191204944906634,0.3132084567871176,0.5864177904592666,-0.2857095677690678
10.976633548736572,0.0033289583369875753,-0.17273351138294904,-0.19426834720427041,0.3065417901204509,0.5797511676422547,-0.2790437147247876
10.996907472610474,0.009995615863588042,-0.16606688761747235,-0.18760179219036954,0.2998751234537842,0.5730846041474827,-0.27237900000311394
11.016869068145752,0.01666228152417599,-0.15940022311935073,-0.19426846420865695,0.3065417901204509,0.5664179427959829,-0.26571242904671727
11.03697657585144,0.019995609707402353,-0.1560669108625716,-0.19093518565226683,0.30320845678711755,0.5630846610003705,-0.26238006908787126
11.05733060836792,0.019995607020773666,-0.1560669209938934,-0.18426854517118407,0.29654179012045084,0.5564180188758641,-0.2623805322540765
11.077208518981934,0.013328928604228536,-0.16273362956732873,-0.1776019878837603,0.2960206718021466,0.5497514531105219,-0.26904918577048575
11.097476243972778,0.009995590081512039,-0.16606697862507636,-0.1742686951484164,0.2985516653156728,0.5464181569213814,-0.2723832575805898
11.117572546005249,0.0033289144454037266,-0.17273367092086808,-0.16760209424976433,0.3052183319823395,0.5397515506896647,-0.2790511270119893
11.137810945510864,-0.0033377670984193492,-0.17940037523876598,-0.16093552303026298,0.3118849986490062,0.5330849717922681,-0.285719541527206
11.157833576202393,-0.010004439945769385,-0.18606706815924454,-0.15426890328573292,0.31855142660287733,0.5264182630209046,-0.29238688822857767
11.177878141403198,-0.016671122079958956,-0.179400433017254,-0.14760231482418895,0.3118847599362106,0.519751668097201,-0.2990549954064694
11.19796085357666,-0.020004448848182154,-0.18273375308893086,-0.1442689483908519,0.30855142660287727,0.516418304377441,-0.3023877123506674
11.21804690361023,-0.026671124180316332,-0.18940043908180726,-0.13760232567527256,0.3018847084535824,0.5097516586219232,-0.3090551618334502
11.238397598266602,-0.030036890206142593,-0.19606713413163143,-0.1309357007949139,0.3018843601826793,0.5097515630697209,-0.31572235668093956
11.258327722549438,-0.026732750070892347,-0.19606715598394092,-0.12426907693123557,0.30188422110503693,0.5164182142459225,-0.322389725403356
11.27842664718628,-0.02339942754192349,-0.19273384127868107,-0.12093578965546488,0.2985508877717036,0.5197515878313044,-0.3257239152818575
11.298511743545532,-0.03006609494882302,-0.19940050963715372,-0.11426912756138384,0.29188422110503687,0.5130849249037415,-0.33239067474234707
11.318604946136475,-0.03673277157729623,-0.20606719708781782,-0.10760250539631723,0.2852174681969484,0.510121238332944,-0.3390581138913346
11.33876085281372,-0.033399433274822185,-0.2094005455132162,-0.1042691720629839,0.28188374519661463,0.5134543227191433,-0.34239112839690017
11.3588228225708,-0.026732774805203835,-0.2094005688159128,-0.09760254761217416,0.27521688959338186,0.5173513381272522,-0.3490584482222218
11.378906011581421,-0.02673277622331302,-0.2094005718789281,-0.09093588880872541,0.26855022292671515,0.514525359253012,-0.3557252644980158
11.398985862731934,-0.03339945089195959,-0.21606726099840234,-0.08426926401112238,0.261883387005474,0.5145253288110968,-0.3623925959459526
11.419801473617554,-0.03673279370003416,-0.21940061019965362,-0.08093597153453372,0.2585500536721406,0.5178586942952039,-0.3657267051294365
11.439951181411743,-0.03006613541556101,-0.22606730230018723,-0.07426934938836277,0.26521649796685115,0.5245253111506095,-0.37239403548121136
11.460022211074829,-0.023399478727115803,-0.21940066043690856,-0.06760273064903424,0.25854966281874364,0.5311919571150618,-0.37906145987267215
11.480161666870117,-0.03006615204159651,-0.22606733736124937,-0.07426942319439074,0.26521632948541035,0.5245253104853288,-0.3857286046899204
11.500211477279663,-0.02673283102028222,-0.22830102473936656,-0.07093614077355358,0.261882996152077,0.521192016772038,-0.3890628829800147
11.52030324935913,-0.02673282849956573,-0.23364466640170922,-0.06426947410688692,0.25521605301498623,0.5145252717025861,-0.395729343708385
11.540684700012207,-0.033399495844496516,-0.24031133513388367,-0.0599533907791,0.24854938634831955,0.5145252764758087,-0.402396108565562
11.56056833267212,-0.04006616914867595,-0.2469780169516685,-0.05573561199331549,0.24188261256163335,0.5211919301650713,-0.40906324036099934
11.58108925819397,-0.04339951228217095,-0.2503113664621534,-0.05240232126272419,0.23854927922830002,0.5245252937358172,-0.4123973765203278
11.601158380508423,-0.036732862811987385,-0.24651002089448676,-0.04573572487358944,0.24521594589496667,0.5311920095627072,-0.41906535283889496
11.621236562728882,-0.030066195356201232,-0.23984335150933753,-0.05240238369206732,0.23854927922830002,0.5378586702212212,-0.41239853367249785
11.641356229782104,-0.023399548025837567,-0.23317672474408715,-0.05906915797573338,0.24521594589496667,0.5445254152589759,-0.4057338557413542
11.661396265029907,-0.016732901161551118,-0.22651009635627556,-0.06573592545541362,0.25188261256163336,0.5511921571282278,-0.39906902164643854
11.681492805480957,-0.013399577775197426,-0.22317678288101436,-0.06906931079125066,0.2552159458949667,0.5545255301001758,-0.3957366258491478
11.701574802398682,-0.006732931086142867,-0.21651015740110216,-0.07573608471833908,0.2618826125616334,0.5611922802583332,-0.389071876859476
11.72165584564209,-6.627351607050875e-05,-0.20984350270992896,-0.08240277997686603,0.26609908579777203,0.5678589683231519,-0.3824057026675866
11.742035150527954,0.00326705038706764,-0.2065101902693968,-0.08573616715685131,0.26689391171029675,0.571192345276042,-0.37907331416787743
11.762186527252197,0.00993371070891743,-0.19984353763769672,-0.09240286983168063,0.26022724504363004,0.5778590410016565,-0.37240727150693215
11.782310247421265,0.01660037172317783,-0.1931769027179713,-0.09906959460802837,0.2535602862448837,0.5845256660582276,-0.36574139115012566
11.80247712135315,0.0232670319726173,-0.18651026053701097,-0.10573632020843692,0.24689354599709415,0.5911923590673323,-0.3590756892671048
11.82268738746643,0.029933691049796225,-0.17984361338157803,-0.11240304696319797,0.24022691545840866,0.5902864345131208,-0.3524101221777424
11.842859983444214,0.03326702564837773,-0.17651028836628468,-0.1157363802965313,0.23689328807672375,0.5869531170672102,-0.34907658326179086
11.862890720367432,0.039933681662509345,-0.1698436632408332,-0.12240316076943848,0.2302266214100571,0.5802865404213086,-0.3424119207410382
