liuyurong129/humanoid-gym/humanoid/data/robot1_actual_20250621-220827.csv
timestamp,joint_1,joint_2,joint_3,joint_4,joint_5,joint_6
0.0002884864807128906,0.0,0.0,0.0,0.0,0.0,0.0
0.020296335220336914,0.0,0.0,0.0,0.0,0.0,0.0
0.040349721908569336,0.0,0.0,0.0,0.0,0.0,0.0
0.06042218208312988,0.0,0.0,0.0,0.0,0.0,0.0
0.08055448532104492,0.0,0.0,0.0,0.0,0.0,0.0
0.1006309986114502,-0.0033332657606659605,-0.0033333327737845053,-0.003333319315240249,-0.0033333333333333335,-0.0033333346673160087,0.0033334734439374575
0.12074661254882812,-0.006666598929470917,-0.0066666661060512614,-0.006666651887992451,-0.006666666666666667,-0.0066666679432000496,0.006666802473044716
0.14083409309387207,-0.013333258951566888,4.553989392183655e-09,-0.013333336951972415,-0.013333340641727712,-0.01333334418516864,0.01333369339333107
0.1609501838684082,-0.019999938182152663,-0.006666658441654686,-0.01999998413561814,-0.02000002051421126,-0.020000006200330978,0.01999990900135913
0.18104147911071777,-0.023333267776836676,-0.009999991535737605,-0.023333314783737666,-0.016666687180877927,-0.02333333083312615,0.023332560525196885
0.20113611221313477,-0.0299999293698315,-0.01666665620781852,-0.023095699409560164,-0.010000024037228234,-0.029999998056578173,0.029999661115897087
0.22145843505859375,-0.036666595767519086,-0.023333319208821757,-0.016429031959255016,-0.0033333811905290564,-0.03666666293780732,0.03666630636786523
0.2413172721862793,-0.043333262339775185,-0.029999982004572576,-0.009762365229750762,0.003333256149602462,-0.043333325764128544,0.04333297573258844
0.2614438533782959,-0.046666595646460925,-0.03333331123010156,-0.006429031896417428,0.006666554606437437,-0.04666665291189201,0.04666631695074911
0.2815110683441162,-0.05333326180787371,-0.03999997350288355,0.00023763573406901687,0.013333180830502762,-0.05333331051815927,0.0533329561672237
0.30159544944763184,-0.0599999285102874,-0.0466666351983103,0.0069043024007356835,0.019999796521565145,-0.05999996488799201,0.059999635210590575
0.32219743728637695,-0.06333326173482262,-0.049999968526640674,0.010237635836600404,0.02333312985489848,-0.06333329815442447,0.06333296290348774
0.3422553539276123,-0.06999992833986764,-0.05666663026656713,0.016904302623082006,0.029999745081453387,-0.06999995130296023,0.06999963686312845
0.36234402656555176,-0.07666659496169474,-0.06333329171701896,0.023570969428746914,0.03666635499162487,-0.07666660210696143,0.07666631232239339
0.3824656009674072,-0.08333326160469595,-0.06999995287891853,0.030237636255293222,0.04333295980501293,-0.08333325068442782,0.08333298940616939
0.40249109268188477,-0.08666659514560489,-0.07333328043714882,0.033570969588626556,0.04666622649864708,-0.08666656397289026,0.08666634335562183
0.42262721061706543,-0.09333326186787529,-0.07999994105732368,0.04023763643743428,0.05333282215582328,-0.09333320870989635,0.09333302462911428
0.4426915645599365,-0.09999993001559648,-0.08666660099934019,0.04690430197796361,0.051513595212030534,-0.09999985108703249,0.09999978517795671
0.46281862258911133,-0.10666658806308156,-0.09333326355144496,0.04536145563847883,0.0581802302335508,-0.10666650849827754,0.10666614683759257
0.48302698135375977,-0.11333326342883975,-0.09999992426080348,0.05202811685378985,0.06484681944232945,-0.11333315524454296,0.113333091833245
0.5034525394439697,-0.1166666065051224,-0.10069866054865123,0.0553614422517594,0.06694094610376744,-0.11666649189618154,0.11666677183761487
0.5233139991760254,-0.12333327895427862,-0.09799419075397743,0.057687025676169075,0.0654923740822649,-0.12333318266079824,0.12333374572364775
0.5433802604675293,-0.12999993950430952,-0.09132752220545867,0.05344672999199621,0.05882570868769364,-0.12999987224008688,0.13000019449391936
0.5638644695281982,-0.13333327315418744,-0.08799418325988723,0.05011339665866288,0.055492301897537066,-0.13333320476360835,0.13333355749788356
0.5840559005737305,-0.1399999549213448,-0.08132751028532526,0.0434467265108815,0.048825554545394244,-0.12666653712796438,0.14000034955933396
0.6040608882904053,-0.14666660560146588,-0.08799417008383291,0.036780080352415014,0.042158817064797294,-0.1199998437521987,0.14666611730268553
0.6241929531097412,-0.15333327098224953,-0.09466082905161027,0.030113416049475733,0.03615339689329953,-0.11333314982569179,0.15333272319891325
0.644481897354126,-0.1599999454545854,-0.101327490644258,0.036780076950222694,0.04281999385388531,-0.10666646970254036,0.15999969987614168
0.6646032333374023,-0.16333327859631405,-0.10466082396547789,0.04011341047860887,0.046153327187218644,-0.10333313628215322,0.16333302446453296
0.6846752166748047,-0.16999992369403083,-0.1113274865577562,0.04678008646809176,0.05282001579929714,-0.09666624368965386,0.16999969765269296
0.7047576904296875,-0.1766665484934518,-0.11799415377967269,0.05344677440112016,0.05948689724993321,-0.09666583649041406,0.17666632741240967
0.7251670360565186,-0.17999987701454842,-0.12132748943918888,0.056780117419763784,0.06282032042329735,-0.09999913395031372,0.17999964869363863
0.7450928688049316,-0.18666652939383643,-0.12799425442161538,0.05848030118241794,0.05615308025433782,-0.10666590379373878,0.186666834214398
0.7655692100524902,-0.1933331846231783,-0.13466092352184614,0.0651469835513721,0.06281988909019448,-0.11333247536590314,0.19333347377011317
0.7855334281921387,-0.19666651795666973,-0.13132759018851353,0.061813650217973026,0.05948655575686115,-0.11666580869925909,0.19666680710598045
0.8054873943328857,-0.2033331846232378,-0.13080454257827384,0.055146983551375685,0.05281988909019448,-0.11666580869923174,0.20333347376961852
0.825584888458252,-0.20999985128983634,-0.1366671330623948,0.048480316884734226,0.05281988909019448,-0.10999914203255547,0.2100001404352277
0.8458342552185059,-0.21333313244272778,-0.14000047316869813,0.04514697253058602,0.056153073201181354,-0.10666531845725755,0.2133334701505478
0.8661139011383057,-0.21999978713369836,-0.14666713211137805,0.0518136464996824,0.06281973430098567,-0.09999813826907542,0.22000012792214357
0.8860507011413574,-0.2266664538007842,-0.14000046544471123,0.058480313166230084,0.056153067634319,-0.09333147160244638,0.22666679459328895
0.9062888622283936,-0.2333331204670813,-0.14133481351028937,0.05181364649966081,0.04948640096765233,-0.08666480493574516,0.2333334612561869
0.9263045787811279,-0.23666645380049575,-0.13800148017695626,0.048480313166304696,0.046153067634319,-0.08515649955299709,0.23666679459055753
0.9463772773742676,-0.24333312046687272,-0.1374159994199087,0.04181364649969677,0.03948640096765233,-0.08713235804182308,0.2433334612546525
0.9664595127105713,-0.2499997757651578,-0.13766582356305207,0.03514696681296949,0.039486266241902955,-0.09379893992238561,0.2500001427804386
0.9874849319458008,-0.25333311173403805,-0.13566489083471361,0.031813625156613755,0.0428194872323349,-0.09713188951314147,0.25333356672845997
1.0075793266296387,-0.2599997690390991,-0.12899822269729344,0.038480291793085826,0.036152797087036996,-0.0904650735098334,0.2600002336882083
1.02764892578125,-0.2666664357199544,-0.1223315554190704,0.03181362512644537,0.029486120168717364,-0.08494758959835047,0.26666690293219636
1.048046350479126,-0.2733331034210986,-0.12899822076478026,0.025146955975281514,0.02281939193740814,-0.07828064355247405,0.2733336155123448
1.0679373741149902,-0.276666436754432,-0.1279733411698204,0.023227666075575932,0.02615272527075104,-0.07494731021915294,0.27666694884567655
1.0880491733551025,-0.2833331030993732,-0.13038427824571633,0.024833639956828153,0.032819356806268296,-0.06828065220087305,0.2833335502900526
1.1081340312957764,-0.2899997748115999,-0.13038426464397482,0.03145406116633556,0.03281916311311958,-0.06161316242603068,0.29000034515630074
1.1281707286834717,-0.296666441478204,-0.12371759797730818,0.03107911599309181,0.026152496446452914,-0.05494649575935872,0.2966670118224441
1.1484947204589844,-0.29999977481153733,-0.12038426464397484,0.02774578265975854,0.02281916311311958,-0.05161316242602533,0.30000034515577173
1.1689426898956299,-0.30666644189358055,-0.11371759794602737,0.021079116977531648,0.01615249644645291,-0.04494649547904641,0.30666698349312677
1.1888220310211182,-0.31333310855831004,-0.1203842646126726,0.014412450311379811,0.009485829779786244,-0.038279828811969514,0.31333365011931
1.2089674472808838,-0.31999975589107715,-0.1270509313108348,0.021079118167145992,0.01615249644645291,-0.0449464945305208,0.32000022838270714
1.229038953781128,-0.32666645187319393,-0.12038425934569197,0.027538265179201105,0.009485783755782433,-0.03827982114493912,0.3266672757160304
1.2491028308868408,-0.32999977904335975,-0.12242735906979739,0.024204935482879126,0.0061524504224490986,-0.034946485367301015,0.33000036964158264
1.269186019897461,-0.3366664439968885,-0.12093281613296958,0.01753826711280835,-0.0005141945199848667,-0.02930546632912897,0.3366671305832839
1.2892675399780273,-0.3366664438195577,-0.12093280318068643,0.010871600446141681,-0.005854737859603669,-0.02389569917427478,0.3433337942693609
1.309403657913208,-0.33333311040827296,-0.12426613286661034,0.007538267112808347,-0.007661253099412445,-0.02056236490845566,0.3466671313412379
1.3295173645019531,-0.339999737825443,-0.13093279577904926,0.014204933245891335,-0.000994600287730617,-0.013895684815968846,0.3533336356144606
1.3496716022491455,-0.3466664043084174,-0.13759945855781522,0.02087159996442006,0.005672056487821179,-0.007229004897292427,0.3600003031010165
1.369708776473999,-0.3533330478057839,-0.14426612094126048,0.027538266968307457,0.012338712919679253,-0.013895655077357752,0.3666668902981829
1.389746904373169,-0.3599997359181733,-0.15093278425047016,0.020871600405259153,0.01900536977093072,-0.007228980393146368,0.3733336035415682
1.409907579421997,-0.36333310192916213,-0.15426611964859752,0.024204941015442117,0.022338742062937594,-0.010562321111081158,0.3766674652007288
1.4299430847167969,-0.3699997675241705,-0.1609327786946665,0.030871605326688145,0.029005353505916997,-0.01722878939198897,0.383334179036561
1.4503862857818604,-0.3766664277246855,-0.16759943225571358,0.037538263926997266,0.035671897688817955,-0.023895186418085197,0.39000089279880873
1.470217227935791,-0.3799997641047979,-0.17093275841466807,0.04087159297437526,0.03900517836000227,-0.027228337938266352,0.3933342665909719
1.49031662940979,-0.38666643077136614,-0.1775994250813336,0.03432037480090767,0.032338511693335605,-0.033895004604929335,0.4000009332572358
1.5104131698608398,-0.39333301263815923,-0.18426607378180893,0.04098702645661988,0.03900501519025511,-0.04056141993741821,0.4066664291712007
1.5305001735687256,-0.3999996793048278,-0.17759940711514227,0.04765369312328639,0.03233834852358844,-0.04722808660408492,0.4133330958378737
1.5505492687225342,-0.40666634597175155,-0.17093274044847592,0.04098702645659925,0.02567168185692177,-0.040561419937426714,0.41999976250548005
1.5708107948303223,-0.4033330126391119,-0.16759940711514432,0.03765369312321752,0.022338348523588437,-0.037228086604120025,0.4233330958417245
1.5908114910125732,-0.4033330126384156,-0.16759940711514187,0.03266789573156837,0.022338348523588437,-0.030561419937423964,0.4299997625052426
1.611177682876587,-0.40999968836220646,-0.16759940759622596,0.03451396059810817,0.029004473756988447,-0.02389498527995043,0.4366669171701963
1.6311511993408203,-0.41333302169553976,-0.16426607426289264,0.037847293931441504,0.03233780709032178,-0.020561651946617097,0.4400002505035296
1.6512572765350342,-0.4166663550288732,-0.1609327409295537,0.04118062726477484,0.029004473756830535,-0.023894985279433272,0.44333358383688726
1.671872615814209,-0.42333303038971254,-0.154266074258567,0.04118063908376031,0.022337807090163867,-0.02762476751806391,0.44333351694423934
1.6920149326324463,-0.42666636376272393,-0.15093273675883978,0.037847305750426975,0.019004465684321587,-0.02798160173119444,0.4400001872872071
1.7123689651489258,-0.4199997653101928,-0.1442660660593433,0.031180635913464885,0.012337780977585023,-0.02131492234717175,0.44666709348022554
1.7322862148284912,-0.41333306410185283,-0.15093272860446844,0.024514001980536795,0.0056711093870046945,-0.014648253195470745,0.4533327972983223
1.7523550987243652,-0.40666642269076075,-0.14426605822928174,0.025340132067632182,-0.0009955680759456834,-0.007981583950166187,0.4600002757055485
1.7724404335021973,-0.4033330892123468,-0.1475993838922116,0.028673465400965516,-0.0043289288018706785,-0.004648252023160456,0.4633336115956104
1.7925443649291992,-0.40333303597051884,-0.14759937934427325,0.028673463321984782,-0.010995594530012996,0.002018400633836189,0.47000009447376656
1.8126661777496338,-0.40333303543023474,-0.14759936327155887,0.022006796655318114,-0.014928228762103528,0.008684339441495522,0.47666673053561337
1.832664966583252,-0.40333297884776864,-0.15426602719053983,0.022215016870028654,-0.012134471316749862,0.015351014853145209,0.4833331218212912
1.8528141975402832,-0.40666631205208353,-0.1575993567670031,0.025548350203361988,-0.008801134379146692,0.018684362740541298,0.48666645331698993
1.8728537559509277,-0.41333297862549256,-0.16426601969230478,0.03221501687002865,-0.002134500300200401,0.023097991996516784,0.4933331232968302
1.8929815292358398,-0.419999663924388,-0.17093268380850063,0.0388816874685373,0.004532154882748919,0.016431379302064703,0.5000001874954912
1.9130489826202393,-0.4266663305910385,-0.17759935047516698,0.03221502080187045,-0.002134511783886228,0.022026858085613,0.5066668541620931
1.9331605434417725,-0.42333298619876286,-0.1809326155960056,0.032752154067003936,0.0011996370503314434,0.025360554835684175,0.5100004177077695
1.9532890319824219,-0.42333301702146753,-0.18759923448114318,0.03656888015964702,0.007866897622659618,0.03202718955272025,0.5166673342729238
1.9733235836029053,-0.42999968445313597,-0.19426588892233532,0.04323552993692761,0.014533319384911966,0.03869418205549819,0.5233340805251027
1.99371337890625,-0.4333330225127943,-0.19759921643478873,0.04656885442290061,0.017866501972759928,0.04202773746422988,0.526667538252799
2.0138158798217773,-0.43999968917948684,-0.19117920780190784,0.0445705862144043,0.013998149416923508,0.04686126889808357,0.5333342049194505
2.0338990688323975,-0.4333330282242422,-0.19784587020758096,0.051237241177507865,0.020664706706530665,0.040194585420735535,0.5400008362363751
2.0541019439697266,-0.4399996948899924,-0.1911792035408842,0.044570574510850884,0.013998040039863997,0.03806948617691202,0.5466675028999625
2.0741021633148193,-0.43333299780134205,-0.19784578453444476,0.037903952940662455,0.012206767411690614,0.04473681383902474,0.5533338537235435
2.094200372695923,-0.436666335258548,-0.20117911309098074,0.041237278186277065,0.01553997980296783,0.04140360862720931,0.5566672883724915
2.114298105239868,-0.4433329902697071,-0.20117910313533616,0.047903937767253275,0.015539883382702,0.04140374984866879,0.5633339247438786
2.134345054626465,-0.44711122226250505,-0.1945124364686874,0.047903937767258105,0.008873216716035331,0.04807041651531725,0.5700005914125896
2.154911756515503,-0.4475116310554746,-0.19117910313535438,0.04457060443392495,0.0055398833827019975,0.05140374984865026,0.5733339247459598
2.1750242710113525,-0.44084496438940524,-0.1845124364687074,0.03790393776727172,-0.0011267832839646696,0.05807041651529722,0.5800005914148236
2.1950795650482178,-0.4341782485512146,-0.19117906678191693,0.031237294855787755,-0.007793259293565001,0.05694173363174312,0.5866672969340836
2.215182304382324,-0.44084491521653246,-0.18451240011520934,0.02821580382409089,-0.014459925960231669,0.0502750669651261,0.5933339635946946
2.2356679439544678,-0.4341782485507552,-0.17784573344856597,0.021549137157477388,-0.021126592626898335,0.04360840029842697,0.6000006302652591
2.255831718444824,-0.4308449942428395,-0.18117905814150995,0.024882427786722502,-0.024460234739419603,0.04027477431511892,0.6033335003071871
2.275883674621582,-0.43084492136643515,-0.18117905913437796,0.02488240174207971,-0.03112702697254749,0.03360748533347868,0.6099999169533361
2.2959227561950684,-0.4308449215666274,-0.17451239246992908,0.0182157351446628,-0.03779369363921416,0.026940818648329767,0.6166665859905154
2.3159923553466797,-0.4275115882332942,-0.1711790591365975,0.014882401811329465,-0.04112702697259675,0.023607485315174336,0.6199999193238571
2.3364181518554688,-0.4208449215666259,-0.16451239246993082,0.008215735144662652,-0.04779369363926342,0.016940818648507723,0.626666585990517
2.3564040660858154,-0.41417825489988486,-0.15784572580326386,0.009568685867055386,-0.054460360305930086,0.010274151981844145,0.6333332526568207
2.376422882080078,-0.40751158823328765,-0.15117905913659715,0.0029020192003961034,-0.061127026972596754,0.0036074853151745715,0.6399999193238125
2.396556854248047,-0.4041782548999543,-0.14784572580326383,-0.00043131413293723015,-0.0644603603059301,0.0002741519818412431,0.6433332526571458
2.416654348373413,-0.3975115882325162,-0.14117905912879516,-0.007097980799603897,-0.07112702709687022,-0.006392514499281861,0.6499999193318857
2.4367151260375977,-0.3908449202160787,-0.1411790530284031,-0.0075383014655254835,-0.07779369046710605,-0.013059290584914049,0.6566665741661585
2.4567952156066895,-0.38922506753085206,-0.14117904930680833,-0.008267923837753962,-0.08446038046317823,-0.019725949790064656,0.6633332429118033
2.4771900177001953,-0.39076719985984526,-0.13784571063827075,-0.011601257171087296,-0.08779369285768508,-0.023059407205551528,0.6666665755931717
2.4972846508026123,-0.38410053033647557,-0.14246359772124267,-0.018267923837753962,-0.09446016327774218,-0.016393712001760763,0.6733332280498816
2.5173773765563965,-0.37743386486785335,-0.14913027472454024,-0.011601257171087294,-0.10112696603969573,-0.02305986953178978,0.6799999086903776
2.537656307220459,-0.37076719607408026,-0.1557969247068898,-0.01064742548281033,-0.09446028127797076,-0.01639368194278942,0.6866665709993185
2.557605504989624,-0.367433862995046,-0.15246359346197258,-0.007314092149476996,-0.09779361965001492,-0.013060279112743819,0.6899999057443426
2.5776543617248535,-0.36076719373575855,-0.15246357351444534,-0.0007297800552116943,-0.10446022912042387,-0.006394064392047555,0.6966665626372381
2.5977447032928467,-0.3541005267440889,-0.15246357115281653,-0.0007297800552116939,-0.11112690531664916,0.0002726095975243985,0.7033332302924257
2.618136167526245,-0.34743385951441513,-0.1524635673353942,-0.0035446469698489115,-0.1177935696664884,0.006939248242097807,0.7099998955433885
2.6385819911956787,-0.3441005256201475,-0.15579689703357835,-0.0030780271930224063,-0.12112689731681917,0.010272552458894515,0.7133332266165009
2.6587257385253906,-0.34660265809484175,-0.1624635558380249,0.003588644572315841,-0.11446051395101375,0.013674088913668829,0.7200000754216188
2.6787939071655273,-0.3532693247607101,-0.15994644024506266,0.010255311238817247,-0.11192490655076555,0.007007422247032485,0.7266667420845754
2.6989035606384277,-0.35993599347906047,-0.1666131035435209,0.015790184449359708,-0.10525829257622188,0.0003408450965791984,0.7333334532376327
2.718971014022827,-0.3597875873980183,-0.16327977021015336,0.012456851116026374,-0.1085916259091561,0.0036741784286422746,0.7366667865709154
2.7390668392181396,-0.35632068859246585,-0.1632797702101404,0.005790184449503059,-0.10859162590915608,0.010340845095282452,0.7433334532406025
2.7591493129730225,-0.3563206482135413,-0.16994639800745331,0.005790198579597006,-0.10192501286032288,0.01700850262147395,0.7500000286680885
2.7792179584503174,-0.359653983909255,-0.1732245391373398,0.009123530943819286,-0.09859175819202008,0.02034205974858827,0.7533334232259112
2.799428939819336,-0.3663206558153581,-0.17989119633541711,0.01579019480606374,-0.09192526050764759,0.027009185613932705,0.7600002222784563
2.819493532180786,-0.37298732248148614,-0.17322452966875268,0.022456861472636192,-0.08525859384098093,0.03367585228061893,0.7666668889424955
2.8395087718963623,-0.37965398914855314,-0.16655786300208603,0.015790194806039166,-0.09192526050764759,0.04034251894726957,0.773333555611223
2.859635829925537,-0.3763206558157917,-0.16322452966875264,0.01245686147281516,-0.09525859384098091,0.04126488463138364,0.7766668889475931
2.8797695636749268,-0.36965398914942116,-0.15933242283320145,0.005790194806210122,-0.10192526050764757,0.045428347080429726,0.7833335556159907
2.8998615741729736,-0.3629873201341821,-0.16216285882312914,0.005790191709763189,-0.10192529677117154,0.04542837434970879,0.790000209541726
2.9200594425201416,-0.3629873276531489,-0.1621628525503962,0.005790194282195346,-0.10192580986931987,0.03876311322243576,0.7966672882256445
2.940180540084839,-0.3663206609864839,-0.15882951921706284,0.002456860948862374,-0.1052591432026532,0.03542977988910235,0.8000006215589885
2.9602482318878174,-0.3596539943209004,-0.1623178757652848,-0.004209805717575392,-0.11192580986931985,0.03526049121321261,0.8066672882317524
2.980327844619751,-0.3626026681571605,-0.16033533829594865,0.0024568609488222165,-0.1052591432026532,0.028593824546596203,0.8133339548913242
3.0004007816314697,-0.3659360014905345,-0.1570020049626149,-0.0008764723845024998,-0.10859247653598653,0.025433043382518002,0.8100006215582806
3.0205016136169434,-0.3659360014910652,-0.15033533829594103,-0.007543139051056488,-0.11525914320265318,0.019255007001494292,0.8033339548944038
3.040571451187134,-0.3592693348243252,-0.14366867162927555,-0.014209805717738628,-0.12192580986931983,0.012588340334830575,0.7966672882273751
3.060685873031616,-0.3526026681547288,-0.13700200496267817,-0.020876472384986765,-0.1285924765359865,0.005921673668317973,0.7900006215425378
3.080761432647705,-0.3492964014779862,-0.1336686716905415,-0.02420980579218803,-0.13192580986931982,0.0025883404604569006,0.7866672737119177
3.1008799076080322,-0.3426297345055707,-0.12700200324509492,-0.0308764724588547,-0.13859248752551123,-0.004078316259749919,0.7800006074138675
3.1212193965911865,-0.33596306713502017,-0.12041693159335808,-0.03754313912552137,-0.14525916027208277,-0.010745020218115912,0.7733339404424542
3.1411776542663574,-0.3292964001688805,-0.11375026329128402,-0.044209805792188035,-0.15192584195151734,-0.017411680145291094,0.7666672750136809
3.161280393600464,-0.32596306683642506,-0.11041692996295958,-0.04754313912552137,-0.1552591761887977,-0.020745013037437175,0.7700006083622613
3.1813647747039795,-0.3192963998382236,-0.10403607135034398,-0.05420980579218804,-0.16192585908422163,-0.027411678852390174,0.7766672766465299
3.2016944885253906,-0.3126297318498831,-0.09795995991854405,-0.06017959457541888,-0.1685925478565243,-0.034078433461332235,0.7766672805680076
3.221851110458374,-0.3092963991846517,-0.09462663000188412,-0.06255240448032665,-0.17192589541743106,-0.03741166203397586,0.7733339468827503
3.24198579788208,-0.30262972822345513,-0.10129327517131095,-0.06431942361840633,-0.17859261440608168,-0.044078739096209935,0.7674850942934817
3.262019157409668,-0.2959630618471208,-0.094626609927126,-0.07098609028507298,-0.18525930060420795,-0.050745343007100964,0.7741517614297453
3.2821109294891357,-0.2892963892090836,-0.10129324877434266,-0.07112944382212273,-0.19192604833430651,-0.04799927700604236,0.7808184647539578
3.302212953567505,-0.28262972505263484,-0.10795992659621784,-0.06446277715545608,-0.18525947076220217,-0.049506468087884586,0.7874851225089882
3.3223235607147217,-0.27929639145757895,-0.11129325872762585,-0.06112944382212274,-0.18192613462911103,-0.046173162712483416,0.790818457086166
3.3423917293548584,-0.2726297237726826,-0.11795992063005468,-0.06112944382212274,-0.18192614490398654,-0.039506573902433506,0.7974851293215597
3.362468719482422,-0.26596305777676915,-0.1246265903078904,-0.06112944382212274,-0.1819261808631623,-0.035592901527029805,0.8041517963135957
3.3826897144317627,-0.2626297242299018,-0.1279599226859906,-0.05779611048878941,-0.17859286885816716,-0.0350706871051738,0.8074851317800491
3.402792453765869,-0.25596305971713057,-0.1334176877070169,-0.05112944382212274,-0.17761653927357443,-0.04173712383986941,0.8141517927814711
3.4228641986846924,-0.24929639295568484,-0.12675102062686217,-0.05779611048878941,-0.18428322983367879,-0.048403762474477405,0.8208184617090375
3.442939043045044,-0.24262972813190237,-0.13290655288393308,-0.06446277715545608,-0.19094987048732584,-0.05507026064262103,0.8274851179031415
3.463050127029419,-0.2392963965949653,-0.12957322731017476,-0.06112944382212274,-0.19428319753485435,-0.05840341969216982,0.8308184412726218
3.483131170272827,-0.2326297296816654,-0.12290655960230304,-0.05661158616347652,-0.20094986939969692,-0.06507010628893889,0.8374851097483997
3.503206253051758,-0.2259630620878007,-0.11623988906641788,-0.05887884760402826,-0.20761657737367956,-0.07173681673413633,0.8441517853904634
3.523623466491699,-0.2192963954564986,-0.10957322254416174,-0.06554551427069492,-0.21428324675130142,-0.07840347802316253,0.8508184519104649
3.5437204837799072,-0.21596306220066316,-0.10623988951829695,-0.06887884760402825,-0.21761660075506392,-0.08173677766634706,0.85415178624697
3.5638058185577393,-0.20929639569388353,-0.0995732234717469,-0.0755455142706949,-0.22428328773026524,-0.08840340550490955,0.8608184530182887
3.584153890609741,-0.2026297292152268,-0.09290655751497139,-0.08221218093736156,-0.23094996978576193,-0.0950700364253889,0.8674851190585829
3.604053497314453,-0.19596306280523676,-0.08623989179679661,-0.08887884760402821,-0.2376166480744674,-0.10173666584338159,0.8741517839333036
3.6242082118988037,-0.19262972948087062,-0.0829065584964793,-0.09221218093736154,-0.24094998142712382,-0.10506999844520712,0.8774851171599825
3.6445555686950684,-0.18596306477706584,-0.0762398989193566,-0.09221218093736154,-0.24761660097997149,-0.11173652876725204,0.8841517571093777
3.664511203765869,-0.179296396881525,-0.06957322788789332,-0.09221218093736154,-0.2542833293236869,-0.11840324753859732,0.8908184442297301
3.6845099925994873,-0.17262973077314697,-0.06290656317337745,-0.0988788476040282,-0.2609499910670712,-0.12506986739833315,0.897485103425489
3.704923629760742,-0.16929639811898706,-0.059573232171241115,-0.10221218093736152,-0.26428331226866186,-0.12840315065367,0.9008184266456766
3.7250356674194336,-0.16262973241069983,-0.05290656873937215,-0.10887884760402818,-0.2709499550697674,-0.135069754715685,0.907485077724957
3.7451226711273193,-0.15596307013709904,-0.04623991668925566,-0.11177047578739698,-0.2776164451630015,-0.14173619674208138,0.9141516640042379
3.7652788162231445,-0.15400559263275387,-0.03957325454189699,-0.11843714245406363,-0.2842830860011347,-0.1484027745247729,0.9074849725871382
3.7853877544403076,-0.15067225924223437,-0.036239921023678415,-0.12177047578739696,-0.28761642124977094,-0.15173611084408598,0.9108183070189032
3.805417060852051,-0.14418267236517313,-0.036239927020412045,-0.12220109344942189,-0.2942830497962924,-0.158402663085878,0.917484939263127
3.8254973888397217,-0.1375160036478778,-0.03755506696150765,-0.12292198267857764,-0.30094980067324173,-0.15840275802307624,0.9241516483850664
3.8458874225616455,-0.13418266674821447,-0.03573868810282454,-0.12625531601191098,-0.3042833026908247,-0.15506956937711577,0.9274850556067481
3.8658335208892822,-0.12751600030523008,-0.042405355450665844,-0.11958864934524432,-0.2976166282424266,-0.14840289192806605,0.9341517180776885
3.885910749435425,-0.1341826686527397,-0.04907202716687216,-0.12625531601191098,-0.3042832463803086,-0.1417361383230528,0.9408183560393338
3.9062700271606445,-0.128635160686987,-0.05573870335842033,-0.11958867409791091,-0.29761656720814117,-0.13506945355749628,0.9474855824950551
3.926297664642334,-0.13196849441242237,-0.059072037874492986,-0.11625534076457758,-0.2942832231358633,-0.13840276720574687,0.9508189095939944
3.9463629722595215,-0.13863515762982037,-0.06573869391686293,-0.10958867409791093,-0.2876166535985651,-0.14198298907872217,0.9574856349806204
3.9664037227630615,-0.1453018246315634,-0.07240536162780933,-0.10292200743124427,-0.2809499766825384,-0.14553832474889766,0.964152295871884
3.986724615097046,-0.15196849157055098,-0.07907202915816784,-0.09625534076457762,-0.27428330165538006,-0.1522049768416694,0.9708189576742914
4.006618499755859,-0.15530182518280491,-0.08240536339553793,-0.09292200743124429,-0.27094995906502495,-0.1555382950150315,0.974152285674416
4.0267205238342285,-0.16196849242872266,-0.08907203197212041,-0.08625534076457764,-0.26428327201058466,-0.16220492985869836,0.9808189406822319
4.048429012298584,-0.16863515941156432,-0.09573869971200696,-0.07958867409791098,-0.2576165931226595,-0.16887157887531895,0.9874856004370839
4.068891763687134,-0.16863515941156432,-0.09573869971200696,-0.07958867409791098,-0.2576165931226595,-0.16887157887531895,0.9874856004370839
4.088724851608276,-0.17530182571205463,-0.1024053651246546,-0.08625534076457764,-0.2509499443464921,-0.17097574290593784,0.994152275592498
4.108799457550049,-0.16863516186596256,-0.09573870835046454,-0.09292200743124429,-0.2576164258184065,-0.16430896860701796,1.0008188702369758
4.128870725631714,-0.16196849554462817,-0.10240537618234218,-0.08625534076457762,-0.26428307919869476,-0.1709756159370156,1.0074855292873388
4.1492204666137695,-0.15863516223180246,-0.09907204291705093,-0.08958867409791095,-0.2676164115891367,-0.17430894826991286,1.010818862152071
4.16912055015564,-0.1519684959944182,-0.09240537765971961,-0.0962553407645776,-0.27428306055519786,-0.18097559256771942,1.0174855190383745
4.1891868114471436,-0.14530182981803755,-0.08573871257437214,-0.10292200743124426,-0.2809497058197925,-0.18764223502019028,1.0201165895763549
4.209445476531982,-0.13863516434508627,-0.0790720496772149,-0.10958867409791091,-0.2876163152631262,-0.1943088475610052,1.0161512003665725
4.229538917541504,-0.13530183162212486,-0.07573871824718943,-0.11292200743124424,-0.2909496197708145,-0.19764215319679668,1.012817851489031
4.249628067016602,-0.12863516571950093,-0.0690720539407289,-0.1195886740979109,-0.2976162495994708,-0.20430878598277702,1.0061511649820898
4.269704818725586,-0.12196849985384225,-0.06240538969307606,-0.12625534076457756,-0.30428287613038835,-0.21097541870459322,0.9994844765783345
4.290285110473633,-0.11530183409127909,-0.055738725714736155,-0.13292200743124422,-0.31094949642265834,-0.21764204810805163,0.9928177846444916
4.310405731201172,-0.11196850087230899,-0.052405392718382876,-0.13625534076457754,-0.3142828243149907,-0.22097537646008472,0.9961511147863402
4.330477714538574,-0.10530183537696444,-0.045738729477781535,-0.1429220074312442,-0.320949429510537,-0.22764199612359254,1.002817747699398
4.350824356079102,-0.09863517129774539,-0.03907207025034144,-0.14958867409791085,-0.3276159533125618,-0.23430856418052115,1.0028176702432825
4.370682954788208,-0.09530183921299824,-0.03573874046821451,-0.15292200743124418,-0.33094921903019575,-0.23764184914660336,0.999484299084044
4.390790224075317,-0.0886351739832591,-0.02907207783237825,-0.15958867409791083,-0.3376158067488534,-0.24430846095909522,0.9928175878133764
4.410871982574463,-0.08196850891373332,-0.022405415585063107,-0.16625534076457749,-0.34428238454585597,-0.25097506735933184,0.992205199433518
4.430949449539185,-0.07530184268757562,-0.029072083426147272,-0.1717519657707421,-0.3509490277297638,-0.2444228426583692,0.998871852688035
4.451380968093872,-0.0819685121315524,-0.022405424129616096,-0.16508529910407543,-0.35761554733918977,-0.25108940578695804,1.0055384346045084
4.471487522125244,-0.07863517568984069,-0.01907208259904266,-0.16841863243740876,-0.3609490446138582,-0.24775618858880052,1.0088718635792269
4.491551876068115,-0.07196851086638471,-0.019072087414413123,-0.16841863243740876,-0.36508475993657474,-0.24108945336221566,1.0155384746790632
4.511637210845947,-0.07196851267352623,-0.01907209205994533,-0.16521968688632918,-0.36914023362403525,-0.23501722041427414,1.0222050895323893
4.531904220581055,-0.0753018486535404,-0.015738765441136626,-0.16534063589035755,-0.37247344228793383,-0.232552172641265,1.0255383503550728
4.552046775817871,-0.06863518228398745,-0.02240543286062716,-0.1586739692236909,-0.36979983172194536,-0.22588549609673914,1.032205009684949
4.57214879989624,-0.0753018512344566,-0.01573877192169145,-0.16534063589035755,-0.3764663950790986,-0.2266722862975644,1.0388716173073025
4.592238903045654,-0.06863518353953744,-0.02240543599803342,-0.1586739692236909,-0.3831330913736286,-0.2200056682180898,1.0455383098814002
4.612341642379761,-0.0753018542428226,-0.015738779135958846,-0.15200730255702424,-0.376466252586493,-0.22600824891060825,1.0522048784914082
4.632410526275635,-0.07196851799316324,-0.012405438533729832,-0.15534063589035757,-0.37979971461082374,-0.22267502516731413,1.048871619334088
4.652509450912476,-0.0653018531297551,-0.012405442989228679,-0.15534063589035757,-0.3864663023181925,-0.21600829131716195,1.0488715744008876
4.672621488571167,-0.06530185494955393,-0.012405447385779013,-0.15534063589035757,-0.3931328935450793,-0.21600822390423147,1.0555381983486833
4.693264961242676,-0.06863519009615794,-0.009072118358369168,-0.1586739692236909,-0.3964661530274383,-0.21934149061618866,1.058871489752418
4.71327805519104,-0.06196852572390239,-0.010317833836728393,-0.15830362625402233,-0.40313272400810257,-0.2260080742806419,1.0655381019041796
4.733648300170898,-0.05530186492738881,-0.003651180772198017,-0.15163695958735568,-0.4097991491849325,-0.23267452741581027,1.0722046279040698
4.753549337387085,-0.04863519817093719,0.003015486108620523,-0.15830362625402233,-0.41646581945586886,-0.2393411973387596,1.0655379632467712
4.782635688781738,-0.04863519817093719,0.003015486108620523,-0.15830362625402233,-0.41646581945586886,-0.2393411973387596,1.0655379632467712
4.802692174911499,-0.041968532117032005,0.009682151386170929,-0.164970292920689,-0.4231324599969707,-0.2460078418919945,1.0595173620055147
4.822786092758179,-0.03530186893366983,0.016348810243275592,-0.17163695958735564,-0.429798975743647,-0.2526743830256237,1.0661839379006595
4.842845678329468,-0.028635209489314375,0.023015460851700975,-0.1783036262540223,-0.4364653253896099,-0.2593407896537422,1.0728504125473435
4.863096475601196,-0.025301876920702123,0.026348792498104144,-0.18163695958735562,-0.43979862470479725,-0.26267409548135995,1.0761837251553783
4.8830437660217285,-0.018635214561411415,0.03301544971603809,-0.1881543846203269,-0.4464650983978205,-0.2693406070554272,1.0828502735579044
4.903126239776611,-0.011968550079167299,0.03968211163816674,-0.19397979582661778,-0.4531316656116311,-0.27600719503494625,1.0895168788016583
4.9234864711761475,-0.0086352189921082,0.04301544014001601,-0.19664355163557282,-0.45646489526993866,-0.2793404472362311,1.0928501475090358
4.943594932556152,-0.00196855330633863,0.0496821047179534,-0.20331021830223947,-0.4631315160418058,-0.2860070783346837,1.099516785288101
4.963695764541626,0.004698112841720998,0.04301543694692601,-0.19880655660901655,-0.4697981579032113,-0.2925078397231967,1.106183436491064
4.983781099319458,0.011364772073275626,0.04968208814013079,-0.1921398899423499,-0.47646447879594744,-0.287722066758037,1.1128498820968393
5.003900527954102,0.00803143993245083,0.046348757264172,-0.18880655660901657,-0.47808407761462285,-0.2843887766545811,1.1161832498546078
5.023979187011719,0.001364772340101321,0.046348755366932365,-0.18880655660901657,-0.48287495476728626,-0.27772207641295416,1.1228498902835113
5.044072866439819,0.0013647710344525002,0.046348752734428095,-0.18880655660901657,-0.482874899022963,-0.27105536278823966,1.1295165216194305
5.064164161682129,0.004698103185241716,0.04301541702237751,-0.18547322327568325,-0.47954151635909525,-0.2677219870441134,1.132849823861904
5.084419250488281,-0.0019685635691991795,0.03634875021021385,-0.1921398899423499,-0.48620818079140976,-0.26105531735353216,1.1395164890379876
5.1043994426727295,-0.008312018521813479,0.02968206841960344,-0.18547322327568325,-0.47954121269150507,-0.254388378302835,1.1461829663705634
5.124617099761963,-0.014978686304311309,0.02301539952410634,-0.1788065566090166,-0.47287450336777187,-0.24772167216201862,1.1528496065360616
5.144649028778076,-0.018312018665786217,0.0196820681418571,-0.18131436408764892,-0.47403931514543024,-0.24438837317116907,1.1561829626182576
5.164698839187622,-0.018312021625318135,0.013015395590705634,-0.1802380574850847,-0.4717541665393579,-0.23772160232990558,1.1628495618848884
5.184777498245239,-0.01831202324761859,0.008104949808489071,-0.17357139081841805,-0.4650874420295189,-0.23772154531264333,1.169516192957664
5.204923629760742,-0.018312024306156083,0.010018882866205697,-0.17357139081841805,-0.46508740381342983,-0.24438817484206352,1.1761828362658588
5.225400447845459,-0.014978691927909293,0.013352214267475742,-0.17690472415175137,-0.4684207014408553,-0.2477214745071605,1.1795161475765936
5.245517015457153,-0.008312029592752072,0.010645480118584398,-0.17023805748508472,-0.4750872042889195,-0.2543879885903434,1.186182712714823
5.265578031539917,-0.0016453633708618165,0.017312145925877133,-0.1755853056071176,-0.48175385333081727,-0.26105463944393015,1.1795160347045701
5.285688400268555,0.005021302123897817,0.02397881029752262,-0.18225197227378426,-0.48842047452883136,-0.2677212646616841,1.1728493391923924
5.306092262268066,0.011687967087707161,0.030645473655142662,-0.1889186389404509,-0.4950870740549745,-0.2743878709086542,1.166182629655876
5.326173305511475,0.015021300406871468,0.033978806961084386,-0.19225197227378424,-0.49842040682338534,-0.2777212037381124,1.1628492959604044
5.346304893493652,0.02168796552205789,0.04064547064167141,-0.1989186389404509,-0.5050870111233982,-0.2843878150759134,1.1561825891377964
5.366402626037598,0.028354630370561573,0.047312133839853096,-0.20533095137697221,-0.5117536033893808,-0.2910544165297413,1.1561825408581576
5.386784791946411,0.03168795973871498,0.05064545966812531,-0.2081020325698414,-0.5150867718532898,-0.29438760679497616,1.1595157664645317
5.406919717788696,0.03835462654629626,0.05731212661466923,-0.21476869923650804,-0.5217534434794273,-0.30105427843294535,1.1528491030056671
5.426978826522827,0.04502129110765915,0.06397878935821535,-0.2214353659031747,-0.5284200198273742,-0.3077208680075794,1.146182376469196
5.447198390960693,0.051687955516668695,0.07064545184893366,-0.22810203256984135,-0.5350865881453261,-0.31438745131116486,1.1528489774924207
5.467165231704712,0.05835461745061987,0.0689840095477981,-0.2214353659031747,-0.5417530471312475,-0.3210539421727086,1.1595155047135866
5.487256765365601,0.061687952504723684,0.07231734601690866,-0.22476869923650802,-0.5450864559413909,-0.324387339653369,1.1561822223338296
5.5073325634002686,0.06835461404261065,0.0730186888153241,-0.22466088903448606,-0.5517528955439996,-0.3310538139178898,1.1528136578370527
5.527420997619629,0.07502127732077991,0.07398323320887473,-0.2247501188044892,-0.5584194117650545,-0.33772035275517454,1.1561153234206913
5.5474841594696045,0.08168794165457516,0.08064989571698351,-0.23141678547115585,-0.5650859744870625,-0.33772026423954593,1.1627819187386392
5.568260431289673,0.08502127182859646,0.08398322348117404,-0.23475011880448918,-0.5684191675677185,-0.3343868103107852,1.1661151555406288
5.588425874710083,0.09168793461777516,0.07731655006537438,-0.22808345213782252,-0.5750856646376524,-0.3410533289336396,1.1727817052687488
5.608487606048584,0.08502126470275027,0.08398321113995526,-0.23475011880448918,-0.5817521884565507,-0.3477198704819745,1.179448272681477
5.628592491149902,0.09168793064449562,0.08615687950979463,-0.24141678547115583,-0.5884188247379659,-0.3410531760683703,1.1861149183180097
5.648676872253418,0.09502126338270744,0.08282354517096455,-0.2380834521378225,-0.5850854658325747,-0.33771981980500315,1.1894482338664771
5.668754816055298,0.09502125912132132,0.08282353795104416,-0.23793296243475193,-0.5850852842821291,-0.3379246260051024,1.1961147745578267
5.689204692840576,0.09502124600492029,0.0828235157390156,-0.23746418836865507,-0.591751374976013,-0.3379241277387501,1.2027810487939223
5.709113121032715,0.09502124204484637,0.07615684245564419,-0.23079752170198842,-0.5917512088374023,-0.3379239759113752,1.20944759991062
5.729804515838623,0.09168790482954257,0.07282350265727267,-0.2274641883686551,-0.5884177140622858,-0.3412571608837636,1.2127808208084285
5.749874830245972,0.0983545681946044,0.07949016383173473,-0.23413085503532174,-0.595084243714088,-0.3345903680707738,1.219447392080084
5.769927740097046,0.10502123188845687,0.07282349226240019,-0.2274641883686551,-0.6017507891708245,-0.3279235881273752,1.226113974458682
5.79002571105957,0.10537269066740086,0.07949015141294098,-0.22079752170198844,-0.6014047606386563,-0.3328453087886256,1.2327805140696129
5.810124635696411,0.10870602428485783,0.08282348521073918,-0.22413085503532176,-0.6047381053314228,-0.3361786529512876,1.22944718864231
5.830200433731079,0.11537268662165129,0.08949014482062526,-0.23079752170198842,-0.6114045974512894,-0.3428451535823926,1.2294470668250228
5.8502984046936035,0.12203934405507988,0.09615679654429361,-0.23746418836865507,-0.6180708841090792,-0.34951146078769696,1.2315684609789188
5.870384454727173,0.1287060059879758,0.1028234555799,-0.24413085503532173,-0.6247373537361101,-0.35617794138358017,1.227144497382157
5.890934705734253,0.13203933437530374,0.10615678097866152,-0.24746418836865505,-0.6280704779643588,-0.35951107776943725,1.223811015913101
5.911032199859619,0.13192953241886032,0.1128234394243439,-0.25413085503532173,-0.6347369236546465,-0.36617753674235487,1.217144191980316
5.93116021156311,0.13859619209774462,0.10615676168337475,-0.25583856524382514,-0.641403287750056,-0.37284391843874154,1.22381064205685
5.951233148574829,0.13192951965089122,0.11282341925415441,-0.26250523191049185,-0.6480697019893363,-0.379510346861868,1.2304771270683217
5.9713006019592285,0.13526285714656225,0.10967977922796418,-0.2642174618961318,-0.6514032183776853,-0.3761771864037634,1.2338105924820608
5.991510629653931,0.1352628468381285,0.10351714739567154,-0.26242513554987446,-0.651402778345818,-0.37617676159462216,1.2404769415938
6.0115227699279785,0.1325588328653048,0.10351713985782535,-0.25575846888320775,-0.6456009473682545,-0.37617656192413096,1.2471434566307211
6.031770467758179,0.1297918852652218,0.10351712987169569,-0.24909180221654106,-0.64004589302843,-0.3695096329133161,1.2471432573828534
6.051883220672607,0.1264585505139912,0.10018379430773593,-0.24575846888320774,-0.6367124990237293,-0.36617624190673564,1.2438098805560702
6.072129249572754,0.11979188189115413,0.10685045791053821,-0.24811743719512896,-0.6433790837208444,-0.3595094963496534,1.2371431553193335
6.092123508453369,0.11312521385085098,0.10018378910194926,-0.2414507705284623,-0.6367123607345898,-0.35284277474979026,1.2304764485445758
6.11220383644104,0.10645854464404426,0.10685045180657118,-0.24778510960758934,-0.6384531322089406,-0.34617600739481763,1.2368813196898407
6.132287502288818,0.10829274335524273,0.10351711827073977,-0.24445177627425602,-0.63511979366785,-0.34284266891776294,1.2391191064286273
6.152367830276489,0.10661018743439425,0.10351711583815999,-0.23778510960758936,-0.6284530652377235,-0.33617594109552307,1.237799741241518
6.1725146770477295,0.09994351972810317,0.10351711420291103,-0.2311184429409227,-0.6217863576822003,-0.3299989577846481,1.2311330458631928
6.192538261413574,0.09327685180283385,0.10351711220112401,-0.2311184429409227,-0.617798557519188,-0.3241063264718811,1.224466344980431
6.213045597076416,0.08994351742127958,0.10685044385921809,-0.23445177627425604,-0.6172095406737036,-0.3207729529668072,1.2211329836029448
6.233194351196289,0.09661018301393434,0.10018377546950485,-0.22778510960758938,-0.6105428330923053,-0.3141062454314544,1.2185518356556935
6.253257989883423,0.08994351505665386,0.10685044004095773,-0.22111844294092273,-0.6038761169488903,-0.32077286311984815,1.2118851349720392
6.273348093032837,0.0832768478099754,0.11351710574162474,-0.22778510960758938,-0.5972094271039076,-0.31975649250812066,1.2052184524384446
6.2933502197265625,0.08491444715126537,0.12018377093860148,-0.23445177627425604,-0.6038760587039329,-0.31308979205675386,1.198551761819723
6.313442945480347,0.08613617105511062,0.11685043789661968,-0.23614301281709563,-0.6055411984021982,-0.3164231321235589,1.19521843319362
6.333516836166382,0.0839023830194288,0.11685042797982023,-0.2409984590389846,-0.6103729139167672,-0.32308956807300593,1.1885516043116162
6.353620290756226,0.08056904875146662,0.12018375978826878,-0.24433179237231792,-0.6137062101070389,-0.3264228654369663,1.185218245376966
6.37378191947937,0.08723571185623584,0.11351708739393565,-0.2509984590389846,-0.6203727362813466,-0.3248745000626496,1.1918848146447965
6.393816232681274,0.08548613559114772,0.10685041700972947,-0.24433179237231795,-0.6137059784848826,-0.32691482959419454,1.198551418077459
6.413887977600098,0.0788194680690962,0.11351708230516569,-0.2509984590389846,-0.6203726117649438,-0.32024813005183916,1.2052180616146941
6.433948040008545,0.08548613368900453,0.1068504139652235,-0.24433179237231795,-0.6137059050277002,-0.31358142341001277,1.2118847006178934
6.4540488719940186,0.08215280007612662,0.11018374685029413,-0.2414369482200013,-0.6170392277582484,-0.31474728695794063,1.215218026653069
6.474144697189331,0.08215280046831423,0.1168504141414807,-0.24216492181624966,-0.623705909242264,-0.3124632564056672,1.2152180368771162
6.494243860244751,0.08881946434957977,0.1235170764202945,-0.24216492181624966,-0.630372473036447,-0.3124631502255514,1.2085512993646084
6.514780521392822,0.09215279578750575,0.1268504067820976,-0.2390122461820185,-0.6337057363533548,-0.31579641093141786,1.2052179177051543
6.53489875793457,0.09881945920171184,0.13351706838433985,-0.24567891284868515,-0.6403722806693188,-0.32246295122507174,1.1985511660973311
6.555017948150635,0.10548612435757396,0.14018373270791548,-0.2523455795153518,-0.6470388898690344,-0.32912955869939664,1.191884459386282
6.57514214515686,0.11215278971371588,0.14685039735426791,-0.2590122461820185,-0.6537055058210817,-0.33579617332405143,1.1852177571766194
6.5951926708221436,0.11881945499456949,0.15351706189523265,-0.2656789128486852,-0.6603721180262857,-0.3424627842546891,1.1785510521458356
6.615360736846924,0.1221527882420601,0.15685039509720125,-0.2690122461820186,-0.6637054479602108,-0.34579611411268446,1.181884383078373
6.635425329208374,0.1288194531419499,0.16351705906710215,-0.2718268604729659,-0.6703720440336494,-0.3524627086937009,1.1818843330807942
6.6555116176605225,0.1288194483693581,0.1701837184783018,-0.2746933466681518,-0.6770385177976741,-0.3591291783662429,1.175217529249578
6.675917625427246,0.1254861134541301,0.1735170494174817,-0.27802668000148517,-0.6803717863219699,-0.36246244549490814,1.171884149631576
6.696343660354614,0.13215278542929257,0.16685039079367284,-0.2846933466681519,-0.6870386731423378,-0.3557960028660046,1.177968313429116
6.716277360916138,0.1254861100432805,0.16018371116472419,-0.27802668000148517,-0.6803716609922603,-0.3491289736360448,1.1846347329281361
6.73637580871582,0.11881944364712155,0.153517044922155,-0.2846933466681519,-0.6870383394333685,-0.34246231839442054,1.19130140796387
6.756454706192017,0.11548610096215277,0.15018369789369415,-0.2813600133348185,-0.6837046519960276,-0.33912860262731775,1.1946344883493394
6.7765960693359375,0.10881940217342016,0.14351704123153514,-0.27627701662487986,-0.6837043265028158,-0.3324615417900688,1.2013002319426465
6.796642541885376,0.10215277203716797,0.13685033956641374,-0.2713691246130319,-0.6837043265028158,-0.325794938453036,1.2079679487970534
6.816812515258789,0.09548607062365103,0.13558398798040713,-0.27136906689008056,-0.6837040181189448,-0.3191278835731938,1.2146336744744235
6.837195158004761,0.0921527714889844,0.13744422731250655,-0.2747024758323119,-0.6870373514522781,-0.31579460481062765,1.2179679454341699
6.857275724411011,0.09881950278402656,0.1307775021228691,-0.26803595035572797,-0.6803706847856115,-0.30912803774685355,1.2246363500849504
6.877338647842407,0.0921528526609652,0.13744413358970348,-0.2613693380571473,-0.6870370586424921,-0.30438559832298323,1.2203762749548477
6.897470951080322,0.08548623767664298,0.13077744541334416,-0.2547027579312959,-0.6803707245282655,-0.2977193864109373,1.2137108917200865
6.917570352554321,0.09215291318118184,0.1374441046850199,-0.26136944266275786,-0.6870373911949321,-0.2910527307653736,1.2070444350616072
6.937739372253418,0.09548627515603493,0.1341107471038747,-0.25803616803025103,-0.6837040578615988,-0.2877194350091372,1.21037846719603
6.958128929138184,0.09548634380269565,0.13411069023209307,-0.25136963916215294,-0.6837040578615988,-0.2877195219493288,1.2170467768400017
6.97799015045166,0.09548639575276911,0.1407773359539044,-0.25136972355982506,-0.6903710315681563,-0.29438662276257166,1.2170479957367197
6.998007297515869,0.10215308739145829,0.1474439605527051,-0.25328380876314854,-0.6970374207982817,-0.30105299300055993,1.2103819721373148
7.018317222595215,0.10548645044998052,0.15077726757899976,-0.25200647746074606,-0.700370754131615,-0.3043863676583579,1.2070493795470962
7.038457155227661,0.10548645044998052,0.15077726757899976,-0.25200647746074606,-0.700370754131615,-0.3043863676583579,1.2070493795470962
7.058507442474365,0.10881975483822057,0.15411062690628055,-0.2553397489619711,-0.7037040874649483,-0.3077196599686677,1.2037153193409864
7.078589677810669,0.11548640196568868,0.16077726641838883,-0.2620064156286378,-0.7103701210244907,-0.31438555373648075,1.1970482051087523
7.098670482635498,0.11881972528258025,0.16411058588450678,-0.26533974896197116,-0.7137031253925924,-0.3177184869338671,1.1937146383776254
7.118785381317139,0.1254863714285391,0.17077722424119587,-0.27200641562863787,-0.7203691090856565,-0.32438432552444096,1.1870474854232027
7.139230012893677,0.13215301693063589,0.17744386183269512,-0.2786730822953046,-0.7270350590702801,-0.3310501264028705,1.1803803061170117
7.159153699874878,0.13881970930036783,0.18411050246655405,-0.28533981083659055,-0.7337017257369467,-0.3377168367188653,1.1737143501938962
7.179224729537964,0.1454863791696271,0.19077714165940982,-0.29200651039675984,-0.7403680441277096,-0.344383107720756,1.1803811403250912
7.199303388595581,0.14881970393556765,0.1941104633228573,-0.29132496526833873,-0.7437010739021152,-0.3477160767302072,1.1770475872656747
7.219403266906738,0.1545319615654671,0.20077714836124724,-0.29404483294201983,-0.7503673908287883,-0.3543822689309546,1.1703798224918835
7.239453315734863,0.1600063588915179,0.20077715504096588,-0.30071148372330897,-0.7570340574954549,-0.3543822571487495,1.1703796468458154
7.259795665740967,0.163339706339885,0.1974438060476419,-0.3040448543635248,-0.7603673908287882,-0.3510489506422587,1.1737133929488972
7.280172348022461,0.1566730744563886,0.19077710099853276,-0.2973782793929264,-0.7570262905231542,-0.3547692630520488,1.1803810663852186
7.300117254257202,0.1500064452883694,0.18411041665955416,-0.29358634384452753,-0.7503599667166124,-0.3481030666693479,1.1870487886362733
7.3202478885650635,0.1433398097383673,0.17744371654088514,-0.2869197566643881,-0.7436933000499458,-0.3414364562777956,1.1937163416373788
7.340317010879517,0.1400064418925406,0.17411041955726203,-0.2881920702236549,-0.7470266333832791,-0.33810306238156035,1.1970487078749068
7.360454559326172,0.13333978282227765,0.1674437205380874,-0.2860039499164747,-0.747026290543785,-0.3365944450824461,1.2037156196748642
7.380509853363037,0.12667314860532422,0.16077701995427154,-0.279337363738143,-0.7403596238771184,-0.33490381656561696,1.2100031728144984
7.400584936141968,0.12333982905228975,0.15744367247363814,-0.2760040639070788,-0.7370262905437851,-0.3315705061799756,1.2126614818958905
7.420740127563477,0.11667315763266493,0.1507770106557702,-0.2711639588964364,-0.7436929572104517,-0.32490383132350603,1.2193280178310906
7.441073656082153,0.11000649502593651,0.14411031709062694,-0.26449732487947075,-0.7370259727741657,-0.31823677762124075,1.2259948127224731
7.460973501205444,0.11449698820915157,0.15077698155877461,-0.27116402690443414,-0.7436929411398415,-0.31157052244447,1.2326620820354512
7.481053829193115,0.11783031189735696,0.14744363566890084,-0.2678306935711008,-0.7403593148258092,-0.314903467603392,1.235995204152637
7.501181602478027,0.12250452992265182,0.14744364872229246,-0.2678306260390076,-0.7403589495630668,-0.32156961348998897,1.2359941975196114
7.521270275115967,0.12704472384868623,0.15411031288078425,-0.274497327335841,-0.7470256878918422,-0.32823673797229297,1.2359947569104204
7.5413243770599365,0.13037808143804316,0.15744362165970566,-0.27753190581634535,-0.7503590212251755,-0.33157010934159903,1.2393287242718032
7.561557769775391,0.13704477962048014,0.16411025575476268,-0.2708653159538969,-0.7570256878918421,-0.3382368268272035,1.2326628926391765
7.581505537033081,0.14371144524536753,0.1707769232997443,-0.2775319805761615,-0.7636923545585087,-0.3449034922796095,1.2259962026556495
7.601593971252441,0.15037814264955404,0.17744355637604442,-0.2841987258767692,-0.7703590212251753,-0.3515702122289933,1.2193303789897245
7.6216721534729,0.1537114915247843,0.1807768723826469,-0.28753209980567423,-0.7736923545585086,-0.3549035732866324,1.2159974787230625
7.642053842544556,0.1603781896002434,0.18744350333794688,-0.2941988502371993,-0.7803590212251752,-0.3615702975787068,1.2093317009951972
7.6620707511901855,0.16704488658445307,0.19411013465591034,-0.3008655999712964,-0.7870256878918418,-0.3682370218753547,1.209332575998044
7.682058811187744,0.1737115866394275,0.19705775088215935,-0.300865694069964,-0.7936923545585084,-0.37490375438740736,1.2093335598051511
7.703024864196777,0.177044936977491,0.19671062278362691,-0.29753240934667297,-0.7970256878918417,-0.37823712186798264,1.206000731008005
7.723177194595337,0.17578898166457,0.20337728573318237,-0.3041990847360876,-0.8036923545585083,-0.3849037947871056,1.205897817060998
7.743255376815796,0.18245563431945347,0.1967106369436609,-0.31086570986575895,-0.8103590212251749,-0.3782370980539087,1.2125640543347775
7.763352394104004,0.17578901136977698,0.19004391548323807,-0.30419917219559617,-0.8036923545585083,-0.38490385317823916,1.2192320227190936
7.783422231674194,0.17245566426609032,0.19337726624390933,-0.30753246479030943,-0.800359021225175,-0.38157049115182545,1.2198285884176545
7.803507089614868,0.16578902892738198,0.19337722735554314,-0.30753255646503935,-0.7936923545585084,-0.3749038890145082,1.2170335261745684
7.823586463928223,0.1591223946597548,0.18671052148111597,-0.3008659823048541,-0.7870256878918418,-0.36823728709983927,1.2105544453904242
7.843819856643677,0.15245575856915272,0.18004381872406378,-0.2941994005725253,-0.7803590212251752,-0.3615706794078825,1.2105553357036525
7.863846063613892,0.1491224411329233,0.1767104669857172,-0.2908661104813415,-0.7770256878918419,-0.3582373759158071,1.213889125010912
7.884054899215698,0.14245581188286693,0.17004375765884455,-0.28419954385955415,-0.7836923545585085,-0.35157077740159687,1.2205568458604552
7.904062509536743,0.135789152203038,0.16337706074139338,-0.2775329199623108,-0.7770253756158705,-0.3449037267017886,1.227223725686521
7.924131870269775,0.12912252133059993,0.15671035490319465,-0.27086634472264687,-0.7777298901672817,-0.3382371192323789,1.2338913427414793
7.944217920303345,0.12578917586785135,0.1533770063537021,-0.2675330113893135,-0.7743961745370987,-0.3349032711656362,1.2353245437404063
7.964306354522705,0.1191225586842718,0.14671028749897433,-0.2611853379639274,-0.7743961745370987,-0.32823668089182806,1.2399493020337107
7.9844231605529785,0.11245594628155087,0.14004356461722256,-0.25513911186302607,-0.7743961745370987,-0.3215700927382171,1.2466172960131685
8.004494428634644,0.10912262999927384,0.13671021391268018,-0.25180581896867954,-0.7710628412037654,-0.3182367833049567,1.2499510387234034
8.024636030197144,0.115789326570964,0.1433768797634157,-0.25847252518176805,-0.7777298850947277,-0.31157066917843224,1.2566183780780986
8.044717073440552,0.1224559970348499,0.1367101798457401,-0.25180589829977534,-0.7710628446983904,-0.31823681958902456,1.2632851709411497
8.064761877059937,0.12912269031014492,0.14337684109963908,-0.2584726052964954,-0.7777297904463282,-0.32490390196897806,1.2566191165493272
8.084860801696777,0.13245605057866514,0.14671014659071424,-0.25976149995807113,-0.7810631237796615,-0.3282372738785605,1.2599531044611894
8.104933023452759,0.1391227203369938,0.153376810309439,-0.264254780627771,-0.7877297904463281,-0.3349039445092608,1.2599531756691784
8.124990701675415,0.1457894223804382,0.16004343852846126,-0.2709215364502816,-0.7943964571129947,-0.3415706655391171,1.2532874019122018
8.14511775970459,0.1491227735678864,0.16337675204834726,-0.2742549157361784,-0.797729790446328,-0.3449040271498112,1.2499545270233057
8.165253639221191,0.15578947624514244,0.17004337792020963,-0.2809216770589729,-0.8043964571129946,-0.35157075256395937,1.2432888007341065
8.185306787490845,0.16245617929107908,0.1767100022487254,-0.28758844205839557,-0.8110631237796612,-0.35823748090312657,1.2366231051610033
8.20536732673645,0.16578953093879248,0.18004331384124084,-0.2909218259369658,-0.8143964571129945,-0.3615708461668229,1.23329026863342
8.225445747375488,0.17245623285214223,0.18670993786200704,-0.2975885918763297,-0.8210631237796611,-0.36823757593481965,1.2332912393044233
8.245500564575195,0.17912290949414755,0.19337657120655785,-0.30202500099800456,-0.8277295027889603,-0.37490387978559475,1.2332915416918053
8.266197681427002,0.1824562663898127,0.19670987471248766,-0.30301779079374863,-0.8310628361222936,-0.3782372579448425,1.229958879808637
8.286202669143677,0.1891229048698623,0.2033765567452292,-0.3086925744678777,-0.8377292173482971,-0.38490349143446306,1.2232914265483112
8.30629825592041,0.19578959927677514,0.21004320894654524,-0.31535930007131274,-0.8443961886156235,-0.39157061821586453,1.2166255498813336
8.326343059539795,0.20245630334171927,0.2033764915838916,-0.3086927516968554,-0.8510628552822901,-0.3982373622507956,1.2232933325373962
8.346463918685913,0.20578962110993892,0.20670984644507567,-0.3120260352308629,-0.8543961886156234,-0.40157066302467637,1.2266262000240133
8.366533994674683,0.21012852117472375,0.20670979058480066,-0.31202616478271467,-0.86106285528229,-0.40823741464921304,1.2332940707778643
8.386613130569458,0.21436682813138788,0.2067097891046294,-0.31202616857719545,-0.8677295219489566,-0.4082374171675612,1.239960775815633
8.407041072845459,0.21770018138370031,0.21004309361231047,-0.3153595683418936,-0.8710628552822899,-0.404904126644343,1.2432947131784242
8.4272940158844,0.22036929553930162,0.21670971919855525,-0.3086929739109911,-0.8777292347074742,-0.398237089984624,1.2499618053019372
8.447275400161743,0.22703593410292855,0.22337640527825922,-0.31162504301971816,-0.8843956300350864,-0.3961079530016544,1.256627678536624
8.467357397079468,0.23370259961838016,0.23004307057451104,-0.3167340298162934,-0.8910622552773402,-0.40277455644393484,1.263294313215084
8.487407445907593,0.24036926299871605,0.23670974169741674,-0.3234006863190863,-0.8977289219440068,-0.4094412170725679,1.2699608893100955
8.507503509521484,0.24370261790375666,0.2400430426754983,-0.3267340947465818,-0.9010622552773401,-0.41277459557289464,1.2732948659870051
8.527648210525513,0.25036932751458074,0.24670964385885752,-0.33340091388231036,-0.9077289219440067,-0.41944135405160815,1.2799628300131571
8.547734260559082,0.25703603681005305,0.2533762441086809,-0.3400677359103045,-0.9143955886106733,-0.4261081143550666,1.2866308063920342
8.568471431732178,0.26036939132115505,0.2567095439212439,-0.34340114795007,-0.9177289219440066,-0.42944149513378477,1.2899647984960019
8.588859558105469,0.2670361000340593,0.2633761430000841,-0.350067973956733,-0.9243955886106732,-0.43610825782521084,1.2966327890710814
8.608772277832031,0.27370277865101744,0.270042764117256,-0.356734722362194,-0.9310619187486265,-0.435305749741712,1.3032998645837917
8.6288743019104,0.2803694516978833,0.2767093922130596,-0.361480041094751,-0.9377282292600609,-0.42935735027474675,1.3099667698817854
8.648972034454346,0.28370277748787376,0.28004271632050604,-0.3584681604040839,-0.9410612925640535,-0.4277658582882987,1.31329989384768
8.669068813323975,0.28953927664098017,0.2867093539892348,-0.35909089289378004,-0.947728231672802,-0.4230011114419415,1.3199674990029826
8.689190149307251,0.29512547878133516,0.28670927579885197,-0.3590910810555705,-0.9543948983394686,-0.4163345462023087,1.3266356238429662
8.709271907806396,0.2951254850884906,0.28670926567798705,-0.35909110564480856,-0.9610615650061352,-0.4096678931162063,1.333302483501626
8.72983455657959,0.2917921762259427,0.2900425599860783,-0.3624245328965454,-0.9643948983394685,-0.40633460688902406,1.3366365193875034
8.749922275543213,0.29845884530289113,0.28626350286627905,-0.3690911995632121,-0.9710616467099652,-0.3996680781220584,1.3433032493055903
8.770288944244385,0.2920069613842131,0.2795967842388944,-0.36242462342460313,-0.9777279114935339,-0.40346932351324194,1.3499702555724675
8.790178537368774,0.2855529943957843,0.2862634507929124,-0.36909129009126984,-0.9843945768515807,-0.4009252085656585,1.3566369211633704
8.810757875442505,0.2922196441279525,0.28154863195007723,-0.36242462342460313,-0.9910607238102032,-0.39425756385866345,1.3633031820432275
8.830883741378784,0.28888632871169245,0.28442744959103505,-0.3590913598726827,-0.9943940571435365,-0.39092426051857987,1.3666369946131423
8.850937604904175,0.28888636186879085,0.28632056397267414,-0.35651187795050787,-1.001061040885578,-0.38425825706852174,1.3733044948923607
8.871026039123535,0.28888634224537507,0.2823591646783233,-0.353856933195224,-1.0010604825168201,-0.37781374603433654,1.3799707252249485
8.891102075576782,0.2855529995161761,0.279025821347418,-0.35052359986189063,-0.9977268859339197,-0.37501421727822704,1.3833038529854897
8.911251544952393,0.2788863463063011,0.2766142068485143,-0.34385702105853777,-0.9910599464529415,-0.368347033766542,1.3899708877509072
8.93128228187561,0.2722196824744816,0.2746428715392243,-0.3505236877252045,-0.9977266950020071,-0.36168052437658055,1.3966376179075473
8.951756954193115,0.27848558392248585,0.26797618167654913,-0.34385702105853777,-0.9910594365291934,-0.3569449568854034,1.4033038235963127
8.971952199935913,0.27515224254094073,0.2713095066883146,-0.3405236877252044,-0.9935241375724071,-0.3584505669124016,1.406636992140202
8.991968870162964,0.27515224975251734,0.27797618070920577,-0.3405236877252044,-0.9990761049830359,-0.3564731187946678,1.413303807449442
9.01207947731018,0.28181889580948216,0.2779761596724558,-0.3405236877252044,-0.9990755717740855,-0.34980532012113696,1.4199700595243603
9.032263278961182,0.2851522193740993,0.2746428164234862,-0.33719035439187106,-0.9957419895301194,-0.3464714552893276,1.4233031995338663
9.052367687225342,0.27848553471605064,0.28130946496135945,-0.33052368772520435,-0.9955701623413101,-0.3398038212793199,1.4299695160457808
9.072482109069824,0.2768893966484289,0.27464280128234236,-0.32941738484422356,-0.9892491172083493,-0.3331373182387314,1.4366362413124467
9.092541217803955,0.2702227117569939,0.26797611645507663,-0.32275071817755685,-0.9825820100884295,-0.3264696998389493,1.4433025682705278
9.112804889678955,0.26688935554098836,0.2713094817796708,-0.32497790361380996,-0.9818382834715238,-0.32313634068075237,1.4466354152960434
9.1328284740448,0.26688936085828335,0.27130943882664743,-0.3236491804063979,-0.9778352402583019,-0.31646892322886433,1.4533022337220385
9.152903079986572,0.26688937894621567,0.2710625335967295,-0.31698260357895974,-0.9768563640379978,-0.30980178456865926,1.4599692961843227
9.172981023788452,0.2635560719701807,0.2738403299753645,-0.31364935457183973,-0.9789755820272034,-0.30646847825847806,1.4633031598130486
9.193084001541138,0.26722394483092143,0.26717367053691243,-0.306982687905173,-0.9723090823387568,-0.2998021859725742,1.4699699543185627
9.213170051574707,0.26220137069738614,0.2738402924009366,-0.3003161061276138,-0.9789486525768912,-0.29313508254450266,1.476636996067528
9.233301877975464,0.26553471890224717,0.27295554592023447,-0.2969827727942804,-0.9756156336864211,-0.289802480903523,1.4733039017156886
9.253693103790283,0.2722013858789729,0.27549259339156423,-0.2969827727942804,-0.9756156380135313,-0.28313582489067535,1.4666372379223893
9.273621082305908,0.2788680286881097,0.27549257048350695,-0.2969827727942804,-0.9756151554706683,-0.28313466894198375,1.4666368727450971
9.29366397857666,0.2788679937173235,0.27549259146025956,-0.29698269881656136,-0.9756149390694865,-0.28980080084330645,1.473302927350938
9.313834428787231,0.27553465037404795,0.27882591511861315,-0.3003160321498947,-0.9789480622840983,-0.29284610856101834,1.4766361014571825
9.33386754989624,0.2822013268933324,0.28549259132786675,-0.30698269881656143,-0.9856149381146163,-0.29240076091344774,1.4833029270478677
9.353933811187744,0.2888679656339459,0.2921592311683172,-0.31364936548322814,-0.9922810157960998,-0.2990660362899632,1.489969145728159
9.374362707138062,0.2922012880792674,0.29549255403968316,-0.3169826988165615,-0.9956141157442873,-0.30239881956741677,1.4933023011287847
9.394287586212158,0.29886793071780693,0.300532340575416,-0.321946211676452,-1.0022802595672735,-0.30906425586832736,1.4999685682850856
9.41457200050354,0.3055346019056254,0.30265885558760036,-0.32674670658368676,-1.00894702943842,-0.30906449855482476,1.5066353144484386
9.434706926345825,0.30886792451312006,0.30319045618721363,-0.3300800399170201,-1.0122801283490332,-0.3057306043144312,1.5099684678737484
9.45479154586792,0.3155345630839476,0.29652376269562497,-0.3234133732503534,-1.010613347918317,-0.3111809330547798,1.516634669062636
9.485912799835205,0.31220120651389205,0.29985712909977896,-0.32580245684011083,-1.0139466812516504,-0.30784757711403143,1.5199675449177612
9.520739793777466,0.31220120651389205,0.29985712909977896,-0.32580245684011083,-1.0139466812516504,-0.30784757711403143,1.5199675449177612
9.545133829116821,0.30886785526961225,0.303190445393151,-0.3279527111389336,-1.017279628134225,-0.304513302991055,1.5233005811755937
9.565218687057495,0.3122012144264476,0.2998570754515984,-0.3246194659077094,-1.0139462948008915,-0.3011799933737054,1.5266344085454533
9.58534049987793,0.312201189799039,0.29319038551332743,-0.3179527992410427,-1.0139457798442277,-0.29451205000972586,1.5333006801971512
9.605406522750854,0.30553453741082787,0.28652367132993045,-0.3118195965651574,-1.0158901452701312,-0.29392102831257577,1.5399676324197153
9.625627040863037,0.30220119270257007,0.28319032741110595,-0.3092996270743521,-1.0146400627416559,-0.29638905329314663,1.5433007889646944
9.645603656768799,0.3088678593245615,0.28985699402811826,-0.3159662937410188,-1.0213067259579987,-0.30305571196878606,1.5499674527169496
9.665700912475586,0.31553450343053946,0.29652363964686723,-0.3169591262720908,-1.0279729205957517,-0.3064032438715206,1.5566337557790668
9.685832262039185,0.3222011660835424,0.30319030262065627,-0.3236257929387575,-1.0346395071613808,-0.2997363625156974,1.5499670273466557
9.705859422683716,0.32553448391169065,0.29985695495935943,-0.32029245960542413,-1.0379725252081953,-0.29640220034538334,1.551122401432024
9.725950717926025,0.32553446070182995,0.2931902671004526,-0.31388674689378304,-1.037972066309175,-0.28973429302662435,1.555495460447815
9.746033430099487,0.31886777197170185,0.2865235804041228,-0.30778827211997273,-1.0329446791971468,-0.283555348882428,1.5621617998936153
9.766244649887085,0.31553442467158554,0.2831902344184002,-0.3044549387866394,-1.0314201689924356,-0.2809946735905013,1.5654949298198282
9.786375999450684,0.3088677565608449,0.28985689977666124,-0.3111216054533061,-1.0380868058288206,-0.2876612590272294,1.5721615732881342
9.806558847427368,0.31553439786421156,0.2831902102457889,-0.3044549387866394,-1.0447529918759837,-0.2809932530271829,1.5788278694754925
9.82658576965332,0.3089532323130353,0.2898568745944495,-0.3111216054533061,-1.051419614156344,-0.2743264452062144,1.5854945018752096
9.84669041633606,0.31228655109112585,0.28652352838472406,-0.30778827211997273,-1.048086022558931,-0.27099234124419547,1.5888276359369224
9.866762638092041,0.31356300534416154,0.2865234977412829,-0.30273844857580684,-1.0480854190221278,-0.264323866691349,1.59549383791375
9.886894226074219,0.3150451820795702,0.2865234988395504,-0.29786027405272425,-1.053214031036453,-0.25765727340937644,1.602160516278023
9.906901121139526,0.31636770396599356,0.2865234738922225,-0.29119360738605754,-1.0581625939708263,-0.2509891157676264,1.6088268253229268
9.927034854888916,0.3145579860899912,0.28985679448201246,-0.2878602740527242,-1.0614956946186485,-0.24765501540836607,1.6121599803247673
9.9499351978302,0.3212246639797448,0.2831901374493872,-0.2811936073860575,-1.0577744619961122,-0.2516445831189125,1.6054934446599038
9.98031997680664,0.3212246639797448,0.2831901374493872,-0.2811936073860575,-1.0577744619961122,-0.2516445831189125,1.6054934446599038
10.000358819961548,0.3202396914309498,0.289856804342219,-0.2878602740527242,-1.0644411364397546,-0.24497792453820005,1.6120375336267387
10.020490407943726,0.3269063228445985,0.2831901074892553,-0.2811936073860575,-1.0711072718489807,-0.2383094154145657,1.618703793674629
10.04060411453247,0.3202396271723931,0.2890471480546369,-0.27452694071939077,-1.0777735205634305,-0.23164122910450985,1.6253701405792869
10.060652732849121,0.3223666369861364,0.28571382949600876,-0.27248305702457265,-1.076221199825865,-0.2283088137949301,1.6287036601204983
10.080806016921997,0.3209475402420748,0.28452128980135855,-0.267310228365903,-1.0781564535323684,-0.22830595812605553,1.6353697574839317
10.100907802581787,0.32094753652352714,0.28978137806698073,-0.267310228365903,-1.084823071692241,-0.2337247237235646,1.6420363871948394
10.120909929275513,0.3276141705469071,0.2897813505105899,-0.26917342211447204,-1.0914892785524049,-0.23893330850382286,1.6487027029548438
10.141470432281494,0.33094749197225226,0.2864480071629279,-0.26785029648818415,-1.0948224418517216,-0.24226599612377933,1.6520359061449816
10.16159987449646,0.3376141719436163,0.2931146850420075,-0.27451696315485086,-1.1014892987513711,-0.24599417747482458,1.6587027185000167
10.181674718856812,0.34428079437371856,0.2997813148503403,-0.2802311434194749,-1.1081553137184936,-0.25265836868808866,1.6653688835006726
10.201727628707886,0.35094746783071173,0.30644798718479244,-0.2868978100861416,-1.1148220786389886,-0.2593254098798127,1.6720356256267435
10.221994638442993,0.35428082866000654,0.3044196605116162,-0.290231143419475,-1.1181558343106213,-0.2559936663396135,1.6687026189313934
10.242023229598999,0.35428079249209476,0.29926078059740063,-0.290231143419475,-1.1181552969475268,-0.2559915713065237,1.66870220241946
10.262105464935303,0.35428079863428624,0.2992607857461346,-0.290231143419475,-1.1181553962127677,-0.26265858950612697,1.6687022794211839
10.282206773757935,0.3576141136183591,0.3025941039054686,-0.29356447675280833,-1.1214884462962882,-0.2659908537017667,1.6653687260392733
10.302328109741211,0.36428074747623,0.30916192792461855,-0.30023114341947504,-1.1281545977478384,-0.27187124169368015,1.6720349916231365
10.322407007217407,0.37094740697902284,0.3024952554080697,-0.30689781008614175,-1.1348211570875235,-0.26520414357593664,1.6720238831589322
10.342501163482666,0.3642807060878619,0.29582856065297186,-0.30023114341947504,-1.1281539645580025,-0.2718687532209772,1.6786901380928372
10.362555742263794,0.36094739345880633,0.2991619110652722,-0.3035644767528084,-1.1314876250874073,-0.2752033261596606,1.682023727581798
10.382671594619751,0.36110041582694197,0.3058285543075515,-0.30385657338905103,-1.1381538365574373,-0.2818682708874769,1.6886900372663016
10.402743577957153,0.3677670784204272,0.31249521760850757,-0.3044527936950027,-1.144820438808674,-0.28186802679736717,1.6886899866993683
10.423271656036377,0.3711003934142011,0.3158285358115668,-0.3077861270283361,-1.1481534735469192,-0.27853354381696677,1.6853564191215535
10.443364143371582,0.37776701524103573,0.3091618323000582,-0.30111946036166937,-1.1414860938814742,-0.271864071402186,1.6906622266382543
10.463609218597412,0.37110031107334623,0.3024951349106475,-0.29445279369500266,-1.1348188449385663,-0.2651951095581218,1.6973284379658025
10.483567714691162,0.36443361396580853,0.2958284432920886,-0.28778612702833595,-1.128151711269303,-0.26736452469078853,1.7039947402765143
10.503643035888672,0.3611982287506563,0.29916179326496894,-0.2911194603616693,-1.1314853586779758,-0.2706990636644263,1.7073283184884502
10.523727893829346,0.3616196665360594,0.30582843637162715,-0.2911194603616693,-1.1381515732786234,-0.27736399824339136,1.7139946320296848
10.543847799301147,0.3682863271348599,0.31249509805113407,-0.2911194603616693,-1.1448181448851587,-0.27736363354597693,1.7139945576943507
10.563899040222168,0.3716196418069071,0.31582841605406164,-0.29445279369500266,-1.1481511791779657,-0.27402913502926096,1.710660990733254
10.584077596664429,0.37828626276688554,0.309161711993493,-0.28778612702833595,-1.1414837973984024,-0.267359619483679,1.7127686491774028
10.604097366333008,0.37161955786964695,0.3024950140603897,-0.28111946036166924,-1.1348165468894402,-0.26069062191487047,1.7194348612850907
10.624253511428833,0.36495285166332764,0.3091616483396379,-0.274688891736391,-1.1414826163428773,-0.2660848802617597,1.726101064125008
10.644294023513794,0.3682861992447379,0.31249499336801984,-0.27802222506972435,-1.1448161684171,-0.2627524205316273,1.7294345672416565
10.664342641830444,0.3749528184223617,0.312494954672027,-0.27802222506972435,-1.14522156797924,-0.2560828290037612,1.7361006857828534
10.68447756767273,0.3772417956695289,0.3113265566737406,-0.2751206178972627,-1.1459203710931736,-0.2494158861811465,1.742767300419873
10.704494953155518,0.37963517864347207,0.3099416409122443,-0.2721758381087139,-1.152586587753563,-0.2479955702068992,1.7494336191463815
10.725102186203003,0.38296849195460453,0.30660829137822715,-0.2688425047753805,-1.155919644075516,-0.24971790585203507,1.7527667381006697
10.74526047706604,0.3800887686365827,0.3132749581971655,-0.27192156170630744,-1.1625863079006136,-0.25638456416364874,1.759433402245724
10.765315294265747,0.38675542695175663,0.31994161812946825,-0.27858822837297414,-1.169252851991435,-0.2630506879870266,1.7660999734098641
10.785488605499268,0.39342205583789425,0.3166724169872921,-0.27597244231708523,-1.1759189647602637,-0.26971489904478574,1.7727662084805573
10.805514812469482,0.3967554045746109,0.32000576276747017,-0.2793057756504186,-1.1792525275305605,-0.27304925043740763,1.776099721038728
10.825568675994873,0.40342203087772865,0.3266723968133846,-0.2859724423170853,-1.1859185828119503,-0.2797132039028554,1.782765909117757
10.845648050308228,0.41008865771946357,0.3333390312396614,-0.292639108983752,-1.1925846331441932,-0.2863771320564156,1.7894320920136728
10.865708351135254,0.4134219713631471,0.33667234859356643,-0.29597244231708536,-1.1959176569927588,-0.28970908796241146,1.7927651819485582
10.885804653167725,0.42008858969466994,0.33000564258825393,-0.28930577565041865,-1.2025835534907443,-0.29637231767551636,1.799431241755889
10.905914783477783,0.413421923716374,0.33667230977235907,-0.29597244231708536,-1.2092502282988644,-0.3030390175672359,1.8060979145422063
10.926279067993164,0.42008854825972225,0.33000560854153665,-0.28930577565041865,-1.215916201974754,-0.30453029617925614,1.8127640322582879
10.94616174697876,0.42342190697581433,0.3333389626861657,-0.292639108983752,-1.219249951195945,-0.30119888071651413,1.816097695508528
10.966229915618896,0.4300885430991943,0.3333389377310827,-0.292639108983752,-1.2192494636388809,-0.29876854968618133,1.8227639755261302
10.986368656158447,0.4318407561590417,0.32667226452759085,-0.2883884453368874,-1.2129287598795464,-0.2962494803743971,1.8294305422409658
11.00643515586853,0.4304177392864508,0.3233389192108622,-0.2875628480547093,-1.2102399884173762,-0.2929150543154524,1.8327636905561486
11.02654218673706,0.4237510309409614,0.3166722186824887,-0.28089618138804257,-1.2035726624751768,-0.2995786678982151,1.839429835387447
11.046624898910522,0.4258266948799922,0.3233388929518247,-0.2875628480547093,-1.1969061495456095,-0.29291269381112706,1.8327632908131504
11.066691875457764,0.4324933144933908,0.3166721880334077,-0.28089618138804257,-1.1902387328612847,-0.28624269592339546,1.8260960323907938
11.086792707443237,0.4291599628572054,0.31333883985821986,-0.2775628480547092,-1.1869051125353922,-0.2829080906751288,1.8294291397375098
11.10689640045166,0.42249325603914073,0.30667214067061593,-0.2708961813880425,-1.1802378262580475,-0.276238682077602,1.8360953195306864
11.126975536346436,0.42249322137124823,0.3066721125937918,-0.2642295147213758,-1.1802373025109572,-0.2737141232031305,1.8427615757439872
11.147145509719849,0.42582653443561536,0.31000542947168624,-0.26089618138804244,-1.1835703308461014,-0.27444284199193486,1.8460946704693815
11.167224407196045,0.4324932092777181,0.3033387694205605,-0.2542295147213757,-1.1902371179655022,-0.28111004632551734,1.8527614309091236
11.187339305877686,0.4391598818675005,0.3100054409562706,-0.26089618138804244,-1.196903873979936,-0.28516963712700744,1.859428167355033
11.207406997680664,0.4458265029922447,0.31667207048339824,-0.26756284805470915,-1.203569830834787,-0.29183307179556084,1.8660942759393848
11.22748351097107,0.4491598164882624,0.3200053876343737,-0.2708961813880425,-1.2069028499571073,-0.2951649706988899,1.869427361695866
11.247568607330322,0.45582644403292244,0.3266720223398159,-0.2775628480547092,-1.2135688876514013,-0.3018287565641954,1.8760935317757512
11.267658472061157,0.4624930722937482,0.33333865751583813,-0.28141075479091004,-1.2202349249385473,-0.30849252507421915,1.8827597002387206
11.287723779678345,0.465826387666115,0.33645837272942863,-0.2818738708534908,-1.2235679594616313,-0.3118244768661273,1.8860927967311094
11.30783224105835,0.47249306593054374,0.3297917156267499,-0.2867059285052268,-1.2302348200911624,-0.31849203764273515,1.8927596168594152
11.327919483184814,0.47869943794730196,0.33645835193935764,-0.2800392618385601,-1.2304607297119285,-0.3251557863345215,1.8994257855124674
11.348000526428223,0.4853661001700473,0.34312501492557745,-0.2867059285052268,-1.2371273240776668,-0.3184887552479386,1.8927590613430834
11.36807370185852,0.4920327588358039,0.33645834164361355,-0.2933725951718935,-1.2437938623453089,-0.3118214329637451,1.8860922921705081
11.388162851333618,0.4886994091510452,0.33312499477152574,-0.29003926183856016,-1.2404602645788516,-0.30848676072701264,1.8894254144920948
11.40848183631897,0.4820327039753986,0.32645829644216007,-0.28337259517189345,-1.233792983365268,-0.3018170016822912,1.896091591643143
11.428383111953735,0.47536600228873077,0.3197916011896352,-0.2767347789155327,-1.2271257679400365,-0.30181425999597633,1.9027578222595765
11.448640823364258,0.4720326493942312,0.3164582518683588,-0.27340144558219936,-1.2237921236712164,-0.3051460785888877,1.9060909086259419
11.468755006790161,0.4653659357707584,0.31969556995380954,-0.26673477891553266,-1.217124695752294,-0.30254259332529176,1.8994236376537905
11.488852977752686,0.45869927799942944,0.3130289106401747,-0.26641518506218737,-1.2104581772738279,-0.29587661921285086,1.8927570883826947
11.50892424583435,0.4520325692499311,0.306362209609338,-0.25974851839552066,-1.2037908440642822,-0.2892068642564118,1.8879556266203563
11.529052257537842,0.44869921565350135,0.30302885973872606,-0.2564151850621873,-1.2004571947851814,-0.2858720714709605,1.8846220443056974
11.549137830734253,0.4420325080971738,0.2963621596818196,-0.24974851839552062,-1.193789900719435,-0.2792025129212209,1.8779548842579266
11.569362878799438,0.4353657998777239,0.28969545901083665,-0.24308185172885396,-1.1871226104838313,-0.2725329773816044,1.8712877286470058
11.589364528656006,0.4320324455363362,0.28636210844163806,-0.23974851839552064,-1.1837889672925392,-0.2691982193365209,1.8679541528976054
11.609724998474121,0.42536573642524883,0.27969540683111876,-0.23308185172885398,-1.1771216857265148,-0.2625287248031129,1.8612870062757663
11.629676580429077,0.41869902679084153,0.27302870458772177,-0.22641518506218733,-1.170454411837743,-0.25585926169690915,1.8546198671444565
11.64974331855774,0.4120323166914415,0.26636200171088487,-0.21974851839552068,-1.1637871470893422,-0.24918983307851975,1.8479527366448554
11.669812202453613,0.4086989614858329,0.26302865003583936,-0.21641518506218735,-1.1604535185845328,-0.24585513260547662,1.844619174973146
11.689887046813965,0.4020322508000162,0.2563619462164671,-0.2097485183955207,-1.1537862701620303,-0.2391857610260562,1.837952059434238
11.709958791732788,0.39536557682663165,0.24969527340172015,-0.2097485183955207,-1.1471195061746526,-0.2325186429347727,1.8312853176134545
11.730371475219727,0.3886988711855042,0.24302857373789602,-0.2097485183955207,-1.1404523559781925,-0.22584968779103212,1.8312849458856832
11.750524759292603,0.38536551548895526,0.2396952214412048,-0.20641518506218737,-1.13711875254686,-0.2225150646140913,1.834618071866376
11.770596027374268,0.378698803970258,0.23302851644588826,-0.1997485183955207,-1.1304515573054914,-0.21584585292739172,1.841284333850288
11.7906494140625,0.3720320855871506,0.22898651857975186,-0.19308185172885406,-1.1237842890174148,-0.22250963720710007,1.8417751140087844
11.81082010269165,0.3753654521953897,0.23231988096047398,-0.1964151850621874,-1.1271180237112919,-0.22584481615134114,1.8384420868741689
11.830937623977661,0.38203207578252013,0.23898651032440554,-0.20308185172885404,-1.1337841579877042,-0.23250905443319017,1.8372047577119432
11.850992441177368,0.38869875748653465,0.24565318975159076,-0.2097485183955207,-1.1404510139965005,-0.2325099397505744,1.8357583664420287
11.871076583862305,0.3920320689522312,0.24898650450101206,-0.21308185172885402,-1.1437840722292383,-0.22917533467814868,1.8324248217043466
11.891189098358154,0.39869874821571805,0.24231984864965128,-0.21974851839552068,-1.1504509022127785,-0.22250940216776366,1.825758280081319
