liuyurong129/humanoid-gym/humanoid/data/robot2_action_20250621-220945.csv
timestamp,joint_1,joint_2,joint_3,joint_4,joint_5,joint_6
0.0008935928344726562,0.0,0.0,0.0,0.0,0.0,0.0
0.02096724510192871,0.0,0.0,0.0,0.0,0.0,0.0
0.04106926918029785,0.0,0.0,0.0,0.0,0.0,0.0
0.061475276947021484,0.0,0.0,0.0,0.0,0.0,0.0
0.08151817321777344,0.0,0.0,0.0,0.0,0.0,0.0
0.10150766372680664,-0.70788586,0.24196145,0.23717225,0.43358323,-0.9981458,0.043643378
0.12160277366638184,-0.70788586,0.24196145,0.23717225,0.43358323,-0.9981458,0.043643378
0.14176249504089355,5.204574,0.9721345,-1.7972429,12.8613205,8.380936,4.2178802
0.16174960136413574,-5.228285,-1.248051,-4.136867,7.250904,3.6457775,5.0253143
0.18182611465454102,-7.831802,1.2302761,-4.6176376,17.914618,10.017369,1.0275887
0.2029430866241455,-8.201935,-0.03809133,-5.471096,8.180764,8.780626,6.56522
0.22303462028503418,-1.4760094,-1.1090279,-4.6585417,15.068281,9.216362,5.7019525
0.24311280250549316,-6.95886,1.3582934,-3.4489188,13.4933405,5.2212896,0.97217
0.2635178565979004,-8.814245,6.5060205,-2.5822988,12.432679,3.0275042,-1.2100303
0.2838103771209717,-8.814245,6.5060205,-2.5822988,12.432679,3.0275042,-1.2100303
0.30388402938842773,-11.456414,9.971309,-3.8376658,14.0108385,2.7565637,-3.751723
0.324237585067749,-11.664421,10.755895,-4.621148,16.218645,3.756996,-5.417155
0.34420180320739746,-10.979434,10.642897,-4.971497,16.540314,4.099534,-6.1806436
0.36420345306396484,-9.660848,9.866158,-4.808613,15.7474,4.384158,-6.2093277
0.38430166244506836,-8.495664,8.972621,-4.6046486,14.952915,4.4716487,-5.959405
0.404371976852417,-7.8550696,7.4528894,-3.9042947,13.798718,4.2135305,-5.294178
0.4244687557220459,-7.541004,6.9733553,-4.237998,14.548557,4.1690803,-5.8721685
0.44454383850097656,-7.541004,6.9733553,-4.237998,14.548557,4.1690803,-5.8721685
0.46465444564819336,-6.7333465,6.362767,-4.175987,14.939531,4.5015235,-6.2288904
0.48478245735168457,-5.9188247,5.3548093,-3.7804322,13.897131,4.5574813,-5.4139767
0.5049419403076172,-5.7128863,5.028321,-4.1180553,14.643588,4.6023097,-5.61146
0.525212287902832,-3.5213754,3.169749,-3.7645113,13.363503,5.083232,-2.9712446
0.5453386306762695,-3.9851794,3.6066911,-4.0958967,17.370344,5.925873,-4.288797
0.5654423236846924,2.1965923,0.932412,-2.6219974,16.711384,7.5959873,4.2956834
0.5855183601379395,-0.3223538,-3.128073,-4.3750825,21.340658,6.055604,6.2724485
0.6061668395996094,-8.674918,4.402969,-3.4746695,28.736834,11.359659,-2.9144328
0.6265287399291992,-8.674918,4.402969,-3.4746695,28.736834,11.359659,-2.9144328
0.646543025970459,-2.0815647,3.1851351,-5.7021213,23.27032,8.300913,-2.8118355
0.6665644645690918,-2.3041427,5.107294,-4.3925786,27.174788,6.8124657,-5.9279947
0.6867940425872803,-7.274148,10.2820215,-5.3866215,25.324244,7.38419,-9.681166
0.7068798542022705,-9.566427,10.025042,-5.819392,19.305481,6.7821913,-9.380798
0.726994514465332,-8.494968,9.498929,-6.2690306,19.411642,6.5015225,-9.816647
0.747236967086792,-7.233355,9.000008,-6.6352983,21.449142,6.792896,-10.532541
0.7674837112426758,-6.2303443,8.720303,-6.978714,24.03981,7.331931,-11.4543
0.7876861095428467,-6.2303443,8.720303,-6.978714,24.03981,7.331931,-11.4543
0.8078112602233887,-5.559143,8.606864,-7.229176,26.469065,7.919531,-12.348268
0.8279266357421875,-5.105479,8.669983,-7.477156,28.769537,8.521109,-13.099192
0.8572921752929688,-6.9538927,6.7900395,-6.7128005,27.170694,8.260274,-11.359312
0.8771762847900391,-6.6908336,5.0557566,-5.861697,24.469278,7.86702,-9.408004
0.897244930267334,-6.1524434,3.3917449,-4.9083347,20.575357,7.366929,-6.9523096
0.917250394821167,-6.1524434,3.3917449,-4.9083347,20.575357,7.366929,-6.9523096
0.9373579025268555,-5.417111,1.7748288,-4.272258,16.714388,6.8531904,-4.2989273
0.9574191570281982,-3.7358408,0.53232276,-3.3854504,12.65964,6.7661285,-1.2796518
0.9778702259063721,5.4930363,-3.121921,-2.2965658,18.63091,12.27251,3.6624558
0.9976513385772705,-2.232922,4.2599506,-2.3872182,29.73594,9.727495,1.7225336
1.0177533626556396,3.7953544,-4.499168,-6.280737,35.43139,18.41482,9.001163
1.0378644466400146,-3.2476473,3.9752443,-2.4776795,30.56317,10.79031,1.8745674
1.0579543113708496,2.5991058,-4.432701,-6.631542,30.35184,19.021177,7.391038
1.077974796295166,-3.8941891,3.7861166,-2.1479845,27.591446,9.392931,1.0722073
1.0982906818389893,-3.8941891,3.7861166,-2.1479845,27.591446,9.392931,1.0722073
1.1184279918670654,-3.444248,-2.0344841,-7.0361404,23.590326,14.372877,3.4354892
1.1384997367858887,0.9186682,4.9789095,-3.3430529,27.046692,12.984734,0.6322807
1.1585824489593506,-3.7964623,-1.2539979,-5.621425,18.173626,8.924471,2.1381607
1.1787126064300537,-1.4981228,3.7395122,-3.0474186,18.139793,8.91863,-0.16234449
1.198822021484375,-8.491685,6.5991774,-4.7137775,14.799093,6.1740794,-6.279457
1.2189264297485352,-13.343784,15.621782,-6.442869,28.03253,6.605256,-9.524792
1.2391648292541504,-16.17241,19.367939,-8.952481,35.04523,7.999714,-14.629009
1.2594797611236572,-16.17241,19.367939,-8.952481,35.04523,7.999714,-14.629009
1.2795867919921875,-15.605311,20.236782,-10.964208,40.635674,9.182923,-18.949404
1.2996692657470703,-14.178664,20.081202,-11.953374,45.380604,10.247834,-21.842756
1.3197650909423828,-12.701001,19.492977,-12.515818,49.791862,11.3565,-23.819187
1.3398346900939941,-11.5688715,18.920687,-12.897896,53.16263,12.485256,-24.989822
1.3599159717559814,-8.615418,18.31942,-12.449792,56.943993,13.6052265,-25.006708
1.3801090717315674,-7.2703476,17.68427,-12.329689,59.593906,14.590099,-24.76435
1.4001851081848145,-8.471911,17.143797,-12.185362,55.84131,14.621494,-24.250446
1.4203708171844482,-8.471911,17.143797,-12.185362,55.84131,14.621494,-24.250446
1.4405953884124756,-8.09916,16.280375,-11.907427,54.178944,14.395915,-23.466854
1.460761308670044,-7.4900117,15.49951,-11.600921,53.070755,14.238288,-22.728458
1.4806952476501465,-6.9850883,14.829267,-11.311968,52.04209,14.124259,-22.037085
1.5007872581481934,-6.550632,14.1984,-11.019516,50.98866,14.036226,-21.346893
1.5208687782287598,-6.153464,13.525755,-10.691629,49.755398,13.956786,-20.580982
1.541015386581421,-5.808245,12.813377,-10.331695,48.24195,13.800356,-19.712513
1.561048984527588,-5.5169153,12.060838,-9.95162,46.497494,13.542082,-18.767246
1.581186294555664,-5.5169153,12.060838,-9.95162,46.497494,13.542082,-18.767246
1.6016416549682617,-5.2614493,11.287074,-9.540942,44.586426,13.204633,-17.791624
1.6214065551757812,-5.026146,10.508205,-9.115857,42.575027,12.813282,-16.806347
1.6416125297546387,-4.8028483,9.737074,-8.687485,40.521477,12.388874,-15.827992
1.6616196632385254,-4.5892615,8.98302,-8.263904,38.471905,11.948012,-14.869684
1.6817550659179688,-4.384886,8.251517,-7.850662,36.46109,11.502898,-13.9405155
1.7018051147460938,-4.1907916,7.5447826,-7.4508157,34.508957,11.059748,-13.046083
1.7224676609039307,-4.1907916,7.5447826,-7.4508157,34.508957,11.059748,-13.046083
1.742408037185669,-4.0067043,6.8654466,-7.063665,32.620728,10.623438,-12.187922
1.762474775314331,-3.831086,6.2135653,-6.685954,30.792519,10.198952,-11.364103
1.7825872898101807,-3.6523712,5.5860047,-6.3086114,29.028248,9.794096,-10.570899
1.8026411533355713,-3.4569318,4.987145,-5.9193687,27.341768,9.425693,-9.804198
1.8227779865264893,-3.2477934,4.4341116,-5.512831,25.735796,9.117468,-9.050394
1.8428027629852295,-3.0285525,3.9277928,-5.1064115,24.20658,8.861279,-8.276987
1.863840103149414,-2.780638,3.357508,-4.6823244,22.970858,8.556007,-7.5243893
1.8839752674102783,-2.780638,3.357508,-4.6823244,22.970858,8.556007,-7.5243893
1.9040443897247314,-2.4098864,2.6556754,-4.1956053,22.356031,8.327505,-6.417653
1.9241466522216797,1.4300362,0.06177172,-3.2176719,20.469652,7.7271767,-3.5000722
1.9442052841186523,0.014966768,-2.686523,-2.7899733,18.130596,4.646026,3.1071906
1.96431303024292,-1.3610054,1.9885782,-2.8973386,31.617035,12.633167,-1.6777335
1.9843785762786865,5.306269,-2.3488057,-4.1569405,29.26863,11.281158,2.385826
2.0046348571777344,7.7997684,0.3505884,-2.1963847,34.692783,12.2227745,3.680806
2.024589776992798,15.283371,-7.975812,-3.288628,37.25238,17.41871,7.083168
2.044804334640503,15.283371,-7.975812,-3.288628,37.25238,17.41871,7.083168
2.0649008750915527,1.0346597,5.122182,-2.453174,31.393974,10.187246,2.5227191
2.0849967002868652,2.6192062,-2.9736626,-7.9443445,37.071907,16.246382,4.194921
2.1050961017608643,-9.101346,7.4502373,-2.8674057,28.324507,8.077711,-5.311526
2.1251726150512695,-13.261925,14.137165,-4.909525,25.500753,6.9730115,-5.9196005
2.1452555656433105,-14.190605,14.742136,-5.226797,21.872751,6.6506667,-7.323914
2.165362596511841,-12.778266,14.093144,-5.9522386,22.29225,6.6686325,-8.719683
2.18567156791687,-11.497657,13.413334,-6.707308,23.148136,6.7463217,-10.132305
2.2056374549865723,-11.497657,13.413334,-6.707308,23.148136,6.7463217,-10.132305
2.225759983062744,-10.431394,12.837989,-7.4449286,24.437826,6.991581,-11.488222
2.2458200454711914,-9.195854,12.095052,-7.865056,26.41581,7.3478775,-12.585476
2.265886068344116,-8.056946,11.403269,-8.058403,28.731596,7.8776293,-13.453802
2.286165475845337,-7.185428,10.822963,-8.133807,30.663422,8.407351,-14.096485
2.3062565326690674,-6.6076427,10.435623,-8.145623,32.075165,8.952868,-14.459191
2.326350212097168,-6.127382,10.139176,-8.173769,33.164196,9.437167,-14.647309
2.3464179039001465,-5.7006264,9.895592,-8.211519,34.04397,9.836035,-14.754877
2.366511583328247,-5.329191,9.654395,-8.225927,34.69097,10.170477,-14.746415
2.387446880340576,-5.329191,9.654395,-8.225927,34.69097,10.170477,-14.746415
2.4075615406036377,-5.016871,9.323976,-8.174654,34.981556,10.4490795,-14.573626
2.4276282787323,-4.7785835,8.921697,-8.034729,34.831627,10.58746,-14.242077
2.447831869125366,-4.5818295,8.462792,-7.8320484,34.311478,10.595222,-13.784862
2.467843532562256,-4.406878,7.968918,-7.589673,33.50285,10.50386,-13.245593
2.48797869682312,-4.2406654,7.450782,-7.3204346,32.48891,10.339138,-12.651802
2.5080246925354004,-4.0802364,6.9175076,-7.032056,31.331705,10.122035,-12.023329
2.528083086013794,-3.9253716,6.3750744,-6.7285624,30.076029,9.869343,-11.374048
2.5481820106506348,-3.9253716,6.3750744,-6.7285624,30.076029,9.869343,-11.374048
2.5682895183563232,-3.7697697,5.828138,-6.410091,28.75651,9.594941,-10.71319
2.588409185409546,-3.6011443,5.281898,-6.073065,27.400616,9.312523,-10.04598
2.608509063720703,-3.4228437,4.7463574,-5.713581,26.028036,9.045094,-9.380056
2.628556728363037,-3.231889,4.237419,-5.340993,24.664211,8.806454,-8.698281
2.648658514022827,-3.0256886,3.765991,-4.965233,23.32348,8.604372,-7.977096
2.668743133544922,-2.7872152,3.2188108,-4.5705576,22.245417,8.350778,-7.257647
2.689243793487549,-2.7872152,3.2188108,-4.5705576,22.245417,8.350778,-7.257647
2.7093358039855957,-2.2306733,2.4463227,-4.094267,21.587929,8.127592,-6.201426
2.729438543319702,2.04746,-0.56280077,-2.9706557,19.877375,7.39919,-3.0040224
2.749544382095337,-1.2039992,-1.6409916,-2.2856717,17.75419,4.691313,2.7895305
2.7696168422698975,5.3121147,0.6169776,-2.949592,33.256294,13.487946,-0.59767115
2.789879560470581,5.8648057,-4.5929995,-4.1042795,29.061575,8.9729595,6.3148336
2.809793472290039,-2.9527903,1.754974,-2.662445,30.24883,9.905807,-2.120756
2.82987380027771,1.0043554,0.41717085,-5.038039,25.030298,11.594771,0.008975125
2.8499155044555664,9.388032,-6.5456476,-2.65784,22.712175,10.611152,1.9726712
2.8701577186584473,9.388032,-6.5456476,-2.65784,22.712175,10.611152,1.9726712
2.890169143676758,0.9177148,4.8861237,-2.4501855,30.398699,8.676842,0.043771602
2.9103055000305176,-0.98350984,-1.0688301,-6.4171305,28.939375,11.726782,-0.7920879
2.930361747741699,-6.729391,4.8529854,-4.7952952,20.237051,5.3003683,-4.788978
2.9504282474517822,-11.685649,12.276494,-3.9064343,18.709421,4.838423,-4.585497
2.970524549484253,-12.91486,13.133722,-4.556954,19.338575,5.5890875,-6.5022306
2.9905972480773926,-12.509039,13.155814,-5.6677604,21.05203,6.1224356,-8.224509
3.0106494426727295,-11.733745,13.094226,-6.789765,23.358225,6.692605,-10.217321
3.0310652256011963,-11.733745,13.094226,-6.789765,23.358225,6.692605,-10.217321
3.0512545108795166,-10.569591,12.738842,-7.823484,26.377789,7.3042445,-12.242369
3.071276903152466,-9.242768,12.329306,-8.371444,29.908102,8.021775,-13.866222
3.0913429260253906,-8.229485,11.971827,-8.705548,33.174816,8.819646,-15.110755
3.111431121826172,-7.4746647,11.696668,-8.870804,35.51763,9.586277,-15.9201145
3.131509304046631,-6.9179964,11.482087,-8.965602,37.045315,10.244784,-16.305962
3.1515724658966064,-6.4254646,11.271297,-9.0360985,38.11644,10.759185,-16.507118
3.1716511249542236,-6.4254646,11.271297,-9.0360985,38.11644,10.759185,-16.507118
3.1917564868927,-5.9894223,11.045832,-9.054331,38.83796,11.142128,-16.557861
3.2118380069732666,-5.6140976,10.736858,-8.995056,39.154655,11.438743,-16.40755
3.231926441192627,-5.3225417,10.329004,-8.857483,38.992184,11.590313,-16.066044
3.252006769180298,-5.081003,9.846217,-8.643372,38.412975,11.593214,-15.580784
3.2720847129821777,-4.86781,9.314407,-8.378582,37.500824,11.484543,-14.9926815
3.292173147201538,-4.666797,8.749423,-8.081923,36.34888,11.292915,-14.337426
3.312268018722534,-4.666797,8.749423,-8.081923,36.34888,11.292915,-14.337426
3.3324332237243652,-4.4724345,8.164721,-7.766292,35.036064,11.041273,-13.641886
3.352458953857422,-4.2841325,7.571217,-7.440595,33.623417,10.748217,-12.926027
3.3725507259368896,-4.1039157,6.9774213,-7.1077986,32.15177,10.4295025,-12.202316
3.3926210403442383,-3.9328196,6.386935,-6.7692266,30.647257,10.096584,-11.478647
3.412708282470703,-3.7631164,5.802924,-6.4243283,29.126612,9.758192,-10.759298
3.4327900409698486,-3.5807517,5.230356,-6.0656033,27.614916,9.4279175,-10.045624
3.4529051780700684,-3.3901048,4.6811643,-5.687208,26.126291,9.129106,-9.340826
3.47354793548584,-3.3901048,4.6811643,-5.687208,26.126291,9.129106,-9.340826
3.493651866912842,-3.183125,4.170608,-5.2980404,24.680616,8.876226,-8.619716
3.5137453079223633,-2.975212,3.6948621,-4.9119987,23.273584,8.657425,-7.87335
3.533872365951538,-2.716177,3.0938094,-4.489382,22.249706,8.347744,-7.1213703
3.5538909435272217,-1.3979626,1.9965986,-3.899859,21.371565,8.0437,-5.8244944
3.5740394592285156,2.1104908,-1.0501734,-3.0276604,21.067144,7.17484,-2.0682762
3.5944364070892334,-1.5441097,-0.6420194,-2.5011637,20.17374,5.8466187,1.6082698
3.614291191101074,9.828855,-0.84613645,-2.8314571,34.086205,14.252436,3.330191
3.6343307495117188,12.950807,-3.6944818,-2.43405,35.992542,14.297174,6.443595
3.654433250427246,12.950807,-3.6944818,-2.43405,35.992542,14.297174,6.443595
3.674543619155884,4.546371,2.659065,-1.9638255,34.869934,13.181501,3.4639575
3.694610595703125,9.119603,-6.3999844,-4.385346,33.82861,16.375437,4.6029377
3.7146973609924316,-4.4653287,5.95844,-2.6605568,27.03349,7.224181,-1.636624
3.735065221786499,-7.3860536,7.3500094,-5.4546633,21.398336,7.758437,-4.6696625
3.7549524307250977,-12.762687,13.698999,-4.8252716,20.997423,5.740819,-5.90464
3.7751097679138184,-13.40218,14.782714,-5.6166115,22.994581,6.2829285,-8.497086
3.7952938079833984,-13.40218,14.782714,-5.6166115,22.994581,6.2829285,-8.497086
3.815476417541504,-12.67699,14.973205,-6.999487,25.565477,6.890194,-11.115576
3.835517644882202,-11.595281,14.76749,-8.157675,28.239775,7.343665,-13.364212
3.8556082248687744,-10.247953,14.237687,-8.771385,31.079554,7.95584,-15.028528
3.875694751739502,-8.903207,13.570105,-9.097351,34.085228,8.669067,-16.27948
3.8959336280822754,-8.903207,13.570105,-9.097351,34.085228,8.669067,-16.27948
3.916018009185791,-8.903207,13.570105,-9.097351,34.085228,8.669067,-16.27948
3.9361069202423096,-7.898703,13.03818,-9.31633,36.69645,9.46137,-17.167183
3.9561662673950195,-7.264256,12.647087,-9.454004,38.53338,10.224857,-17.571934
3.976295232772827,-6.7741466,12.337255,-9.533473,39.830498,10.853096,-17.747242
3.9965620040893555,-6.3683114,12.061773,-9.560162,40.722466,11.331997,-17.809189
4.016571283340454,-6.0136466,11.789358,-9.515881,41.2558,11.675049,-17.73146
4.0366246700286865,-5.680225,11.429997,-9.395645,41.387028,11.935715,-17.478523
4.05670952796936,-5.4000263,10.982173,-9.216532,41.079414,12.050188,-17.063915
4.077550172805786,-5.4000263,10.982173,-9.216532,41.079414,12.050188,-17.063915
4.097940683364868,-5.1673784,10.464392,-8.986888,40.377106,12.026888,-16.50405
4.117870330810547,-4.9609094,9.900461,-8.706083,39.35044,11.898293,-15.84968
4.138097524642944,-4.7650776,9.304421,-8.393414,38.088417,11.688599,-15.133826
4.158283710479736,-4.573117,8.690052,-8.061968,36.670933,11.419845,-14.382872
4.178357839584351,-4.3846087,8.069053,-7.7216763,35.161434,11.110738,-13.617411
4.198459625244141,-4.2022443,7.4500055,-7.378574,33.60457,10.775202,-12.851143
4.218540906906128,-4.0285153,6.838995,-7.033208,32.02807,10.425758,-12.091705
4.238935947418213,-3.8624678,6.23892,-6.6870737,30.445444,10.0704565,-11.343592
4.259820461273193,-3.8624678,6.23892,-6.6870737,30.445444,10.0704565,-11.343592
4.279900312423706,-3.6939049,5.6506014,-6.33546,28.871107,9.718338,-10.608498
4.300200700759888,-3.50955,5.0777874,-5.968602,27.32598,9.384833,-9.886387
4.320271253585815,-3.3145394,4.5356636,-5.58206,25.820063,9.092654,-9.172567
4.340266942977905,-3.1022663,4.0356097,-5.190201,24.366686,8.847581,-8.433297
4.3603456020355225,-2.885302,3.536657,-4.7988462,23.032597,8.6074295,-7.7012377
4.380439043045044,-2.6805992,2.9097636,-4.3454657,22.060026,8.300627,-6.846492
4.400529146194458,-0.24690278,1.3773216,-3.7291896,20.731112,7.9933386,-5.055565
4.420647621154785,-0.24690278,1.3773216,-3.7291896,20.731112,7.9933386,-5.055565
4.440741539001465,0.8421194,-1.2421325,-3.2403727,21.856848,6.6118383,-1.0090452
4.460834741592407,-2.1003067,-0.28595653,-3.1568468,22.804579,6.9493303,0.65489924
4.480907678604126,8.48895,-1.256028,-3.6028366,32.834312,15.260681,4.0512996
4.500962018966675,11.861123,-2.4995804,-2.158655,33.861744,13.064266,5.7900467
4.521060228347778,6.944183,0.9700731,-1.8536742,36.208374,13.920132,4.0512156
4.5414628982543945,12.032054,-7.6807647,-3.067369,31.737827,16.16447,6.0348697
4.561933755874634,-3.6109695,6.730264,-2.4999228,28.469755,8.130896,-0.52105534
4.582197189331055,-3.6109695,6.730264,-2.4999228,28.469755,8.130896,-0.52105534
4.602115869522095,-7.616732,4.490156,-5.595123,21.540691,9.630571,-3.1858168
4.622513055801392,-10.768187,10.119237,-4.0768266,16.9495,5.316862,-4.124612
4.6423797607421875,-12.863176,14.336549,-5.0350685,22.035965,5.462959,-6.583047
4.6624674797058105,-13.473086,15.914729,-6.814452,26.584408,6.717984,-10.461616
4.682608604431152,-12.907271,16.347954,-8.461477,30.62494,7.524371,-13.8551655
4.702682018280029,-11.4516535,16.122358,-9.328639,34.437756,8.3161745,-16.25467
4.722779989242554,-9.94168,15.5415535,-9.836183,38.171112,9.251692,-17.952824
4.742821455001831,-9.94168,15.5415535,-9.836183,38.171112,9.251692,-17.952824
4.771721363067627,-9.94168,15.5415535,-9.836183,38.171112,9.251692,-17.952824
4.79888129234314,-9.94168,15.5415535,-9.836183,38.171112,9.251692,-17.952824
4.818992376327515,-8.701021,15.006446,-10.196116,41.3609,10.202314,-19.198683
4.839115619659424,-7.9193125,14.576112,-10.446046,43.564026,11.138536,-19.76847
4.859166622161865,-7.9193125,14.576112,-10.446046,43.564026,11.138536,-19.76847
4.879321575164795,-7.4389715,14.201815,-10.553897,44.995663,11.867225,-19.976427
4.899544715881348,-7.043681,13.840487,-10.561939,45.82264,12.378493,-19.994595
4.9195733070373535,-6.6920238,13.496396,-10.489464,46.203766,12.7023945,-19.869719
4.939589977264404,-6.355658,13.135465,-10.365444,46.2704,12.896189,-19.636276
4.959721803665161,-6.0175815,12.692557,-10.182468,45.99946,13.035465,-19.255295
4.9797751903533936,-5.706482,12.171616,-9.937598,45.306946,13.071712,-18.703688
5.0000386238098145,-5.706482,12.171616,-9.937598,45.306946,13.071712,-18.703688
5.020231246948242,-5.4454484,11.576199,-9.654406,44.24209,12.9745865,-18.014072
5.040313243865967,-5.2159114,10.932944,-9.325619,42.88314,12.770397,-17.240261
5.0603063106536865,-5.0010567,10.261271,-8.966368,41.31624,12.488411,-16.415388
5.080394744873047,-4.7934055,9.576752,-8.590708,39.61891,12.152742,-15.563877
5.10046911239624,-4.591547,8.891501,-8.208898,37.85259,11.782828,-14.705127
5.120539903640747,-4.395812,8.214075,-7.8283544,36.06447,11.393525,-13.853654
5.140616178512573,-4.2079763,7.5495043,-7.4535756,34.28552,10.99378,-13.019384
5.160979509353638,-4.029102,6.902089,-7.0844374,32.532738,10.592167,-12.207083
5.18165922164917,-4.029102,6.902089,-7.0844374,32.532738,10.592167,-12.207083
5.2017481327056885,-3.858162,6.27412,-6.7205334,30.809813,10.194659,-11.41803
5.222177028656006,-3.685846,5.6641436,-6.3553257,29.123777,9.809042,-10.651142
5.2420384883880615,-3.496605,5.0756445,-5.9773674,27.493315,9.4506,-9.904092
5.2621660232543945,-3.2949774,4.5246487,-5.5806036,25.924389,9.143236,-9.169691
5.282387018203735,-3.0782018,4.019261,-5.180114,24.423092,8.887826,-8.413277
5.302433013916016,-2.8510506,3.4955418,-4.7760043,23.101786,8.621489,-7.677495
5.322472810745239,-2.6465704,2.8571675,-4.308279,22.143095,8.323273,-6.764703
5.343369722366333,-2.6465704,2.8571675,-4.308279,22.143095,8.323273,-6.764703
5.363450527191162,0.088916466,1.1452016,-3.6598449,20.688398,7.975826,-4.748386
5.383516073226929,0.6496108,-1.6257355,-3.0977871,21.466703,6.49347,-0.31460467
5.403641939163208,-1.6787738,0.1993042,-3.1186626,24.975626,8.285337,-0.14758244
5.42368221282959,8.118257,-3.0394194,-3.9429607,31.08875,14.0212555,4.9130297
5.443761825561523,2.5342765,3.4856179,-2.5524032,33.52748,10.54368,2.2671864
5.463837385177612,9.842621,-6.2207856,-5.1843653,37.80842,14.193656,4.591766
5.483904600143433,-0.39288387,2.9460022,-2.5758338,27.694065,8.623209,-0.18746439
5.5042219161987305,-0.39288387,2.9460022,-2.5758338,27.694065,8.623209,-0.18746439
5.524344205856323,3.8116586,-2.5168688,-4.1858234,24.831625,10.586161,0.8384384
5.544424057006836,-5.2049265,5.340693,-2.3799624,21.5162,3.9707925,-3.1168444
5.5648181438446045,-11.420249,14.931028,-6.5687966,34.65093,9.33383,-6.997301
5.584725856781006,-16.45253,15.301902,-5.6923466,22.323938,7.147352,-8.8085375
5.604808568954468,-13.792906,13.810971,-5.743265,20.960331,6.383732,-9.360019
5.624881982803345,-12.124995,12.664818,-6.0536637,20.664371,6.2772913,-9.814419
5.6449713706970215,-10.775706,11.829549,-6.552883,21.184603,6.4156666,-10.445198
5.6651997566223145,-10.775706,11.829549,-6.552883,21.184603,6.4156666,-10.445198
5.685256004333496,-9.652581,11.069698,-7.024541,22.20527,6.7006464,-11.1137085
5.705376386642456,-8.472608,10.411283,-7.3817396,24.125565,7.1500955,-11.873144
5.72544264793396,-7.395556,9.829912,-7.562844,26.4225,7.685007,-12.588628
5.745511054992676,-6.6618605,9.392567,-7.6073294,28.288263,8.186007,-13.129547
5.765808820724487,-6.153336,9.155962,-7.6340156,29.715855,8.680356,-13.426664
5.785741806030273,-5.720264,8.977191,-7.6941695,30.8766,9.109115,-13.604286
5.805837631225586,-5.3360605,8.740837,-7.7277966,31.731985,9.497383,-13.636465
5.827515602111816,-5.3360605,8.740837,-7.7277966,31.731985,9.497383,-13.636465
5.847586154937744,-5.016894,8.425024,-7.67905,32.13459,9.794431,-13.497629
5.867671251296997,-4.7494025,8.042785,-7.549327,32.087257,9.956338,-13.192329
5.887765645980835,-4.523359,7.609972,-7.357954,31.66609,9.989291,-12.757025
5.907876968383789,-4.3246617,7.139364,-7.1237106,30.955276,9.916094,-12.235427
5.927969455718994,-4.1435156,6.644084,-6.8601317,30.030918,9.767273,-11.660632
5.948040246963501,-3.9697127,6.131371,-6.573119,28.958227,9.567555,-11.051671
5.968147277832031,-3.791679,5.606759,-6.261663,27.788656,9.336693,-10.419508
5.988329172134399,-3.608288,5.078088,-5.9272203,26.548439,9.094286,-9.776289
6.008733034133911,-3.608288,5.078088,-5.9272203,26.548439,9.094286,-9.776289
6.02868390083313,-3.418856,4.5612845,-5.57078,25.27302,8.8645115,-9.129578
6.049049139022827,-3.217043,4.0719566,-5.207525,23.99523,8.656157,-8.4531145
6.069029808044434,-3.0112755,3.618693,-4.844451,22.726706,8.47698,-7.7370825
6.089028358459473,-2.7683556,3.0637214,-4.4568233,21.735136,8.232836,-7.011488
6.109112739562988,-1.3462425,2.015074,-3.927629,20.724695,7.9299498,-5.8588963
6.129180431365967,1.3808275,-0.74700797,-3.1091835,20.589891,6.9995985,-2.537958
6.1503942012786865,1.3808275,-0.74700797,-3.1091835,20.589891,6.9995985,-2.537958
6.170496463775635,-1.8262898,-1.1057389,-2.5501902,18.41052,5.011062,2.1276271
6.1905677318573,8.02728,0.53564966,-2.83399,33.57886,14.386351,1.2202142
6.210652828216553,12.944763,-6.647368,-3.3694577,34.006752,13.229406,6.879361
6.230729579925537,2.7145362,3.297668,-2.2224023,33.222633,11.225202,2.4354582
6.250813961029053,6.4501543,-4.684671,-5.7662077,35.958916,13.90196,4.1359425
6.270906209945679,-6.6640744,5.3251734,-2.307272,27.828135,8.436695,-4.4034724
6.2909839153289795,-11.163269,10.852805,-5.3992004,26.079458,7.438559,-5.555145
6.3110671043396,-11.163269,10.852805,-5.3992004,26.079458,7.438559,-5.555145
6.331239223480225,-14.065611,12.617882,-4.3497763,18.119598,5.8255014,-6.378823
6.351641654968262,-12.527841,12.004795,-4.7292404,17.638304,5.418134,-7.2084203
6.371492147445679,-11.252368,11.357137,-5.354352,18.26161,5.5271606,-8.161549
6.391581296920776,-10.109714,10.862933,-6.0773315,19.52251,5.847325,-9.238106
6.411983489990234,-9.222123,10.424684,-6.6431794,20.843447,6.238331,-10.124081
6.431951999664307,-8.193011,9.908247,-7.027664,22.904718,6.741373,-10.981176
6.452322244644165,-7.1637287,9.400052,-7.2513213,25.282675,7.298173,-11.850659
6.472378253936768,-7.1637287,9.400052,-7.2513213,25.282675,7.298173,-11.850659
6.492504596710205,-6.448343,9.040139,-7.3347187,27.226637,7.846736,-12.503392
6.512596368789673,-5.9615235,8.84939,-7.393201,28.7615,8.377283,-12.8798485
6.532661199569702,-5.5477486,8.700962,-7.480931,30.005594,8.835806,-13.112171
6.553059101104736,-5.1887484,8.489111,-7.536441,30.932081,9.247234,-13.190911
6.572907209396362,-4.8898273,8.190238,-7.5029874,31.394339,9.566015,-13.091185
6.592975378036499,-4.638898,7.8207474,-7.386117,31.394182,9.745745,-12.8178005
6.613067150115967,-4.42528,7.4003243,-7.207012,31.015898,9.795007,-12.413924
6.633219480514526,-4.237854,6.9416084,-6.9835057,30.34544,9.737538,-11.920446
6.653515577316284,-4.237854,6.9416084,-6.9835057,30.34544,9.737538,-11.920446
6.6736485958099365,-4.0674458,6.4565334,-6.7282424,29.456045,9.603151,-11.369478
6.693735122680664,-3.898494,5.9520545,-6.4454513,28.417088,9.416475,-10.77908
6.7137980461120605,-3.7244096,5.4339113,-6.1359916,27.272814,9.198144,-10.16254
6.734179258346558,-3.543707,4.912838,-5.802109,26.05597,8.971013,-9.534405
6.754287004470825,-3.3569455,4.405948,-5.4482536,24.803991,8.755883,-8.8952465
6.774385690689087,-3.1543334,3.9293334,-5.0871115,23.54694,8.564642,-8.215142
6.794462203979492,-2.955707,3.4856827,-4.7318068,22.300611,8.396587,-7.498554
6.814621686935425,-2.7151413,2.886715,-4.3299575,21.43154,8.13826,-6.744915
6.834743976593018,-2.7151413,2.886715,-4.3299575,21.43154,8.13826,-6.744915
6.854807615280151,-0.26202664,1.3988067,-3.7800076,20.170137,7.8268356,-5.0567555
6.874979734420776,0.32392958,-0.8096942,-3.3740895,21.631037,6.4182234,-1.5951953
6.8963775634765625,-1.4296135,-0.6474503,-3.0295382,21.253973,6.4064293,1.1811494
6.918938875198364,-1.4296135,-0.6474503,-3.0295382,21.253973,6.4064293,1.1811494
6.9391090869903564,8.366193,-1.2732085,-3.1014123,32.73645,13.444184,3.3489234
6.959144353866577,12.330913,-2.3539348,-2.1250606,36.423138,14.07119,6.2792454
6.979248046875,7.9809804,0.5321411,-1.736903,35.79619,13.976208,4.9834795
6.9993369579315186,13.188936,-7.6831913,-2.809774,32.458344,17.488478,5.5983577
7.019450426101685,-2.7092052,6.310518,-2.4933848,28.73488,8.293337,-0.0992414
7.039538145065308,-5.4859104,2.3763216,-6.208514,23.521942,11.0716,-2.4038036
7.059816837310791,-5.4859104,2.3763216,-6.208514,23.521942,11.0716,-2.4038036
7.080047845840454,-8.77387,5.807357,-3.612473,14.228954,5.9001493,-2.47481
7.100043535232544,-12.029416,12.3089285,-4.4898596,20.170412,4.0027614,-5.28906
7.12011456489563,-13.665253,15.971171,-6.0858183,25.702196,6.1083646,-9.112585
7.1402270793914795,-13.914834,17.016188,-8.081387,30.096712,7.2410297,-12.965717
7.160288333892822,-12.559574,17.114513,-9.301745,34.38049,8.145492,-15.947013
7.180373907089233,-10.994132,16.526876,-9.883831,38.20213,9.107225,-17.866798
7.200429439544678,-9.554709,15.902883,-10.309544,41.693798,10.055914,-19.382307
7.220928907394409,-9.554709,15.902883,-10.309544,41.693798,10.055914,-19.382307
7.241029500961304,-8.515595,15.3751,-10.634783,44.335197,11.038166,-20.262016
7.261180877685547,-7.914569,14.947953,-10.793774,46.017662,11.866957,-20.579086
7.2812371253967285,-7.468709,14.536205,-10.832613,47.02951,12.470409,-20.639946
7.301341772079468,-7.0831046,14.138932,-10.772542,47.48738,12.854103,-20.526505
7.321374177932739,-6.7238255,13.756116,-10.657921,47.596863,13.071751,-20.310368
7.3414647579193115,-6.373363,13.351194,-10.504543,47.445557,13.205,-19.995314
7.361530065536499,-6.0285835,12.862401,-10.290119,46.95228,13.297499,-19.528175
7.381654739379883,-6.0285835,12.862401,-10.290119,46.95228,13.297499,-19.528175
7.4017493724823,-5.7166934,12.297186,-10.018047,46.043007,13.281719,-18.89663
7.421840190887451,-5.4539003,11.66206,-9.709842,44.786087,13.134777,-18.142067
7.441923141479492,-5.2204614,10.9853525,-9.358578,43.268257,12.8884115,-17.317966
7.4619786739349365,-5.001269,10.286111,-8.981653,41.57357,12.571573,-16.45367
7.482085466384888,-4.789517,9.579496,-8.592278,39.775097,12.207713,-15.571911
7.502512454986572,-4.5842075,8.877006,-8.199945,37.929955,11.815571,-14.690208
7.522379398345947,-4.3858957,8.186278,-7.811413,36.081097,11.409032,-13.821358
7.543148994445801,-4.196296,7.511421,-7.430546,34.255432,10.9959135,-12.973982
7.5632383823394775,-4.196296,7.511421,-7.430546,34.255432,10.9959135,-12.973982
7.583301544189453,-4.01592,6.8563294,-7.0569363,32.466095,10.583795,-12.151909
7.603379964828491,-3.8434331,6.2225356,-6.6894655,30.714277,10.178194,-11.355501
7.62347936630249,-3.6676955,5.6081457,-6.3203106,29.007318,9.787146,-10.5827675
7.643565654754639,-3.4754825,5.018092,-5.938317,27.362505,9.42716,-9.83107
7.6637022495269775,-3.2704272,4.46906,-5.5379744,25.785364,9.122039,-9.090421
7.683754205703735,-3.0526524,3.9653137,-5.135553,24.277372,8.868242,-8.327861
7.703843593597412,-2.815972,3.4200494,-4.7232695,23.006134,8.584211,-7.5881824
7.724463701248169,-2.815972,3.4200494,-4.7232695,23.006134,8.584211,-7.5881824
7.7445127964019775,-2.5302558,2.748305,-4.2495737,22.22003,8.322105,-6.5872827
7.764601469039917,0.76693636,0.6099814,-3.4535456,20.57627,7.8501024,-4.134555
7.784695148468018,0.054485362,-2.2958796,-2.9927797,19.707685,5.554739,1.5157647
7.804792881011963,-2.4976954,1.1086768,-3.3575318,29.854475,11.1844425,-1.377225
7.824974775314331,6.754173,-0.88445437,-4.130322,29.860794,13.749899,1.9579881
7.845027208328247,13.645492,-4.0242295,-2.7705412,35.983047,14.00387,5.6346445
7.865111827850342,4.9711995,2.448335,-1.9549198,35.502285,13.402525,3.8446662
7.886370420455933,4.9711995,2.448335,-1.9549198,35.502285,13.402525,3.8446662
7.906246662139893,10.504533,-7.275818,-3.4991899,32.695236,16.99637,4.2727785
7.926339149475098,-1.6814653,6.3468204,-2.7129834,29.37063,8.398729,0.4388276
7.94641900062561,-2.8276277,-0.49227062,-6.5814576,26.081842,12.424629,0.063733794
7.966489553451538,-6.4838552,3.532884,-4.6359425,18.107874,7.710464,-0.7302747
7.986671686172485,-6.91538,5.7601457,-3.434616,14.875197,4.5604043,-2.8951926
8.006864547729492,-11.738172,13.221868,-4.828035,20.943464,5.0237956,-5.536217
8.026956558227539,-11.738172,13.221868,-4.828035,20.943464,5.0237956,-5.536217
8.047032117843628,-13.383691,16.001356,-6.801379,26.346869,6.4917736,-9.678796
8.067123889923096,-13.355971,16.964537,-8.502363,30.506157,7.553197,-13.294793
8.087206602096558,-11.972018,16.817146,-9.487709,34.452106,8.393427,-15.945473
8.107292175292969,-10.442087,16.149292,-9.998701,38.322838,9.337558,-17.790077
8.12769341468811,-9.116797,15.465084,-10.303664,41.45147,10.203822,-19.160805
8.148114204406738,-9.116797,15.465084,-10.303664,41.45147,10.203822,-19.160805
8.168492317199707,-8.202889,14.911044,-10.524965,43.704086,11.066345,-19.865314
8.188419818878174,-7.6260653,14.456076,-10.604294,45.10971,11.777864,-20.061676
8.20866322517395,-7.1822686,14.0214205,-10.5819,45.889626,12.283318,-20.03561
8.2287437915802,-6.796057,13.604811,-10.4886675,46.21061,12.589775,-19.872423
8.248830795288086,-6.4443393,13.224201,-10.363035,46.256073,12.762318,-19.636744
8.269110441207886,-6.114088,12.833125,-10.210042,46.0728,12.877579,-19.319576
8.28937554359436,-6.114088,12.833125,-10.210042,46.0728,12.877579,-19.319576
8.309402227401733,-5.792466,12.356596,-10.002975,45.568985,12.962743,-18.856873
8.329480171203613,-5.509853,11.80081,-9.745178,44.659332,12.937602,-18.231361
8.349546909332275,-5.2716045,11.180968,-9.439711,43.41937,12.792447,-17.498228
8.36963963508606,-5.057043,10.521295,-9.093924,41.93036,12.553117,-16.698645
8.389700412750244,-4.8522468,9.840435,-8.725278,40.276215,12.246767,-15.860275
8.409821033477783,-4.6523786,9.1529455,-8.345814,38.52708,11.895793,-15.005372
8.429859399795532,-4.457292,8.469461,-7.964204,36.737057,11.517662,-14.151314
8.450045824050903,-4.457292,8.469461,-7.964204,36.737057,11.517662,-14.151314
8.470075130462646,-4.268754,7.7967243,-7.586332,34.94423,11.124082,-13.310169
8.490187644958496,-4.268754,7.7967243,-7.586332,34.94423,11.124082,-13.310169
8.51024866104126,-4.0879216,7.1392317,-7.2145405,33.17299,10.7242,-12.489286
8.530374526977539,-3.915014,6.5011134,-6.8482676,31.430904,10.32549,-11.690991
8.550453662872314,-3.746126,5.881606,-6.484188,29.721321,9.934504,-10.915139
8.57053542137146,-3.5622683,5.281734,-6.110937,28.063772,9.5632715,-10.15909
8.590736389160156,-3.3660383,4.713455,-5.7202015,26.466055,9.235436,-9.421843
8.61075758934021,-3.3660383,4.713455,-5.7202015,26.466055,9.235436,-9.421843
8.630851984024048,-3.1533842,4.1917295,-5.31877,24.938261,8.963681,-8.673411
8.650997877120972,-2.944103,3.705765,-4.922656,23.46514,8.727921,-7.907937
8.671143770217896,-2.687132,3.0739453,-4.478118,22.4513,8.3844795,-7.1215844
8.691249370574951,-1.2131946,1.87663,-3.8452122,21.524792,8.070546,-5.672085
8.71134638786316,2.2633796,-1.210327,-3.0312564,21.499483,7.124351,-1.6393588
8.731389284133911,-1.6001607,-0.33934632,-2.690328,21.522469,6.3240633,1.1546224
8.75147795677185,10.073007,-1.811006,-3.2919297,34.74367,15.158907,4.1648974
8.771704912185669,10.622182,-1.0731026,-1.7505865,34.120407,12.931712,5.6634536
8.791804313659668,10.622182,-1.0731026,-1.7505865,34.120407,12.931712,5.6634536
8.811886310577393,12.413592,-3.9420626,-2.482303,36.87452,15.03005,6.259288
8.83196234703064,4.4237933,3.3898604,-2.1100025,31.335524,11.372484,3.3449256
8.852108240127563,7.018244,-4.526285,-5.064961,32.6261,16.556145,2.6582804
8.872443675994873,-7.3669677,7.4104958,-2.9774268,25.099028,5.63608,-2.9903803
8.892661333084106,-13.2797,14.910857,-5.521754,26.983118,6.903779,-6.165172
8.912667274475098,-15.047992,16.704689,-5.5749855,25.162577,7.0212116,-8.019006
8.932795763015747,-14.173203,16.233267,-6.5008945,26.087008,7.2066946,-10.337089
8.953007936477661,-12.849864,15.619422,-7.5427704,27.636889,7.3314652,-12.520996
8.973143577575684,-12.849864,15.619422,-7.5427704,27.636889,7.3314652,-12.520996
8.993217468261719,-11.304949,14.928238,-8.382648,29.58266,7.599631,-14.233227
9.013307094573975,-9.883758,14.141478,-8.722477,31.63463,8.088953,-15.306298
9.03344178199768,-8.607671,13.325896,-8.911303,33.67539,8.647916,-16.142445
9.053461074829102,-7.68341,12.675166,-9.050855,35.61245,9.304896,-16.701448
9.073543071746826,-7.058167,12.190778,-9.130103,37.078815,9.941697,-16.951836
9.093630075454712,-6.5369344,11.826492,-9.185656,38.17867,10.498758,-17.061548
9.114984512329102,-6.5369344,11.826492,-9.185656,38.17867,10.498758,-17.061548
9.13505244255066,-6.1213193,11.533522,-9.209232,39.013794,10.946289,-17.101398
9.155142307281494,-5.7668314,11.2541895,-9.173996,39.557045,11.294121,-17.023167
9.175216436386108,-5.4468923,10.8900175,-9.060689,39.69992,11.5655365,-16.767986
9.19532322883606,-5.1925116,10.440743,-8.8916645,39.400867,11.675505,-16.348602
9.215394973754883,-4.9805565,9.932003,-8.6660385,38.724915,11.651361,-15.800913
9.235630512237549,-4.789295,9.382258,-8.39419,37.74498,11.527485,-15.165607
9.25558614730835,-4.6056314,8.804301,-8.093468,36.544895,11.326779,-14.475039
9.277206182479858,-4.6056314,8.804301,-8.093468,36.544895,11.326779,-14.475039
9.297333240509033,-4.4239035,8.210592,-7.776263,35.201256,11.070417,-13.754219
9.317357301712036,-4.245232,7.6117597,-7.451065,33.771595,10.775642,-13.0212555
9.337465763092041,-4.07381,7.016038,-7.12011,32.292423,10.457017,-12.286325
9.357532501220703,-3.910593,6.4269624,-6.784894,30.787268,10.1254015,-11.556152
9.377753496170044,-3.7504585,5.8467264,-6.4451685,29.269146,9.789236,-10.834927
9.397715330123901,-3.5750144,5.277029,-6.0912924,27.763308,9.46146,-10.123329
9.41779088973999,-3.3877816,4.728179,-5.716795,26.281084,9.163827,-9.422457
9.437994003295898,-3.3877816,4.728179,-5.716795,26.281084,9.163827,-9.422457
9.458219528198242,-3.1852198,4.2160974,-5.331416,24.838646,8.908142,-8.705617
9.483969926834106,-2.9784687,3.7397575,-4.946471,23.431875,8.688229,-7.960775
9.524968147277832,-2.9784687,3.7397575,-4.946471,23.431875,8.688229,-7.960775
9.545061826705933,-2.7207556,3.1403413,-4.524014,22.397745,8.377714,-7.2089133
9.56538200378418,-1.660943,2.1287549,-3.95339,21.644032,8.108091,-5.927142
9.585603713989258,2.325696,-1.1120905,-2.9505415,20.772638,7.2907453,-2.1671088
9.60570240020752,2.325696,-1.1120905,-2.9505415,20.772638,7.2907453,-2.1671088
9.625898122787476,-1.1900145,-0.55708253,-2.27899,20.206755,5.9570355,1.616114
9.645894050598145,10.061891,-1.4717237,-2.8345666,34.298782,13.980006,3.6934593
9.665967464447021,11.063669,-1.9115441,-1.8760595,35.13443,13.4207,5.6983643
9.686136722564697,10.302196,-1.0527622,-1.7036736,36.04073,14.337471,5.423586
9.706175327301025,11.593011,-4.6527658,-2.124514,30.99883,14.322876,4.389438
9.726258516311646,1.8405226,3.8572757,-2.1213925,28.084473,9.287756,-0.01640024
9.74636721611023,-4.4743204,-0.96681345,-6.8704233,29.852152,10.811157,0.85532296
9.766458749771118,-4.4743204,-0.96681345,-6.8704233,29.852152,10.811157,0.85532296
9.78655219078064,-6.158035,4.7349286,-4.622613,22.022078,8.87148,-0.7860776
9.806689500808716,-7.5421276,3.9879162,-4.3940315,15.496718,7.2256866,-1.9435388
9.826740503311157,-9.452076,8.806701,-3.001906,13.860723,3.6438975,-2.839648
9.846861362457275,-11.885007,12.656558,-4.466252,18.889082,4.3474264,-5.439211
9.866930961608887,-12.572608,14.199664,-6.060202,22.650736,5.8321157,-8.521669
9.887342929840088,-12.113362,14.702557,-7.5327644,25.790997,6.7715034,-11.315869
9.907522678375244,-11.099573,14.660083,-8.4849825,28.779078,7.493444,-13.528329
9.927581310272217,-11.099573,14.660083,-8.4849825,28.779078,7.493444,-13.528329
9.947728872299194,-9.730587,14.041827,-8.952684,32.260082,8.266359,-15.176469
9.967779397964478,-8.5759325,13.349726,-9.185144,35.26302,8.972707,-16.440207
9.987883806228638,-7.736504,12.878065,-9.351642,37.551624,9.758762,-17.236727
10.007941961288452,-7.1541367,12.513931,-9.435602,39.095333,10.447628,-17.52508
10.028059005737305,-6.6777596,12.187565,-9.468564,40.12564,10.987424,-17.61799
10.048148155212402,-6.2604313,11.880818,-9.448114,40.76999,11.372755,-17.591105
10.068221092224121,-5.895459,11.584863,-9.377756,41.112865,11.632403,-17.448936
10.088388204574585,-5.895459,11.584863,-9.377756,41.112865,11.632403,-17.448936
10.108501195907593,-5.5664687,11.213387,-9.255287,41.12375,11.833729,-17.165482
10.128592014312744,-5.2968364,10.75357,-9.076679,40.704758,11.920153,-16.715893
10.14867115020752,-5.0735774,10.226683,-8.836363,39.89801,11.882054,-16.141022
10.168765783309937,-4.872642,9.652743,-8.549469,38.78956,11.740741,-15.479209
10.188854455947876,-4.6793003,9.048687,-8.233212,37.468956,11.520941,-14.761295
10.20896863937378,-4.4893217,8.429268,-7.900442,36.012787,11.245474,-14.012716
10.229020357131958,-4.304014,7.805564,-7.560298,34.47886,10.931858,-13.2520895
10.24946141242981,-4.304014,7.805564,-7.560298,34.47886,10.931858,-13.2520895
10.26964282989502,-4.1254735,7.1858063,-7.2165637,32.90648,10.594769,-12.4915
10.289661169052124,-3.9549217,6.574748,-6.8704987,31.31869,10.245338,-11.737766
10.30981707572937,-3.7891846,5.974603,-6.522548,29.7265,9.891321,-10.994628
10.329831838607788,-3.6108184,5.387419,-6.1638727,28.154345,9.544599,-10.26222
10.349903583526611,-3.4221873,4.82304,-5.7880707,26.615091,9.225954,-9.542174
10.370044469833374,-3.2205446,4.2968063,-5.3963118,25.123995,8.954815,-8.818638
10.390161752700806,-3.008722,3.809833,-5.004382,23.682108,8.725896,-8.06746
10.410351753234863,-2.7579727,3.2337172,-4.5875835,22.558632,8.4305725,-7.324024
10.430585145950317,-2.7579727,3.2337172,-4.5875835,22.558632,8.4305725,-7.324024
10.450908422470093,-2.2358649,2.474788,-4.0980096,22.062803,8.234586,-6.1545787
10.470760822296143,2.3159192,-0.7061962,-2.942026,20.032722,7.481576,-2.6906312
10.490830421447754,-1.1167041,-1.3533404,-2.2730603,18.351421,5.009087,2.450966
10.510953903198242,6.811726,0.104108185,-2.8756986,33.49923,13.182697,0.061832286
10.531014680862427,8.529907,-5.163366,-3.6290197,30.039057,9.763208,6.490642
10.551122665405273,0.006106776,1.9585131,-2.305182,30.36452,9.84816,-0.17223802
10.5711989402771,4.462646,-3.861952,-4.4757223,27.434412,10.569342,4.2958155
10.591561555862427,4.462646,-3.861952,-4.4757223,27.434412,10.569342,4.2958155
10.611689805984497,-2.0053053,3.2278457,-2.7205195,26.790174,7.4293737,-1.7512497
10.63175368309021,-3.8659582,2.0595186,-5.1568756,19.134813,7.188101,-3.9507287
10.652045249938965,-10.125547,9.546143,-3.3619761,15.319558,4.7356052,-3.9432383
10.67201018333435,-11.090542,10.305083,-3.5343132,14.605249,4.4537625,-5.292275
10.692403316497803,-10.936211,10.141689,-4.0774784,15.298838,4.729924,-6.4401894
10.712271451950073,-10.288943,9.947796,-4.935133,16.656826,5.0975456,-7.7018228
10.732319593429565,-9.441878,9.781682,-5.801895,18.466581,5.6361227,-8.928892
10.752805233001709,-9.441878,9.781682,-5.801895,18.466581,5.6361227,-8.928892
10.772904396057129,-8.680431,9.567291,-6.52436,20.560228,6.2254963,-10.053885
10.793077230453491,-7.588065,9.279064,-7.0588655,23.61402,6.894541,-11.298963
10.813099384307861,-6.701631,8.997382,-7.2896705,26.398758,7.5485554,-12.28071
10.833184480667114,-6.166939,8.878821,-7.40753,28.498766,8.196293,-12.89503
10.853306531906128,-5.7679753,8.816989,-7.5192413,30.049706,8.753452,-13.244132
10.873347759246826,-5.3947873,8.692306,-7.6201763,31.213978,9.231186,-13.423923
10.893640756607056,-5.069789,8.447099,-7.631757,31.900053,9.624834,-13.404615
10.913628339767456,-5.069789,8.447099,-7.631757,31.900053,9.624834,-13.404615
10.933699131011963,-4.800431,8.1115465,-7.5455465,32.057884,9.866262,-13.189615
10.953833818435669,-4.5723896,7.7114177,-7.385265,31.784895,9.958974,-12.821304
10.974130392074585,-4.3714046,7.2625,-7.172463,31.181644,9.9274845,-12.346247
10.994017601013184,-4.188228,6.7813296,-6.923871,30.332663,9.806788,-11.802935
11.01411747932434,-4.01478,6.277187,-6.648617,29.307825,9.625242,-11.214707
11.034210205078125,-3.8385491,5.756799,-6.3473988,28.1662,9.404194,-10.595251
11.05428671836853,-3.6581826,5.229783,-6.0230627,26.941473,9.162659,-9.956529
11.074368238449097,-3.4718761,4.7091703,-5.67481,25.670607,8.927405,-9.31357
11.094751119613647,-3.4718761,4.7091703,-5.67481,25.670607,8.927405,-9.31357
11.114879369735718,-3.276431,4.2112393,-5.313842,24.387842,8.711609,-8.651031
11.135280847549438,-3.0678353,3.7490115,-4.948283,23.112297,8.527485,-7.9445724
11.155179023742676,-2.8466954,3.2483237,-4.5775347,21.999552,8.319312,-7.2353983
11.175241947174072,-2.499836,2.5807087,-4.1396813,21.241587,8.096706,-6.328581
11.195353269577026,1.552427,0.05152449,-3.2690067,19.368343,7.579546,-3.4516954
11.215477228164673,-0.056408007,-2.483314,-2.7020614,17.571413,4.553637,2.4716337
11.235547304153442,-1.5300022,1.5405039,-3.0581515,30.914366,12.082466,-1.5759529
11.255620002746582,5.679089,-2.1880136,-4.0293055,29.281511,11.614965,2.4265501
11.275695323944092,5.679089,-2.1880136,-4.0293055,29.281511,11.614965,2.4265501
11.295804977416992,8.966282,-0.06463209,-2.0726175,34.862247,12.54303,4.218479
11.315895318984985,15.265102,-7.3771663,-3.1223493,37.16426,17.205986,7.2302723
11.33598017692566,1.7238537,4.5431747,-2.3414955,31.124626,10.360058,2.6848075
11.356138944625854,2.9674163,-3.0210323,-7.924487,37.203087,15.783717,4.474372
11.376169204711914,-9.924626,7.9635925,-3.3573663,29.317455,8.503114,-5.653276
11.39624834060669,-13.571755,14.088715,-4.668603,24.037922,6.5960746,-5.5009966
11.41638994216919,-13.571755,14.088715,-4.668603,24.037922,6.5960746,-5.5009966
11.436466455459595,-13.845402,14.386994,-4.950567,21.14688,6.4850235,-6.8105736
11.456543684005737,-13.845402,14.386994,-4.950567,21.14688,6.4850235,-6.8105736
11.47664761543274,-12.539867,13.650722,-5.6237187,21.314323,6.439584,-8.101173
11.496981143951416,-11.2807665,12.9452505,-6.33149,22.042234,6.4856787,-9.446769
11.516906499862671,-10.264368,12.389332,-7.037215,23.170633,6.715055,-10.744766
11.537176847457886,-9.135943,11.693785,-7.514788,24.96676,7.0283036,-11.861708
11.557278633117676,-8.022365,11.030306,-7.735734,27.228762,7.540939,-12.734814
11.577358484268188,-7.125053,10.452039,-7.8521376,29.270552,8.072627,-13.435356
11.597427606582642,-6.530688,10.083804,-7.8907022,30.794527,8.623258,-13.869001
11.619146585464478,-6.530688,10.083804,-7.8907022,30.794527,8.623258,-13.869001
11.639246463775635,-6.05976,9.80975,-7.92929,31.983408,9.118846,-14.115951
11.659330368041992,-5.6325336,9.583801,-7.986862,32.94123,9.536385,-14.26673
11.679412364959717,-5.2640767,9.361808,-8.023559,33.66768,9.887899,-14.291992
11.699486494064331,-4.9507213,9.049838,-7.9906826,34.03803,10.193085,-14.158869
11.719749689102173,-4.7105756,8.665105,-7.8677993,33.962975,10.35827,-13.864265
11.739719152450562,-4.513782,8.221686,-7.679263,33.513195,10.387796,-13.437953
11.759790420532227,-4.342737,7.74264,-7.447605,32.765095,10.313851,-12.924291
11.779952764511108,-4.342737,7.74264,-7.447605,32.765095,10.313851,-12.924291
11.800345182418823,-4.1821575,7.237947,-7.187036,31.802898,10.163612,-12.3526125
11.820231676101685,-4.0270123,6.716139,-6.9053917,30.69007,9.959049,-11.743057
