liuyurong129/humanoid-gym/humanoid/data/robot2_actual_20250621-220827.csv
timestamp,joint_1,joint_2,joint_3,joint_4,joint_5,joint_6
0.0002884864807128906,0.0,0.0,0.0,0.0,0.0,0.0
0.020296335220336914,0.0,0.0,0.0,0.0,0.0,0.0
0.040349721908569336,0.0,0.0,0.0,0.0,0.0,0.0
0.06042218208312988,0.0,0.0,0.0,0.0,0.0,0.0
0.08055448532104492,0.0,0.0,0.0,0.0,0.0,0.0
0.1006309986114502,-0.0033332629596545603,0.0033333339161765,0.0033333207775357566,0.003333333333333334,-0.003333326155615028,0.003332831239043727
0.12074661254882812,-0.006666596464824497,0.006666667248405537,0.006666654927369221,0.006666666666666668,-0.006666659476462625,0.00666616353886014
0.14083409309387207,-0.013333259754004687,0.013333338496860615,-3.874500125681385e-09,0.013333324099538569,-0.013333324481267148,-5.788696275858644e-07
0.1609501838684082,-0.0199999263306737,0.02000000955459756,-0.006666669643695213,0.019999975494315224,-0.019999987980125845,-0.006667254366782545
0.18104147911071777,-0.023333259411194334,0.023333342896753876,-0.010000002097947028,0.023333308827648558,-0.023333321069463207,-0.010000605684489173
0.20113611221313477,-0.029999925638504114,0.030000013868847465,-0.01666666760960837,0.029999954384569413,-0.02999998123826127,-0.01000069027651199
0.22145843505859375,-0.036666601430496694,0.03462938317389542,-0.016666673037438177,0.029999927624079298,-0.03666665313915549,-0.003333064773572663
0.2413172721862793,-0.04333326886757138,0.0324624853825537,-0.01666667041460122,0.02999987324367596,-0.03666663388327526,0.0033333555162097326
0.2614438533782959,-0.04666660227898225,0.029129156126037805,-0.020000003747934553,0.03333317309870436,-0.03333328757596673,0.006666695789863921
0.2815110683441162,-0.053333250449530724,0.026262023919344693,-0.013333348093291768,0.039999839029039475,-0.039999963460016504,0.013334220812804892
0.30159544944763184,-0.059999917443756365,0.01959536810748983,-0.020000014759958436,0.04666632772874335,-0.04666655829331328,0.020000909328294375
0.32219743728637695,-0.06333325797315391,0.02292870115812769,-0.01666668560051624,0.04924714664868861,-0.049999895487708446,0.02333454544871555
0.3422553539276123,-0.06999992109712477,0.022928704797186266,-0.016666680975536974,0.05490321032691823,-0.04999988204720169,0.030000871148264184
0.36234402656555176,-0.07666659087959268,0.021113211692492567,-0.016666684103281582,0.05874378232040482,-0.04999986450995625,0.036667803963139595
0.3824656009674072,-0.08333325447347292,0.019145938257862788,-0.016666680083016007,0.06253359319454298,-0.04999982550626458,0.04333418057215935
0.40249109268188477,-0.08666658802585803,0.015812609292526668,-0.02000001341634934,0.06586688358281798,-0.046666469185325084,0.046667524125665674
0.42262721061706543,-0.09333326044307091,0.02247927965692187,-0.013333350748062647,0.0725335152063745,-0.05333312268498214,0.05333448306855746
0.4426915645599365,-0.09999992037433826,0.01581261788318108,-0.02000001203500082,0.07920013874850197,-0.04666642474368324,0.06000080995385419
0.46281862258911133,-0.10666659003913688,0.0224792871856166,-0.026515176498795458,0.0858667904550621,-0.05333308719411016,0.06666765663301776
0.48302698135375977,-0.11333325674531243,0.029145958206150853,-0.03318184300285325,0.09253341114087556,-0.05999972909434696,0.07333432664013369
0.5034525394439697,-0.11666659577036369,0.032479291396429515,-0.03538059427100828,0.09586674447420888,-0.056666396515189836,0.0766677231779434
0.5233139991760254,-0.12333326675828057,0.039145959615071835,-0.03402613719098471,0.10253341180997637,-0.04999973261309991,0.08333450231907448
0.5433802604675293,-0.12999991866680974,0.03914596407934909,-0.034026129782883295,0.1092000476884028,-0.043333037700542136,0.0833341741207636
0.5638644695281982,-0.13333325240763488,0.035812635128236604,-0.03735946311621663,0.1125333431197404,-0.039999669547392314,0.08000085026397831
0.5840559005737305,-0.1399999295853245,0.042479305451915444,-0.0440261343021982,0.11919997999245178,-0.03333297325278607,0.07333437591016909
0.6040608882904053,-0.14666659151469014,0.049145976434800315,-0.05069279917019071,0.12586661642488192,-0.039999605803632605,0.0666676816032354
0.6241929531097412,-0.1533332565244828,0.055812647344427105,-0.057359464438933076,0.1325332480637345,-0.04666623691665912,0.06614860378201932
0.644481897354126,-0.15999992515233202,0.06247931577539951,-0.060830281379951855,0.1319230626968643,-0.05333289732219185,0.07281533973794171
0.6646032333374023,-0.16246914698119652,0.06581264873601912,-0.05749695121090399,0.12858972936353097,-0.05666623237210418,0.07614882567697226
0.6846752166748047,-0.16135810762929506,0.06581265057066991,-0.05749695121090397,0.12858970569536915,-0.05666623985083813,0.08281549700200505
0.7047576904296875,-0.16135810762929506,0.06581265057066991,-0.05749695121090397,0.13409123355417696,-0.05666623985083813,0.08948216366867179
0.7251670360565186,-0.1646914409626284,0.06914598390400324,-0.05416361787757064,0.136042608627104,-0.05999957318417146,0.09281549700200512
0.7450928688049316,-0.15802477429596173,0.06247931723733658,-0.060830284544237306,0.14270927529377064,-0.053332906517504795,0.09948216366867177
0.7655692100524902,-0.16469144096262842,0.06914598390400324,-0.05416361787757066,0.1493759419604373,-0.05999957318417147,0.10614883033533926
0.7855334281921387,-0.16135810762927003,0.06581265057067183,-0.05749695121088775,0.15270927529377062,-0.05666623985082964,0.10281549700122143
0.8054873943328857,-0.16135810762927938,0.06581265057067108,-0.06416361787756024,0.15937594196043728,-0.054114880311293176,0.09614883033485276
0.825584888458252,-0.16802477429594023,0.07247931723733816,-0.07083028454422366,0.16604260862710393,-0.05815199005903919,0.09614883033473098
0.8458342552185059,-0.17135810762927356,0.07581265057067149,-0.07416361787755699,0.16937594196043726,-0.061485323392372525,0.09948216366806431
0.8661139011383057,-0.1780247742959402,0.08247931723733816,-0.0674969512108903,0.16270927529377074,-0.06815199005903928,0.10614883033473074
0.8860507011413574,-0.17135810762923567,0.07581265057067489,-0.07416361787752986,0.1693759419604374,-0.06148532339235984,0.11281549700013185
0.9062888622283936,-0.17802477429593402,0.08247931723733884,-0.06749695121088362,0.17604260862710405,-0.06815199005903548,0.11948216366769299
0.9263045787811279,-0.17469144096260086,0.0858126505706723,-0.07083028454421611,0.17937594196043738,-0.06481865672570117,0.1161488303342578
0.9463772773742676,-0.17469144096258493,0.0924793172373403,-0.07749695121087279,0.18604260862710403,-0.05815199005903111,0.10948216366725382
0.9664595127105713,-0.18135810762925086,0.09914598390400703,-0.08416361787753898,0.1927092752937707,-0.058151990059030934,0.10281549700057022
0.9874849319458008,-0.1846914409625842,0.10247931723734036,-0.08749695121087231,0.19604260862710401,-0.06148532339236427,0.09948216366723689
1.0075793266296387,-0.19135810762925612,0.10914598390400662,-0.08083028454420922,0.1893759419604356,-0.05481865672569753,0.10614883033403641
1.02764892578125,-0.1846914410333949,0.1024793176575865,-0.0874969512108455,0.1960426044365792,-0.048151985063367556,0.09948216479658267
1.048046350479126,-0.19135810770006156,0.10914598432425315,-0.09416361787751215,0.20270927110324585,-0.054818651730034224,0.09281549812991602
1.0679373741149902,-0.1946914410333949,0.11247931765758651,-0.09749695121084548,0.2060426044365789,-0.05815198506336732,0.09165259490882625
1.0880491733551025,-0.20135812019999388,0.11914598761220203,-0.09749695953845831,0.20604256145417313,-0.06481860537483053,0.09393963821088135
1.1081340312957764,-0.2013581201999446,0.11914598761220759,-0.09749695953842014,0.20604256145417313,-0.06481860537481612,0.10060630487601194
1.1281707286834717,-0.2013581201999933,0.11914598761220227,-0.09749695953845472,0.21270922812083978,-0.06244736512738748,0.10060630487728513
1.1484947204589844,-0.2046914535333261,0.12247932094553567,-0.09416362620512102,0.2160425614541731,-0.06331324890468959,0.09727297154393916
1.1689426898956299,-0.1980247839234024,0.12914598790786097,-0.10083029082817484,0.22270922812083976,-0.056646581803630934,0.09060625996055291
1.1888220310211182,-0.20469145058565955,0.13581265457500855,-0.10749695749185836,0.22937589478750642,-0.049979915136177853,0.08393959321519026
1.2089674472808838,-0.21135811406524158,0.1404302200784564,-0.10083028913039972,0.22270922812083976,-0.05664658226997019,0.09060630756702362
1.229038953781128,-0.20469143407802856,0.13376355944523036,-0.10749694470733814,0.2293758626707364,-0.04997986354227514,0.08393922309514616
1.2491028308868408,-0.20135812636951875,0.1370968899148687,-0.1041636286605757,0.23270919600406972,-0.04857602026652645,0.08060634365065786
1.269186019897461,-0.19469143396253144,0.137096899352193,-0.10416361004188676,0.23937581686575007,-0.04397914324654907,0.07393924590082528
1.2892675399780273,-0.19469143294458316,0.13709689471171646,-0.11083027670855342,0.24604258820271052,-0.04397919687016248,0.0672725691905052
1.309403657913208,-0.19802476731574567,0.14043023284483136,-0.11416361004188674,0.2493758900902559,-0.04731247363997213,0.06393924753610536
1.3295173645019531,-0.20469144892286859,0.1470969019792788,-0.1074969533852424,0.24270919568561258,-0.05397909397558494,0.07060620313098487
1.3496716022491455,-0.19802476328904775,0.14043024219372643,-0.11416360476565826,0.24937583327424342,-0.04731237235240108,0.0772723849766682
1.369708776473999,-0.20469143261315811,0.13376358041142986,-0.10749693994492347,0.2427091291748801,-0.05397897900960938,0.08393922318288781
1.389746904373169,-0.1980247644980099,0.1270969183197106,-0.1141636040096427,0.24937576844994533,-0.04731226219691125,0.09060571861014094
1.409907579421997,-0.20135809783195913,0.13043025165296737,-0.11083027067673633,0.246042435116612,-0.05064559553035627,0.0939390519550231
1.4299430847167969,-0.20135809783195913,0.13043025165296737,-0.1052594537099519,0.23937576844994532,-0.050645595530356254,0.10060571862168977
1.4503862857818604,-0.19469143116529247,0.12376358498630072,-0.0999123851065126,0.23937576844994532,-0.043978928863689586,0.10727238528835642
1.470217227935791,-0.19135809783195915,0.12043025165296739,-0.09657905177317927,0.24270910178327865,-0.04064559553035625,0.11060571862168975
1.49031662940979,-0.18469143116524828,0.11376358498630579,-0.10324571843981672,0.2493757684499453,-0.03397892886368247,0.10393905195435509
1.5104131698608398,-0.1913580978319107,0.11937180566681575,-0.09657905177314727,0.256042435116612,-0.040645595530348536,0.11060571862096547
1.5305001735687256,-0.18469143116524273,0.11270513900014925,-0.10324571843981306,0.2627091017832787,-0.033978928863681694,0.10393905195428237
1.5505492687225342,-0.19135809783194113,0.11937180566681195,-0.10991238510650067,0.26937576844994543,-0.038724325536829855,0.09727238528802858
1.5708107948303223,-0.1946914311653004,0.12270513900014195,-0.11324571843985155,0.2727091017832788,-0.035390992203499796,0.09393905195501874
1.5908114910125732,-0.20135809783200898,0.1293718056668029,-0.11324571843988009,0.2727091017832788,-0.03539099220350558,0.09393905195556139
1.611177682876587,-0.2013580978320078,0.13561438639067297,-0.11324571843987928,0.2727091017832788,-0.03539099220350543,0.10060571862221437
1.6311511993408203,-0.19802476449867445,0.1382327090421559,-0.11657905177321261,0.27604243511661214,-0.0320576588701721,0.10393905195554758
1.6512572765350342,-0.20135809783200576,0.14156604237548104,-0.11324571843987928,0.2793757684500136,-0.028724325536946673,0.10060571862219814
1.671872615814209,-0.20135804470694582,0.14156604969596845,-0.11324568020958195,0.2860424351166803,-0.02205765459338373,0.09393869959127893
1.6920149326324463,-0.19802471243313607,0.13823272053492788,-0.11657901354291528,0.28937575705073365,-0.01872426908800911,0.09060537256399187
1.7123689651489258,-0.2046913974768759,0.14489938932059032,-0.12324569194529131,0.2960424129771654,-0.012057544837071619,0.08393883629956811
1.7322862148284912,-0.2113581108006434,0.15156605983449906,-0.11973247340842616,0.3027090469268441,-0.018724075822042253,0.0772724897589471
1.7523550987243652,-0.20469146058843052,0.1582327295957097,-0.12639914956213694,0.3093757010028665,-0.01205733878147211,0.07060564128243153
1.7724404335021973,-0.20135812275466738,0.1615660466818583,-0.1230658162288036,0.3127090976850741,-0.015390893112259753,0.06727228977368883
1.7925443649291992,-0.19469140868088353,0.16156605950248554,-0.12306577987250375,0.31937575010962194,-0.02026092831436242,0.06060533111742464
1.8126661777496338,-0.19469140072991098,0.1615660320104323,-0.1297324465391704,0.32604256470717585,-0.024977728262161655,0.05393862164683881
1.832664966583252,-0.19997023080064466,0.16823269827557424,-0.12973246844252326,0.32604255102782786,-0.03164433995840252,0.05393891439903638
1.8528141975402832,-0.20172114877877936,0.17156603259054581,-0.12639913510918993,0.3227092151405534,-0.03497766294586651,0.05727224964560632
1.8728537559509277,-0.19505449000945999,0.16489939377116025,-0.11973246844252328,0.3160423570393134,-0.02831063581218711,0.06393897490269096
1.8929815292358398,-0.18838782334278317,0.15823272710449526,-0.11306580177584866,0.3227090237059801,-0.021643969145518773,0.07060564156920775
1.9130489826202393,-0.18172115667611577,0.15156606043783247,-0.11973246844251398,0.32937569037262976,-0.01497730247880424,0.06393897490253586
1.9331605434417725,-0.1783878233427812,0.14823272710449933,-0.12306580177584639,0.3327090237059631,-0.018310635812137484,0.06683696395054245
1.9532890319824219,-0.17838782334314748,0.14823272710443627,-0.12306580177612397,0.33516329755053864,-0.02497730247883437,0.0727784874297144
1.9733235836029053,-0.17838782334314723,0.14823272710443638,-0.11639913510945712,0.3310388106773229,-0.027991672569885898,0.07944515409637924
1.99371337890625,-0.1750544900098139,0.14489939377110306,-0.1130658017761238,0.32770547734398947,-0.027704605651833022,0.0827784874297126
2.0138158798217773,-0.16838782334296484,0.13823272710446624,-0.1197324684426509,0.3343721440106562,-0.02650678808119256,0.08944515409480763
2.0338990688323975,-0.17505449000997741,0.14489939377107477,-0.11306580177624745,0.32770547734398947,-0.0331734547478897,0.09611182076429048
2.0541019439697266,-0.16838782334302935,0.13823272710445395,-0.11973246844269606,0.3343721440106562,-0.02650678808119475,0.08944515409487663
2.0741021633148193,-0.175054490009696,0.1448993937711206,-0.12625531165293846,0.3410388106773229,-0.03317345474786143,0.08277848742820997
2.094200372695923,-0.17838782334302905,0.148232727104453,-0.12292197831960512,0.33770547734399553,-0.03650678808120745,0.08611182076154138
2.114298105239868,-0.17838782334271477,0.14823272710450577,-0.12292197831935366,0.33770547734399553,-0.03650678808117484,0.08611182075804964
2.134345054626465,-0.17838782334304534,0.1482327271044487,-0.12292197831961266,0.34437214401066224,-0.03650678808120513,0.07944515409446512
2.154911756515503,-0.181721156676377,0.15156606043778234,-0.11958864498627798,0.3477054773439956,-0.03984012141453832,0.07611182076111624
2.1750242710113525,-0.17816769339652874,0.15823272710446626,-0.12625531165286408,0.3543721440106623,-0.03317345474786214,0.06944515409340643
2.1950795650482178,-0.18483436006328904,0.1648993937711159,-0.119588644986274,0.361038810677329,-0.039840121414537376,0.06277848742760676
2.215182304382324,-0.17816769339652036,0.17156606043780137,-0.12625531165285359,0.3677054773439957,-0.033173454747861035,0.056111820759881456
2.2356679439544678,-0.1799995596605887,0.1782327271044797,-0.1329219783194683,0.37437214401066243,-0.026506788081189257,0.049445154092702594
2.255831718444824,-0.18333289300258904,0.18156606043608875,-0.129588644993537,0.3710388106773291,-0.02984012141528219,0.04611182082971792
2.275883674621582,-0.18333283707149126,0.18156607127701466,-0.12958859633357547,0.3711460737779359,-0.029840115772844077,0.039444598494959876
2.2959227561950684,-0.17666617017900507,0.18156607132047226,-0.136255262809873,0.3778127404446026,-0.023173449096431962,0.032777930954827596
2.3159923553466797,-0.17333283684568257,0.18489940465383772,-0.13958859614320632,0.3811460737778018,-0.019840115762649324,0.02944459762154819
2.3364181518554688,-0.16666617017901297,0.191566071320505,-0.1462552628098705,0.3878127404444685,-0.013173449095982472,0.022777930954866875
2.3564040660858154,-0.17333283684543113,0.19823273798722496,-0.15292192947632396,0.3944794071111352,-0.01984011576263449,0.016111264287094324
2.376422882080078,-0.17999950351225538,0.20489940465385714,-0.15958859614312887,0.4011460737778019,-0.013173449095978507,0.009444597621334691
2.396556854248047,-0.18333283684558863,0.20823273798719022,-0.15748193048042272,0.404479407111136,-0.009840115762648706,0.006111264288001048
2.416654348373413,-0.18333283886798662,0.21489941019810743,-0.1589192647173205,0.41114606218757555,-0.003173368503888812,-0.0005553970282174137
2.4367151260375977,-0.1833328276837029,0.221518397879326,-0.15891926333497416,0.41781276545380047,-0.0031737504400883012,-0.007222081565552013
2.4567952156066895,-0.18333284390218169,0.22114222254895813,-0.15891926333497416,0.42447936819319254,-0.003173115029194915,-0.01388871005844546
2.4771900177001953,-0.17999951045390447,0.2178088889178111,-0.1622525966683075,0.42781270554906553,0.0001602132461400209,-0.017222043658360282
2.4972846508026123,-0.17333281030221215,0.2244754686546273,-0.16891926333497415,0.4344794683993101,0.006825579363681276,-0.023888769582614287
2.5173773765563965,-0.1666661906960108,0.2178089218167823,-0.1755859300016408,0.4411461049323376,0.00016072817151618814,-0.03055539174519635
2.537656307220459,-0.159999465663603,0.22033497952692838,-0.16891926333497415,0.4478129525108851,-0.006508169953321038,-0.03722215881414864
2.557605504989624,-0.15666614054524788,0.21700166643440957,-0.17225259666830747,0.45114624584464375,-0.0031745261750449473,-0.04055547144449781
2.5776543617248535,-0.1566660772952238,0.2170015150596925,-0.17225259666830747,0.45781311961903487,-0.003176901444300326,-0.04722224824197937
2.5977447032928467,-0.15666608859676234,0.21700154203777808,-0.17225259666830747,0.46447973606272425,-0.00984314845912946,-0.05388888609216362
2.618136167526245,-0.15666607980553154,0.21700152152158628,-0.17891926333497413,0.4711464660146568,-0.01651013968274897,-0.06055558011419801
2.6385819911956787,-0.159999410837026,0.22033484954215404,-0.18225259666830745,0.4744798212996206,-0.019843557751852457,-0.06388892164174774
2.6587257385253906,-0.16248125948491265,0.22700149407382572,-0.1755859300016408,0.46781323837194905,-0.02651057760989327,-0.05722229278881529
2.6787939071655273,-0.15581459281593052,0.22033482740779456,-0.18225259666595148,0.47447990503861576,-0.01984391094309109,-0.06388895946956777
2.6989035606384277,-0.1624812594834454,0.2136681607408894,-0.17558593000014303,0.474351086147952,-0.026510577609803236,-0.057222292798615494
2.718971014022827,-0.15914792615020318,0.21033482740776563,-0.17891926333347635,0.477684419480385,-0.023177244273147997,-0.060555626131526596
2.7390668392181396,-0.15914792615326756,0.21033482740689635,-0.17891926333657798,0.4843510861470517,-0.02317724427330456,-0.06722229278291916
2.7591493129730225,-0.15914792615326748,0.21033482740689638,-0.1789192633365779,0.4910177528137184,-0.023177244273304556,-0.0738889594495863
2.7792179584503174,-0.15581459281993404,0.20700149407356283,-0.18225259666991123,0.4943510861470526,-0.019843910939974792,-0.07722229278292005
2.799428939819336,-0.1624812594865889,0.21250427398082428,-0.17558593000324457,0.5010177528138119,-0.026510577607065235,-0.07055562611629804
2.819493532180786,-0.15581459281885285,0.20583760731447362,-0.16921800188931335,0.5076844194804785,-0.0198439109403452,-0.06388895945563079
2.8395087718963623,-0.14914792615245034,0.19917094064772786,-0.16255133522292847,0.5143510861471451,-0.013177244273690839,-0.07055562612110043
2.859635829925537,-0.1524812594795425,0.1958376073162861,-0.16588466854958006,0.5176844194804784,-0.016510577606760533,-0.07388895947693426
2.8797695636749268,-0.15914792615081486,0.19583760731487615,-0.17255133522121366,0.524351086147145,-0.023177244273629483,-0.08055562612274883
2.8998615741729736,-0.16581459281860844,0.20250427398119134,-0.17255133522245197,0.524351086147145,-0.0298439109403458,-0.08055562611669838
2.9200594425201416,-0.16581459281168556,0.20250427398330373,-0.17255133521480098,0.524351086147145,-0.029843910940031925,-0.08055562616027108
2.940180540084839,-0.16248125947843758,0.19917094064994406,-0.17588466854822837,0.5276844194804783,-0.026510577606702414,-0.08388895949310596
2.9602482318878174,-0.1691479261477782,0.20583760731577555,-0.18255133521783698,0.5343510861471449,-0.031488840955712805,-0.09055562614528044
2.980327844619751,-0.17581459282041723,0.2125042739805372,-0.1758846685578594,0.5410177528138115,-0.03815550762263281,-0.09722229277592795
3.0004007816314697,-0.17248125947814041,0.20970604985913474,-0.17921800188090348,0.5443510861471448,-0.03482217428894306,-0.10055562616973462
3.0205016136169434,-0.17248125948338325,0.21052098147860437,-0.18588466855357857,0.5510177528138114,-0.02815550762248769,-0.10722229280535585
3.040571451187134,-0.1791479261542858,0.217187648143854,-0.1858846685584503,0.5576844194804884,-0.021488840956041706,-0.11388895944881434
3.060685873031616,-0.18581458646967308,0.22385431700149144,-0.1861841434615668,0.564351086147155,-0.014822174034010534,-0.1205556521154482
3.080761432647705,-0.18914793952124725,0.22718764342949832,-0.1895174999664968,0.5676844194804883,-0.011488841512906054,-0.12388890860464422
3.1008799076080322,-0.19581461271443748,0.22052098936562292,-0.19618416663316346,0.5743510484052388,-0.004821950291002139,-0.13055555264491792
3.1212193965911865,-0.2024812186893512,0.22718754517398485,-0.1895174999664968,0.581017952669062,-0.011490688326170924,-0.1372223533412661
3.1411776542663574,-0.19581455155450037,0.2338542112417917,-0.19618416663316346,0.5876846138060334,-0.004824037678323028,-0.1438890161728445
3.161280393600464,-0.1991479134193144,0.23052092919377568,-0.1995174999664968,0.5910178486887468,-0.0014897322234199025,-0.14722228900355827
3.1813647747039795,-0.2058145262032863,0.2305208343809537,-0.20272441187179793,0.5976846591918691,-0.0014915630217383607,-0.15388904307565973
3.2016944885253906,-0.2058145191362578,0.2371874886410739,-0.2059439659199023,0.6043513372510579,-0.0014918032639515207,-0.16055571876293367
3.221851110458374,-0.20248116408289946,0.24052078445303274,-0.20927729925323563,0.607684737379947,0.0018407931542418843,-0.16388909157665546
3.24198579788208,-0.2091477793243976,0.2338540299107229,-0.20261063258656897,0.6143515227755733,0.008505715822772996,-0.17055582990374243
3.262019157409668,-0.20248112147716676,0.2271873787632636,-0.20927729925323563,0.6210181686629969,0.015172682147971437,-0.17722248035220506
3.2821109294891357,-0.19581440247966841,0.2274444313702338,-0.21594396591990228,0.6276848787226729,0.008504250901605018,-0.18388917556754414
3.302212953567505,-0.18914778652560824,0.22077784761981173,-0.22261063258656894,0.6343514928078144,0.0018392938037833195,-0.19055580232354796
3.3223235607147217,-0.18581439922121293,0.21744442840135544,-0.2192772992532356,0.6376849734242909,-0.00149584978015935,-0.19388921813582674
3.3423917293548584,-0.17914775305839073,0.21077779384261883,-0.2192772992532356,0.6443515530089919,-0.008161833901552023,-0.20055583286519152
3.362468719482422,-0.17248100192568033,0.21077766264893663,-0.22594396591990226,0.6510186022760119,-0.014831314963896614,-0.20722270907739596
3.3826897144317627,-0.16914762907917527,0.21411093522456648,-0.2292772992532356,0.6543521432931333,-0.018165964730645717,-0.21055615576998996
3.402792453765869,-0.16248089706927132,0.20744416890957232,-0.22261063258656894,0.6610191979522394,-0.024834807511865967,-0.21722303855882422
3.4228641986846924,-0.15581419300545524,0.20077744637675393,-0.2292772992532356,0.6676860882126613,-0.01816938190290046,-0.22388982809288496
3.442939043045044,-0.1533184471358392,0.20744399858414017,-0.23594396591990224,0.6743532101075175,-0.024838620767109593,-0.23055674665406808
3.463050127029419,-0.14998508563921453,0.21077729063245654,-0.23927729925323557,0.6776867224212434,-0.02150622358723836,-0.23389018169984505
3.483131170272827,-0.14802608791523167,0.2154827904867001,-0.23927729925323557,0.6843536843072421,-0.021507974549204896,-0.2405570141264938
3.503206253051758,-0.14592968818646027,0.21600276753918574,-0.23927729925323557,0.6910204665466969,-0.021508635201245553,-0.2472237429916095
3.523623466491699,-0.1392629645774005,0.2186925010750094,-0.24594396591990222,0.6976874459449411,-0.014843867377675422,-0.2538905893379696
3.5437204837799072,-0.13592956961351788,0.22202574793043509,-0.24927729925323555,0.7010210877955294,-0.01151259240399553,-0.2572240970124186
3.5638058185577393,-0.12926282365902195,0.22869230477748118,-0.25594396591990226,0.7076880893056148,-0.004848581558597239,-0.2638909520206724
3.584153890609741,-0.1225961202140977,0.22930384379130728,-0.26261063258656897,0.7143548708785081,0.001816848905365306,-0.2705576794742877
3.604053497314453,-0.1159293461663379,0.23597036612455896,-0.2692772992532357,0.7210218224186006,0.008479900435343107,-0.2772244987441613
3.6242082118988037,-0.11259606931474772,0.23366072977841357,-0.27261063258656903,0.724355037996747,0.01181514025228519,-0.2805577701246183
3.6445555686950684,-0.11259592376021223,0.2349151233613649,-0.27927729925323574,0.731021949303545,0.011810224653594492,-0.2872245554804952
3.664511203765869,-0.11259579368109866,0.24158162111573575,-0.28594396591990245,0.7376888723707088,0.011805820126860699,-0.29389134702598135
3.6845099925994873,-0.11259575806999712,0.24448535677081132,-0.29261063258656916,0.7443556235914859,0.018471280831554308,-0.30055805649201706
3.704923629760742,-0.1159289947771999,0.24409863170290572,-0.2959439659199025,0.7476890607186097,0.021780639696880374,-0.3038914288505029
3.7250356674194336,-0.1225955126567773,0.2507651116777155,-0.30261063258656923,0.7543558711415852,0.015108887812909233,-0.3105581444561378
3.7451226711273193,-0.12926195747525962,0.25743150278059745,-0.30549824606831216,0.7610228760357161,0.01477181545640602,-0.3172249628850655
3.7652788162231445,-0.135928418728992,0.25534704595505753,-0.29883157940164545,0.7676898092568872,0.02143141425627018,-0.3238917454417156
3.7853877544403076,-0.13259513105062326,0.2520137684277112,-0.3021649127349788,0.7710231081451484,0.024766320409621782,-0.3272250674706425
3.805417060852051,-0.13259490414584407,0.25029206065133774,-0.30523980890025504,0.777689842124024,0.024758490647207768,-0.33389171190596617
3.8254973888397217,-0.1325950430902358,0.24840961642099396,-0.308340548782337,0.7843563829602146,0.018096632729040083,-0.34055833491627363
3.8458874225616455,-0.12926159122237094,0.24507614287691845,-0.3116738821156704,0.7876898757537119,0.01475919559703079,-0.3438917307700698
3.8658335208892822,-0.13592815691656848,0.24062550053108808,-0.30500721544900367,0.7943567326993987,0.008089030993019903,-0.3505584864089802
3.885910749435425,-0.1292614129325989,0.2339587449900398,-0.3116738821156704,0.8010236445060451,0.00141968142676789,-0.3572252800500676
3.9062700271606445,-0.12259475213264313,0.22729201105548752,-0.31834062113916695,0.8076904423222189,-0.005248244307088375,-0.36389191543130345
3.926297664642334,-0.12592802432281547,0.22395860854325228,-0.3150072878058336,0.8043573536327027,-0.008583705125981722,-0.36055871489166696
3.9463629722595215,-0.12592792712059286,0.21729183092062412,-0.3083406211391669,0.8043577410502861,-0.015253737865946491,-0.35389229423648105
3.9664037227630615,-0.1192612661420685,0.21062517050457025,-0.3083406211391669,0.8110243659925126,-0.015253540815296113,-0.3472256020203716
3.986724615097046,-0.112594508400081,0.20395840199139686,-0.3083406211391669,0.8110248082998639,-0.015256697732503337,-0.34055918136039787
4.006618499755859,-0.10926113513159447,0.20062502391362905,-0.3050072878058335,0.8076916772017249,-0.018591411732187542,-0.3372259607302644
4.0267205238342285,-0.10259437841416205,0.19395825606181832,-0.2983406211391668,0.8143587812193599,-0.024052128302276658,-0.3305595769836506
4.048429012298584,-0.09592771886900313,0.18729159775404194,-0.3050072878058335,0.8210253939191116,-0.017385217624869474,-0.3372262102663904
4.068891763687134,-0.09592771886900313,0.18729159775404194,-0.3050072878058335,0.8210253939191116,-0.017385217624869474,-0.3372262102663904
4.088724851608276,-0.09210088783401622,0.1806248231331384,-0.2983406211391668,0.8276925947146995,-0.024055291756219184,-0.34389317619539794
4.108799457550049,-0.08543421716566856,0.1872914857310768,-0.3050072878058335,0.8343592692174218,-0.017388768746554126,-0.3505598467328759
4.128870725631714,-0.09210077552919546,0.19395803605031883,-0.2983406211391668,0.8410265151902554,-0.024059208258704952,-0.3572268428131889
4.1492204666137695,-0.08876746987076113,0.19062473239319735,-0.30167395447250017,0.8443596894914529,-0.020724907089312992,-0.3605600827283152
4.16912055015564,-0.08876739493668953,0.19062465297056264,-0.3083406211391669,0.8510267588113208,-0.020727532334925334,-0.36722698104718005
4.1891868114471436,-0.0954339797802865,0.19729123385360736,-0.3150072878058336,0.8576938837042304,-0.020730417559562817,-0.37389391312576864
4.209445476531982,-0.10210053356737946,0.20395778341685025,-0.3216739544725003,0.8643611531338371,-0.014067764003519837,-0.3805609276296996
4.229538917541504,-0.10543380894718336,0.20729105709429024,-0.32500728780583366,0.8676947690965885,-0.01073650256530282,-0.3838944218822872
4.249628067016602,-0.11210036804877217,0.2139576137654752,-0.33119950741321064,0.8743619162346691,-0.004073700998423264,-0.3905613582845993
4.269704818725586,-0.11876689610235232,0.2206241399851172,-0.3245328407465439,0.8810291467262236,-0.010745386462579557,-0.39722833868004676
4.290285110473633,-0.1165247361852631,0.22729081852636382,-0.33119950741321064,0.8876957432548231,-0.004078312958614666,-0.4038949628350609
4.310405731201172,-0.1198581135793048,0.22876087011675506,-0.334532840746544,0.8910289059417584,-0.000743365015294348,-0.40722819948166583
4.330477714538574,-0.12652464755946963,0.23341707437725495,-0.3411995074132107,0.8976960242794432,0.005918410635700502,-0.41389511420285474
4.350824356079102,-0.1331911737644411,0.24008360307434165,-0.3478661740798774,0.9043630913733257,0.012579858768031109,-0.4205619901786055
4.370682954788208,-0.13652443514080218,0.2434168661692933,-0.35119950741321077,0.9076965982578853,0.015910501204129786,-0.4238954092631103
4.390790224075317,-0.14319099392793297,0.24502515845657463,-0.3486663747383166,0.9143634832685191,0.022573111770696368,-0.4305621760824726
4.410871982574463,-0.1498577082945696,0.2383585381321066,-0.3553330414049833,0.9210300587663817,0.029241571144476907,-0.437228799106345
4.430949449539185,-0.15652429754073166,0.2450251311478212,-0.3486663747383166,0.9276968113283239,0.022571956767170158,-0.4438954868575787
4.451380968093872,-0.14985759937011778,0.23835843514517255,-0.3553330414049833,0.9343635074679942,0.029237407849667628,-0.4505621576855227
4.471487522125244,-0.1465242960788487,0.23502512989347016,-0.35866637473831664,0.9376968083451147,0.025905231367598654,-0.45389548338801633
4.491551876068115,-0.14652413811282822,0.23502498327546945,-0.35866637473831664,0.9443637244942392,0.0192324550607176,-0.46056223977819954
4.511637210845947,-0.14652410768663265,0.23502495500935963,-0.35866637473831664,0.9510304375795646,0.01923127958730687,-0.4672289211364569
4.531904220581055,-0.14319068252934386,0.23169153781839127,-0.36199970807165,0.9543639583203463,0.02256102273482708,-0.47056233901974115
4.552046775817871,-0.13652377793449677,0.22502465543823066,-0.3553330414049833,0.9610310828624534,0.015885011446334498,-0.4772292000172491
4.57214879989624,-0.12985714302106058,0.21835801772882546,-0.36199970807165,0.9676976511911549,0.022552912643859765,-0.4838958115113445
4.592238903045654,-0.1354843849435426,0.2250244565544732,-0.3686663747383167,0.9743648404119548,0.015876047887124625,-0.49056269951960363
4.612341642379761,-0.12881748975087745,0.2183575882590497,-0.36199970807165,0.9810321098438756,0.009200211172460579,-0.4972296622146583
4.632410526275635,-0.1254843039273607,0.215024383870858,-0.36533304140498335,0.9843649909873838,0.01253947948771967,-0.5005627578257899
4.652509450912476,-0.12548411095334597,0.21502421625909474,-0.36533304140498335,0.9910321865232468,0.01253166681225413,-0.5072296840141022
4.672621488571167,-0.12548407936441267,0.21502418871985837,-0.36533304140498335,0.9976989238792232,0.012530391759624584,-0.5138963796265804
4.693264961242676,-0.12215063060229508,0.21169075666861445,-0.3686663747383167,1.0010325894762497,0.015858988718315842,-0.5172298827473979
4.71327805519104,-0.11548378600431779,0.21835727201014896,-0.3753330414049834,1.0076997622236807,0.009184958925209869,-0.5238968033435882
4.733648300170898,-0.10881698572110388,0.2250238255754918,-0.3819997080716501,1.0143668931318612,0.0025126894608518534,-0.5305637229603889
4.753549337387085,-0.11548352800859105,0.23169038735996803,-0.3753330414049834,1.0210340397298299,-0.0041592334884452305,-0.5372306618360142
4.782635688781738,-0.11548352800859105,0.23169038735996803,-0.3753330414049834,1.0210340397298299,-0.0041592334884452305,-0.5372306618360142
4.802692174911499,-0.1088169147794595,0.22502376554192308,-0.3819997080716501,1.02770047008892,0.0025096969390547034,-0.5438971859087872
4.822786092758179,-0.10214998838176041,0.23169021660178948,-0.38866637473831683,1.0343680950277885,0.009165175203790434,-0.5505643917494847
4.842845678329468,-0.09548305445376287,0.23835666203538114,-0.39533304140498354,1.041035616469161,0.01582018348045208,-0.5572315189753103
4.863096475601196,-0.09391203419178928,0.23916198160896623,-0.3986663747383169,1.0443686861621027,0.01915761634004575,-0.5605647165211037
4.8830437660217285,-0.09583117360051863,0.24321987483968155,-0.4053330414049836,1.0510358129016126,0.02581617311273715,-0.5672316065600308
4.903126239776611,-0.10249772861587525,0.24430232371867566,-0.4053330414049836,1.0577027010323585,0.0314800862131284,-0.5738983654777593
4.9234864711761475,-0.10583100866512861,0.24227657231778726,-0.40199970807165025,1.0610361256280707,0.03358001361140202,-0.5772317326505179
4.943594932556152,-0.09916439192812282,0.2356099463529424,-0.40866637473831696,1.0677027042349916,0.04024893921184192,-0.5838983641955711
4.963695764541626,-0.10396015313098916,0.24227651341939688,-0.41533304140498367,1.0743695256049233,0.03357662008082325,-0.5905650637416221
4.983781099319458,-0.09729347455568267,0.2356098370058066,-0.4219997080716504,1.081036202466501,0.04024271395818709,-0.597231728683379
5.003900527954102,-0.1006266732129748,0.23894306035409052,-0.418666374738317,1.0843697106154735,0.036902999863669565,-0.6005650956617925
5.023979187011719,-0.10062674856616009,0.2389431205353802,-0.418666374738317,1.0910362292566673,0.03690660429524007,-0.6072317005450788
5.044072866439819,-0.10062659943208667,0.23227633375612441,-0.418666374738317,1.0977031140803095,0.03689940397604915,-0.6138984253930051
5.064164161682129,-0.10382087198107484,0.22894295614310659,-0.41533304140498367,1.101036539958056,0.03356337865207512,-0.6172317885866463
5.084419250488281,-0.09715423592034242,0.22227631362930847,-0.4219997080716504,1.1077031361186982,0.04023151590723387,-0.6238984228810992
5.1043994426727295,-0.09048746645073073,0.21560956535476808,-0.42559729760566756,1.1143699877808402,0.03355973906745711,-0.6305651493893074
5.124617099761963,-0.08382063635100966,0.20894276968213837,-0.41893063093900085,1.1210370208677225,0.026884880763362474,-0.6372319626881734
5.144649028778076,-0.08048742919543887,0.20560953448255145,-0.4222639642723342,1.1243700156272083,0.02355790715763029,-0.6405651402426596
5.164698839187622,-0.07382060736427275,0.20560941372916716,-0.42731167446684304,1.1310371743351246,0.01688332472293048,-0.6472320501437159
5.184777498245239,-0.06715379595864635,0.2056093012307742,-0.4255212803085676,1.137704369597123,0.010209176695796749,-0.6538989968164824
5.204923629760742,-0.060487171303754715,0.19894266622404636,-0.4255212803085676,1.1443708377488697,0.010211389561603154,-0.6605655472709514
5.225400447845459,-0.05715377456871596,0.19560928436242023,-0.428854613641901,1.1477044341064422,0.013541376907870752,-0.6638990266595405
5.245517015457153,-0.06382028449107223,0.20227583056886236,-0.4355212803085677,1.154371739523531,0.006866337590514767,-0.670566042996456
5.265578031539917,-0.057153526558684824,0.20894242674837413,-0.4421879469752344,1.1610388364373563,0.00019469190559079103,-0.6772329578575871
5.285688400268555,-0.06382002965082025,0.2156089667025379,-0.4440284872764375,1.167706332393864,0.0005959754074367557,-0.6839001155261063
5.306092262268066,-0.07048671970605858,0.222275651194408,-0.4506951539431042,1.174372866264666,0.00726391887695956,-0.690566700951962
5.326173305511475,-0.07381999189903515,0.22560893664068646,-0.44736182060977087,1.1777064839537987,0.010593760598354852,-0.6939001998002362
5.346304893493652,-0.07382000240201674,0.22560894443696436,-0.44736182060977087,1.1843731242470497,0.017261053670861757,-0.7005668527499991
5.366402626037598,-0.07381984562110074,0.22560882194935197,-0.4519021334094429,1.1910403974664627,0.017251873058308255,-0.7072338538352444
5.386784791946411,-0.07715308670802988,0.2289420830441194,-0.4529884149291477,1.1943741051809385,0.013913070003222701,-0.7105673973977428
5.406919717788696,-0.08381975906178359,0.23560875374261525,-0.4596550815958144,1.2010407328210821,0.02058003495339955,-0.7172340391280889
5.426978826522827,-0.0904862903592478,0.2301045934671623,-0.4529884149291477,1.2077079104054413,0.027238412278914142,-0.7239009873352656
5.447198390960693,-0.08381961537277163,0.223437919775932,-0.4596550815958144,1.2143745940836195,0.033904519185612686,-0.7305676588655462
5.467165231704712,-0.09048617276354923,0.23010449874606187,-0.46632174826248113,1.221041625658746,0.02723091626229601,-0.7372345127958823
5.487256765365601,-0.08715279087190428,0.23343779282938265,-0.4696550815958145,1.224375139729065,0.03056112400995251,-0.7405679436923622
5.5073325634002686,-0.08715263969935418,0.23343766862512672,-0.4696550815958145,1.2310423240607795,0.03055122966480875,-0.7472348799616453
5.527420997619629,-0.08715261611734286,0.2267709822743005,-0.4696550815958145,1.2377090624170184,0.03054968912409258,-0.7539015816450837
5.5474841594696045,-0.08048579950736139,0.2267708588557375,-0.4763217482624812,1.244376274999253,0.03720618517188701,-0.7605685369397837
5.568260431289673,-0.0771523941465875,0.23010413180014647,-0.47965508159581455,1.2477098514779854,0.04053454701159569,-0.7639019935800397
5.588425874710083,-0.08381893141872991,0.23677068926862724,-0.47298841492914784,1.25437694948214,0.03385881093995044,-0.7705688795145713
5.608487606048584,-0.07715226877454441,0.23010402511117523,-0.47965508159581455,1.261043590085879,0.04052569761471948,-0.7772355279192474
5.628592491149902,-0.07048552003264687,0.2234372874181477,-0.48632174826248126,1.26771052417546,0.04718634075484312,-0.7839023268245734
5.648676872253418,-0.07381876988875169,0.22677054720587297,-0.4829884149291479,1.2710441150972478,0.04384678811677809,-0.7872357815009409
5.668754816055298,-0.07381877486491815,0.2267705507578726,-0.4829884149291479,1.2777107447184963,0.04384720171642297,-0.7939024220919295
5.689204692840576,-0.06715196487092465,0.2201037576985865,-0.4896550815958146,1.2843778978804243,0.05050281948814851,-0.8005693338049366
5.709113121032715,-0.06272510603435447,0.21343697311794757,-0.4896550815958146,1.2910449664422428,0.05049258156391058,-0.8072361875079607
5.729804515838623,-0.06174098395034987,0.2101035748773569,-0.48632174826248126,1.2943785369900005,0.04715351466284601,-0.8105696354762285
5.749874830245972,-0.055074298706228146,0.20343689026664905,-0.49298841492914797,1.3010452614277985,0.05381858833214295,-0.8172363273687808
5.769927740097046,-0.061740876124216186,0.21010347278413793,-0.49930676933758206,1.307712243353518,0.04714439861958183,-0.8239031480196267
5.79002571105957,-0.055074068179773616,0.21677000489183446,-0.49264010267091535,1.3143794931311403,0.040465536898757336,-0.830570125802279
5.810124635696411,-0.051740765349849525,0.21343670010886168,-0.4959734360042487,1.3177126877911292,0.04380153581461179,-0.8339033809032523
5.830200433731079,-0.05174066645805206,0.21343660496903852,-0.5026401026709154,1.324379788288953,0.05045937894885506,-0.8405702861365142
5.8502984046936035,-0.05840719734111988,0.22010313459328795,-0.509306769337582,1.3310470098094476,0.05711349962473902,-0.8472372463943924
5.870384454727173,-0.06507376929252585,0.22676970165267946,-0.509306769337582,1.3377140395321832,0.06377115823757531,-0.8539040990438931
5.890934705734253,-0.06840703652364512,0.23010296450725665,-0.5059734360042487,1.3410476085713017,0.06709806788617072,-0.8572375498809428
5.911032199859619,-0.06174034003849316,0.22343626433339947,-0.5126401026709153,1.3477143699023684,0.07376169125846786,-0.8639042596478684
5.93116021156311,-0.06840692903884428,0.22876636782793003,-0.5059734360042487,1.3543812996707734,0.06708706727183664,-0.8705710527950653
5.951233148574829,-0.06174022710076692,0.22209966058029812,-0.5126401026709153,1.3610480958143913,0.07374994420682723,-0.8772377843086232
5.9713006019592285,-0.05840688417814559,0.21876631613287714,-0.5159734360042486,1.3643814641935421,0.07708224225257877,-0.8805711350989893
5.991510629653931,-0.05174017683571868,0.21643678490087287,-0.5225225124058074,1.3710482747564914,0.07707772496953841,-0.8872378707069671
6.0115227699279785,-0.04507348437920438,0.2140068877699015,-0.5287500145005436,1.3777150356864505,0.07522585356511106,-0.8939045829811259
6.031770467758179,-0.045073401673994415,0.21400677797200754,-0.5287500145005436,1.384382062548604,0.07321837516173398,-0.900571437576955
6.051883220672607,-0.048406712627388264,0.2173400813440574,-0.5254166811672103,1.387715502561292,0.06988228885265642,-0.9039048291791606
6.072129249572754,-0.04174005062741305,0.21067341988066257,-0.5320833478338769,1.3943821444409665,0.07654947496318174,-0.9105714810508715
6.092123508453369,-0.04840667137805949,0.20875524049629593,-0.5254166811672103,1.4010490523149497,0.06987678208639946,-0.9172382838059885
6.11220383644104,-0.041740007084419044,0.20208857626000393,-0.5320833478338769,1.407715707303349,0.072879518632609,-0.9239049435495001
6.132287502288818,-0.045073311868610695,0.20542186695297227,-0.5287500145005436,1.4078425739645697,0.06954217047634136,-0.9272383792813035
6.152367830276489,-0.04507331629902705,0.2054218726532033,-0.5287500145005436,1.4112898803928613,0.06954277555483174,-0.9339050246438249
6.1725146770477295,-0.045073274384366806,0.2012337388898843,-0.5287500145005436,1.4112901535827374,0.0695367070161296,-0.9405718560675679
6.192538261413574,-0.0450732725118723,0.19713114176830948,-0.5287500145005436,1.4112901656703563,0.0695363710297933,-0.9472385297572422
6.213045597076416,-0.04173991897025332,0.1937977783922601,-0.5320833478338769,1.4146236311809735,0.07286681217697824,-0.9505719426160616
6.233194351196289,-0.04840653865900166,0.2004643736978727,-0.5254166811672103,1.4079572722984568,0.06619332397885086,-0.9572387938679466
6.253257989883423,-0.0417398770151107,0.1937977131451927,-0.5320833478338769,1.41462390635239,0.07286062100632634,-0.9639054403111353
6.273348093032837,-0.048406497332679065,0.20046430845673413,-0.5254166811672103,1.4212908853378157,0.06618710502304698,-0.9705722958419009
6.2933502197265625,-0.055073184790423516,0.20713100569764265,-0.5320833478338769,1.4279573987013767,0.07285684633707026,-0.9772388665711254
6.313442945480347,-0.05840647587454397,0.2096981551265331,-0.5287500145005436,1.4246243805390706,0.06951677649615384,-0.9805723971566483
6.333516836166382,-0.058406462039782794,0.20867530258229322,-0.5287500145005436,1.4246244840225866,0.06951453720750733,-0.9872391284282128
6.353620290756226,-0.055073109494395533,0.2053419388442898,-0.5320833478338769,1.4279579595778693,0.07284488820902466,-0.9905725510017162
6.37378191947937,-0.06173972129849777,0.20944739575770766,-0.5387500145005435,1.4346250379643521,0.07950264739905576,-0.9972394751000017
6.393816232681274,-0.06840633588342886,0.20561634184137112,-0.5320833478338769,1.441292110683908,0.07282714222143163,-1.0039063975398503
6.413887977600098,-0.06173966825055465,0.19894967210508424,-0.5387500145005435,1.4479587880450784,0.07949354926403476,-1.0105730709719487
6.433948040008545,-0.063586289776771,0.20561626354340934,-0.5320833478338769,1.45462580831949,0.07281961323254132,-1.0172399669947805
6.4540488719940186,-0.0602529762620306,0.20228296873200766,-0.5354166811672102,1.4579589434216391,0.07615679845052072,-1.0205731687046313
6.474144697189331,-0.05358628026782478,0.20228290754983425,-0.5383138732284829,1.4646259135457262,0.07742063424951424,-1.0272400368278032
6.494243860244751,-0.053586249524784836,0.20894950634630324,-0.5350687594908601,1.4712929296203894,0.07283559743127296,-1.0339069392178428
6.514780521392822,-0.056919568295711036,0.21228280692453472,-0.5325014315573685,1.4746264418724568,0.07038331461390299,-1.0372403950687488
6.53489875793457,-0.050252902553326845,0.21528738654669363,-0.5391680982240351,1.4812931076603417,0.07704994667153837,-1.043907061739385
6.555017948150635,-0.056919542663880426,0.2219539840838881,-0.5458347648907017,1.4879601462141454,0.08370981226367123,-1.050573987194579
6.57514214515686,-0.06358618377851298,0.22862057735956529,-0.5391680982240351,1.4946271965713394,0.09036940125699226,-1.0572409229019784
6.5951926708221436,-0.056919522797075156,0.22195392560171673,-0.5458347648907017,1.5012937816086167,0.09703758287391444,-1.0639075321168385
6.615360736846924,-0.06025284444650165,0.22528721922492012,-0.549168098224035,1.504627318541286,0.10036715415440173,-1.0672410100316476
6.635425329208374,-0.06691949183511199,0.23071820678977897,-0.549168098224035,1.5112943497887774,0.10702711110334684,-1.073907937256225
6.6555116176605225,-0.06691948583710038,0.22927280907004818,-0.549168098224035,1.5179611264826072,0.11369174144625387,-1.080574682219091
6.675917625427246,-0.06358614492051484,0.22593944124682402,-0.5525014315573683,1.5212946349148349,0.11702191286079926,-1.0839081426509176
6.696343660354614,-0.07025279152554356,0.21927267097063693,-0.557110954798056,1.5279618214887556,0.12367932428997964,-1.0905751886376456
6.716277360916138,-0.06611737333946971,0.21260591921213903,-0.5522025601826137,1.5346289196740432,0.11700516146869186,-1.0972421723958128
6.73637580871582,-0.059450710524411386,0.2059392739982638,-0.5588692268492803,1.541295468203392,0.12367383076644303,-1.1039087520048025
6.756454706192017,-0.05611737251732623,0.20260590264258446,-0.5557212866033934,1.5446290056399203,0.12033717887654685,-1.1072422375596378
6.7765960693359375,-0.04945070266478238,0.1959392106336883,-0.5562214737154285,1.5512958074411267,0.12033497351507194,-1.1139090048127893
6.796642541885376,-0.04278402965184373,0.18927246713941331,-0.5562214737154285,1.5579629174561476,0.12032820632613947,-1.1205760067014294
6.816812515258789,-0.03611736237088133,0.1826057965535365,-0.5562214737154285,1.5646295998140063,0.12032791826356065,-1.1272426847057702
6.837195158004761,-0.03278402746619686,0.17927242594466974,-0.5595548070487618,1.567963163497414,0.12365793089994137,-1.1305761943754893
6.857275724411011,-0.039450691933958254,0.18593900372549724,-0.5528881403820952,1.5746303850120287,0.11698343379339386,-1.1372432877992267
6.877338647842407,-0.032784025757363375,0.17927234535645553,-0.5595548070487618,1.5812969957928575,0.12365092112967759,-1.1439099117978255
6.897470951080322,-0.03945069443599457,0.1748103245214626,-0.5528881403820952,1.5879642276390908,0.11697674693072085,-1.1505770188136342
6.917570352554321,-0.032784028203873515,0.16814365674721055,-0.5595548070487618,1.594630900912238,0.12364338042759186,-1.1572436912059834
6.937739372253418,-0.03611736478023843,0.17147693847061043,-0.5562214737154285,1.5979645905545639,0.12030554823055767,-1.160577304870681
6.958128929138184,-0.03611736345542954,0.17147694692470566,-0.5562214737154285,1.6046311877917259,0.12030637667897708,-1.1672439161128834
6.97799015045166,-0.029450704104618346,0.1714768769603473,-0.5628881403820951,1.6112983634645088,0.12432047236462798,-1.1739109867902064
6.998007297515869,-0.02945071402202245,0.17814346351556662,-0.5628881403820951,1.6179656104556492,0.12274345001883713,-1.1805781162459648
7.018317222595215,-0.032784053072526846,0.1814767568457795,-0.5595548070487618,1.6212992407817435,0.12077052550034012,-1.1839116871481254
7.038457155227661,-0.032784053072526846,0.1814767568457795,-0.5595548070487618,1.6212992407817435,0.12077052550034012,-1.1839116871481254
7.058507442474365,-0.029450714148056542,0.18481012554119894,-0.5628881403820951,1.6246323050282088,0.1241069319394176,-1.1872448048172255
7.078589677810669,-0.02945072682042275,0.19043924276715193,-0.5695548070487617,1.6312995349534853,0.13076728462390563,-1.1939119277734502
7.098670482635498,-0.0327840660077401,0.19250548669310258,-0.572888140382095,1.634633115194409,0.13409795016910178,-1.197245460065828
7.118785381317139,-0.039450757752443104,0.19917202010620463,-0.5772861350043578,1.6413007882533952,0.14075404642949227,-1.2039129396214099
7.139230012893677,-0.04611743830032788,0.20583861873847228,-0.5722219059721441,1.6479679774747344,0.14741543729022097,-1.2105800295618776
7.159153699874878,-0.039450770645209306,0.1991719571506131,-0.5788885726388107,1.654634603776159,0.15408256447656513,-1.2172466639054433
7.179224729537964,-0.04611746399188018,0.20583850720824112,-0.5839543554011192,1.6613021961153493,0.16074061546991109,-1.2239140845392513
7.199303388595581,-0.04945080553712191,0.20735110944390095,-0.5806210220677859,1.6646358079420736,0.16407143166188312,-1.2272476450178829
7.219403266906738,-0.04945080249489954,0.20537916336681852,-0.5806210220677859,1.6713023803958973,0.17073886662096033,-1.233914234520042
7.239453315734863,-0.049450827712543076,0.2017759120734723,-0.5850096714040522,1.6779698661645153,0.1773986514815192,-1.240581571777518
7.259795665740967,-0.05278417475582904,0.20153302730787412,-0.5859594558066921,1.681303641092792,0.18072838407372377,-1.243915267158811
7.280172348022461,-0.046117506803626265,0.19486636546111158,-0.5926261224733587,1.687970266860907,0.18739543810019527,-1.2505819005872132
7.300117254257202,-0.03956101428559015,0.18841350313739688,-0.5986400493588039,1.6931290656714137,0.1872558931888149,-1.2567617926047465
7.3202478885650635,-0.03289436698004785,0.18174676656121277,-0.5919733826921373,1.6997963366689477,0.1805847242922774,-1.2553586871387423
7.340317010879517,-0.029561023441068854,0.17841346766168767,-0.5953067160254706,1.703129363828885,0.18392032444172293,-1.2586917675997176
7.360454559326172,-0.02326217646815676,0.17228311427427181,-0.5976503882710196,1.7049284724742226,0.20283240099714586,-1.2579120040966338
7.380509853363037,-0.01674461787319161,0.16583422695035602,-0.5946165249311924,1.7097491142925656,0.21045490460481195,-1.2542789091404911
7.400584936141968,-0.013411291650723318,0.16250086868276797,-0.5918120913711786,1.7130826791527813,0.21378669953198476,-1.2542491899790997
7.420740127563477,-0.0068311845288520166,0.15597231987157212,-0.5980267279536509,1.7187936191226578,0.2249022107640403,-1.260647224544338
7.441073656082153,-0.00016453697417208877,0.1493055875373726,-0.5913600612869843,1.7254609192379442,0.21823162520125505,-1.2673144163639454
7.460973501205444,0.0062640211997846895,0.14296417629080685,-0.5968539724199943,1.7295690534511712,0.23644143695535597,-1.2737397739124214
7.481053829193115,0.002930677082329456,0.1462974726273194,-0.593520639086661,1.7329027554520695,0.23310596275835926,-1.2770734132919022
7.501181602478027,0.0029306785289103126,0.14629747535390086,-0.593520639086661,1.739569386372152,0.23310615919866948,-1.2837400501517404
7.521270275115967,0.003014044863732065,0.1464219728510426,-0.5996146712314581,1.746714857179985,0.2434133777776724,-1.291265299314644
7.5413243770599365,-0.00022775276629542502,0.14989118721645728,-0.6022986519149529,1.7505149107269975,0.2508159960682781,-1.2955499149164755
7.561557769775391,-0.006894440407813885,0.15655778711615687,-0.5956319852482863,1.75718228439251,0.24414565655152157,-1.3022171690905295
7.581505537033081,-0.00022777634832511513,0.16322444567900485,-0.6022986519149529,1.7638490389023818,0.25081191062243136,-1.3088839086939792
7.601593971252441,-0.006894461704316108,0.16949075799842922,-0.607829842540362,1.770516323669401,0.2574755279666631,-1.3155510888598247
7.6216721534729,-0.010227804773997953,0.17282406138219952,-0.604813140844767,1.7738499829426264,0.2608073020914161,-1.3188846928393345
7.642053842544556,-0.01022780125265495,0.1728240712031885,-0.6054314426520647,1.780516532814176,0.2674744861714965,-1.3255512626764678
7.6620707511901855,-0.010227827420598216,0.1728239923266452,-0.6120981093187313,1.7871840914536892,0.274137146158724,-1.3322186697556566
7.682058811187744,-0.016831670385173927,0.17726867817180547,-0.6116470414884146,1.7940071169356742,0.2821104769387099,-1.3395961545794133
7.703024864196777,-0.020165014593971412,0.17818289452337147,-0.6083137081550813,1.7973408316506678,0.28376111795411196,-1.3429298041832205
7.723177194595337,-0.013498348681001308,0.17151622503192415,-0.6149803748217479,1.8040075312890205,0.29042768068040525,-1.3495964982156214
7.743255376815796,-0.0071902185402652145,0.17110324847332856,-0.6201545111433862,1.8083326343214106,0.31298621860464887,-1.3567873135234867
7.763352394104004,-0.013756384304706458,0.16468892578762342,-0.6186327592184777,1.8146377436390393,0.31309663953262784,-1.3645216238130513
7.783422231674194,-0.010520800553516197,0.1617688318065337,-0.6209077190394023,1.8165168063679418,0.33043868805139437,-1.3683581916389749
7.803507089614868,-0.010670377829878489,0.15539302414057196,-0.6200763076361601,1.8153214837654212,0.3412450479360454,-1.36888841009122
7.823586463928223,-0.010670391643406692,0.14872630900452374,-0.6134096409694935,1.815322068055701,0.3345762932134861,-1.3622222270811182
7.843819856643677,-0.00400374295484569,0.1420595828002703,-0.6067429743028269,1.821989473064887,0.33457364655588995,-1.3555561723786023
7.863846063613892,-0.0006704196561851928,0.13872621735874913,-0.6034096409694936,1.8253232165109508,0.337905536129307,-1.3522231790395662
7.884054899215698,0.0059962443565493816,0.13205954176964096,-0.6100763076361602,1.831989998593194,0.34457182640181017,-1.3455566079973647
7.904062509536743,0.012662894177115656,0.12539282109376323,-0.6034096409694936,1.8386573731744487,0.33790279447316723,-1.33889052809136
7.924131870269775,0.019329557600210833,0.11872614393119178,-0.6100763076361602,1.8453241801580154,0.34456901872845946,-1.3322239776900835
7.944217920303345,0.022662884130760196,0.11539278897428099,-0.6067429743028269,1.8486578030922445,0.34123475724054125,-1.328890884361502
7.964306354522705,0.029329547451205706,0.10872611138119469,-0.6067429743028269,1.8553246141477284,0.3412342926721346,-1.3288910039960737
7.9844231605529785,0.03593471566877471,0.10214993211259854,-0.6087170374739791,1.86160500205102,0.344827247424579,-1.3358814350978618
8.004494428634644,0.039219232044503984,0.09886810428857583,-0.6075811962602524,1.8646894358949402,0.3437750560238676,-1.3394322341842808
8.024636030197144,0.045732065949693174,0.09384041615097176,-0.6115119809845035,1.867828558047597,0.3716573494749874,-1.3495826198152558
8.044717073440552,0.039065385213892224,0.1005070372626521,-0.604845314317837,1.8744958717026514,0.36498882649043995,-1.356249821686391
8.064761877059937,0.04573205058992,0.09384036606677834,-0.6115119809845035,1.881162603123892,0.3716553261842432,-1.3629165417614062
8.084860801696777,0.04252193994074594,0.09737019993216817,-0.6138740660496114,1.8826388298839807,0.37391803901960957,-1.3677835306415826
8.104933023452759,0.03612289791382451,0.10443202773536221,-0.6181922542916697,1.884857142753047,0.3805096588025934,-1.3784862260899127
8.124990701675415,0.029588944815757127,0.11128994506212589,-0.6197597048099801,1.8892070015447224,0.3834810495420429,-1.3872247398560842
8.14511775970459,0.02625560442775779,0.11462325480076961,-0.619240730531451,1.8925406722457068,0.3830807917335898,-1.390558351257137
8.165253639221191,0.01972609972743447,0.12149466232421657,-0.6247540592397577,1.8968480345236634,0.39631149643436214,-1.3991875038517094
8.185306787490845,0.013059422197171336,0.12584529887473409,-0.6180873925730911,1.9035152376081506,0.40297679450506024,-1.405854611573592
8.20536732673645,0.01639276137108226,0.12251198510748834,-0.6214207259064244,1.9068482827643427,0.4063108515037789,-1.409187708109795
8.225445747375488,0.016480608880789088,0.12268060699671318,-0.6273990684968855,1.911825868248058,0.41053234672475114,-1.4168461367164578
8.245500564575195,0.009972287381998294,0.1295603069965469,-0.6316761885180902,1.915154433731251,0.41892503524305436,-1.4263371394107944
8.266197681427002,0.006666190150672849,0.13292826864613178,-0.6336219845073429,1.9178683087631725,0.42380004333404986,-1.4301758698652787
8.286202669143677,-4.931398393586903e-07,0.13011702138455222,-0.6269553178406763,1.9245358540339375,0.4177015377011621,-1.4368432556686979
8.30629825592041,0.0066888026330809945,0.12388541831631075,-0.6323812207450624,1.9276300016021388,0.4367976315982478,-1.445123466351903
8.326343059539795,2.212619060903715e-05,0.13039578771637675,-0.6320431352361864,1.934297204397923,0.43012975602783976,-1.4517905710512493
8.346463918685913,0.003327157675349004,0.1273744718834405,-0.6344912144932013,1.9351037586058089,0.4432380590880214,-1.456470103072142
8.366533994674683,0.0034647473269990288,0.12492743092177656,-0.6383238869930328,1.9319142511332072,0.45982180677639695,-1.4669521976681978
8.386613130569458,0.0035258782386536616,0.12265488761559014,-0.6385665075669388,1.9253975461792183,0.4634355423472367,-1.4823396906721007
8.407041072845459,0.006768132199373593,0.1198281969851621,-0.6387615649403604,1.920381649052402,0.4690614684945246,-1.4902209430396853
8.4272940158844,0.01281437677314604,0.125091140776737,-0.6412602567798231,1.9177363574911523,0.46982663151300985,-1.5002803845407267
8.447275400161743,0.019093977566527136,0.1211811728806195,-0.6402550198619555,1.9148294719311163,0.4727945709110859,-1.5196774117599028
8.467357397079468,0.025105381040799082,0.1262033286380223,-0.6422895645762889,1.911685270044562,0.4720094020778014,-1.5304511340726397
8.487407445907593,0.031202046039891195,0.130953090928802,-0.6442264058790476,1.9091674255686106,0.4733076487968394,-1.542223563776183
8.507503509521484,0.034315322405696,0.13066110242167056,-0.6445431466885146,1.910264450188329,0.47550231745673543,-1.550304869525214
8.527648210525513,0.04049762036807312,0.1326253295019169,-0.6457428299411374,1.9104591250789085,0.47808819036852007,-1.5647696455344056
8.547734260559082,0.04663280019916835,0.13708051935107338,-0.6473963945847496,1.908318098208411,0.4786238011516185,-1.5776927390050033
8.568471431732178,0.04969416601702197,0.13907010553962057,-0.6481547646502741,1.9073714464766724,0.47894931399796503,-1.584253741750329
8.588859558105469,0.05592522267790788,0.13736913893249791,-0.648102920572955,1.9095410826936792,0.4820627715588198,-1.6014527614232994
8.608772277832031,0.06204997199347629,0.14170949034014432,-0.6495238415414412,1.9073390971528241,0.4817343880057698,-1.6148215573338944
8.6288743019104,0.06816793969851402,0.14600643573176403,-0.6508188890284154,1.9049236151348192,0.4810300381964089,-1.628350695515389
8.648972034454346,0.07125140204388476,0.14389119218410917,-0.6500981660854,1.9053117981818932,0.4825160533824138,-1.638298427577383
8.669068813323975,0.07730902459586896,0.14426917664018116,-0.6500655033723499,1.9038861345143618,0.48292865266094737,-1.6540756390391913
8.689190149307251,0.08325743986649951,0.1489144251752023,-0.6511775766539062,1.8997892425068217,0.4806141583992976,-1.6660811336100751
8.709271907806396,0.08949230204494947,0.1482117536738723,-0.6504974594486864,1.8968732937973671,0.4694201224450105,-1.6826105033158114
8.72983455657959,0.09269362693341875,0.1452875878236832,-0.6493492803687663,1.8955301923134666,0.46985456724294333,-1.6929741930183457
8.749922275543213,0.09859933426731544,0.14848903997121596,-0.6504937573296213,1.8927116182006614,0.47095499208685676,-1.7043418357190698
8.770288944244385,0.1048434266503316,0.14285770846742854,-0.6484335812937875,1.8909772370906652,0.4737273305873201,-1.724836225509613
8.790178537368774,0.11119523502941059,0.13721609804789342,-0.6465275331806519,1.887426232214068,0.47540462325483224,-1.7448893191718924
8.810757875442505,0.11716671463051564,0.14214938755040174,-0.6480958568828221,1.8841952184265072,0.4747829686071623,-1.7558483317755929
8.830883741378784,0.12029735060757932,0.13935716740140036,-0.6472284371970415,1.8823617953938436,0.47620612667087314,-1.7655501837349084
8.850937604904175,0.1264458306717996,0.13855302707361405,-0.6472480293620186,1.8793929583412297,0.4757580953249066,-1.7808274808801043
8.871026039123535,0.13240479068259167,0.1428364950650862,-0.6487593348608403,1.876888175731468,0.47584777648256943,-1.7917642745048257
8.891102075576782,0.13538824556422718,0.14529063880456594,-0.6494861809612835,1.8752344575854814,0.47536490578735985,-1.7972709034207732
8.911251544952393,0.1416551512446944,0.13967424522360725,-0.6477482933351635,1.8720738200391203,0.47787761236393833,-1.816527925327581
8.93128228187561,0.1479720999986581,0.13406247972065255,-0.6462312609384654,1.8672223297584294,0.477409062624666,-1.8351330777973913
8.951756954193115,0.1525507471979004,0.1390859042190569,-0.6479574416376789,1.865044213695582,0.47587903459254716,-1.845754294553742
8.971952199935913,0.1556634718992369,0.1362746485163828,-0.6472454105951739,1.86285606510426,0.47803116209649005,-1.854956048606301
8.991968870162964,0.16181409424067417,0.13597586076118043,-0.6474714067838835,1.8593552784887497,0.47733249764878444,-1.8694148908134796
9.01207947731018,0.16139637964349995,0.14109562888371815,-0.6488692304415611,1.8570354629073638,0.4745956017110344,-1.879568091495909
9.032263278961182,0.1579945082006933,0.14367765615687936,-0.6493962055725877,1.855640665957485,0.47142133119694857,-1.884486522269914
9.052367687225342,0.1642247978031011,0.13814414906740483,-0.6478571076213324,1.852087028545456,0.47599548319086005,-1.9029603101664456
9.072482109069824,0.16532378465919634,0.14313761028240427,-0.6494996178520107,1.8506817326651586,0.475148968331122,-1.9137436822581473
9.092541217803955,0.1715488545037759,0.13845482331847,-0.648178922521136,1.8499807885641133,0.47887192138847356,-1.9315874500611203
9.112804889678955,0.1746544146432919,0.13703262542008698,-0.6479712246792846,1.8507323778180418,0.47936011767674414,-1.9397740108098747
9.1328284740448,0.17435031794997932,0.1383108124696982,-0.6484356834230884,1.8508393936312084,0.4761783704402771,-1.952722397646949
9.152903079986572,0.17407022504044956,0.13814639528827774,-0.6482693014933035,1.8477177179911923,0.47558276213458106,-1.9666380660034284
9.172981023788452,0.17718761170561342,0.1353755636344831,-0.6475927775928432,1.8455709851728148,0.47800508481145476,-1.9755735469598739
9.193084001541138,0.17562303248908923,0.140382739980942,-0.6491324908400359,1.8436060882369187,0.47351081443725707,-1.986147033006149
9.213170051574707,0.1815829568864962,0.14547801932516613,-0.6507460751258048,1.8411254945948912,0.4747769611317267,-1.9964174706825604
9.233301877975464,0.17820673216375285,0.148669548105113,-0.6503311439611054,1.8428245509515864,0.47029475472566934,-1.9999400196636987
9.253693103790283,0.17781141255380498,0.1544259362102308,-0.6507448593105891,1.8430072878008361,0.4662441261486575,-2.008602423180963
9.273621082305908,0.17720622282558804,0.16030977876695873,-0.6481694855605343,1.84482391598782,0.4631758781549284,-2.0171293624883955
9.29366397857666,0.17710917116371602,0.16085880336834554,-0.6442913884277468,1.8426052825085435,0.45064191610042065,-2.0273006801322184
9.313834428787231,0.18034975468008346,0.15802728842486657,-0.6441214631968546,1.8362956485462536,0.44263763544287305,-2.0335506457035932
9.33386754989624,0.1866262962815234,0.16337313721167165,-0.6468615584424658,1.8353461481191045,0.4416287292440988,-2.0437329361202257
9.353933811187744,0.1928119808969832,0.1684719107545017,-0.6489760572409053,1.8333620171896634,0.4443828338257567,-2.0548118611104584
9.374362707138062,0.19590238618811137,0.17099350448317022,-0.6499638062952718,1.8322580318602446,0.4454874751299838,-2.06045615069547
9.394287586212158,0.19931375260734735,0.17434281370243845,-0.6514544842412374,1.8322267668423107,0.4468259539820153,-2.071938455771454
9.41457200050354,0.20260021614480458,0.17772777245715504,-0.6527062845017799,1.8313385215338482,0.44742314358092394,-2.082805316709107
9.434706926345825,0.20557970688263189,0.1801219787164305,-0.6534273663446716,1.8293937223414996,0.44779552929706085,-2.0878294990750876
9.45479154586792,0.2064974082997014,0.18297986888370316,-0.6545759804006576,1.8290857892370052,0.4480822647846123,-2.0990758475504556
9.485912799835205,0.20960821074112468,0.18019382067446252,-0.6537051799972785,1.8279544829186642,0.4496230406980374,-2.1079881385244446
9.520739793777466,0.20960821074112468,0.18019382067446252,-0.6537051799972785,1.8279544829186642,0.4496230406980374,-2.1079881385244446
9.545133829116821,0.2127255623117961,0.17742226816148285,-0.6528781197911816,1.8265735236564478,0.45112432154403637,-2.1169648820225575
9.565218687057495,0.2093552324500551,0.18011182517597416,-0.653356237943171,1.8249893192920221,0.44766752806524435,-2.1179672866611527
9.58534049987793,0.20909649583063103,0.18003964807147252,-0.6530283331252155,1.8215762866372716,0.4460944219465657,-2.125188157421855
9.605406522750854,0.2153196019236257,0.17452145589659832,-0.6516064188499573,1.817098788849215,0.44977490777085133,-2.1390661904127524
9.625627040863037,0.2184567111898288,0.1717557317460777,-0.6509631888937606,1.814337382746035,0.45021052451904414,-2.1473065245615683
9.645603656768799,0.2246741681874773,0.17675827170471745,-0.6528723664068069,1.8121224410399634,0.45023404899709496,-2.158807163537634
9.665700912475586,0.21784953542098767,0.18195988578499972,-0.6541840869656314,1.812083204903114,0.4474446830210932,-2.169192356102314
9.685832262039185,0.2240244651701716,0.1869232569134421,-0.6558061681154095,1.8088678640430205,0.44841681742937806,-2.180684801342416
9.705859422683716,0.22085991672426458,0.18690734625322594,-0.6554845562077933,1.810774155029027,0.4455974729600259,-2.187891590487953
9.725950717926025,0.22067067188367256,0.18721008164812278,-0.6556360370550115,1.8133706131981946,0.4454361198345,-2.1949900918078877
9.746033430099487,0.22676825689081248,0.1846730964278599,-0.6552173432226214,1.8131840207528074,0.4493127204481257,-2.204001501664903
9.766244649887085,0.22989242655550324,0.18188161447077397,-0.6544035152739605,1.8119587124370855,0.45074267407237173,-2.2129214340436927
9.786375999450684,0.23587088131120837,0.18710831689113103,-0.6558447748696389,1.8075790202647821,0.4504848697014962,-2.2227733286250353
9.806558847427368,0.23152917870771397,0.18567846166308935,-0.6546381000703291,1.8084673401914464,0.44444472908786803,-2.235449885961089
9.82658576965332,0.23776129895867354,0.1801227280150168,-0.6532090790909189,1.8045497524661411,0.4479492096379571,-2.2523121159650334
9.84669041633606,0.23441404316389644,0.18288343438946475,-0.653766432046493,1.8030050289837798,0.4448768009888993,-2.2564739919021397
9.866762638092041,0.23418047661261862,0.18287287131836852,-0.6536331604132979,1.7990250429158017,0.4439290224972945,-2.2683984384380302
9.886894226074219,0.23609132346795844,0.18277472432113726,-0.653722245729448,1.794658366353252,0.44338049962995274,-2.2809581079714674
9.906901121139526,0.23798441982699173,0.1881349139655338,-0.6552378452368052,1.7904018197907008,0.4414891766205328,-2.2896166272033462
9.927034854888916,0.2409752223344161,0.1908265602527787,-0.6560280434350938,1.7879268239684762,0.4418636001838544,-2.2941813712440724
9.9499351978302,0.23890560379395884,0.19076751512978624,-0.6557657107100828,1.7910160860662054,0.43879950014967906,-2.3091734794687477
9.98031997680664,0.23890560379395884,0.19076751512978624,-0.6557657107100828,1.7910160860662054,0.43879950014967906,-2.3091734794687477
10.000358819961548,0.2389464515387161,0.19603147615797814,-0.657202545804549,1.7873765981252128,0.4372412900123945,-2.319181783682433
10.020490407943726,0.23227540212671136,0.2015747669939843,-0.6581029626782272,1.78300324324233,0.4316739123919862,-2.3151908430807397
10.04060411453247,0.23850990798775035,0.19598997555528996,-0.6566685953598274,1.7789610438331158,0.4357777289878711,-2.331683665883992
10.060652732849121,0.2415002643155136,0.19870345779780432,-0.6574492971349369,1.7761706451807848,0.4362172471634057,-2.33151894983512
10.080806016921997,0.2476195789963377,0.19861309035423197,-0.6575141786832279,1.7712091390449014,0.43826937661641463,-2.339579537694829
10.100907802581787,0.25374690188382465,0.19854361206692173,-0.6576788112474983,1.7661416240712393,0.4402774881940877,-2.351991124529345
10.120909929275513,0.25342692267527733,0.2040744313318304,-0.6589894820893872,1.7611238828751448,0.4376621909078581,-2.3609169809534083
10.141470432281494,0.25011001387814547,0.20689062772106281,-0.6594988744091028,1.7588055727696872,0.43498406019863434,-2.3654324319347726
10.16159987449646,0.25655703343313974,0.20115097699345819,-0.6582049560367523,1.7533084899022804,0.4377363591593134,-2.3812743936215073
10.181674718856812,0.2625609684683187,0.2066396913254183,-0.6598314192949211,1.7473563004407595,0.43819284695394617,-2.389775736507531
10.201727628707886,0.2558953417249712,0.2122113905408791,-0.6610162836545037,1.7437269102441557,0.43455379834515045,-2.3989743277658
10.221994638442993,0.2591329911718601,0.20932584985209535,-0.6603731311512303,1.7409085814098735,0.4358693867908606,-2.4032889395702153
10.242023229598999,0.2590706395942211,0.2093126732139293,-0.6603609473186477,1.7354298712944334,0.43502806081117806,-2.404721337680447
10.262105464935303,0.25902604408622426,0.20929127106786038,-0.6603682372316187,1.7295230620290116,0.43438392375476825,-2.4098941410088828
10.282206773757935,0.2622774138895175,0.20640414568254464,-0.6598427442168507,1.725931429360447,0.4360071509096035,-2.417232595252617
10.302328109741211,0.2557051020316983,0.21219729836733525,-0.6611112971978272,1.7208920603032438,0.4322815327077188,-2.42581053782617
10.322407007217407,0.255081788091971,0.2098539667856666,-0.6602495107480638,1.7162019604015541,0.4333867747402838,-2.4260760215329626
10.342501163482666,0.2613736322911396,0.20426542488052454,-0.6593627827703213,1.7087400064191827,0.43738008426540004,-2.426633859912883
10.362555742263794,0.26462803543532165,0.20138520487904654,-0.6590074788483167,1.7042762484952747,0.4393377124012637,-2.433311857266557
10.382671594619751,0.26799842880081765,0.20123094614126566,-0.6597610339300869,1.6981496705209298,0.44203489164219656,-2.44469908798717
10.402743577957153,0.2711430968321897,0.2047158352752076,-0.6615161529795627,1.6959428134915,0.4447929206371955,-2.4547247434500727
10.423271656036377,0.27418730416990733,0.20540277771769214,-0.6621990563389271,1.6954757659842528,0.4469371815230086,-2.4600194861343687
10.443364143371582,0.26764116771304153,0.21121359080559737,-0.663538355082334,1.68988470104107,0.4436220668533239,-2.454905457849969
10.463609218597412,0.2739285894362619,0.20564402564308198,-0.6624386064617419,1.6826326404436198,0.44688622191352495,-2.454702760318453
10.483567714691162,0.2802155772475173,0.20009470829566817,-0.6614893538263632,1.6747133373961327,0.4505103953860808,-2.453814298472246
10.503643035888672,0.2834281883416662,0.19725106430715567,-0.6610880117867618,1.6700701674266873,0.45272956051670354,-2.4597195403466916
10.523727893829346,0.2833427894983844,0.19731261485769308,-0.6616877113174588,1.6636935523452743,0.454595684432669,-2.469278274028051
10.543847799301147,0.283073877982232,0.20160219285920758,-0.6631671788696987,1.6600338486034807,0.457170722048323,-2.4780957991007915
10.563899040222168,0.2860963032766223,0.20283606924412886,-0.6637948944121315,1.657697096970386,0.4588601110088271,-2.4830410430008043
10.584077596664429,0.2796121566934278,0.2087350103894301,-0.6648261324751797,1.6531245324878545,0.4559315752801113,-2.4770672631826143
10.604097366333008,0.2859515737273896,0.2031239438745461,-0.6636071489063503,1.6448627349501397,0.4578393604109045,-2.4765169260040185
10.624253511428833,0.29231419151310745,0.19756931118406884,-0.6623747386666241,1.6360107845280771,0.45977551588611304,-2.48903151033752
10.644294023513794,0.2953239109161886,0.2003780669388001,-0.6630418268304197,1.6309147472004815,0.45880026118986345,-2.4926989461401297
10.664342641830444,0.2951202088121865,0.20608729322721497,-0.6638889568921577,1.6263162823565773,0.45417534879864463,-2.495541850237874
10.68447756767273,0.2949889210727518,0.20601952737679824,-0.6628933017761331,1.6215570897043619,0.45026983538127135,-2.4928115869803604
10.704494953155518,0.3012077975296201,0.20262751230146606,-0.6616859551726291,1.6145866057714464,0.4491166472936199,-2.4967298259977433
10.725102186203003,0.30426246919642014,0.20209524068793738,-0.6616266429483569,1.6123286152081222,0.44903764411110725,-2.5015236369867972
10.74526047706604,0.3101895137575447,0.2078134389634388,-0.6627018493144416,1.5990696282629118,0.4429021269260761,-2.501577640947196
10.765315294265747,0.31643344688440084,0.20652666186605545,-0.663069246461859,1.5923072633653057,0.4498700518271946,-2.507466516497418
10.785488605499268,0.3171983407949497,0.21193814543817927,-0.6638572591414099,1.5866131968943427,0.4416702298838543,-2.5121355973065436
10.805514812469482,0.3201213730800913,0.21195979680601731,-0.6636966062014521,1.5846317683529387,0.44115018010023177,-2.5138858712008156
10.825568675994873,0.326246767645175,0.2148875471073681,-0.6641225437575488,1.5809793741561278,0.43942330268035845,-2.5184994324563648
10.845648050308228,0.3323395317138402,0.21725729159322285,-0.6641254442660812,1.577001744063452,0.4365494088662331,-2.523015524819926
10.865708351135254,0.33531769894242763,0.21724521808550254,-0.6641747163948317,1.5804934826916097,0.43808784377131305,-2.521353242216413
10.885804653167725,0.341078773735278,0.21174764076387537,-0.6628339737559127,1.5896029775745957,0.44490928583430733,-2.5193980065978634
10.905914783477783,0.34711120219769376,0.21284021356833127,-0.6633860702986826,1.5828966150063033,0.4445330598739811,-2.522788157314653
10.926279067993164,0.340699657518047,0.21825033961551332,-0.6643095953788514,1.5942612703959174,0.43796255848035537,-2.5350948072581883
10.94616174697876,0.3437929866076303,0.2160871192431116,-0.662900554062048,1.5903198432141719,0.43481411723405866,-2.538808426819237
10.966229915618896,0.3436208492609865,0.21708230987399482,-0.6635290164764134,1.5919706112099992,0.43730120421267965,-2.5405203993424736
10.986368656158447,0.34348304632971205,0.21719778269964077,-0.6626125877804748,1.5900305440008187,0.43345408330092655,-2.5334207532053252
11.00643515586853,0.3465795359289466,0.21439557606622203,-0.6628361747448155,1.5873154465476136,0.4426867791806053,-2.530359577129138
11.02654218673706,0.3404174631370763,0.20899228192394737,-0.6624880514352759,1.5959109907871045,0.4510155366468145,-2.5288079730677286
11.046624898910522,0.3458791520339536,0.20780002513561863,-0.662627102973734,1.5872996161024024,0.45209895235839914,-2.528300223129711
11.066691875457764,0.33965767764660154,0.20331870922731193,-0.6622351669711926,1.5957617796794525,0.45620314210193963,-2.526484671656467
11.086792707443237,0.3365846995546322,0.20094166616764783,-0.6620870891149728,1.5967322756148976,0.4579882656482696,-2.5251119130195936
11.10689640045166,0.3365621230402282,0.20071703779075162,-0.6628628995876966,1.5938445370529855,0.4580343905014391,-2.5184236162937776
11.126975536346436,0.3426394450444597,0.19949299066776452,-0.6619139970209876,1.5880608613057967,0.45478298207490353,-2.5168363424653384
11.147145509719849,0.34574163893343446,0.19669568240552224,-0.6620289421002081,1.5879709066231813,0.46230167579659603,-2.52083343532572
11.167224407196045,0.33935134492911617,0.20259987993913375,-0.663331865445609,1.5939213408497135,0.455978046587019,-2.5308144256038383
11.187339305877686,0.3454506408343571,0.20803525134464965,-0.663711291253847,1.585988833236075,0.44730455731701396,-2.5356654425350036
11.207406997680664,0.35176965236604435,0.2131700702257888,-0.6645625441091235,1.5815044084715302,0.4440055935871031,-2.54138642262142
11.22748351097107,0.3546717041993768,0.21306689979002374,-0.664216620870747,1.5795943955994187,0.44294641422220743,-2.542999311454514
11.247568607330322,0.3607142953152132,0.2139974705963717,-0.6641979443903424,1.572847539531732,0.44145721243547903,-2.5451417685100655
11.267658472061157,0.36669298044876847,0.21338308216197865,-0.6638480600650896,1.5731916238676047,0.4418361618354555,-2.5429439555146285
11.287723779678345,0.36957155730542324,0.21206879930616973,-0.6632967871944265,1.5776804962567255,0.44244232729742006,-2.540273272792694
11.30783224105835,0.3753401713686686,0.2083390056111164,-0.6624548915419354,1.5843957479708408,0.4477556626482617,-2.5371904900354765
11.327919483184814,0.36883549939046767,0.21385244702722417,-0.6643035257706613,1.596278555665987,0.4483207775553343,-2.547773255686917
11.348000526428223,0.3623265860481839,0.21894441322108213,-0.6649865396832623,1.6042871373974217,0.44196020646429723,-2.558281757641982
11.36807370185852,0.35626819163867673,0.21943865744756483,-0.663820559803981,1.6125091975946484,0.4361984622311102,-2.561780443791363
11.388162851333618,0.35325302587383156,0.2170164834596941,-0.662477559927515,1.6115685342039046,0.434635308896633,-2.563488449880365
11.40848183631897,0.35351064681442657,0.21209546126574044,-0.6612111758137439,1.605494031014616,0.4392574665269871,-2.561126130632428
11.428383111953735,0.3546890651044346,0.20676820509056748,-0.6615878590924065,1.6007901170086902,0.44628667882797296,-2.5548523593553085
11.448640823364258,0.35282892500750146,0.20414285828489023,-0.661500458184703,1.5996300602577376,0.4490866565006728,-2.5517744923586454
11.468755006790161,0.3499840970463312,0.1988685972169914,-0.6614398822332166,1.5974098066453932,0.455325741608341,-2.545413260052638
11.488852977752686,0.34364510148699795,0.19354918796195392,-0.6613500057565053,1.5959982658749754,0.46125252616648865,-2.539701433030733
11.50892424583435,0.3373719801370613,0.18812299911506275,-0.6614979372157431,1.5940908091817427,0.4690549578653538,-2.5339851054279596
11.529052257537842,0.3342656359958028,0.18711948683080296,-0.6614355825118323,1.593573728758525,0.46981164232856626,-2.5322077884749534
11.549137830734253,0.32805713167241124,0.18553381204129146,-0.6614436398178422,1.5930312423700494,0.47165865201533724,-2.5286059309106097
11.569362878799438,0.3217242535282778,0.1838477717327756,-0.6617042684273943,1.5950415711185326,0.47414798225646243,-2.52403679580648
11.589364528656006,0.3185216616294954,0.1829433976538095,-0.6615127822411806,1.5956325577320638,0.47409080612222526,-2.5211483731083497
11.609724998474121,0.31203998717771664,0.1806262718364799,-0.6613197256179463,1.5985936986133313,0.4749965547349738,-2.515006335113427
11.629676580429077,0.3054116377792798,0.18034562994333955,-0.6608519058091966,1.6058418964170391,0.470038324378204,-2.5086287132655967
11.64974331855774,0.29948723829491014,0.18068097993791238,-0.6603288404062528,1.6115801101264278,0.46823207115783166,-2.513790721714773
11.669812202453613,0.2962630504058002,0.1836660064194373,-0.6611497536462335,1.6132517343998791,0.46666081730038306,-2.5118010891790408
11.689887046813965,0.29009959601083585,0.18590281843246864,-0.6607476036487927,1.616542554494546,0.46252929713558333,-2.513337739645843
11.709958791732788,0.2839643166806429,0.18831997947742665,-0.660906158383417,1.6201972152715887,0.4601385470792454,-2.5146286446981887
11.730371475219727,0.2778412698873846,0.18845590023985276,-0.6599089774607989,1.619494677128939,0.45671738793165967,-2.5147742077645803
11.750524759292603,0.2748456457642719,0.1857191241906879,-0.6594914731511036,1.6167503165876298,0.4590742590583149,-2.5131475125923735
11.770596027374268,0.28108558819870155,0.18018036956598546,-0.6599059295307506,1.6073846758976285,0.4686374827830156,-2.505735780296023
11.7906494140625,0.27467299445847454,0.18622574231817823,-0.6615448512109461,1.6113403532763817,0.46544090648225656,-2.5029485430601226
11.81082010269165,0.27774093154110474,0.18448516042770235,-0.6610134320710271,1.608516591663802,0.46577510510508896,-2.507969926887276
11.830937623977661,0.2776091745736692,0.1861394606894544,-0.6615207983713629,1.6072757480792035,0.46608951724089226,-2.516783889867668
11.850992441177368,0.271176531439499,0.1918634334682685,-0.6622179527403026,1.6083471803119236,0.46104649761048505,-2.526837703964241
11.871076583862305,0.2679585661760748,0.19471273670753253,-0.6625226605536316,1.6087252509401364,0.45835752101880567,-2.531850991148844
11.891189098358154,0.2615441609906061,0.20048279549903736,-0.6630616200710248,1.6098039854738972,0.45251272887646943,-2.529312914262487
