liuyurong129/humanoid-gym/humanoid/data/robot2_actual_20250621-221215.csv
timestamp,joint_1,joint_2,joint_3,joint_4,joint_5,joint_6
0.00019478797912597656,0.0,0.0,0.0,0.0,0.0,0.0
0.020511150360107422,0.0,0.0,0.0,0.0,0.0,0.0
0.04043436050415039,0.0,0.0,0.0,0.0,0.0,0.0
0.06051492691040039,0.0,0.0,0.0,0.0,0.0,0.0
0.08059239387512207,0.0,0.0,0.0,0.0,0.0,0.0
0.10068416595458984,0.0,0.0,0.0,0.0,0.0,0.0
0.12078666687011719,-0.004999947123513164,-0.0049999995618974225,-0.0049999884703971886,0.005,-0.004999995107139541,-0.005000339452527799
0.14088797569274902,-0.009999946793965278,-0.009999995622649117,-0.009999987710846594,0.009999994622190124,-0.009999990996952987,-0.010000345599428091
0.16095924377441406,-0.012499946786154974,-0.012499991850063572,-0.012499987710846594,0.012499985529774492,-0.01249998548927052,-0.012500343736831317
0.18104052543640137,-0.017499946401420108,-0.01749998821886227,-0.01749998697817118,0.017499973007833198,-0.01749997845191499,-0.017500351793877662
0.20117878913879395,-0.022499945945541694,-0.0224999847178752,-0.022499986265565364,0.022499957338359335,-0.022499970089760027,-0.02250036236066432
0.22130990028381348,-0.027499945423042103,-0.02749998133457513,-0.027499985567151487,0.027499938802253418,-0.027499960519474197,-0.027500375200542503
0.2416841983795166,-0.029999944778198916,-0.02999998131963938,-0.029999984877972192,0.029999938802253417,-0.029999960288754315,-0.030000394753913792
0.2615928649902344,-0.03499994412380602,-0.03499997803969172,-0.03499998419398765,0.03499991768130508,-0.03499994961335664,-0.03500041201519243
0.28177404403686523,-0.03999994342164582,-0.0399999748583199,-0.039999983512077494,0.03999989426015644,-0.039999937988539465,-0.040000430776507674
0.3017690181732178,-0.04499994267931386,-0.04499997176926841,-0.04499998283004721,0.04499986882824139,-0.044999925551705226,-0.045000450782138095
0.3218514919281006,-0.04749994278446904,-0.047499968800293585,-0.047499982830047215,0.04749984168169478,-0.047499912728289566,-0.04750044440169802
0.3420088291168213,-0.052499942023721866,-0.05249996588986331,-0.05249998214663891,0.05249981312522521,-0.05249989911082055,-0.05250046489848177
0.3620445728302002,-0.05749994123951815,-0.05749996306511515,-0.057499981461546126,0.057499783473944834,-0.0574998851365846,-0.05750048615091959
0.38221287727355957,-0.05999994029871971,-0.059999963024005926,-0.05999998077543253,0.059999783473944836,-0.059999884860766475,-0.060000515608135296
0.4022345542907715,-0.06499993993534116,-0.0649999602984136,-0.06494998217651296,0.06499975305514927,-0.06499987080578945,-0.06500052706149122
0.42237067222595215,-0.06999994120832187,-0.06999996004386146,-0.06913948570677406,0.06999977900451065,-0.06999989118382909,-0.07000050442930553
0.44245338439941406,-0.07499994227913176,-0.0749999596022585,-0.07253298350172878,0.07499979838158287,-0.07499990812303203,-0.0750004871302287
0.46252942085266113,-0.07749994232034517,-0.07749995898378699,-0.0739796851515559,0.07749981200232413,-0.07749992193511213,-0.07750048540041493
0.48262572288513184,-0.08249994322847187,-0.08249995826363382,-0.07645354499080875,0.08249982070003749,-0.08249993325995805,-0.08250047196786371
0.5027287006378174,-0.08749996029221802,-0.0874999587795191,-0.0750081954752715,0.08749982070003749,-0.08249993491989123,-0.08750023098507921
0.5230112075805664,-0.09249995940463235,-0.09249995626564275,-0.07000819474716813,0.09249978862595894,-0.07749991918256591,-0.09250025156798737
0.543290376663208,-0.0949999596299594,-0.09499995380699855,-0.06750819474716813,0.09499975864041284,-0.07499990345042862,-0.0950002424909307
0.5636062622070312,-0.09999995876270827,-0.09999995128420858,-0.06250819403178866,0.09999973090410676,-0.06999988751252284,-0.10000026203851227
0.5835881233215332,-0.10499995791418751,-0.10499994876526236,-0.05750819333043655,0.10499970556026116,-0.06499987176994454,-0.1050002798808234
0.6039779186248779,-0.10999995683343806,-0.10999994871003421,-0.05250819264480437,0.10999970556026116,-0.05999987161418666,-0.11000030325376858
0.6238555908203125,-0.11499995683343807,-0.1149999487100342,-0.04750819264480437,0.11499970556026094,-0.05499987161418635,-0.11500030325376857
0.643967866897583,-0.11749995683343807,-0.11749994871003419,-0.045008192644804365,0.11749970556026072,-0.05249987161418604,-0.11750030325376853
0.6640455722808838,-0.12250633573077334,-0.12248677339552556,-0.040249189111161515,0.12143177614638205,-0.04818863222873935,-0.12149300697257548
0.6841268539428711,-0.1275669513655414,-0.12724331784260032,-0.035691679096787034,0.12484857919607688,-0.043360352479914856,-0.1250201483956837
0.7042174339294434,-0.13007844943860222,-0.12971525629988453,-0.033500652864480514,0.12582197017239613,-0.04153672773142494,-0.12609327648140017
0.7243244647979736,-0.13511018811371875,-0.13462739001971855,-0.02908670043620429,0.12810375526776524,-0.03771841320372682,-0.12855103573596957
0.744483232498169,-0.14014577102888132,-0.1395028418520611,-0.02484474377541212,0.12932491228779638,-0.03401198129145022,-0.13175802736931985
0.764531135559082,-0.1426742471033484,-0.14186811549076525,-0.02277952449392598,0.1295788983338605,-0.032003623576896456,-0.13369889491793835
0.7846775054931641,-0.14775740000453116,-0.146436317420952,-0.018774688976624862,0.12939606231678777,-0.027329943318808895,-0.14283086636635509
0.8048348426818848,-0.15285719811511256,-0.1509472503334852,-0.014833026021375446,0.12888858698074182,-0.023354952749945916,-0.14830654352301298
0.8250637054443359,-0.1554125111323222,-0.15318909087037594,-0.012843399353571665,0.12864692166636071,-0.020996156568068282,-0.15121784408252056
0.8451740741729736,-0.16054388476313605,-0.15761950982058867,-0.008921161124161013,0.12768459428619566,-0.016401271886906786,-0.15370857664103535
0.8652157783508301,-0.1656953100014193,-0.16199450007699537,-0.004997055359585375,0.1272069320277304,-0.012110634866751494,-0.15531187032690766
0.8852732181549072,-0.17086992778054788,-0.16629233917171266,-0.0010501614562802692,0.12718994164685393,-0.008093426056885854,-0.1561962657452458
0.9053707122802734,-0.17358293871208702,-0.16793057774577794,0.0009556990018859748,0.12894734748507683,-0.004533947221280393,-0.15622889548645702
0.9256012439727783,-0.17890644300839956,-0.1718542319827106,0.005415818490775134,0.13415397796457165,0.0029597262793436578,-0.16149889163178852
0.9456632137298584,-0.18417802268822536,-0.17586463786375958,0.00939680790798002,0.13503576440572587,0.007045573563840137,-0.16104845908063534
0.9658479690551758,-0.1868067514930241,-0.17790474392035852,0.01144560153633353,0.135773619600094,0.009486028216455483,-0.16178022559714308
0.9858794212341309,-0.19211137447601428,-0.18184616390027017,0.015448750903891514,0.13647136751039568,0.0147351467552426,-0.16158959796260644
1.0059726238250732,-0.1977421722688093,-0.1846584510977621,0.019440176096518835,0.14075646771009295,0.02438356686542023,-0.1627153974366968
1.0262086391448975,-0.20046767720936903,-0.1865123578040235,0.021662086164011725,0.14334108606870058,0.02936184944205824,-0.16453773073781522
1.0461764335632324,-0.2059859538652517,-0.18991557414703747,0.025596368514254578,0.14433583282511153,0.037774092229272645,-0.16571178627881827
1.066263198852539,-0.21153192132207976,-0.1933432187231272,0.02950088546757329,0.14405757652346243,0.047013652394129725,-0.16807169339882394
1.0864756107330322,-0.21426967597786042,-0.19521876559991344,0.031513281779428845,0.14313169843747683,0.05165598473247619,-0.1693034988492091
1.1065597534179688,-0.2200222062458387,-0.19822315912368862,0.035722048607639965,0.1471731964134492,0.06579190808001872,-0.17300221713243405
1.1266415119171143,-0.22560949379332804,-0.2018432846763228,0.03999542850377298,0.14878488350435254,0.07840626640586268,-0.17628524266391846
1.1467540264129639,-0.23163452149783334,-0.20433786829006714,0.04404808629168103,0.1517807463121135,0.09750508965266494,-0.1783359009961187
1.1668596267700195,-0.23447418665744132,-0.20613451776645877,0.04628110781525412,0.1541446062051733,0.10563867938494596,-0.18096553930233245
1.1869440078735352,-0.240264621423007,-0.2094749338921577,0.050429391380981486,0.1531347539505004,0.12325911337329251,-0.18632341699018273
1.2070021629333496,-0.24615629562518815,-0.2130654499383093,0.05444186515516092,0.1482657345470501,0.14718376379211248,-0.19086958597861775
1.2270770072937012,-0.2490830478166523,-0.21497442415215837,0.05650058185314139,0.14616236376056632,0.15939526917072183,-0.19309128363076275
1.2471675872802734,-0.25497255546883396,-0.2188118551064811,0.060603132709976325,0.14121465395905416,0.1850203815103952,-0.19592588797901206
1.2672500610351562,-0.260860602311602,-0.22274295475068398,0.059828136580594285,0.13553273210700084,0.21076715595042197,-0.19625557901953097
1.2875268459320068,-0.2664573094073536,-0.22647167032147575,0.05407543512206985,0.13605366649742887,0.22184437736117457,-0.19781077111759351
1.3075437545776367,-0.2692320319286453,-0.2281389664988126,0.05559306407805258,0.1378516174180425,0.22379994232289424,-0.19971735134903376
1.327617883682251,-0.2748486911073863,-0.2314314692793751,0.059013376551355544,0.1414908114352081,0.22929060749982513,-0.20366242375256413
1.3476884365081787,-0.28047107313585934,-0.23469876197771997,0.06311252079728881,0.14422525563856123,0.23375314445840237,-0.20675089969393368
1.3686432838439941,-0.28329326413722616,-0.23631533449397887,0.06515605605761833,0.14559179940510983,0.23594724907495437,-0.20829475248363474
1.3887526988983154,-0.2889115026783527,-0.23954869801249937,0.0692124127540864,0.14796668855422626,0.2387067265560425,-0.21098491574817005
1.4088551998138428,-0.29454965930848204,-0.24274924109159643,0.0732569262673209,0.15027883475185705,0.2411874358690489,-0.2136081457702338
1.42891526222229,-0.3002041965863206,-0.2459241686215154,0.07729314685455181,0.15264563992740063,0.2434084029849469,-0.21626873543573802
1.449115514755249,-0.3030593123937691,-0.2474923180358659,0.07931417076711529,0.1540374561879127,0.2451811572040893,-0.21782396610259894
1.4691102504730225,-0.3087311230825756,-0.25064466275385205,0.08334529309858141,0.1565380739510169,0.24702785383253525,-0.22058637992189556
1.4891791343688965,-0.31440057560339674,-0.25377134279296243,0.08740947895805852,0.15549703304068574,0.24831610275686572,-0.22461201319036783
1.5092706680297852,-0.31725562673124225,-0.25531236470385504,0.08946573977853067,0.15322690208633677,0.24943316600427118,-0.2273197813776438
1.5293872356414795,-0.3229152331742009,-0.2584300103040638,0.0935706071092417,0.1483134617903246,0.24983940226597529,-0.2323083864619534
1.5494656562805176,-0.32863461989508846,-0.26149608420855447,0.09769448486009844,0.14409501200507663,0.25153623269340997,-0.23798375603517338
1.5695385932922363,-0.33434827667905936,-0.26458424638125355,0.10182999134735005,0.14022161289797744,0.25309027979198084,-0.24396375036344195
1.5896117687225342,-0.33407375049987037,-0.2660814534546595,0.10391570758634254,0.13937626089620841,0.252508422452043,-0.24785516788839246
1.6096787452697754,-0.33153296527976056,-0.26909758709005555,0.10807343493766863,0.1381327185816218,0.24727212948626737,-0.2558512692587426
1.629776954650879,-0.32692526553334844,-0.2721322923670527,0.1122244679145379,0.13750590762721304,0.23772955274736018,-0.2642113233266932
1.650423288345337,-0.32460534176360073,-0.27365380586545723,0.1143092793262864,0.1373581178476172,0.23290393303795953,-0.2685404097873967
1.670464038848877,-0.3198956951357167,-0.2766858896793341,0.1160640969998272,0.14002220054846304,0.22219649393887242,-0.2797684568301146
1.6907715797424316,-0.31502780063970526,-0.2796370450852018,0.11061695414018764,0.15026048109461337,0.20661286675377155,-0.2924783924068059
1.7116177082061768,-0.3101579714339721,-0.28249821086086035,0.10530184526747077,0.16149926738674755,0.18984833728835052,-0.3067391763635491
1.7315287590026855,-0.307703832075,-0.28398951562763985,0.10262690351946369,0.16703351389989526,0.18156069972995922,-0.31597190761532923
1.7517127990722656,-0.3027900003754137,-0.28698720496720836,0.09721844857282061,0.17774502521790123,0.16470237763428905,-0.3341305737338537
1.771721363067627,-0.30029873926576695,-0.28854333448811176,0.09449679270476204,0.1828391734430376,0.1556230565468929,-0.34295811215780103
1.791804552078247,-0.2952882191857456,-0.29173594576138717,0.08900405206653605,0.1926645796185376,0.13737742634593228,-0.36030908719825266
1.8118906021118164,-0.2902165650172174,-0.2950939620131873,0.08345449271190107,0.20238054332873237,0.11897420816395418,-0.3775929388954953
1.832026720046997,-0.2850860499575073,-0.29862447696782496,0.07785357862505754,0.21189656101556326,0.10061910503789737,-0.3847337388620039
1.8521296977996826,-0.282500194570327,-0.30045521268613223,0.07503587524368882,0.2165947605591843,0.0915378413513047,-0.38826608933133216
1.8722269535064697,-0.27731697160246893,-0.3041915318759046,0.06933822146781184,0.22520828068796261,0.07397580156026792,-0.394667950914412
1.8922557830810547,-0.2725672514350246,-0.3079705962111097,0.06348678092245479,0.22591990135542572,0.0734826542024432,-0.3946580026224917
1.9130802154541016,-0.2701796000079688,-0.30995599243173777,0.06055780318107136,0.22515766933675246,0.07420435770140767,-0.3936778750295182
1.933267593383789,-0.2653717185816302,-0.3140463745539718,0.0546843996315624,0.22251995625033938,0.07616630161425761,-0.3907340780901077
1.9532947540283203,-0.26053056876965236,-0.3182730124596769,0.048812434775258706,0.2187551723373521,0.07870604872162347,-0.3868036608801645
1.9733688831329346,-0.2556594462103134,-0.3226210874712579,0.042940615631304656,0.21404640976620448,0.08165658342372702,-0.38204328734325776
1.9934642314910889,-0.25321849849424016,-0.3248271213932037,0.04000409851286476,0.21135135446495754,0.08335579054261309,-0.379365956494172
2.0138802528381348,-0.24835937720908788,-0.3292282725135376,0.034210061150971686,0.2105863477107569,0.08786050087895197,-0.3737118933485188
2.033759117126465,-0.2434711155240927,-0.3337484564527493,0.028435649713519133,0.213785299228515,0.09268712605825513,-0.36729246413847233
2.0538244247436523,-0.2410164404243073,-0.33604896557824515,0.025559561437639607,0.2152339136631966,0.09516711296011719,-0.36387421086020444
2.0740127563476562,-0.236087927972671,-0.34072316419800625,0.019836668003336704,0.21775878481561248,0.10022373570277766,-0.356708060435551
2.0940277576446533,-0.231266183412725,-0.34508694959309494,0.013932596451834856,0.22151534595459876,0.10480786893968168,-0.35064802731154904
2.1145999431610107,-0.2264809961101985,-0.34937599912154216,0.008070568602281886,0.22635927056039098,0.10902121948770023,-0.3455484684096969
2.134530782699585,-0.22407955245601635,-0.3515491426060195,0.00512643991534081,0.2285589098359234,0.11107295117403254,-0.3427982065754039
2.1546061038970947,-0.21925167510758317,-0.35597423309087595,-0.0007567954358490506,0.23244746243168288,0.1151952782513079,-0.336840784344075
2.174670696258545,-0.21439235826607073,-0.3604969117895256,-0.006630209029505295,0.23570312063302443,0.11933841718466652,-0.33031717771754615
2.194788694381714,-0.21195191066666622,-0.36279121791425395,-0.00956362604147509,0.23711287316214147,0.1214105776497591,-0.3268601638264793
2.2148654460906982,-0.2070557897091133,-0.36741992641496185,-0.015447262014828834,0.23993471419541798,0.12501109488972278,-0.3199216987760913
2.234973430633545,-0.20212173050810664,-0.3621625291970575,-0.02112288332193854,0.24418780843332624,0.1274856830846486,-0.31417968417160863
2.255030870437622,-0.19965776200256088,-0.36451864185657773,-0.024042744211815827,0.24572083595912678,0.12892431170047544,-0.31080011598273755
2.2754180431365967,-0.1947150650032726,-0.36923997145216586,-0.028218949190986154,0.24819612718737702,0.1306431966851208,-0.30346783849423203
2.2952888011932373,-0.18975278207504245,-0.3735603896714822,-0.03154884015985608,0.25067984648504166,0.13143485958228332,-0.2960941708375833
2.315938949584961,-0.18726079572016732,-0.37533760246767234,-0.033550008565269865,0.2520354708416217,0.1317771535026292,-0.2924992626842202
2.335847854614258,-0.18218794514191008,-0.37019103223764066,-0.034520707082419076,0.2537105773577997,0.1298776859996358,-0.26833531137761546
2.3559365272521973,-0.17718043496901648,-0.37507134326816616,-0.04039884834368674,0.24857918598046588,0.13129693779952747,-0.26103853558702056
2.3760321140289307,-0.17459346179337976,-0.3725412154394646,-0.03887754514521544,0.2486560708054861,0.12906980045224106,-0.24412377830687923
2.3961071968078613,-0.16951950099300858,-0.37242369406352277,-0.0403178248685868,0.24540795600128532,0.12790428455815678,-0.22390595009147643
2.4161949157714844,-0.1644645879151156,-0.37236225677771523,-0.04179514743617062,0.24015300586242158,0.12745945914864382,-0.21403263412916906
2.436401605606079,-0.1619589829279868,-0.36985246099378344,-0.03944936911606278,0.24251968633521176,0.12885966238664096,-0.2113612573394897
2.4565718173980713,-0.15689910809813223,-0.37471456206900744,-0.0361265973232813,0.23705863635778032,0.12131584855480476,-0.205303387256538
2.476727247238159,-0.15177493390515112,-0.37960200080148127,-0.033224225535570105,0.24205435018532295,0.10956459586749431,-0.20952851810497422
2.4967451095581055,-0.14918915456590306,-0.3820556082402637,-0.03179168092536126,0.23987933241883516,0.10329970577448178,-0.21190729768799751
2.516831159591675,-0.14398159635226937,-0.3869955481820118,-0.028971047690385755,0.23587011735210422,0.0902011003158255,-0.21693384984575836
2.5369222164154053,-0.1387277404259812,-0.39197112626669883,-0.026183606049013715,0.23287595042754697,0.07629465678618788,-0.22281811419824712
2.557309865951538,-0.1334199828194313,-0.39698738695811026,-0.02342814442744234,0.23112705267798778,0.06150100467047855,-0.22975683497350255
2.577423095703125,-0.13074758300476247,-0.3995111985871718,-0.022040899633465526,0.23066528864657157,0.05386120814920213,-0.23357874489466673
2.5975091457366943,-0.12535952695310837,-0.40458899079552096,-0.019264133996645193,0.2306220972542719,0.038018750995138906,-0.24196893208812675
2.6175718307495117,-0.119915888767185,-0.4097057406030787,-0.016447649702425522,0.23184470191884496,0.021609659665807402,-0.251445463618062
2.6382851600646973,-0.11442286069027294,-0.41485514090713227,-0.013558666843052488,0.23415483903276987,0.005021177126937887,-0.2618577526764516
2.658343553543091,-0.11167052618724059,-0.41743929711740346,-0.012796778075377057,0.23552638018142527,-0.0026972925526499983,-0.2672824032619606
2.6784415245056152,-0.10626314056970548,-0.4225665475473033,-0.01328120317601236,0.23707593419349912,-0.013657567516150812,-0.2772896702899345
2.699270248413086,-0.10087597647026277,-0.4227186360559752,-0.014713231115289969,0.24319574983853826,-0.022836656660488782,-0.2819880602321271
2.71933650970459,-0.09814596652709963,-0.4203045900545954,-0.01501061708100527,0.24904827768333265,-0.028239566575598403,-0.2820426315876313
2.739441394805908,-0.09292042104823961,-0.4153891738580065,-0.020680269459124802,0.24826330179098233,-0.03099720685859421,-0.2803968374428563
2.7595627307891846,-0.08769589549188087,-0.4104840415026185,-0.026354682156913327,0.25688860570576505,-0.03338688357068471,-0.27823484475845484
2.779780387878418,-0.08250273997078629,-0.4055642720694462,-0.031916354782773444,0.2648953262435642,-0.03442367530042913,-0.2755912438863869
2.7999074459075928,-0.07994120046816244,-0.4030900937088578,-0.0345413585769989,0.26893580986566723,-0.03376114568789598,-0.27437661880421893
2.819955825805664,-0.07490537761560542,-0.3981044722118647,-0.03961319146297305,0.27483931452298516,-0.029841971314623326,-0.2701322090231124
2.8402886390686035,-0.07240536698974857,-0.39560449032209827,-0.04211319815485261,0.27733963215381763,-0.027342587953268563,-0.2676323081774674
2.8616855144500732,-0.0674053566368325,-0.3906045095806262,-0.047113203362985134,0.282339882791406,-0.02234311763026625,-0.26263238676817735
2.8823282718658447,-0.06490542577885487,-0.38810451524357165,-0.04961322593046695,0.28483989745604166,-0.019843129209324125,-0.26013206955454743
2.9024195671081543,-0.05990541610110136,-0.3831045318424426,-0.0546132322740913,0.2898401468284678,-0.014843645813702833,-0.2551321380173952
2.9228267669677734,-0.054895944694650006,-0.3781117452788033,-0.055359705028917086,0.2950098536611581,-0.010055574739231712,-0.2502719814223984
2.942941427230835,-0.05238075131666633,-0.3756228549988737,-0.05379386811620337,0.2977788564893254,-0.007892213028662895,-0.247995731752413
2.9630799293518066,-0.04705656420748195,-0.37082401264554626,-0.04946646124884536,0.3086891735132478,-0.010586412845398564,-0.24791286250273772
2.983149528503418,-0.04205656099789375,-0.3658240189771793,-0.05446646124884536,0.31368924224968375,-0.0055865935849187046,-0.24291287240537993
3.003305196762085,-0.03705655457024105,-0.36082403153152953,-0.059466461248845366,0.3186893750378432,-0.0005869488791316125,-0.23791289034695295
3.023390293121338,-0.034469728814939565,-0.35837595009303735,-0.05769317598340092,0.3221187141626039,0.0006132630143707951,-0.23616746100943858
3.0434584617614746,-0.02918501730832361,-0.3535324975523833,-0.054013514790952344,0.3303513697828015,0.0010791111412714483,-0.2338216338367604
3.0637168884277344,-0.02404182472049916,-0.34860521940117284,-0.05432536256931435,0.33658421936459965,0.0043250838696535,-0.22983017428445107
3.0838775634765625,-0.021541821020200698,-0.3461052249756113,-0.05682536288256819,0.3390842695779552,0.006824906812849061,-0.22733017337080516
3.1039845943450928,-0.016541813293287834,-0.34110523636088996,-0.06182536367022526,0.34408436117080976,0.011824550118704747,-0.22233016457252472
3.1240580081939697,-0.011541799862612353,-0.33610526570843113,-0.06531779946461626,0.3490845839780222,0.016823671165646543,-0.21733019461478734
3.1441447734832764,-0.006541871386389342,-0.33110528292231867,-0.06698115042877405,0.3540852384773189,0.021823107595676478,-0.2123299017318475
3.164217948913574,-0.0015418814379284805,-0.3261052648654091,-0.07078473184730698,0.35908511209417376,0.026823574721724246,-0.20732989310089425
3.1843554973602295,0.0009581258127830321,-0.32360527769758346,-0.07240625866257627,0.3615852007642498,0.029323244041588634,-0.20482989594650974
3.2044310569763184,0.005958139542272707,-0.3186053018138736,-0.07517906951668679,0.36658535912990176,0.034322626746913415,-0.19982989773220836
3.224483013153076,0.010958152460280384,-0.31360532428508087,-0.07742504630851631,0.3715854959732741,0.03932205665093839,-0.1948298949022377
3.2445666790008545,0.01345815868403057,-0.3111053350350914,-0.07838254167766467,0.37408555746349764,0.04182178571161362,-0.19232989191679936
3.2646632194519043,0.018458170775554755,-0.3061053557787033,-0.08001985875890838,0.37908566833824575,0.046821266238858544,-0.18732988301279696
3.284742832183838,0.023458182520514285,-0.3011053757505529,-0.08134608559471579,0.3840857648664171,0.051820770304738195,-0.18232987035841028
3.304825782775879,0.028458194049225467,-0.29610539518809387,-0.08242032933171979,0.389085848678098,0.056820291629293404,-0.17732985403627533
3.3250343799591064,0.03345820547074908,-0.2911054142865767,-0.08329046675869303,0.3940859209248001,0.06181982512236477,-0.17232983402867946
3.345123052597046,0.03595821117076894,-0.2886054237605469,-0.08366142008282373,0.3965859529661266,0.06431959509769504,-0.16982982261509424
3.3652114868164062,0.04095822260082781,-0.2836054426471318,-0.08429575026708723,0.4015860092245234,0.06931913924324862,-0.16482979687616572
3.3852896690368652,0.045958234131663264,-0.2786054615552847,-0.08480955771634065,0.4065860553187578,0.07431868639600378,-0.1598297670905852
3.405414342880249,0.04845823995556135,-0.2761054710521116,-0.08502860194470659,0.4090860746049377,0.0768184602435306,-0.15732975060699372
3.42559552192688,0.053458245680714674,-0.2711054806216183,-0.0854031676500249,0.4140860913877968,0.08181823386418147,-0.1523297329613668
3.44559907913208,0.058458257731797164,-0.2661055000278527,-0.08570656579652017,0.4190861123021002,0.08681777765520561,-0.14732969192108714
3.4657034873962402,0.06345826516606155,-0.2611055119306085,-0.08595231829518134,0.424086119755766,0.09181749949563453,-0.14232966457097865
3.4857704639434814,0.06595827146965809,-0.2586055219611643,-0.08605708646566321,0.4265861210296995,0.09431726656249634,-0.13982963950157032
3.5058488845825195,0.07095828436452993,-0.2536055423789899,-0.0862362400371872,0.43158611531720736,0.09931679478725337,-0.13482958505856613
3.52605938911438,0.0759582976732255,-0.24860556331731073,-0.08638135443012164,0.43658609816960053,0.10431631410322578,-0.12982952453599786
3.546119451522827,0.08095831143680414,-0.24360558483667447,-0.08649889708839853,0.4415860690138203,0.10931582312657391,-0.1248294574704358
3.5668821334838867,0.08345831850164255,-0.2411055958323455,-0.08654900737955867,0.44408604973375454,0.11181557336662801,-0.12232942132988768
3.5869998931884766,0.08845832208237618,-0.23610560783314902,-0.08663469814518782,0.4490860272041411,0.11681532060835026,-0.11732939043269126
3.6073038578033447,0.09345832402531783,-0.23110561082344314,-0.08670410549760213,0.4540860189852369,0.12181525339112269,-0.11232937928789205
3.6272382736206055,0.09845833968681635,-0.22610563481356155,-0.08676032545305773,0.4590859422944765,0.12681471644719697,-0.10732928518844018
3.6473286151885986,0.10345835598000748,-0.22110565963462334,-0.08680586361697676,0.46408585017146203,0.13181416351720698,-0.10232918201333295
3.667497158050537,0.10595836437442792,-0.21860567237151418,-0.08682527725527908,0.46658579804086175,0.13431388071579003,-0.09982912682329832
3.687532901763916,0.11095838168282189,-0.2136056985303291,-0.08685847457677605,0.4715856810374231,0.13931330168754716,-0.09482900880746882
3.7076001167297363,0.11595839971601839,-0.20860572564552496,-0.08688536440718861,0.4765855461980722,0.1443127037467504,-0.0898288800074133
3.727865695953369,0.1184583997361216,-0.20610572567564,-0.08689682796646975,0.47908554603755354,0.14681270308424949,-0.08732887985898294
3.747936248779297,0.1234584189249983,-0.2011057543157545,-0.08691643065284049,0.4840853824675157,0.15181207460529617,-0.08232873347875129
3.768022060394287,0.12845843894074715,-0.19610578404816953,-0.08693230882880079,0.48908519826180696,0.1568114239531402,-0.07732857430586401
3.788133144378662,0.1334584510384811,-0.19110580197464794,-0.08694517015132863,0.48408516322662687,0.16181099370200241,-0.07232848084979314
3.808201789855957,0.13095841355131457,-0.1886057457174796,-0.08695065313619577,0.4815854013123342,0.16431228632019967,-0.06982879197368701
3.8282837867736816,0.12595843257103365,-0.18360577475713316,-0.08696002904031858,0.4765851851563117,0.16931166336867015,-0.06482861826085762
3.8483428955078125,0.12095844211932924,-0.1786057895396976,-0.08696762352265805,0.471585069032719,0.1743113489966767,-0.05982852686893709
3.868434190750122,0.11845845078200386,-0.17610580319122743,-0.08697086117039224,0.4690849546581078,0.1768110619294599,-0.05732843898705139
3.8886423110961914,0.11345846029429309,-0.17110581828867916,-0.08697639754801771,0.4740848194525663,0.18181074743432432,-0.0523283379368289
3.9086906909942627,0.10845846212470704,-0.16610582121263157,-0.08698088201389434,0.46908479209703324,0.1868106867957685,-0.047328317614720866
3.928739070892334,0.10345846470828138,-0.16110582537289855,-0.0869845144312544,0.47385361807061066,0.19181060160721555,-0.04232828769393677
3.948824405670166,0.1009584646949495,-0.15860582535124243,-0.08698606298812897,0.47135361842010376,0.19431060198345648,-0.039828287867078836
3.9689018726348877,0.09595846690523958,-0.1536058289389243,-0.08698871102038445,0.46635358094598217,0.1993105288409993,-0.03482826096543736
3.988985538482666,0.09095846899986049,-0.14860583240286732,-0.0869908559265114,0.46135354290108016,0.2043104591336971,-0.029828234061835122
4.009925365447998,0.0884584706489675,-0.14610583517745007,-0.08699177033386025,0.4588535110704928,0.20681040397370284,-0.027328211829663357
4.030027866363525,0.08345847382516369,-0.14110584059794892,-0.08699333397042681,0.45385344670541133,0.21181029731380496,-0.022328167299600268
4.050106763839722,0.07845847761077437,-0.13610584715482585,-0.08324403960772815,0.45885336474462507,0.2168101704359977,-0.017328111870915115
4.07020378112793,0.07345853510281129,-0.14110582627723464,-0.08054628132454628,0.46385334988755655,0.2218101265450005,-0.012327413449694022
4.090313673019409,0.0709585456476525,-0.14360584419725747,-0.07804628132454627,0.466353118498827,0.22430977657996784,-0.014827255241965565
4.110609531402588,0.06595854948026994,-0.1486058506370874,-0.07304628132454627,0.4713530352695003,0.22930964973205514,-0.019827197714541243
4.130538463592529,0.060958553764960746,-0.15360585773286006,-0.06804628132454626,0.4763529427590809,0.23430950879974688,-0.024827133279249562
4.150649547576904,0.055958558543745825,-0.1586058655347995,-0.06304628132454626,0.4813528402054874,0.23930935254113458,-0.029827061313521003
4.1707541942596436,0.05345856113193936,-0.16110586971635663,-0.06054628132454626,0.48385278492214673,0.24180926826669416,-0.032327022308286414
4.190823078155518,0.048458562415668385,-0.16610587176216415,-0.055546281324546254,0.47885276813794836,0.24680922017528104,-0.037327004394382544
4.21124005317688,0.0434585678903952,-0.17110588064441626,-0.05054628132454625,0.4738526481667993,0.2518090415017705,-0.042326919259635075
4.23119592666626,0.03845857341680746,-0.17610588969298763,-0.045546281324546245,0.4688525242544618,0.25680886041023343,-0.04732683118843567
4.251216650009155,0.03595857620024848,-0.17860589428238066,-0.04304628132454624,0.46635246078273723,0.25930876891492377,-0.04982678601795337
4.271276473999023,0.030958581809246558,-0.18360590359693751,-0.03804628132454624,0.4613523307306932,0.26430858394003715,-0.054826693337828955
4.29139256477356,0.025958572195190426,-0.18860588746185405,-0.033046281324546234,0.4563525487643945,0.26430891067702805,-0.05982685503195987
4.311446666717529,0.020958577765214172,-0.19360589687159455,-0.028046281324546236,0.45135241855489094,0.25930872513027853,-0.06482676195522866
4.331577777862549,0.01845858047931372,-0.19610590147982024,-0.025546281324546238,0.44885235638721194,0.2568086342460403,-0.06732671745551656
4.351734399795532,0.013458585768847947,-0.20110591050664683,-0.02054628132454624,0.4438522377353084,0.2518084561021881,-0.07232663237989682
4.371829509735107,0.008458590880443439,-0.20610591929027433,-0.015546281324546241,0.438852126352381,0.24680828249923648,-0.07732655229361807
4.391872406005859,0.003458557459700399,-0.21110593645939435,-0.010546310145032605,0.4338520727095521,0.2518082073338679,-0.08232686239201882
4.4119768142700195,-0.0015414375141116522,-0.21610594525168111,-0.0055463101450326045,0.42885196251436597,0.25680803403849,-0.0873267827400399
4.432059288024902,0.0009585765059953017,-0.2186059697583059,-0.0030463101450326044,0.4263516931847459,0.2593075164489154,-0.08982656583109065
4.452116012573242,0.005958581892914134,-0.22360597932819795,0.0019536898549673957,0.4213515712512084,0.2643073286303925,-0.09482647727353573
4.472232341766357,0.010958587345098485,-0.22860598911834026,0.006953689854967396,0.4163514450207755,0.2693071372187942,-0.09982638540478736
4.492254734039307,0.01595859286601821,-0.23360599914130914,0.011953689854967397,0.4113513143198607,0.2743069420096381,-0.10482629007523507
4.512389898300171,0.018458595652818356,-0.23610600424323136,0.014453689854967398,0.40885124724831917,0.27680684293407015,-0.10732624107273428
4.532606601715088,0.023458601280168398,-0.2411060146343473,0.019453689854967395,0.403851109570942,0.28180664174690034,-0.112326140310037
4.552579879760742,0.02845860698052914,-0.2461060252838853,0.024453689854967393,0.398850967054426,0.28680643638601044,-0.11732603575743693
4.572751998901367,0.033458612755414584,-0.2511060362025705,0.02945368985496739,0.39385081954177525,0.29180622670035106,-0.12232592727523747
4.592770338058472,0.035958615671245614,-0.2536060417662783,0.03195368985496739,0.391350743861244,0.29430612018848373,-0.12482587151554765
4.613014459609985,0.04095862156050293,-0.2586060531094715,0.03695368985496739,0.38635058854711696,0.299305903732161,-0.12982575686622477
4.633314609527588,0.045958627527557465,-0.2636060647500149,0.0419536898549674,0.3813504278180173,0.3043056825731398,-0.13482563791608623
4.653156757354736,0.048458630540606146,-0.2661060706854955,0.0444536898549674,0.3788503453671949,0.30680557018297305,-0.13732557677908083
4.673264026641846,0.053458566024554365,-0.2711060943801594,0.049453639654270104,0.3738503453671949,0.31180559203836156,-0.14232629210883865
4.69344687461853,0.058458499872188034,-0.2761061187131587,0.05445358831778857,0.3688503453671949,0.31680561452492617,-0.14732702935456515
4.713522672653198,0.0634584320384367,-0.28110614370447873,0.05945353580409731,0.3638503453671949,0.3218056376464425,-0.1523277891548185
4.7335205078125,0.0684583624793978,-0.28610616937406974,0.06445348207090482,0.3588503453671949,0.3268056614060546,-0.15732857216885796
4.753630876541138,0.07095832703942427,-0.2886061824694777,0.06695345473342951,0.3563503453671949,0.32930567352598583,-0.15982897259423645
4.773757457733154,0.07595825481222059,-0.29360620919408087,0.07195339908883,0.3513503453671949,0.33430569824747874,-0.1648297917231746
4.816932916641235,0.07845821801468641,-0.2961062228283109,0.07445337077027035,0.3488503453671949,0.33680571084948635,-0.1673302106087288
4.843291759490967,0.07845821801468641,-0.2961062228283109,0.07445337077027035,0.3488503453671949,0.33680571084948635,-0.1673302106087288
4.863375663757324,0.08345814302666653,-0.30110625065322855,0.0794533131112939,0.3438503453671949,0.3418057365368633,-0.17233106749113267
4.8835225105285645,0.08845337048644031,-0.3061062791664712,0.08445325416332292,0.3388503453671949,0.3468057628468514,-0.1773319495689386
4.903584003448486,0.09345329143932198,-0.3111063086001909,0.08945319353484117,0.3338503453671949,0.35180578984683686,-0.18233286044273792
4.923690557479858,0.0959532513037291,-0.31360632357982593,0.0919531627164587,0.3313503453671949,0.35430580357772784,-0.18483332578094178
4.944081544876099,0.10095316954475361,-0.31860635414831856,0.09695309992410621,0.32635034536719487,0.35930583152276196,-0.18983427772696393
4.964064121246338,0.1029415572864378,-0.31860638391652774,0.10195303786431349,0.32135034536719487,0.36430585982471386,-0.194835244129079
4.984032154083252,0.09998120890798115,-0.3136063834396551,0.1069530194565767,0.31635034536719486,0.369305881754086,-0.19983589965256032
5.004181861877441,0.09762645321664998,-0.31110640203398915,0.10945298207629427,0.31385034536719486,0.3718058984769346,-0.20233646045931683
5.024295091629028,0.09262648794397199,-0.31610638829623755,0.1044530113024689,0.30885034536719486,0.3768058841160512,-0.20733599500732214
5.044496297836304,0.0976263565955964,-0.3111064401715807,0.10945290374042406,0.30385034536719485,0.38180593545527824,-0.21233770319195797
5.064482927322388,0.0926263652834115,-0.3061064376993468,0.10445290734807182,0.29885034536719485,0.38680593485168036,-0.21733767416404837
5.084734916687012,0.09512630319431235,-0.3036064584553976,0.10195287258084287,0.29635034536719485,0.3893059471237342,-0.21483810317497365
5.104788064956665,0.09512624065238917,-0.29860641283122136,0.09695284151132541,0.2913505876749697,0.39430847295812693,-0.2098391500649836
5.124901294708252,0.09012618837468975,-0.2936064377430809,0.0919527848430585,0.2913505876749697,0.3993085052841065,-0.20484015760288227
5.144947290420532,0.0901261688617076,-0.28860648210801015,0.08695275265845338,0.2963501789603133,0.40430784493712996,-0.19984035904197453
5.165078401565552,0.09262613900040786,-0.28610649675691974,0.08445272012237709,0.2988501789603133,0.4068078640648163,-0.19734092742309375
5.1851770877838135,0.09762607944888667,-0.28110652681461046,0.07945265334453212,0.3038501789603133,0.411807904261269,-0.1923420932252749
5.205319166183472,0.10262602004102396,-0.27610655794892813,0.07445258417553804,0.3088501789603133,0.4168079471818956,-0.18734329926308563
5.225420951843262,0.10512599038211472,-0.2736065739339957,0.0719525486703039,0.3113501789603133,0.4193079697047767,-0.18484391761058094
5.245484828948975,0.10582028374317498,-0.2686065830856665,0.0669525125382749,0.3163502309429994,0.4243082601101181,-0.1798446220453217
5.265565872192383,0.10223042626175029,-0.26360661628000276,0.061952437930974914,0.3213502309429994,0.4293083104690437,-0.17484593029354842
5.285649538040161,0.09847805719099928,-0.25860665218260925,0.05695235855223988,0.3263502309429994,0.4343083646827317,-0.16984730181787913
5.3060901165008545,0.09669234762899544,-0.2561066726154675,0.05445231495884224,0.3288502309429994,0.4368083939587441,-0.16734803183455946
5.32620096206665,0.09178465096725684,-0.2511067047394834,0.04945223963380222,0.3338502309429994,0.44180845068594826,-0.16234938998510764
5.346320867538452,0.08697751178826724,-0.24610674505569696,0.044452151591766006,0.33885023094299943,0.44680851419056794,-0.15735088868075198
5.366379499435425,0.08222865398971427,-0.24110678634677585,0.039452061219844015,0.34385023094299944,0.45180858123170986,-0.15235242667083
5.386736154556274,0.07751761779781519,-0.23610682873415478,0.0344519683396674,0.34885023094299944,0.4568086519717289,-0.14735400542380214
5.406853675842285,0.0751348730564918,-0.2336068492184175,0.031951922598645814,0.35135023094299944,0.4593086881506501,-0.1448547937744236
5.427066087722778,0.07068535842495634,-0.2286068943962333,0.02695182427840307,0.35635023094299945,0.46430876523809167,-0.1398564496798233
5.447759389877319,0.0686108182202502,-0.22610691897973342,0.024451771848253527,0.35885023094299945,0.4668088061636829,-0.1373573157007941
5.467634201049805,0.06437384530773117,-0.22110696634600577,0.019451668941631434,0.36385023094299945,0.4718088895974863,-0.13235903965100876
5.487972021102905,0.06028939152051851,-0.21610701536478907,0.01445156269009347,0.36885023094299946,0.476808977502079,-0.12736081135277708
5.507932662963867,0.05635923665002994,-0.2111070660555457,0.00945145305990375,0.37385023094299946,0.4818090700063206,-0.12236263074034574
5.528051137924194,0.05438050715469629,-0.20860709108227768,0.006951398366475877,0.37635023094299946,0.48430911744905947,-0.11986354466730963
5.548370361328125,0.050721633287046514,-0.20360714457686463,0.0019512832233247236,0.38135023094299947,0.48930921724203486,-0.11486543920478412
5.568394422531128,0.047281029356468,-0.19860719999163606,-0.0030488356729443922,0.3863502309429995,0.4943093220731187,-0.10986738387107921
5.588397264480591,0.044082320054481115,-0.1936072361159934,-0.008048912712335682,0.3913502309429995,0.499309390700751,-0.10486863362324085
5.608922481536865,0.04262129841042159,-0.1911072436373509,-0.010548928771639399,0.3938502309429995,0.5018094052837052,-0.10236889363526379
5.628986835479736,0.039736093797415495,-0.1861072587993226,-0.01554896120009017,0.3988502309429995,0.506809435223641,-0.09736941811607784
5.649158239364624,0.037031064656465607,-0.18110727449211758,-0.020548994679277836,0.4038502309429995,0.5118094666314732,-0.09236995642955743
5.669591188430786,0.03448889701922893,-0.17610729073069528,-0.025549029233578564,0.4088502309429995,0.5168094995495645,-0.08737050867405323
5.689544200897217,0.03322736605030916,-0.17360729897294927,-0.02804904677472754,0.4113502309429995,0.5193095164887723,-0.08487078825854562
5.709523677825928,0.03090196139164551,-0.16860731606728355,-0.03304908300338346,0.4163502309429995,0.5243095517612923,-0.07987136177798575
5.729636192321777,0.0287086462613514,-0.16360733374230302,-0.03804912036364092,0.4213502309429995,0.52930958864511,-0.07487194937239425
5.74972128868103,0.027698584134589775,-0.1611073428610385,-0.04054913957389736,0.4238502309429995,0.5318096077700761,-0.07237224961626865
5.771047830581665,0.02568986411929101,-0.1561073614191914,-0.04554917864916373,0.4288502309429995,0.5368096471258826,-0.06737285807890198
5.791141510009766,0.02568986411929101,-0.1561073614191914,-0.04554917864916373,0.4288502309429995,0.5368096471258826,-0.06737285807890198
5.811220407485962,0.02378048289487365,-0.15110738057883788,-0.05054921888865934,0.4338502309429995,0.5418096881718512,-0.06237348042148531
5.833537340164185,0.022810843952214784,-0.14860739033806555,-0.053049239370141256,0.4363502309429995,0.5443097092872103,-0.05987379590692112
5.853639364242554,0.020991655825396277,-0.14360741041989192,-0.05804928138932053,0.4413502309429995,0.5493097529320861,-0.05487443903153815
5.873693466186523,0.01920450895963853,-0.13860743112595347,-0.06304932460917144,0.4463502309429995,0.5543097983427532,-0.04987509584268251
5.894832134246826,0.01739741183692392,-0.13360746302697668,-0.06760001650867403,0.45135023094299953,0.5593098690069278,-0.044876098675799475
5.914798974990845,0.01652860798992024,-0.13110748070979986,-0.06954005160098002,0.45385023094299953,0.5618099083386763,-0.04237664978866454
5.934915065765381,0.01461991383924672,-0.1261075147906363,-0.0728575089385811,0.45885023094299954,0.5668099846660438,-0.03737770480719202
5.95503306388855,0.019619908001063877,-0.12110752140493085,-0.07554459702399122,0.45385023094299953,0.5718099972236006,-0.032377879378687635
5.9750425815582275,0.017708077130646507,-0.1161075508616033,-0.07772118251950344,0.44885023094299953,0.5768100662865608,-0.02737881066572518
5.995282411575317,0.015208086544994618,-0.11360753815657336,-0.07864903846674773,0.4463502309429995,0.5743100388636615,-0.024878437821458602
6.01530385017395,0.010208068254432035,-0.1086075656542638,-0.08023577598015488,0.4413502309429995,0.5693101027651676,-0.01987930406229864
6.035385608673096,0.005208051187275613,-0.10360759102535655,-0.08152102943600628,0.4363502309429995,0.5643101621859958,-0.014880116864080375
6.055526494979858,0.00020803517302877194,-0.09860761455256285,-0.08256208132035478,0.4313502309429995,0.5593102177025592,-0.009880883269986774
6.076201438903809,-0.002291972482414736,-0.09610762569734838,-0.08300589698794392,0.4288502309429995,0.5568102441451739,-0.007381250886430121
6.096820831298828,-0.007291980219330328,-0.09110763682759175,-0.08376480030812523,0.4238502309429995,0.5518102707350935,-0.0023816239596360406
6.116691589355469,-0.012291988900225077,-0.08610764917235883,-0.0843795143438119,0.4188502309429995,0.5468103004160364,0.0026179558503210193
6.1367950439453125,-0.01729198699521328,-0.08764772554932837,-0.08487740359363266,0.4138502309429995,0.541810293737222,0.006570118261486427
6.156835317611694,-0.022292004994097996,-0.09264775055041688,-0.07987745803371839,0.4188502309429995,0.5368103540428698,0.0015692450241887143
6.177253723144531,-0.024792011055985858,-0.09514775871998514,-0.07737747571649903,0.4213502309429995,0.534310373497924,-0.0009310378647131102
6.197103977203369,-0.029792023532286376,-0.10014777513554274,-0.0723775110865234,0.4263502309429995,0.529310412190105,-0.00593160259880242
6.217172384262085,-0.034792036496494816,-0.1051477916607595,-0.06737754648299607,0.4313502309429995,0.5243104505886204,-0.010932166056009837
6.2372894287109375,-0.03729204316862504,-0.10764779996754437,-0.06487756419911474,0.4338502309429995,0.5218104696767192,-0.013432447350362992
6.257458448410034,-0.04229205690794026,-0.1126478166759225,-0.059877599683727585,0.4388502309429995,0.5168105076288162,-0.018433009163378873
6.277556896209717,-0.047292071195249946,-0.1176478335198026,-0.05487763526128639,0.4438502309429995,0.5118105452800992,-0.023433570070778547
6.297610521316528,-0.052292086057657505,-0.12264785051070062,-0.04987767096075191,0.44885023094299953,0.5068105826285678,-0.02843413023280791
6.317692041397095,-0.054792093713520354,-0.12514785906507742,-0.047377688865653564,0.45135023094299953,0.504310601188745,-0.030934410086222625
6.337762355804443,-0.05979210205487959,-0.1301478682363234,-0.042377708011296776,0.45635023094299954,0.49931062089924844,-0.03593470844857361
6.35783839225769,-0.0647921107411054,-0.13514787750269155,-0.03737772726275359,0.46135023094299954,0.49431064044919665,-0.04093500666033613
6.377962589263916,-0.06979212785858188,-0.1401478951090841,-0.03237776363817264,0.46635023094299954,0.4893106767270721,-0.045935565554269454
6.397984504699707,-0.0722921366863698,-0.14264790398971525,-0.029877781926150104,0.46885023094299955,0.4868106947515609,-0.04843584501983245
6.418090105056763,-0.07729214848365994,-0.1476479156953176,-0.02487780590953486,0.47385023094299955,0.4918107181456743,-0.05343620802056839
6.43817138671875,-0.08229215900178209,-0.1526479261982582,-0.019877827282899125,0.47885023094299956,0.4968107389164959,-0.05843652707362195
6.458248853683472,-0.08729215581228118,-0.15764792837273509,-0.014877824467617559,0.48385014252935127,0.4918106693599654,-0.0634364179458784
6.478368043899536,-0.08979215878334226,-0.16014793124625196,-0.012377830260904285,0.48635014252935127,0.4943106748589152,-0.06593650287379482
6.498460531234741,-0.09479214600456155,-0.16514791966333678,-0.007377807738119588,0.4913501425293513,0.49431065469417096,-0.0709361917184949
6.518615007400513,-0.09979216068357442,-0.1701479337419544,-0.0023778359147468672,0.4963501425293513,0.4943106810784832,-0.07593659792094579
6.538627624511719,-0.10479225141363542,-0.17514802030604568,0.002621991795544097,0.5013501425293513,0.499310840796153,-0.08093905063712355
6.558959484100342,-0.10729229834831197,-0.17764806525901936,0.005121902754265737,0.5038501425293512,0.5018109230174514,-0.08344030572849362
6.579139232635498,-0.11229239539410224,-0.18264815856757183,0.010121718823899476,0.5088501425293511,0.5068110921643216,-0.08844287270251285
6.5992231369018555,-0.11729245944555451,-0.18764822041135854,0.015121597592245111,0.513850142529351,0.5118112031005412,-0.09344454551327433
6.619287490844727,-0.12229255208018103,-0.1926483110284045,0.020121420761184214,0.5188501425293509,0.5162777076906098,-0.09844695912159343
6.639541149139404,-0.12729258588596054,-0.19764834383933907,0.025121357383334146,0.5238501425293508,0.5212777647513499,-0.10344780812190862
6.659634113311768,-0.12979260154064667,-0.20014835913583273,0.02762132795130146,0.5263501425293508,0.5237777911720225,-0.10594819903985872
6.67992639541626,-0.134792633929496,-0.2051483908999597,0.03262126712826862,0.5313501425293506,0.5287778454957817,-0.11094899899171763
6.699856758117676,-0.13979266777924043,-0.21014842425812646,0.037621203660882375,0.5363501425293505,0.5337779017876157,-0.11594982291232092
6.720126152038574,-0.142292685259625,-0.2126484415468506,0.04012117092426685,0.5388501425293505,0.5362779306670945,-0.11845024377934682
6.740234136581421,-0.14729272134574362,-0.2176484773665318,0.045121103424685914,0.5438501425293504,0.5412779898812107,-0.1234511031362359
6.760312795639038,-0.1522927589499883,-0.22264851487197757,0.05012103319883021,0.5488501425293503,0.5462780510155175,-0.12845198569977512
6.780399322509766,-0.15729279809174457,-0.22764855409706028,0.05512096022087648,0.5538501425293502,0.5512781140410974,-0.13345289107839364
6.80048942565918,-0.16229283878824757,-0.23264859507386537,0.06012088446916665,0.5588501425293501,0.5562781789234523,-0.13845381883218502
6.820565462112427,-0.1647928597243049,-0.23514861622867433,0.0626208455475514,0.56135014252935,0.5587782120486232,-0.14095429094934817
6.8406500816345215,-0.1697929027803207,-0.24014865988904122,0.06762076560397715,0.5663501425293499,0.5637782796393548,-0.14595525133807963
6.860751390457153,-0.17479294742418908,-0.24514870537280814,0.07262068285140809,0.5713501425293498,0.5687783489765332,-0.15095623279840278
6.88082480430603,-0.17979299366495227,-0.25014875270496545,0.0776205972835263,0.5763501425293497,0.5737784200066299,-0.15595723473110468
6.900969505310059,-0.18229301738631187,-0.25264877707138916,0.08012055344310705,0.5788501425293496,0.5762784561383753,-0.15845774317582587
6.921032905578613,-0.1872930660338755,-0.25764882721806087,0.08512046365033488,0.5838501425293495,0.5812785295962057,-0.16345877460235408
6.941205978393555,-0.18229314567895444,-0.2626489030768433,0.09012033302775817,0.5888501425293494,0.5862786281862582,-0.16846018063554732
6.9612157344818115,-0.17729319828093396,-0.26764895774653025,0.09512023641866989,0.5938501425293493,0.5912787055430316,-0.17346126167251513
6.98554801940918,-0.17729319828093396,-0.26764895774653025,0.09512023641866989,0.5938501425293493,0.5912787055430316,-0.17346126167251513
7.005624771118164,-0.1722932105904676,-0.2726489680209088,0.10012022006268977,0.5888501425293494,0.5962787157429722,-0.17846141425277837
7.029595613479614,-0.16729326440361408,-0.27764902406875064,0.105120121605238,0.5838501425293495,0.6012787937104952,-0.18346250603512906
7.04970383644104,-0.162293318366379,-0.2826490802318118,0.11012002300876891,0.5788501425293496,0.6062788715760623,-0.18846359981931524
7.069721937179565,-0.1572933724795992,-0.28764913651367535,0.11511992425107245,0.5738501425293497,0.6112789493201518,-0.1934646957013816
7.090142726898193,-0.1547933995927112,-0.2901491647002582,0.11761987480466905,0.5713501425293498,0.6137789881406481,-0.19596524446153768
7.110058069229126,-0.14979345393171853,-0.2951492211668867,0.12261977576222281,0.5663501425293499,0.618779065666778,-0.20096634368994876
7.1301109790802,-0.14479350842026883,-0.3001492777609606,0.12761967650038822,0.56135014252935,0.6237791430243812,-0.20596744529596425
7.150886297225952,-0.14229353572012668,-0.30264930610683316,0.13011962677957642,0.5588501425293501,0.6262791816343232,-0.20846799703046684
7.171061992645264,-0.13729359042956651,-0.30764936289829603,0.13511952714248082,0.5538501425293502,0.6312792587054152,-0.21346910244792464
7.191082000732422,-0.1322936496613863,-0.3126494251247814,0.14011941736065475,0.5488501425293503,0.6362793437707324,-0.21847032683190076
7.211186408996582,-0.12729371337935166,-0.31764949284542376,0.14511929722139605,0.5438501425293504,0.6412794369282406,-0.22347167284314387
7.231248378753662,-0.12479374526949215,-0.3201495267854703,0.14761923693327186,0.5413501425293504,0.6437794834718673,-0.22597234824148937
7.251343488693237,-0.11979380910166573,-0.3251495948262838,0.152619115894639,0.5363501425293505,0.6487795764792277,-0.23097370401326003
7.271429777145386,-0.11479387298769914,-0.3301496630828569,0.15761899420435777,0.5313501425293506,0.6537796693675246,-0.23597506668401355
7.2914886474609375,-0.10979393690739786,-0.3351497315566624,0.16261887181863108,0.5263501425293508,0.6587797621220751,-0.2409764365881292
7.311581373214722,-0.10729396887297704,-0.3376497658753943,0.16511881035074868,0.5238501425293508,0.6612798084447176,-0.2434771243622404
7.331697463989258,-0.10229398146319696,-0.33889789727691766,0.16011878411048053,0.5188501425293509,0.6662798285308955,-0.24847742329563527
7.352025508880615,-0.09729395658613044,-0.3438978768848064,0.15511881575454578,0.513850142529351,0.6712798086727402,-0.2534771157146332
7.3719329833984375,-0.09229400815178415,-0.3388979340532661,0.15011871382853628,0.5188501425293509,0.6762798846467506,-0.24847825774606197
7.392058849334717,-0.08979402124931234,-0.3363979518668357,0.14761868002684414,0.5213501425293509,0.6746843152413452,-0.24597865518932263
7.4121317863464355,-0.08479409357433129,-0.33139803369809107,0.14261853522305282,0.5263501425293508,0.6757483854166862,-0.24098027036772537
7.432197570800781,-0.07979414933042656,-0.32639810029666116,0.13761841646861586,0.5313501425293506,0.6807484780988353,-0.2359816040461988
7.4522645473480225,-0.07479420341220883,-0.321398167028663,0.1326182979813643,0.5363501425293505,0.6857485720983415,-0.2309829293270772
7.472381591796875,-0.07229422983570065,-0.3188982004388635,0.13011823884921012,0.5388501425293505,0.6882486195722748,-0.22848358864702004
7.492480039596558,-0.06729428146670208,-0.31389826733322984,0.12511812083462984,0.5438501425293504,0.6932487154242938,-0.22348490026414067
7.512529134750366,-0.06229433150112483,-0.30889833430605423,0.12011800318952381,0.5488501425293503,0.698248812420574,-0.21848620201048902
7.532613039016724,-0.05729437996825025,-0.3038984013320586,0.11511788595860227,0.5538501425293502,0.7032489104848852,-0.21348749328068425
7.552721977233887,-0.05479440362311239,-0.3013984348567708,0.11261782751270277,0.5563501425293501,0.7057489598929165,-0.21098813479924458
7.573132514953613,-0.04979444979329875,-0.2963985019124995,0.10761771098901855,0.56135014252935,0.7107490594099032,-0.20598940923025716
7.592963457107544,-0.044794494467667374,-0.2913985689529686,0.10261759499544097,0.5663501425293499,0.7157491597917166,-0.20099067169369914
7.613363027572632,-0.042294516252683885,-0.2888986024583427,0.100117537212363,0.5688501425293498,0.7182492102801808,-0.19849129825448977
7.633294105529785,-0.03729455873575432,-0.28389866942049863,0.09511742210387353,0.5738501425293497,0.7232493117973973,-0.19349254167247612
7.6534693241119385,-0.03229459979252326,-0.27889873629194356,0.0901173076464125,0.5788501425293496,0.7282494139602599,-0.18849377167671147
7.673490047454834,-0.027294639450378095,-0.2738988030407045,0.08511719388945023,0.5838501425293495,0.7332495166772823,-0.18349498770539138
7.693538188934326,-0.022294677736517683,-0.26889886963387327,0.08011708088294268,0.5888501425293494,0.7382496198551138,-0.17849618920799432
7.71385931968689,-0.017294714677983276,-0.26389893603767306,0.07511696867722774,0.5938501425293493,0.7432497233987653,-0.17349737564646528
7.7339606285095215,-0.014794726944158435,-0.26139895962939375,0.07261692851461231,0.5963501425293493,0.7430149061230995,-0.17099780268572626
7.754026412963867,-0.009794757841739752,-0.2563990178229199,0.06761683037809846,0.6013501425293492,0.7403036248654111,-0.16599883772801033
7.774769306182861,-0.005445810365074661,-0.2513990782755747,0.06261672825464487,0.606350142529349,0.7353037217896233,-0.1609999189986692
7.79481053352356,-0.0037817445425986623,-0.2488991097255619,0.060116675368229594,0.608850142529349,0.7328037719371711,-0.158500477471684
7.81488037109375,0.0012182146450246787,-0.24389918298111354,0.0551165536206405,0.6138501425293489,0.7278038860016888,-0.1535017496096968
7.8351311683654785,0.006218178660169486,-0.23889924910394145,0.050116443078363854,0.6188501425293488,0.7228039910079223,-0.14850291374235197
7.855091333389282,0.010968169985887552,-0.23389931310394455,0.045116335968443465,0.6238501425293487,0.7178040934034156,-0.14350404469456057
7.875296115875244,0.013294958169884479,-0.23139937180692302,0.04261623865486412,0.6213501425293487,0.7153041853365348,-0.1410050618478935
7.89531397819519,0.012889130294308791,-0.22639937544993974,0.037616209125824265,0.6163501425293488,0.710304249184776,-0.13600566179663254
7.915389537811279,0.01064672523949463,-0.22139946263564103,0.03261606359682635,0.6113501425293489,0.7053043876981147,-0.13100720200282373
7.935452699661255,0.008801682284363122,-0.21639953519565147,0.02761592896086846,0.606350142529349,0.7003045366679209,-0.12600880204523568
7.955772399902344,0.006932452995885449,-0.21389956788859393,0.025115873101478524,0.6038501425293491,0.6978045916278639,-0.12350941211057803
7.975736379623413,0.011932443180702534,-0.20889961432991005,0.020115820560379475,0.598849721180503,0.6928042582708359,-0.11850965502914763
7.995794057846069,0.0069324132515033885,-0.20389962532946873,0.0151157689091393,0.5938499031630318,0.6878052345021028,-0.11351047658486003
8.015877485275269,0.0019323815359217167,-0.19889968086602544,0.010115671990543328,0.5888499031630319,0.6828053322975243,-0.10851156893020317
8.036055564880371,-0.0005676333503826124,-0.19639970667304923,0.007615626765072822,0.5863499031630319,0.6803053781150334,-0.1060120821588449
8.056122064590454,-0.005567637176138771,-0.19639971335434392,0.0026156151283258885,0.581349903163032,0.6753053898297352,-0.10101221292872391
8.07621693611145,-0.01056765134874575,-0.20139974098720884,-0.002384430531242731,0.5763498516478625,0.6703053936529174,-0.09601269831838148
8.096253395080566,-0.015567678829776997,-0.20139978757309854,-0.007384513638349213,0.5713498516478626,0.6653054775975322,-0.09101366870163136
8.116362810134888,-0.018067692947141372,-0.19889981140097787,-0.009884556382942885,0.5688498516478626,0.6628055208770777,-0.0885141720983275
8.136450290679932,-0.023067714438217077,-0.20389982034473594,-0.014884599716302023,0.5638502779545557,0.6578059096197802,-0.09351502827030689
8.156644105911255,-0.028067727734893293,-0.20889984550617044,-0.019884642301749966,0.5588502288725986,0.6528059131605405,-0.09851550110350211
8.177307367324829,-0.030567741720778745,-0.2113998686187618,-0.022384684432567317,0.5563502288725987,0.6503059554208085,-0.09813055481787482
8.197315216064453,-0.03556776670838598,-0.21139990964486904,-0.02738475955300717,0.5513502288725988,0.6453060304059018,-0.09528450877532352
8.217432975769043,-0.04056774903024421,-0.2113998808800551,-0.03238470624894288,0.5463502288725989,0.640305976771568,-0.09528384747495633
8.237536668777466,-0.045567772609200564,-0.21139991910584985,-0.03738477722027367,0.541350228872599,0.635306047660437,-0.10028473107751429
8.257585287094116,-0.050567756390809356,-0.21139989302484863,-0.04238472819805841,0.5363502288725991,0.6303059983119708,-0.105284109066245
8.277665853500366,-0.05306776900737663,-0.21389991324589477,-0.04488476620791223,0.5338502288725991,0.6278060363277195,-0.10778459166831338
8.297826528549194,-0.05806779382932692,-0.218899952786488,-0.04988484088757874,0.5288502288725992,0.6228061106203834,-0.11278554744777404
8.317846775054932,-0.06306781799250462,-0.22389999090213972,-0.044884913322984915,0.5238502288725994,0.6178061821977804,-0.11778648444839435
8.33812141418457,-0.06806784197619263,-0.22890002737317966,-0.039884982714446474,0.5188502288725995,0.6128062499129819,-0.1227873871444167
8.35807752609253,-0.07056785413228905,-0.2314000453839795,-0.037385017023315356,0.5163502288725995,0.6103062830856832,-0.12528783545281658
8.378190755844116,-0.07556787877088474,-0.23640008094986512,-0.03238508485379057,0.5113502288725996,0.6053063480486592,-0.13028872565575988
8.398290634155273,-0.0805679006302294,-0.24140011178459372,-0.027385143905602108,0.5108017075836979,0.6003064041003708,-0.13528950717813162
8.418328285217285,-0.08556791721019764,-0.24640013411878003,-0.022385186414739036,0.5150580384236862,0.5953064437122366,-0.14029006707129352
8.438619613647461,-0.08806793074895528,-0.2489001518143878,-0.019885219937534723,0.5175580384236862,0.5928064745221407,-0.1427905066244262
8.45872688293457,-0.09306794888031095,-0.2539001747581767,-0.014885263164011118,0.5225580384236861,0.5878065136265814,-0.14779106991837163
8.478848457336426,-0.09806796804601962,-0.258900198157,-0.009885306982918469,0.527558038423686,0.5828065525282308,-0.15279163663099862
8.498903274536133,-0.10306798830561428,-0.26390022203454894,-0.004885351439143196,0.5325580384236859,0.5778065912173038,-0.1577922068886033
8.518975734710693,-0.10806800196533192,-0.2689002470250443,0.0001146125997876753,0.5375578981283924,0.58280649952998,-0.1627925497152136
8.539132833480835,-0.11056800674661887,-0.2714002525598495,0.0026146024048109766,0.5400578981283923,0.5853065082104348,-0.1652926781458338
8.559268951416016,-0.11556802326221681,-0.27640027450077037,0.007614565204436515,0.5450578561292047,0.5903065024621792,-0.17029310992957647
8.579260110855103,-0.12056804039721522,-0.28140029733680977,0.012614526758831903,0.5500578128703324,0.5953064957242197,-0.1752935501218354
8.59974479675293,-0.12306805919308901,-0.28390031927859927,0.015114487067608984,0.5525578128703323,0.5978065287061332,-0.17779403452290177
8.61984372138977,-0.12806808018159313,-0.2889003438556254,0.020114442920853553,0.5575578128703322,0.6028065650227168,-0.18279456673298286
8.640238523483276,-0.13306812011299687,-0.29390039074113,0.02511435918084395,0.5625578128703321,0.6078066333336731,-0.18779556626451682
8.660264492034912,-0.13806813979903612,-0.29890041719977684,0.030114315769988482,0.5675577659447997,0.6128066238875883,-0.19279603811166313
8.680776596069336,-0.14306816299937017,-0.30390044464059435,0.035114267541033785,0.5725577659447996,0.6178066622611621,-0.19779659787446802
8.70087742805481,-0.14556818636296456,-0.3064004729485802,0.03761421765258472,0.5750577659447995,0.620306702171927,-0.20029717814037232
8.720974445343018,-0.15056823402056982,-0.31140053087325414,0.04261411610615915,0.5800577659447994,0.6253067827072029,-0.20529834842069186
8.741251230239868,-0.15306825831126172,-0.31390056049051995,0.045114064456257014,0.5825577659447994,0.6278068233101122,-0.20779893822952217
8.761385440826416,-0.15806830780789488,-0.318900621036338,0.050113959423063015,0.5875577659447992,0.6328069051327361,-0.21280012668389292
8.781471490859985,-0.16306835851176976,-0.3239006833308096,0.05511385210777684,0.5925577659447991,0.6378069877044913,-0.2178013262428515
8.801541805267334,-0.16337633322441134,-0.32890073158584815,0.06011379670388665,0.5975574158564364,0.6428066374039866,-0.22280164466275115
8.821636438369751,-0.1583763498182487,-0.3339007817430182,0.06511374068267944,0.6025570420742119,0.6478062497014453,-0.22780194241035612
8.84174370765686,-0.16087640141664042,-0.33640071631679624,0.06761374068267945,0.6050574320893234,0.6503092975972391,-0.2303025721104268
8.861869812011719,-0.16587645617060573,-0.34140078468159285,0.07261362573450936,0.6100574320893233,0.6553093820493258,-0.23530380361211542
8.881980895996094,-0.16587647102515923,-0.34640084147829225,0.07761356745607063,0.6100569878843171,0.6603088421811,-0.24030404557150398
8.902047634124756,-0.1608765379783289,-0.3514009267427211,0.08261342482824285,0.6100569878843171,0.6653089452647831,-0.24530555876648216
8.923640251159668,-0.15837656615454507,-0.3539009623534661,0.0851133656490308,0.612556987884317,0.6678089874414505,-0.2478061803970877
8.943737745285034,-0.15337658400733672,-0.35890101716324546,0.09011330614384688,0.6075565842169769,0.6728085741504931,-0.2528064679035341
8.963938236236572,-0.14837665211329343,-0.3639011049599448,0.09511316032699722,0.6125565842169768,0.6778086769713892,-0.257807995736714
8.984004259109497,-0.14337667035739596,-0.3689011610708591,0.10011309986055875,0.6075561784330589,0.6828082565878435,-0.2628082844241473
9.00405740737915,-0.13837672745816335,-0.3739012344832281,0.10511297889478757,0.602556178433059,0.687808339602211,-0.267809535934092
9.024163246154785,-0.13587675588542575,-0.37640127116782307,0.10761291839085965,0.600056178433059,0.6903083808891947,-0.2703101624389846
9.044260025024414,-0.13087675750306607,-0.3814012747687958,0.1076129116846236,0.5950561784330591,0.6953083864110934,-0.2753102411964808
9.064314603805542,-0.1258768052264654,-0.38140133586138397,0.1026128115508373,0.5900561784330592,0.7003084530939684,-0.27531127275705014
9.0845046043396,-0.12337683121808464,-0.378901371246464,0.10011275272011089,0.5875561784330593,0.7028084933491304,-0.27281188990870936
9.10459280014038,-0.11837689131346209,-0.3739014569131238,0.09511260917891295,0.5925561784330592,0.7078085939426019,-0.2678134096890979
9.125022172927856,-0.11337693927466236,-0.3689015267681903,0.09011249306088795,0.5975561784330591,0.7128086763440105,-0.2628146281043072
9.144870281219482,-0.10837698528629504,-0.3639015964040002,0.08511237762889882,0.602556178433059,0.7178087597418635,-0.25781583492717197
9.164934873580933,-0.10587700757779474,-0.3614016311316812,0.08261232018436959,0.6050561784330589,0.7203088017891739,-0.25531643379748137
9.185011625289917,-0.10087705076512159,-0.3564017003899589,0.07761220586706677,0.6100561784330588,0.7253088865285127,-0.25031762207358044
9.205125570297241,-0.09587709213475867,-0.3514017693624719,0.07261209235103523,0.6150561784330587,0.7303089720562318,-0.24531879722903296
9.225183248519897,-0.0908771317377056,-0.3464018380207232,0.06761197968350673,0.6200561784330586,0.7353090582847968,-0.2403199586733391
9.245841026306152,-0.08837715089235311,-0.3439018722228247,0.0651119236828283,0.6225561784330585,0.7378091016339535,-0.2378205340729983
9.265954971313477,-0.08337718793887591,-0.33890194035412236,0.06011181237765596,0.6275561784330584,0.7428091887450704,-0.23282167387373534
9.286414623260498,-0.07837722334225646,-0.33390200809578263,0.0551117020409601,0.6325561784330583,0.7478092763294153,-0.22782279854975074
9.30633544921875,-0.07337725715044949,-0.32890207541621125,0.050111592721175616,0.6375561784330582,0.7528093642930809,-0.22282390756387704
9.326342344284058,-0.06837728972351324,-0.3239021414593805,0.045111486257729094,0.6425561784330581,0.757809450523597,-0.21782497721879426
9.346433639526367,-0.06587730561466175,-0.3214021739489738,0.042611434222481925,0.6450561784330581,0.760309492803126,-0.21532549558012717
9.366666078567505,-0.06087731603903641,-0.3164022190082324,0.037611355017725126,0.650056178433058,0.7634999890940595,-0.2103263628144654
9.386708498001099,-0.05587728536661106,-0.31140219071512004,0.03261138855239197,0.6550561784330579,0.7616213529033472,-0.2053261638633113
9.4067862033844,-0.05087729312367444,-0.3064021984858586,0.027611378854653385,0.6550561784330579,0.7566213572614254,-0.2003262277528523
9.427335977554321,-0.04837730803838637,-0.3039022306705655,0.025111327357936922,0.6525561784330579,0.7541214006017963,-0.19782673955823754
9.447757720947266,-0.043377337669552075,-0.298902294311645,0.020111224923666328,0.647556178433058,0.7491214876845621,-0.19282776596803816
9.467701435089111,-0.038377367006966666,-0.29390235693389866,0.015111123327032185,0.6425561784330581,0.7441215751956638,-0.18782879514735007
9.487712383270264,-0.03337739602950789,-0.28890241851088416,0.010111022630335545,0.6375561784330582,0.7391216630445782,-0.1828298264025871
9.522483825683594,-0.03087741041627736,-0.2864024488994717,0.007610972638767843,0.6350561784330583,0.7366217070669644,-0.1803303425875929
9.55712103843689,-0.03087741041627736,-0.2864024488994717,0.007610972638767843,0.6350561784330583,0.7366217070669644,-0.1803303425875929
9.577220916748047,-0.028377424716703785,-0.28390247901738513,0.005110922895258169,0.6325561784330583,0.7341217511391194,-0.17783085902444457
9.597320556640625,-0.02337745304875999,-0.2789025384294722,0.00011082418270379202,0.6275561784330584,0.7291218393857186,-0.1728318922894257
9.617461442947388,-0.028377469853764024,-0.2739025758499566,-0.004889239309042182,0.6225561784330585,0.7241218979765075,-0.16783257452951025
9.637609243392944,-0.02337750501180288,-0.2689026340394929,-0.009889332914069864,0.6175561784330587,0.7191219769395077,-0.16283351814007624
9.657655954360962,-0.020877508901627758,-0.2664026420773074,-0.012389346566093308,0.6150561784330587,0.7166219895345043,-0.16033366543034522
9.67805004119873,-0.020877529554325654,-0.26140269737960575,-0.017389445124900187,0.6100561784330588,0.7116220871813103,-0.15533478952809474
9.697890281677246,-0.020877547492317725,-0.2564027322263312,-0.0223895044658365,0.6050561784330589,0.7066221419680991,-0.15033543329146515
9.71824049949646,-0.02087755741385356,-0.2514027654720678,-0.02738955065642182,0.6000559750484168,0.7016220332785894,-0.14533578386029375
9.73841404914856,-0.0233775703624876,-0.2489027916755132,-0.029889596401143102,0.5975559750484168,0.699122077002089,-0.14283629646858684
9.758522510528564,-0.02082568580026266,-0.24390282417564654,-0.034889653259156224,0.592555975048417,0.6941221313883302,-0.1378369362014908
9.778613090515137,-0.025825707629383503,-0.23890287521379364,-0.03988974598446465,0.5875559750484171,0.689122225089884,-0.13283802681641324
9.79867935180664,-0.03082569317427003,-0.24390284626592096,-0.044889694594238735,0.5825559750484172,0.6841221746978904,-0.1278374376311657
9.818812608718872,-0.035825714492342044,-0.23890288861949496,-0.04988977075335316,0.5775559750484173,0.6791222490172455,-0.1228383271983384
9.841546297073364,-0.035825714492342044,-0.23890288861949496,-0.04988977075335316,0.5775559750484173,0.6791222490172455,-0.1228383271983384
9.859010457992554,-0.03832568900422678,-0.24140283821143182,-0.052389679607025216,0.5750559750484173,0.6766221595425947,-0.1253372543231773
9.879133224487305,-0.04082570115352722,-0.24390286214064946,-0.05488972301975958,0.5725559750484174,0.67412220202387,-0.12783776789385567
9.899194717407227,-0.045825721390830264,-0.23890290197209943,-0.05988979575015369,0.5675559750484175,0.6691222732285301,-0.13283863619486938
9.9194016456604,-0.048325721605418086,-0.24140290530462893,-0.05924399109651604,0.5650559750484175,0.6666222816293967,-0.1353387343793328
9.939507722854614,-0.053325749327180136,-0.24640295877819882,-0.0561628584007567,0.5600559750484176,0.6616223780977777,-0.14033992918258592
9.959557056427002,-0.058325772646077904,-0.25140300215013106,-0.051162938411354594,0.5550559750484177,0.6566224555598581,-0.14534090417849163
9.979683876037598,-0.0633257966277968,-0.25640304508794765,-0.04616301771679229,0.5500559750484179,0.6516225314459615,-0.15034187631625587
9.99982762336731,-0.06582580886862395,-0.2589030663880157,-0.043663057093677356,0.5475559750484179,0.6491225687831821,-0.1528423611125349
10.019985437393188,-0.07082583141089266,-0.263903104987754,-0.03866312856762416,0.5525559750484178,0.6441226361308778,-0.1578432451936597
10.040071487426758,-0.07582585808837325,-0.2689031482121041,-0.03366320783172053,0.5575559750484177,0.6391227092851411,-0.16284421689268738
10.060154676437378,-0.08082588643500575,-0.2739031923215078,-0.028663288181700566,0.5625559750484176,0.6341227821482655,-0.1678451957834329
10.080248832702637,-0.08582591654456499,-0.27890323735485373,-0.023663369686009923,0.5675559750484175,0.6291228546944818,-0.17284618199875745
10.100524425506592,-0.08832593229130123,-0.2814032602307336,-0.021163410893502155,0.5700559750484174,0.6266228908406135,-0.17534667789467384
10.120567560195923,-0.09332596523367019,-0.2864033067275591,-0.01616349426635083,0.5750559750484173,0.6216229628624736,-0.1803476753458135
10.140623807907104,-0.09832598746783429,-0.29140333711103955,-0.011163548469176554,0.5800559750484172,0.616623008840456,-0.1853483192269662
10.160742282867432,-0.103326025187527,-0.29640338577874975,-0.00616363439292268,0.5850559750484171,0.6166230793663707,-0.19034932388819295
10.180944442749023,-0.1083260639102424,-0.30140343619624316,-0.0011637231290567173,0.590055975048417,0.6216231517061019,-0.1953503552930483
10.201142311096191,-0.1108260837141914,-0.30390346204803514,0.001336231626417142,0.592555975048417,0.6241231882676453,-0.1978508762989714
10.221165657043457,-0.11582610984398496,-0.30890349626028907,0.0063361721507295575,0.5975559750484168,0.6291232358134429,-0.20285155361190177
10.241256713867188,-0.12082613674746047,-0.3139035316086241,0.011336111160549635,0.6025559750484167,0.6341232839675228,-0.20785223957975166
10.261322975158691,-0.1258261795735812,-0.31890358805897084,0.016336014385778384,0.6075559750484166,0.6391233595437945,-0.2128533164901421
10.28176760673523,-0.12832618587838318,-0.32140359638340665,0.018836000198616483,0.6100559750484166,0.6416233705096797,-0.2153534728421143
10.301599740982056,-0.1333262145011863,-0.32640363428782077,0.023835935883162643,0.6150559750484165,0.6466234198351795,-0.22035417647180128
10.321695327758789,-0.13832626018687666,-0.3314036950598649,0.0288358336354774,0.6200559750484164,0.6516234970503548,-0.22535527953093548
10.341848611831665,-0.14082628345213222,-0.3339037260945109,0.03133578171243989,0.6225559750484163,0.6541235358509266,-0.2278558345053507
10.361982107162476,-0.14582630681008465,-0.33890375657046723,0.036335731310539035,0.6195695121906455,0.6591235726032759,-0.23285636404490487
10.382029294967651,-0.15082634017951083,-0.3439038016420281,0.04133565632335194,0.6196979869461087,0.6641236278254169,-0.23785715965549287
10.402262210845947,-0.15582636059644597,-0.3489038381347608,0.04633560375283322,0.6146979084232018,0.6691235021767429,-0.2428576389401772
10.422229766845703,-0.15082639792613645,-0.3539038838035018,0.05133553022461697,0.6096979084232019,0.6741235525939162,-0.24785838495328752
10.442390203475952,-0.14832641456946263,-0.3564039078141948,0.05383548981732273,0.6121979084232019,0.6766235825062198,-0.25035882103396184
10.462404012680054,-0.14714483965563876,-0.3614038901814682,0.058835434248770656,0.6121756385632764,0.6816261455227933,-0.25535987543891386
10.482536315917969,-0.14583137452597159,-0.36640394394383624,0.06383537599022776,0.6071752472373823,0.6866256967819463,-0.26036015338638746
10.50262451171875,-0.14333139819202964,-0.3689039776211158,0.0663353200444147,0.6046752472373823,0.6891257366810167,-0.2628607458255613
10.522729873657227,-0.13833144524822838,-0.3739040449318326,0.07133520812488921,0.5996752472373824,0.6941258160396245,-0.26786193200748704
10.542807340621948,-0.13333149190700908,-0.3789041121768975,0.0763350961483226,0.5946752472373825,0.6991258947933475,-0.2728631200712324
10.562992811203003,-0.1283315381361435,-0.3839041793548506,0.08133498407719213,0.5896752472373826,0.7041259729288147,-0.27786431033494124
10.583290338516235,-0.12333158390093564,-0.3889042464638341,0.08633487187245123,0.5846752472373827,0.7091260504330242,-0.2828655031328555
10.603400468826294,-0.12083156438402208,-0.3864042148879613,0.08383492595860637,0.5871752472373827,0.711626012258467,-0.2853649147870065
10.623517274856567,-0.11583157776887804,-0.3814042670181547,0.07883486976540105,0.5871748319226396,0.7166256335548242,-0.2853651679830278
10.64354658126831,-0.11083161911309092,-0.3764043327275427,0.07383475938596615,0.5821748319226397,0.7216257121449985,-0.2803663447255938
10.663620471954346,-0.10583165279172749,-0.3714043955705117,0.06883465036888976,0.5821748319226397,0.7221155848239832,-0.27536754299320493
10.683727264404297,-0.10333167240000607,-0.36890442823827185,0.06633459516192536,0.5846748319226397,0.7203064328735885,-0.2728681357895803
10.703941345214844,-0.0983316819714036,-0.3639044796325957,0.06133454127226863,0.5796743796656983,0.7195290590704903,-0.26786834281871097
10.723965644836426,-0.09333173413266016,-0.3589045675174312,0.056334392283932444,0.5846743796656982,0.7245291712637295,-0.2628699520283104
10.744032859802246,-0.08833176779397788,-0.3539046252946752,0.05133429511739428,0.5884523790733287,0.7295292452152548,-0.25787099110511474
10.764268159866333,-0.08583178840968819,-0.3514046628584001,0.04883423161296432,0.5909523790733286,0.732029294568471,-0.2553716727165342
10.784311056137085,-0.08083182197737628,-0.3464047230674849,0.043834131020934954,0.5959523790733285,0.7370293726523113,-0.2503727380688137
10.804340839385986,-0.07583185410371306,-0.3414047832283305,0.03883403070127654,0.6009523790733284,0.742029451780869,-0.24537379606086962
10.824419498443604,-0.07083188483004221,-0.3364048433185103,0.03383393069662656,0.6059523790733283,0.7470295318818859,-0.24037484610757126
10.844928503036499,-0.06833189968062812,-0.3339048733293002,0.03133388082678772,0.6084523790733283,0.749529572273136,-0.23787536796230765
10.865052223205566,-0.06333192461054925,-0.32890492398370563,0.02633379721039279,0.6121952188870882,0.7544269682048017,-0.23287623535270063
10.885111570358276,-0.05833192270558229,-0.3239049196332744,0.021333804461205325,0.6098862177946046,0.7544878361641099,-0.22787615959214905
10.905219316482544,-0.053331943566274576,-0.3189049338977636,0.016333753811015386,0.6049929301064617,0.7494882791296664,-0.22287703471957368
10.925472259521484,-0.048331969428645684,-0.3139049902091736,0.011333659097943143,0.5999929301064618,0.744488359902767,-0.21787803788813587
10.945630550384521,-0.04583198243928668,-0.3114050185282938,0.008833611151170087,0.5974929301064619,0.7419884012151632,-0.21537855016572616
10.965760707855225,-0.04083200819072455,-0.3064050743506743,0.0038335160754726155,0.592492930106462,0.7369884838904736,-0.21037957422035813
10.98577094078064,-0.035832033567110844,-0.30140512906961,-0.0011665778643813996,0.5874929301064621,0.7319885665581645,-0.2053805970163165
11.005833148956299,-0.03333204610914829,-0.29890515600975215,-0.003666624391630315,0.5849929301064621,0.7294886078609145,-0.20288110771851559
11.025945901870728,-0.028332070890388323,-0.2939052090411013,-0.008666716528016326,0.5799929301064622,0.7244886903475929,-0.19788212727978535
11.04600715637207,-0.02333209525449316,-0.2889052609278952,-0.013666807397631132,0.5749929301064624,0.7194887726003254,-0.19288314377728896
11.066088676452637,-0.025677917470580562,-0.28390531269329666,-0.0186669028720118,0.5699929301064625,0.7144888648790566,-0.18788426888447052
11.086184024810791,-0.028177927322949808,-0.28140533817276725,-0.02116694959044907,0.5674929301064625,0.7119889097416691,-0.18538481802468315
11.106265783309937,-0.028177957352726567,-0.27640538541120463,-0.026167028930468423,0.5624929301064626,0.7069889772197221,-0.18038567243103815
11.126652002334595,-0.028379396362883797,-0.27140543548779444,-0.03116712382787717,0.5574929301064627,0.7019890720793149,-0.17538682924480314
11.14653468132019,-0.028379398750157672,-0.26869494477836087,-0.036167128287130826,0.5524929301064628,0.6969890752842758,-0.17038687125028373
11.166829586029053,-0.025879409536208896,-0.26850552499317476,-0.0386671692008377,0.5499929301064629,0.6944891141343028,-0.16788735566832955
11.186930656433105,-0.030879435257619454,-0.26350558042018357,-0.04366727161196417,0.544992930106463,0.6894892124763081,-0.16288858534461675
11.207023620605469,-0.025879460977607783,-0.2585056209729617,-0.04866734266883994,0.5399929301064631,0.6844892757202388,-0.15788939589458356
11.227159023284912,-0.020879481631013084,-0.25350566351748055,-0.05366742207279048,0.5349929301064632,0.6794893526763494,-0.16289036501019932
11.247242212295532,-0.022944188226407293,-0.25850564131724063,-0.0586673808151663,0.5299929301064633,0.6744893126711504,-0.16788986328305494
11.267383337020874,-0.025444181634593672,-0.25600565503353484,-0.0611673808151663,0.5274925021913981,0.6719890127048624,-0.17038951897584628
11.287468671798706,-0.030444203540481912,-0.2560057007828898,-0.061167468197441566,0.5224925021913982,0.6669890982096695,-0.1753906191015096
11.30751657485962,-0.03544422309401081,-0.26100573967940033,-0.056167542469573645,0.5174925021913983,0.661989170078707,-0.18039155823961187
11.328073501586914,-0.03794423308304121,-0.26350575896043266,-0.053667579319180744,0.5149925021913984,0.6594892054049476,-0.18289202639597996
11.348130226135254,-0.04294425348778097,-0.2685057971777087,-0.04866765242511328,0.5099925021913985,0.6544892748167448,-0.18789295950352067
11.368271589279175,-0.04794427446403694,-0.2735058349218736,-0.043667724713036114,0.5049925021913986,0.6494893425438546,-0.19289388782349945
11.388340473175049,-0.05294429601521903,-0.2785058721784069,-0.03866779615287593,0.4999925021913986,0.6444894085538134,-0.19789481075705406
11.408416271209717,-0.05794431603792041,-0.28350590604855863,-0.03366786129271979,0.5049925021913986,0.6394894681724241,-0.2028956583436754
11.428568840026855,-0.060444327724194336,-0.28600592473639935,-0.031167896862549917,0.5074925021913985,0.6369895001887355,-0.2053961176097298
11.448606729507446,-0.06544435227207791,-0.29100596265135265,-0.026167968595008254,0.5124925021913984,0.6319895639743376,-0.2103970400646826
11.468697786331177,-0.07044437846270234,-0.29600600131492255,-0.021168041168161733,0.5174925021913983,0.6269896274116514,-0.21539796785557402
11.488783836364746,-0.07544440639191739,-0.3010060407644272,-0.01616811464554282,0.5224925021913982,0.6219896904778781,-0.22039890111028548
11.50905442237854,-0.07794442104011766,-0.3035060607961537,-0.013668151744212494,0.5249925021913981,0.6194897218646765,-0.22289936982682138
11.529031991958618,-0.08294445177045749,-0.30850610149927227,-0.008668226705489394,0.529992502191398,0.6144897843312509,-0.2279003115190138
11.549111127853394,-0.08794450301544446,-0.3135061567048853,-0.003668322802026918,0.5249925021913981,0.6194898567071326,-0.23290143772232613
11.569191217422485,-0.09294453143576542,-0.3185061942687434,0.0013316080991208684,0.529992502191398,0.6244899133123354,-0.23790230327814418
11.589286088943481,-0.09544454819604033,-0.32100621593158907,0.003831568711462176,0.532492502191398,0.6269899450367532,-0.2404027889263219
11.609363317489624,-0.10044453467734077,-0.3260062055410405,0.008831583915450936,0.5374925021913979,0.6269899371309724,-0.24540265367054218
11.62947416305542,-0.10544454637268141,-0.33100623849305294,0.013831543336545599,0.5374922602836419,0.6269897101698402,-0.2504029405870157
11.649523973464966,-0.10978113039173726,-0.3360062855839829,0.018831460281707957,0.532492260283642,0.6319897729202273,-0.25540392508446164
11.67011547088623,-0.11143403722590516,-0.3385063089113834,0.02133141886825874,0.5299922602836421,0.6344898043205287,-0.2579044196051507
11.69023585319519,-0.11643406841706352,-0.3435063498172932,0.026331344800068785,0.534992260283642,0.6394898618013843,-0.2629053220831405
11.710310459136963,-0.12143408391294926,-0.3485063777254222,0.03133130465588834,0.5384971218505917,0.6444897766110442,-0.2679056917065006
11.730442523956299,-0.12643410041869863,-0.35350639194236,0.036331282781917794,0.5334971218505918,0.649489789295328,-0.2729059073862214
11.750518560409546,-0.12893409672707398,-0.35600639892450975,0.038831282781917796,0.530996952671679,0.6519896385608137,-0.2754057680166344
11.770629167556763,-0.13393411246873546,-0.36100643049410847,0.043831239453819934,0.5259967825123362,0.6569895201969802,-0.28040613812526305
11.79068899154663,-0.1389341282053074,-0.36600646220207006,0.04883119599527451,0.5209966113341896,0.6619894021168713,-0.2854065086340425
11.810803890228271,-0.1439341439305468,-0.37100649405081604,0.05383115239543355,0.5159964390961215,0.666989284315231,-0.29040687958771827
11.830905437469482,-0.14643416301488005,-0.37350652029762854,0.05633110486707519,0.5134964390961215,0.6694893188740547,-0.292907448227836
11.851009368896484,-0.15143420091112236,-0.3785065728725856,0.061331009404278006,0.5084964390961216,0.6744893876916137,-0.29790859030581957
11.87113094329834,-0.1464342100424788,-0.3835066178267428,0.06633096142473231,0.5034960509164553,0.6794889708206344,-0.30290882854859175
