liuyurong129/humanoid-gym/humanoid/data/robot1_actual_20250621-222321.csv
timestamp,joint_1,joint_2,joint_3,joint_4,joint_5,joint_6
0.0005238056182861328,0.0,0.0,0.0,0.0,0.0,0.0
0.020575523376464844,0.0,0.0,0.0,0.0,0.0,0.0
0.04065513610839844,0.0,0.0,0.0,0.0,0.0,0.0
0.06077766418457031,0.0,0.0,0.0,0.0,0.0,0.0
0.08100771903991699,0.0,0.0,0.0,0.0,0.0,0.0
0.10111737251281738,0.0,0.0,0.0,0.0,0.0,0.0
0.12119770050048828,0.006666661616519734,-0.0066673536972828105,0.006666666666666668,0.0066667919591096554,0.0066644625551019274,0.0066665469403096
0.14126825332641602,0.013333181614269564,-0.013334717516633713,0.013333157707104524,0.013333454688233175,0.013330257023486872,0.01333321914965273
0.1613457202911377,0.016666304931212617,-0.016668053912385943,0.016666311180204535,0.016666788021566507,0.01666359029677396,0.01666653030716653
0.18141961097717285,0.023332975047151767,-0.023335595624168256,0.023332977846871203,0.02333343092237769,0.023328560728851238,0.023333215868283456
0.20154476165771484,0.0299996502478638,-0.030003153507583806,0.02999964451353787,0.030000048524574212,0.029993052491512642,0.02999992426235302
0.22162175178527832,0.036666322746105484,-0.036670173512203946,0.03666631118020454,0.0366667107301398,0.03665826476303919,0.036666592743831244
0.24210071563720703,0.03999965988609467,-0.04000368753826504,0.03999964451353787,0.040000039820365534,0.03999076225337872,0.03999992870183387
0.26224398612976074,0.04666633610591645,-0.046670724569878475,0.04666631118020454,0.04666669371293385,0.04665552886333218,0.04666660427592771
0.28230857849121094,0.05333301515256359,-0.05333777484335908,0.05333297784687121,0.05333334143254907,0.05331997558624562,0.05333328511577835
0.3023824691772461,0.0599996913337764,-0.06000469015256649,0.05999964451353788,0.06000000332334494,0.05998491822152565,0.05999995353169178
0.3224942684173584,0.06333302708354907,-0.06333807628039659,0.06333297784687121,0.06333334398228091,0.0633177305202297,0.06333327921506485
0.34255027770996094,0.06999969942475334,-0.0700048532717567,0.06999964451353786,0.07000002583888142,0.0699832459449853,0.06999992986282304
0.3626377582550049,0.07666637302755343,-0.0766716371449825,0.07666631118020452,0.07666670823503216,0.07664860745790071,0.07666657968010193
0.38279056549072266,0.08333304133371006,-0.08333833447816713,0.0766663111802045,0.08333335882089105,0.08331519274505354,0.08333326127015375
0.4028043746948242,0.0866663942038265,-0.08667195020481967,0.07333297784687118,0.08666664979423616,0.08664620596070707,0.08666663785233694
0.4229307174682617,0.09333306915396797,-0.09333872062150905,0.06666631118020452,0.09333334434632924,0.09331153637580802,0.09333328826899101
0.44296932220458984,0.09999975035620161,-0.10000555719065775,0.05999964451353786,0.10000005814441552,0.09997608492753575,0.09999993871973394
0.4631500244140625,0.10333309179854157,-0.10333897936958852,0.05666631118020453,0.10333342239282206,0.103308281000929,0.10333326357689718
0.48318982124328613,0.10999974734587156,-0.11000562992512392,0.04999965387494413,0.11000010659237056,0.10997558827967206,0.10999989974345435
0.5033190250396729,0.11666639242353995,-0.11667221715874421,0.04333299310550429,0.11666676092152538,0.11664380944489587,0.11666654176188572
0.5234158039093018,0.12340395682586454,-0.12001810340062372,0.03683200416524271,0.12037994148630873,0.11964618431304357,0.12634841041095035
0.5435020923614502,0.1270470188670438,-0.121593606545224,0.033221442505041596,0.12335557908527335,0.12090006463274125,0.1300881202444129
0.5635643005371094,0.13380593808504793,-0.12301114631049129,0.026747330828754783,0.12557232950917724,0.12417530578150315,0.141248333847393
0.5836434364318848,0.127164016385164,-0.12406793377828544,0.02024807033651914,0.12713732957743576,0.13277295747806342,0.1528799679851158
0.6037619113922119,0.12381712985655698,-0.12456646610131823,0.01697468511085959,0.12818249088073647,0.1372365348860955,0.15843039501137055
0.6238422393798828,0.11735848706974111,-0.12598360033904632,0.016584485025280725,0.1321593861140086,0.14493316097468614,0.1676990751703993
0.643928050994873,0.1111741096108221,-0.12784263628196868,0.015662496849290195,0.13794293212399758,0.150855724238202,0.1752319161615682
0.6640031337738037,0.10809584997455993,-0.12875274569182105,0.011823294191671784,0.14101807150275109,0.15357056547939457,0.17882328181610202
0.6841225624084473,0.1020160691323644,-0.13048327798611487,0.01730764961822394,0.1477455343297327,0.15808713094345214,0.18545607335599618
0.7041957378387451,0.09590923246984744,-0.132006894983634,0.022780019286003494,0.15456707631538522,0.1620517547824784,0.19201698848255136
0.7242958545684814,0.08974823835696513,-0.13309995433914285,0.014928145824040211,0.16107098244037668,0.16673689842793007,0.19887258690990198
0.7443788051605225,0.08661972936284965,-0.13326129306371395,0.017487081782528894,0.16416730304330257,0.1709732993044137,0.18439851866426393
0.7646028995513916,0.08048882174764595,-0.13509522475544233,0.02288881784152123,0.1716368603275338,0.1741735226498939,0.19033850292914825
0.7846028804779053,0.07426536559755126,-0.1377951359064821,0.028503980238001433,0.17934114005369428,0.17633235286609594,0.19609279542821498
0.8047103881835938,0.07111649503438411,-0.1392660349989137,0.0313800175025282,0.18315971837197517,0.17724279575622995,0.19901328220682946
0.8247783184051514,0.06474810594387688,-0.14229402126607998,0.03724369497131912,0.1906540777264176,0.17896710319128253,0.20500582502758277
0.8448598384857178,0.05828803046932357,-0.1454974269433147,0.04325453776780084,0.19796521903982828,0.1806883511353043,0.21118883960591894
0.8650367259979248,0.055024899689220357,-0.14719752435635627,0.04631505428848743,0.20155434946702686,0.18160963946417852,0.21434702768578306
0.8850417137145996,0.05507005600841013,-0.15028870036233385,0.04585557636491623,0.20841975640326024,0.18404468758239753,0.2098957247025639
0.905146598815918,0.05506969133143483,-0.1520471512524599,0.04521452035663997,0.2150407483754262,0.18679898554244032,0.201233171680856
0.925940752029419,0.05164551241430306,-0.15201889962939943,0.04809615051424526,0.21815697580183754,0.18897450025083895,0.19047403899336288
0.9459292888641357,0.044664037267110025,-0.15017122640762515,0.04034492991763718,0.22429865798834503,0.19345912164111193,0.13775229023425523
0.9659519195556641,0.03778591937981808,-0.1500901218870474,0.04597743820043197,0.23146957919392047,0.19675997625404107,0.0967317553169366
0.986051082611084,0.034216896679872044,-0.14922659409316216,0.042083352416373,0.23482185364975694,0.19897405702425486,0.06913333126289412
1.0061237812042236,0.027252835168946415,-0.1485439048198183,0.04091522908558564,0.24229625541391062,0.2015954313131437,0.023077057055172472
1.0265169143676758,0.020318879636723977,-0.14859682322471063,0.046474758097452704,0.25014007986655556,0.20324070307641917,-0.016260261955263453
1.046626091003418,0.016830231063359236,-0.14865872504546468,0.04927029152682566,0.2541077291633638,0.20386996368960894,-0.036322449007358724
1.066673755645752,0.009717976975424926,-0.14783616602133862,0.04144084781982295,0.2619946077744953,0.20530805151839776,-0.08568510753865152
1.0868208408355713,0.0025805084484594866,-0.14801931495339102,0.04713517560389403,0.2695189975780303,0.20872209007771664,-0.1361297736710533
1.1069684028625488,-0.0050257777575442135,-0.14696328722109728,0.039634269313567984,0.2760276392756544,0.216687653084862,-0.20781099114571672
1.1270666122436523,-0.008801651424771507,-0.1469281980445218,0.042608043336499646,0.2794135558096127,0.220575645149412,-0.23990741611297894
1.1472101211547852,-0.01652425293807739,-0.1464887052414778,0.04192032838581042,0.28617501301797976,0.2291631457958823,-0.30764451678720217
1.1672847270965576,-0.024544556017154735,-0.14571408816592613,0.04135843263814365,0.29327502256175,0.2311235477059433,-0.3759371653070148
1.1873853206634521,-0.028473428324762372,-0.14582414373805103,0.04442059456420118,0.2968444800305712,0.2287037461376387,-0.4077245937849466
1.2074682712554932,-0.036669430834184044,-0.14497732795429122,0.03720920972807198,0.30457509303893693,0.22431090333743894,-0.5014757038975067
1.2275724411010742,-0.04454828033743747,-0.14520949471498593,0.04328520219595524,0.3122641548275117,0.2169995231087138,-0.5660690836926112
1.2476849555969238,-0.04851086176488249,-0.1451448379998624,0.039657200427193624,0.3161123794321444,0.21948645058664146,-0.6003156608490767
1.2680134773254395,-0.05698241054134972,-0.14533264619059433,0.03895694648391387,0.32415778150320596,0.23177066385900918,-0.6352538779179182
1.2882487773895264,-0.06530920092335706,-0.14668098393830337,0.04498384893029826,0.3320097306383901,0.2447926997278318,-0.6164401850859893
1.3083374500274658,-0.06962970546914564,-0.14672750495587766,0.04788389667239743,0.3369929212953649,0.25088329314348107,-0.6366682381642362
1.3285186290740967,-0.07863417911659397,-0.14619149610336601,0.04052700678254624,0.34769563847462853,0.26363673362846973,-0.6949786957929932
1.348541498184204,-0.08737902220502627,-0.1467982054364723,0.04653134553533782,0.3578831980967169,0.2721725517728915,-0.7232667348028604
1.3686728477478027,-0.09206887373882831,-0.14653014560059277,0.04290461054373264,0.36323007202187324,0.2778221303744279,-0.7388768932453003
1.3887152671813965,-0.1015377643308478,-0.14608263481842187,0.04211477213004074,0.37434489953044786,0.2879473369719369,-0.7361715512465654
1.408797264099121,-0.11155549156549939,-0.14502390371443533,0.041242314438235804,0.38521409878546237,0.29791756449518597,-0.701642725052048
1.429715633392334,-0.1166738782607246,-0.14433049457156893,0.0378103664970449,0.39110789721258454,0.30356552265207404,-0.6838413156917152
1.449833631515503,-0.12663290164173888,-0.14389654218586842,0.043271872850433886,0.4020851751058438,0.3111300907641955,-0.6558284269305716
1.4699926376342773,-0.13632218829622902,-0.14452767307307327,0.04848423337975524,0.41052167164984854,0.32304767645665877,-0.6535184393782985
1.4900102615356445,-0.14704613567573463,-0.14484099505974363,0.04181627593008638,0.41896380492287255,0.3315159114300627,-0.6393468737949756
1.5101253986358643,-0.15272414353669084,-0.14494812180023475,0.04425435840605379,0.42426855145721504,0.34636332323348684,-0.630836534258088
1.5302350521087646,-0.16340856195385228,-0.14534760499628638,0.044905576726316794,0.4351192777289474,0.3599973950886829,-0.610536154208863
1.5504093170166016,-0.1754272329202512,-0.1446944732857073,0.04531057628330712,0.4489283802481808,0.3827167173583185,-0.59529179659215
1.57051682472229,-0.18125427605468822,-0.14449657527641463,0.047620639264407655,0.45518772341231994,0.39095692612876554,-0.5920077721662956
1.5906054973602295,-0.1919984409311894,-0.1451545238611581,0.05259351208813183,0.4669517653317282,0.4006362282321581,-0.5788901922106204
1.610701560974121,-0.2030740870667811,-0.14601602508681402,0.05779947337225314,0.4813867640665324,0.4162416128798067,-0.5624588816011596
1.6307835578918457,-0.2018454789397997,-0.14607577280492673,0.06033970524849914,0.4892429460500234,0.4165502110394463,-0.5556246526169916
1.6508636474609375,-0.20644288735047275,-0.14620176043874072,0.06523167559789839,0.5012555431588435,0.4255015573657229,-0.5391393047546116
1.670936107635498,-0.21131791185863447,-0.1467814959404876,0.0700063040256061,0.5106790721192291,0.4419668994806991,-0.5289485601104106
1.6916372776031494,-0.21046990642718477,-0.1466682781378363,0.07234608831737109,0.5159982307959612,0.4459647883020447,-0.5248270226607399
1.7117209434509277,-0.20866835300745462,-0.1460470795201291,0.07692124539931236,0.5248489071505721,0.4517616332039546,-0.5116439753122485
1.7321650981903076,-0.2063702535076158,-0.14530945156203426,0.081361092225488,0.5287990661933394,0.45239178154815435,-0.49645021566436354
1.7521288394927979,-0.2063702535076158,-0.14530945156203426,0.081361092225488,0.5287990661933394,0.45239178154815435,-0.49645021566436354
1.772282600402832,-0.21696405177954017,-0.14582522704076728,0.08566841291627939,0.525436144207769,0.4642973011754782,-0.46354691587233776
1.7929096221923828,-0.22802281824735512,-0.145733868396854,0.08982433697962425,0.5225094969120291,0.47132844111144845,-0.4344722799510947
1.8130130767822266,-0.23363860398976533,-0.14573386924095386,0.09182567520821089,0.5189421849359821,0.4769136186521792,-0.42111175709146875
1.833120584487915,-0.2393415624944861,-0.1456885933913799,0.09382522672695283,0.5155713550880588,0.482900628826613,-0.40837682263638786
1.853264570236206,-0.2508921281292139,-0.14574037592889993,0.09788672708980915,0.5094615486015984,0.49612140659935894,-0.37520569316264685
1.8738086223602295,-0.26264313381198445,-0.14595367426571104,0.10202439814352383,0.5043563145206602,0.5112445441806488,-0.3355839704689048
1.893902063369751,-0.26858630373669534,-0.1460928614303152,0.10411684893935307,0.5021649840578993,0.5192162011056379,-0.3160962540689977
1.9139823913574219,-0.27407416934321804,-0.14624007259864993,0.10830085840601976,0.4980760366429481,0.5347578910354123,-0.278088061848068
1.93454909324646,-0.2796480527868392,-0.14649302567381695,0.11250009860156668,0.4949384872541084,0.5531547899841466,-0.24418957014769255
1.9547679424285889,-0.2857037624438906,-0.146707673728497,0.11464982608500064,0.4933699963944175,0.5620201726883919,-0.2202816933882991
1.9748013019561768,-0.29785781721068605,-0.14736664514315304,0.11903368152149209,0.49130426539115984,0.5806331008881698,-0.17445161817546787
1.9949123859405518,-0.3101041109734805,-0.14815002552615134,0.12347787635335669,0.48998128183155465,0.5996040452808894,-0.1313845874016682
2.0159950256347656,-0.32161722568211487,-0.14903185500278138,0.12797841428780396,0.48934866859400405,0.6188526175855368,-0.08849822711044687
2.0361454486846924,-0.3214078526626152,-0.14926185869686293,0.13018158298197008,0.4891383980027014,0.6283470533678608,-0.0642778133262713
2.056173801422119,-0.32741663475285765,-0.1501079713709704,0.1346381251237337,0.4894474660099257,0.6507267936852587,-0.02719889788680896
2.0762839317321777,-0.33351773062726237,-0.1509800998830981,0.1391747169944933,0.4904873944478389,0.6726096242108068,0.008367439049578502
2.096406936645508,-0.3334212631792179,-0.1512310472012661,0.141406756862127,0.491610502814908,0.6836887541896466,0.02427934876857197
2.116511106491089,-0.34557390043844616,-0.15262054187525773,0.1460352902054333,0.4937092695286029,0.7080482121348157,0.05350126738075584
2.1366214752197266,-0.34515800515710815,-0.15346204606684752,0.15064891155243737,0.4980321916523299,0.7300089360820883,0.06124722026166969
2.1570193767547607,-0.3446628746301099,-0.15394589709137851,0.15301085305744913,0.5011301014064108,0.7384733880455218,0.05532521798609721
2.1769559383392334,-0.3434633342443185,-0.15481460459871071,0.1577822678942016,0.508008374770172,0.7512334112488951,0.048396082793899044
2.1969759464263916,-0.3424375109886708,-0.1560141126767466,0.1625437264636353,0.5134929687633407,0.7707879490363395,0.042518480909548725
2.217045307159424,-0.34198499937882026,-0.1565317543285661,0.16491638929212227,0.5165151823896248,0.7806104727969921,0.039398088273642516
2.2371504306793213,-0.3406999601152015,-0.15619464396461316,0.16979791397569383,0.5285498584333675,0.7778767201606938,0.028679160881141412
2.257516622543335,-0.3394059878204825,-0.15585410435459265,0.17469319341022882,0.5413296807765492,0.7757671739853899,0.017385985299640846
2.2773749828338623,-0.33790597459218236,-0.15576158714575405,0.17968229776979355,0.5550594727431322,0.7762154036633023,0.005335617111258046
2.2974650859832764,-0.3370639443143454,-0.1558391812276364,0.18222142912358488,0.5623525689700465,0.7777271496838981,-0.001027677998316841
2.3175580501556396,-0.3353889713933254,-0.15602613343947497,0.18731366635862012,0.5776661976223242,0.7817558072461197,-0.014293721418218462
2.3376033306121826,-0.3337149866052413,-0.1562818937415287,0.19242835560975335,0.5939765743653772,0.787294792969266,-0.02829239044915725
2.358302116394043,-0.3328732695031771,-0.15644625624745648,0.19499541680929264,0.6025115928572511,0.7907010129657135,-0.035567660631996484
2.3784356117248535,-0.33116490186982517,-0.1568746264309407,0.20015264630134208,0.6203393002459903,0.7989141578132194,-0.050659851672618675
2.398528575897217,-0.3293969842304739,-0.15747565748760511,0.20534651836487464,0.6391523840308704,0.8091306080612714,-0.06644200121425917
2.418581247329712,-0.3275357485473075,-0.1582968369299121,0.2105840850536396,0.6588966520763637,0.8215096663349978,-0.08285926925777892
2.438704013824463,-0.32656902411718236,-0.15878496855176094,0.21321384731719947,0.6690949470077329,0.8286130693975038,-0.09127588587394433
2.458770990371704,-0.32364911706630406,-0.1607952686971565,0.2186334947230627,0.6863270519979413,0.8507369152921821,-0.1056411959921524
2.478893995285034,-0.32032698910007046,-0.1633463348003986,0.2241725706406703,0.7032290133431626,0.8748396665327354,-0.11964738889174656
2.498974084854126,-0.31855226886940763,-0.16477724650980197,0.2269655702313847,0.7114892118384623,0.8875093786269205,-0.1264541354445058
2.5191361904144287,-0.31509218994706834,-0.16765252093127583,0.23243896209869974,0.7277758907269596,0.9145534228946446,-0.1397551571215815
2.5391902923583984,-0.3118567866654051,-0.17049488541062435,0.23784915488903702,0.7453890181215911,0.941673364960598,-0.15382129946247314
2.559253454208374,-0.31018270174355556,-0.1719965009432852,0.24059269291964783,0.7545912837713957,0.9549045630968495,-0.16107826457510463
2.5793943405151367,-0.30665466511749595,-0.17520226197405042,0.24617859437799447,0.7735979088167341,0.9807343702613195,-0.17588867314274118
2.5994584560394287,-0.3028537499450024,-0.17870510914871057,0.251854982679322,0.7924126247174547,1.0062028969982868,-0.19038386615123334
2.61973237991333,-0.3008545999838434,-0.18056025324161554,0.25472590315671306,0.8017212748213557,1.0187458797808762,-0.19749539612880151
2.6399974822998047,-0.29666581433430583,-0.18446395063173526,0.260530779448689,0.8200991196408023,1.0433578419293348,-0.2114219934528195
2.659980297088623,-0.2922506867244834,-0.18857648344957242,0.2663887008205728,0.8378792148545762,1.0686539861826063,-0.22474830485667818
2.6803107261657715,-0.2876112994537828,-0.19289940283098625,0.2723018413201873,0.8549022732750926,1.0941595363010728,-0.23738617968524386
2.700263738632202,-0.28521094652563783,-0.19513918226910953,0.2752865368559923,0.8632390087961676,1.1064946724583977,-0.2435342250497686
2.720329999923706,-0.28040810543125794,-0.19957596625157745,0.2811903483495017,0.8799669876924217,1.1270881848394696,-0.2558077657399666
2.7404260635375977,-0.2754344149592809,-0.2038621708157695,0.28694400838670436,0.8949707466513623,1.149040283201106,-0.2668367157374173
2.760504722595215,-0.2729013595108749,-0.20606324536334278,0.289817837522891,0.9009623150712202,1.1595379556706136,-0.27137371735045995
2.7809135913848877,-0.26768444811073405,-0.21065210452495317,0.2955568609234414,0.9108810124796728,1.1807186463064934,-0.27930934839186194
2.8008220195770264,-0.26231315511416475,-0.21533680501489125,0.30133144984670207,0.9207421286499027,1.2023607405611563,-0.2871555967162608
2.8208858966827393,-0.27010016233369427,-0.2199595865425754,0.30707823464684175,0.9306753163518129,1.2282205841184657,-0.2948922746359599
2.8409528732299805,-0.2673298044689294,-0.22236917700922545,0.30999835830633904,0.9357587220285355,1.2391586015856686,-0.298853640518056
2.8610353469848633,-0.2683166547786832,-0.2271620494057917,0.31584385161613465,0.9460366753546877,1.2632312830322074,-0.306736656186264
2.88110613822937,-0.26924698158252086,-0.23195892067324358,0.3216952842920866,0.9562343790247202,1.287108786386992,-0.3145440366067985
2.9029994010925293,-0.26634294160431143,-0.23442280479373528,0.32465359435701385,0.9613693896890192,1.2981948420609077,-0.3184633141052297
2.923048257827759,-0.2736937310839608,-0.23925724048979327,0.3305544099944821,0.9719071450844693,1.3245623209001147,-0.32628476550828317
2.9431188106536865,-0.2809824397495552,-0.24414094173106962,0.3365014099145982,0.9828507354364046,1.3508862593374273,-0.334201607652244
2.9633095264434814,-0.27492294451961324,-0.2491717726325278,0.3425197734879973,0.9940015642674879,1.3740961446194042,-0.3422149638896334
2.983429431915283,-0.27844467925947824,-0.25164950604529135,0.3455327150968335,0.9996390389839365,1.3876985771600916,-0.3461754917267793
3.0037455558776855,-0.28544225611681756,-0.25657911483526863,0.3515640669685168,1.011156824463197,1.4153214022653455,-0.35414442359397097
3.023874044418335,-0.28891141688594707,-0.25905855396472016,0.35459478078595824,1.0169487388383478,1.428918254991442,-0.35811574424688214
3.0439817905426025,-0.2957905447454605,-0.26403852593063987,0.36068244426195023,1.0285720191756793,1.4556474431680124,-0.3660202628664746
3.0641026496887207,-0.302912933489419,-0.268577546243243,0.36675175501246915,1.0381654294731513,1.4784065524473446,-0.37289782406694605
3.084174156188965,-0.31116648346621484,-0.27244170794880307,0.3723589682474605,1.0436461114706241,1.4928617529195156,-0.37859539031544825
3.104487895965576,-0.315344051663224,-0.27436841050261174,0.3751087491108793,1.04632777104724,1.499859654755245,-0.38149486121147613
3.1245102882385254,-0.317357166371141,-0.27816567687245575,0.3804948872311686,1.0512084063843214,1.5114184998636435,-0.3873015453898128
3.1446022987365723,-0.3128390861885554,-0.28185075825170114,0.38563307517680206,1.0547153767395128,1.5169328413700258,-0.39323451319910163
3.1647047996520996,-0.31033295268936134,-0.2837580894678944,0.38822816243435465,1.0567718960365278,1.5193308773711092,-0.3962545554577471
3.184807300567627,-0.3179165605367503,-0.2874644775019888,0.3934583378907223,1.0625615259830175,1.5278964001697197,-0.4026942344972235
3.2049200534820557,-0.3217589255384856,-0.2891599145363054,0.3960852731332314,1.0659173611784376,1.5323619278533804,-0.40603621111236854
3.225003242492676,-0.3298090937332092,-0.2923593703209417,0.40126439882880754,1.0722809338174555,1.5405144438389615,-0.4126857503777433
3.245450735092163,-0.33833242962271654,-0.2952043210170616,0.40633647109847254,1.0782978813944124,1.547567236409166,-0.41933316932197906
3.265507936477661,-0.3428113921994162,-0.2964171164082903,0.40884063005684457,1.081388139672953,1.5510616002239352,-0.4226878289802291
3.285764455795288,-0.35204627061816834,-0.2986557780160534,0.4137932468337786,1.0877158810755403,1.557419474709664,-0.42949456139918757
3.3066465854644775,-0.36149741010032393,-0.3008553595153105,0.4187631721666354,1.0943294728939927,1.5636003833330847,-0.43638416942501135
3.326977014541626,-0.3662520427790278,-0.3019916836940285,0.4212777206385927,1.0977208449234417,1.566671647720184,-0.4398445470345945
3.346893072128296,-0.3701640954065229,-0.3040307440340568,0.42660037348016416,1.1035176492233127,1.572973809861913,-0.4464659439235222
3.368757724761963,-0.36917193158840683,-0.30492084156503685,0.4291808060137557,1.1057289061743245,1.5755955339647894,-0.44969853809251437
3.38883376121521,-0.3794654045391962,-0.3071394165717948,0.4345807498109548,1.1124674677490798,1.5825614429436452,-0.45639902525057974
3.409090042114258,-0.3776887436736411,-0.30878638416465315,0.4397659034363845,1.1175003458639468,1.5872253316859104,-0.46269536783503223
3.4290692806243896,-0.38277757641867693,-0.30978270688793996,0.4425329082124779,1.1217498876167444,1.5907929097037459,-0.46593596681954036
3.4491286277770996,-0.38712129658319583,-0.31160652615797685,0.4478513979401115,1.1279490937985654,1.5957595424492563,-0.4721016360044177
3.469308853149414,-0.3873800474456413,-0.31335664457579687,0.45301953048561583,1.1326988043630992,1.5990544440177477,-0.47808688844754016
3.4894018173217773,-0.3883381952709632,-0.31429777536690745,0.45562543615414236,1.135290195598089,1.6007597953981507,-0.48110990972787515
3.509490728378296,-0.39158862018686763,-0.3163480702890791,0.4608686325647068,1.1407726786474972,1.6041096470211154,-0.48719976429250994
3.5295634269714355,-0.3899264068411266,-0.31831145281077194,0.4659437705182333,1.1450079373802018,1.6055535481778334,-0.4931503313105548
3.549654483795166,-0.39501779007555177,-0.31960853794486904,0.4686803146911661,1.1483617724513557,1.6083285022257345,-0.49630536674175674
3.5697197914123535,-0.3987451717950604,-0.32201985149348633,0.4740756766980455,1.1555408088538,1.6130877537878225,-0.50265526555765
3.589782238006592,-0.4026567421543283,-0.3244521552856944,0.4793712262985791,1.1618941465404897,1.6162327621318995,-0.5090002821825327
3.6098792552948,-0.40736457097422846,-0.3257938994932813,0.4821420492976174,1.1662550668968725,1.6195103501639283,-0.5122938973917693
3.6300837993621826,-0.40503900397625575,-0.3283440236669254,0.4873867854169417,1.172766235240965,1.624416943706817,-0.5189802428558385
3.650078773498535,-0.4146085281619978,-0.3311733897791161,0.4928579131694196,1.18111578357237,1.6302573773141402,-0.5255495076083103
3.670332193374634,-0.4122204860383778,-0.33383069054223397,0.4980556708480054,1.1875137621214322,1.6349959450411893,-0.5323043886399769
3.690490961074829,-0.4171335222607895,-0.33538765779137114,0.5007154511514973,1.191069090486671,1.6374852438679726,-0.5357438615192829
3.71053409576416,-0.42063368711478066,-0.3383618694506136,0.5059892484605683,1.1982179035195322,1.6428588796031074,-0.5426288516129137
3.7305891513824463,-0.42471600275187815,-0.34133099375357845,0.5112479335379,1.2046758644991138,1.6471731529354674,-0.549389903347211
3.7516634464263916,-0.42963159287207175,-0.3428546313835828,0.5139953490879605,1.2093072149735695,1.6501944494242766,-0.5528666135572134
3.771784782409668,-0.4274703582415497,-0.3456585304279436,0.5192422752033233,1.216582375851219,1.6549259057708532,-0.5596765847511125
3.791860818862915,-0.4256863421800345,-0.3485871076284954,0.5244145021230309,1.2226026041055829,1.658359994200952,-0.566418833228269
3.8125298023223877,-0.43537537639627394,-0.35198942793919963,0.5297626345368676,1.2308284434074417,1.6630476339073559,-0.573396416855835
3.832512140274048,-0.43386480300153396,-0.35364305480768304,0.5322528876736078,1.2340489726559631,1.6651778216659006,-0.5768860076409512
3.852588415145874,-0.4371994839269544,-0.3571581809225614,0.5373246717650928,1.2405824828203889,1.6690850898558542,-0.5838573326323608
3.872661828994751,-0.44020329176230133,-0.36065889888817443,0.5424276926452241,1.2479132365481724,1.6737693866207455,-0.59087845945788
3.892765760421753,-0.4388445477671225,-0.3623931906138008,0.5448593279863643,1.250527951635248,1.6753405515284916,-0.594344053566956
3.912838935852051,-0.4480858129817904,-0.36611348326147214,0.5500701593561249,1.2582867582787798,1.6798454717964688,-0.6013737589155008
3.932938814163208,-0.4548978119024526,-0.3698116368452736,0.5552985152360658,1.2667096496203902,1.6852670876654714,-0.6084470732249272
3.9529812335968018,-0.45207425204064855,-0.3734197385190171,0.5601579510422601,1.2723697926688908,1.688880762133999,-0.6154514260696201
3.9730887413024902,-0.4567974875305972,-0.3753788050911117,0.5627382188475966,1.2759699632831893,1.6907271296553525,-0.6189632589334867
3.9932048320770264,-0.46581789336637885,-0.37928502024616084,0.5679902985196308,1.2844059756497517,1.6956452249642442,-0.6260360008968973
4.013257265090942,-0.46880812266849586,-0.38306978426241256,0.5730546381884628,1.2921805049188166,1.700845997758496,-0.6331508201388584
4.03346061706543,-0.46753085246913256,-0.3849405773796415,0.5754239834489252,1.2948582292826671,1.7024422515161575,-0.6366979237552458
4.0535759925842285,-0.4765914462260013,-0.3890454140622467,0.5806843449200481,1.3031129029291402,1.7070439537382487,-0.643774440097342
4.073659658432007,-0.47387999262677793,-0.3928565116249707,0.5854294578771181,1.3090338898600238,1.7105155598816737,-0.6509080636445483
4.093773365020752,-0.4828656077177418,-0.3971089633774379,0.5907062337938525,1.3173310199910664,1.7148416013180838,-0.6579832593539059
4.113874912261963,-0.48135579346496293,-0.3990371741493943,0.5931024393467789,1.3207918922512611,1.716958366311372,-0.6615656635819032
4.133976459503174,-0.4845367818900897,-0.4031831718892072,0.5980738982485041,1.3277290859391482,1.7204785115777197,-0.6686886660009377
4.154036283493042,-0.48750002024994576,-0.40731418161849947,0.6031020853710705,1.3356792406991098,1.7250125094621966,-0.6758350745147341
4.174138307571411,-0.4862080637672344,-0.4093064380512159,0.6054243137874652,1.338678701705713,1.7267232345568644,-0.6794372757411771
4.194287538528442,-0.4951294476190065,-0.41377289196441436,0.6107185256844045,1.3472009626324808,1.7308739906560113,-0.6865044083636422
4.214310169219971,-0.4922618550977353,-0.41780718303690023,0.6154161337857698,1.354156026233758,1.734997761869938,-0.693714596568947
4.23476767539978,-0.5011976387009354,-0.42239149436330214,0.6207107166426881,1.362642263917605,1.7388949043901407,-0.7007663231931532
4.254899263381958,-0.49961166301328114,-0.4244304990622315,0.623091547425624,1.3666295203042447,1.74132803153111,-0.7043650181584243
4.2749738693237305,-0.5026985888928628,-0.42886564673382277,0.628058953018858,1.3741084058798665,1.7449708332430456,-0.7114873773226849
4.295335054397583,-0.5055258340209028,-0.4333172838896496,0.6330997945038997,1.3824972678339649,1.7492063697144815,-0.7185901366123405
4.315808296203613,-0.5041704894685837,-0.4354402120563682,0.635422011721943,1.3860103020012848,1.751220945596323,-0.7221924805292492
4.3358283042907715,-0.5131496180884049,-0.4402358194998367,0.6407230381068008,1.394545516323618,1.7545167061679152,-0.729213370425325
4.356190919876099,-0.5098461681548703,-0.4445303735294532,0.6455230891180631,1.403207644601082,1.7595550426846933,-0.7363629602780571
4.376142740249634,-0.5188274806884944,-0.4494442293928497,0.6508385235663687,1.4117667914021497,1.7624481790724174,-0.7433573619765363
4.396319150924683,-0.5170748535744479,-0.4516469673668535,0.6532838057454216,1.4164443490372476,1.7652763565004947,-0.7469006175942751
4.416348695755005,-0.5198519159720192,-0.4563576171623843,0.6583615687265055,1.4252560043197353,1.769075931919605,-0.7539325739788754
4.4365456104278564,-0.5243429020445272,-0.4588863410875659,0.6610319427473297,1.42955554125524,1.7702532833572984,-0.7574135142209497
4.456538438796997,-0.5208325958460652,-0.4634453871663796,0.6659325135974844,1.4389503782711084,1.7754751508505968,-0.7644459571104649
4.476622581481934,-0.5253160552463396,-0.46600046221154673,0.668613935465002,1.4433251702468193,1.7765537943307415,-0.767910227147395
4.496713876724243,-0.528083016526541,-0.4708993247717159,0.6737511603168215,1.4525008153010617,1.7799132777192677,-0.7748836958279182
4.516826629638672,-0.5308281995554577,-0.475842474603997,0.6788895470905704,1.4616759071566432,1.783197377500537,-0.7818313534892956
4.53690242767334,-0.5353051810133368,-0.4784837452135576,0.6815877867064538,1.4660425221668634,1.7839117587420563,-0.7852788345260637
4.557024002075195,-0.5318937338285804,-0.4832641111216392,0.6864820468287086,1.475717440688532,1.7883830402739755,-0.7922337889594402
4.577077150344849,-0.5408269194859102,-0.48864258582241205,0.691893375200678,1.4844497766269302,1.7894792752693924,-0.7990954706776915
4.597170829772949,-0.5391497412018255,-0.49109279188251526,0.6943375321332824,1.489324755027338,1.7915182960543334,-0.8025528824312135
4.617259979248047,-0.5419503370100678,-0.4962708318733331,0.6995567355616905,1.4989622609373188,1.7937625561490824,-0.8093570794232592
4.637329339981079,-0.544860990163457,-0.5014807914807904,0.7048556614380651,1.509311882362567,1.7955476507228214,-0.8160965198694629
4.657953500747681,-0.5432774418574856,-0.5039537574379177,0.7073598770934978,1.5148903560392422,1.7972969171341386,-0.8194828507929467
4.677922487258911,-0.5522003432833484,-0.5095480777811199,0.7129646748756625,1.524404784771397,1.7970176446955446,-0.8261487969787742
4.698003768920898,-0.5490367290381895,-0.5146564649954727,0.717999016232175,1.5356028701719038,1.7999344284302043,-0.8328822777413077
4.718059539794922,-0.5456530150589604,-0.5198900162219791,0.7231143026662014,1.5462694985167955,1.8020224293668174,-0.839506445110181
4.738136053085327,-0.5500742912836757,-0.5227579834082826,0.7259275433454218,1.550872720724527,1.801533555484567,-0.8428214505259597
4.7582948207855225,-0.5529184193872515,-0.5283000283164871,0.7312663740327991,1.560825459037056,1.801837894306384,-0.8494326931606556
4.7783203125,-0.5499957569206176,-0.5333007541933854,0.7361420536836142,1.572390798060509,1.8048186353639801,-0.8559898971888628
4.79837703704834,-0.5516237356876399,-0.5384920541894449,0.7412734855287186,1.583616765182156,1.8067056525098262,-0.8625274896130715
4.818483114242554,-0.5544950416408929,-0.5411756981888972,0.7439247841076155,1.5890401632909699,1.807164395700054,-0.8657922086152225
4.838681221008301,-0.5515543083917377,-0.5462768113137225,0.7488096661260077,1.6010168162210665,1.8099441438326338,-0.8722694176172685
4.858699560165405,-0.5569643462784506,-0.5516715428823484,0.7541671581809022,1.6121428513217058,1.8107751811846653,-0.8787467610584417
4.878786325454712,-0.5539467435051201,-0.5568399341136507,0.7590927576449648,1.6244988359491312,1.8134062296928788,-0.885153405670732
4.906105041503906,-0.5539467435051201,-0.5568399341136507,0.7590927576449648,1.6244988359491312,1.8134062296928788,-0.885153405670732
4.936147928237915,-0.5539467435051201,-0.5568399341136507,0.7590927576449648,1.6244988359491312,1.8134062296928788,-0.885153405670732
4.962540864944458,-0.5539467435051201,-0.5568399341136507,0.7590927576449648,1.6244988359491312,1.8134062296928788,-0.885153405670732
4.982609033584595,-0.5589477748711729,-0.562307983374784,0.764430033597356,1.6358562533367027,1.8141496067656628,-0.8915811651698196
5.003197193145752,-0.5558221785312778,-0.5675730636940928,0.7693969198463639,1.6484309847545335,1.8165502196945393,-0.8979306219874381
5.02311110496521,-0.5647258865278016,-0.5732487735886336,0.7749895673246318,1.659327930113625,1.8161034537327585,-0.9043479176202409
5.043152093887329,-0.5631285552845298,-0.5759323661282795,0.777485574216108,1.6655800765443263,1.8170814363267183,-0.9075123644275919
5.063235759735107,-0.5598512201830276,-0.5812630454387918,0.7825363626972981,1.6782579494841017,1.8192989479379529,-0.9137482252686088
5.083442687988281,-0.5581668154586779,-0.583920481921109,0.7850912103109084,1.684640053847302,1.8204991133680384,-0.9168224407148302
5.103574752807617,-0.5669198662212858,-0.5897600771871019,0.7907681370182013,1.6951984581006203,1.8195332537523454,-0.92315067987738
5.12378454208374,-0.5635072656532166,-0.5952313555393546,0.7959023374042243,1.707982198459611,1.8214719373112223,-0.9292832990582082
5.144010543823242,-0.5600276677834968,-0.6007501560341236,0.8010342765908777,1.7207711756005668,1.8233121380360757,-0.9354166537055542
5.164154529571533,-0.5643335726933593,-0.603738771390576,0.8038910168489315,1.7260063335895066,1.8225892745051764,-0.938586870263692
5.187070846557617,-0.5686061190326313,-0.6067564462042025,0.806767895128784,1.7311830837314848,1.8217175070888096,-0.9417630975330465
5.206998825073242,-0.5686061190326313,-0.6067564462042025,0.806767895128784,1.7311830837314848,1.8217175070888096,-0.9417630975330465
5.227476358413696,-0.5650391863212828,-0.612445948073844,0.8119282490912697,1.7439009471182976,1.8229792075248856,-0.9479140828615337
5.247285604476929,-0.5613897472658734,-0.6182050579122669,0.8171029209547378,1.7564737855152277,1.8240451094025614,-0.9540614536704731
5.267452955245972,-0.5576544142440186,-0.62404003212592,0.8223023738311978,1.768968043316786,1.8249052170547868,-0.9602014506395573
5.287754535675049,-0.5557258614046142,-0.6269936203276371,0.8249262571477142,1.7751272845184363,1.8251829454567934,-0.9632746691389723
5.307672500610352,-0.5517797166405787,-0.6329640250906238,0.8302080844847272,1.787331623527847,1.8255043551602197,-0.9694242789284117
5.328101873397827,-0.5478182077996661,-0.6389841698615601,0.8354853251857286,1.7995800864226899,1.8257391637322413,-0.9755442043582535
5.348219871520996,-0.5458267961918464,-0.6420155371908602,0.8381237952421432,1.805715957573534,1.8258242813130732,-0.9785983079613993
5.368272542953491,-0.5417698281714026,-0.6481329231990809,0.8434274648457925,1.81790560044135,1.8258068526008242,-0.9847092635666527
5.388362884521484,-0.5376369685315486,-0.6543111343795727,0.8487567036365598,1.8300267269541444,1.825584418896747,-0.9908111898768671
5.40924596786499,-0.5333489331457272,-0.6605605538412104,0.8541554146520314,1.8419097625034744,1.8249552404366325,-0.9969240107681273
5.429495811462402,-0.5312150634154067,-0.6637020631213074,0.8568439002475129,1.8479115469389604,1.8246608238319098,-0.9999739968926805
5.449575424194336,-0.5260967895727581,-0.6635992462589334,0.8625688988656302,1.8575765998819092,1.8218300646977583,-0.9996860676211575
5.469860315322876,-0.5200443408614216,-0.6567960665383101,0.8622745312079729,1.859213695063501,1.8168132610167165,-0.9928614194827411
5.48995041847229,-0.5169170080264361,-0.6534204956872073,0.8588327088190688,1.8563925687130696,1.8140680524104331,-0.9894774322915086
5.510058403015137,-0.5105801898360783,-0.6466783372166451,0.8519887650304041,1.8505491511992598,1.8084021183005201,-0.9827392340320916
5.530132532119751,-0.5041511237328646,-0.6399481297221785,0.8451923108525453,1.8444774583840562,1.802498222900756,-0.976023367537883
5.550234794616699,-0.5008178008477178,-0.6366148076298357,0.8418589391282749,1.8411441406774487,1.7991648907526414,-0.9726900460283319
5.57030177116394,-0.49415114762494694,-0.6299482338378126,0.8351922473604151,1.8344775676569245,1.7924984261166585,-0.9660233684982459
5.59051513671875,-0.4882821587240703,-0.6229488313406795,0.8280870268210948,1.8298841675123887,1.788780193696335,-0.9591862830495981
5.610494613647461,-0.48389948042416564,-0.6153272342906004,0.8201945501270757,1.8292482579231417,1.7905607005144022,-0.9520351208682302
5.6305670738220215,-0.4817024229403574,-0.6115164440693495,0.8162586095504013,1.8289437427287487,1.7914709635544752,-0.9484575114271365
5.650690078735352,-0.4769408877444396,-0.6040467497888876,0.8085974679913953,1.8406938091366816,1.7918561346834134,-0.9413846072385568
5.670791387557983,-0.4735308455493983,-0.596522865884757,0.8004600739013702,1.847931685820165,1.791246142766859,-0.9343531751412042
5.690875291824341,-0.47215234558828606,-0.592721274302066,0.7961325844952729,1.851162865580429,1.790446139330626,-0.9375816850433045
5.711009502410889,-0.470107637798916,-0.5915357692884459,0.7937524646782657,1.8585536059321563,1.7895866724629506,-0.9439446298109573
5.731050252914429,-0.4672830607955013,-0.5971205886100734,0.7984977205606246,1.8673643130280113,1.7887692798441426,-0.9502097926294957
5.751249551773071,-0.4650794858905631,-0.6000753842967242,0.8012936882060782,1.8723404817515246,1.788187053723925,-0.953333680100181
5.77149510383606,-0.4604401472934756,-0.6059646795916224,0.807016794500824,1.8835881858796275,1.7877038105930003,-0.9595119907499507
5.791501998901367,-0.4556766070289036,-0.6118920339513282,0.8127184730838494,1.8954766754319017,1.7873758664988268,-0.9657587434372855
5.811579704284668,-0.4490251505451477,-0.6052281217949846,0.8193769070746661,1.9021619399756717,1.7807363234048332,-0.9590911514988391
5.831784248352051,-0.44577804426491924,-0.6018993512034493,0.8160243314519522,1.899033805616296,1.7775087941967889,-0.9557514156587462
5.8517680168151855,-0.4391706048718121,-0.5952137005748999,0.8093117429860932,1.892439189871417,1.7710138650762532,-0.9490825220786812
5.871887683868408,-0.4327477252876716,-0.5884640504081207,0.8025051161663584,1.8855820685504534,1.7650813384784003,-0.9423886715465246
5.892221927642822,-0.42948588190602605,-0.5851043026984852,0.7991298961884168,1.8821922683695897,1.7625585494425926,-0.9390469441306254
5.912319898605347,-0.42281919725669803,-0.5784376494384426,0.7924632410627185,1.875525635718278,1.7582723967620233,-0.9323802789374586
5.93244743347168,-0.4161525104274363,-0.5717710015750124,0.7857965884023514,1.8688590086293786,1.7516056863242842,-0.9257136123117078
5.952493190765381,-0.4115521568457986,-0.5642454313684638,0.7779020775942135,1.860605114506799,1.7443647349859985,-0.9187655632477861
5.972569227218628,-0.4082188148216652,-0.5609121638127947,0.7745686703497278,1.8572716850824817,1.7410315417802604,-0.9154322290851454
5.992759466171265,-0.40189503158972095,-0.5541001463777592,0.7676972071757766,1.8570016850366375,1.7342696250118055,-0.9087131921849718
6.012986898422241,-0.3975290630406547,-0.5464175232517321,0.759703470030708,1.861983104250113,1.7268882235455671,-0.9016805439049196
6.033056974411011,-0.3949888779104937,-0.5427344925176121,0.7559169448931198,1.864750276377558,1.723316097616017,-0.898220651650385
6.0531604290008545,-0.3896497492376262,-0.5486918886471974,0.7485382960160889,1.8728754689643932,1.7202769530252402,-0.9047842246738693
6.073284149169922,-0.3844153426940584,-0.5543103309854033,0.7543897612222333,1.884243890766744,1.7214740945011215,-0.9114455613719347
6.093821287155151,-0.39161098891391566,-0.5605940477057373,0.7607483162462653,1.8926248253293194,1.7176464263680271,-0.9181123489634891
6.1139302253723145,-0.3890388906324254,-0.5634199986767897,0.7636471036609872,1.8983317078662099,1.7180901685280456,-0.921447410798485
6.1339991092681885,-0.3882334095689622,-0.5691987405251939,0.7695319072277043,1.9092073494804371,1.7181224572863558,-0.928119811017448
6.15435266494751,-0.39391455616927473,-0.5750199775372179,0.7754121442356975,1.9200872395867434,1.7180238017293927,-0.9348008619839275
6.174486875534058,-0.39797605780131723,-0.5779212372290948,0.7783382914198271,1.9257656508708625,1.7181152919922134,-0.9381433056172263
6.195357322692871,-0.40527691374984526,-0.5840294992234895,0.7847116662516619,1.9350515331605398,1.715099103684908,-0.9447773003603797
6.2151100635528564,-0.41276793782862414,-0.5898518073803144,0.7791962911789858,1.945465840795683,1.7134422142004855,-0.9513684648330312
6.235247373580933,-0.4101196091514533,-0.5925745811105225,0.7822308888055721,1.951698741548999,1.7139437543930613,-0.9546414000376054
6.255171537399292,-0.4109368741019238,-0.598225860803496,0.7832202356789414,1.9626842425241817,1.712580190055942,-0.9613138501620415
6.275262355804443,-0.4120206302528528,-0.6039773750240451,0.7842028183062577,1.9730710663065545,1.710668846863272,-0.961289017139451
6.295386552810669,-0.4094354118729232,-0.6067015007183344,0.787088993860561,1.9783793809078203,1.7097904480100745,-0.9579347647877711
6.315420150756836,-0.41645474761050244,-0.6128943465359569,0.7802770375837498,1.9867958612969618,1.7051542520552039,-0.964605688450367
6.335594177246094,-0.4112602480710988,-0.618522081780702,0.7860516492968602,1.9971274450218226,1.7028855996816694,-0.9579252333487883
6.35561728477478,-0.41870639013753264,-0.6244962148915264,0.792209829147374,2.005971732305129,1.6989082281840109,-0.9646100735547399
6.375829458236694,-0.4165971646141029,-0.6268956306168272,0.7947620436441422,2.012602005368253,1.6992494107642924,-0.9680568918385138
6.395831108093262,-0.4123567627497667,-0.631732515584459,0.7998767695865953,2.0260033062716745,1.7002725616806245,-0.974962371616695
6.415992736816406,-0.4119364134917947,-0.636725255090278,0.805157229333702,2.038761276836319,1.7007502402356056,-0.9818294835324446
6.435991287231445,-0.4134603276579464,-0.6392445288482038,0.8078794756210749,2.0448381251493277,1.7007235836824766,-0.9852366022603665
6.456069707870483,-0.4214919953585205,-0.6445638396306218,0.8135680298261425,2.056030698784013,1.6995397792533014,-0.9920237332117614
6.476214170455933,-0.4169332811294358,-0.6492289513846682,0.8187351732316911,2.0698301347488792,1.701224156537714,-0.9988918659629329
6.496240854263306,-0.42499772570827954,-0.6545813842693704,0.8244028254612802,2.0812482743457927,1.7000496870748043,-1.005667355446448
6.516495943069458,-0.42360668956541847,-0.6569771894290131,0.8270006430393722,2.088167869403185,1.7007465718300951,-1.0090704100907688
6.536769151687622,-0.4190830067633321,-0.6560301671228871,0.8328509979382047,2.09834361502611,1.6982040480709024,-1.0091393276778715
6.556637287139893,-0.412456207336121,-0.6493252778612185,0.8328172780364759,2.098398789944696,1.6915959893395018,-1.0024716773146884
6.576773166656494,-0.4091228491918145,-0.6459920644708568,0.8294839447031426,2.0950657950516427,1.6882629811932437,-0.9991384155142291
6.5968382358551025,-0.4024561241715201,-0.6393256777094066,0.822817278036476,2.088399914254337,1.694930391033556,-0.9924719178734053
6.616905689239502,-0.3957897613867307,-0.6326586217170701,0.816150552426081,2.0817334811850348,1.7015967378305124,-0.9858052685718929
6.637006998062134,-0.3924633492122258,-0.62931421956263,0.8128136589626085,2.0784018318782507,1.7049249921441652,-0.9824707882083057
6.657082557678223,-0.3857967093254735,-0.6226474929723157,0.8061469861146111,2.071735119763806,1.7114325361376135,-0.975804114685683
6.677184820175171,-0.3791300371257556,-0.6159808683524178,0.7994803161423959,2.0650685173832795,1.716860334839895,-0.969137457287917
6.6972455978393555,-0.3757966930635608,-0.6126475528484877,0.7961469895283557,2.061735220145643,1.7191742781461754,-0.9658041275196545
6.717366933822632,-0.3691452508431402,-0.6059749057255871,0.7894646111343661,2.0550408993684304,1.7231342868097685,-0.9591355162550862
6.737451791763306,-0.3624805007076965,-0.5993075758582036,0.7827960582113758,2.048370589374739,1.7263392900397705,-0.9524684843936336
6.75774621963501,-0.3558138058791075,-0.5926409377735047,0.7761294131667635,2.041703993472504,1.7289347686372836,-0.9458018244198833
6.777740955352783,-0.3524804576271674,-0.5893076159381171,0.7727960922217073,2.0383706930770993,1.7300412586078266,-0.9424684945190719
6.79798698425293,-0.34581376381888396,-0.5826409708286749,0.766129448393809,2.0317040877548957,1.7319333608471723,-0.9358018343905248
6.818049192428589,-0.33914707281808826,-0.5759743237089638,0.759462802766638,2.0250374772555557,1.73346596710448,-0.9291351740776532
6.838074445724487,-0.33248037234055855,-0.5693076881309855,0.7527961653819644,2.0183708948638768,1.7347073507142607,-0.9224685173936218
6.858193397521973,-0.32914701770859073,-0.5659743761197069,0.7494628504731521,2.015037617324254,1.7352365596679553,-0.9191351908822918
6.878291368484497,-0.32248031315972375,-0.5593077509113991,0.7427962165399623,2.0083710555037753,1.736141513671761,-0.9124685376117511
6.89841628074646,-0.3158136145140331,-0.5526411244931608,0.7361295771137996,2.0017044854201154,1.736874535145308,-0.9058018840490175
6.9184489250183105,-0.30914692105860503,-0.545974497022543,0.729462932575852,1.9950379080153757,1.7374682906423855,-0.8991352302878198
6.938571214675903,-0.3058135760303907,-0.542641182878592,0.7261296085708527,1.991704616840614,1.7377214208693126,-0.8958019033661799
6.958650350570679,-0.2991468888970438,-0.5359745536818791,0.7194629574898828,1.985038030021359,1.7381542787671462,-0.8891352494994084
6.978827714920044,-0.2958135466152279,-0.5326412385877546,0.7161296305746503,1.9817047345481495,1.7383388154190913,-0.8858019225727839
6.998859405517578,-0.28914686421797703,-0.5259746073238476,0.7094629743820372,1.975038139880003,1.7386543777221983,-0.8791352687670428
7.018928050994873,-0.2824801854592514,-0.519307983366878,0.7027963119175219,1.9683715666115476,1.7389100740130616,-0.8724686205382048
7.039031028747559,-0.2791468429544002,-0.5159746995838917,0.6994629785841886,1.9650383527024804,1.7355768963680054,-0.8691353111011417
7.059172630310059,-0.2724801483588519,-0.5093081754340312,0.692796311917522,1.9583720172869277,1.7330195445744827,-0.8624687141894747
7.0792927742004395,-0.26581346008210466,-0.5026416213391498,0.6861296452508554,1.9517056116660891,1.73434611472721,-0.8558021031082956
7.099300146102905,-0.2591467735409738,-0.49597505904459727,0.6794629785841888,1.9450391838834353,1.735420615003058,-0.849135487548674
7.119788646697998,-0.2558134308871217,-0.49264177496535244,0.6761296452508555,1.9417059621509147,1.7358786834314879,-0.8458021781972139
7.139899969100952,-0.2491467467469673,-0.48597520122425614,0.6694629785841889,1.9350395039118566,1.7366619654104942,-0.8391355565461344
7.159994125366211,-0.24248006407824643,-0.4793086204101833,0.6627963119175223,1.928373027148823,1.737296405084805,-0.8324689312037082
7.180245637893677,-0.23581338278195382,-0.47264203295867,0.6561296452508557,1.921706533221025,1.7378102836510194,-0.8258023024363056
7.200320720672607,-0.23248004261863783,-0.46930873687641744,0.6527963119175224,1.9183732802280498,1.7380293517522276,-0.8224689868457281
7.22038197517395,-0.2258133632043166,-0.4626421402556881,0.6461296452508558,1.9117067629634137,1.7384039462398266,-0.8158023533958103
7.240526437759399,-0.21914668493309902,-0.45597553802349494,0.6394629785841892,1.9050402316505306,1.7387073530214814,-0.8091357171024558
7.260629653930664,-0.21247979411131615,-0.44931014305491707,0.6327963119175226,1.8983762085736005,1.7389561634859048,-0.8024696482087371
7.280691385269165,-0.20581291757606243,-0.4426446814960001,0.626129645250856,1.8917120074391114,1.7391575158599542,-0.7958035443708097
7.300856828689575,-0.2024794844950451,-0.4393119264228428,0.6227963119175227,1.88837984272122,1.7392432864993945,-0.7924704797308622
7.320906400680542,-0.19581262829058535,-0.4326463694399166,0.6161296452508561,1.8817153909112079,1.7393898237154746,-0.7858043259389901
7.340993165969849,-0.18914581729302138,-0.4259805685505548,0.6094629785841895,1.8750504293111272,1.7395080017183804,-0.7791380574480299
7.361084222793579,-0.18247898591858935,-0.41931489391828547,0.6027963119175229,1.8683856753902695,1.7396039228391638,-0.7724718420997256
7.381165027618408,-0.17914557457261082,-0.41598203586268984,0.5994629785841896,1.8650532461427116,1.739644757567864,-0.7691387235746928
7.401321172714233,-0.17247876018304173,-0.4093162798643771,0.592796311917523,1.858388288263248,1.7397144758535803,-0.7624724656581072
7.421404838562012,-0.16581195636944887,-0.4026504727484942,0.5861296452508564,1.851723204541617,1.7397708111013637,-0.7558061810080716
7.441468000411987,-0.1591451625551286,-0.3959846169236778,0.5794629785841898,1.8450580026831698,1.7398163134957223,-0.7491398709020057
7.461607933044434,-0.15581176922256276,-0.3926516714761893,0.5761296452508565,1.8417253597676204,1.7398356641041302,-0.7458067066933384
7.481688737869263,-0.14914498936672688,-0.3859857469285851,0.5694629785841899,1.835059994409616,1.7398686640638137,-0.7391403607280608
7.501818895339966,-0.14247821815080688,-0.37931977934223693,0.5627963119175233,1.8283945287007144,1.7398952823455889,-0.7324739923600474
7.521875858306885,-0.13914483562269855,-0.3759867800775472,0.55946297858419,1.8250617602695383,1.7399065889371286,-0.7291408001404333
7.542111873626709,-0.13247792466049693,-0.36932183463328694,0.5527963119175234,1.8183979802381587,1.7399287240162509,-0.7224748560459688
7.562119007110596,-0.12581103138679164,-0.3626568023680145,0.5461296452508568,1.811733995864521,1.7399464267691271,-0.71580886532603
7.582165718078613,-0.11914415497384931,-0.3559916863364314,0.5394629785841902,1.8050698181834393,1.739960550969494,-0.7091428298376675
7.602428674697876,-0.11581072280322184,-0.35265909803469325,0.5361296452508569,1.8017376604712836,1.7399664926403213,-0.7058097959561077
7.62244439125061,-0.10914386997581633,-0.3459938630517128,0.5294629785841903,1.7950732142665695,1.7399765031858039,-0.6991436971987119
7.644174337387085,-0.1058104491015032,-0.3426612172267293,0.526129645250857,1.7917409284659502,1.7399806975876035,-0.6958106328274218
7.664238214492798,-0.10247703177824423,-0.3393285530721223,0.5227963119175237,1.7884086026098647,1.7399844247029783,-0.6924775587929807
7.68434739112854,-0.0958102073707329,-0.3326631714110368,0.5161296452508571,1.7817438357790296,1.7399906646643357,-0.6858113827136156
7.704608917236328,-0.09247680008421648,-0.3293304547060133,0.5127963119175238,1.778411397253111,1.7399932597013947,-0.6824782811508958
7.724578619003296,-0.08580999485452684,-0.32266497149982576,0.5061296452508572,1.7717464158803655,1.739997575297859,-0.6758120521621918
7.7446558475494385,-0.07914320145046623,-0.3159994244241535,0.4994629785841906,1.7650813029405257,1.7400009192415251,-0.6691457902294586
7.764841794967651,-0.0724764191407037,-0.30933381641637925,0.4927963119175239,1.758416067067932,1.7400034854169117,-0.6624794971551642
7.785320997238159,-0.06914303192615266,-0.3060009904521166,0.4894629785841905,1.755083405608054,1.7400045270555198,-0.6591463394883917
7.805431842803955,-0.06247626495459662,-0.2993352963243943,0.4827963119175238,1.748418000555458,1.7400062107112355,-0.6524800029619646
7.825499773025513,-0.05580950738472253,-0.29266954815189494,0.4761296452508571,1.7417524922357364,1.7400074536598658,-0.6458136395583728
7.845730543136597,-0.04914275859314013,-0.28600374851152205,0.4694629785841904,1.735086887780343,1.7400083476637176,-0.6391472508823706
7.865717172622681,-0.042476017986555814,-0.2793378998812417,0.4627963119175237,1.7284211939209126,1.7400089667079233,-0.6324808384791295
7.885841608047485,-0.0391426505753422,-0.27600495794269064,0.45946297858419033,1.7250883154624133,1.7400091922261731,-0.6291476238461556
7.905898571014404,-0.03247626394435916,-0.26933824878588936,0.4527952083084182,1.7184216487957464,1.7400074394839007,-0.6224811169466896
7.926203489303589,-0.025809855416664227,-0.2626715276345339,0.4461274982447427,1.7117549821290796,1.7400060213977881,-0.6158146002558875
7.946115493774414,-0.01914342630292478,-0.25600479452934616,0.43945984540239086,1.7050883154624128,1.7400048741814411,-0.6091480742015395
7.966501951217651,-0.01581020445047181,-0.2526714234723675,0.43612603941607875,1.7017549821290794,1.7400043855999496,-0.6058148078086779
7.986476898193359,-0.009143746962157768,-0.24600467230677758,0.4294584663528703,1.6950883154624126,1.7400035509871727,-0.5991482685707475
8.006534814834595,-0.0024771256124053146,-0.23933888389890143,0.42279136518718347,1.6884225493320622,1.7400061167816656,-0.5924818873121777
8.026909828186035,0.00418963622186889,-0.23267399896464946,0.41612469852051676,1.6817575691275108,1.74001096739823,-0.585815638127211
8.046890497207642,0.00752301217019483,-0.2293415229977168,0.4127913651871834,1.6784250241524976,1.7400129700619933,-0.5824824980441072
8.06697154045105,0.01418975470420112,-0.22267650642761122,0.4061246985205167,1.6717598306361545,1.74001627382303,-0.5758161885147401
8.087006092071533,0.020856485487437404,-0.21601140673505498,0.39945803185385,1.665094506869544,1.7400188012326097,-0.5691498419164573
8.107056379318237,0.02752320535906438,-0.20934622748102774,0.3927913651871833,1.6584290617927449,1.7400207108482664,-0.5624834606566339
8.127223253250122,0.030856561452955646,-0.2060136090973291,0.3894580318538499,1.655096296415761,1.7400214749984364,-0.5591502577525796
8.147364377975464,0.03752326643271974,-0.19934831690751226,0.3827913651871832,1.6484306850182067,1.7400226899069013,-0.552483828787635
8.16741394996643,0.04418996240499439,-0.19268295352157952,0.3761246985205165,1.641764972458425,1.7400235619699853,-0.5458173707276182
8.187499284744263,0.05085665005717006,-0.18601752207703265,0.3694580318538498,1.6350991659691532,1.7400241657560431,-0.5391508856210039
8.207561254501343,0.05418996714644391,-0.18268428316476154,0.36612469852051643,1.6317659032281853,1.7366926069451765,-0.535817554421858
8.22771167755127,0.06085671240757363,-0.1760189758635372,0.3594580318538497,1.6251000915939298,1.7340240466107448,-0.5291511115913385
8.247737407684326,0.06752336013291092,-0.1693528975550812,0.352791365187183,1.6184337921917187,1.731292761922352,-0.5224845028933697
8.267778635025024,0.07419005204611015,-0.16268695657826862,0.3461246985205163,1.6117675439433223,1.7291646738499873,-0.5158179370242746
8.28788948059082,0.07752338134582125,-0.15935408611500274,0.34279136518718295,1.6084344647861304,1.730250609989317,-0.5124846501619236
8.308042526245117,0.08419003600085266,-0.15268831345248504,0.33612469852051624,1.6017682636406358,1.732107548431259,-0.5058180617140858
8.328089237213135,0.09085667108528936,-0.1460220890142665,0.32945803185384953,1.5951018038820846,1.7254451644865343,-0.4991514082496254
8.348241329193115,0.09752334967188749,-0.13935600848758437,0.3227913651871828,1.5884354056132284,1.728211908552329,-0.49248480008625567
8.368328094482422,0.10085665562668082,-0.13602267371451343,0.31945803185384947,1.5851020610102118,1.724880791736076,-0.48915144222798773
8.388521432876587,0.10752333370100145,-0.12935656159987313,0.31279136518718276,1.5784356286978767,1.7230792918539515,-0.4824848270792779
8.408520698547363,0.11419001103159519,-0.12269092951917202,0.3090702157623899,1.5717693576070746,1.721126152396454,-0.4758182370366474
8.429052591323853,0.12085663795758474,-0.11602410298869548,0.30538784794674306,1.5651026150431588,1.720016242350882,-0.4691515231635858
8.449236392974854,0.12418995256717844,-0.11269106735246834,0.3020545146134097,1.5617693644260096,1.7220169201263822,-0.46581818564456584
8.46927285194397,0.13085657869384765,-0.1060249759258743,0.295387847946743,1.55510283894796,1.725257807545547,-0.4591515014506894
8.489488124847412,0.13752325967453458,-0.09935901183272344,0.3020545146134097,1.548436378068333,1.7185914242245193,-0.45248487437293283
8.509459018707275,0.1441898744980881,-0.09269224770966013,0.295387847946743,1.5417696333992137,1.7226629649866216,-0.4458181457983242
8.529573917388916,0.14752318417341495,-0.0893591825405506,0.29205451461340964,1.538436336454861,1.72439906450455,-0.4424847910966738
8.54962706565857,0.15418984802450583,-0.08269313612488867,0.29205451461340964,1.5317697957490157,1.7226269324878678,-0.4358181312186652
8.569758653640747,0.16085647361415137,-0.07602641518080286,0.29205451461340964,1.5251030771439469,1.7213674718378689,-0.42915141578514304
8.590193510055542,0.16418977992278586,-0.07269333113463146,0.2887211812800763,1.5217697530353922,1.723233219143687,-0.4258180510085416
8.610369205474854,0.17085639065800587,-0.0660268593601267,0.2820545146134096,1.5151030452868046,1.7165713630257606,-0.4191513160127548
8.630404233932495,0.17752306753849123,-0.05936082678380506,0.2887211812800763,1.508436470521486,1.70990418556238,-0.41248466136050627
8.65059232711792,0.18418968079033324,-0.05269402813134236,0.2820545146134096,1.5017697196242774,1.7063497636260605,-0.40581792479981343
8.670607089996338,0.18752299933726013,-0.04936070059893586,0.2787211812800762,1.4984363673767187,1.703017669121595,-0.4024845717513684
8.6908118724823,0.1941896720251574,-0.04269460585738717,0.2787211812800762,1.4917697470291844,1.6963504531823193,-0.39581790852475013
8.710869312286377,0.2008563073957348,-0.03602804782839335,0.2787211812800762,1.485103045406498,1.6896863904102437,-0.3891511968703899
8.730923414230347,0.2075229627857442,-0.02936188204237836,0.27351071047186226,1.4784363741718478,1.6830204061808984,-0.3824845070114947
8.751233339309692,0.210856278656633,-0.026028847960145665,0.27182128674446976,1.4751030186908558,1.679688331787311,-0.37915114312421383
8.771403312683105,0.21752293196606393,-0.01936243907685239,0.2730430666982546,1.4684363313374347,1.6730225667503724,-0.3724844513324866
8.791460275650024,0.224189560182925,-0.012695752494579248,0.2663764000315879,1.4617696121534023,1.679692437429214,-0.36581772608418817
8.81153917312622,0.23085622980104153,-0.006029574703034158,0.2730430666982546,1.4551029240674362,1.6730249527978827,-0.3591510529221768
8.831611394882202,0.2375228420643284,0.0006372809126382931,0.2663764000315879,1.448436200800521,1.679696370256966,-0.35248430506204936
8.851730823516846,0.24085619663950153,0.003970302832444281,0.26970973336492127,1.4451028653602473,1.6763608146111073,-0.3491509977241796
8.871927976608276,0.24752282836159778,0.010636920233012513,0.26970973336492127,1.438436152790225,1.669696980195599,-0.342484274733315
8.891968727111816,0.2541894958088084,0.01730313354177202,0.26858195427472126,1.4317694234844927,1.6630294673139792,-0.33581759971727415
8.912307262420654,0.2575227987238946,0.02063648131104367,0.27056695309354123,1.428436058699243,1.6596986679121342,-0.3324842168983477
8.932267665863037,0.2641894157484035,0.027303297315327088,0.2639002864268745,1.4217693639717963,1.6663696931148682,-0.32581747147029444
8.952323913574219,0.27085608288564134,0.03396949680824898,0.27056695309354123,1.4151026082581033,1.6597020406417948,-0.3191507962492753
8.972424745559692,0.27752270954464364,0.04063616438027672,0.2639002864268745,1.408435904769716,1.6663719924412237,-0.3124840636048088
8.992942333221436,0.2841893742077589,0.04730236959128208,0.27056695309354123,1.4017691248488173,1.65970446385792,-0.30581738730342956
9.013038396835327,0.28752269356624693,0.05063583398808351,0.2672336197602079,1.398435817180622,1.6563725725203837,-0.3024840316467432
9.033113479614258,0.2875226435747279,0.05730247994381464,0.26056695309354116,1.3917691109265777,1.6497099511335003,-0.29581728142709246
9.053188562393188,0.28085591846085917,0.06396900676537594,0.25390028642687446,1.3851023615629503,1.6430477052812869,-0.2958171823679483
9.073264122009277,0.277522556552977,0.06730228084943274,0.2505669530935411,1.3817689903202952,1.6397165439855481,-0.29915046740227963
9.093473672866821,0.27085583398154905,0.0739688489592604,0.24390028642687445,1.3751022551122767,1.6330541490624453,-0.3058170400113034
9.113671779632568,0.26418913516803405,0.06730219327298849,0.2372336197602078,1.3817689071155437,1.6263901030125953,-0.3124836535068206
9.133687257766724,0.25752246062310113,0.06063534998171661,0.24390028642687445,1.3884355065524965,1.6197236046058963,-0.31915030023575996
9.153939962387085,0.25418910362785613,0.05730197324592643,0.24723361976020777,1.391768807921073,1.6163920588332483,-0.3224835912075362
9.173883199691772,0.2475223913261115,0.050635212165722185,0.25390028642687446,1.3984354107297505,1.609728811573018,-0.32915017367353766
9.193969249725342,0.24085568133986557,0.043968439959233586,0.26056695309354116,1.4051020138195855,1.6030653525715441,-0.33581675732962063
9.214012145996094,0.2341889737496914,0.037301655425480786,0.2672336197602079,1.4117686174921333,1.596401677007096,-0.34248334276500164
9.234119892120361,0.23085562087978742,0.03396825815227716,0.27056695309354123,1.4151019196662882,1.5930697565306688,-0.3458166363339165
9.254201650619507,0.22418891704683386,0.027301452809307347,0.27723361976020794,1.4217685249811387,1.5864057472680286,-0.3524832255433006
9.27432107925415,0.2175222158362081,0.020634632003271022,0.28390028642687465,1.4284351320442736,1.579741509753382,-0.35914981801047247
9.294352054595947,0.21085541542678066,0.013966925825299103,0.29056695309354136,1.4351014993965128,1.5730834904244049,-0.3524828436254547
9.314573287963867,0.21418876557613742,0.010633265562362519,0.2939002864268747,1.438434792430518,1.5697482708269903,-0.34914953237429763
9.334546566009521,0.2208553860519883,0.010632585461137423,0.3005669530935414,1.438434651352464,1.5630841153100923,-0.3424827471653921
9.35463261604309,0.22752198536125612,0.017298804374113026,0.3005669530935414,1.4317678699056424,1.5564219885533834,-0.33581592444813135
9.375072002410889,0.23085525927095596,0.020631602980386878,0.29723361976020807,1.4284343988997423,1.5530923457137953,-0.3324824456044002
9.395216703414917,0.23752181095182032,0.027297261592850678,0.29056695309354136,1.4217674531277253,1.546432745369784,-0.32581549194488846
9.415267944335938,0.244188476260914,0.03396380641643765,0.29472670662134237,1.4151007618918638,1.5397659473096894,-0.31914881628118386
9.435447931289673,0.2508550650160805,0.04063020759539143,0.28806003995467566,1.4084339869125786,1.5464380549626047,-0.3124819691379529
9.455518007278442,0.25752165665568505,0.04729658608496856,0.28139337328800895,1.401767202477894,1.5397765340407392,-0.3058151271639725
9.475587606430054,0.2608550200811284,0.05062964494038953,0.2847267066213423,1.3984337967387919,1.536440301956438,-0.3024818430845556
9.495760440826416,0.26085497001473307,0.05729586600826245,0.2847267066213423,1.3917669745076675,1.5297764882537301,-0.3024817113043596
9.515864610671997,0.25418818401094956,0.06396184314951081,0.2780600399546756,1.3851000407335186,1.523117339238847,-0.3091480804963349
9.535890579223633,0.24752143970683646,0.06396169434047977,0.2713933732880089,1.3792316334364296,1.5164562002299804,-0.31581457130270274
9.556365251541138,0.24418807205427154,0.060627910617097346,0.26806003995467553,1.3769499268799688,1.5131243492639872,-0.3191477947445518
9.576471328735352,0.23752137050400168,0.05396079574661704,0.27472670662134224,1.3836164013846017,1.5064591616492728,-0.32581434366805806
9.596587419509888,0.23085461425774287,0.047293420216926195,0.28139337328800895,1.3902827675159979,1.499797422474578,-0.3324807431138332
9.616681814193726,0.22418786613351088,0.040625993522193274,0.28806003995467566,1.3969491331952881,1.493135010011431,-0.3391471532949211
9.63672399520874,0.21752112637997598,0.03395851281156536,0.29472670662134237,1.4036155008155375,1.4864719145814058,-0.33248024278260385
9.65682339668274,0.21418775973472695,0.03062475109287562,0.2980600399546757,1.406948686112803,1.4831401064956804,-0.32914679288388066
