liuyurong129/humanoid-gym/humanoid/data/robot2_actual_20250621-222252.csv
timestamp,joint_1,joint_2,joint_3,joint_4,joint_5,joint_6
0.00014472007751464844,0.0,0.0,0.0,0.0,0.0,0.0
0.020258426666259766,0.0,0.0,0.0,0.0,0.0,0.0
0.040311574935913086,0.0,0.0,0.0,0.0,0.0,0.0
0.06044173240661621,0.0,0.0,0.0,0.0,0.0,0.0
0.08051490783691406,0.0,0.0,0.0,0.0,0.0,0.0
0.1006019115447998,-0.003333332771116637,-0.0033332769042967174,-0.0033333333333333335,0.0033332228528680833,-0.003331644106549466,-0.0033332285686936657
0.12069487571716309,-0.006666671018062778,-0.006667442079713452,-0.006666666666666667,0.006666558062619892,-0.0066645912073788685,-0.006666565255168496
0.14087939262390137,-0.013333299950134448,-0.01333496293193137,-0.013333543884925286,0.013333308564453514,-0.013331272959714837,-0.013333263974947777
0.16089582443237305,-0.019999997695709357,-0.020002508200993745,-0.020000425449854697,0.02000014924835935,-0.019998356239154327,-0.01999995338614236
0.1810622215270996,-0.023333328094343117,-0.023336051181668253,-0.02333375878318803,0.023333542757379394,-0.023331922426764167,-0.02333333828847676
0.2012336254119873,-0.0299999738040942,-0.030003840005058048,-0.0300004254498547,0.03000057531445976,-0.029999814661595285,-0.03000031701164492
0.22133135795593262,-0.036666628168758444,-0.03667095258775137,-0.03666709211652137,0.03666747620041951,-0.03666750184166759,-0.03666716895371199
0.24138092994689941,-0.043333278482782074,-0.04333808398872,-0.043333758783188035,0.04333445374624748,-0.04333552956143713,-0.04333407158574026
0.2614471912384033,-0.04666660202071362,-0.04667165748499615,-0.04666709211652137,0.046667974027375436,-0.0466696757925512,-0.04666754276205332
0.2815406322479248,-0.05333324563313747,-0.05333882159916479,-0.05333375878318804,0.05333508335055345,-0.05333824178726806,-0.05333452659058438
0.30161333084106445,-0.059999892044768945,-0.06000587110515667,-0.05970038290486923,0.060002178807405514,-0.060006838826788075,-0.060001481964725004
0.3217189311981201,-0.06666654330360958,-0.06667279218457293,-0.06488731015294408,0.06666922763997928,-0.06667533967947273,-0.0666683853715301
0.341810941696167,-0.07333319337198457,-0.07333970383369735,-0.06908872122388471,0.07333630474004162,-0.07334391290156882,-0.073335298406843
0.36193180084228516,-0.07666651790582484,-0.07667315741863745,-0.07087984910149624,0.07666985439858327,-0.07667822800081905,-0.07666875894111727
0.382082462310791,-0.08333317075557677,-0.0833400023285187,-0.06915853085801328,0.08333696830936341,-0.07716450989419583,-0.08333566158561077
0.4024946689605713,-0.08999981466280008,-0.0900069365568015,-0.06249186419134662,0.09000395316111769,-0.07126766739345491,-0.09000255034153888
0.42258524894714355,-0.09333314076500682,-0.09334034959186034,-0.059158530858013286,0.09333744966374935,-0.06793510461063902,-0.09333597402211445
0.4427022933959961,-0.09999979164347922,-0.10000718075204383,-0.05249186419134662,0.10000445880337665,-0.061270107282546823,-0.10000282717729846
0.4627707004547119,-0.10666644057454647,-0.10667401936792689,-0.04582519752467995,0.10667149089668478,-0.054605291848366475,-0.10666968876613978
0.48290014266967773,-0.11333310724011388,-0.11334068604446593,-0.03915853085801328,0.11333815760156857,-0.0479386254064685,-0.11333635545059915
0.5032272338867188,-0.11666644234538118,-0.11667401940800701,-0.03582519770872609,0.1166714909349019,-0.04460529206230232,-0.11666968757632727
0.5231380462646484,-0.12347549484876316,-0.12295787687482669,-0.030109534429068347,0.12086329899308063,-0.04057928804241263,-0.12077630474863743
0.5432605743408203,-0.1306824443708661,-0.1278404453236126,-0.02451746556216891,0.1262897418809867,-0.033305219427614774,-0.1262254907672656
0.5634279251098633,-0.1341816483520206,-0.13076996938934887,-0.021783224362065593,0.12848497911607373,-0.03107140048405196,-0.12838758373091919
0.5835726261138916,-0.1412394039470285,-0.13646885742398068,-0.01640306669515988,0.1317610332215486,-0.023457389254023332,-0.1331811141357266
0.6036112308502197,-0.14836027856109882,-0.14198827581669632,-0.011059306643214879,0.1350838053991613,-0.01596478928014149,-0.1381884843690992
0.6237223148345947,-0.15635297932031364,-0.14449077480464462,-0.005669932243784758,0.1420068466015938,-0.0033197892793205798,-0.1453025473155069
0.6439356803894043,-0.16040635875937537,-0.14572711277471095,-0.003022059927694001,0.14529244469658406,0.003380113011002033,-0.1486995676921792
0.6641967296600342,-0.1687567270775122,-0.14758469030780144,0.002308451924827232,0.15281692702942065,0.017785616020446714,-0.14898232593903638
0.684110164642334,-0.17731335644269142,-0.14914782240117436,0.007585830847887365,0.16098490427549622,0.03291943328383587,-0.15739598246835676
0.7042100429534912,-0.18165778630123613,-0.1498641443949563,0.010213695468713332,0.16528758820365327,0.04069702054081881,-0.1618223335240816
0.724301815032959,-0.1905289111411439,-0.15148157464186313,0.015321595294961262,0.17158339501878353,0.05894120082233262,-0.15738774665681063
0.7443985939025879,-0.19987905214317653,-0.1522225151085877,0.02032716350422327,0.17863383328730711,0.08035225655772289,-0.15987676845087873
0.7644772529602051,-0.2086534669110212,-0.15415847905681704,0.016572736002922164,0.1885936152211778,0.09625556021777043,-0.17005865270070566
0.7845635414123535,-0.21295444276180295,-0.1553513524031946,0.012736068791099559,0.19415324484819488,0.10350639742224987,-0.1756903907391519
0.8046708106994629,-0.22143909877553172,-0.1581617202917995,0.005054724070944783,0.2046153857521318,0.11686439200846742,-0.1862820962745441
0.8253602981567383,-0.22976915608837153,-0.1614903299410852,-0.0026168734845016905,0.2142367735719699,0.1288060104359312,-0.19601409632085945
0.8454678058624268,-0.23386352756954001,-0.16335726992233746,-0.0064388870281253535,0.21873640400167602,0.13419997435724387,-0.200559310674104
0.8655543327331543,-0.2419211735775281,-0.16746607936981228,-0.014046639935672237,0.22720328665464354,0.1439648743422972,-0.20910311510502227
0.8856613636016846,-0.2500780983962853,-0.17194947772897934,-0.021828086499062156,0.23248863845448448,0.15500104904614667,-0.2146462892811734
0.9059560298919678,-0.2547577174562723,-0.1733676431522463,-0.019465230233474164,0.23426162872572012,0.1631326841317432,-0.21671416669381288
0.9259107112884521,-0.2647576365174506,-0.17562766655422143,-0.015176563685583897,0.23554139236769414,0.18266347620796322,-0.21884243511207085
0.9460268020629883,-0.275108288158893,-0.17758977920145574,-0.010851097406633814,0.23766083290888662,0.2044086866307945,-0.22190653632195784
0.9661617279052734,-0.28017766173395825,-0.1787325655231307,-0.008556255704332006,0.23962003086458128,0.21470681755087728,-0.22428243994491087
0.9862124919891357,-0.29112986966794746,-0.18053286406203523,-0.004402321788558484,0.24026585793823918,0.24058225606973857,-0.22618744898695575
1.0062966346740723,-0.3018145019014551,-0.18254081783291246,0.0002263140881754483,0.2454181974184413,0.2652441256532472,-0.232353425757545
1.0264043807983398,-0.3072035137498058,-0.18359852042943506,0.0025527463752128238,0.24810316977526664,0.27792867072433536,-0.23556641047868448
1.0464997291564941,-0.31836941816603087,-0.18569492989705283,0.007068778428033701,0.2518069992722708,0.30618096825330776,-0.24058683442135784
1.0665502548217773,-0.32982752287994194,-0.1876640159889977,0.01168587561986524,0.25685137572894157,0.3373372528191836,-0.23628719425854497
1.0866410732269287,-0.33515443640224435,-0.18982778343442652,0.014071915813120263,0.25039362130406245,0.35296856631677237,-0.237620883273225
1.1067276000976562,-0.34653964191682535,-0.19402424223177303,0.01864530746948479,0.23388073786026017,0.38892568048027837,-0.24133909539926174
1.1269242763519287,-0.357370643814814,-0.19890396908934407,0.02360175743055302,0.21713811517018544,0.4204486881965936,-0.24083505944065522
1.1484692096710205,-0.36871882688441393,-0.20422529273030116,0.028426686252603847,0.19236861565183466,0.4530425144583965,-0.2444325751418415
1.1685266494750977,-0.37404343262104517,-0.20700455768547854,0.031004352309685238,0.18163173489109072,0.46541437794194906,-0.2459626209359975
1.1886451244354248,-0.38497227689052566,-0.2129392647396592,0.036217344831143285,0.15769431410807216,0.4892053548775097,-0.24797513064539808
1.2088844776153564,-0.39639872410112015,-0.21886809052670927,0.041460363826696864,0.13235850081582395,0.5074096094197819,-0.24150806179298676
1.2290523052215576,-0.4021266888200558,-0.22176269329834136,0.04420174150890273,0.12254065549312652,0.5182246817203553,-0.23902875671727486
1.2491233348846436,-0.41429149963691875,-0.2278211619985723,0.04959867954527059,0.09731067186329395,0.5437469585614352,-0.2427138078114107
1.2691938877105713,-0.4257027821163605,-0.23406498029375714,0.055182128668389716,0.07782486839003906,0.5683298503355804,-0.23979744973712058
1.2893569469451904,-0.43111457517175084,-0.2371887549560829,0.05811076145097658,0.06958160018508558,0.5834889891037923,-0.23841771015815078
1.309380292892456,-0.4429195535829103,-0.24232097008713918,0.06343622351799441,0.05237554882544917,0.6096300957474817,-0.23659285635390195
1.3294765949249268,-0.4545139510121795,-0.24790215274666236,0.06892838521167897,0.032415475720433545,0.63134297054859,-0.23774500476953644
1.349543809890747,-0.46010308668229166,-0.250575459112434,0.07169026791420585,0.024994991381333275,0.6397280376697657,-0.2377151725279381
1.3696424961090088,-0.4721318468109827,-0.25653249455427235,0.07717571531942867,0.0016618356873313467,0.6630063128350797,-0.23976521819108587
1.389793872833252,-0.47041986576102285,-0.26072056655441334,0.08240077865188003,-0.013069559430099499,0.6651082374684022,-0.24304175219906549
1.4099023342132568,-0.46996867969231376,-0.26305420707822647,0.08497055123796171,-0.023798486390599477,0.6695714974582315,-0.24132333207031337
1.4302597045898438,-0.46871735287780214,-0.26730053420295724,0.09015884959396156,-0.04144320556755254,0.674089795562156,-0.23765251517048566
1.450150489807129,-0.47149530950831803,-0.26911012819575963,0.09515475599234485,-0.03219610601755546,0.671138074802456,-0.2464453023334045
1.470452070236206,-0.47495984140344355,-0.27019310817747455,0.09773612102650706,-0.027508383778893954,0.6719125243307027,-0.2513382368426218
1.4906296730041504,-0.4729225062912905,-0.2714240339164468,0.10124595981079604,-0.015607381331291066,0.669388313065954,-0.2570293921421777
1.5106842517852783,-0.4708410699095738,-0.27286047841330535,0.1060939545425815,-0.005795081888210191,0.6636253372773463,-0.2603733796605459
1.530791997909546,-0.469296454194614,-0.27433763895758556,0.11093184338248073,-0.00921277261020366,0.6679338467447533,-0.26076803923880104
1.5508613586425781,-0.46905612946111475,-0.27469946215968066,0.11329546765682845,-0.009067920290315412,0.667639323890948,-0.26445892242333063
1.570971965789795,-0.46833346741548476,-0.2758677199535422,0.11819035489808621,-0.00854774928885178,0.6688884607377835,-0.26639684893014476
1.5912530422210693,-0.46756860931409244,-0.2768910840735604,0.1208051651952544,-0.009182350818322643,0.6703821765108456,-0.2664595906680133
1.6113383769989014,-0.46579338437364215,-0.2797541312337301,0.12602736024977088,-0.016968705799824426,0.6693555084322254,-0.26564155566096437
1.63142728805542,-0.465078311698954,-0.28117494870460086,0.13099625048318247,-0.018429007028742485,0.6668201573995384,-0.2650898977702328
1.6518347263336182,-0.46457821653150416,-0.28201263872827564,0.13355623998762295,-0.01911140496214146,0.669435374226955,-0.2628558325567995
1.671720266342163,-0.4634380525423601,-0.28300401028509287,0.1385017890349695,-0.017774041637681866,0.6672940660596617,-0.2600258862535849
1.691784143447876,-0.4631665032652306,-0.28328667530989843,0.14328033551616842,-0.016231067785266805,0.6635009172786974,-0.25340777398490894
1.7124414443969727,-0.4633152556981182,-0.28324783542414184,0.1456572834956102,-0.015435777181743522,0.6632237365557448,-0.25029187082437115
1.7325654029846191,-0.464099039253776,-0.28282686279327957,0.15043514415150008,-0.014511473951994678,0.6644815134975367,-0.25426710572584565
1.7526755332946777,-0.46439931440737825,-0.28254553435561996,0.15548768064715196,-0.012992233396368038,0.6715919264513092,-0.2566354530580719
1.7730274200439453,-0.46441784732984404,-0.281844476685044,0.15785340170318843,-0.011764314666727728,0.6661861021135519,-0.26365074139464667
1.792903184890747,-0.46493678876560535,-0.28021927660052787,0.1626478057885999,-0.010523145034812,0.6591617859639947,-0.2769850046066731
1.8130176067352295,-0.46572991710008105,-0.2786263889960242,0.16751011219752052,-0.010553295317616833,0.6550870087804312,-0.28949972764223547
1.8334014415740967,-0.46604241889541836,-0.27791365784907357,0.16996974950578517,-0.010578772037218655,0.6530859172157508,-0.2957458756908127
1.853311538696289,-0.4666586043035919,-0.27662107682259246,0.17493414844113497,-0.011096937409419057,0.6495461100214379,-0.3078829458166616
1.8735613822937012,-0.46722765204867933,-0.27551855028566025,0.17995891352924348,-0.012078215892086444,0.6465432246768873,-0.3196706343346004
1.8994207382202148,-0.46749798460737374,-0.274748287625319,0.18240216333039508,-0.01196122031849966,0.6418598234186962,-0.32588635437549646
1.9195122718811035,-0.4677243047729809,-0.27398131301319956,0.18486212582553932,-0.012086713480753441,0.6368400827092681,-0.33188266843343495
1.9396171569824219,-0.467851983879517,-0.27355787879235216,0.18743007287178717,-0.013003171708785038,0.6350857308243214,-0.33741069392681766
1.959697961807251,-0.4681807925152647,-0.2727652876268632,0.19257890210681836,-0.014353138524720225,0.6321587321561858,-0.34890222364309414
1.979797124862671,-0.4683708185085507,-0.2721663589830865,0.19777801631140693,-0.015559661963095665,0.6295490609134211,-0.36052213127358357
2.0002403259277344,-0.4684566994502693,-0.2719130020632981,0.20039690531334173,-0.01627421487390381,0.6283590048079737,-0.3662382487646934
2.02034330368042,-0.4685307511642752,-0.2715081147798767,0.20565773299464665,-0.017595093006100807,0.6257285005988735,-0.3777545557621258
2.0404622554779053,-0.468622441530304,-0.2705098589704793,0.21076728149715027,-0.01764490190982365,0.616135811448719,-0.38998562632260014
2.0609307289123535,-0.4683265683454646,-0.2704400443741231,0.2161348533745722,-0.019403348136484228,0.6135137215192324,-0.40115991270178564
2.0811142921447754,-0.468313157597806,-0.26996613821816434,0.21870959762711142,-0.019241419203266864,0.608572489428777,-0.4074383874574725
2.101240634918213,-0.46800612156296606,-0.2695160928145632,0.22400669450438115,-0.020054366385327836,0.6015570909825882,-0.4191968964179922
2.1212189197540283,-0.46752179465753435,-0.26928888655467376,0.22933131023346498,-0.020437158303259154,0.5949300345354668,-0.43135843371652777
2.141303539276123,-0.4673263585839788,-0.26906327988933615,0.23196684069037668,-0.020665129536731285,0.5897046039992179,-0.4373237591914759
2.161447286605835,-0.4667429277921115,-0.26902186765935304,0.23731397905276697,-0.02118086341117771,0.5799428854100995,-0.4492449589853433
2.181760549545288,-0.46607736376605036,-0.26896121197700307,0.2426798908423093,-0.02115168536880773,0.56993017963848,-0.4616443408441491
2.2017157077789307,-0.4656769440601866,-0.2689042148537444,0.24537636579707608,-0.021117406671917603,0.5646151521205236,-0.4678572508001402
2.2217907905578613,-0.4653373436601272,-0.2688057905503213,0.25075985934601386,-0.022124954725926363,0.5537459167639881,-0.4793602253805442
2.241868495941162,-0.4653823342991086,-0.2688583804031024,0.2561509173135859,-0.02378396585168805,0.5435222839615588,-0.4903367220139846
2.2620465755462646,-0.4653951449660414,-0.2689120850564466,0.2588529608862945,-0.024490351347644473,0.5386484118763659,-0.4959515095208094
2.282166004180908,-0.4654458797683788,-0.2696031510750922,0.2643387255754211,-0.02759475182921754,0.5347409047762791,-0.5059407703271828
2.3022286891937256,-0.4654608909073504,-0.27085829254283333,0.2698962372003216,-0.03260502527636581,0.5355920852538809,-0.5144439861381519
2.3229618072509766,-0.46534365378189446,-0.2721598184741373,0.2754494256593576,-0.0376364058430167,0.535372873959585,-0.5228825363772485
2.3430652618408203,-0.4652278135718112,-0.2728338127329898,0.27822394076098506,-0.040164347637747046,0.5348524996006289,-0.5270729739819411
2.3631374835968018,-0.4648625580387624,-0.2742417207902219,0.28376994280099843,-0.045291116302306034,0.5329411530431261,-0.5353528182988789
2.383371353149414,-0.4642886631475766,-0.2757507923796995,0.2893140538202748,-0.05056729705374022,0.5297916882336025,-0.543446241616067
2.4035255908966064,-0.4639101090913815,-0.2765531448874442,0.2920868289574656,-0.05327440601263705,0.5277203542795232,-0.54741090154446
2.4236624240875244,-0.46294886886585424,-0.2782736795014287,0.2976373379223632,-0.05888252634530892,0.5226238247481835,-0.5551322675513126
2.4437036514282227,-0.46212046681869856,-0.2809230690409222,0.3033221864977082,-0.06557955922757887,0.5323199748921733,-0.5580926268592092
2.463831663131714,-0.4617684490148537,-0.28278666896871024,0.3062597011072849,-0.0695957817794468,0.5453405273530092,-0.557292471603507
2.483907699584961,-0.460753744245558,-0.2868481814255178,0.31221053336451243,-0.07805903433925697,0.571976835447104,-0.5565961436613553
2.503960609436035,-0.4594124616645045,-0.29094044071670355,0.31815663142810646,-0.08346577202090334,0.5988409981222399,-0.5605007959499324
2.5243024826049805,-0.4585712855496341,-0.29242256254352783,0.32102431822621114,-0.0813170773457043,0.6085620987044086,-0.555273930614671
2.5443029403686523,-0.4562661917385947,-0.29485829383139106,0.32659063935896565,-0.07521348915629686,0.615394390774235,-0.5555792891295627
2.564333438873291,-0.4533803934362588,-0.29746282196089086,0.3321523974178138,-0.0708351547462584,0.614082899615163,-0.566774384108837
2.584887981414795,-0.4500867772205749,-0.30031541681197116,0.3377432118401348,-0.06752123966908072,0.6094028741184125,-0.5819554785934294
2.6047780513763428,-0.44831197997317673,-0.30181636922446975,0.34054752126427607,-0.06600906579305081,0.6063513767961303,-0.5894040678955085
2.6248562335968018,-0.4445232517083554,-0.3049681581612657,0.3461762158622291,-0.06328719120990084,0.5989983227523612,-0.6040204950619209
2.644942283630371,-0.4404504877585192,-0.30830667091174674,0.3518307465918053,-0.0609677147777223,0.5902131183094659,-0.6182796002269946
2.665022373199463,-0.4384557252364024,-0.3099961304788813,0.3546830998868398,-0.05915242090951903,0.5881896517026587,-0.626041931695412
2.6851329803466797,-0.43424508782383936,-0.3135051348368573,0.36040823104370295,-0.055567370953089654,0.5830933450678154,-0.6415103390182443
2.7052760124206543,-0.4293423844950728,-0.31707653147945813,0.3661200464776567,-0.05242412918050531,0.5696219815690514,-0.6615118369243914
2.7253174781799316,-0.4267947738217387,-0.31843406948136554,0.36890239941648584,-0.04969164792191177,0.5586621316660942,-0.6713431219376582
2.7454206943511963,-0.4216551143638104,-0.32099348082272544,0.3745036905037022,-0.04280266340341085,0.5373077287276684,-0.6895011272248949
2.765486240386963,-0.41640820420328445,-0.32338120008239535,0.38024564817400447,-0.03483119356525121,0.5169412589864257,-0.7087921944119003
2.7855608463287354,-0.41108601177620213,-0.3258373660853549,0.3860618342388985,-0.027124513249326597,0.4972467392673489,-0.7280125904665697
2.805680513381958,-0.40840777138231893,-0.32708964801374196,0.38899123092936927,-0.02337940318035826,0.48760974391503836,-0.7375812173311745
2.825739622116089,-0.4034566961754715,-0.3294974869033584,0.39487917109350285,-0.016106068527091424,0.47372845869023095,-0.7566889297194213
2.845836639404297,-0.3980530517807849,-0.33222473308085815,0.4007791525202162,-0.008883487338150212,0.4556660984003476,-0.7757821743545458
2.8659331798553467,-0.39556989754042143,-0.33352391138690685,0.4037510171472234,-0.005715762788591579,0.44918354492126344,-0.7849933114470699
2.885974168777466,-0.39039577783559676,-0.3361975401788759,0.40969801695862845,0.0014716705691982762,0.4341684969144559,-0.8042272650598344
2.906062602996826,-0.385202169249044,-0.33899456698987596,0.41569108133374094,0.007618433404426988,0.4197415871112089,-0.8225922518299926
2.9261884689331055,-0.38271232205361694,-0.34036084583674636,0.418687225148329,0.010759333863031333,0.4139336947055911,-0.8318718318007824
2.946244478225708,-0.3777285726797353,-0.34317564624563607,0.42468754239059886,0.01699619292863445,0.4028402400760505,-0.8504293826521009
2.966440439224243,-0.3723524244571607,-0.346226416664001,0.4307057034862299,0.02295825924966172,0.3874684681742228,-0.8687792309461315
2.986429214477539,-0.3673830234639575,-0.3491283368609161,0.43674757848976414,0.02807752382339611,0.37708172646277494,-0.8864154809696526
3.0065064430236816,-0.3649010445139883,-0.3505818671389756,0.4397673418329487,0.030834931475014673,0.37200971165542,-0.8954339433399289
3.0266876220703125,-0.359943556736311,-0.3535266001097326,0.44582399563427666,0.03630895922170152,0.36225388127852376,-0.9134592861399967
3.046950578689575,-0.3550227505029711,-0.3564409038391164,0.4519159353090177,0.0419776422657052,0.35280990158870423,-0.9317023977538803
3.067064046859741,-0.352630551401787,-0.35776448220491874,0.4550116649816335,0.04493318319441171,0.3476096515425508,-0.9409696788637096
3.087188482284546,-0.34812567450526827,-0.35963703960346605,0.4611052187498245,0.05974682624581415,0.3350712378189823,-0.9633654828336877
3.10793399810791,-0.3437786886323012,-0.3613144240518004,0.46719662235099724,0.07698209396732902,0.3230862404782955,-0.966474049862543
3.128009080886841,-0.34166926869584574,-0.36194398759750596,0.4702271036563592,0.08620804100144507,0.31587431858077386,-0.9655232998080441
3.14811110496521,-0.3377246186978781,-0.3632374756118096,0.4763263739707573,0.10414441819893358,0.30549921446267747,-0.9170190881740875
3.1682145595550537,-0.3359436850392091,-0.36410242815982785,0.4793893232361454,0.11317801219998924,0.3071680411060885,-0.8801676091710895
3.188275098800659,-0.3326432572060604,-0.3658504473182776,0.4854813806793292,0.1319591044581492,0.31666026385616,-0.8540091479997373
3.208522319793701,-0.3298919516633702,-0.367682656894429,0.4914920473415443,0.15004890223113979,0.33132523384738033,-0.8465083673184131
3.2288029193878174,-0.32743276713222774,-0.369317119969429,0.4974725609202353,0.16878019443836348,0.3470659512523016,-0.8301576427521906
3.2489094734191895,-0.3263659722358637,-0.3700032802964386,0.5004462147325414,0.17777814658783478,0.3547844852028587,-0.818704532544106
3.268994092941284,-0.32437397377097554,-0.37106743994387925,0.5063489680864285,0.19424976308220332,0.36608954030618573,-0.8112368742449279
3.289309024810791,-0.3223635788473902,-0.3720101040974712,0.5122920509252977,0.2096809133925405,0.37338014370441164,-0.8055698970567239
3.3092377185821533,-0.32132093081937574,-0.372524412647288,0.5153044330506339,0.21580007827080327,0.37551020244889793,-0.8036467699320345
3.3293442726135254,-0.3188518823420102,-0.37373888315188736,0.5212923523446042,0.22002971555801076,0.3699627156221124,-0.8010202828801609
3.349433183670044,-0.31760381948305877,-0.3740964374645112,0.5242988529006373,0.21865765402045767,0.3597628125601264,-0.8009519861027803
3.3695125579833984,-0.3149814721646168,-0.3749555108473104,0.5302842480133475,0.21568321828317058,0.340279461635284,-0.7980068504217993
3.389591693878174,-0.312295178659017,-0.37581672260274507,0.5362712152330779,0.21241086860176467,0.3197195705667025,-0.7927759254886096
3.4097180366516113,-0.31102932075080447,-0.3761830903381584,0.5393027161474135,0.21073682084472722,0.30797273421652865,-0.7899419283676431
3.4297807216644287,-0.30807585725576414,-0.37770950217399796,0.5452829922179275,0.20637727455461247,0.29112644334043186,-0.7832541393933029
3.449875831604004,-0.3055499232192976,-0.37846306484133624,0.55145894850452,0.20460532857717934,0.2687820554849046,-0.7782515147515234
3.4699440002441406,-0.3041887747047564,-0.3789897513446936,0.5545581091844836,0.20337127673568106,0.258250189058573,-0.7756811640053121
3.490049123764038,-0.30139168329319665,-0.3801261834569341,0.5607983389039868,0.20075367532535532,0.23694744913271926,-0.771933675053963
3.510561943054199,-0.29860907224716,-0.3812165701184503,0.5671496032135278,0.19975695751220268,0.2152244727271916,-0.7691329880683446
3.5307583808898926,-0.2972229103242049,-0.3817144706068017,0.5703643206489462,0.1993951992586138,0.2033817506768576,-0.7687960231988415
3.550771474838257,-0.29399452086559863,-0.38361259376583495,0.5766610845546987,0.1970517031445791,0.1874836442248081,-0.7800348127314928
3.5708348751068115,-0.29079612234065016,-0.38493186332172863,0.5831100380370244,0.1943111578584526,0.16687125987823231,-0.7813136507256561
3.5909318923950195,-0.28914043809635254,-0.38587093751348506,0.5863161810332916,0.19368592686977518,0.15840202054245137,-0.7875056940894875
3.611055374145508,-0.2856731781150621,-0.3876049738751608,0.5926996070992663,0.19077522870692262,0.14215954114112447,-0.7984933261868249
3.6313581466674805,-0.28216302160436924,-0.38930974380406513,0.5991539619709759,0.18942871054091612,0.12435057450274688,-0.8104499458171843
3.651439905166626,-0.2803970283002981,-0.39031606190604246,0.6023346836373785,0.18996838033922872,0.11661406646866196,-0.8177916379921621
3.671555757522583,-0.27688990547203157,-0.3918474388653628,0.6089492319211964,0.18606939757503788,0.09968988443219541,-0.8281251336777303
3.691619634628296,-0.27321153923536773,-0.39387617422196003,0.6154653587137461,0.18859757514846626,0.0912072246106612,-0.8443845848726366
3.7117197513580322,-0.2714799566916312,-0.394663519844258,0.6188043022377003,0.18811527893251206,0.08423368831838257,-0.8509577414240166
3.7317888736724854,-0.2676503832712943,-0.3964579584056864,0.6254365937747305,0.18604930720817428,0.06841722923127551,-0.8631431696964238
3.7518720626831055,-0.2635520596033643,-0.39830690432444166,0.6320045026872961,0.18099741453314666,0.04968421611439627,-0.8725438596525142
3.772165060043335,-0.25948787082118285,-0.3999516312861383,0.6387592083030705,0.17489804912884657,0.02498998628379754,-0.8811844041672147
3.792248010635376,-0.25741309642100063,-0.4008073189100691,0.6421881186608768,0.17151839377781108,0.011809453881643905,-0.8852211325037189
3.812345266342163,-0.2531382844466646,-0.40302200804248617,0.6490508768117698,0.17184067336859374,0.0002775627205450146,-0.8996796083714559
3.8324244022369385,-0.2493348256730692,-0.4046334295863751,0.6562423600984348,0.18084409627950457,-0.008500629920076814,-0.9226410082729573
3.85272216796875,-0.24729080609839513,-0.4057327934409968,0.6597845034962041,0.18423536603404336,-0.010615519693962742,-0.9329193935440723
3.8726954460144043,-0.24340173085921818,-0.40764487412893036,0.6669479175765453,0.19203954227649264,-0.015414646168285364,-0.9545175176539729
3.8930249214172363,-0.23955402685989682,-0.4095724659569608,0.6742330268991495,0.20009421600500557,-0.020931309505371275,-0.9763889867904091
3.9133527278900146,-0.23756362460981206,-0.4106877118850983,0.6778112465703637,0.20343659301440142,-0.02167738087916418,-0.9865542443398398
3.933476686477661,-0.23367183719204257,-0.41284013405658027,0.6849934018145168,0.2104771592859685,-0.022717613767286187,-1.0072163718101637
3.953559398651123,-0.23014591688653763,-0.4145137683851969,0.6924715443438734,0.21992775089240127,-0.02800938024509176,-1.030458523083305
3.973721981048584,-0.22628717254398126,-0.4168240850266271,0.6997751521820313,0.22698449720059544,-0.028238894448122654,-1.051080653217695
3.993776321411133,-0.22437115871996643,-0.4179924745807841,0.703401501391562,0.23044572120572085,-0.027355390320120066,-1.0612768461695805
4.013884544372559,-0.22083496630369565,-0.4199535734164078,0.7108265512330008,0.2390125361892119,-0.027762248694951017,-1.0834052412802309
4.033923625946045,-0.2173334808972318,-0.42200263908542346,0.7183684018917927,0.24783364157181814,-0.03258563905518869,-1.105785811790689
4.054025411605835,-0.21545654318240212,-0.4232385387077132,0.7220388150712259,0.2512657820314232,-0.0346580173753979,-1.115901321393512
4.074131727218628,-0.2123386938809011,-0.42491947412911885,0.7297914942787455,0.26135103763442713,-0.03646719145358398,-1.1395719622402285
4.094224452972412,-0.2086342267898216,-0.4275066865371742,0.7372210355481851,0.2680758085595932,-0.04441181478973712,-1.1596003038591383
4.114512205123901,-0.20713056211364553,-0.4283680771564637,0.7411130618255215,0.2728124632458129,-0.04429066472785973,-1.1710696069089528
4.1344945430755615,-0.20384095377720732,-0.4305726484602567,0.7488179080447974,0.28097861196637797,-0.04864348617717365,-1.1925978922434857
4.15470027923584,-0.200606548714756,-0.43276858435318544,0.7565260946556029,0.2884995540206613,-0.05235439914718051,-1.2134461357591848
4.175246238708496,-0.19744228069570482,-0.43499595844266736,0.7643195495634892,0.2959561295264535,-0.05593897681883179,-1.2342077990411247
4.1953253746032715,-0.1956526191821963,-0.4363869505627097,0.7681064470325113,0.29878986061542195,-0.05965169350081224,-1.2436266639257978
4.215415000915527,-0.19297542763981804,-0.43815804062027114,0.776142975520783,0.3070244631258511,-0.05766465644685663,-1.2651904857990464
4.235547065734863,-0.18946132454796347,-0.4409918023626486,0.7837705726983151,0.31245829372489325,-0.06420791805697201,-1.2837231175557349
4.2556092739105225,-0.18816299068015074,-0.4418970369121324,0.787788790202458,0.3162943840443209,-0.062212835184521885,-1.2941591878341887
4.275692701339722,-0.18516347930501273,-0.44427201871367217,0.7956996845107446,0.3228237171841182,-0.06330835679217205,-1.3138094689814166
4.295753717422485,-0.18217202855634823,-0.4466860811505771,0.8035776027277255,0.32893299543839344,-0.06349226994615617,-1.3329684852268768
4.317019939422607,-0.1809407070988369,-0.44761688303984387,0.8076821927538524,0.33201984107137633,-0.06230811966631507,-1.3426675696939456
4.336909294128418,-0.1774675130734795,-0.4506374151964386,0.8154102604232848,0.3361240796734029,-0.06814774855259077,-1.3598001085183207
4.356998682022095,-0.1749617121473257,-0.452613040068427,0.8235450371170613,0.3419514991290443,-0.06913728099579634,-1.3786924262625992
4.378085136413574,-0.1714747833574366,-0.45574836656943213,0.8313123817817959,0.34512380713346963,-0.07488967931839048,-1.3948783818470891
4.398055553436279,-0.17021947275036173,-0.4567759924985334,0.8353821419773385,0.3476960494739428,-0.07570680558435527,-1.403951362424435
4.418129920959473,-0.1672301313420797,-0.45942685570745506,0.8433712063154534,0.3513058381040181,-0.07917074219046911,-1.4205531618002925
4.4385435581207275,-0.16420448890365696,-0.46216163534315624,0.8513649464115973,0.35433019258048815,-0.08366111741402482,-1.4365678240796953
4.459608316421509,-0.1629516427860099,-0.46325734151095993,0.8554650883175707,0.3561649619399662,-0.08500485933169293,-1.444879848512843
4.479700088500977,-0.1593510563024041,-0.4666545853004484,0.8632769825911821,0.35699926643328184,-0.0914741301648219,-1.4587676681834123
4.49977970123291,-0.15683835262055154,-0.4689156901463269,0.8715269589940428,0.35959729245505906,-0.09341143729732232,-1.4743771231230596
4.5198400020599365,-0.153179417504887,-0.4724399823437463,0.879362127740018,0.3595895881108028,-0.10002619161511911,-1.487429316333681
4.539919137954712,-0.15191138327971926,-0.4736160636226216,0.8835078199170017,0.36026727357735894,-0.10084302411140549,-1.4946255734316314
4.5600292682647705,-0.14878897987875267,-0.4766074209558306,0.8915921338388736,0.36051162060570086,-0.10480327837617004,-1.5079125971412166
4.5802788734436035,-0.14689963910055592,-0.47845491534734125,0.8955159688276285,0.3598933564594311,-0.1083373864350545,-1.5138480646426036
4.600395441055298,-0.1443328484476257,-0.4808968205346551,0.903877098794909,0.35996475024445646,-0.10896218174140145,-1.5269882072947445
4.620483160018921,-0.1401625126976255,-0.4848552072512421,0.9115291399808884,0.3534833500718465,-0.11981436064178316,-1.5339808350004216
4.640556812286377,-0.1371677583209287,-0.487613046202663,0.9198036398148602,0.34505481666138554,-0.12237043372218252,-1.5393624717447059
4.660645246505737,-0.13500464584786342,-0.4896555261221948,0.9236403012242925,0.341472340530143,-0.12819779558078284,-1.5425628650683663
4.680752754211426,-0.1311891009884881,-0.4932092215920308,0.9316309312432484,0.33295563506620496,-0.13623777420089803,-1.547841084694227
4.700818061828613,-0.12780676107553846,-0.49623649549571364,0.9398919069509066,0.32370733845160066,-0.14620835371705326,-1.5525336831962266
4.720912218093872,-0.12602790181964796,-0.49780210487737436,0.9439938675550575,0.3189795563099215,-0.1542743842168599,-1.554772863357871
4.741060018539429,-0.12134454703436395,-0.5021847106996474,0.9516856686389714,0.3098395339932419,-0.1677955418017359,-1.5594368376517092
4.7611188888549805,-0.11794815489807249,-0.5050832387024472,0.9601603646845642,0.29853425464656314,-0.17409105495842447,-1.5623710065981964
4.781485319137573,-0.11462614812065856,-0.507864519720328,0.9685639847489451,0.2866304089714051,-0.19277619865637435,-1.5646708962372646
4.801376581192017,-0.11257846618380815,-0.5096901979790871,0.9725746211849178,0.28085555567595466,-0.1967446909780114,-1.5659377574906321
4.8214476108551025,-0.10884015895765548,-0.5128898500764725,0.9808556477398446,0.267767528850462,-0.20440408633501472,-1.567190229111959
4.841522693634033,-0.10503296181773562,-0.5161360177852442,0.9891118492249508,0.25413080535065186,-0.2130420926892866,-1.5679342930719655
4.861971616744995,-0.10293789473332812,-0.5179775839616336,0.9931158716920716,0.2478250396659387,-0.21744454560914883,-1.5687315709594107
4.882369041442871,-0.09928303143723033,-0.5208635312436005,1.001608452993003,0.2318339874675384,-0.22637336622187043,-1.5675617038752838
4.920714855194092,-0.09928303143723033,-0.5208635312436005,1.001608452993003,0.2318339874675384,-0.22637336622187043,-1.5675617038752838
4.946040153503418,-0.09928303143723033,-0.5208635312436005,1.001608452993003,0.2318339874675384,-0.22637336622187043,-1.5675617038752838
4.966172456741333,-0.09494364306689947,-0.5245761273522068,1.0096629303024527,0.21796718625508862,-0.23076402218459435,-1.5681555402745704
4.986251354217529,-0.09103704491789498,-0.5275793874912263,1.0181356106514803,0.20098362432768424,-0.2404938109880725,-1.5662249106684285
5.006366491317749,-0.08621691079405328,-0.5318061113564873,1.0259219678688671,0.1881999574174338,-0.24249652233272195,-1.5677595755566447
5.026473045349121,-0.08621691079405328,-0.5318061113564873,1.0259219678688671,0.1881999574174338,-0.24249652233272195,-1.5677595755566447
5.046993732452393,-0.08205022781368493,-0.534941050594341,1.034364866787787,0.17060791599819114,-0.2528564808019553,-1.565422631362914
5.067389011383057,-0.07975699673599068,-0.5364424763889758,1.038504207826286,0.16447092946365563,-0.25704616707322625,-1.5669361862673028
5.087660074234009,-0.07471281405974817,-0.5401613277833499,1.0464966685920374,0.1528481076561563,-0.26304847539662607,-1.5703336506810057
5.107702970504761,-0.07197621609690182,-0.5423741491010018,1.0503430086849355,0.14743154608581688,-0.2648555430432819,-1.5722769423546825
5.127792835235596,-0.06709564880184075,-0.5455744215018132,1.0586214373575853,0.13369935225077634,-0.2750944239926043,-1.5741840917733207
5.147876024246216,-0.06210784817119227,-0.5488589757859259,1.0669278001037121,0.11824190745135475,-0.28689653374059526,-1.5746407309319979
5.167980909347534,-0.059396260447808956,-0.5511652305536888,1.0707757859174039,0.11168422591799027,-0.2897438089078589,-1.5756291896851877
5.188083648681641,-0.054314659184595104,-0.5552538019028973,1.0787469866909547,0.09625824007169509,-0.29973648752480253,-1.5759263509047563
5.208148717880249,-0.04898953500737053,-0.5587785786915784,1.0870430307648051,0.07785539588250061,-0.31471372674366843,-1.5740374314418488
5.228379487991333,-0.04626656779297188,-0.5605803977094379,1.0911884485048156,0.0683059520279243,-0.3225757484644144,-1.57283527571355
5.248509168624878,-0.040701888153145085,-0.5642646199351319,1.099466727479198,0.04853857052674056,-0.3389894270401419,-1.569942553401726
5.268723487854004,-0.03602121884452298,-0.5681313927181364,1.1076814729669897,0.02828349996719704,-0.35565330665608785,-1.5667056126773784
5.28870964050293,-0.03129611682185151,-0.5721073700652974,1.1158765470375154,0.007295974512824658,-0.3731464392121935,-1.5629766635120843
5.308772087097168,-0.028324073369265804,-0.574090575406934,1.1199971559713222,-0.003687490218552015,-0.38261116201390105,-1.5607844109286457
5.32886528968811,-0.02228554833058364,-0.5781451317172182,1.128207426045845,-0.026100746699045316,-0.4019169655460371,-1.5561168240981553
5.348951816558838,-0.0161357052248637,-0.5823129513612205,1.1363729283549846,-0.04903058061517991,-0.42162339033725665,-1.5511401031394323
5.369018793106079,-0.010600726048842098,-0.5865837051836915,1.1445034371149463,-0.07214007473884732,-0.44142743474515406,-1.5461547974733771
5.389196157455444,-0.008305946914806144,-0.5887895706106335,1.1485297172155107,-0.08359167967646954,-0.4510384878067777,-1.543765519562351
5.409224987030029,-0.001978055403928087,-0.5931385548728215,1.1566249258383843,-0.10750236810951368,-0.471714842581621,-1.5383682322652563
5.4293153285980225,0.004539344903372886,-0.5856188709477517,1.1502892369060627,-0.12022655613592387,-0.4735116653168363,-1.5272664684251385
5.449548721313477,0.00785589325960079,-0.5820627012976721,1.1470721307049307,-0.11857411999343323,-0.47286308927330506,-1.5227728462366494
5.469609498977661,0.0144955912728565,-0.5749877344781884,1.1406257315561248,-0.11482861319697603,-0.4707425627843933,-1.5140841783975465
5.489733934402466,0.02114473053273313,-0.5680031093275786,1.134125874622518,-0.1103253560208369,-0.4673601348860346,-1.5059121713781154
5.5097739696502686,0.02113944459243383,-0.5612144413600876,1.1275228013053151,-0.10445754448172448,-0.46188693339471026,-1.498687625348455
5.530283451080322,0.017806162406501867,-0.5578813533845214,1.1241894679719817,-0.10112338089101429,-0.4585535925945858,-1.4953550443627681
5.550110816955566,0.011139719224673338,-0.5512149486665238,1.1175223986557934,-0.09445590932157354,-0.45188703664284097,-1.4886879268081927
5.5701844692230225,0.004330998084703314,-0.5554646802020616,1.1120020720604016,-0.10154169477932107,-0.46514907964667584,-1.485777565519296
5.590358018875122,0.0009135574741131417,-0.5573987601928942,1.1093068831214827,-0.10645259087545306,-0.4738373263015622,-1.483354814029488
5.610363721847534,-0.0058996478967933245,-0.5614732713768071,1.1037915915446748,-0.12162435435521758,-0.4897968177859661,-1.4794812901223562
5.630746841430664,-0.005922652472325082,-0.5655926788809753,1.0994102869293119,-0.14430956303652515,-0.5075019373851528,-1.4750823940059923
5.651126384735107,-0.0026496899264179577,-0.567571020889387,1.0980480397951413,-0.15681665165575856,-0.5180393668068854,-1.472089423494226
5.6712470054626465,0.003801049916958695,-0.5711178498890858,1.0929751969401469,-0.18657316129760965,-0.5455579585472545,-1.462693270450866
5.6913416385650635,0.010189340187007534,-0.5732842730947516,1.08832946692377,-0.22770301854136635,-0.5902288825016234,-1.4456178605634322
5.71140718460083,0.016648967166597594,-0.5777636274773886,1.0957890426706842,-0.25225840312733194,-0.6099623231173779,-1.4400390262615181
5.731500625610352,0.019897465987530838,-0.5800137309699834,1.0994656130576088,-0.26421791923735016,-0.6195501416187146,-1.4375504836678603
5.751689672470093,0.026340103127801634,-0.5844668688936828,1.1067958087035545,-0.28836650647332535,-0.6389803689314308,-1.4324877549176136
5.771967649459839,0.03287486785054115,-0.5833603482473794,1.1071219365148066,-0.30378149367384866,-0.6453376938523508,-1.4266646045524496
5.7923479080200195,0.03620229965712133,-0.5800077970762788,1.103792704537449,-0.3072403169588066,-0.6421433619155428,-1.423241629037797
5.812443971633911,0.04282820323348491,-0.5731765243964291,1.0971626455482706,-0.3015758955380599,-0.6365958388550003,-1.4158667328918715
5.832556247711182,0.049471191879210064,-0.5663798860774991,1.090549961094756,-0.29595070961486575,-0.6313575848218018,-1.4085083707766046
5.852603912353516,0.05612384345998214,-0.5595825775768121,1.0839404288927126,-0.2903067901811535,-0.6260439005719739,-1.4011542471994276
5.872710466384888,0.052790717822881576,-0.5562492980530312,1.0806067969242927,-0.28697345684782016,-0.6227106493483041,-1.397820030556908
5.892833709716797,0.04612411558264512,-0.5495830928483891,1.073940130257626,-0.2803051234551805,-0.6160433847808687,-1.3911547127022992
5.912897348403931,0.039444745421269065,-0.5491639999157588,1.0674680157772183,-0.27693654922126115,-0.6137739588694712,-1.3889227125957266
5.933485269546509,0.03273599540734927,-0.5480338640531927,1.0613125154965115,-0.27916654475461966,-0.6190984929664975,-1.3895533196547374
5.953612565994263,0.02940288642234113,-0.5447005885954465,1.0579788332882547,-0.2758332114212863,-0.615765258460967,-1.3928855729309098
5.973977088928223,0.022680524163775674,-0.5499904640500758,1.0519109503501252,-0.28001007370165504,-0.6240160177616911,-1.3921896545904038
5.993868112564087,0.01646379156825055,-0.5554766373408104,1.0503901175886545,-0.2961125559650751,-0.6304321035211568,-1.3924447596488965
6.0143210887908936,0.023118062121609138,-0.560623479607386,1.0574823266752884,-0.31361054242250885,-0.6398648733189332,-1.3918900781119632
6.034419775009155,0.026458339888328596,-0.5628599765904923,1.0610632833033915,-0.324377100521214,-0.6478774487480418,-1.3903185733988466
6.054505348205566,0.026440793100709473,-0.5679895751788001,1.068083159847209,-0.34171221554625564,-0.6573293816528324,-1.3899669962810803
6.074636697769165,0.026372254396283934,-0.5731389991812279,1.075101107343605,-0.3592250961015038,-0.667232055294629,-1.3895426989768285
6.094837427139282,0.02963998125893727,-0.5753666064576631,1.0786933841642226,-0.37054749316196284,-0.6761190116351163,-1.3876869161828063
6.11496901512146,0.03614400857193324,-0.5802737357819008,1.08575078289268,-0.3900135132271122,-0.6888044441194944,-1.3860476742007226
6.135042190551758,0.029192328660702427,-0.5848251964399901,1.0835108729352436,-0.41226858387655024,-0.7058730082157574,-1.3826812124974277
6.155725002288818,0.02221178167169545,-0.5903825774517456,1.0902710925795107,-0.4243743577395925,-0.7063279506303742,-1.385885880000966
6.17584490776062,0.018581421271727516,-0.5928874058648207,1.0936246449492248,-0.4309683427497844,-0.7063645691438243,-1.3871150460281934
6.195929288864136,0.01113481397183333,-0.5975565790800419,1.1003805522625096,-0.44587086530059494,-0.7081461837855377,-1.3884395518056116
6.216273307800293,0.0037103290982616714,-0.6025261678581165,1.1070924465614127,-0.45977837040053327,-0.7086528980775886,-1.3903654802427914
6.2368388175964355,8.383667352411485e-05,-0.6052478972712116,1.1104511787053122,-0.46583830068951154,-0.7080053950337715,-1.3919015677582405
6.256587028503418,-0.0077630425743013196,-0.6095007297646704,1.1173200137093369,-0.48365557411004895,-0.7123386401317295,-1.3912005506518588
6.2766358852386475,-0.01481838727393863,-0.6154608238803049,1.1240193916651524,-0.4936545398190955,-0.7088721510721686,-1.395651930453492
6.297075510025024,-0.018787423698092668,-0.6176826858450866,1.1274584734859614,-0.5024824662188545,-0.7107010396099577,-1.3952945641699779
6.31705641746521,-0.026434942346565165,-0.622742114087505,1.1342779510490997,-0.5173151541982691,-0.7116138921250664,-1.3964520698382372
6.337018251419067,-0.028217989094697592,-0.6267096351850405,1.1413726161635585,-0.5346175312432302,-0.7132847527546782,-1.3959891460272644
6.358160018920898,-0.02629279146740947,-0.6281286310563232,1.144961660758484,-0.5467689954432362,-0.7169454545193541,-1.393243486145855
6.378259658813477,-0.02263119855901946,-0.6308093686334354,1.15207556242185,-0.571940663302575,-0.7231717486776018,-1.3868787449699422
6.398337125778198,-0.01835643774479687,-0.6341902965484578,1.1591662548123978,-0.5915567590403288,-0.7228127727400221,-1.3843179753844177
6.418447017669678,-0.013601263789611427,-0.6380719004516117,1.1662052096694195,-0.6066883786726115,-0.7186483000322685,-1.3848450608111749
6.438517808914185,-0.011742446325221971,-0.639277062456654,1.1698232222867284,-0.6165598866782689,-0.717243372290673,-1.3834072584281036
6.4586217403411865,-0.007551058401412557,-0.6424083911455292,1.1769946892187935,-0.6342381003230103,-0.7138460768328184,-1.38201019565729
6.478705167770386,-0.0033969191858482656,-0.6455851706002907,1.1841839810125065,-0.6520544772838283,-0.7103772323153705,-1.3804231746750566
6.4990668296813965,0.001699403909530678,-0.6433944829792076,1.18453652777007,-0.6591560649713938,-0.7059404130392697,-1.3751647199263302
6.5191874504089355,0.004992396348341871,-0.6399887663304592,1.1812169388656155,-0.6560282028391335,-0.7027079392396665,-1.3716898042671928
6.539281845092773,0.011659075977749886,-0.6333224779992443,1.1745502721989487,-0.6493606615242441,-0.6960404616593258,-1.3650237743307934
6.559665203094482,0.018325763495626694,-0.6266565264492246,1.1678836055322819,-0.6426923262310063,-0.689372210438869,-1.358358313529342
6.579550743103027,0.021658895989591795,-0.6233227596687586,1.1645501850645414,-0.6393604269923236,-0.6860405281823125,-1.3550240302254815
6.599628686904907,0.028317399685354263,-0.616641603459575,1.1578789810409789,-0.632742480134003,-0.6794213630814852,-1.3483238660981485
6.619715213775635,0.03498407288196962,-0.6099755160993816,1.151212314374312,-0.6260744199900883,-0.6727532660831685,-1.3416581800673102
6.6401073932647705,0.038317408152956,-0.6066424892026834,1.1478789810409786,-0.6227403417549666,-0.6694191585089815,-1.3383253684723881
6.660216331481934,0.04498407531656505,-0.5999764141092158,1.1412123143743118,-0.6160722231367576,-0.6627509545390495,-1.3316597114373545
6.68029522895813,0.051643723024757886,-0.593296011254917,1.1345399853861329,-0.6094636128922946,-0.6562329701277463,-1.324963044062872
6.700380086898804,0.05830971643913977,-0.5866278992539519,1.127872659066289,-0.6028029188999751,-0.6495837897691625,-1.3182936679380455
6.720435619354248,0.0649763719412327,-0.5799617460322669,1.1212059923996223,-0.5961349413275995,-0.6429156405836272,-1.311627886921249
6.740554094314575,0.06830969843627505,-0.5766286605039848,1.1178726590662889,-0.5928009689041551,-0.639581573750343,-1.3082949822852878
6.760633945465088,0.07497634909666359,-0.5699624722712264,1.111205992399622,-0.586133055856353,-0.6329134565815897,-1.301629145831176
6.780691385269165,0.0816429968853108,-0.5632962620091397,1.1045393257329552,-0.5794651839486133,-0.6262453625519849,-1.2949632745619686
6.800787448883057,0.08497631978822044,-0.5599631489306224,1.1012059923996218,-0.576131262973226,-0.6229113246260943,-1.291630326385646
6.820883750915527,0.09164294804849467,-0.5532972061499714,1.094539325732955,-0.5694626436613586,-0.616242299888259,-1.2849649337564857
6.840963125228882,0.09830957236273523,-0.5466312328428808,1.0878726590662882,-0.5627940807745124,-0.6095733099540438,-1.2782994935325454
6.861053943634033,0.10497619316947956,-0.5399652295278631,1.0812059923996213,-0.5561255746898446,-0.6029043595097803,-1.2716340064887404
6.881128549575806,0.10830950237845091,-0.5366322170028709,1.077872659066288,-0.5527913424507117,-0.5995698997450376,-1.2683012460418301
6.901223421096802,0.11497611864224867,-0.5299661709533191,1.071205992399621,-0.5461229186502222,-0.5929010123757843,-1.2616356924989998
6.921353101730347,0.12164273233722556,-0.523300097839797,1.0645393257329543,-0.5394545479340674,-0.5862321694781656,-1.25497009694231
6.9413816928863525,0.1283093438160561,-0.5166339987335303,1.0578726590662875,-0.5327862290172615,-0.5795633728778267,-1.2483044610962815
6.9620232582092285,0.1316426488310756,-0.5133009397525917,1.054539325732954,-0.5294520886115026,-0.5762289924830536,-1.2449716285740289
6.982138395309448,0.13830925761852786,-0.5066348035451349,1.0478726590662872,-0.5227838452169731,-0.569560268537821,-1.2383059352920422
7.002234935760498,0.14497586501461818,-0.49996864378719785,1.0412059923996204,-0.516115650864427,-0.5628915950220585,-1.23164020556717
7.022316217422485,0.15164247132636122,-0.49330246136992817,1.0345393257329536,-0.5094475046163038,-0.5562229734083478,-1.224974440761963
7.042417287826538,0.15830907684753778,-0.4866362571401524,1.0278726590662868,-0.5027794056193458,-0.5495544050607297,-1.2183086421444824
7.062554359436035,0.16164237939981746,-0.4833031470988251,1.0245393257329534,-0.49944537359468666,-0.5462201412572301,-1.2149757305276419
7.0826520919799805,0.16830898425668214,-0.476636911648452,1.0178726590662865,-0.49277734404114204,-0.5395516551181396,-1.208309883373469
7.102790355682373,0.17497558899855145,-0.4699706563280536,1.0112059923996197,-0.4861093599262208,-0.5328832251510998,-1.20164400519297
7.1232383251190186,0.1783088914038471,-0.4666375214411487,1.0078726590662863,-0.48277538471337844,-0.529549031533369,-1.1983110547748757
7.143166780471802,0.18497549643048022,-0.45997123764540887,1.0012059923996195,-0.47610746761523814,-0.5228806875614599,-1.19164513185647
7.163302898406982,0.19164210193126124,-0.45330493570723185,0.9945393257329529,-0.4694395945035372,-0.5162124018862128,-1.184979180209074
7.1833555698394775,0.19830870811693782,-0.4466386162664861,0.9878726590662863,-0.4627717648697098,-0.5095441751212755,-1.1783132006329087
7.203786134719849,0.20164201152850145,-0.44330545017552686,0.984539325732953,-0.45943786620616006,-0.5062100839832255,-1.1749802006051513
7.223704099655151,0.20830859231430546,-0.4366392512936482,0.9778726590662864,-0.4527696041137388,-0.4995412775354701,-1.1683144717266385
7.24379301071167,0.21497517440612962,-0.4299730311206047,0.9712059923996198,-0.4461013966760308,-0.4928725494058176,-1.161648708979164
7.263822793960571,0.2216417580498222,-0.4233067902777768,0.9645393257329532,-0.4394332437668545,-0.4862039004588311,-1.1549829129345477
7.283962965011597,0.2249750505212914,-0.4199736623146804,0.9612059923996199,-0.4360991876489829,-0.48286960579382554,-1.1516500026322838
7.304028272628784,0.23164162704150504,-0.41330744118259966,0.9545393257329533,-0.4294309408970706,-0.47620085103639725,-1.1449842623970305
7.324330806732178,0.23830821545806266,-0.4066411515491203,0.9478726590662867,-0.4227629227045319,-0.4695324010512214,-1.1383183858860404
7.344170808792114,0.2449748060888192,-0.39997484350906726,0.9412059923996201,-0.4160949576969033,-0.4628640304712398,-1.131652478202788
7.364557266235352,0.2483081392812123,-0.3966415108293109,0.9378726590662868,-0.41276162197973815,-0.4595306940054049,-1.1283191462575695
7.384593963623047,0.2549747335205236,-0.3899751762192871,0.9312059923996202,-0.40609373626664197,-0.45286244215197696,-1.1216531925984963
7.404601097106934,0.26164133027514513,-0.3833088248147359,0.9245393257329536,-0.3994259021335744,-0.44619426770756615,-1.114987209305899
7.425252437591553,0.26830792966314443,-0.3766424570940517,0.917872659066287,-0.3927581193824269,-0.43952617020371715,-1.1083211966631783
7.445310354232788,0.27164123036922927,-0.37330926729456626,0.9145393257329537,-0.38942424707671586,-0.4361921499452593,-1.1049881794929732
7.465442657470703,0.27830783384451285,-0.36664287617101793,0.9078726590662871,-0.382756540172388,-0.4295241655890116,-1.0983221237710077
7.485538005828857,0.2849744401093339,-0.35997647014661527,0.9012059923996205,-0.376088882916909,-0.42285625487464085,-1.0916560399668687
7.505870580673218,0.2908372905571148,-0.3533100788603745,0.8945393257329539,-0.3694211629785567,-0.4161882745944623,-1.0849899934341105
7.525970697402954,0.29157402925732523,-0.3499769657730004,0.8912059923996206,-0.3660869829244029,-0.4128538851220319,-1.0816571569842774
7.546200275421143,0.2949523669497717,-0.3433103522129299,0.8845389221198006,-0.3594203162577362,-0.40618738103295987,-1.0749890182590531
7.566334009170532,0.2940623516414932,-0.33664399090129277,0.877872255453134,-0.35275246588353754,-0.3995192672815688,-1.0683230505851287
7.586766719818115,0.2907289714996367,-0.33331085447826686,0.8745389221198007,-0.3494183685131716,-0.3961850171200985,-1.0649901728580047
7.606935024261475,0.2973956364073675,-0.3266441967520353,0.8678722554531341,-0.34275166996835404,-0.3895183461977022,-1.0583235357389076
7.6270623207092285,0.2907288850306689,-0.31997788467546384,0.8612055887864675,-0.33608361860155117,-0.3828500369801634,-1.051657695028482
7.647073030471802,0.2931595567074193,-0.31331123444187436,0.8545389221198009,-0.32941689512829675,-0.37618335850797185,-1.0449910803541012
7.667164087295532,0.2898265067640299,-0.3099779389817607,0.8512053925624156,-0.3260835617949634,-0.37285010357559595,-1.041657011762805
7.687249422073364,0.28472142494276054,-0.30331145939216414,0.8445385366109392,-0.31941628036036723,-0.36618280855635177,-1.03498999964117
7.707303285598755,0.27979358703585305,-0.2966449677039967,0.8378716653819682,-0.31274907675974867,-0.3595156176637516,-1.0283228766317416
7.727506160736084,0.27646022081711136,-0.29331177383878465,0.8345383320486349,-0.3094151979107248,-0.3561816738702368,-1.0249898752928868
7.747600317001343,0.26979349162521926,-0.2866453735653703,0.8278716653819683,-0.3027474902963125,-0.34951385334934804,-1.0183238439549682
7.767684698104858,0.2631270856903865,-0.27997886945492567,0.8212047911899869,-0.2960803274969597,-0.3428467264850621,-1.0116566694373603
7.7877912521362305,0.2564609707462209,-0.27331226903191197,0.8145377287545229,-0.289413660830293,-0.33618022093086514,-1.0049884457308065
7.807886362075806,0.2531278989888495,-0.2699789666182791,0.8112042069573617,-0.28608032749695966,-0.3328469643522511,-1.0016543666327442
7.828090667724609,0.24646172787056983,-0.26331235763031935,0.8045371814698412,-0.27941366083029295,-0.32618044379693667,-0.9949862724413638
7.848385810852051,0.23979552126775677,-0.25664574341020424,0.7978701791588513,-0.27274699416362624,-0.31951391366430676,-0.9883182614898572
7.868245601654053,0.2331292807923812,-0.2499791243246093,0.7912031988830962,-0.26608032749695953,-0.3128473743124926,-0.9816503311581826
7.88833475112915,0.2297959057205984,-0.2466459814672629,0.7878698655497629,-0.26274627060434064,-0.3095133090627058,-0.9783174525398478
7.908429145812988,0.22312916019442505,-0.23997967887330715,0.7812031988830963,-0.2560782286349257,-0.30284526629352265,-0.9716516529284521
7.928623199462891,0.21646242058419535,-0.23331335462011876,0.7745365322164297,-0.2494102791374953,-0.29617733497191473,-0.9649857985092697
7.948733568191528,0.2097957209555838,-0.22664684625131262,0.7678698655487479,-0.24274302632410774,-0.2895101013487848,-0.9583195049997238
7.96875262260437,0.20646235597645007,-0.2233136663670368,0.7645365322154146,-0.23940912769573686,-0.286176225415944,-0.9549865323405151
7.988889932632446,0.19979599543711815,-0.21664703025675475,0.757869623650038,-0.2327424610290702,-0.27950965422900176,-0.9483188723163518
8.008936405181885,0.19312934560538725,-0.21305180084158282,0.7512029404992577,-0.22607579436240355,-0.2728429942112662,-0.941652141706286
8.029000520706177,0.19059126324877182,-0.20948281505552563,0.7445358362561227,-0.2194091276957369,-0.2661764961794579,-0.9349836798220639
8.049386024475098,0.1913067261176913,-0.20614950661734696,0.7412022924201062,-0.21607579436240357,-0.2628432431247085,-0.9316494842782305
8.069530010223389,0.18797318186295497,-0.2094828202952985,0.7378691256988709,-0.21274246102907024,-0.25950984644027586,-0.9283168354692416
8.08952283859253,0.18464009830216713,-0.21281617661962585,0.7345355960134152,-0.2094091276957369,-0.25617658628810197,-0.9249827024950995
8.109621047973633,0.1913072249354231,-0.2061495514938206,0.7278685773271648,-0.20274246102907026,-0.24951004817776784,-0.918314609081464
8.129687070846558,0.18464074389949012,-0.1994830576913628,0.7212017411826394,-0.1960752617352633,-0.24284288043740804,-0.9116475870385727
8.149756908416748,0.17797432036459154,-0.20614954396046184,0.7145349123652268,-0.1894092609274243,-0.23617694015257767,-0.9049798492746458
8.169885396957397,0.1813076233044756,-0.20281638726548837,0.7112015790318935,-0.18607534635426523,-0.23284297824065475,-0.9016468791697587
8.189963817596436,0.1813075449136085,-0.2028163810692787,0.7045349708099882,-0.17940867968759858,-0.2261762918783942,-0.8949804459722689
8.210036039352417,0.17464103712804782,-0.20281657993151847,0.6978681610972921,-0.1727414264724491,-0.21950898068426214,-0.8883135725872311
8.230399131774902,0.1679743553781453,-0.19688374931178632,0.6912014944306255,-0.1660744966443413,-0.21284214240027055,-0.8816471135638491
8.250557899475098,0.1646412269256655,-0.194544139968178,0.6878679889870419,-0.16274116331100796,-0.20950886328089058,-0.878313124686212
8.270597219467163,0.15797430190880157,-0.2012109650198131,0.6812014906020899,-0.1560739735617962,-0.2028415428917759,-0.871647441403449
8.290676355361938,0.15130759164667132,-0.19454460000321308,0.6745348239354233,-0.14940641679235844,-0.19617378921268538,-0.8649813182774411
8.310840368270874,0.14464066495364034,-0.20121140715038274,0.6678683230029566,-0.14273930423483755,-0.18950652674501084,-0.8583155587792668
8.330915451049805,0.14204148103767772,-0.1978780922978604,0.6645348103586565,-0.13940597090150422,-0.1861732447485213,-0.854981554747343
8.351103067398071,0.1363688851613938,-0.19787790689240525,0.6578679309115806,-0.1327398728019011,-0.1795074071484394,-0.8483137973711794
8.37119722366333,0.1297027600863213,-0.19787794147924997,0.6512008880032683,-0.12607320613523446,-0.17284084171993613,-0.8416457754454338
8.391402244567871,0.12636969687972707,-0.19454462495699498,0.6478673465134234,-0.12273987280190113,-0.1695075622959231,-0.8383117151409127
8.411490678787231,0.11970302527117688,-0.1901137218014559,0.6412006798467568,-0.11607315203074693,-0.1628410872432872,-0.8316451591373474
8.431589841842651,0.11303655697896686,-0.18786728311163362,0.6345338579519545,-0.10940677545093745,-0.15617499872039475,-0.8249778410818321
8.45166301727295,0.1063701459840739,-0.18893390816474895,0.6278670010835965,-0.10274048957739595,-0.14950897993906317,-0.8183103409496993
8.471948862075806,0.09970391392104881,-0.1822672645811434,0.6212000149742762,-0.0960738229107293,-0.14284238720741255,-0.8116426227012555
8.492036819458008,0.09637055683533326,-0.17893419314382103,0.6178666816409429,-0.09273992303896941,-0.1395083364350213,-0.8083096500218225
8.512120962142944,0.08970362531282905,-0.1789344362322758,0.6112001821758472,-0.0860727164178037,-0.13284095648977254,-0.8016438734326764
8.532191276550293,0.0830372271118959,-0.1789346950464763,0.6045333250495273,-0.07940554526328267,-0.12617365861762456,-0.7949769220843105
8.552762269973755,0.07970387662120156,-0.17560159235529463,0.601199991716194,-0.07607176779378766,-0.12283974929260527,-0.7916438731437496
8.572835445404053,0.07303717913054014,-0.16893536877588475,0.5945333250495274,-0.06940427990299544,-0.11617204194699376,-0.7849777361830267
8.592940330505371,0.06637051368465335,-0.175602030256788,0.5878666583828608,-0.06273767548069097,-0.10950559015067574,-0.7783110701792422
8.613090991973877,0.0597040879454788,-0.16893562391477482,0.5811996806771318,-0.05607053144401355,-0.10283812399584545,-0.7716438717520795
8.633164882659912,0.05637099230760145,-0.16560229929145476,0.5778660445008433,-0.052737198110680214,-0.09950483952184018,-0.7683097939690734
8.653239488601685,0.0497045533600405,-0.16560214250912186,0.5711990830413513,-0.04607081183272652,-0.09283870339284682,-0.7616422723001366
8.673356294631958,0.04303809881936291,-0.16560234367655355,0.5645321343831933,-0.03940383862182461,-0.08617151611151097,-0.7549751171858448
8.693636655807495,0.036371356253037376,-0.16560234181611966,0.5578654155500794,-0.03273717195515794,-0.0795048546682753,-0.7483083820418175
8.713721513748169,0.03303826198077849,-0.16866711184820612,0.5545317476568768,-0.029403838621824607,-0.07617156380716507,-0.7449743655249718
8.733828783035278,0.03461334458137144,-0.16200044497493424,0.5478641811216011,-0.02273717195515794,-0.06950499163186934,-0.7383062230508828
8.753911972045898,0.02794697298355863,-0.1686668094671011,0.5411968295714755,-0.016070670628521452,-0.06283787084010199,-0.7316381309523083
8.773974895477295,0.02128044037530382,-0.162000562519592,0.5345295038662633,-0.009403566168615488,-0.05617051762970868,-0.7249707590431999
8.794333934783936,0.01794721376332014,-0.1586672312162205,0.5311955239011129,-0.006070232835282154,-0.05283723852067576,-0.721636534272897
8.814260005950928,0.011280417259312427,-0.1586672294564753,0.5245286501220753,0.0005964338313845128,-0.046170586917065506,-0.7149696391683759
8.834901809692383,0.007947178897397284,-0.1620005641797865,0.5211947079225934,0.003929767164717846,-0.04283729661137356,-0.7116355850019044
8.85500955581665,0.0012806064236286913,-0.15533389891490212,0.5145269210941704,0.010596433831384514,-0.03617069963560093,-0.704967739147809
8.875088214874268,-0.005386241409327343,-0.14866723090438044,0.5078591045402039,0.01726310049805118,-0.029504090795357797,-0.6983001225278564
8.89524793624878,-0.012053009936716064,-0.15533318697971457,0.501191890416955,0.023929521216919408,-0.02283722040561217,-0.6916328308627985
8.915294408798218,-0.01232923439901179,-0.15200016138204794,0.49785855708362164,0.027262736907675014,-0.01950538512883613,-0.688299678176605
8.93537425994873,-0.015911440611357873,-0.14533351088637828,0.49119135478966336,0.033929559807802497,-0.012837693270497413,-0.681632736657614
8.955466508865356,-0.022578404264657875,-0.1453328895670872,0.48452417035461565,0.04059628927769351,-0.006169883419449835,-0.6749657959806009
8.975708484649658,-0.029245282154821226,-0.14533369924060324,0.4778570050342374,0.04726275901634945,0.0004947323200275369,-0.6682992515476449
8.995794296264648,-0.032578597771801304,-0.14200068962375068,0.47452367170090404,0.050596011028625994,0.003827320909596232,-0.6649659706706772
9.016050338745117,-0.03924522655178042,-0.13533465804798242,0.4678570050342373,0.05726246444316835,0.010492401783519914,-0.6582993791128628
9.036126136779785,-0.04591185213446881,-0.12866861162310733,0.4611903383675706,0.06392885301263536,0.017157360844201813,-0.6516327494622727
9.056170225143433,-0.05257850980880363,-0.13533537881021587,0.4545236717009039,0.07059558340468325,0.010491107517433436,-0.6582993841486995
9.076263189315796,-0.055911829904105745,-0.1386688684488341,0.45785700503423726,0.06726211497165652,0.013823415456945442,-0.6616327694911139
9.096389770507812,-0.06257845113929857,-0.14533613901595765,0.464523671700904,0.06059514978506934,0.02048819310051939,-0.6682994674037026
9.116465330123901,-0.0692451061870736,-0.15200296958288384,0.464523671700904,0.05392846223612745,0.020488209389361304,-0.6749661032461768
9.136844158172607,-0.07257842231551459,-0.15533660790944961,0.4611903383675706,0.05059498677800311,0.01715413109234706,-0.6782994207629
9.156975269317627,-0.07924506730155294,-0.16200371326770963,0.4545236717009039,0.043927926717526995,0.0238178913694205,-0.6716328606919857
9.177135944366455,-0.08591171280521334,-0.1686709499052823,0.4478570050342372,0.037261000883159784,0.030483399794478283,-0.6649661160958237
9.197190761566162,-0.08797012033126335,-0.1753379514984761,0.4411903383675705,0.03059398763568971,0.037147405196164864,-0.658299511663815
9.2173171043396,-0.08130344816206367,-0.18200491803777066,0.4345236717009038,0.03726036967010246,0.04381203775018325,-0.6516328544959606
9.237411499023438,-0.07797010902809816,-0.18533852342374893,0.4311903383675704,0.040593513865360496,0.047144513510937916,-0.6482994500433489
9.257492542266846,-0.07130342797639844,-0.19200572833649895,0.4245236717009037,0.04725977509542119,0.05380921381931073,-0.641632634516375
9.277600288391113,-0.06463674321890693,-0.19867292655439195,0.417857005034237,0.05392600526146481,0.060473565270474636,-0.634965812575981
9.297658205032349,-0.05797005711810178,-0.19867338179888813,0.4111903383675703,0.060592231816631814,0.06713665152439637,-0.6282991062180495
9.317737579345703,-0.05463671191677781,-0.19534030364555324,0.40785700503423694,0.06392533653779967,0.07046887492905496,-0.6249656680673555
9.33786654472351,-0.06130336659547254,-0.18867386714413564,0.40119033836757023,0.070591804860102,0.0771353225713788,-0.6182988296163048
9.357927083969116,-0.06401835899623834,-0.18200754712320333,0.3945236717009035,0.07725800883482738,0.08379738731230428,-0.6116322154581464
9.378000974655151,-0.057351669877134755,-0.17534118575599603,0.3878570050342368,0.08392427019096119,0.09046074903091361,-0.6049655168749454
9.398126602172852,-0.06068500779973245,-0.1786744710701175,0.38452367170090346,0.08725769621166611,0.09379539975583837,-0.6016321272203398
9.418214559555054,-0.0606849827756493,-0.17867477377656737,0.37785700503423675,0.09392396751324159,0.1004590395090958,-0.5949653902325143
9.438241481781006,-0.06068496819162974,-0.17867496307718897,0.37119033836757004,0.10059042047491927,0.10712552146358466,-0.5882985311338651
9.458320140838623,-0.06735159508246107,-0.17867537005240208,0.36452367170090333,0.10725654368398606,0.10712187025824345,-0.5816316874978398
9.478383541107178,-0.0706849025442698,-0.17534228291229428,0.36119033836757,0.11058955998857652,0.10378651923290495,-0.5782982364193141
9.498560667037964,-0.07735152076168142,-0.16867602143708,0.3678570050342367,0.11725569356082147,0.10280911127155902,-0.5849648485194715
9.5185706615448,-0.08401816764073594,-0.17534286783963696,0.3745236717009034,0.11058881938436829,0.09614180523961573,-0.5916313752456334
9.538744926452637,-0.0906847967054074,-0.18200986751982676,0.3811903383675701,0.10392171200414642,0.10280481024480208,-0.5982979878602948
9.55875015258789,-0.094018143733634,-0.18534307715969164,0.37785700503423675,0.10058855846610452,0.10614001536963477,-0.6016313042812118
9.57887077331543,-0.1006847641424911,-0.19201025853216766,0.37119033836757004,0.10058789168877996,0.11280324424280429,-0.6016309831110656
9.598947763442993,-0.10068473553712344,-0.19867721834144114,0.36452367170090333,0.10725417346373022,0.11946667971482029,-0.594964228510922
9.61911654472351,-0.09401801496279108,-0.20534440348568028,0.3578570050342366,0.11392017059228221,0.12612844553834668,-0.5882973063716223
9.63931941986084,-0.0906846527399029,-0.20867799796418673,0.35452367170090326,0.11725317284437833,0.12945916784565906,-0.5849638479454204
9.665041208267212,-0.08735129978747672,-0.21123039393085405,0.3511903383675699,0.12058632218783988,0.13279011029417875,-0.5816305083420042
9.700714349746704,-0.08735129978747672,-0.21123039393085405,0.3511903383675699,0.12058632218783988,0.13279011029417875,-0.5816305083420042
9.720790147781372,-0.0806846065937124,-0.2101942543011319,0.3445236717009032,0.12725278452110073,0.139453286958642,-0.57496387909196
9.740848541259766,-0.08068458450338824,-0.2035277833061586,0.3378570050342365,0.1339191740964138,0.14611908571759985,-0.5682969990241794
9.761804103851318,-0.0840178823242856,-0.20019471074354903,0.33452367170090314,0.1372521651963562,0.14944963203659922,-0.5649635195302539
9.78206181526184,-0.07735116697319677,-0.1935283668749101,0.3278570050342364,0.14391841852741724,0.15611188985093769,-0.5582967492255245
9.802014350891113,-0.08401783011245413,-0.18686173214616836,0.3211903383675697,0.15058501957583953,0.1627788388848817,-0.5516299995787798
9.822191953659058,-0.09068445539934837,-0.18019530715857465,0.3168620964267076,0.15725135937693388,0.16944193750708453,-0.5582965955889931
9.84227705001831,-0.09068445539934837,-0.18019530715857465,0.3168620964267076,0.15725135937693388,0.16944193750708453,-0.5582965955889931
9.8624107837677,-0.09735098402762621,-0.18686223092602336,0.3235286715464918,0.15058429756072786,0.16277250918727434,-0.5649635553671567
9.882829666137695,-0.10401759065139221,-0.1935292692178313,0.3301953382131585,0.14391710755875947,0.16943407169174357,-0.5716300696769172
9.902696132659912,-0.10735088653420578,-0.19686286351142487,0.33352867154649185,0.140583366695089,0.1727647592470254,-0.5749631902007106
9.922891616821289,-0.11401752709826962,-0.20352974460925072,0.34019533821315856,0.13391632317140711,0.172763788919852,-0.5816295578661024
9.942962884902954,-0.12068412901189579,-0.2101969378608552,0.34686200487982527,0.12724880774555325,0.1660921248214754,-0.5882957405696029
9.963313817977905,-0.12735073602041946,-0.21686412835111527,0.353528671546492,0.12058132410382269,0.15942061227055593,-0.5949619404308868
9.983362913131714,-0.13068404141841392,-0.2201977226385117,0.35686200487982533,0.11724759402554656,0.15608491991681367,-0.5982950462320635
10.003467321395874,-0.13735065592402548,-0.22686490974822837,0.36352867154649204,0.1105801567063563,0.14941367090266336,-0.6049612686058654
10.02357292175293,-0.14401727527497282,-0.23353209554294932,0.37019533821315875,0.10391274900400475,0.1427426137314573,-0.6116275040620512
10.043688535690308,-0.15068389935520424,-0.24019928083609904,0.37686200487982546,0.09724536996217971,0.1360717620435515,-0.6182937510880036
10.063753604888916,-0.1540172131344868,-0.24353287356404993,0.3801953382131588,0.09391169090547309,0.13273641768491518,-0.621626878476107
10.083829402923584,-0.1606838441076217,-0.2502000597532488,0.3868620048798255,0.0872443531885066,0.12606590112431726,-0.6282931400985813
10.10393476486206,-0.16735047955633095,-0.25686724772444325,0.39352867154649224,0.08057704201018692,0.11939562678263066,-0.6349594096815472
10.124232769012451,-0.1706837989329982,-0.2602008426942653,0.3968620048798256,0.07724339614548584,0.1160605853324791,-0.6382925470342868
10.144384622573853,-0.17735044094666894,-0.2668680352687132,0.4035286715464923,0.07057612345780809,0.10939070395743349,-0.6449588260519419
10.164464473724365,-0.1840170872602346,-0.27353523229179444,0.410195338213159,0.06390887568654792,0.10272110512312664,-0.6516251097961762
10.18456244468689,-0.1906837378330388,-0.2802024349440671,0.4168620048798257,0.057241652357150605,0.09605180589363176,-0.6582913971175735
10.204626560211182,-0.19735039264481358,-0.2868696444737062,0.42352867154649243,0.05057445311017831,0.08938282382977335,-0.664957686966882
10.224748373031616,-0.20068372164013165,-0.2902032522264523,0.4268620048798258,0.047240862439365226,0.08604845735136514,-0.6682908325420261
10.244807481765747,-0.20735038282271184,-0.29687047456401655,0.4335286715464925,0.040573698920080864,0.07937998497596578,-0.6749571244653434
10.264927864074707,-0.21401704829810708,-0.30353770720462,0.4401953382131592,0.03390655915832685,0.07271187564092774,-0.6816234168131335
10.285254001617432,-0.22068394096840135,-0.31020466983760314,0.4468615733869757,0.027239664886914327,0.06604464607587665,-0.6882906272893834
10.305423498153687,-0.22401745621376074,-0.3135380099722706,0.45019446897720006,0.023906331553580993,0.06271132859390594,-0.6916246734033074
10.325496673583984,-0.230684414149075,-0.3202046868642634,0.4568602405578939,0.017239664886914325,0.056091038897302034,-0.6982926947979771
10.345627069473267,-0.2317002589223632,-0.32687167704325176,0.46352690722456064,0.010572851704375226,0.06275437329426532,-0.7049594174010211
10.365690469741821,-0.2383668604453781,-0.3335383403925902,0.4701930884242916,0.0039061367467601578,0.06189160235420946,-0.711626705207451
10.385761260986328,-0.23529627562066377,-0.33687167616749414,0.47352642175762494,0.000572847516565546,0.06522299619664505,-0.7149601951178444
10.405874252319336,-0.23586609068581413,-0.343538451286122,0.48019308842429165,-0.0060939981628807885,0.07189255976947014,-0.721626453350262
10.425950050354004,-0.23880223624018956,-0.35020546505161765,0.48685975509095836,-0.01276094905497363,0.0782242838942626,-0.7282928679250493
10.44605278968811,-0.2351114427585917,-0.3568724930977306,0.49352642175762507,-0.019427940975318525,0.08489058733415247,-0.7349592400335573
10.466216802597046,-0.23177814801825114,-0.3602062086068103,0.4968597550909584,-0.02276168225562216,0.08822495348779749,-0.7382921205977767
10.486383199691772,-0.2315714616241596,-0.3668730276645329,0.5035264217576251,-0.029428588637346407,0.09489485083764627,-0.7449583744155275
10.506431341171265,-0.22660512836079064,-0.37353984398030143,0.5101930884242917,-0.036095456911752005,0.10156273864669656,-0.7516247796794518
10.52651071548462,-0.21993848333199253,-0.3802066636495419,0.5168597550909583,-0.042762300732796556,0.1082288567468941,-0.7582913056038004
10.546619415283203,-0.2173985991471492,-0.3868735310352612,0.5235264217576249,-0.04942932058619363,0.1148996703018502,-0.764957408264566
10.566669702529907,-0.21406526193597902,-0.39020684920340176,0.5268597550909582,-0.05276259875872557,0.11823135836732535,-0.7682908823757373
10.58675241470337,-0.20739866058168838,-0.3968738725809836,0.5335264217576248,-0.05942982709696321,0.1249008201476407,-0.7749568595481728
10.606878757476807,-0.20131801378352493,-0.4035408364065783,0.5401930884242914,-0.06609702846270042,0.13157232282167847,-0.7816227597905299
10.626928329467773,-0.19551206130479118,-0.4102076088296191,0.546859755090958,-0.07276384464184486,0.1382380999448512,-0.7882893262078744
10.648358583450317,-0.19217877716299558,-0.413541161449439,0.5501930884242913,-0.0760975683672986,0.14157342259788733,-0.791622182352049
10.668463945388794,-0.18551221999121403,-0.4202082932384869,0.5568597550909579,-0.0827650871355202,0.14824443949029875,-0.798287809859195
10.688567638397217,-0.17884560099516952,-0.42687514854048725,0.5635264217576245,-0.0894321178319085,0.1549133442946934,-0.8049540157107488
10.708695888519287,-0.17217898951153696,-0.4335420219078896,0.5701930884242911,-0.09609919509994232,0.16158249419244555,-0.8116201668133186
10.728739738464355,-0.16551238646392818,-0.44020891505217313,0.5768597550909577,-0.10276632371791421,0.1682519025407841,-0.8182862583934797
10.748808145523071,-0.16217908841046558,-0.4435423695941271,0.580193088424291,-0.1060999088556001,0.17158670763407136,-0.8216192803146626
10.768937587738037,-0.15551249990084628,-0.45020929578409186,0.5868597550909576,-0.11276712414470814,0.1782565279243638,-0.8282852731305279
10.78900671005249,-0.1555125625576011,-0.4568761570397067,0.5935264217576242,-0.11943421647710031,0.18492656289403991,-0.8349513783227918
10.809086084365845,-0.15551257474213734,-0.46354287462276056,0.6001930884242908,-0.12610098484408314,0.19159194732236012,-0.841618000959097
10.829177141189575,-0.15217929706354913,-0.46687637361081996,0.603526421757624,-0.12943468844390402,0.19492727012159297,-0.8449508909648048
10.849317073822021,-0.14551275267244262,-0.4735433946590369,0.6101930884242907,-0.1361021580520583,0.201598173722133,-0.8516166026435624
10.869372367858887,-0.15217952156056888,-0.4802103401796803,0.6168597550909573,-0.14276946779479946,0.208269257533174,-0.858282466013966
10.889462947845459,-0.14551288050045427,-0.48687708606983826,0.6235264217576238,-0.1494363291951515,0.21493487587925184,-0.8649489874539545
10.909571170806885,-0.14884625363728948,-0.49021051832164086,0.6268597550909571,-0.15276989065385735,0.21353004983733734,-0.8682820123096245
10.929657936096191,-0.1488462565872623,-0.49687719858034685,0.6335264217576237,-0.15943659591099038,0.21559612266094538,-0.874948667822019
10.949968814849854,-0.14884634529204435,-0.5035440859563194,0.6401930884242903,-0.166103773885578,0.21878276972767094,-0.8816146984851403
10.969842672348022,-0.14884635267938642,-0.5102107767369642,0.646859755090957,-0.17277050599594598,0.22198005513690233,-0.8882813187567664
10.990424633026123,-0.14551307091234883,-0.5135442374086094,0.6501930884242902,-0.17610414000479746,0.22531496654920824,-0.8916143025885465
11.010540246963501,-0.15217985321481428,-0.5202111793469492,0.6568597550909568,-0.18277144876574478,0.22758860174970855,-0.8982801918603436
11.030714511871338,-0.14551320244649885,-0.5268778875125808,0.6635264217576234,-0.18943822793778253,0.2342549842173433,-0.9049467604352716
11.05071210861206,-0.1521800088329348,-0.5335448758478796,0.67019308842429,-0.19610565357332588,0.2382001415351726,-0.9116125296073315
11.070964813232422,-0.14884662121220266,-0.5368780881674031,0.6735264217576233,-0.1994387093112258,0.24153133699879525,-0.9149462043945732
11.091273784637451,-0.14884677362320373,-0.543545098200823,0.6801930884242899,-0.20610619500609897,0.2472496575586578,-0.9216119209070455
11.111243724822998,-0.14884680385640606,-0.5502118383226217,0.6868597550909565,-0.21277305726103046,0.25272522015196625,-0.9282783886714455
11.13148546218872,-0.1488469863608525,-0.556878904927589,0.6935264217576231,-0.21944069329231594,0.2584394876423235,-0.934943953485922
11.151898384094238,-0.15218037308529272,-0.5602123549494964,0.6968597550909564,-0.2227743146371786,0.260578755413831,-0.9382769654385527
11.17197871208191,-0.1455136882074683,-0.5668789855067548,0.703526421757623,-0.229440912807484,0.2672444126240654,-0.9449437295762539
11.192087411880493,-0.15218051829667298,-0.573545998323791,0.7101930884242896,-0.23610842656935685,0.2739155266316779,-0.9516094456521221
11.212193965911865,-0.1455138380993304,-0.5802126397610992,0.7168597550909562,-0.2427750534486264,0.28058136094626773,-0.9582761750303419
11.232386350631714,-0.15218064359978964,-0.5868795957625691,0.7235264217576228,-0.24944244657418227,0.28356970695662675,-0.9649420459391085
11.25248670578003,-0.14884721415375485,-0.5902127325883696,0.7268597550909561,-0.2527753030974119,0.28690043391989206,-0.9682759108498094
11.272565841674805,-0.1488473616088079,-0.5968797035974532,0.7335264217576227,-0.2594427408036543,0.29357050172500065,-0.9749417419160847
11.292625904083252,-0.14884734946435596,-0.6035463500968485,0.7401930884242893,-0.26610937987752326,0.30023650964201126,-0.9816084505074546
11.31273078918457,-0.14551410968272407,-0.6068798754239527,0.7435264217576226,-0.26944321522796283,0.30357176758670457,-0.9849412505890424
11.332979917526245,-0.15218096810109144,-0.6135469314493214,0.7501930884242892,-0.27611088750093243,0.3064765603774195,-0.9916068453527251
11.353237628936768,-0.14551427518023924,-0.6202135489015226,0.7568597550909558,-0.282777459232879,0.31314222542930026,-0.9982736278593846
11.373109102249146,-0.1521811122741186,-0.6268805585726289,0.7635264217576224,-0.2894450190333531,0.31981241448595754,-1.0049393517000045
11.393545866012573,-0.14551441249994007,-0.6335471626376465,0.7694191578998048,-0.2961115541000318,0.3264780215123499,-1.0116061691261544
11.41368556022644,-0.14884782343965253,-0.636880650303228,0.7720139304376136,-0.2994452865338153,0.3298129897214432,-1.0149390829802984
11.43373990058899,-0.14884784407111856,-0.6435473683051623,0.7776825590549749,-0.30611216515028217,0.3364792357565066,-1.0216055506078963
11.453917741775513,-0.1488481078031507,-0.6502145538027618,0.783052497710482,-0.3127801568138037,0.34255932128178723,-1.0282708320223715
11.473966836929321,-0.15218151888757495,-0.653548042618278,0.7848854425004385,-0.31611390988086013,0.3450273719150214,-1.0316037340677937
11.494089603424072,-0.14551494105838086,-0.6602148977700091,0.7915521091671051,-0.32278117467835804,0.3516948342502469,-1.0382698086226199
11.51418924331665,-0.15218158192708986,-0.6668815088908875,0.7920225254123927,-0.3294476592201055,0.35836132844301805,-1.0449366561713596
11.534252643585205,-0.1455150979096283,-0.6735485436374721,0.7986891920790593,-0.336115356273363,0.3650311591098504,-1.0516022853456575
11.554543733596802,-0.1521817800492884,-0.680215237660831,0.8003722950711519,-0.34278206797125826,0.3716983709096774,-1.0582689035060022
11.574542999267578,-0.14884853571402704,-0.6835487517088606,0.8037056284044852,-0.3461159187298384,0.3750331790449469,-1.061601721565721
11.594673871994019,-0.14884853265286943,-0.6902154115578829,0.8058536460007433,-0.3527825622789718,0.3816998233809385,-1.0682684100927906
11.614707708358765,-0.14884866979329295,-0.6968823562421287,0.8081201951707088,-0.3594500164389387,0.38836887952091764,-1.0749342990948911
11.634755611419678,-0.1488489073577964,-0.7035494968451884,0.8135646229688539,-0.36611794923397617,0.39504024700209245,-1.0815997175219494
11.65483832359314,-0.15218234402265643,-0.7068830412536633,0.8154646079871846,-0.36945188524172795,0.39837536001819973,-1.0849324603010113
11.674930095672607,-0.15884920844854336,-0.7135501133530024,0.8221312746538512,-0.37611971165690405,0.4050454282873653,-1.091597994201149
11.695029973983765,-0.16551606571421248,-0.7202171727397365,0.8287979413205178,-0.38278750480770374,0.41171535016483546,-1.0982635632304025
11.715087175369263,-0.17026311941360703,-0.7268842643634291,0.8354646079871844,-0.3894554075923159,0.41838539361524013,-1.1049290291226745
11.735180616378784,-0.17359656223972755,-0.730217825241978,0.8387979413205177,-0.3927893905627114,0.4217206122840657,-1.1082617323973905
11.755267858505249,-0.17793829510177323,-0.7368846950636055,0.8454646079871843,-0.39945667237867716,0.42838872339770606,-1.1149278034760257
11.77535104751587,-0.1834949179172857,-0.7414084882771664,0.8520886051638676,-0.39719875557048634,0.43721133873559387,-1.1300940966734698
11.795385122299194,-0.1875661973945855,-0.7439253068625621,0.8553825036652344,-0.39763634423090966,0.44062422876824864,-1.1362610688654216
11.815879106521606,-0.19562013735802378,-0.7488957560784867,0.861986063037046,-0.3978672669425871,0.45498004846628726,-1.1491675354636328
11.83578372001648,-0.20388469149958,-0.7537690727990355,0.8685854385855444,-0.39762293187240516,0.463564488838895,-1.162542592805732
11.855943202972412,-0.1990966571676925,-0.7567967562237606,0.8752360132831631,-0.3878314888991193,0.4791529284150159,-1.1845567575565412
11.875967264175415,-0.19707000498471397,-0.7579488656229165,0.8785101211226356,-0.38466298383094055,0.47943147469465835,-1.1938890111664424
11.896073818206787,-0.19928003880291004,-0.7611099039727849,0.885084966104677,-0.3786030621307891,0.49160387115121085,-1.2124365607222107
11.916147232055664,-0.2076052592882414,-0.7655867558824047,0.8917020473517987,-0.37536875344432835,0.5135603112054199,-1.2284520114348567
11.937193632125854,-0.209280725058783,-0.7698913488009765,0.898337480045093,-0.3707566222853587,0.5331048308009169,-1.2455781744428618
11.957321643829346,-0.20687219785408087,-0.7715370829170711,0.9016788923171646,-0.36479333613121756,0.5408872288456518,-1.2573222552725802
11.97739315032959,-0.20278413165151649,-0.7742230184885047,0.9082531075215726,-0.3562797077911306,0.5425409918345266,-1.277601828656704
11.99746561050415,-0.19864644327559283,-0.7773917179709421,0.9147918285845626,-0.3502621917487139,0.5490745835065579,-1.2957216552564774
