liuyurong129/humanoid-gym/humanoid/data/robot1_action_20250621-222252.csv
timestamp,joint_1,joint_2,joint_3,joint_4,joint_5,joint_6
0.00014472007751464844,0.0,0.0,0.0,0.0,0.0,0.0
0.020258426666259766,0.0,0.0,0.0,0.0,0.0,0.0
0.040311574935913086,0.0,0.0,0.0,0.0,0.0,0.0
0.06044173240661621,0.0,0.0,0.0,0.0,0.0,0.0
0.08051490783691406,0.0,0.0,0.0,0.0,0.0,0.0
0.1006019115447998,1.3298875,-0.9307179,0.7302446,2.5537727,1.8532199,0.943713
0.12069487571716309,1.3298875,-0.9307179,0.7302446,2.5537727,1.8532199,0.943713
0.14087939262390137,2.166619,-1.1750451,1.2393839,3.1714823,3.2983763,2.3338108
0.16089582443237305,2.331102,-1.2051432,1.5678838,3.8393202,3.8249037,2.5039349
0.1810622215270996,2.386741,-1.292274,1.6111861,3.949044,4.0652485,2.2600992
0.2012336254119873,2.3476439,-1.3699856,1.6093442,3.9189343,4.038911,2.0489473
0.22133135795593262,2.330516,-1.4053622,1.5800158,3.8574996,4.01186,1.9808815
0.24138092994689941,2.3277743,-1.4277943,1.5376115,3.7874517,4.0154524,2.01305
0.2614471912384033,2.3277743,-1.4277943,1.5376115,3.7874517,4.0154524,2.01305
0.2815406322479248,2.3311331,-1.4498712,1.4805688,3.710765,4.067444,2.126192
0.30161333084106445,2.336459,-1.4724183,1.4068321,3.6266868,4.166158,2.3052351
0.3217189311981201,2.3252826,-1.4970689,1.304299,3.5208554,4.3315015,2.5607333
0.341810941696167,2.2606995,-1.5176483,1.0946178,3.3589613,4.53285,2.9331765
0.36193180084228516,2.1765509,-1.5347015,0.67462915,3.082673,4.7051826,3.3970428
0.382082462310791,2.0071998,-1.5418025,-0.08122928,2.5622518,4.911812,4.097676
0.4024946689605713,1.8118862,-1.5750054,-0.59086746,2.0608296,5.2446766,5.140441
0.42258524894714355,1.8118862,-1.5750054,-0.59086746,2.0608296,5.2446766,5.140441
0.4427022933959961,1.6549511,-1.6324325,-1.253985,1.8282909,4.9051485,5.454755
0.4627707004547119,1.5946536,-1.5969806,-1.608044,1.7908435,4.742017,5.6483192
0.48290014266967773,1.5773785,-1.599142,-1.7070498,1.8717672,4.617121,5.5932684
0.5032272338867188,1.4597628,-1.6319717,-1.6787026,1.9228349,4.5047812,5.4788365
0.5231380462646484,1.0080973,-1.75735,-1.4606203,1.9972078,4.0392375,4.9691277
0.5432605743408203,0.2893267,-1.9685053,-1.0318106,2.0892355,3.4928608,4.3878765
0.5634279251098633,-0.43173245,-2.159721,-0.5551675,2.1272264,2.9692636,4.1151104
0.5835726261138916,-0.43173245,-2.159721,-0.5551675,2.1272264,2.9692636,4.1151104
0.6036112308502197,-0.6695683,-2.2644098,-0.03631238,2.3851132,2.9644063,3.684956
0.6237223148345947,-0.9873167,-2.4872456,0.5092354,2.5708587,2.9067953,3.109877
0.6439356803894043,-0.91289544,-2.2285743,-0.11158595,2.5954041,3.347678,2.8131351
0.6641967296600342,-0.3407503,-2.4036117,0.5714771,2.643149,3.8043714,3.004098
0.684110164642334,-0.5397488,-2.2229266,0.08491613,2.597847,3.5822227,2.399424
0.7042100429534912,-0.5397488,-2.2229266,0.08491613,2.597847,3.5822227,2.399424
0.724301815032959,-0.8077207,-2.2825851,-0.03476032,2.5477693,3.3606062,2.295474
0.7443985939025879,-0.80659366,-2.5927372,0.7593221,2.6499114,3.341285,2.5292819
0.7644772529602051,-1.0515598,-2.486812,0.42136163,2.647018,3.1327336,1.8839496
0.7845635414123535,-0.8410646,-2.6012912,0.49113607,2.5874958,3.2539494,1.9642547
0.8046708106994629,-0.5645313,-2.5735412,0.5260662,2.5880995,3.307064,2.1563737
0.8253602981567383,-0.3328747,-2.4598556,0.45514005,2.546813,3.3852234,2.3701837
0.8454678058624268,-0.3328747,-2.4598556,0.45514005,2.546813,3.3852234,2.3701837
0.8655543327331543,-0.101279944,-2.3241215,0.28092945,2.444138,3.502929,2.6900592
0.8856613636016846,0.122752994,-2.1172419,-0.19818397,2.24675,3.6222064,3.285174
0.9059560298919678,-0.1278986,-2.4155188,0.25867555,2.0542758,3.2293932,4.1695075
0.9259107112884521,-0.21243474,-1.2749021,-0.84761053,2.5362492,2.4963465,2.8978539
0.9460268020629883,-0.8696123,-2.4379315,0.106663756,2.3717713,1.3211707,1.830316
0.9661617279052734,-0.8696123,-2.4379315,0.106663756,2.3717713,1.3211707,1.830316
0.9862124919891357,-1.7291452,-2.336801,-0.2425788,2.495984,1.1149496,1.9855857
1.0062966346740723,-2.1405184,-2.8744478,0.7332591,2.5106463,0.8317098,1.5791092
1.0264043807983398,-2.435858,-2.7798243,0.25451854,2.4853134,1.0218238,1.6403216
1.0464997291564941,-2.3709073,-2.6521463,-0.11134719,2.505655,1.2257133,1.9449438
1.0665502548217773,-2.107042,-2.8711324,0.6873066,2.5881786,1.3595461,1.9349262
1.0866410732269287,-2.107042,-2.8711324,0.6873066,2.5881786,1.3595461,1.9349262
1.1067276000976562,-1.6713767,-2.2736807,-0.19487926,2.5154326,0.9326176,1.9723821
1.1269242763519287,-1.8582047,-2.654295,0.54572123,2.5446963,0.35717788,1.5469891
1.1484692096710205,-1.7937596,-2.2767806,-0.20781799,2.3960915,0.33195034,1.876181
1.1685266494750977,-2.1519082,-2.7770696,0.54726875,2.458289,-0.36107394,1.1923128
1.1886451244354248,-2.0445483,-2.5094519,-0.12437206,2.2313108,0.15578833,1.6732007
1.2088844776153564,-1.9774553,-2.7892113,0.59897393,2.380402,0.16618183,1.3022346
1.2290523052215576,-1.9774553,-2.7892113,0.59897393,2.380402,0.16618183,1.3022346
1.2491233348846436,-1.452359,-2.321693,-0.21909644,2.1329236,0.77711743,1.8102114
1.2691938877105713,-1.4773965,-2.611333,0.42956668,2.2907848,0.21520147,1.3839705
1.2893569469451904,-1.5671561,-2.5429535,0.16591014,2.1600986,0.7853291,1.9671495
1.309380292892456,-1.2921289,-1.9826566,-0.5356503,2.3221972,0.8540531,2.4978611
1.3294765949249268,-1.1477457,-2.5117698,0.24617243,2.2769485,0.41122344,1.7776457
1.349543809890747,-1.1477457,-2.5117698,0.24617243,2.2769485,0.41122344,1.7776457
1.3696424961090088,-1.3123865,-2.0522628,-0.4674586,2.1437764,0.7937878,2.5624568
1.389793872833252,-1.1357629,-2.579193,0.19017383,2.0928497,0.76056224,2.5490332
1.4099023342132568,-1.3790268,-2.35996,0.011550227,1.9112418,0.65242624,1.3862157
1.4302597045898438,-1.4569508,-2.9004917,0.611214,2.119753,0.494062,0.31851324
1.450150489807129,-1.8437626,-2.4859247,0.25322288,2.2254772,0.33993694,-0.5051696
1.470452070236206,-1.8437626,-2.4859247,0.25322288,2.2254772,0.33993694,-0.5051696
1.4906296730041504,-1.4972954,-2.0396545,0.02144053,2.9032993,0.2655966,-0.3098121
1.5106842517852783,-0.95720357,-2.2141094,0.18184876,2.9906156,0.43646404,-0.23963885
1.530791997909546,-0.9966097,-2.0590105,0.035875678,3.2514346,-0.35233882,-1.300382
1.5508613586425781,-1.0762408,-2.345428,0.26953772,3.4331498,-1.7429147,-2.6506586
1.570971965789795,-1.3209848,-1.9685736,0.13907635,4.2506533,-3.0590212,-3.6901867
1.5912530422210693,-0.65724874,-1.6784363,0.1539834,5.0007567,-3.7752151,-4.487452
1.6113383769989014,-0.65724874,-1.6784363,0.1539834,5.0007567,-3.7752151,-4.487452
1.63142728805542,-0.00707665,-1.5865031,0.2468515,5.3298593,-4.5780416,-4.97243
1.6518347263336182,-0.28451672,-1.4680183,0.23468807,5.738897,-4.833158,-5.665233
1.671720266342163,0.34857225,-1.4302312,0.30616888,6.0315795,-5.482764,-5.352047
1.691784143447876,0.35228392,-1.2525697,0.280644,6.37431,-5.4831147,-5.4887853
1.7124414443969727,0.35228392,-1.2525697,0.280644,6.37431,-5.4831147,-5.4887853
1.7325654029846191,0.19143483,-1.3069557,0.2821327,6.4494486,-5.568269,-5.7055006
1.7526755332946777,-0.45655918,-1.5994145,0.28308505,6.2818627,-5.622256,-6.0338993
1.7730274200439453,-0.9165946,-2.1096053,0.30555046,5.8376184,-5.743733,-6.149285
1.792903184890747,-0.9650475,-1.7476631,0.32365704,6.2601585,-6.1916895,-6.224502
1.8130176067352295,-0.5073845,-1.6241769,0.33825547,6.731218,-6.479508,-6.0556364
1.8334014415740967,-0.5073845,-1.6241769,0.33825547,6.731218,-6.479508,-6.0556364
1.853311538696289,-0.34566033,-1.7739757,0.3433239,6.7607093,-6.507975,-6.0358152
1.8735613822937012,-0.31054857,-1.7787403,0.34820563,6.741093,-6.5053186,-5.992666
1.8994207382202148,-0.21396361,-1.730822,0.3543334,6.807273,-6.529632,-5.937112
1.9195122718811035,-0.21396361,-1.730822,0.3543334,6.807273,-6.529632,-5.937112
1.9396171569824219,-0.6362418,-1.7191678,0.34924597,6.9033947,-6.584562,-6.2118397
1.959697961807251,-0.5320857,-1.8631703,0.36314854,6.749618,-6.617146,-6.21957
1.979797124862671,-0.46990275,-1.8493396,0.3691857,6.760567,-6.6260457,-6.1503434
2.0002403259277344,-0.46990275,-1.8493396,0.3691857,6.760567,-6.6260457,-6.1503434
2.02034330368042,-0.34221566,-1.7853642,0.3748432,6.8629413,-6.654981,-6.0900903
2.0404622554779053,-0.24384353,-1.7573514,0.37898272,6.96377,-6.6870255,-6.0620747
2.0609307289123535,-0.57308596,-1.6849997,0.37738496,7.1376996,-6.8225627,-6.2774353
2.0811142921447754,-0.09167841,-1.6069455,0.39669475,7.292127,-6.962216,-6.0485816
2.101240634918213,-0.3707513,-1.6367534,0.38974237,7.4224925,-7.0398793,-6.21418
2.1212189197540283,0.28445828,-1.4077468,0.41471577,7.729461,-7.2145085,-5.808656
2.141303539276123,0.28445828,-1.4077468,0.41471577,7.729461,-7.2145085,-5.808656
2.161447286605835,0.5188866,-1.2038696,0.41144675,8.163905,-7.247103,-5.642781
2.181760549545288,0.89971536,-0.9973174,0.40375683,8.481425,-7.165158,-5.354868
2.2017157077789307,1.032118,-1.0058281,0.42432088,8.554602,-7.2854,-5.20197
2.2217907905578613,1.0113724,-1.0114534,0.43399537,8.605123,-7.3749447,-5.1499586
2.241868495941162,1.1404239,-0.8317759,0.366838,8.721446,-6.993998,-5.060496
2.2620465755462646,1.1404239,-0.8317759,0.366838,8.721446,-6.993998,-5.060496
2.282166004180908,1.2658575,-0.7776374,0.3445698,8.732071,-6.8511004,-4.946562
2.3022286891937256,1.3289914,-0.82035065,0.3432855,8.632841,-6.695526,-4.825269
2.3229618072509766,1.3263973,-0.80541635,0.34647995,8.6034155,-6.6693873,-4.754059
2.3430652618408203,1.3379507,-0.78526413,0.3523066,8.622638,-6.70054,-4.7128825
2.3631374835968018,1.3577302,-0.7647642,0.36093897,8.661723,-6.762092,-4.684916
2.383371353149414,1.3799667,-0.7453127,0.37170988,8.707292,-6.8386474,-4.6615734
2.4035255908966064,1.3799667,-0.7453127,0.37170988,8.707292,-6.8386474,-4.6615734
2.4236624240875244,1.4030222,-0.7275355,0.38362586,8.751932,-6.918272,-4.639732
2.4437036514282227,1.4241871,-0.7131495,0.39630795,8.7919855,-6.995647,-4.618541
2.463831663131714,1.1815223,-1.0602705,0.45571023,8.569636,-6.9717298,-4.6993876
2.483907699584961,0.8786191,-1.1623487,0.4863686,8.419567,-7.0225,-4.761741
2.503960609436035,0.5845234,-1.2175763,0.50866026,8.3613825,-7.1310554,-4.871176
2.5243024826049805,0.5845234,-1.2175763,0.50866026,8.3613825,-7.1310554,-4.871176
2.5443029403686523,0.64550304,-1.0989621,0.517657,8.487076,-7.3501062,-5.0602427
2.564333438873291,0.75743175,-0.95338464,0.5298378,8.766076,-7.6213336,-5.1243844
2.584887981414795,0.66386724,-0.94031614,0.54628646,9.008863,-7.8831444,-5.1447277
2.6047780513763428,0.65058476,-0.92986095,0.55712396,9.165855,-8.038409,-5.158915
2.6248562335968018,0.6348865,-0.9213104,0.56427366,9.269069,-8.133851,-5.166865
2.644942283630371,0.5993961,-0.91616625,0.56979513,9.339915,-8.203749,-5.177841
2.665022373199463,0.5993961,-0.91616625,0.56979513,9.339915,-8.203749,-5.177841
2.6851329803466797,0.43449518,-0.99464965,0.58998424,9.378675,-8.331093,-5.2580705
2.7052760124206543,0.26126978,-1.0143616,0.5996353,9.430427,-8.4455,-5.3401804
2.7253174781799316,0.16448453,-0.93961996,0.5879816,9.5557995,-8.547865,-5.3589544
2.7454206943511963,0.21150306,-0.93885994,0.6055811,9.671035,-8.746566,-5.47209
2.765486240386963,0.06869474,-1.0059108,0.62157774,9.785628,-8.907369,-5.575582
2.7855608463287354,-0.143697,-1.0800686,0.63762563,9.85534,-9.080035,-5.682161
2.805680513381958,-0.143697,-1.0800686,0.63762563,9.85534,-9.080035,-5.682161
2.825739622116089,-0.36474922,-1.13926,0.65047354,9.89705,-9.240649,-5.7981224
2.845836639404297,-0.0017327954,-1.0763838,0.6742566,10.031352,-9.512573,-5.577208
2.8659331798553467,-0.38275996,-1.2107587,0.6709904,9.9649,-9.393757,-5.742697
2.885974168777466,-0.14351448,-1.1311336,0.69213194,10.090012,-9.653719,-5.6035357
2.906062602996826,-0.5847843,-1.2680954,0.6874419,10.023819,-9.553771,-5.8166075
2.9261884689331055,-0.5847843,-1.2680954,0.6874419,10.023819,-9.553771,-5.8166075
2.946244478225708,-0.356074,-1.1900064,0.7099857,10.14935,-9.828468,-5.7056
2.966440439224243,-0.20742252,-1.1960921,0.7179558,10.197562,-9.854546,-5.603172
2.986429214477539,-0.7758541,-1.3297836,0.71107227,10.093758,-9.740198,-5.8643026
3.0065064430236816,-0.59878826,-1.2523862,0.73442733,10.230908,-10.048176,-5.8098874
3.0266876220703125,-0.47714826,-1.2606066,0.74162203,10.294414,-10.098855,-5.738908
3.046950578689575,-0.44300833,-1.2573196,0.7475495,10.337494,-10.12023,-5.697476
3.067064046859741,-0.44300833,-1.2573196,0.7475495,10.337494,-10.12023,-5.697476
3.087188482284546,-0.509677,-1.2471455,0.7444747,10.479501,-10.19643,-5.72052
3.10793399810791,-0.49551865,-1.220737,0.7491042,10.702033,-10.377949,-5.7707505
3.128009080886841,-0.19164893,-1.129952,0.74871665,10.830935,-10.390936,-5.7313743
3.14811110496521,-0.25491264,-1.1867772,0.73265857,10.607371,-10.015353,-5.8460073
3.1682145595550537,-0.25491264,-1.1867772,0.73265857,10.607371,-10.015353,-5.8460073
3.188275098800659,-0.42747167,-1.3423302,0.7587074,10.156919,-9.778023,-5.803335
3.208522319793701,-0.42062393,-1.2128332,0.7659364,10.524518,-10.14286,-5.782398
3.2288029193878174,-0.54363394,-1.2844921,0.77302104,10.71538,-10.376756,-5.832006
3.2489094734191895,-0.48658565,-1.2815112,0.7760735,10.804047,-10.468487,-5.8089046
3.268994092941284,-0.4030532,-1.2478799,0.78157634,10.879539,-10.549183,-5.747447
3.289309024810791,-0.43034765,-1.2138804,0.78869027,11.035157,-10.695944,-5.7359076
3.3092377185821533,-0.43034765,-1.2138804,0.78869027,11.035157,-10.695944,-5.7359076
3.3293442726135254,-0.4060879,-1.1865212,0.79615134,11.167638,-10.801043,-5.6920137
3.349433183670044,-0.22520733,-1.0503588,0.80065477,11.261666,-10.835706,-5.474095
3.3695125579833984,-0.5749306,-1.1145809,0.7817486,11.2726145,-10.788377,-5.701191
3.389591693878174,-0.17993978,-1.0062475,0.80399173,11.356699,-10.888174,-5.4431577
3.4097180366516113,-0.17993978,-1.0062475,0.80399173,11.356699,-10.888174,-5.4431577
3.4297807216644287,-0.45802215,-1.0587121,0.7782465,11.298486,-10.8025,-5.6815925
3.449875831604004,-0.09675869,-0.96754014,0.7991094,11.340437,-10.862057,-5.404228
3.4699440002441406,-0.3737432,-1.0245643,0.78144103,11.355892,-10.805351,-5.6344714
3.490049123764038,-0.38318357,-0.9888528,0.7903719,11.409036,-10.89398,-5.6326017
3.510561943054199,-0.28606656,-0.966439,0.7941012,11.448626,-10.920633,-5.5881042
3.5307583808898926,-0.28606656,-0.966439,0.7941012,11.448626,-10.920633,-5.5881042
3.550771474838257,-0.4605042,-0.9956323,0.792114,11.464494,-10.941649,-5.7105427
3.5708348751068115,-0.18280086,-0.9781525,0.8292269,11.490477,-11.063955,-5.444529
3.5909318923950195,-0.43856218,-1.01871,0.8065228,11.465561,-10.95198,-5.6596274
3.611055374145508,-0.1721386,-0.9657435,0.833487,11.50944,-11.082798,-5.4208403
3.6313581466674805,-0.49196473,-1.0559455,0.8296979,11.483628,-11.01479,-5.650819
3.651439905166626,-0.49196473,-1.0559455,0.8296979,11.483628,-11.01479,-5.650819
3.671555757522583,-0.19820365,-0.97083306,0.8471096,11.543795,-11.164562,-5.444862
3.691619634628296,-0.5150772,-1.0646288,0.841724,11.536637,-11.083938,-5.67255
3.7117197513580322,-0.27712837,-1.0212457,0.86672276,11.60782,-11.233688,-5.496273
3.7317888736724854,-0.5746485,-1.0788932,0.8583414,11.608424,-11.199633,-5.725665
3.7518720626831055,-0.1935347,-0.9582063,0.862361,11.610493,-11.241898,-5.408285
3.772165060043335,-0.37273887,-1.0059967,0.8453077,11.555679,-11.120888,-5.5836396
3.792248010635376,-0.37273887,-1.0059967,0.8453077,11.555679,-11.120888,-5.5836396
3.812345266342163,-0.48080376,-0.9886212,0.83702046,11.54493,-11.122002,-5.611459
3.8324244022369385,-0.22260138,-1.0166291,0.8822816,11.659976,-11.279062,-5.4693213
3.85272216796875,-0.62455195,-1.1417823,0.89294165,11.6894865,-11.329617,-5.7871237
3.8726954460144043,-0.38865426,-1.0583099,0.9094173,11.762747,-11.478592,-5.5995817
3.8930249214172363,-0.74358404,-1.1659975,0.9093903,11.773358,-11.479,-5.8659835
3.9133527278900146,-0.74358404,-1.1659975,0.9093903,11.773358,-11.479,-5.8659835
3.933476686477661,-0.47170535,-1.0782756,0.9260196,11.839791,-11.601454,-5.656659
3.953559398651123,-0.37267753,-1.1041054,0.93394405,11.856719,-11.578148,-5.6143937
3.973721981048584,-0.7682486,-1.1931317,0.9293633,11.8623705,-11.579493,-5.853328
3.993776321411133,-0.50330794,-1.104897,0.948397,11.931915,-11.704841,-5.64843
4.013884544372559,-0.30011824,-1.1180937,0.95897186,11.95089,-11.686302,-5.52519
4.033923625946045,-0.7296711,-1.229189,0.94921,11.949632,-11.663845,-5.7921276
4.054025411605835,-0.7296711,-1.229189,0.94921,11.949632,-11.663845,-5.7921276
4.074131727218628,-0.41495457,-1.0826683,0.96377987,12.022977,-11.786623,-5.575769
4.094224452972412,-0.7734777,-1.2447177,0.9606481,12.020428,-11.752689,-5.826041
4.114512205123901,-0.38807562,-1.0701764,0.97231424,12.0967455,-11.859778,-5.557458
4.1344945430755615,-0.7609829,-1.2651615,0.9714506,12.070556,-11.801399,-5.807258
4.15470027923584,-0.36710748,-1.0753447,0.9832647,12.152383,-11.911402,-5.524718
4.175246238708496,-0.74506086,-1.2773268,0.98107857,12.113974,-11.850815,-5.7809105
4.1953253746032715,-0.74506086,-1.2773268,0.98107857,12.113974,-11.850815,-5.7809105
4.215415000915527,-0.36351362,-1.0911676,0.99525785,12.199426,-11.957176,-5.4978404
4.235547065734863,-0.7623381,-1.3006878,0.9923002,12.146948,-11.894098,-5.762673
4.2556092739105225,-0.38810083,-1.1106062,1.0078644,12.24026,-12.009647,-5.484083
4.275692701339722,-0.80064666,-1.3278865,1.0041175,12.176526,-11.944872,-5.75516
4.295753717422485,-0.42961708,-1.13303,1.0208508,12.277914,-12.06757,-5.4791484
4.317019939422607,-0.42961708,-1.13303,1.0208508,12.277914,-12.06757,-5.4791484
4.336909294128418,-0.8140963,-1.3315452,1.0124612,12.20678,-12.001226,-5.7454987
4.356998682022095,-0.43418226,-1.1445544,1.030486,12.309325,-12.108118,-5.4535513
4.378085136413574,-0.77944475,-1.3170352,1.0170782,12.22607,-12.036264,-5.7251244
4.398055553436279,-0.4053305,-1.1522229,1.037592,12.329637,-12.122057,-5.409676
4.418129920959473,-0.77501696,-1.3284763,1.023817,12.222955,-12.05312,-5.7036543
4.4385435581207275,-0.40697977,-1.1622149,1.0447245,12.336148,-12.135679,-5.3737707
4.459608316421509,-0.40697977,-1.1622149,1.0447245,12.336148,-12.135679,-5.3737707
4.479700088500977,-0.7506004,-1.3290197,1.0303745,12.227717,-12.067848,-5.6668096
4.49977970123291,-0.37898436,-1.1646504,1.0484558,12.334814,-12.132055,-5.31875
4.5198400020599365,-0.7323354,-1.344047,1.0376309,12.225222,-12.063484,-5.6206446
4.539919137954712,-0.36309972,-1.1734343,1.053358,12.328802,-12.125059,-5.262435
4.5600292682647705,-0.7080756,-1.3554407,1.0446613,12.22109,-12.056255,-5.5683007
4.5802788734436035,-0.33906093,-1.1814923,1.0572413,12.315063,-12.108868,-5.1975513
4.600395441055298,-0.33906093,-1.1814923,1.0572413,12.315063,-12.108868,-5.1975513
4.620483160018921,-0.6831601,-1.3703592,1.0515832,12.206185,-12.037922,-5.509175
4.640556812286377,-0.28124776,-1.1581625,1.0445728,12.230386,-12.016681,-5.0724983
4.660645246505737,-0.5955454,-1.3443745,1.0365971,12.056174,-11.870176,-5.381137
4.680752754211426,-0.19757846,-1.157079,1.0370666,12.129422,-11.879785,-4.9305797
4.700818061828613,-0.4871513,-1.3406358,1.0325768,11.976097,-11.749331,-5.242718
4.720912218093872,-0.4871513,-1.3406358,1.0325768,11.976097,-11.749331,-5.242718
4.741060018539429,-0.6746537,-1.2905174,1.0157483,11.912639,-11.775106,-5.2880764
4.7611188888549805,-0.15284601,-1.1521151,1.0257131,12.003732,-11.759052,-4.8243847
4.781485319137573,-0.39273152,-1.3375118,1.0295268,11.891341,-11.666649,-5.1170006
4.801376581192017,-0.5661331,-1.2938741,1.0144243,11.79745,-11.679338,-5.1343803
4.8214476108551025,-0.35700145,-1.2550398,1.0343181,11.834731,-11.695323,-4.896001
4.841522693634033,-0.5663814,-1.3637089,1.0257096,11.680879,-11.578178,-5.0693216
4.861971616744995,-0.5663814,-1.3637089,1.0257096,11.680879,-11.578178,-5.0693216
4.882369041442871,-0.38937917,-1.2735707,1.0334243,11.714944,-11.606863,-4.817495
4.920714855194092,-0.38937917,-1.2735707,1.0334243,11.714944,-11.606863,-4.817495
4.946040153503418,-0.38937917,-1.2735707,1.0334243,11.714944,-11.606863,-4.817495
4.966172456741333,-0.56642616,-1.3811795,1.0234143,11.548109,-11.475336,-4.9720745
4.986251354217529,-0.45227912,-1.3302224,1.036907,11.56119,-11.490283,-4.7480326
5.006366491317749,-0.60400724,-1.4085206,1.0236651,11.402468,-11.369993,-4.878788
5.026473045349121,-0.60400724,-1.4085206,1.0236651,11.402468,-11.369993,-4.878788
5.046993732452393,-0.30028614,-1.3259048,1.0492543,11.478578,-11.403555,-4.4888988
5.067389011383057,-0.43709412,-1.4294486,1.0257653,11.294482,-11.212201,-4.6681924
5.087660074234009,-0.693446,-1.4627758,1.0276676,11.214984,-11.248951,-4.7889977
5.107702970504761,-0.693446,-1.4627758,1.0276676,11.214984,-11.248951,-4.7889977
5.127792835235596,-0.32696995,-1.3560567,1.0549818,11.318978,-11.300798,-4.370966
5.147876024246216,-0.4320446,-1.471615,1.0363692,11.170997,-11.137026,-4.5690284
5.167980909347534,-0.6115508,-1.4840342,1.023493,11.015706,-11.057371,-4.573599
5.188083648681641,-0.20632258,-1.3770069,1.0550891,11.121888,-11.073448,-4.1080365
5.208148717880249,-0.26226476,-1.4971784,1.0294045,10.904842,-10.833721,-4.237765
5.228379487991333,-0.41601232,-1.5187225,1.0169836,10.727974,-10.715841,-4.215249
5.248509168624878,-0.41601232,-1.5187225,1.0169836,10.727974,-10.715841,-4.215249
5.268723487854004,-0.48752895,-1.540751,1.0142182,10.589145,-10.628082,-4.18174
5.28870964050293,-0.48229346,-1.548777,1.010767,10.506062,-10.539549,-4.1189327
5.308772087097168,-0.4477528,-1.5579926,1.0093509,10.4131155,-10.4461,-4.0350394
5.32886528968811,-0.4415614,-1.5852782,1.0127301,10.269534,-10.340086,-3.9392846
5.348951816558838,-0.4406508,-1.6135958,1.0167319,10.137712,-10.228884,-3.8345644
5.369018793106079,-0.43483296,-1.6415839,1.0222186,10.022909,-10.130459,-3.7314758
5.389196157455444,-0.43483296,-1.6415839,1.0222186,10.022909,-10.130459,-3.7314758
5.409224987030029,-0.40105334,-1.6604384,1.025355,9.950166,-10.035935,-3.6250648
5.4293153285980225,0.005262465,2.1051655,1.2700564,4.2334476,-6.4756866,0.033715803
5.449548721313477,2.4447062,7.5286303,0.71867114,-0.450304,0.06837866,5.0410023
5.469609498977661,2.438677,8.605934,-1.4885076,-2.3750439,2.4225295,6.24348
5.489733934402466,2.5037243,6.6997075,-1.9261291,-2.5906224,2.795206,5.146859
5.5097739696502686,2.3250916,2.2989707,-2.992086,-1.6827524,2.2175362,2.7493267
5.530283451080322,2.3250916,2.2989707,-2.992086,-1.6827524,2.2175362,2.7493267
5.550110816955566,1.5878268,0.33203107,-2.2612348,-0.11662048,1.5742953,1.4440613
5.5701844692230225,0.7096857,0.30844665,-2.1875706,0.48356336,0.6495958,1.1047602
5.590358018875122,0.42264488,1.3730742,-2.10475,1.3777105,-0.83554465,1.1254467
5.610363721847534,0.70562416,1.0426564,-1.86818,3.1054223,-1.9749123,0.077969626
5.630746841430664,0.6283432,0.8046361,-1.2321355,4.62152,-3.854302,-0.39920357
5.651126384735107,0.6283432,0.8046361,-1.2321355,4.62152,-3.854302,-0.39920357
5.6712470054626465,0.22480717,-0.3926733,-0.19826084,6.686957,-6.182244,-1.2524648
5.6913416385650635,-0.047924012,-0.92279536,0.87851447,7.7531133,-8.264611,-1.4867876
5.71140718460083,0.18175942,-1.0403335,1.2464912,8.317875,-8.717926,-1.3755825
5.731500625610352,0.13214692,-1.9520774,1.1324016,8.760053,-8.671251,-2.0546553
5.751689672470093,-0.22486573,-1.9427271,1.0604398,8.943692,-8.97377,-2.5011744
5.771967649459839,0.13372192,1.9689542,1.260712,3.7429867,-5.6777587,0.34177908
5.7923479080200195,0.13372192,1.9689542,1.260712,3.7429867,-5.6777587,0.34177908
5.812443971633911,2.348088,7.194985,0.6884831,-0.7299464,0.66221696,4.848719
5.832556247711182,2.5668962,8.099064,-1.4076784,-2.3955903,2.4647028,6.124482
5.852603912353516,2.5682418,6.175091,-1.8090314,-2.432628,2.6434884,4.961666
5.872710466384888,2.2383308,2.0198393,-2.8695698,-1.6518497,2.1387658,2.725222
5.892833709716797,1.4686952,0.16922432,-2.1746294,-0.32729596,1.5806485,1.4505663
5.912897348403931,0.56599873,0.25703102,-2.1441798,-0.013301525,0.7801506,1.166465
5.933485269546509,0.42482188,1.0847312,-2.1983664,0.60186124,-0.09440389,1.0425215
5.953612565994263,0.42482188,1.0847312,-2.1983664,0.60186124,-0.09440389,1.0425215
5.973977088928223,0.18185908,0.017122626,-1.9651737,2.0063567,-1.1095343,-0.2820627
5.993868112564087,0.17072496,0.6218842,-1.4330206,4.3155017,-3.9241471,-0.5468304
6.0143210887908936,0.15534493,-0.90729916,-0.044903792,6.7267847,-6.2267222,-1.7202919
6.034419775009155,0.14826688,-2.0509572,0.9281224,7.6764765,-7.5113473,-1.3406067
6.054505348205566,-0.4865068,-2.277021,1.077071,8.366528,-8.477295,-2.25096
6.074636697769165,-0.14297274,-1.8168372,1.0728742,9.463021,-9.250289,-2.3670108
6.094837427139282,-0.14297274,-1.8168372,1.0728742,9.463021,-9.250289,-2.3670108
6.11496901512146,-0.3983142,-1.8870703,1.0066795,9.27897,-9.288227,-3.1444855
6.135042190551758,-0.7570306,-2.0551434,0.85350484,8.623954,-8.823669,-2.5177426
6.155725002288818,-0.8823436,-1.241883,0.81715024,7.4739385,-8.662846,-1.4334425
6.17584490776062,-0.56756365,-1.8450226,0.75735384,7.690936,-8.307985,-1.5044006
6.195929288864136,-0.13133907,-2.0797505,1.0781075,7.788032,-8.164309,-1.1880004
6.216273307800293,-0.53726643,-2.1055365,0.76545876,7.3200946,-7.767837,-1.4191717
6.2368388175964355,-0.53726643,-2.1055365,0.76545876,7.3200946,-7.767837,-1.4191717
6.256587028503418,-0.1143731,-2.0137196,0.95883745,7.4785523,-7.873737,-0.90085053
6.2766358852386475,-0.45150167,-2.007864,0.7419276,7.196029,-7.619148,-1.3957262
6.297075510025024,0.087340176,-2.0626998,1.0821794,7.449885,-7.7415504,-0.75388503
6.31705641746521,-0.5079709,-2.0926733,1.1277448,7.8529,-8.2201805,-1.6698527
6.337018251419067,-0.08419207,-1.9213544,1.1713353,8.765162,-8.924299,-1.6933854
6.358160018920898,-0.08419207,-1.9213544,1.1713353,8.765162,-8.924299,-1.6933854
6.378259658813477,-0.1748684,-2.0756743,1.098569,8.654276,-8.920387,-2.2790778
6.398337125778198,-0.41826627,-2.0579107,1.0707668,8.554391,-8.911341,-2.485375
6.418447017669678,-0.4506577,-2.00981,1.1110429,8.723507,-9.170085,-2.3670418
6.438517808914185,-0.2752067,-1.9294744,1.1854514,8.92356,-9.393147,-2.085827
6.4586217403411865,-0.48265103,-2.1824064,1.1326792,8.587891,-9.091089,-2.3687124
6.478705167770386,-0.4005377,-1.9701688,1.2077712,8.72206,-9.320984,-1.9108734
6.4990668296813965,0.26190665,2.1211343,1.3195192,3.6721795,-5.2598968,0.7587212
6.5191874504089355,0.26190665,2.1211343,1.3195192,3.6721795,-5.2598968,0.7587212
6.539281845092773,2.388849,7.1101723,0.6831895,-0.6464844,1.0195819,4.7145367
6.559665203094482,2.6966345,8.180823,-1.4498678,-2.298034,2.6504247,6.1570444
6.579550743103027,2.6402948,6.466365,-1.8442808,-2.3123975,2.8086317,5.2638006
6.599628686904907,2.5950916,5.921751,-1.6909448,-2.6685667,2.6836798,5.2013245
6.619715213775635,2.5871909,6.0368576,-1.6860375,-2.7930946,2.559869,5.237038
6.6401073932647705,2.5871909,6.0368576,-1.6860375,-2.7930946,2.559869,5.237038
6.660216331481934,2.2159238,7.6487155,-1.8142403,-4.857348,3.1658697,6.114939
6.68029522895813,2.5177233,7.0323386,-2.264218,-4.6707687,2.9262154,5.579161
6.700380086898804,2.4094565,6.835579,-2.2159617,-4.7896695,2.7025712,5.3484135
6.720435619354248,2.4193656,6.851191,-2.2784305,-4.7882075,2.5957406,5.373246
6.740554094314575,2.4202268,6.802189,-2.3040404,-4.790229,2.5572836,5.360444
6.760633945465088,2.4186456,6.741056,-2.3107038,-4.796374,2.5244453,5.3461123
6.780691385269165,2.4094663,6.6854315,-2.3122115,-4.7986307,2.4920623,5.322647
6.800787448883057,2.3983626,6.6337976,-2.3099957,-4.7995095,2.464014,5.298562
6.820883750915527,2.3983626,6.6337976,-2.3099957,-4.7995095,2.464014,5.298562
6.840963125228882,2.386852,6.58388,-2.305622,-4.799729,2.4391418,5.275568
6.861053943634033,2.3747916,6.5350065,-2.299714,-4.7995396,2.4160984,5.252713
6.881128549575806,2.3622944,6.4869967,-2.2927208,-4.7989807,2.3941698,5.2299557
6.901223421096802,2.3494608,6.439679,-2.284951,-4.798092,2.373062,5.2073555
6.921353101730347,2.3363662,6.3928633,-2.2765815,-4.796914,2.3525932,5.184906
6.9413816928863525,2.3230495,6.346404,-2.2677264,-4.7954793,2.3326175,5.162571
6.9620232582092285,2.3230495,6.346404,-2.2677264,-4.7954793,2.3326175,5.162571
6.982138395309448,2.3095376,6.3002024,-2.2584643,-4.793806,2.3130288,5.140314
7.002234935760498,2.507367,4.426484,-1.9811093,-2.9531226,1.5714072,4.2261505
7.022316217422485,2.2807271,4.9312015,-1.4438454,-3.1533432,1.9738408,4.6815157
7.042417287826538,2.3564513,5.0684414,-1.4266192,-2.8676202,2.1560159,4.8190145
7.062554359436035,2.2872574,4.990076,-1.3131965,-2.831631,2.3034155,4.6497765
7.0826520919799805,2.2642972,4.9052315,-1.2487451,-2.8036,2.326965,4.5945024
7.102790355682373,2.22343,4.858989,-1.2050151,-2.792139,2.3346217,4.5420103
7.1232383251190186,2.22343,4.858989,-1.2050151,-2.792139,2.3346217,4.5420103
7.143166780471802,2.1969912,4.8182993,-1.1697667,-2.7872913,2.3429549,4.507164
7.163302898406982,2.1737878,4.7716594,-1.1389557,-2.785667,2.3475568,4.473444
7.1833555698394775,2.1486633,4.7236986,-1.1097785,-2.7876143,2.3495717,4.438345
7.203786134719849,2.1227834,4.6773148,-1.0814091,-2.79125,2.350811,4.40382
7.223704099655151,2.0964983,4.632391,-1.0536166,-2.795483,2.3519695,4.3697634
7.24379301071167,2.0696838,4.5884466,-1.0263613,-2.8000638,2.3531928,4.3358126
7.263822793960571,2.042248,4.545368,-0.99945134,-2.8050203,2.3545482,4.301944
7.283962965011597,2.042248,4.545368,-0.99945134,-2.8050203,2.3545482,4.301944
7.304028272628784,2.0142672,4.5031786,-0.97282356,-2.810313,2.3560786,4.2682085
7.324330806732178,1.9859316,4.461799,-0.9463385,-2.8161323,2.3579237,4.234714
7.344170808792114,1.9574492,4.421106,-0.91989046,-2.8226447,2.360143,4.2015324
7.364557266235352,1.9288545,4.3810043,-0.8934211,-2.8297803,2.3626652,4.168537
7.384593963623047,1.9001412,4.3414493,-0.8668321,-2.8374662,2.3654904,4.1356235
7.404601097106934,1.871326,4.3024273,-0.8400199,-2.8456514,2.3686647,4.102724
7.425252437591553,1.8430818,4.2640185,-0.81297714,-2.8542924,2.3725302,4.0701485
7.445310354232788,1.8430818,4.2640185,-0.81297714,-2.8542924,2.3725302,4.0701485
7.465442657470703,1.815761,4.226113,-0.78574383,-2.86336,2.3770947,4.038085
7.485538005828857,1.7892799,4.1885314,-0.75825614,-2.8728008,2.382199,4.006399
7.505870580673218,1.7635411,4.1511855,-0.730306,-2.8825078,2.3878207,3.9749389
7.525970697402954,1.7389914,4.1205244,-0.6988742,-2.871894,2.3824522,3.9343922
7.546200275421143,1.7227727,4.1133385,-0.6597171,-2.7946103,2.3457258,3.8772454
7.566334009170532,1.709577,4.0794034,-0.64882296,-2.8458288,2.3783295,3.9157028
7.586766719818115,1.709577,4.0794034,-0.64882296,-2.8458288,2.3783295,3.9157028
7.606935024261475,1.7024186,4.0852036,-0.58976394,-2.6355107,2.2901917,3.763837
7.6270623207092285,1.6858189,4.020234,-0.6125181,-2.8373084,2.3847046,3.9331686
7.647073030471802,1.6668291,3.992435,-0.5517034,-2.6315246,2.3015635,3.7067814
7.667164087295532,1.6487386,3.9487476,-0.5497845,-2.7501214,2.3334634,3.835429
7.687249422073364,1.6423702,3.9311566,-0.50421685,-2.5959313,2.282895,3.6880817
7.707303285598755,1.6303089,3.8968225,-0.48838133,-2.6142554,2.2780116,3.7407844
7.727506160736084,1.6303089,3.8968225,-0.48838133,-2.6142554,2.2780116,3.7407844
7.747600317001343,1.6226099,3.8658652,-0.4604623,-2.5360463,2.2555983,3.67458
7.767684698104858,1.6120993,3.8268423,-0.4353652,-2.5000699,2.2360747,3.665728
7.7877912521362305,1.599283,3.781674,-0.4149751,-2.4732327,2.227631,3.6443467
7.807886362075806,1.5842371,3.7288823,-0.3904004,-2.4481242,2.2182307,3.6166763
7.828090667724609,1.5694467,3.6756325,-0.36249864,-2.4206378,2.2079422,3.5880413
7.848385810852051,1.5552332,3.6227908,-0.3322949,-2.389594,2.198081,3.5588942
7.868245601654053,1.5413222,3.569049,-0.30009875,-2.3548136,2.1886885,3.529196
7.88833475112915,1.5413222,3.569049,-0.30009875,-2.3548136,2.1886885,3.529196
7.908429145812988,1.5275695,3.5134068,-0.26572317,-2.316043,2.1794002,3.498846
7.928623199462891,1.5139413,3.4551568,-0.22899944,-2.2731094,2.1698942,3.4677966
7.948733568191528,1.5004331,3.3944092,-0.19024146,-2.2262516,2.1599865,3.4365041
7.96875262260437,1.4863466,3.3337326,-0.15093932,-2.1777208,2.150384,3.4059854
7.988889932632446,1.4718931,3.2737746,-0.112553425,-2.129271,2.141249,3.376729
8.008936405181885,1.4570909,3.2135391,-0.07522506,-2.0814033,2.1319654,3.3482893
8.029000520706177,1.4244107,3.1236434,-0.09385321,-2.0381215,1.9394839,3.3685389
8.049386024475098,1.4244107,3.1236434,-0.09385321,-2.0381215,1.9394839,3.3685389
8.069530010223389,1.4246141,3.0441804,-0.081752725,-2.225001,2.140213,3.418344
8.08952283859253,1.4246141,3.0441804,-0.081752725,-2.225001,2.140213,3.418344
8.109621047973633,1.3553895,2.9388638,-0.12799671,-2.0915475,1.741494,3.368284
8.129687070846558,1.3777449,2.8316312,-0.09902752,-2.362742,2.05451,3.4614224
8.149756908416748,1.3335265,2.818421,0.05485528,-2.11902,2.067187,3.1202145
8.169885396957397,1.3393618,2.7614937,0.041887753,-1.9443378,1.6461,3.3044047
8.189963817596436,1.3776672,2.5816565,-0.041405626,-2.2736442,2.0086715,3.3213089
8.210036039352417,1.2441087,2.5271811,0.07788166,-2.0283117,1.6083627,3.1746104
8.230399131774902,1.3759987,2.542863,0.05635392,-1.9934399,1.8325444,3.1749668
8.250557899475098,1.3759987,2.542863,0.05635392,-1.9934399,1.8325444,3.1749668
8.270597219467163,1.2531035,2.5594487,0.22596991,-1.8571373,1.8365316,3.056653
8.290676355361938,1.284719,2.5535674,0.18566138,-1.7682225,1.5682478,3.26326
8.310840368270874,1.3473709,2.4387345,0.08512553,-1.8496866,1.814871,3.1220627
8.330915451049805,1.2210087,2.297832,0.21624482,-1.7622004,1.4623227,3.1385827
8.351103067398071,1.3006775,2.2381964,0.15630049,-1.8578179,1.7368587,3.090366
8.37119722366333,1.1947837,2.1552396,0.30557987,-1.7030602,1.4166008,3.0791216
8.391402244567871,1.1947837,2.1552396,0.30557987,-1.7030602,1.4166008,3.0791216
8.411490678787231,1.2500398,2.5155983,0.05718424,-1.7276096,1.9237323,3.1010134
8.431589841842651,1.1395447,2.219046,0.26527065,-1.7629361,1.7390507,2.9633026
8.45166301727295,1.1735965,2.1170483,0.37698373,-1.6229007,1.6085742,2.9495807
8.471948862075806,1.0778149,2.5194812,-0.10672367,-1.4442457,1.9193338,2.9671514
8.492036819458008,1.068206,2.1189795,0.18966606,-1.8169632,1.7649142,3.0502548
8.512120962142944,1.0928745,1.940174,0.38074642,-1.6533694,1.6702411,2.8203254
8.532191276550293,1.0017091,2.2886858,-0.1123142,-1.4895076,1.7761351,2.8881922
8.552762269973755,1.0017091,2.2886858,-0.1123142,-1.4895076,1.7761351,2.8881922
8.572835445404053,1.0318999,1.9255193,0.21382552,-1.8088425,1.6565366,2.9975045
8.592940330505371,1.063588,1.5906962,0.34993583,-1.6399533,1.5487483,2.6497364
8.613090991973877,0.8615365,2.068787,-0.049849965,-1.4980457,1.6911749,2.7429001
8.633164882659912,1.0075421,1.6646212,0.2123484,-1.8058372,1.5828246,2.8657446
8.653239488601685,0.9788269,1.3288532,0.44866145,-1.5561231,1.4406145,2.5191123
8.673356294631958,0.79404724,1.8884376,0.044990353,-1.4063194,1.6411632,2.6352282
8.693636655807495,0.9650148,1.4660906,0.25661647,-1.7197486,1.5296063,2.7528834
8.713721513748169,0.9650148,1.4660906,0.25661647,-1.7197486,1.5296063,2.7528834
8.733828783035278,0.97103477,1.2177086,0.2782517,-1.5660725,1.228433,2.6317353
8.753911972045898,0.8235494,1.5908839,0.21285152,-1.7366035,1.7474332,2.6562445
8.773974895477295,0.9665399,1.1444839,0.5071815,-1.4815743,1.2295628,2.7241356
8.794333934783936,0.7973782,1.8366035,0.04347699,-1.2978433,1.8218634,2.5732265
8.814260005950928,0.7924512,1.3187608,0.43694252,-1.5027258,1.5797025,2.593369
8.834901809692383,0.7924512,1.3187608,0.43694252,-1.5027258,1.5797025,2.593369
8.85500955581665,0.6964451,1.5964075,-0.12112523,-1.4892958,1.6063312,2.558783
8.875088214874268,0.7705828,1.0166415,0.28843194,-1.7440243,1.3117225,2.4892209
8.89524793624878,0.6624236,1.502041,0.18489107,-1.4629071,1.7134906,2.352346
8.915294408798218,0.89414895,0.8440443,0.4703011,-1.3718306,1.1267008,2.6693177
8.93537425994873,0.6290728,1.6006972,-0.01715613,-1.473216,1.7638211,2.535516
8.955466508865356,0.6621437,0.9563365,0.45435113,-1.5312579,1.4962388,2.3982604
8.975708484649658,0.5135993,1.3215917,-0.07842312,-1.5304717,1.4842595,2.3573031
8.995794296264648,0.5135993,1.3215917,-0.07842312,-1.5304717,1.4842595,2.3573031
9.016050338745117,-2.1152499,1.1408762,-1.3483027,-2.5430543,0.48846254,0.2045315
9.036126136779785,-3.2325847,1.2407564,-1.9526697,-2.6299276,-0.71037704,-0.47606373
9.056170225143433,-4.4362397,0.5623139,-1.9433655,-1.6793991,-1.9944702,-1.9459345
9.076263189315796,-6.8866153,-1.8307213,-0.5540366,1.7297306,-5.228969,-4.1046615
9.096389770507812,-8.110396,-3.7470045,0.5645104,6.026299,-7.2553954,-4.728672
9.116465330123901,-6.9863358,-4.3567095,0.5175004,4.4948153,-6.8279033,-5.4320793
9.136844158172607,-6.9863358,-4.3567095,0.5175004,4.4948153,-6.8279033,-5.4320793
9.156975269317627,-6.304753,-4.0254927,0.6047607,4.4304233,-6.700659,-4.9443874
9.177135944366455,-5.230731,-3.7147412,0.57362175,4.2268577,-6.067411,-4.001273
9.197190761566162,-4.0306244,-3.4502516,0.5651873,4.041622,-5.4012656,-2.7951617
9.2173171043396,-2.6909325,-3.1009264,0.57202065,3.8806875,-4.6769633,-1.5767828
9.237411499023438,-1.5570881,-2.7029362,0.65163314,3.7164683,-4.085814,-0.5748747
9.257492542266846,-0.32334486,-1.8209683,0.8649788,3.2850335,-3.2811656,0.60111517
9.277600288391113,0.77853423,-0.24516931,1.107427,2.3905497,-2.3201864,1.8056757
9.297658205032349,1.011838,1.4125328,1.0162388,0.2575244,-0.20409915,2.7616444
9.317737579345703,1.011838,1.4125328,1.0162388,0.2575244,-0.20409915,2.7616444
9.33786654472351,1.0301238,1.8076969,-0.24744546,-1.0241851,1.4393253,2.950674
9.357927083969116,0.748525,0.9951191,-0.09158809,-1.9423311,1.4089164,2.3434734
9.378000974655151,0.63721335,0.55322653,0.3124604,-2.018743,1.0538843,2.1555433
9.398126602172852,0.56570524,1.2660288,-0.0038885232,-2.1382523,1.7225503,2.22465
9.418214559555054,0.71692276,0.5624613,0.2073652,-1.9562898,0.9599746,2.3443594
9.438241481781006,0.6465214,0.34724236,0.4351678,-2.0577817,1.0601078,2.204703
9.458320140838623,-3.1578915,1.8810643,-2.8354228,-2.9523687,0.34557983,-1.2292749
9.478383541107178,-3.1578915,1.8810643,-2.8354228,-2.9523687,0.34557983,-1.2292749
9.498560667037964,-3.162017,1.223381,-2.229493,-2.3951473,-0.604687,-1.572617
9.5185706615448,-5.752013,-0.9677259,-1.5278833,1.3564165,-3.3886855,-3.475953
9.538744926452637,-3.7988567,-3.6749916,0.5078552,2.2713678,-2.976537,-2.5625143
9.55875015258789,-4.270337,-3.7242885,0.49283275,2.5335622,-3.2348773,-1.5214337
9.57887077331543,-3.0276654,-3.3331985,0.5501056,2.7247655,-3.423351,-0.48805967
9.598947763442993,-1.724216,-2.772797,0.65737003,2.6726005,-3.0919802,0.42009786
9.61911654472351,-0.6199345,-1.872232,0.847609,2.1549072,-2.5439527,1.3243074
9.63931941986084,-0.6199345,-1.872232,0.847609,2.1549072,-2.5439527,1.3243074
9.665041208267212,0.5112974,-0.25929785,1.0655586,1.276339,-1.5775598,2.504521
9.700714349746704,0.5112974,-0.25929785,1.0655586,1.276339,-1.5775598,2.504521
9.720790147781372,0.6171366,0.65875435,0.5932949,-0.7471899,0.8000794,2.8619175
9.740848541259766,0.625519,1.6238775,-0.6200919,-1.9884174,1.8077146,2.6178231
9.761804103851318,0.625519,1.6238775,-0.6200919,-1.9884174,1.8077146,2.6178231
9.78206181526184,0.5045662,0.97871614,-0.18542984,-2.4721558,1.33818,2.3218296
9.802014350891113,-1.9405216,0.61524516,-1.6022583,-2.8612442,0.33059034,-0.11960314
9.822191953659058,-3.0927439,1.4211024,-1.9868017,-2.8404453,-0.8996193,-0.7031227
9.84227705001831,-3.0927439,1.4211024,-1.9868017,-2.8404453,-0.8996193,-0.7031227
9.8624107837677,-4.160405,0.08954215,-1.9509004,-0.71874386,-2.1288764,-2.7431464
9.882829666137695,-7.6242895,-2.73282,-0.12847802,4.331152,-6.641645,-4.814009
9.902696132659912,-7.983576,-3.372459,0.7540579,7.318084,-8.206682,-5.9080687
9.922891616821289,-8.403675,-2.9959083,0.7337069,8.992862,-10.181955,-7.564036
9.942962884902954,-7.8066673,-2.6531672,0.8406786,10.1876745,-11.5222225,-8.652723
9.963313817977905,-6.7854457,-2.279389,0.8739565,10.920805,-12.107844,-8.93173
9.983362913131714,-6.7854457,-2.279389,0.8739565,10.920805,-12.107844,-8.93173
10.003467321395874,-5.7710795,-1.9789253,0.8689381,11.329745,-12.220548,-8.777615
10.02357292175293,-4.953004,-1.7676045,0.8500942,11.521609,-12.107945,-8.497033
10.043688535690308,-4.3728,-1.6324508,0.83244693,11.593357,-11.929316,-8.208848
10.063753604888916,-3.9768867,-1.543443,0.8183379,11.616569,-11.756164,-7.95793
10.083829402923584,-3.6886556,-1.476914,0.8063605,11.62748,-11.6073265,-7.750866
10.10393476486206,-3.4594376,-1.4212943,0.79516715,11.633914,-11.478811,-7.5774035
10.124232769012451,-3.4594376,-1.4212943,0.79516715,11.633914,-11.478811,-7.5774035
10.144384622573853,-3.262993,-1.3710247,0.78429323,11.637177,-11.364774,-7.42662
10.164464473724365,-3.0852022,-1.3238125,0.77361923,11.637496,-11.261579,-7.290792
10.18456244468689,-2.9174805,-1.278399,0.76248556,11.634418,-11.164476,-7.1634245
10.204626560211182,-2.754594,-1.2340981,0.75022095,11.627084,-11.06885,-7.0392146
10.224748373031616,-2.5940893,-1.1908407,0.7360714,11.61567,-10.9705925,-6.9123335
10.244807481765747,-2.4345622,-1.1484339,0.71985555,11.60064,-10.867162,-6.7798076
10.264927864074707,-2.273876,-1.1066658,0.70304304,11.583963,-10.759151,-6.6455097
10.285254001617432,-2.111396,-1.0653381,0.6857241,11.566012,-10.646546,-6.5110765
10.305423498153687,-2.111396,-1.0653381,0.6857241,11.566012,-10.646546,-6.5110765
10.325496673583984,-1.9472339,-1.0241231,0.66780406,11.546299,-10.529406,-6.3771496
10.345627069473267,-1.7820003,-0.9832829,0.64922696,11.523993,-10.4070835,-6.2443914
10.365690469741821,-1.860215,-1.0745842,0.6451596,11.232069,-10.176146,-6.23635
10.385761260986328,-1.7446179,-0.9734148,0.622865,11.33842,-10.138765,-6.11309
10.405874252319336,-1.8763864,-1.0846888,0.6156449,10.889441,-9.912756,-6.176922
10.425950050354004,-1.7579956,-0.9883336,0.6028344,11.141181,-9.909596,-6.0375032
10.44605278968811,-1.7030468,-1.0035832,0.5868328,10.948382,-9.786392,-6.010143
10.466216802597046,-1.7990875,-1.0501568,0.5780239,10.643655,-9.6290865,-6.031449
10.486383199691772,-1.7990875,-1.0501568,0.5780239,10.643655,-9.6290865,-6.031449
10.506431341171265,-1.7264378,-0.9930554,0.56464463,10.746145,-9.587154,-5.9457445
10.52651071548462,-1.686846,-1.0061047,0.55288965,10.591495,-9.483015,-5.9087377
10.546619415283203,-1.6995177,-1.0212121,0.5447337,10.437031,-9.373505,-5.875925
10.566669702529907,-1.5948073,-0.9750316,0.5316493,10.502379,-9.320093,-5.780524
10.58675241470337,-1.5615946,-0.9968063,0.52269167,10.339357,-9.209259,-5.7293806
10.606878757476807,-1.5427742,-0.99846995,0.5142087,10.245898,-9.111655,-5.668619
10.626928329467773,-1.414232,-0.977242,0.5054503,10.233771,-9.018703,-5.5746307
10.648358583450317,-1.414232,-0.977242,0.5054503,10.233771,-9.018703,-5.5746307
10.668463945388794,-1.1611347,-0.99736834,0.5037384,10.095287,-8.819534,-5.4542756
10.688567638397217,-0.9504217,-1.0040514,0.49219722,9.990846,-8.619812,-5.2971506
10.708695888519287,-0.6487335,-1.0304232,0.4882627,9.8570385,-8.363862,-5.098548
10.728739738464355,-0.41538087,-1.044816,0.4757287,9.742214,-8.127936,-4.893742
10.748808145523071,-0.13456866,-1.0843148,0.4766004,9.603877,-7.8660336,-4.6715555
10.768937587738037,0.00024291978,-1.0932878,0.46029973,9.500264,-7.671223,-4.485177
10.78900671005249,-0.35455632,-1.3369676,0.5155446,9.240549,-7.4477143,-4.71967
10.809086084365845,-0.44681755,-0.96885204,0.42261523,9.811867,-7.876615,-4.480538
10.829177141189575,-0.44681755,-0.96885204,0.42261523,9.811867,-7.876615,-4.480538
10.849317073822021,0.17201188,-1.1922154,0.504373,9.328979,-7.4878597,-4.2900963
10.869372367858887,-0.80555916,-1.2788657,0.43514007,9.085116,-7.436959,-4.677207
10.889462947845459,0.071719736,-1.2004482,0.5306253,9.498225,-7.5210276,-4.308308
10.909571170806885,-0.95427465,-1.2809881,0.42515588,9.039154,-7.483686,-4.700384
10.929657936096191,0.0688121,-1.1774313,0.5361822,9.506838,-7.5983205,-4.3139553
10.949968814849854,-0.92282915,-1.2980713,0.42763615,8.976308,-7.4668775,-4.6758676
10.969842672348022,0.06832728,-1.2228914,0.5441391,9.3953085,-7.5339756,-4.266217
10.990424633026123,0.06832728,-1.2228914,0.5441391,9.3953085,-7.5339756,-4.266217
11.010540246963501,-0.91760576,-1.3303653,0.42787823,8.8490715,-7.3805246,-4.6110845
11.030714511871338,0.04586038,-1.281929,0.55244434,9.243109,-7.436315,-4.2000856
11.05071210861206,-0.92475,-1.3698027,0.4276308,8.70184,-7.2757487,-4.534077
11.070964813232422,0.019461485,-1.3423904,0.5612089,9.085112,-7.3385167,-4.1273956
11.091273784637451,-0.9334452,-1.4131198,0.42764235,8.550329,-7.1680064,-4.4507327
11.111243724822998,-0.0021043709,-1.4006914,0.57055783,8.932963,-7.248544,-4.050134
11.13148546218872,-0.93851495,-1.4590014,0.4280424,8.399398,-7.060844,-4.3612533
11.151898384094238,-0.93851495,-1.4590014,0.4280424,8.399398,-7.060844,-4.3612533
11.17197871208191,-0.019727258,-1.458705,0.58066726,8.784254,-7.163919,-3.9679484
11.192087411880493,-0.8793222,-1.4878676,0.4278829,8.278008,-6.9704285,-4.232089
11.212193965911865,-0.011828213,-1.527631,0.5902968,8.621038,-7.0547414,-3.8523915
11.232386350631714,-0.932901,-1.5626748,0.42892647,8.085435,-6.8270726,-4.1395936
11.25248670578003,-0.036652416,-1.5754666,0.6024052,8.484603,-6.9908385,-3.773429
11.272565841674805,-0.74954,-1.5545471,0.42902237,8.031834,-6.7835174,-3.9376683
11.292625904083252,0.069369644,-1.6406676,0.6098214,8.351485,-6.8627305,-3.595507
11.31273078918457,0.069369644,-1.6406676,0.6098214,8.351485,-6.8627305,-3.595507
11.332979917526245,-0.860276,-1.6712879,0.42639667,7.7816076,-6.573755,-3.849106
11.353237628936768,-0.026047258,-1.7054845,0.62531936,8.152505,-6.77996,-3.5187194
11.373109102249146,-0.83508134,-1.7176635,0.4293366,7.6453958,-6.495355,-3.7089288
11.393545866012573,-0.068296164,-1.7986273,0.6416005,7.9400587,-6.6681447,-3.3942156
11.41368556022644,-0.5751654,-1.7031733,0.44373938,7.5644336,-6.4972568,-3.3518634
11.43373990058899,0.16678944,-1.8683246,0.67237884,7.7918925,-6.563996,-3.0586112
11.453917741775513,-0.7202791,-1.8883957,0.4033195,7.275397,-6.154507,-3.257543
11.473966836929321,-0.7202791,-1.8883957,0.4033195,7.275397,-6.154507,-3.257543
11.494089603424072,-0.03030738,-1.9653296,0.6935701,7.3960648,-6.39181,-2.9033513
11.51418924331665,-0.795142,-1.9819838,0.3804543,7.0112915,-6.0062833,-3.0552979
11.534252643585205,-0.104169935,-2.082663,0.74786353,6.9212,-6.2370114,-2.5612767
11.554543733596802,-0.36767063,-1.956556,0.42100394,7.049479,-6.107557,-2.407411
11.574542999267578,0.35434166,-2.1041002,0.76617885,6.9644303,-6.0639567,-2.1233304
11.594673871994019,-0.50410116,-2.1758552,0.3005982,6.549894,-5.564114,-2.267364
11.614707708358765,0.14543769,-2.0927227,0.85362786,6.07462,-5.675442,-1.5874763
11.634755611419678,-0.5295419,-2.438704,0.2576981,5.9880114,-5.2503223,-1.7227525
11.65483832359314,-0.5295419,-2.438704,0.2576981,5.9880114,-5.2503223,-1.7227525
11.674930095672607,0.021216007,-2.45922,0.8268692,6.0892844,-5.499406,-1.4746921
11.695029973983765,-0.40862384,-2.3478408,0.3116231,6.188173,-5.2845025,-1.7494559
11.715087175369263,0.16888121,-2.4234014,0.7740819,6.295962,-5.4725165,-1.595244
11.735180616378784,-0.36911336,-2.3159685,0.28392756,6.0740743,-5.193217,-1.6831098
11.755267858505249,0.16495529,-2.4650998,0.7824201,6.1209555,-5.385342,-1.4647169
11.77535104751587,-0.3781489,-2.5218887,0.51539594,6.1959505,-5.6789265,-1.947876
11.795385122299194,-0.3781489,-2.5218887,0.51539594,6.1959505,-5.6789265,-1.947876
11.815879106521606,-0.45178375,-2.3369117,0.590653,6.5595355,-6.288509,-1.7911252
11.83578372001648,-0.35375068,-2.3590865,0.61701137,6.695381,-6.3778043,-1.7649083
11.855943202972412,-0.28848818,-2.0167348,0.6433142,6.196293,-6.535194,-1.2157019
11.875967264175415,-0.062628806,-2.264295,0.65175825,5.8460546,-6.24823,-0.6772179
11.896073818206787,0.09895596,-2.2284284,0.7016373,5.4189095,-5.6802096,-0.6636956
11.916147232055664,-0.124751404,-2.3757596,0.67819756,5.312664,-5.492864,-0.6159984
11.937193632125854,-0.1224933,-2.1137943,0.6803104,5.2556143,-5.837172,0.02532174
11.957321643829346,-0.1224933,-2.1137943,0.6803104,5.2556143,-5.837172,0.02532174
11.97739315032959,0.24885434,-2.2325063,0.70824105,5.398095,-5.808372,0.12648205
11.99746561050415,0.5628434,-2.108005,0.7696231,5.1153064,-5.333981,0.0786923
