liuyurong129/humanoid-gym/humanoid/data/robot2_action_20250621-222321.csv
timestamp,joint_1,joint_2,joint_3,joint_4,joint_5,joint_6
0.0005238056182861328,0.0,0.0,0.0,0.0,0.0,0.0
0.020575523376464844,0.0,0.0,0.0,0.0,0.0,0.0
0.04065513610839844,0.0,0.0,0.0,0.0,0.0,0.0
0.06077766418457031,0.0,0.0,0.0,0.0,0.0,0.0
0.08100771903991699,0.0,0.0,0.0,0.0,0.0,0.0
0.10111737251281738,0.0,0.0,0.0,0.0,0.0,0.0
0.12119770050048828,-0.86791956,-1.066974,-1.4166197,1.955852,-0.82337785,-0.17524162
0.14126825332641602,-1.4313016,-1.4865816,-1.4805282,4.02502,-1.9100841,-1.166423
0.1613457202911377,-2.1247022,-1.9100807,-1.2828386,4.0120635,-2.4120486,-1.9475086
0.18141961097717285,-2.2576241,-2.0983326,-1.2569442,3.9837267,-2.7751625,-2.1510968
0.20154476165771484,-2.2302134,-2.087087,-1.2545985,4.0016017,-2.855975,-2.1497831
0.22162175178527832,-2.17633,-2.0438592,-1.2344666,4.0311375,-2.8052764,-2.1412728
0.24210071563720703,-2.17633,-2.0438592,-1.2344666,4.0311375,-2.8052764,-2.1412728
0.26224398612976074,-2.1132553,-2.0251071,-1.1693417,4.057876,-2.65609,-2.1758335
0.28230857849121094,-2.0393765,-2.0411184,-1.0704951,4.0979095,-2.4229193,-2.2712939
0.3023824691772461,-1.963177,-2.0890272,-0.9434487,4.141813,-2.1305254,-2.4227176
0.3224942684173584,-1.8933485,-2.180474,-0.77992535,4.1847253,-1.7897878,-2.6547887
0.34255027770996094,-1.8238277,-2.2720108,-0.6031572,4.2237105,-1.3823135,-2.9569244
0.3626377582550049,-1.7627914,-2.2982109,-0.33587137,4.289351,-0.8717322,-3.276283
0.38279056549072266,-1.684838,-2.2792068,0.048831116,4.3337693,-0.051519696,-3.632908
0.4028043746948242,-1.684838,-2.2792068,0.048831116,4.3337693,-0.051519696,-3.632908
0.4229307174682617,-1.518253,-2.3049712,0.37673786,4.271525,0.94369406,-4.0992327
0.44296932220458984,-1.364002,-2.070682,0.62818736,4.0483108,1.590924,-4.162791
0.4631500244140625,-1.3236576,-1.8933513,0.7927354,3.994179,2.1131396,-4.2223682
0.48318982124328613,-1.3511587,-1.7708308,0.9026697,3.9404309,2.275961,-4.177884
0.5033190250396729,-1.3687692,-1.7342069,0.9125897,3.9012702,2.3046317,-4.106115
0.5234158039093018,-1.3501214,-1.706056,0.87538415,3.7412918,2.1970105,-3.866833
0.5435020923614502,-1.3501214,-1.706056,0.87538415,3.7412918,2.1970105,-3.866833
0.5635643005371094,-1.3991416,-1.871524,0.76565003,3.5572517,1.9910812,-3.6998088
0.5836434364318848,-1.367083,-2.1139889,0.69143355,3.5657737,2.0650544,-3.638104
0.6037619113922119,-1.330844,-2.5875947,0.61659616,3.6399093,1.804956,-3.8881254
0.6238422393798828,-1.3158275,-2.8810532,0.4705606,3.7845662,1.5264845,-3.8893416
0.643928050994873,-1.3903627,-2.99648,0.17578873,3.9291482,1.0903875,-4.1211267
0.6640031337738037,-1.3903627,-2.99648,0.17578873,3.9291482,1.0903875,-4.1211267
0.6841225624084473,-1.5214806,-2.9863617,0.36610565,3.9632876,1.0007583,-3.8839881
0.7041957378387451,-1.4295573,-2.906167,0.11481499,3.6497624,0.69170254,-3.8214722
0.7242958545684814,-1.4093534,-2.9281843,0.12805502,3.5958464,0.75868815,-3.8695648
0.7443788051605225,-1.5123477,-3.009447,0.2683688,3.6338851,0.9257038,-3.6987212
0.7646028995513916,-1.3707747,-3.0735755,0.0061090635,3.4406884,0.6457007,-3.7326117
0.7846028804779053,-1.2485846,-2.997127,-0.12501422,3.8630254,0.76605386,-3.5564282
0.8047103881835938,-1.2485846,-2.997127,-0.12501422,3.8630254,0.76605386,-3.5564282
0.8247783184051514,-1.1973419,-2.8394604,-0.19649804,3.9850347,0.848643,-3.349584
0.8448598384857178,-1.1380138,-2.718842,-0.21758792,3.9357564,0.9053716,-3.2735114
0.8650367259979248,-1.0306981,-2.608025,-0.21639125,3.8688066,1.0947247,-3.2542307
0.8850417137145996,-0.9413633,-2.454514,-0.119403854,3.7486527,1.4643396,-3.32102
0.905146598815918,-1.2742562,-2.1978078,0.39694542,3.6438842,2.278517,-3.1888459
0.925940752029419,-1.2742562,-2.1978078,0.39694542,3.6438842,2.278517,-3.1888459
0.9459292888641357,-1.4175394,-1.9995805,0.6110804,3.5802007,0.8872768,-3.2964435
0.9659519195556641,-0.95926493,-2.0211854,0.65205723,1.9580168,1.1398796,-3.118005
0.986051082611084,-1.1305873,-2.643095,0.51435596,2.540562,1.2179825,-3.7258875
1.0061237812042236,-0.96493757,-2.9475377,0.47801682,2.454074,1.2271416,-3.5861332
1.0265169143676758,-1.0137961,-3.1427445,0.2762934,2.859083,1.2524745,-3.8507318
1.046626091003418,-1.0853478,-3.1122942,0.29042473,2.9693887,1.3145788,-4.065159
1.066673755645752,-1.0853478,-3.1122942,0.29042473,2.9693887,1.3145788,-4.065159
1.0868208408355713,-1.2220681,-3.115868,0.40012583,2.8393357,1.1208122,-3.862486
1.1069684028625488,-1.2727193,-2.3555489,0.38218445,2.8264618,0.60171306,-3.6567752
1.1270666122436523,-1.1542774,-2.364166,0.38329917,2.0472748,0.6581758,-3.4479103
1.1472101211547852,-1.231302,-2.2223687,0.34207958,2.350772,0.5070042,-3.5438662
1.1672847270965576,-1.0199788,-2.167843,0.35415784,1.8266838,0.57553595,-3.215836
1.1873853206634521,-1.0199788,-2.167843,0.35415784,1.8266838,0.57553595,-3.215836
1.2074682712554932,-1.262958,-2.3420453,0.26881358,2.0697827,0.4625516,-3.505483
1.2275724411010742,-1.1856415,-2.3499196,0.34549102,1.9388036,0.4543379,-3.2804012
1.2476849555969238,-1.3307513,-2.2523808,0.37392953,2.2162445,0.23900372,-3.4405792
1.2680134773254395,-0.9680943,-1.969296,0.39833722,1.8608601,0.39744475,-3.1494484
1.2882487773895264,-0.6936851,-2.4310737,0.19807346,2.2925122,1.02264,-3.2997544
1.3083374500274658,-0.6936851,-2.4310737,0.19807346,2.2925122,1.02264,-3.2997544
1.3285186290740967,-1.033939,-2.149111,0.39316395,2.3920143,0.7269491,-3.6699576
1.348541498184204,-0.8032963,-1.9234903,0.4747687,1.7256886,0.6920641,-3.1948843
1.3686728477478027,-0.5901503,-2.3375072,0.3195479,1.9732711,1.3511931,-3.5403512
1.3887152671813965,-0.32708776,-2.2315516,0.41672537,2.0108278,1.631437,-3.422377
1.408797264099121,0.035875175,-2.4498632,0.18409331,1.6632746,1.5679412,-3.193112
1.429715633392334,0.035875175,-2.4498632,0.18409331,1.6632746,1.5679412,-3.193112
1.449833631515503,-0.39386767,-2.6690059,0.21809706,1.490034,0.8347136,-2.8264647
1.4699926376342773,-0.480013,-3.109402,0.1296448,0.6702378,0.58144736,-2.9943779
1.4900102615356445,0.05251732,-3.3337994,0.12515152,0.32607996,1.3524176,-3.2941887
1.5101253986358643,-0.16967788,-3.4269485,0.19691558,0.103461355,1.0423605,-3.4921598
1.5302350521087646,0.08988476,-3.2110107,0.16056207,-0.7657106,0.84049815,-3.290273
1.5504093170166016,0.03429715,-3.1713896,0.20412062,-1.6917177,0.23247072,-2.8944159
1.57051682472229,0.03429715,-3.1713896,0.20412062,-1.6917177,0.23247072,-2.8944159
1.5906054973602295,0.2992212,-3.1577034,0.18139486,-2.55791,0.26043075,-2.9676967
1.610701560974121,0.42043173,-3.095539,0.18598293,-3.5555944,-0.07666198,-3.1047418
1.6307835578918457,0.62960947,-2.8475277,0.22275798,-4.3295035,-0.3751565,-2.955992
1.6508636474609375,-0.0759543,-3.1058044,0.25603265,-5.1711993,-0.74073124,-3.1263833
1.670936107635498,0.6160183,-2.8370504,0.24004565,-5.0287,-0.6865075,-2.951907
1.6916372776031494,0.6160183,-2.8370504,0.24004565,-5.0287,-0.6865075,-2.951907
1.7117209434509277,0.33348006,-3.0773866,0.28214604,-5.355686,-0.7228057,-3.3642952
1.7321650981903076,0.1636485,-3.120842,0.282312,-5.502297,-0.8204008,-3.357012
1.7521288394927979,-0.16441046,-3.1639998,0.29835048,-5.4829364,-0.93709785,-3.1691346
1.772282600402832,-0.16441046,-3.1639998,0.29835048,-5.4829364,-0.93709785,-3.1691346
1.7929096221923828,-0.36906207,-3.0238342,0.26781866,-5.3008227,-1.1720088,-2.7548983
1.8130130767822266,-0.046515334,-3.102881,0.2859709,-5.4382043,-0.89429265,-3.0970738
1.833120584487915,-0.046515334,-3.102881,0.2859709,-5.4382043,-0.89429265,-3.0970738
1.853264570236206,0.37009466,-3.1085591,0.28933588,-5.369473,-0.7718181,-3.359073
1.8738086223602295,0.28561568,-3.0988786,0.29738352,-5.350821,-0.9399343,-3.3247356
1.893902063369751,0.2581305,-3.083152,0.30172893,-5.367594,-0.97293574,-3.2805855
1.9139823913574219,0.315041,-3.0721898,0.30650952,-5.3792615,-0.9449589,-3.3055007
1.93454909324646,-0.052019525,-3.262808,0.34410295,-5.5301547,-1.0217949,-3.4212089
1.9547679424285889,-0.052019525,-3.262808,0.34410295,-5.5301547,-1.0217949,-3.4212089
1.9748013019561768,0.031128,-3.1319695,0.3244281,-5.5357,-1.0910274,-3.2109623
1.9949123859405518,0.04987086,-3.1158452,0.33122548,-5.5343275,-1.0866791,-3.205778
2.0159950256347656,0.14037849,-3.1086326,0.335335,-5.5470557,-1.0368885,-3.2614768
2.0361454486846924,0.1627359,-3.1176567,0.34060475,-5.562502,-1.0369965,-3.3126404
2.056173801422119,-0.0510708,-3.2777643,0.3658413,-5.6573863,-1.0397389,-3.4466977
2.0762839317321777,0.4228685,-3.1113212,0.34324232,-5.5903773,-0.89377326,-3.425521
2.096406936645508,0.4228685,-3.1113212,0.34324232,-5.5903773,-0.89377326,-3.425521
2.116511106491089,0.12043233,-3.2679033,0.37079385,-5.627405,-0.9561805,-3.569288
2.1366214752197266,0.8338009,-3.0836763,0.3500335,-5.4864864,-0.6399077,-3.6338122
2.1570193767547607,0.9279825,-3.1923833,0.38751665,-5.4379487,-0.43121642,-4.0026684
2.1769559383392334,1.1412079,-3.229976,0.40049395,-5.3798747,-0.23794419,-4.252471
2.1969759464263916,1.2808602,-3.1470795,0.40276685,-5.1802096,-0.18213922,-4.1985025
2.217045307159424,1.2808602,-3.1470795,0.40276685,-5.1802096,-0.18213922,-4.1985025
2.2371504306793213,1.3270085,-3.1223307,0.4118397,-5.097732,-0.120344825,-4.2072253
2.257516622543335,1.2145641,-3.3173523,0.41174248,-5.3066645,0.000818904,-4.6132793
2.2773749828338623,1.2473425,-3.3599975,0.4014888,-5.2983756,0.062211927,-4.64787
2.2974650859832764,1.2150486,-3.3336544,0.40928474,-5.1890626,0.038599905,-4.528498
2.3175580501556396,1.225036,-3.3241346,0.41239128,-5.152215,0.070010595,-4.510726
2.3376033306121826,1.2463944,-3.318755,0.4192854,-5.146694,0.09915691,-4.520357
2.358302116394043,1.2463944,-3.318755,0.4192854,-5.146694,0.09915691,-4.520357
2.3784356117248535,1.2702665,-3.310233,0.4282156,-5.154118,0.120770745,-4.5305085
2.398528575897217,1.2955933,-3.2980068,0.43896315,-5.1654935,0.14000314,-4.5359697
2.418581247329712,1.3228049,-3.2851565,0.4511179,-5.177366,0.1604321,-4.5382876
2.438704013824463,1.3505421,-3.2721763,0.46441308,-5.1863856,0.18254018,-4.536667
2.458770990371704,0.9842292,-3.1878386,0.5140087,-5.071445,-0.22712892,-4.1463895
2.478893995285034,0.7715913,-3.1400452,0.5192199,-5.084502,-0.34962016,-3.951251
2.498974084854126,0.7715913,-3.1400452,0.5192199,-5.084502,-0.34962016,-3.951251
2.5191361904144287,0.5969782,-3.1364346,0.53594416,-5.1282907,-0.4123581,-3.8572905
2.5391902923583984,0.56915295,-3.231684,0.5293139,-5.447404,-0.5706751,-3.9677327
2.559253454208374,0.6828082,-3.2485967,0.5322637,-5.5610647,-0.48565167,-4.1437473
2.5793943405151367,0.7815527,-3.236905,0.55134803,-5.441837,-0.32043177,-4.2722216
2.5994584560394287,0.83564705,-3.2590427,0.56935453,-5.428203,-0.26595896,-4.380191
2.61973237991333,0.83564705,-3.2590427,0.56935453,-5.428203,-0.26595896,-4.380191
2.6399974822998047,0.8511491,-3.277859,0.5822435,-5.429565,-0.22757882,-4.449941
2.659980297088623,0.8528692,-3.2958694,0.5930539,-5.4286194,-0.19005138,-4.4994802
2.6803107261657715,0.76519126,-3.3084278,0.6109459,-5.393685,-0.24345475,-4.462942
2.700263738632202,0.69685066,-3.3421915,0.62703896,-5.4185033,-0.23835582,-4.4944434
2.720329999923706,0.8145598,-3.3677816,0.6330285,-5.4172473,-0.0066241664,-4.6561737
2.7404260635375977,0.89422965,-3.3862047,0.6429413,-5.454532,-0.045021,-4.7138066
2.760504722595215,0.89422965,-3.3862047,0.6429413,-5.454532,-0.045021,-4.7138066
2.7809135913848877,0.8534908,-3.4115238,0.6604174,-5.4261556,-0.054131452,-4.736697
2.8008220195770264,0.8040354,-3.4371452,0.67524415,-5.39373,-0.060260836,-4.7331667
2.8208858966827393,0.74220705,-3.4642792,0.6885351,-5.390139,-0.061654393,-4.727147
2.8409528732299805,1.1811498,-3.309059,0.6489056,-5.280575,0.031232532,-4.6770763
2.8610353469848633,0.77868426,-3.4268708,0.70655954,-5.278891,-0.0014516753,-4.7236323
2.88110613822937,1.1566262,-3.31748,0.6662322,-5.2263145,0.0667538,-4.687365
2.9029994010925293,1.1566262,-3.31748,0.6662322,-5.2263145,0.0667538,-4.687365
2.923048257827759,0.72569966,-3.4532695,0.72625047,-5.2490153,0.028122004,-4.741459
2.9431188106536865,1.0882671,-3.3506725,0.6871216,-5.2234364,0.07582467,-4.7023506
2.9633095264434814,1.1462245,-3.3054414,0.69144607,-5.175904,0.109543376,-4.6977835
2.983429431915283,0.64619184,-3.4735577,0.7532988,-5.2159686,0.045210894,-4.7585516
3.0037455558776855,0.99072945,-3.3894663,0.7151051,-5.2240787,0.076035194,-4.729807
3.023874044418335,0.99072945,-3.3894663,0.7151051,-5.2240787,0.076035194,-4.729807
3.0439817905426025,1.0382872,-3.3572202,0.72045535,-5.1945214,0.10355895,-4.739459
3.0641026496887207,1.0381703,-3.3521252,0.72781307,-5.1844935,0.11421519,-4.7594604
3.084174156188965,1.0552877,-3.3930364,0.73835915,-5.1807375,0.18111748,-4.913431
3.104487895965576,1.1835577,-3.4354305,0.75143486,-5.201625,0.27747196,-5.0222898
3.1245102882385254,1.2101924,-3.4777853,0.7590227,-5.422917,0.19490618,-5.145746
3.1446022987365723,0.6131096,-3.6511822,0.8090682,-5.8738008,-0.16195184,-5.2242365
3.1647047996520996,0.6131096,-3.6511822,0.8090682,-5.8738008,-0.16195184,-5.2242365
3.184807300567627,0.10420181,-3.6096888,0.8216787,-6.110517,-0.60694975,-4.8549404
3.2049200534820557,0.44306517,-3.5710914,0.77095693,-5.921907,-0.36665386,-4.909029
3.225003242492676,0.4967146,-3.578251,0.7737107,-5.7634506,-0.3024338,-4.992896
3.245450735092163,0.459108,-3.604226,0.7801916,-5.878641,-0.40399796,-5.1076994
3.265507936477661,0.459108,-3.604226,0.7801916,-5.878641,-0.40399796,-5.1076994
3.285764455795288,0.4439857,-3.5951178,0.78044355,-5.9351583,-0.46050984,-5.209984
3.3066465854644775,0.5194316,-3.58771,0.78366315,-5.849264,-0.36477846,-5.3051414
3.326977014541626,0.5840268,-3.5854874,0.79281926,-5.8026266,-0.30832928,-5.425459
3.346893072128296,0.8113544,-3.5011811,0.7948439,-5.6674256,-0.10826189,-5.640489
3.368757724761963,0.8113544,-3.5011811,0.7948439,-5.6674256,-0.10826189,-5.640489
3.38883376121521,0.52544653,-3.6394196,0.8077297,-5.692595,-0.16184705,-5.8012424
3.409090042114258,0.8746258,-3.5302267,0.80959356,-5.7003574,-0.07173676,-5.7431726
3.4290692806243896,0.5851829,-3.6411178,0.8052187,-5.7499523,-0.13841206,-5.856245
3.4491286277770996,0.92683434,-3.5320299,0.8135065,-5.7177567,-0.013328735,-5.750392
3.469308853149414,0.6658397,-3.646766,0.81657284,-5.749168,-0.065366216,-5.886899
3.4894018173217773,0.6658397,-3.646766,0.81657284,-5.749168,-0.065366216,-5.886899
3.509490728378296,0.72544694,-3.6486201,0.82561475,-5.797857,-0.024782602,-5.8689184
3.5295634269714355,0.79980564,-3.6384783,0.8311226,-5.811771,0.018146332,-5.867299
3.549654483795166,0.7009479,-3.6829996,0.8407318,-5.8124485,0.031393822,-5.8990974
3.5697197914123535,1.0428171,-3.53444,0.8565284,-5.625991,0.17884666,-5.7183785
3.589782238006592,0.7269597,-3.656599,0.8598094,-5.739881,0.06684654,-5.8894806
3.6098792552948,0.7269597,-3.656599,0.8598094,-5.739881,0.06684654,-5.8894806
3.6300837993621826,1.0746006,-3.5412664,0.86944777,-5.6347775,0.22984594,-5.723436
3.650078773498535,0.72452354,-3.637672,0.88470966,-5.6707187,0.08818572,-5.8394537
3.670332193374634,1.0984808,-3.542858,0.8864938,-5.6419644,0.25643665,-5.704308
3.690490961074829,0.73301566,-3.6448355,0.9031041,-5.6829743,0.115500025,-5.8380947
3.71053409576416,1.0303059,-3.5663178,0.90890384,-5.6548467,0.2147389,-5.6749425
3.7305891513824463,0.7213446,-3.6594195,0.9246784,-5.7214613,0.12025004,-5.8165507
3.7516634464263916,0.7213446,-3.6594195,0.9246784,-5.7214613,0.12025004,-5.8165507
3.771784782409668,1.1026917,-3.5516875,0.9110041,-5.7017784,0.28971642,-5.7264266
3.791860818862915,0.857893,-3.6166945,0.9110219,-5.7227044,0.20832819,-5.858424
3.8125298023223877,0.84580255,-3.6472206,0.9121491,-5.780143,0.26385874,-5.8499784
3.832512140274048,1.1029036,-3.5765548,0.944971,-5.6827183,0.33230537,-5.6386147
3.852588415145874,0.71870494,-3.6796865,0.9790627,-5.7392383,0.16338605,-5.7309036
3.872661828994751,0.987098,-3.5994074,0.9653857,-5.755174,0.23984677,-5.6394978
3.892765760421753,0.987098,-3.5994074,0.9653857,-5.755174,0.23984677,-5.6394978
3.912838935852051,0.62769663,-3.7008953,0.9939166,-5.8201194,0.109140925,-5.73206
3.932938814163208,0.9114902,-3.6138964,0.98132044,-5.8182073,0.19209975,-5.645278
3.9529812335968018,0.87871885,-3.6000843,0.9899065,-5.792545,0.1425646,-5.6717973
3.9730887413024902,0.53928566,-3.7093098,1.0125184,-5.8875117,0.033882793,-5.7423086
3.9932048320770264,0.82129765,-3.6212714,1.0041853,-5.879213,0.12278622,-5.655843
4.013257265090942,0.8837402,-3.5748549,1.009127,-5.815448,0.10473805,-5.6609955
4.03346061706543,0.8837402,-3.5748549,1.009127,-5.815448,0.10473805,-5.6609955
4.0535759925842285,0.48059702,-3.7039132,1.031346,-5.9249997,-0.037185375,-5.763923
4.073659658432007,0.8210249,-3.6097064,1.0217226,-5.932141,0.09553974,-5.706012
4.093773365020752,0.4305668,-3.7195454,1.0448705,-5.9820924,-0.066066094,-5.7797527
4.113874912261963,0.82848215,-3.6090083,1.0339872,-5.9783907,0.0996794,-5.743963
4.133976459503174,0.39674234,-3.7209275,1.056909,-6.007452,-0.09585685,-5.791774
4.154036283493042,0.81368756,-3.6045508,1.0470637,-6.0047507,0.08261686,-5.7656
4.174138307571411,0.81368756,-3.6045508,1.0470637,-6.0047507,0.08261686,-5.7656
4.194287538528442,0.37281895,-3.7180777,1.065893,-6.03029,-0.12381763,-5.8095994
4.214310169219971,0.77840126,-3.6021926,1.0603648,-6.0278287,0.052272495,-5.777212
4.23476767539978,0.31608868,-3.7191515,1.0773011,-6.060196,-0.16567224,-5.809865
4.254899263381958,0.7248516,-3.6027524,1.0736463,-6.059383,0.012508091,-5.7806444
4.2749738693237305,0.24529506,-3.7217667,1.0887626,-6.096453,-0.2155053,-5.803423
4.295335054397583,0.65900075,-3.604841,1.0866829,-6.0963697,-0.034998838,-5.779397
4.315808296203613,0.65900075,-3.604841,1.0866829,-6.0963697,-0.034998838,-5.779397
4.3358283042907715,0.20294358,-3.7191923,1.0938765,-6.135881,-0.25827307,-5.8176527
4.356190919876099,0.6198833,-3.601455,1.0968877,-6.1264057,-0.068788,-5.7856264
4.376142740249634,0.19776227,-3.7086391,1.0979489,-6.1719775,-0.27895778,-5.836882
4.396319150924683,0.60620284,-3.593645,1.1062202,-6.1437945,-0.08271796,-5.7902822
4.416348695755005,0.15804745,-3.7008638,1.1040895,-6.192958,-0.3150093,-5.830101
4.4365456104278564,0.15804745,-3.7008638,1.1040895,-6.192958,-0.3150093,-5.830101
4.456538438796997,0.5774205,-3.5877423,1.1155536,-6.165522,-0.09970982,-5.784784
4.476622581481934,0.14613868,-3.6869392,1.1106371,-6.2111006,-0.3342219,-5.833322
4.496713876724243,0.57431054,-3.5775702,1.1226827,-6.1800036,-0.09874684,-5.7838926
4.516826629638672,0.12240209,-3.6752594,1.1194394,-6.2203135,-0.3549903,-5.8287554
4.53690242767334,0.12240209,-3.6752594,1.1194394,-6.2203135,-0.3549903,-5.8287554
4.557024002075195,0.5595987,-3.5678287,1.1310345,-6.1944385,-0.104183026,-5.7758684
4.577077150344849,0.10387005,-3.6607428,1.1281947,-6.2319236,-0.37388617,-5.8242373
4.597170829772949,0.54998493,-3.5553255,1.1384935,-6.2063527,-0.106130786,-5.764433
4.617259979248047,0.08163728,-3.6439278,1.1368488,-6.239141,-0.39487404,-5.81293
4.637329339981079,0.5824821,-3.533722,1.1316762,-6.213339,-0.05530304,-5.7536187
4.657953500747681,0.10988356,-3.6035948,1.1242758,-6.2068334,-0.36914235,-5.804385
4.677922487258911,0.10988356,-3.6035948,1.1242758,-6.2068334,-0.36914235,-5.804385
4.698003768920898,0.6202514,-3.508553,1.1346565,-6.188642,-0.003239457,-5.718874
4.718059539794922,0.15607716,-3.5721195,1.1300727,-6.1868925,-0.3275861,-5.787448
4.738136053085327,0.1266507,-3.596324,1.1187917,-6.3124933,-0.25831193,-5.74198
4.7582948207855225,0.6743698,-3.486573,1.1408175,-6.1919055,0.10573273,-5.6639223
4.7783203125,0.2448491,-3.53697,1.1376935,-6.1611423,-0.23978704,-5.7638226
4.79837703704834,0.20373608,-3.5458307,1.1250173,-6.2687225,-0.18459779,-5.701332
4.818483114242554,0.20373608,-3.5458307,1.1250173,-6.2687225,-0.18459779,-5.701332
4.838681221008301,0.4598775,-3.4884872,1.14745,-6.1788306,-0.013920728,-5.577879
4.858699560165405,0.1413237,-3.5150409,1.1431266,-6.2046437,-0.21015376,-5.629264
4.878786325454712,0.4176165,-3.468027,1.1548481,-6.1869664,0.0014451104,-5.5163765
4.906105041503906,0.4176165,-3.468027,1.1548481,-6.1869664,0.0014451104,-5.5163765
4.936147928237915,0.4176165,-3.468027,1.1548481,-6.1869664,0.0014451104,-5.5163765
4.962540864944458,0.4176165,-3.468027,1.1548481,-6.1869664,0.0014451104,-5.5163765
4.982609033584595,0.123003975,-3.4874587,1.1510458,-6.2067447,-0.1774475,-5.5582733
5.003197193145752,0.32263398,-3.4467747,1.1665117,-6.178866,-0.017637316,-5.42019
5.02311110496521,0.06955446,-3.46056,1.1617466,-6.2199225,-0.16106433,-5.47248
5.043152093887329,0.45396042,-3.383692,1.1891059,-6.1224136,0.10983854,-5.3005133
5.063235759735107,0.11590637,-3.4055586,1.1796895,-6.1701427,-0.11072261,-5.442053
5.083442687988281,-0.027538288,-3.4416103,1.18324,-6.246414,-0.15788752,-5.316895
5.103574752807617,-0.027538288,-3.4416103,1.18324,-6.246414,-0.15788752,-5.316895
5.12378454208374,0.41027546,-3.351981,1.2133842,-6.149713,0.16595203,-5.176387
5.144010543823242,0.07892682,-3.3724487,1.2079183,-6.186231,-0.08555622,-5.329689
5.164154529571533,-0.030045737,-3.3777885,1.1996169,-6.2473955,-0.07597882,-5.2284727
5.187070846557617,-0.030045737,-3.3777885,1.1996169,-6.2473955,-0.07597882,-5.2284727
5.206998825073242,-0.030045737,-3.3777885,1.1996169,-6.2473955,-0.07597882,-5.2284727
5.227476358413696,0.42286205,-3.289671,1.2360647,-6.123285,0.27350682,-5.0965056
5.247285604476929,0.12770928,-3.2842264,1.2289319,-6.1300716,0.056775983,-5.236898
5.267452955245972,0.027679693,-3.2861993,1.2274566,-6.174476,0.08230179,-5.1223826
5.287754535675049,-0.011448849,-3.2700534,1.2382158,-6.1855474,0.13564849,-5.038459
5.307672500610352,-0.0072119124,-3.2560818,1.2530553,-6.1907187,0.22490013,-5.00426
5.328101873397827,0.019144785,-3.232017,1.2650825,-6.1713195,0.30137235,-4.9622636
5.348219871520996,0.019144785,-3.232017,1.2650825,-6.1713195,0.30137235,-4.9622636
5.368272542953491,0.023973,-3.1916413,1.275206,-6.126174,0.34344417,-4.8765965
5.388362884521484,0.01619066,-3.1546884,1.2919093,-6.0896964,0.40427566,-4.803515
5.40924596786499,0.014140617,-3.1202757,1.3109509,-6.0551867,0.46627373,-4.7414255
5.429495811462402,0.028448831,-3.097399,1.3357167,-6.0313106,0.56177086,-4.714303
5.449575424194336,2.6269238,1.2955093,-1.4226485,-0.9307796,3.2963932,3.4506247
5.469860315322876,2.970747,1.3578566,-3.4614964,3.1284807,5.1602445,5.9802675
5.48995041847229,2.970747,1.3578566,-3.4614964,3.1284807,5.1602445,5.9802675
5.510058403015137,0.78372264,0.27649575,-3.681672,4.5366707,3.152931,4.9391074
5.530132532119751,0.6396718,0.79000133,-2.362966,5.1597886,1.9816552,3.928982
5.550234794616699,-0.15961502,-0.4790482,0.2841402,4.0621295,-0.39117754,-0.0982121
5.57030177116394,-0.7126734,-0.19480832,0.7895741,2.0463414,1.1266736,-1.4189506
5.59051513671875,-1.025059,-0.89608157,0.65561306,1.2419798,1.452122,-2.2217417
5.610494613647461,-0.37205473,-0.7145085,0.7333425,0.26061156,2.494749,-2.5906222
5.6305670738220215,-0.37205473,-0.7145085,0.7333425,0.26061156,2.494749,-2.5906222
5.650690078735352,-0.038243104,-1.1182429,1.0051792,-0.33248207,2.7223787,-2.9934947
5.670791387557983,0.1579657,-1.2818488,1.078767,-1.295628,3.029978,-3.1616733
5.690875291824341,0.23232247,-1.8122891,1.0482814,-2.6224165,2.4076588,-3.3812993
5.711009502410889,0.88033605,-2.5301967,0.9850894,-3.672704,2.2340376,-3.58271
5.731050252914429,0.7517959,-2.213316,1.2704694,-4.3491354,2.1584558,-3.5223858
5.751249551773071,0.37505364,-2.530655,1.4503549,-4.8600593,1.2130513,-4.1101193
5.77149510383606,0.37505364,-2.530655,1.4503549,-4.8600593,1.2130513,-4.1101193
5.791501998901367,0.20497395,-2.8321476,1.4772931,-5.2958837,1.1947844,-4.3307037
5.811579704284668,2.7752285,1.1153756,-1.4202718,-0.48365188,3.544913,3.6278028
5.831784248352051,3.0669632,1.3830453,-3.4801025,3.3980553,5.222528,6.157427
5.8517680168151855,0.9293234,0.4711144,-3.4282446,4.6918654,3.283505,5.0777454
5.871887683868408,0.79837656,0.9733029,-2.164734,5.1274858,2.180484,4.085991
5.892221927642822,0.79837656,0.9733029,-2.164734,5.1274858,2.180484,4.085991
5.912319898605347,-0.08578996,-0.26970828,0.2769291,3.9614537,-0.13879251,0.14504495
5.93244743347168,-0.67935526,0.03498836,0.75714654,2.1256526,1.2414626,-1.1447971
5.952493190765381,-0.96321726,-0.5909136,0.61944306,1.3000597,1.6785245,-1.7512566
5.972569227218628,-0.42321944,-0.3327558,0.75627697,0.6894994,2.7664013,-2.0672932
5.992759466171265,-0.51511437,-1.0397147,0.9906564,0.31785473,2.0281575,-2.6553555
6.012986898422241,-0.009671021,-1.1926274,1.0414674,-1.26633,3.1033504,-2.9677756
6.033056974411011,-0.009671021,-1.1926274,1.0414674,-1.26633,3.1033504,-2.9677756
6.0531604290008545,0.21055485,-1.507719,1.2405741,-2.5661976,2.4247155,-3.1754735
6.073284149169922,0.07629241,-2.083743,1.3600998,-4.5194354,2.2704813,-3.353755
6.093821287155151,-0.06597637,-2.663199,1.4949671,-4.9312677,1.2925421,-3.9324863
6.1139302253723145,0.45161343,-3.0317254,1.5507215,-5.4231,1.6034234,-4.4783573
6.1339991092681885,0.29018056,-3.0241666,1.42305,-5.5326524,1.1883078,-4.474262
6.15435266494751,-1.2879248,-2.4188187,1.0717154,-5.186725,-0.6156499,-4.904248
6.174486875534058,-1.2879248,-2.4188187,1.0717154,-5.186725,-0.6156499,-4.904248
6.195357322692871,-1.2361062,-2.1511045,1.1216123,-4.8543754,0.1493628,-4.3812804
6.2151100635528564,-1.3538893,-1.9823675,1.2544435,-4.673154,-0.33757135,-4.53993
6.235247373580933,-1.1340859,-1.9320847,1.2564768,-4.9229236,0.03422683,-4.261994
6.255171537399292,-1.691864,-1.7891947,1.3389448,-4.508371,-0.44542998,-4.27304
6.275262355804443,-1.1592479,-1.8804951,1.3122653,-4.803588,0.25137216,-4.16247
6.295386552810669,-1.6747338,-1.815188,1.3490708,-4.553969,-0.37104255,-4.254196
6.315420150756836,-1.6747338,-1.815188,1.3490708,-4.553969,-0.37104255,-4.254196
6.335594177246094,-1.0909597,-1.8332418,1.2841173,-4.859154,0.45007932,-3.99562
6.35561728477478,-0.23933099,-2.5560527,1.6254297,-5.111298,1.536987,-3.3131402
6.375829458236694,0.68433845,-2.7924485,1.6993421,-5.16263,2.170151,-3.6592343
6.395831108093262,0.6490338,-2.737368,1.57145,-5.1230536,1.847037,-3.756292
6.415992736816406,0.49536288,-2.788599,1.5506634,-5.2366657,1.8027141,-3.6401708
6.435991287231445,0.49536288,-2.788599,1.5506634,-5.2366657,1.8027141,-3.6401708
6.456069707870483,0.63059306,-2.815393,1.5527238,-5.2330146,1.8929802,-3.4402537
6.476214170455933,0.81256044,-2.7365544,1.5505501,-5.1432595,1.9623969,-3.2882042
6.496240854263306,0.34938633,-2.7009592,1.568965,-5.191628,1.6464909,-3.3351777
6.516495943069458,0.6331959,-2.6996965,1.571601,-5.1647186,1.9030719,-3.084831
6.536769151687622,2.944004,1.0664725,-1.5644474,-0.0815531,3.8239002,4.054072
6.556637287139893,3.207714,1.1944706,-3.634811,3.4233973,5.1816363,6.2861676
6.576773166656494,3.207714,1.1944706,-3.634811,3.4233973,5.1816363,6.2861676
6.5968382358551025,1.2271516,0.4713003,-3.4985256,5.0523214,3.467891,5.272852
6.616905689239502,0.90665674,0.9226033,-2.3877392,5.3477287,2.4984505,4.38098
6.637006998062134,1.279707,1.4174103,-2.0253587,5.3944182,2.904328,4.3114367
6.657082557678223,1.4211891,1.4576666,-2.0593152,5.272984,3.0189536,4.486765
6.677184820175171,0.24069323,2.4582648,-2.0693338,4.906729,2.108855,3.4152899
6.6972455978393555,0.24069323,2.4582648,-2.0693338,4.906729,2.108855,3.4152899
6.717366933822632,0.28625876,2.1236587,-1.501362,4.8458767,1.2668214,3.0236738
6.737451791763306,0.5111005,2.4153423,-1.3992853,4.766298,1.3840975,2.9427986
6.75774621963501,0.5504887,2.5102723,-1.4496855,4.7699304,1.4167042,3.0097291
6.777740955352783,0.53332734,2.588974,-1.4383045,4.78851,1.4026504,3.0232384
6.79798698425293,0.52471894,2.6389003,-1.4111001,4.777168,1.3932481,3.0132194
6.818049192428589,0.52220774,2.6710021,-1.3901039,4.7558484,1.3832276,3.0022209
6.838074445724487,0.5187264,2.6969075,-1.3732178,4.7343493,1.3747014,2.99144
6.858193397521973,0.5187264,2.6969075,-1.3732178,4.7343493,1.3747014,2.99144
6.878291368484497,0.5137099,2.7184649,-1.3573085,4.712212,1.366466,2.9801466
6.89841628074646,0.5081863,2.7368217,-1.3418034,4.6892653,1.3583777,2.968358
6.9184489250183105,0.50239587,2.7529435,-1.3267833,4.665712,1.3505604,2.9563622
6.938571214675903,0.49631882,2.7674303,-1.3122182,4.6417813,1.342988,2.9442961
6.958650350570679,0.48995864,2.7806587,-1.2980008,4.6175804,1.335609,2.9321795
6.978827714920044,0.48995864,2.7806587,-1.2980008,4.6175804,1.335609,2.9321795
6.998859405517578,0.4833504,2.7928708,-1.2840549,4.5931478,1.3283868,2.9200165
7.018928050994873,0.4765256,2.8042338,-1.2703346,4.568509,1.321296,2.9078152
7.039031028747559,1.1411672,1.7270025,-1.2081124,4.5074077,1.8534026,3.784495
7.059172630310059,1.292625,1.943528,-1.6355969,4.7469487,2.740033,4.0883064
7.0792927742004395,0.9398174,1.4477607,-1.7890577,4.506396,2.4580555,4.146798
7.099300146102905,0.87848806,1.3032132,-1.7465154,4.437763,2.3243582,3.9873955
7.119788646697998,0.87848806,1.3032132,-1.7465154,4.437763,2.3243582,3.9873955
7.139899969100952,0.8580108,1.1941223,-1.715218,4.339503,2.2929947,3.880276
7.159994125366211,0.8407355,1.127304,-1.7120055,4.2628183,2.2637744,3.824005
7.180245637893677,0.8117701,1.0821358,-1.706578,4.2060685,2.2297409,3.778812
7.200320720672607,0.77943283,1.0443984,-1.6940544,4.1473894,2.1904833,3.7315512
7.22038197517395,0.7489147,1.0094669,-1.6804248,4.088163,2.1518667,3.6844118
7.240526437759399,0.7190159,0.97532946,-1.6675438,4.0296626,2.1140327,3.638532
7.260629653930664,0.68881714,0.94116443,-1.655228,3.9714043,2.0759141,3.5930278
7.280691385269165,0.658334,0.9065444,-1.6432993,3.9132023,2.0373573,3.5471196
7.300856828689575,0.658334,0.9065444,-1.6432993,3.9132023,2.0373573,3.5471196
7.320906400680542,0.6277061,0.8715224,-1.631756,3.8550632,1.9985676,3.5007572
7.340993165969849,0.5969275,0.83603454,-1.6206274,3.7969441,1.959559,3.4539657
7.361084222793579,0.56603897,0.800273,-1.609856,3.7389781,1.9203091,3.4068725
7.381165027618408,0.5350716,0.76436216,-1.5993304,3.681168,1.8807638,3.359573
7.401321172714233,0.5040176,0.728172,-1.589007,3.6233118,1.8408688,3.3120372
7.421404838562012,0.47286594,0.6915968,-1.5789205,3.5653093,1.8006229,3.2642448
7.441468000411987,0.44158876,0.6545167,-1.5691093,3.5070806,1.7600098,3.2161882
7.461607933044434,0.44158876,0.6545167,-1.5691093,3.5070806,1.7600098,3.2161882
7.481688737869263,0.41023505,0.6171851,-1.5594984,3.449285,1.7191243,3.1677423
7.501818895339966,0.37883234,0.57979524,-1.549905,3.3920736,1.6779664,3.118759
7.521875858306885,0.34738272,0.54227626,-1.540278,3.3351839,1.6365054,3.0692027
7.542111873626709,0.31583187,0.5044636,-1.5307041,3.2783875,1.5947537,3.0191348
7.562119007110596,0.2982052,0.47528446,-1.523575,3.2276344,1.5633032,2.9920073
7.582165718078613,0.31938627,0.47161227,-1.5286722,3.199403,1.5696859,3.034843
7.602428674697876,0.31938627,0.47161227,-1.5286722,3.199403,1.5696859,3.034843
7.62244439125061,0.23630147,0.42720807,-1.536683,3.1445994,1.5231708,2.9396477
7.644174337387085,0.35128856,0.45003968,-1.5245379,3.1479826,1.5694462,3.088456
7.664238214492798,0.1541347,0.36997378,-1.5545566,3.0634468,1.4930488,2.8496602
7.68434739112854,0.1541347,0.36997378,-1.5545566,3.0634468,1.4930488,2.8496602
7.704608917236328,0.30352193,0.38663083,-1.5010148,3.0733945,1.4991868,3.002292
7.724578619003296,0.18241973,0.34299785,-1.5395423,3.0023937,1.4923787,2.8579276
7.7446558475494385,0.26877376,0.3397135,-1.5115299,3.0028136,1.491017,2.957756
7.764841794967651,0.21537004,0.31617653,-1.5354325,2.9578521,1.5045663,2.8949935
7.785320997238159,0.21537004,0.31617653,-1.5354325,2.9578521,1.5045663,2.8949935
7.805431842803955,0.23765059,0.29750538,-1.5253202,2.9408748,1.4981308,2.9172103
7.825499773025513,0.22893597,0.27750164,-1.5311521,2.9099422,1.511661,2.8973353
7.845730543136597,0.21746837,0.24687247,-1.5310642,2.8794053,1.5040483,2.8733203
7.865717172622681,0.21044861,0.21400551,-1.5267887,2.8461351,1.4977995,2.8454387
7.885841608047485,0.20531805,0.1773114,-1.5240958,2.8098955,1.494007,2.8185456
7.905898571014404,0.19961445,0.13683747,-1.5230668,2.7715745,1.4904163,2.7912805
7.926203489303589,0.19306363,0.09291844,-1.522971,2.731391,1.4865967,2.7625215
7.946115493774414,0.18587117,0.045519456,-1.5235789,2.6890624,1.4828444,2.7319472
7.966501951217651,0.18587117,0.045519456,-1.5235789,2.6890624,1.4828444,2.7319472
7.986476898193359,0.17823638,-0.004882708,-1.5249443,2.6447248,1.4792647,2.699837
8.006534814834595,0.17034583,-0.057209685,-1.5272933,2.5991037,1.4760356,2.6667974
8.026909828186035,0.16195057,-0.10965331,-1.531471,2.5535262,1.4732437,2.6335447
8.046890497207642,0.15283073,-0.16106005,-1.5368274,2.509107,1.4699779,2.5999603
8.06697154045105,0.14333455,-0.21069475,-1.5425078,2.465954,1.4661133,2.5664232
8.087006092071533,0.19774325,0.11964534,-1.5120829,2.4745433,1.5289458,2.668495
8.107056379318237,-0.015133727,-0.25585008,-1.5284404,2.3582227,1.4125841,2.433029
8.127223253250122,-0.015133727,-0.25585008,-1.5284404,2.3582227,1.4125841,2.433029
8.147364377975464,0.22992902,0.5401904,-1.4191571,2.51324,1.5534148,2.7355797
8.16741394996643,-0.15261601,-0.13061579,-1.4710437,2.2628558,1.3768915,2.3768356
8.187499284744263,0.07906924,-0.31094116,-1.4544344,2.2304425,1.3324527,2.44282
8.207561254501343,0.2218021,0.4299702,-1.4386626,2.3404715,1.6035472,2.6955965
8.22771167755127,-0.2372713,-0.24588008,-1.4058754,2.0989168,1.2451924,2.2114284
8.247737407684326,0.13919608,0.47516972,-1.3554312,2.2597406,1.5392107,2.6282074
8.267778635025024,-0.016410071,-0.1734875,-1.4011656,2.0907853,1.377536,2.3921978
8.28788948059082,-0.016410071,-0.1734875,-1.4011656,2.0907853,1.377536,2.3921978
8.308042526245117,0.061139118,-0.2509157,-1.5100542,2.0231395,1.4613143,2.444528
8.328089237213135,0.11522712,0.35182273,-1.4836402,2.1627655,1.5937333,2.6283822
8.348241329193115,-0.08606182,-0.25298607,-1.4176332,2.0127459,1.319405,2.2956514
8.368328094482422,0.1186461,0.45797813,-1.3919027,2.1379638,1.6230214,2.5938735
8.388521432876587,-0.13119222,-0.23791875,-1.3953332,1.8987919,1.3465254,2.249418
8.408520698547363,0.086213484,0.40879405,-1.3915652,2.0421665,1.6090715,2.5671446
8.429052591323853,-0.1508453,-0.17122371,-1.5635542,2.0893466,1.2889354,2.3877037
8.449236392974854,-0.1508453,-0.17122371,-1.5635542,2.0893466,1.2889354,2.3877037
8.46927285194397,-0.019585479,-0.17829077,-1.4055803,1.9440666,1.4026685,2.255363
8.489488124847412,0.029336315,-0.19348173,-1.4630903,1.8250757,1.4673278,2.3445532
8.509459018707275,-0.11713292,0.23527928,-1.6925191,2.304118,1.234709,2.5747745
8.529573917388916,-0.104832575,-0.09559812,-1.3382372,2.0407805,1.4360385,2.0998724
8.54962706565857,-0.018488664,-0.39974254,-1.3965421,1.7641325,1.3782179,2.147354
8.569758653640747,-0.05466396,0.46318692,-1.5875577,2.2293787,1.2597339,2.574574
8.590193510055542,-0.05466396,0.46318692,-1.5875577,2.2293787,1.2597339,2.574574
8.610369205474854,-0.088312045,-0.061461285,-1.2951803,1.9701525,1.4587823,2.0935256
8.630404233932495,-0.053096283,-0.40750116,-1.2629415,1.6643537,1.2525764,1.9773427
8.65059232711792,-0.039176438,0.47637922,-1.5551025,2.107527,1.253311,2.490987
8.670607089996338,-0.09372391,-0.100473896,-1.2038134,1.8992512,1.3674995,1.9659353
8.6908118724823,-0.04501142,-0.4507091,-1.2345066,1.5512362,1.2741019,1.908836
8.710869312286377,-0.05512576,0.4027741,-1.5490938,1.9956948,1.2197906,2.4198763
8.730923414230347,-0.12549545,-0.19624998,-1.1767781,1.7918749,1.3037076,1.8472041
8.751233339309692,0.041328173,0.31891418,-1.109964,1.7281064,1.3159323,2.1047666
8.771403312683105,0.041328173,0.31891418,-1.109964,1.7281064,1.3159323,2.1047666
8.791460275650024,-0.30384195,-0.24606307,-1.419292,1.6893593,1.082718,1.9293476
8.81153917312622,-0.023729939,0.26258075,-1.1347615,1.7479569,1.4393405,2.0820029
8.831611394882202,-0.3116335,-0.12522723,-1.6039889,1.9155887,0.95811784,2.0536404
8.851730823516846,-0.1445872,-0.40361297,-1.195296,1.6727909,1.3011433,1.6793478
8.871927976608276,-0.1325045,0.446122,-1.3694676,1.9543948,1.0516832,2.1477468
8.891968727111816,-0.10299997,-0.07593043,-1.0182278,1.6781169,1.3159022,1.7301677
8.912307262420654,-0.10299997,-0.07593043,-1.0182278,1.6781169,1.3159022,1.7301677
8.932267665863037,-0.17213722,-0.23772736,-1.4349227,1.771747,1.0250124,1.9030977
8.952323913574219,-0.014815349,0.3190065,-1.0441264,1.744278,1.4761252,1.9237236
8.972424745559692,-0.46128362,-0.07356997,-1.5690825,1.7658893,0.8377264,1.8695377
8.992942333221436,-0.1700962,-0.4566337,-1.065138,1.5642126,1.2054679,1.5128363
9.013038396835327,-0.16426985,0.41736698,-1.2948798,1.7732362,0.96628845,2.0157163
9.033113479614258,-2.2506258,1.1792971,-0.32021812,1.6180998,0.23122662,0.6052083
9.053188562393188,-2.7362711,0.44241053,-0.15889405,0.91434634,0.12319999,-0.49546453
9.073264122009277,-2.7362711,0.44241053,-0.15889405,0.91434634,0.12319999,-0.49546453
9.093473672866821,-2.8921366,-0.47180206,0.20340495,0.3590258,-0.10012231,-1.6344081
9.113671779632568,-2.644094,-1.9835279,0.9449217,-1.1174814,0.8917416,-2.87901
9.133687257766724,-2.6108336,-3.8224728,0.67039305,-1.90807,1.353169,-4.2967424
9.153939962387085,-1.7217684,-3.0891845,0.19717036,-2.46559,-0.10458488,-1.5941068
9.173883199691772,-1.1019263,-2.611629,-0.10614814,-1.9433261,0.4224847,-0.26779523
9.193969249725342,-0.60766864,-2.2101908,-0.21451409,-1.1304383,0.7086238,0.23089787
9.214012145996094,-0.096745476,-1.7638496,-0.27551493,-0.33833054,1.0289739,0.5528501
9.234119892120361,-0.096745476,-1.7638496,-0.27551493,-0.33833054,1.0289739,0.5528501
9.254201650619507,0.35269672,-1.3796057,-0.36920822,0.29102433,1.2277663,0.7204455
9.27432107925415,0.7177086,-1.2063242,-0.4729619,0.55488443,1.3040941,0.76463604
9.294352054595947,1.0448327,-0.8411103,-0.64076495,0.8727766,1.4673557,0.96594024
9.314573287963867,1.2382929,-0.3345701,-0.9750245,1.1467283,1.6314073,1.6630079
9.334546566009521,0.7383214,0.8285549,-1.0941429,1.774886,1.7757106,2.4719403
9.35463261604309,-0.3825839,0.20407043,-1.6272899,1.7455393,0.870424,1.7485567
9.375072002410889,-0.07559292,0.2139921,-0.7416998,1.9019885,1.0772238,1.345499
9.395216703414917,-0.07559292,0.2139921,-0.7416998,1.9019885,1.0772238,1.345499
9.415267944335938,0.1382036,-0.054791585,-0.634099,1.2536299,1.3588617,1.3728753
9.435447931289673,-0.1670706,-0.282511,-1.1482989,1.4670296,0.8195974,1.425953
9.455518007278442,0.12940498,0.55721873,-0.6494896,1.6163725,1.4112412,1.685906
9.475587606430054,-0.18185519,-0.26034075,-0.6378826,0.8723947,1.1761537,1.1919755
9.495760440826416,-2.1208923,1.2467438,-0.17397167,1.7010882,-0.83658797,-0.3655102
9.515864610671997,-2.595859,0.3042943,0.41107854,0.8882773,0.098666094,-1.0605868
9.535890579223633,-2.6652083,-1.283806,0.8091275,-0.030415624,0.015224244,-3.2693708
9.556365251541138,-0.9237358,-2.2941842,0.57019126,-0.62600076,0.7833853,-1.4104918
9.576471328735352,-0.9237358,-2.2941842,0.57019126,-0.62600076,0.7833853,-1.4104918
9.596587419509888,-0.71753997,-2.255915,0.0035702707,-0.10560277,1.0102808,-0.65174556
9.616681814193726,-0.19850145,-1.5828007,-0.15386243,0.6530552,1.4990478,0.0070675835
9.63672399520874,0.28593636,-1.2888004,-0.12957452,0.87166345,1.655822,0.03900697
9.65682339668274,0.45255876,-0.85082895,-0.27662247,1.0234054,1.8111377,0.4593257
