liuyurong129/humanoid-gym/humanoid/data/robot1_action_20250621-221215.csv
timestamp,joint_1,joint_2,joint_3,joint_4,joint_5,joint_6
0.00019478797912597656,0.0,0.0,0.0,0.0,0.0,0.0
0.020511150360107422,0.0,0.0,0.0,0.0,0.0,0.0
0.04043436050415039,0.0,0.0,0.0,0.0,0.0,0.0
0.06051492691040039,0.0,0.0,0.0,0.0,0.0,0.0
0.08059239387512207,0.0,0.0,0.0,0.0,0.0,0.0
0.10068416595458984,0.0,0.0,0.0,0.0,0.0,0.0
0.12078666687011719,1.3298875,-0.9307179,0.7302446,2.5537727,1.8532199,0.943713
0.14088797569274902,1.9881508,-1.2401447,1.2886128,3.229242,3.3069963,2.0015383
0.16095924377441406,2.0693026,-1.322182,1.6393555,3.8302574,3.7450233,2.0063326
0.18104052543640137,2.0558689,-1.4258294,1.7029084,3.924138,3.8639114,1.7301207
0.20117878913879395,2.003998,-1.4849888,1.7164518,3.9086843,3.8028994,1.5456119
0.22130990028381348,1.9759372,-1.5104067,1.7006712,3.8599396,3.7536933,1.468005
0.2416841983795166,1.9759372,-1.5104067,1.7006712,3.8599396,3.7536933,1.468005
0.2615928649902344,1.9664311,-1.5249703,1.6715609,3.8028672,3.7378213,1.4500856
0.28177404403686523,1.9696131,-1.5378859,1.6339616,3.7444997,3.7556686,1.4670599
0.3017690181732178,1.9809703,-1.5520991,1.5910499,3.6864593,3.7992294,1.5074466
0.3218514919281006,1.9963496,-1.5688235,1.5440303,3.6276531,3.861385,1.5674976
0.3420088291168213,2.0105388,-1.5899009,1.4924384,3.5659208,3.9386075,1.6520573
0.3620445728302002,2.0176458,-1.6171628,1.434491,3.5003629,4.0321636,1.7736826
0.38221287727355957,2.0176458,-1.6171628,1.434491,3.5003629,4.0321636,1.7736826
0.4022345542907715,2.0161974,-1.6480184,1.3661705,3.429355,4.14538,1.9276052
0.42237067222595215,1.9970212,-1.6872631,1.2824789,3.3440928,4.2668405,2.097108
0.44245338439941406,1.9532828,-1.7283694,1.1692989,3.2304296,4.432558,2.317342
0.46252942085266113,1.8631284,-1.7591205,0.9548139,3.066947,4.568383,2.6221843
0.48262572288513184,1.773231,-1.7549784,0.5507918,2.8020396,4.676827,3.0682297
0.5027287006378174,1.644785,-1.689806,-0.12436489,2.3930736,4.79409,3.8000572
0.5230112075805664,1.4025133,-1.6822244,-0.60481066,2.0302868,4.8997846,4.722869
0.543290376663208,1.4025133,-1.6822244,-0.60481066,2.0302868,4.8997846,4.722869
0.5636062622070312,1.223391,-1.7097659,-1.1920329,1.8314507,4.625623,4.9830847
0.5835881233215332,1.1105192,-1.684797,-1.4816915,1.8200665,4.4290614,5.139609
0.6039779186248779,1.064873,-1.6751689,-1.5637053,1.8772643,4.3291874,5.116245
0.6238555908203125,0.9712737,-1.6940901,-1.5521109,1.9098871,4.2458954,5.038562
0.643967866897583,0.8546063,-1.7202042,-1.5065224,1.9244497,4.1768184,4.9751945
0.6640455722808838,0.74252445,-1.7469759,-1.4528805,1.9336165,4.1082635,4.9278684
0.6841268539428711,0.55067027,-1.8166634,-1.3299624,1.9684765,3.8949819,4.7235775
0.7042174339294434,0.55067027,-1.8166634,-1.3299624,1.9684765,3.8949819,4.7235775
0.7243244647979736,0.28123882,-1.8614857,-1.2023674,1.9811369,3.6855965,4.668433
0.744483232498169,0.14285526,-1.8960931,-1.1134182,1.9921572,3.6094453,4.6745234
0.764531135559082,0.024330946,-1.9395012,-1.0040123,2.0261157,3.4287148,4.369422
0.7846775054931641,-0.11778942,-2.0236237,-0.7133458,2.1078277,3.1515,3.7111382
0.8048348426818848,-0.11746505,-2.0680296,-0.42996562,2.1179616,3.2445834,3.5843356
0.8250637054443359,-0.11746505,-2.0680296,-0.42996562,2.1179616,3.2445834,3.5843356
0.8451740741729736,-0.12519512,-2.0889068,-0.2493723,2.1570628,3.220038,3.5088058
0.8652157783508301,-0.023052065,-2.0822868,-0.12806779,2.1802764,3.2202642,3.3651268
0.8852732181549072,0.049900144,-2.0862885,-0.020107096,2.1963692,3.2394495,3.2544951
0.9053707122802734,0.047196597,-2.101333,0.074479036,2.219903,3.213864,3.1823814
0.9256012439727783,0.03616956,-1.8849696,-0.51525027,2.2164636,3.9235952,3.7269466
0.9456632137298584,0.2678832,-1.9674356,-0.41431767,2.198202,3.2856994,3.3094084
0.9658479690551758,0.2678832,-1.9674356,-0.41431767,2.198202,3.2856994,3.3094084
0.9858794212341309,-0.16431662,-2.116846,-0.18302204,2.0854692,2.8552318,3.5636306
1.0059726238250732,-0.11217037,-2.1315036,0.073035695,2.1945405,2.7730415,3.036833
1.0262086391448975,-0.42765728,-1.9319347,-0.35848945,2.3028111,2.7213442,3.2349682
1.0461764335632324,-0.2857723,-2.1411014,0.013195107,2.2544587,2.561649,3.0537643
1.066263198852539,-0.510686,-1.9406843,-0.26120377,2.3019183,2.2142665,2.9459386
1.0864756107330322,-0.510686,-1.9406843,-0.26120377,2.3019183,2.2142665,2.9459386
1.1065597534179688,-0.6439717,-2.2518115,0.20194486,2.2719126,2.023878,2.9188762
1.1266415119171143,-1.1179696,-2.1994848,-0.1037991,2.3294334,2.4815137,3.49007
1.1467540264129639,-0.6859369,-2.1907926,0.14510848,2.4151995,2.1219633,3.198952
1.1668596267700195,-1.1420217,-2.0787997,-0.085674115,2.457101,1.5758387,3.1218712
1.1869440078735352,-1.3836522,-2.4395638,0.43486604,2.453065,1.4638325,3.0687656
1.2070021629333496,-1.6865135,-2.2048354,0.046796285,2.4732473,0.9644064,3.068166
1.2270770072937012,-1.6865135,-2.2048354,0.046796285,2.4732473,0.9644064,3.068166
1.2471675872802734,-2.3041136,-2.4494476,0.037203066,2.4322917,0.72280484,3.195878
1.2672500610351562,-2.6987827,-2.5429559,0.032667004,2.4887323,0.35339686,3.149909
1.2875268459320068,-2.740468,-2.6413116,0.09321561,2.4425411,0.34507307,3.1887987
1.3075437545776367,-2.640997,-2.8507004,0.33980078,2.3500896,0.3233671,2.6536112
1.327617883682251,-3.0992334,-2.9250903,0.36357784,2.4300506,0.26145563,2.468226
1.3476884365081787,-3.4455085,-3.0668898,0.37095916,2.4823718,-0.08090213,2.1441712
1.3686432838439941,-3.4455085,-3.0668898,0.37095916,2.4823718,-0.08090213,2.1441712
1.3887526988983154,-3.8348835,-3.2574592,0.42970663,2.4876513,-0.55459267,1.6865711
1.4088551998138428,-4.25496,-3.4773407,0.5099577,2.4717321,-1.150797,0.97904605
1.42891526222229,-4.852788,-3.6703024,0.5154341,2.4721222,-1.9561791,0.02356835
1.449115514755249,-5.6832037,-3.8506465,0.49419737,2.525038,-2.966871,-1.2283763
1.4691102504730225,-6.4224396,-4.0374265,0.44798118,2.7429397,-4.092722,-2.5414958
1.4891791343688965,-7.1041794,-4.2170267,0.36642247,3.0207808,-5.399718,-4.071169
1.5092706680297852,-7.1041794,-4.2170267,0.36642247,3.0207808,-5.399718,-4.071169
1.5293872356414795,-7.4695797,-4.2728357,0.36083645,3.5701613,-6.697083,-5.457831
1.5494656562805176,-7.387145,-4.1688504,0.3620262,4.1305246,-7.500888,-6.2653027
1.5695385932922363,-7.1065264,-4.065189,0.36452335,4.551503,-7.8783607,-6.560436
1.5896117687225342,-6.791421,-3.967093,0.36784053,4.8460774,-8.042928,-6.619391
1.6096787452697754,-6.474757,-3.8852553,0.3683151,5.0086374,-8.138056,-6.588375
1.629776954650879,-6.168997,-3.787201,0.36840743,5.0948753,-8.133593,-6.502288
1.650423288345337,-6.168997,-3.787201,0.36840743,5.0948753,-8.133593,-6.502288
1.670464038848877,-5.9086943,-3.7196398,0.37097824,5.20082,-8.125195,-6.369073
1.6907715797424316,-5.7311587,-3.6833797,0.37429297,5.270841,-8.155304,-6.213532
1.7116177082061768,-5.5050993,-3.6299133,0.3729339,5.2504425,-8.229847,-5.9442415
1.7315287590026855,-5.310275,-3.6236453,0.3755278,5.350167,-8.186867,-5.6406965
1.7517127990722656,-5.0454245,-3.5658088,0.37551013,5.395095,-8.144993,-5.3594284
1.771721363067627,-5.0454245,-3.5658088,0.37551013,5.395095,-8.144993,-5.3594284
1.791804552078247,-4.7306356,-3.4782424,0.37666756,5.409095,-8.051726,-5.08075
1.8118906021118164,-4.3725224,-3.3790264,0.37909958,5.4219446,-7.9443235,-4.7885613
1.832026720046997,-4.0012374,-3.2760067,0.38243502,5.433027,-7.814572,-4.4922504
1.8521296977996826,-3.6427994,-3.1662683,0.37103918,5.3248086,-7.5880013,-4.2837934
1.8722269535064697,-3.3365133,-3.0635157,0.37450656,5.274302,-7.40834,-4.036107
1.8922557830810547,-3.0507615,-2.968698,0.37877318,5.132224,-7.1825514,-3.6723974
1.9130802154541016,-3.0507615,-2.968698,0.37877318,5.132224,-7.1825514,-3.6723974
1.933267593383789,-2.8464115,-2.8719773,0.3796316,4.941965,-6.913806,-3.3973565
1.9532947540283203,-2.6945536,-2.7828789,0.3836922,4.7453165,-6.67221,-3.1463642
1.9733688831329346,-2.5853357,-2.694611,0.38914573,4.5292277,-6.444055,-2.8943088
1.9934642314910889,-2.5027125,-2.6089401,0.39686316,4.300854,-6.2177978,-2.6299777
2.0138802528381348,-2.4489067,-2.5484338,0.40828782,4.1006327,-6.021216,-2.356933
2.033759117126465,-2.4881127,-2.5363312,0.40713108,3.9389403,-5.898683,-2.2456093
2.0538244247436523,-2.4881127,-2.5363312,0.40713108,3.9389403,-5.898683,-2.2456093
2.0740127563476562,-2.512108,-2.5102572,0.4083374,3.7843986,-5.778998,-2.1389747
2.0940277576446533,-2.519715,-2.4749866,0.4118055,3.6121132,-5.6383967,-2.005761
2.1145999431610107,-2.5445037,-2.4911613,0.42888808,3.6018047,-5.6610847,-1.8797609
2.134530782699585,-2.5536196,-2.4755697,0.4330831,3.5470161,-5.6325283,-1.7923226
2.1546061038970947,-2.5325167,-2.4228387,0.437717,3.4195266,-5.539204,-1.6862795
2.174670696258545,-2.4907181,-2.3533187,0.4431166,3.2333136,-5.3796034,-1.5414279
2.194788694381714,-2.4907181,-2.3533187,0.4431166,3.2333136,-5.3796034,-1.5414279
2.2148654460906982,-2.4330883,-2.2675858,0.45134172,2.99752,-5.1700177,-1.3587245
2.234973430633545,-2.3679736,-2.1715357,0.46109682,2.7239397,-4.9221063,-1.1559073
2.255030870437622,-2.9041321,-2.3624134,0.45508116,2.935317,-5.3598475,-1.644705
2.2754180431365967,-2.539982,-2.2535615,0.44331837,2.7652507,-5.0385346,-1.3294265
2.2952888011932373,-2.5550666,-2.2212896,0.43894926,2.6443663,-4.8546767,-1.3596681
2.315938949584961,-2.5550666,-2.2212896,0.43894926,2.6443663,-4.8546767,-1.3596681
2.335847854614258,-2.5566988,-2.169676,0.43797964,2.4422255,-4.7597795,-1.2718476
2.3559365272521973,-3.0518053,-2.185716,0.42348316,2.606434,-5.1952024,-1.9607328
2.3760321140289307,-2.4357986,-2.0246716,0.45027322,2.3584425,-4.730922,-1.175974
2.3961071968078613,-2.9841387,-2.0056677,0.40718937,2.4893322,-4.988991,-1.9891285
2.4161949157714844,-2.3474565,-1.8079435,0.4645101,2.0773845,-4.519263,-1.0113326
2.436401605606079,-2.3474565,-1.8079435,0.4645101,2.0773845,-4.519263,-1.0113326
2.4565718173980713,-3.3597922,-2.1588457,0.30881676,2.4961026,-4.7675624,-1.6265355
2.476727247238159,-3.3993886,-2.2605128,0.35541293,2.660481,-4.971993,-2.033018
2.4967451095581055,-3.5266151,-2.4542613,0.39790595,3.217046,-5.3987226,-2.4698448
2.516831159591675,-3.5241253,-2.5008707,0.41190553,3.6546333,-5.742384,-2.7621567
2.5369222164154053,-3.4206653,-2.49045,0.4137707,3.9427397,-5.9595494,-3.0314639
2.557309865951538,-3.2513456,-2.441236,0.41315168,4.152578,-6.0800796,-3.2205434
2.577423095703125,-3.2513456,-2.441236,0.41315168,4.152578,-6.0800796,-3.2205434
2.5975091457366943,-3.0385203,-2.368074,0.41347748,4.2871156,-6.112404,-3.3009152
2.6175718307495117,-2.7908847,-2.270722,0.41712385,4.3512006,-6.081204,-3.2882586
2.6382851600646973,-2.5200605,-2.1486578,0.4235384,4.3572354,-5.995452,-3.1939342
2.658343553543091,-2.2369998,-1.9969774,0.43266433,4.3051324,-5.8592076,-3.021625
2.6784415245056152,-1.8668773,-1.7360008,0.46036753,4.0486307,-5.5993466,-2.6375842
2.699270248413086,-1.3758507,-1.3850232,0.5115387,3.3300095,-4.9826217,-1.726951
2.71933650970459,-1.3758507,-1.3850232,0.5115387,3.3300095,-4.9826217,-1.726951
2.739441394805908,-1.6118157,-1.2961799,0.52984226,3.1611109,-4.962174,-1.8158696
2.7595627307891846,-1.4346743,-1.0570345,0.5913141,2.6126795,-4.688704,-1.1013954
2.779780387878418,-1.2476625,-0.8002441,0.6297416,2.0590026,-4.144963,-0.4799178
2.7999074459075928,-1.1531804,-0.50996804,0.6091099,1.4900992,-3.510583,0.0018971302
2.819955825805664,-1.0412544,-0.18295503,0.41040295,0.6692352,-2.3994677,0.7189711
2.8402886390686035,-1.0412544,-0.18295503,0.41040295,0.6692352,-2.3994677,0.7189711
2.8616855144500732,-1.2007961,0.22920531,-0.3041842,0.07810655,-1.5868565,0.8340867
2.8823282718658447,-0.16001439,1.1370866,-0.60820943,-2.0795748,-0.020672712,1.67495
2.9024195671081543,0.4457702,1.40418,-1.6262732,-3.2355187,0.86914784,2.2474241
2.9228267669677734,0.783085,1.4264665,-2.2103627,-3.8058934,0.81823736,2.5833354
2.942941427230835,0.783085,1.4264665,-2.2103627,-3.8058934,0.81823736,2.5833354
2.9630799293518066,0.55622363,1.1490601,-2.2302876,-3.1571732,0.31982723,2.0058455
2.983149528503418,0.28208736,0.9557922,-1.8694701,-3.045571,0.1920236,1.4597315
3.003305196762085,0.67753863,1.8074373,-2.17656,-4.4440765,0.5945807,2.42345
3.023390293121338,0.6917759,1.8480395,-2.4533029,-4.159297,0.32584175,2.6124213
3.0434584617614746,0.30993488,1.1648786,-2.1129878,-3.1796575,-0.04155359,1.7665744
3.0637168884277344,0.13150927,1.1874343,-1.8057144,-3.3040595,0.035959568,1.5189542
3.0838775634765625,0.49616176,1.8279873,-2.1170733,-4.4762645,0.4500359,2.369317
3.1039845943450928,0.49616176,1.8279873,-2.1170733,-4.4762645,0.4500359,2.369317
3.1240580081939697,0.5302973,1.8363432,-2.3418682,-4.23795,0.24198094,2.531919
3.1441447734832764,0.44756845,1.7009726,-2.3073347,-4.044742,0.108026,2.2733855
3.164217948913574,0.3633169,1.658551,-2.2400885,-3.9951968,0.08526155,2.1449368
3.1843554973602295,0.39679277,1.7896436,-2.2269063,-4.2485776,0.15386543,2.273935
3.2044310569763184,0.34229007,1.7508315,-2.225922,-4.165077,0.09440783,2.2510686
3.224483013153076,0.28745127,1.6965076,-2.1688528,-4.1227927,0.06443879,2.1630197
3.2445666790008545,0.23694578,1.6736786,-2.1151576,-4.1203866,0.055498507,2.118739
3.2646632194519043,0.23694578,1.6736786,-2.1151576,-4.1203866,0.055498507,2.118739
3.284742832183838,0.18530257,1.6433135,-2.0650322,-4.1096864,0.043506887,2.0776982
3.304825782775879,0.13484025,1.6143857,-2.0131419,-4.1024995,0.03149959,2.0377114
3.3250343799591064,0.084663644,1.589817,-1.9628776,-4.1007514,0.02019855,2.0021167
3.345123052597046,0.034619436,1.5676357,-1.9139668,-4.1019588,0.008936551,1.9697101
3.3652114868164062,-0.015409037,1.547683,-1.8660518,-4.1057096,-0.002432975,1.9398458
3.3852896690368652,-0.065604284,1.529734,-1.8191013,-4.1116242,-0.013879213,1.911983
3.405414342880249,-0.065604284,1.529734,-1.8191013,-4.1116242,-0.013879213,1.911983
3.42559552192688,-0.11595735,1.5133816,-1.7729563,-4.118875,-0.025446031,1.885175
3.44559907913208,-0.16633199,1.4983699,-1.7273537,-4.1270437,-0.037097845,1.8589958
3.4657034873962402,-0.21667854,1.4842364,-1.6820667,-4.1357245,-0.048711333,1.8331321
3.4857704639434814,-0.28267345,1.4891909,-1.6515827,-4.1142607,-0.124987334,1.7908762
3.5058488845825195,-0.3911696,1.519854,-1.6212763,-4.026685,-0.3209844,1.677566
3.52605938911438,-0.43369475,1.4369329,-1.5090117,-3.9663157,-0.28833613,1.5356643
3.546119451522827,-0.4548097,1.4254539,-1.4151137,-3.9656167,-0.26522496,1.5564868
3.5668821334838867,-0.4548097,1.4254539,-1.4151137,-3.9656167,-0.26522496,1.5564868
3.5869998931884766,-0.4983357,1.3894644,-1.3632004,-3.9321976,-0.27869353,1.515549
3.6073038578033447,-0.5331514,1.3626714,-1.2949339,-3.9256506,-0.28188267,1.4727821
3.6272382736206055,-0.5638841,1.3419747,-1.2333444,-3.9175665,-0.28719303,1.4401431
3.6473286151885986,-0.59440506,1.3156685,-1.1693407,-3.9031508,-0.29428878,1.4023486
3.667497158050537,-0.6232151,1.286862,-1.0987812,-3.8862062,-0.30160502,1.3640761
3.687532901763916,-0.651332,1.2526523,-1.0211153,-3.8626993,-0.31007022,1.3226777
3.7076001167297363,-0.67844397,1.2096378,-0.93171686,-3.8287141,-0.3195164,1.2759218
3.727865695953369,-0.67844397,1.2096378,-0.93171686,-3.8287141,-0.3195164,1.2759218
3.747936248779297,-0.7050274,1.1525359,-0.82484233,-3.7773738,-0.33105317,1.2212147
3.768022060394287,-0.73183215,1.0740163,-0.69090414,-3.6991947,-0.34606004,1.1543739
3.788133144378662,-0.7562392,0.9656974,-0.5158798,-3.5801802,-0.3648306,1.0727155
3.808201789855957,-0.8180948,0.90753615,-0.35818675,-3.4317312,-0.3318797,1.0883621
3.8282837867736816,-0.9170261,0.64108074,-0.11163316,-2.9115508,-0.4168078,0.86163384
3.8483428955078125,-0.9015242,0.3594848,0.28346667,-2.4843323,-0.44265878,0.8077499
3.868434190750122,-0.9015242,0.3594848,0.28346667,-2.4843323,-0.44265878,0.8077499
3.8886423110961914,-1.561008,0.7038616,-0.43577397,-2.047915,-0.35251507,0.29901394
3.9086906909942627,-1.3206913,0.2462827,0.46294606,-2.3817058,-0.387622,0.6771075
3.928739070892334,-1.5884621,0.5372728,-0.27163067,-1.8246331,-0.33745757,0.40709993
3.948824405670166,-1.3757997,0.052070707,0.56686497,-2.057431,-0.42977473,0.60299283
3.9689018726348877,-1.7446235,0.25968152,-0.031564035,-1.5384145,-0.4849543,0.29981884
3.988985538482666,-1.7243825,-0.27615836,0.7183661,-1.5293696,-0.7020883,0.4878486
4.009925365447998,-1.7243825,-0.27615836,0.7183661,-1.5293696,-0.7020883,0.4878486
4.030027866363525,-1.7890772,-0.7242632,0.72255677,-0.7854333,-0.633819,0.15675917
4.050106763839722,-2.4649072,-1.1859955,0.87520176,-0.027834956,-1.2871842,0.08569884
4.07020378112793,-3.4240162,-1.9238238,0.87871754,1.0895791,-2.3661358,-0.4620821
4.090313673019409,-3.8978565,-2.4726348,0.7819754,1.9719331,-2.6423979,-0.06548695
4.110609531402588,-4.645155,-3.0483527,0.66257614,3.193643,-3.2493181,-0.5620602
4.130538463592529,-5.2210393,-3.4322524,0.55361456,3.9589596,-3.8127825,-1.2119048
4.150649547576904,-5.835435,-3.6479473,0.46613756,4.3125443,-4.4430966,-2.072648
4.1707541942596436,-5.835435,-3.6479473,0.46613756,4.3125443,-4.4430966,-2.072648
4.190823078155518,-6.389064,-3.7689528,0.3726984,4.5246625,-5.135368,-3.0969837
4.21124005317688,-6.8121443,-3.8217587,0.33520037,4.698878,-5.866959,-4.110523
4.23119592666626,-7.0999336,-3.822782,0.33481008,4.8715496,-6.572963,-5.028275
4.251216650009155,-7.18093,-3.7766743,0.3681721,5.0656786,-7.1807237,-5.7664375
4.271276473999023,-7.0279837,-3.7003179,0.39827055,5.2700725,-7.59718,-6.262367
4.29139256477356,-6.675401,-3.5797787,0.4051905,5.4591913,-7.7392454,-6.4797797
4.311446666717529,-6.1202755,-3.3839169,0.40633234,5.7369113,-7.764608,-6.517934
4.331577777862549,-6.1202755,-3.3839169,0.40633234,5.7369113,-7.764608,-6.517934
4.351734399795532,-5.4732,-3.175404,0.40597028,5.982945,-7.681456,-6.419906
4.371829509735107,-4.7191505,-2.938541,0.4037429,6.2144494,-7.550492,-6.211631
4.391872406005859,-3.84546,-2.6867971,0.39978397,6.4417057,-7.3802123,-5.8977404
4.4119768142700195,-2.9986875,-2.4915166,0.38928768,6.547425,-7.093125,-5.5167994
4.432059288024902,-2.1384943,-2.2705734,0.3788337,6.672195,-6.822788,-5.0766993
4.452116012573242,-1.303323,-2.0714707,0.35719708,6.4220567,-6.3594275,-4.585495
4.472232341766357,-0.6690649,-1.8868598,0.35371494,6.2985325,-5.948541,-4.0675817
4.492254734039307,-0.18945214,-1.7139934,0.35710415,6.1645646,-5.5963774,-3.602217
4.512389898300171,-0.18945214,-1.7139934,0.35710415,6.1645646,-5.5963774,-3.602217
4.532606601715088,-0.47212303,-1.6990068,0.3668646,5.663899,-5.256168,-3.4958858
4.552579879760742,-0.09557453,-1.5883554,0.35907805,5.688318,-5.0861096,-3.1312242
4.572751998901367,-0.39657548,-1.6160656,0.36864963,5.312551,-4.887058,-3.1371381
4.592770338058472,-0.64456606,-1.651786,0.36291128,5.0957713,-4.776799,-3.1289756
4.613014459609985,-0.25824946,-1.5596672,0.3619511,5.2802763,-4.758203,-2.836914
4.633314609527588,-0.49913648,-1.5869237,0.37212074,4.9875164,-4.6383147,-2.893591
4.653156757354736,-0.49913648,-1.5869237,0.37212074,4.9875164,-4.6383147,-2.893591
4.673264026641846,-0.14052513,-1.4604484,0.37567723,5.096354,-4.5911846,-2.5748491
4.69344687461853,-0.37446317,-1.5040398,0.37891442,4.760623,-4.4269342,-2.6111722
4.713522672653198,-0.5805556,-1.5293895,0.36749268,4.5214953,-4.3056064,-2.5801032
4.7335205078125,-0.2278507,-1.3714963,0.37975502,4.634971,-4.2800565,-2.2060075
4.753630876541138,-0.42880347,-1.4733214,0.37023225,4.299089,-4.090289,-2.2813244
4.773757457733154,-0.4362052,-1.4212377,0.35786712,4.1635475,-3.9823258,-2.0860136
4.816932916641235,-0.4362052,-1.4212377,0.35786712,4.1635475,-3.9823258,-2.0860136
4.843291759490967,-0.4362052,-1.4212377,0.35786712,4.1635475,-3.9823258,-2.0860136
4.863375663757324,-0.35866016,-1.3615317,0.36150613,4.0388284,-3.8669207,-1.8842659
4.8835225105285645,-0.59970945,-1.4591159,0.3171255,3.600335,-3.6526175,-1.9518096
4.903584003448486,-0.41475376,-1.1881825,0.34793288,3.5126662,-3.5717552,-1.412945
4.923690557479858,-0.56574875,-1.393631,0.25014153,2.9809673,-3.2785847,-1.4975069
4.944081544876099,0.019018741,-1.2642579,0.54798526,2.5666723,-2.5874457,-0.61256915
4.964064121246338,-0.6547092,-1.079049,0.06329161,1.6700307,-2.365136,-0.5088359
4.984032154083252,-0.9727131,-1.2431407,0.6130248,1.8712425,-2.8153055,-0.5951684
5.004181861877441,-0.9727131,-1.2431407,0.6130248,1.8712425,-2.8153055,-0.5951684
5.024295091629028,-1.5420185,-1.361189,0.3395469,3.0427024,-3.7607915,-1.2703232
5.044496297836304,-0.7939811,-0.62479806,0.5536615,1.5303707,-3.1187198,0.21209092
5.064482927322388,-1.1347628,-0.9665899,0.20723158,2.0169187,-2.9895818,-0.77313393
5.084734916687012,-0.7221132,-0.48780528,0.7882912,1.1406072,-2.8654478,0.26526588
5.104788064956665,-0.8483312,0.12289724,0.4121669,0.1912702,-1.7400814,0.6850341
5.124901294708252,-1.2797115,1.461522,-1.0537287,-0.95868766,-0.6169756,0.68291605
5.144947290420532,-0.33122227,1.5884634,-1.4729377,-2.939787,0.5667779,1.088834
5.165078401565552,-0.33122227,1.5884634,-1.4729377,-2.939787,0.5667779,1.088834
5.1851770877838135,0.35913005,1.6759132,-2.0275705,-3.6392028,0.54967797,1.8689145
5.205319166183472,0.50206304,2.0750937,-2.3990645,-3.8744144,0.14954314,2.2155817
5.225420951843262,0.52823144,2.2388477,-2.5973864,-3.8924396,-0.045545254,2.149249
5.245484828948975,0.5597041,2.3584466,-2.6683116,-3.9467597,-0.074710816,2.1852977
5.265565872192383,0.57137835,2.3856397,-2.7067094,-3.8276448,-0.115998894,2.034226
5.285649538040161,0.5819781,2.4055996,-2.7198143,-3.8097968,-0.123272866,2.0138807
5.3060901165008545,0.5819781,2.4055996,-2.7198143,-3.8097968,-0.123272866,2.0138807
5.32620096206665,0.57125545,2.403645,-2.709945,-3.8103168,-0.12788531,2.0047183
5.346320867538452,0.54997754,2.3910537,-2.6892614,-3.7902844,-0.1381127,1.9664173
5.366379499435425,0.52771586,2.3782778,-2.666416,-3.7911859,-0.14299002,1.9518855
5.386736154556274,0.50216514,2.3617616,-2.6386437,-3.7939355,-0.14759615,1.937286
5.406853675842285,0.47476768,2.3445349,-2.6090608,-3.7957616,-0.1533759,1.9203095
5.427066087722778,0.4464261,2.326939,-2.5782013,-3.800332,-0.1588892,1.9048891
5.447759389877319,0.4464261,2.326939,-2.5782013,-3.800332,-0.1588892,1.9048891
5.467634201049805,0.41708753,2.3088846,-2.5457234,-3.805491,-0.16457811,1.888736
5.487972021102905,0.38687414,2.290596,-2.5119526,-3.811323,-0.170607,1.872029
5.507932662963867,0.3557988,2.2720428,-2.4767733,-3.8181996,-0.17684814,1.8550407
5.528051137924194,0.3237901,2.2532687,-2.440193,-3.826,-0.18337199,1.8377345
5.548370361328125,0.2908356,2.2343497,-2.4022355,-3.8349838,-0.19013807,1.8203909
5.568394422531128,0.25690487,2.2153358,-2.36308,-3.845176,-0.19715431,1.8031781
5.588397264480591,0.2221337,2.196269,-2.3229218,-3.8568087,-0.20438549,1.7865175
5.608922481536865,0.2221337,2.196269,-2.3229218,-3.8568087,-0.20438549,1.7865175
5.628986835479736,0.1866372,2.1770973,-2.2818108,-3.8688881,-0.2118952,1.7694103
5.649158239364624,0.15060768,2.1577773,-2.2397652,-3.8804731,-0.21967164,1.7511189
5.669591188430786,0.1142337,2.1383371,-2.1968498,-3.8917546,-0.2275711,1.7320702
5.689544200897217,0.07753953,2.1186767,-2.152964,-3.9026947,-0.23559466,1.7123132
5.709523677825928,0.040498048,2.0987062,-2.1079817,-3.9131851,-0.24380794,1.6917698
5.729636192321777,0.0030680606,2.0783086,-2.0617251,-3.923249,-0.25223222,1.6704985
5.74972128868103,0.0030680606,2.0783086,-2.0617251,-3.923249,-0.25223222,1.6704985
5.771047830581665,-0.03481719,2.0573325,-2.0139585,-3.9328282,-0.26090053,1.6484526
5.791141510009766,-0.03481719,2.0573325,-2.0139585,-3.9328282,-0.26090053,1.6484526
5.811220407485962,-0.07347125,2.035265,-1.9644738,-3.9416604,-0.26983842,1.6252701
5.833537340164185,-0.11325319,2.0115333,-1.9129668,-3.9491296,-0.2790108,1.6003056
5.853639364242554,-0.15404901,1.9858111,-1.8588644,-3.9548845,-0.28830567,1.5733167
5.873693466186523,-0.19571988,1.9576031,-1.8013852,-3.958816,-0.29765216,1.5442955
5.894832134246826,-0.24446993,1.9194125,-1.7392763,-3.9470897,-0.3113598,1.5005076
5.914798974990845,-0.24446993,1.9194125,-1.7392763,-3.9470897,-0.3113598,1.5005076
5.934915065765381,-0.31395954,1.8600746,-1.6703296,-3.8915987,-0.33537135,1.416398
5.95503306388855,-0.44344988,1.8365363,-1.5957706,-3.7562845,-0.5194443,1.3182808
5.9750425815582275,-0.6098003,1.7109923,-1.4318378,-3.6738176,-0.5506874,1.36024
5.995282411575317,-0.71322167,1.5081089,-1.2246765,-3.3893518,-0.5266371,1.0851753
6.01530385017395,-0.8347837,1.1715883,-0.9220597,-3.028503,-0.48116034,0.69840425
6.035385608673096,-0.92354625,0.7743087,-0.5213423,-2.7392316,-0.48586145,0.56386334
6.055526494979858,-0.9717982,0.3069073,-0.082933344,-2.3439298,-0.41038546,0.44129503
6.076201438903809,-0.89954853,-0.2486316,0.47714,-1.6757785,-0.2444793,0.3047928
6.096820831298828,-0.89954853,-0.2486316,0.47714,-1.6757785,-0.2444793,0.3047928
6.116691589355469,-1.2915561,-0.3519446,0.37320894,-0.9150986,-0.30822843,-0.2699758
6.1367950439453125,-1.5686698,-0.93056023,0.76312083,-0.13527438,-0.5007548,-0.25942078
6.156835317611694,-1.5994422,-1.5952008,1.0050621,0.843689,-0.561732,0.30712864
6.177253723144531,-1.168009,-2.1427455,1.065421,2.3218546,-0.13101318,0.8910058
6.197103977203369,-1.0798591,-2.3674397,0.9841216,2.984977,0.34053704,1.3178147
6.217172384262085,-1.0423135,-2.4405603,0.871908,3.2259727,0.7569217,1.5634815
6.2372894287109375,-1.0423135,-2.4405603,0.871908,3.2259727,0.7569217,1.5634815
6.257458448410034,-0.966882,-2.4341083,0.7143657,3.3569584,1.002558,1.6856964
6.277556896209717,-1.0450048,-2.437379,0.6249405,3.427102,0.6892504,1.597395
6.297610521316528,-1.1757915,-2.4543943,0.43296796,3.4577785,0.75678235,1.7925005
6.317692041397095,-1.2597097,-2.433495,0.28290883,3.494175,0.7143288,1.902729
6.337762355804443,-1.3305912,-2.4079103,0.1539835,3.5181122,0.60956913,1.9523292
6.35783839225769,-1.5169625,-2.5994606,0.47652113,3.4142592,0.7152212,2.1965392
6.377962589263916,-1.5051686,-2.5001626,0.19710973,3.4260151,0.54123336,1.9552069
6.397984504699707,-1.5051686,-2.5001626,0.19710973,3.4260151,0.54123336,1.9552069
6.418090105056763,-1.5418422,-2.4240613,0.047998838,3.4534967,0.37299785,1.9376206
6.43817138671875,-1.5907962,-2.6560512,0.5460205,3.3134394,0.84888506,2.4062638
6.458248853683472,-1.3768713,-2.4591632,0.15216139,3.3891277,0.7925403,2.187848
6.478368043899536,-1.4844735,-2.6364293,0.53843945,3.3115487,0.76003283,2.2629712
6.498460531234741,-1.3420849,-2.4657602,0.20149648,3.3429384,0.70973396,2.0724368
6.518615007400513,-1.3671725,-2.3792167,0.0070815627,3.3473995,0.42219362,1.9502517
6.538627624511719,-1.4730918,-2.6348538,0.5210804,3.2306805,0.75728434,2.375602
6.558959484100342,-1.4730918,-2.6348538,0.5210804,3.2306805,0.75728434,2.375602
6.579139232635498,-1.3549671,-2.457695,0.12612517,3.2752504,0.6022159,2.0909123
6.5992231369018555,-1.4224193,-2.6493793,0.5943205,3.2325845,0.7894308,2.343987
6.619287490844727,-1.2992461,-2.4705358,0.20336777,3.2417164,0.59241873,1.9876504
6.639541149139404,-1.2683035,-2.3700247,0.03313958,3.240588,0.46190992,2.069069
6.659634113311768,-1.3565917,-2.637576,0.5323114,3.1771784,0.60783195,2.3294847
6.67992639541626,-1.285958,-2.4556136,0.1499424,3.1780405,0.3453361,1.9740095
6.699856758117676,-1.4190012,-2.6873527,0.62129074,3.1489935,0.47222373,2.2034535
6.720126152038574,-1.3537741,-2.504746,0.23468238,3.1280851,0.20648894,1.856584
6.740234136581421,-1.3537741,-2.504746,0.23468238,3.1280851,0.20648894,1.856584
6.760312795639038,-1.3052131,-2.347886,0.0327748,3.1870725,0.029829588,1.9453304
6.780399322509766,-1.3503486,-2.6812983,0.5518928,3.1141655,0.19314966,2.2127788
6.80048942565918,-1.3205324,-2.4574103,0.1875398,3.1135764,-0.15639243,1.8724506
6.820565462112427,-1.3424503,-2.5332274,0.3617587,3.1293552,-0.1770108,2.0297513
6.8406500816345215,-1.2674673,-2.3244371,0.15890028,3.3134322,-0.5270872,1.8167725
6.860751390457153,-1.2772174,-2.6725912,0.61258537,3.1538434,-0.33956406,1.9498038
6.88082480430603,-1.30757,-2.379002,0.31760168,3.2559526,-0.75990236,1.6630979
6.900969505310059,-1.30757,-2.379002,0.31760168,3.2559526,-0.75990236,1.6630979
6.921032905578613,-1.1841139,-2.18757,0.27614078,3.5814307,-1.0813835,1.5436947
6.941205978393555,-0.9643434,-2.027317,0.3459754,3.889835,-1.4322166,1.3791963
6.9612157344818115,-0.66005504,-1.888802,0.36822316,3.6552253,-1.5363706,1.0683322
6.98554801940918,-0.66005504,-1.888802,0.36822316,3.6552253,-1.5363706,1.0683322
7.005624771118164,-0.3216892,-1.6223977,0.42325884,3.668343,-1.6207272,0.9592464
7.029595613479614,-0.085704714,-1.654214,0.41990542,3.847303,-1.9321626,0.37442926
7.04970383644104,0.16307038,-1.5107261,0.41272676,4.046809,-2.244721,-0.16914223
7.069721937179565,0.48145285,-1.3299328,0.4246866,4.2628493,-2.5268853,-0.41658488
7.090142726898193,0.76481843,-1.1348075,0.4383496,4.366651,-2.7679236,-0.61152786
7.110058069229126,0.9583405,-0.9553952,0.46079034,4.3783426,-2.9643912,-0.7104822
7.1301109790802,1.0395639,-0.8459016,0.49059647,4.326988,-3.1310778,-0.75459886
7.150886297225952,1.0395639,-0.8459016,0.49059647,4.326988,-3.1310778,-0.75459886
7.171061992645264,1.0624514,-0.8042685,0.51514965,4.221452,-3.2360785,-0.7727676
7.191082000732422,1.0519638,-0.7937628,0.52922654,4.0784707,-3.260389,-0.7664644
7.211186408996582,1.0242975,-0.78561175,0.5336992,3.9024029,-3.205499,-0.7190768
7.231248378753662,0.9792682,-0.7700134,0.5354155,3.6888509,-3.0987046,-0.6321094
7.251343488693237,0.9173794,-0.7513746,0.53662103,3.4294238,-2.952583,-0.5134983
7.271429777145386,0.8434473,-0.71707654,0.5359269,3.1091402,-2.76203,-0.3585572
7.2914886474609375,0.75501454,-0.63296545,0.527812,2.6955335,-2.5113792,-0.15193756
7.311581373214722,0.75501454,-0.63296545,0.527812,2.6955335,-2.5113792,-0.15193756
7.331697463989258,0.6042583,-0.42488474,0.48620868,2.094285,-2.1595595,0.1287067
7.352025508880615,0.10026291,1.065481,0.064254425,0.74067515,-2.0254729,0.87103575
7.3719329833984375,0.41875803,1.9802984,-0.214787,-1.4463179,0.21705955,1.68164
7.392058849334717,0.18082982,1.4427878,-1.2961661,-2.0121133,0.32394817,1.2174857
7.4121317863464355,0.21561828,1.401554,-1.2775319,-2.560234,0.26649562,1.216634
7.432197570800781,0.3273142,1.7392067,-1.6129533,-2.890604,0.0528433,1.8744467
7.4522645473480225,0.39973366,1.8439757,-1.8597199,-2.9412065,-0.09396741,1.9511101
7.472381591796875,0.39973366,1.8439757,-1.8597199,-2.9412065,-0.09396741,1.9511101
7.492480039596558,0.43782386,1.9862016,-1.9989516,-3.027946,-0.1599432,2.0336576
7.512529134750366,0.45827886,2.0693254,-2.1019015,-3.0739093,-0.21076617,2.0590112
7.532613039016724,0.4633021,2.1259236,-2.1506505,-3.114955,-0.24119517,2.069908
7.552721977233887,0.4550769,2.1656723,-2.173059,-3.1513705,-0.26464376,2.0721924
7.573132514953613,0.43763378,2.1908355,-2.1744275,-3.184226,-0.2823173,2.0652494
7.592963457107544,0.41371062,2.2086205,-2.1627634,-3.216049,-0.29630414,2.0546985
7.613363027572632,0.3853887,2.2207584,-2.1426725,-3.246719,-0.3079988,2.0405009
7.633294105529785,0.3853887,2.2207584,-2.1426725,-3.246719,-0.3079988,2.0405009
7.6534693241119385,0.35413122,2.2296128,-2.1167192,-3.276929,-0.3179157,2.02417
7.673490047454834,0.3206629,2.2361698,-2.0867226,-3.3067155,-0.3266761,2.0060186
7.693538188934326,0.2852756,2.240944,-2.053615,-3.3361034,-0.3345478,1.9861908
7.71385931968689,0.24841663,2.2442951,-2.018024,-3.3651295,-0.34159628,1.9649824
7.7339606285095215,0.21051055,2.2466044,-1.9803218,-3.3938847,-0.34786955,1.9427681
7.754026412963867,0.15187338,2.1246343,-1.8852153,-3.368828,-0.3115801,1.8084073
7.774769306182861,0.070711285,2.016591,-1.727043,-3.3868513,-0.2504255,1.7192388
7.79481053352356,0.070711285,2.016591,-1.727043,-3.3868513,-0.2504255,1.7192388
7.81488037109375,-0.011838823,1.9518834,-1.5947868,-3.388404,-0.2363638,1.6400968
7.8351311683654785,-0.0871349,1.898151,-1.4772438,-3.438758,-0.22079888,1.6277546
7.855091333389282,-0.1542401,1.8467988,-1.3613969,-3.456582,-0.2007536,1.5826037
7.875296115875244,-0.2115219,1.7838804,-1.2465955,-3.4491725,-0.18587199,1.5188333
7.89531397819519,-0.2984229,1.754913,-1.1320411,-3.4265616,-0.09754774,1.547744
7.915389537811279,-0.3017567,1.5787348,-1.0474235,-3.1477585,-0.103045136,1.2511712
7.935452699661255,-0.34136578,1.4926215,-0.9059755,-3.2017274,-0.116916746,1.348218
7.955772399902344,-0.34136578,1.4926215,-0.9059755,-3.2017274,-0.116916746,1.348218
7.975736379623413,-0.36709455,1.5061767,-0.8155787,-2.8866084,-0.23041919,1.272141
7.995794057846069,-0.4324918,1.3719759,-0.5898884,-2.7366848,-0.16906849,1.3351309
8.015877485275269,-0.4968672,1.0158342,-0.3417211,-2.1508284,-0.12074742,1.0141885
8.036055564880371,-0.55937684,0.6069678,0.0737221,-1.7386427,-0.074781,0.90971327
8.056122064590454,-0.37774977,0.24145472,0.49568433,-1.1852437,0.077227384,0.82107145
8.07621693611145,-0.5084487,0.96183026,0.051784433,-1.3375074,0.3047693,0.7657328
8.096253395080566,-0.4463791,0.17631745,0.54364914,-1.3322629,0.06361498,0.6779433
8.116362810134888,-0.4463791,0.17631745,0.54364914,-1.3322629,0.06361498,0.6779433
8.136450290679932,-0.39914742,1.0839428,-0.027909433,-1.1106627,0.42563257,0.8253072
8.156644105911255,-0.4003162,-0.073586166,0.5811499,-0.8114853,-0.008173841,0.46123463
8.177307367324829,-0.33386075,0.4419759,0.31621185,-0.84763026,0.16393295,0.638562
8.197315216064453,-0.80874294,0.47807056,0.23643267,-1.4787853,0.37874606,0.23483439
8.217432975769043,-0.47938064,0.95491576,-0.2933128,-1.3430617,0.33010563,0.7763723
8.237536668777466,-0.4685357,-0.3018084,0.4007355,-0.9234958,-0.25673038,0.022909615
8.257585287094116,-0.48913428,0.11620149,-0.11733406,-0.22588342,-0.5251784,-0.041968215
8.277665853500366,-0.48913428,0.11620149,-0.11733406,-0.22588342,-0.5251784,-0.041968215
8.297826528549194,-0.4605765,-1.4858665,0.6733523,0.8942927,-1.0692148,-0.9887336
8.317846775054932,0.28475013,-1.5084382,0.7520961,1.9206232,-0.8902069,0.21319218
8.33812141418457,0.8837851,-1.6032248,0.5935247,3.1408536,-0.06867072,0.36294648
8.35807752609253,1.2099502,-1.3844014,0.38316518,3.3939414,0.5780602,1.0971006
8.378190755844116,1.1474996,-1.1981314,0.29261863,3.217986,0.44279394,1.5466213
8.398290634155273,1.239754,-1.1559128,-0.011300525,3.0268793,0.84294885,2.1404676
8.418328285217285,1.2774744,-1.7729086,0.41524523,2.8591495,1.2500954,2.3388274
8.438619613647461,1.2774744,-1.7729086,0.41524523,2.8591495,1.2500954,2.3388274
8.45872688293457,1.0289688,-1.2593932,0.098572485,2.576767,1.0954797,2.257143
8.478848457336426,1.0124745,-1.9801606,0.52360547,2.6307836,1.370921,2.373065
8.498903274536133,0.7533727,-1.4386187,0.10402898,2.4779034,1.1196556,2.2554195
8.518975734710693,0.72627044,-2.0748081,0.56205547,2.5796552,1.2381338,2.3258052
8.539132833480835,0.4334893,-1.6949315,0.043263502,2.4643126,1.0778037,2.3375065
8.559268951416016,0.2564014,-2.223576,0.5793841,2.571691,1.0923824,2.2947726
8.579260110855103,-0.10172695,-1.907651,0.0686231,2.5341816,0.7957727,2.2406316
8.59974479675293,-0.34312338,-2.3743658,0.6595493,2.6162558,0.7536921,2.158526
8.61984372138977,-0.34312338,-2.3743658,0.6595493,2.6162558,0.7536921,2.158526
8.640238523483276,-0.49650267,-2.08097,0.3381886,2.706101,0.45505366,1.9104508
8.660264492034912,-0.33255696,-1.9944718,0.08591982,2.7666392,0.659293,2.082051
8.680776596069336,-0.5335238,-2.4236565,0.6413857,2.7490058,0.5010315,2.1038165
8.70087742805481,-0.5201516,-2.12809,0.278916,2.7292285,0.44144616,1.9733162
8.720974445343018,-0.31509623,-1.9473122,0.07181621,2.7881527,0.5070496,2.0673788
8.741251230239868,-0.42592093,-2.440598,0.53548807,2.7348886,0.65507746,2.270073
8.761385440826416,-0.42592093,-2.440598,0.53548807,2.7348886,0.65507746,2.270073
8.781471490859985,-0.4776444,-1.9292299,0.3334119,2.6501489,0.043138053,1.8544775
8.801541805267334,-0.26493567,-1.7926189,0.22335592,2.8181581,0.08099523,1.9447477
8.821636438369751,-0.21402112,-1.8134321,0.029143328,2.705868,0.1005525,1.9405904
8.84174370765686,-0.3632287,-2.4101658,0.57688457,2.367092,0.34856394,1.8777794
8.861869812011719,-0.5379168,-1.8950038,0.3869965,2.454012,-0.07227561,1.7867596
8.881980895996094,-0.2794636,-1.6845158,0.3437376,2.721016,-0.23987058,1.7140222
8.902047634124756,-0.35788578,-1.6524404,0.0806139,2.234117,-0.33300307,1.6454982
8.923640251159668,-0.35788578,-1.6524404,0.0806139,2.234117,-0.33300307,1.6454982
8.943737745285034,-0.29719713,-2.2025557,0.73654896,2.194863,-0.13841316,1.5471618
8.963938236236572,-0.8978948,-1.6735588,0.3827039,1.5190974,-0.50304466,1.3883488
8.984004259109497,-0.6361012,-1.4322151,0.46821603,1.5824413,-0.5388525,1.0796591
9.00405740737915,-0.56413895,-1.0862317,0.5093693,1.4989047,-0.7483744,1.0599555
9.024163246154785,-0.39138526,-0.6569652,0.55487233,1.4212028,-0.91489786,1.0685618
9.044260025024414,-0.29485515,-0.11576077,0.54248285,1.2637854,-0.9982113,1.082599
9.064314603805542,-0.22169927,1.2408457,-0.28123719,-0.5374451,-0.65012324,1.0883214
9.0845046043396,-0.22169927,1.2408457,-0.28123719,-0.5374451,-0.65012324,1.0883214
9.10459280014038,-0.11935949,1.3000306,-0.8966889,-1.8584508,0.15597916,0.75683194
9.125022172927856,0.18275782,1.3320626,-1.0645648,-2.3932152,0.03384992,1.1832143
9.144870281219482,0.23358345,1.4693047,-1.2699322,-2.5137594,-0.22867861,1.5397348
9.164934873580933,0.23562309,1.5668728,-1.4103153,-2.5727196,-0.32603505,1.6077206
9.185011625289917,0.25398928,1.6565878,-1.4970568,-2.6298525,-0.3605748,1.6671748
9.205125570297241,0.26208052,1.719839,-1.5606803,-2.6717477,-0.39007875,1.6976353
9.225183248519897,0.25824204,1.7623521,-1.5957767,-2.7090821,-0.41435483,1.7052263
9.245841026306152,0.25824204,1.7623521,-1.5957767,-2.7090821,-0.41435483,1.7052263
9.265954971313477,0.24497432,1.7920302,-1.6089996,-2.7428517,-0.434096,1.7049952
9.286414623260498,0.22367176,1.8102087,-1.6050098,-2.7724166,-0.4505715,1.6970532
9.30633544921875,0.19627243,1.8197225,-1.5876204,-2.7989278,-0.4645913,1.6837173
9.326342344284058,0.16425848,1.8223284,-1.5598062,-2.8231091,-0.47671905,1.6661813
9.346433639526367,0.12857237,1.8192805,-1.5232638,-2.8455706,-0.4873921,1.6453649
9.366666078567505,0.08978367,1.8112272,-1.4789579,-2.8665338,-0.49702975,1.6216811
9.386708498001099,0.03160715,1.7207,-1.3924989,-2.8530426,-0.47349995,1.5087402
9.4067862033844,-0.05503434,1.5514503,-1.2125418,-2.8284483,-0.40830657,1.3440711
9.427335977554321,-0.05503434,1.5514503,-1.2125418,-2.8284483,-0.40830657,1.3440711
9.447757720947266,-0.16427347,1.4629983,-0.98921937,-2.8150215,-0.33274361,1.4165647
9.467701435089111,-0.1904454,1.3374401,-0.7967889,-2.7535772,-0.295752,1.3624635
9.487712383270264,-0.21384314,1.1913772,-0.57286376,-2.6811073,-0.27460894,1.2983241
9.522483825683594,-0.23523487,1.002978,-0.32102266,-2.5707388,-0.24935499,1.2500038
9.55712103843689,-0.23523487,1.002978,-0.32102266,-2.5707388,-0.24935499,1.2500038
9.577220916748047,-0.23523487,1.002978,-0.32102266,-2.5707388,-0.24935499,1.2500038
9.597320556640625,-0.24813311,0.7908336,-0.014891198,-2.4245944,-0.18790397,1.2192726
9.617461442947388,-0.17000696,0.6480004,0.32149342,-2.1422446,-0.06986287,1.2458736
9.637609243392944,-0.37078455,1.380485,-0.41684073,-2.0932612,0.51426715,0.77261466
9.657655954360962,-0.18648274,0.80425954,0.2178613,-1.9522781,0.09317747,1.2004439
9.67805004119873,-0.34472245,1.241577,-0.22831696,-2.1743731,0.6153577,0.97798294
9.697890281677246,-0.1783667,0.5895579,0.29019517,-1.595092,-0.001519653,1.044566
9.71824049949646,-0.386828,1.0345075,-0.07551474,-1.9875455,0.5502922,0.87117
9.73841404914856,-0.386828,1.0345075,-0.07551474,-1.9875455,0.5502922,0.87117
9.758522510528564,-0.1791148,0.3776738,0.4415751,-1.3905675,0.00190973,0.9274549
9.778613090515137,-0.3726798,0.77884114,0.14193155,-1.6843766,0.52338755,0.7175645
9.79867935180664,-0.30160734,0.9687842,-0.014664268,-1.4257423,0.38379502,0.915309
9.818812608718872,-0.34356615,-0.18129766,0.55671865,-1.0008885,-0.30042028,0.20212881
9.841546297073364,-0.34356615,-0.18129766,0.55671865,-1.0008885,-0.30042028,0.20212881
9.859010457992554,-0.4706976,0.7912952,-0.2543444,-0.94463694,-0.20400165,0.37948665
9.879133224487305,-0.4706976,0.7912952,-0.2543444,-0.94463694,-0.20400165,0.37948665
9.899194717407227,-0.46748227,-0.8397126,0.666895,-0.30054295,-0.57214075,-0.4547139
9.9194016456604,-0.3385212,-1.8410625,0.81322616,1.0079426,-0.9608157,-0.447652
9.939507722854614,0.09317842,-2.0926147,0.8451161,2.0913224,-0.25991052,0.096106485
9.959557056427002,0.34798765,-2.052391,0.6954854,2.646614,0.7462189,0.5692507
9.979683876037598,0.34494314,-2.0789142,0.7769486,2.640195,1.0073342,0.85808223
9.99982762336731,0.21799883,-2.1378355,0.82919616,2.5477877,1.1349366,1.0548725
10.019985437393188,0.21799883,-2.1378355,0.82919616,2.5477877,1.1349366,1.0548725
10.040071487426758,0.23730195,-2.0761561,0.797432,2.5887756,1.3837814,1.2203171
10.060154676437378,0.24337253,-2.0672717,0.7634497,2.5937939,1.4317905,1.2769818
10.080248832702637,0.18875343,-2.0589242,0.6984991,2.593914,1.3539555,1.3095938
10.100524425506592,0.09516844,-2.0342407,0.5891944,2.5991726,1.2038392,1.3648521
10.120567560195923,-0.025820045,-1.9766678,0.4143336,2.5981178,1.0153879,1.4868753
10.140623807907104,-0.17415705,-1.8842355,0.15373807,2.6008182,0.7747323,1.6906359
10.160742282867432,-0.44466752,-2.3419533,0.589022,2.698213,0.6028949,1.8139837
10.180944442749023,-0.46904525,-2.0015855,0.30534947,2.7403755,0.39074865,1.6943501
10.201142311096191,-0.46904525,-2.0015855,0.30534947,2.7403755,0.39074865,1.6943501
10.221165657043457,-0.29374793,-1.8994569,0.049978115,2.8450968,0.6337853,1.9313002
10.241256713867188,-0.42074713,-2.342043,0.55470383,2.9011788,0.46308875,1.9690077
10.261322975158691,-0.43411762,-1.9243766,0.28832012,2.781642,0.14769855,1.7292137
10.28176760673523,-0.19948927,-1.8123676,0.088392355,2.9374828,0.4028019,1.9108331
10.301599740982056,-0.40095356,-2.3758698,0.50483966,2.8496943,0.4834319,1.9879744
10.321695327758789,-0.45958588,-1.8941029,0.2987929,2.760668,-0.06316218,1.6577542
10.341848611831665,-0.24569777,-1.7669836,0.18157463,3.033607,0.05320015,1.7687565
10.361982107162476,-0.24569777,-1.7669836,0.18157463,3.033607,0.05320015,1.7687565
10.382029294967651,-0.2948744,-2.1991758,0.40484932,2.8750925,0.1639292,1.9555702
10.402262210845947,-0.25461277,-1.7224212,0.2436377,2.828836,-0.0869163,1.7796344
10.422229766845703,-0.17407706,-1.6086366,0.039986618,2.984147,-0.17438069,1.8785865
10.442390203475952,-0.25151378,-2.3606672,0.5732861,2.372779,0.051670145,1.62611
10.462404012680054,-0.6148129,-1.9856586,0.3316164,2.0973878,-0.11085144,1.3133765
10.482536315917969,-0.5370878,-1.720637,0.30170837,2.3696299,-0.30918017,1.3935609
10.50262451171875,-0.5370878,-1.720637,0.30170837,2.3696299,-0.30918017,1.3935609
10.522729873657227,-0.39510462,-1.552095,0.26427397,2.1251109,-0.32296777,1.2355021
10.542807340621948,-0.26497826,-1.2709314,0.2715179,2.006753,-0.3356989,1.2666613
10.562992811203003,-0.19824609,-1.0208908,0.1091988,1.7434876,-0.30192873,1.367728
10.583290338516235,-0.10540493,-1.4254217,0.70101726,1.1659504,0.052243408,1.2586663
10.603400468826294,-0.65717673,-0.033942714,0.108678065,0.09434846,0.08137725,1.446077
10.623517274856567,-0.16212957,-0.016242802,0.20377631,-1.0326434,-0.1301839,0.53886354
10.64354658126831,-0.20610134,1.2002202,-0.27554345,-1.9680209,0.14863828,1.0631715
10.663620471954346,0.006527991,1.2136595,-0.6576373,-2.05857,0.024940219,1.1133201
10.683727264404297,0.006527991,1.2136595,-0.6576373,-2.05857,0.024940219,1.1133201
10.703941345214844,0.018191608,1.1013734,-0.763895,-2.139856,-0.17976007,0.94660676
10.723965644836426,-0.03025928,1.203136,-0.8350062,-2.2334213,-0.25991404,1.1913929
10.744032859802246,0.043409467,1.3323022,-1.0044488,-2.3493328,-0.38741407,1.338628
10.764268159866333,0.04235792,1.4250635,-1.1408471,-2.4116614,-0.4418633,1.3642926
10.784311056137085,0.06777346,1.4981707,-1.2247326,-2.470615,-0.47091398,1.3851612
10.804340839385986,0.07482129,1.5566033,-1.2805113,-2.5160916,-0.4966924,1.4106729
10.824419498443604,0.06991136,1.5974132,-1.3112992,-2.553492,-0.51710063,1.4206897
10.844928503036499,0.06991136,1.5974132,-1.3112992,-2.553492,-0.51710063,1.4206897
10.865052223205566,0.056467265,1.625363,-1.3205054,-2.5868149,-0.53332204,1.4215269
10.885111570358276,0.02998546,1.6403118,-1.3100392,-2.6112504,-0.5388465,1.4247314
10.905219316482544,-0.035704195,1.5556945,-1.2416849,-2.5736084,-0.4859514,1.3522235
10.925472259521484,-0.09999761,1.4308032,-1.0953563,-2.5418317,-0.41806808,1.262079
10.945630550384521,-0.13870893,1.350898,-0.93371886,-2.5356445,-0.40329102,1.2541299
10.965760707855225,-0.16834524,1.2451392,-0.78309786,-2.4957395,-0.4043261,1.1997412
10.98577094078064,-0.1970394,1.1194729,-0.5910106,-2.416685,-0.4251979,1.1380929
11.005833148956299,-0.1970394,1.1194729,-0.5910106,-2.416685,-0.4251979,1.1380929
11.025945901870728,-0.22714448,1.0016592,-0.37048787,-2.2075415,-0.48882088,1.1383371
11.04600715637207,-0.2676169,0.70849824,-0.04248544,-1.8790622,-0.40714252,1.041156
11.066088676452637,-0.1800774,0.23455143,0.44107914,-1.4547648,-0.176631,0.87671846
11.086184024810791,-0.3591325,1.0289469,-0.0043202545,-1.5730004,0.4288519,0.72580725
11.106265783309937,-0.10662894,0.24647498,0.47220212,-1.0454094,-0.082591295,0.6396735
11.126652002334595,-0.25959492,0.7802559,0.18332186,-1.5170898,0.44016647,0.7282299
11.14653468132019,-0.3014338,1.1691917,-0.2601192,-1.2964269,0.3265154,0.8118246
11.166829586029053,-0.3014338,1.1691917,-0.2601192,-1.2964269,0.3265154,0.8118246
11.186930656433105,-0.2236163,-0.013209283,0.42376208,-1.1311535,-0.22056615,0.29130515
11.207023620605469,-0.55019546,1.1315044,-0.47661704,-1.1114687,-0.19055864,0.3252435
11.227159023284912,-0.37823564,-0.14423561,0.25447574,-0.93471277,-0.46134207,-0.21516584
11.247242212295532,-0.5657481,0.8572248,-0.26022056,-1.116752,-0.27005908,0.518928
11.267383337020874,-0.3574218,-0.73684585,0.5462963,-0.34506294,-0.60489655,-0.57866937
11.287468671798706,-0.024477882,-1.7168761,0.7360133,1.0407166,-0.9448776,-0.4904835
11.30751657485962,0.5254458,-2.0356045,0.6701741,2.4904737,0.13523695,-0.18857138
11.328073501586914,0.85364777,-1.7970889,0.60211533,2.8185472,0.8825323,0.47506055
11.348130226135254,0.85364777,-1.7970889,0.60211533,2.8185472,0.8825323,0.47506055
11.368271589279175,0.917005,-1.6718496,0.6451848,2.6187844,1.0664018,1.0073361
11.388340473175049,0.74173605,-1.8292079,0.72923845,2.4552698,1.2322508,1.168143
11.408416271209717,0.5969082,-1.8890506,0.7275417,2.366105,1.273913,1.2056097
11.428568840026855,0.666723,-1.8292872,0.6628396,2.437508,1.4499784,1.325463
11.448606729507446,0.67143625,-1.7492225,0.58669037,2.4267612,1.4430622,1.4021014
11.468697786331177,0.6357367,-1.6549388,0.45484036,2.3912878,1.3686732,1.5038717
11.488783836364746,0.585749,-1.5302473,0.2425632,2.349667,1.2479173,1.6747255
11.50905442237854,0.585749,-1.5302473,0.2425632,2.349667,1.2479173,1.6747255
11.529031991958618,0.5407865,-1.3609474,-0.066110596,2.3351717,1.0636642,1.9133879
11.549111127853394,0.42370722,-2.2217355,0.51540256,2.560172,0.91441244,1.9085468
11.569191217422485,-0.16720825,-1.7715241,0.032790974,2.2504458,0.41997784,1.812759
11.589286088943481,-0.20257321,-2.3952312,0.67226166,2.6691885,0.48248562,1.6774018
11.609363317489624,-0.20374814,-1.8947693,0.4407406,2.6000268,0.2901138,1.4283353
11.62947416305542,0.10508284,-1.6176947,0.28400403,2.8221016,0.35208043,1.5933611
11.649523973464966,-0.020188956,-1.5599321,-0.06575416,2.7344623,0.10369113,1.7931117
11.67011547088623,-0.020188956,-1.5599321,-0.06575416,2.7344623,0.10369113,1.7931117
11.69023585319519,-0.01762387,-2.3328676,0.5165032,2.5717428,0.42159572,1.870214
11.710310459136963,-0.45302346,-1.889037,0.2279317,2.4800704,-0.08415118,1.5000312
11.730442523956299,-0.18174592,-1.707329,0.20268133,2.7444744,0.09232792,1.527866
11.750518560409546,-0.059841245,-1.8604773,0.34576374,2.6565819,0.22898841,1.7340122
11.770629167556763,-0.16091874,-1.6041094,-0.028172879,2.5553207,0.08368361,1.776933
11.79068899154663,-0.10318735,-2.2432911,0.6037316,2.527937,0.14521673,1.7263235
11.810803890228271,-0.4969677,-1.7740861,0.18776265,2.2652724,-0.19216841,1.5213072
11.830905437469482,-0.4969677,-1.7740861,0.18776265,2.2652724,-0.19216841,1.5213072
11.851009368896484,-0.35749462,-2.1060202,0.70225537,2.4104998,-0.19997436,1.4223593
11.87113094329834,-0.2302463,-1.6143495,0.5122549,2.3440742,-0.30297732,1.2519213
