liuyurong129/humanoid-gym/humanoid/data/robot2_actual_20250621-220758.csv
timestamp,joint_1,joint_2,joint_3,joint_4,joint_5,joint_6
0.00013756752014160156,0.0,0.0,0.0,0.0,0.0,0.0
0.02020096778869629,0.0,0.0,0.0,0.0,0.0,0.0
0.04028820991516113,0.0,0.0,0.0,0.0,0.0,0.0
0.06065082550048828,0.0,0.0,0.0,0.0,0.0,0.0
0.08086633682250977,0.0,0.0,0.0,0.0,0.0,0.0
0.1007697582244873,0.0,0.0,0.0,0.0,0.0,0.0
0.12084341049194336,-0.006666596464824497,0.006666667248405537,0.006666654927369221,0.006666666666666668,-0.006666659476462625,0.00666616353886014
0.14092350006103516,-0.013333259754004687,0.013333338496860615,-3.874500125681385e-09,0.013333324099538569,-0.013333324481267148,-5.788696275858644e-07
0.16130995750427246,-0.016666592974094736,0.0166666718344555,-0.003333336310361879,0.016666657432871903,-0.01666665764999311,-0.0033339243238794934
0.18124699592590332,-0.023333259411194334,0.023333342896753876,-0.010000002097947028,0.023333308827648558,-0.023333321069463207,-0.010000605684489173
0.20134735107421875,-0.029999925638504114,0.030000013868847465,-0.01666666760960837,0.029999954384569413,-0.02999998123826127,-0.01000069027651199
0.2213902473449707,-0.036666601430496694,0.03462938317389542,-0.016666673037438177,0.029999927624079298,-0.03666665313915549,-0.003333064773572663
0.24205613136291504,-0.03999993488052057,0.0357958185115079,-0.013333339704104843,0.026666539910342627,-0.03999997067537812,2.7877983164439554e-07
0.2622058391571045,-0.04666660227898225,0.029129156126037805,-0.020000003747934553,0.03333317309870436,-0.03333328757596673,0.006666695789863921
0.282437801361084,-0.053333250449530724,0.026262023919344693,-0.013333348093291768,0.039999839029039475,-0.039999963460016504,0.013334220812804892
0.302715539932251,-0.059999917443756365,0.01959536810748983,-0.020000014759958436,0.04666632772874335,-0.04666655829331328,0.020000909328294375
0.3226161003112793,-0.06666659142817996,0.026262037771592667,-0.013333352267182907,0.051569876993584896,-0.05333321983775788,0.026667886174701456
0.34271836280822754,-0.06999992109712477,0.022928704797186266,-0.016666680975536974,0.05490321032691823,-0.04999988204720169,0.030000871148264184
0.3628087043762207,-0.07666659087959268,0.021113211692492567,-0.016666684103281582,0.05874378232040482,-0.04999986450995625,0.036667803963139595
0.38292646408081055,-0.08333325447347292,0.019145938257862788,-0.016666680083016007,0.06253359319454298,-0.04999982550626458,0.04333418057215935
0.40314459800720215,-0.08999992688438888,0.019145942319548075,-0.01666668408139598,0.0692002169161513,-0.04999980600160135,0.05000114048778203
0.423159122467041,-0.09333326044307091,0.02247927965692187,-0.013333350748062647,0.0725335152063745,-0.05333312268498214,0.05333448306855746
0.4432501792907715,-0.09999992037433826,0.01581261788318108,-0.02000001203500082,0.07920013874850197,-0.04666642474368324,0.06000080995385419
0.46329832077026367,-0.10666659003913688,0.0224792871856166,-0.026515176498795458,0.0858667904550621,-0.05333308719411016,0.06666765663301776
0.484050989151001,-0.11333325674531243,0.029145958206150853,-0.03318184300285325,0.09253341114087556,-0.05999972909434696,0.07333432664013369
0.5043759346008301,-0.11666659577036369,0.032479291396429515,-0.03538059427100828,0.09586674447420888,-0.056666396515189836,0.0766677231779434
0.5244314670562744,-0.12333326675828057,0.039145959615071835,-0.03402613719098471,0.10253341180997637,-0.04999973261309991,0.08333450231907448
0.5451197624206543,-0.12666660041992353,0.04247929673178485,-0.030692803857651378,0.10586671435506947,-0.0466663751554319,0.0866678447440035
0.5693163871765137,-0.13333325240763488,0.035812635128236604,-0.03735946311621663,0.1125333431197404,-0.039999669547392314,0.08000085026397831
0.5897257328033447,-0.1399999295853245,0.042479305451915444,-0.0440261343021982,0.11919997999245178,-0.03333297325278607,0.07333437591016909
0.609830379486084,-0.14333325774860997,0.04581263900546779,-0.04735946583685738,0.12253331332578511,-0.0366663061294251,0.07000100712147363
0.6302058696746826,-0.14999992273075055,0.052479309902666874,-0.05402613110559974,0.12919994975821525,-0.04333293839570062,0.0663944448966439
0.6500968933105469,-0.15666659160477053,0.0591459805491349,-0.059186210735124374,0.13221210163546623,-0.04999957098673672,0.06948200187499064
0.6702773571014404,-0.15999992515233202,0.06247931577539951,-0.060830281379951855,0.1319230626968643,-0.05333289732219185,0.07281533973794171
0.6904206275939941,-0.16469144096262842,0.06914598390400324,-0.05416361787757066,0.12525637236203582,-0.05999957318417148,0.07948216366867283
0.7106103897094727,-0.15802477429596173,0.06247931723733658,-0.060830284544237306,0.13192303902870248,-0.053332906517504795,0.08614883033533838
0.7305853366851807,-0.1646914409626284,0.06914598390400324,-0.05416361787757064,0.136042608627104,-0.05999957318417146,0.09281549700200512
0.7510035037994385,-0.15802477429596173,0.06247931723733658,-0.060830284544237306,0.14270927529377064,-0.053332906517504795,0.09948216366867177
0.7711596488952637,-0.1613581076292951,0.06581265057066991,-0.05749695121090399,0.14604260862710397,-0.056666239850838136,0.10281549700200594
0.7911982536315918,-0.16135810762927003,0.06581265057067183,-0.05749695121088775,0.15270927529377062,-0.05666623985082964,0.10281549700122143
0.8112902641296387,-0.16135810762927938,0.06581265057067108,-0.06416361787756024,0.15937594196043728,-0.054114880311293176,0.09614883033485276
0.8315532207489014,-0.1646914409626122,0.06914598390400445,-0.06749695121089329,0.1627092752937706,-0.05481865672570702,0.09281549700150789
0.8516824245452881,-0.17135810762927356,0.07581265057067149,-0.07416361787755699,0.16937594196043726,-0.061485323392372525,0.09948216366806431
0.8717861175537109,-0.1780247742959402,0.08247931723733816,-0.0674969512108903,0.16270927529377074,-0.06815199005903928,0.10614883033473074
0.8918848037719727,-0.17135810762923567,0.07581265057067489,-0.07416361787752986,0.1693759419604374,-0.06148532339235984,0.11281549700013185
0.9119727611541748,-0.17469144096260134,0.07914598390400546,-0.07083028454421736,0.17270927529377073,-0.0648186567257023,0.11614883033437542
0.9320464134216309,-0.17469144096260086,0.0858126505706723,-0.07083028454421611,0.17937594196043738,-0.06481865672570117,0.1161488303342578
0.9521377086639404,-0.17469144096258493,0.0924793172373403,-0.07749695121087279,0.18604260862710403,-0.05815199005903111,0.10948216366725382
0.9723646640777588,-0.17802477429591754,0.0958126505706737,-0.08083028454420566,0.18937594196043736,-0.0548186567256976,0.10614883033390356
0.9924654960632324,-0.1846914409625842,0.10247931723734036,-0.08749695121087231,0.19604260862710401,-0.06148532339236427,0.09948216366723689
1.01283860206604,-0.19135810762925612,0.10914598390400662,-0.08083028454420922,0.1893759419604356,-0.05481865672569753,0.10614883033403641
1.0328586101531982,-0.1846914410333949,0.1024793176575865,-0.0874969512108455,0.1960426044365792,-0.048151985063367556,0.09948216479658267
1.0528416633605957,-0.18802477436672824,0.10581265099091983,-0.09083028454417882,0.19937593776991253,-0.05148531839670089,0.09614883146324935
1.0729966163635254,-0.1946914410333949,0.11247931765758651,-0.09749695121084548,0.2060426044365789,-0.05815198506336732,0.09165259490882625
1.0930447578430176,-0.20135812019999388,0.11914598761220203,-0.09749695953845831,0.20604256145417313,-0.06481860537483053,0.09393963821088135
1.1134366989135742,-0.2013581201999446,0.11914598761220759,-0.09749695953842014,0.20604256145417313,-0.06481860537481612,0.10060630487601194
1.1336076259613037,-0.19802478686661054,0.11581265427887433,-0.10083029287175296,0.20937589478750646,-0.06148527204148262,0.1039396382093275
1.153792381286621,-0.2046914535333261,0.12247932094553567,-0.09416362620512102,0.2160425614541731,-0.06331324890468959,0.09727297154393916
1.1738026142120361,-0.1980247839234024,0.12914598790786097,-0.10083029082817484,0.22270922812083976,-0.056646581803630934,0.09060625996055291
1.1942243576049805,-0.20469145058565955,0.13581265457500855,-0.10749695749185836,0.22937589478750642,-0.049979915136177853,0.08393959321519026
1.2145569324493408,-0.21135811406524158,0.1404302200784564,-0.10083028913039972,0.22270922812083976,-0.05664658226997019,0.09060630756702362
1.2350311279296875,-0.20802476656870625,0.13709688848179175,-0.10416361137400482,0.2260425614541731,-0.0533132446649017,0.0872725443750964
1.2549142837524414,-0.20135812636951875,0.1370968899148687,-0.1041636286605757,0.23270919600406972,-0.04857602026652645,0.08060634365065786
1.2750563621520996,-0.19469143396253144,0.137096899352193,-0.10416361004188676,0.23937581686575007,-0.04397914324654907,0.07393924590082528
1.295125961303711,-0.19135810153730606,0.133763570372456,-0.10749694337522009,0.24270912388204807,-0.0406457598352468,0.0706059230683828
1.3152391910552979,-0.19802476731574567,0.14043023284483136,-0.11416361004188674,0.2493758900902559,-0.04731247363997213,0.06393924753610536
1.3353509902954102,-0.20469144892286859,0.1470969019792788,-0.1074969533852424,0.24270919568561258,-0.05397909397558494,0.07060620313098487
1.3555941581726074,-0.19802476328904775,0.14043024219372643,-0.11416360476565826,0.24937583327424342,-0.04731237235240108,0.0772723849766682
1.3757715225219727,-0.2013580981533622,0.1370969085311621,-0.1108302732782568,0.2460424999409101,-0.05064570721998308,0.08060587564955327
1.39607834815979,-0.2013580969349194,0.13043024752572946,-0.11083027067630938,0.24604246250821343,-0.050645643969491956,0.08727237403848537
1.4160475730895996,-0.1980247644980099,0.1270969183197106,-0.1141636040096427,0.24937576844994533,-0.04731226219691125,0.09060571861014094
1.437972068786621,-0.20135809783195913,0.13043025165296737,-0.11083027067673633,0.246042435116612,-0.05064559553035627,0.0939390519550231
1.4598031044006348,-0.20135809783195913,0.13043025165296737,-0.1052594537099519,0.23937576844994532,-0.050645595530356254,0.10060571862168977
1.47987699508667,-0.1980247644986258,0.12709691831963404,-0.10324571843984592,0.236042435116612,-0.04731226219702292,0.10393905195502309
1.4999947547912598,-0.19135809783195915,0.12043025165296739,-0.09657905177317927,0.24270910178327865,-0.04064559553035625,0.11060571862168975
1.5200915336608887,-0.18469143116524828,0.11376358498630579,-0.10324571843981672,0.2493757684499453,-0.03397892886368247,0.10393905195435509
1.540428638458252,-0.1913580978319107,0.11937180566681575,-0.09657905177314727,0.256042435116612,-0.040645595530348536,0.11060571862096547
1.560462474822998,-0.18802476449857722,0.11603847233348244,-0.0999123851064805,0.25937576844994537,-0.03731226219701518,0.10727238528762997
1.5805232524871826,-0.18802476449860803,0.11603847233347858,-0.1065790517731675,0.2660424351166121,-0.03647650606007781,0.10060571862136479
1.600600004196167,-0.1946914311653004,0.12270513900014195,-0.11324571843985155,0.2727091017832788,-0.035390992203499796,0.09393905195501874
1.6217777729034424,-0.19802476449863232,0.12603847233347545,-0.11657905177318394,0.27604243511661214,-0.03205765887016629,0.09060571862166897
1.6418530941009521,-0.20469143116534114,0.1327051390001364,-0.10991238510654595,0.26937576844994543,-0.038724325536838765,0.09727238528888105
1.6620478630065918,-0.19802476449867445,0.1382327090421559,-0.11657905177321261,0.27604243511661214,-0.0320576588701721,0.10393905195554758
1.682166576385498,-0.20469141212542655,0.14489937828224697,-0.10991237056975323,0.28270910178334696,-0.0253909915350026,0.09727233398461214
1.7021379470825195,-0.19802471243313607,0.13823272053492788,-0.11657901354291528,0.28937575705073365,-0.01872426908800911,0.09060537256399187
1.722294807434082,-0.20135806293524888,0.14156605138229586,-0.11991235861195798,0.292709090384067,-0.01539093731328114,0.08727216394630492
1.7423527240753174,-0.20802477464495955,0.14823271597376747,-0.12139664547889907,0.29937574631049874,-0.01539088223472236,0.0806058099323876
1.7624566555023193,-0.20802479248661382,0.15489939099829894,-0.12306581622880361,0.30604238026017744,-0.015390740395659174,0.07393896805390696
1.7824933528900146,-0.20469146058843052,0.1582327295957097,-0.12639914956213694,0.3093757010028665,-0.01205733878147211,0.07060564128243153
1.802595615386963,-0.19802479078023724,0.1648993849186118,-0.11973248289547027,0.3160424167762886,-0.01872416321558432,0.06393896256007639
1.8226749897003174,-0.19135807572119853,0.1582327275016338,-0.12639911320583708,0.3227090848132859,-0.021644005409081464,0.057271999698733096
1.8427650928497314,-0.19802473535302334,0.16489936977852593,-0.13306577987250373,0.3293758843611612,-0.028311003530720226,0.05060529583370796
1.8628604412078857,-0.19997023080064466,0.16823269827557424,-0.12973246844252326,0.32604255102782786,-0.03164433995840252,0.05393891439903638
1.8829407691955566,-0.1983878219733601,0.168232722222825,-0.1230658017758566,0.3193757091986963,-0.03164403138522089,0.06060563194757188
1.9030582904815674,-0.1917211566761165,0.1615660604378286,-0.11639913510918198,0.31937569037264674,-0.024977302478852107,0.06727230823587442
1.923703670501709,-0.18838782334278317,0.15823272710449526,-0.11306580177584866,0.3227090237059801,-0.021643969145518773,0.07060564156920775
1.9438068866729736,-0.18172115667611577,0.15156606043783247,-0.11973246844251398,0.32937569037262976,-0.01497730247880424,0.06393897490253586
1.9638898372650146,-0.17505449000944606,0.1448993937711663,-0.12639913510917836,0.33604235703929647,-0.02164396914547069,0.06944515409374502
1.9841539859771729,-0.18172115667648056,0.15156606043776966,-0.11973246844279045,0.33437214401065657,-0.028310635812167684,0.07611182076304579
2.0040764808654785,-0.1750544900098139,0.14489939377110306,-0.1130658017761238,0.32770547734398947,-0.027704605651833022,0.0827784874297126
2.0241873264312744,-0.17172115667630078,0.14156606043779915,-0.11639913510931955,0.3310388106773228,-0.027074175351487057,0.0861118207614945
2.044604539871216,-0.17172115667664584,0.14156606043774114,-0.11639913510958212,0.3310388106773228,-0.02984012141455652,0.09277848743097149
2.0645480155944824,-0.1717211566763645,0.14156606043778697,-0.1163991351093641,0.3310388106773228,-0.029840121414528242,0.09277848742822493
2.0849227905273438,-0.16838782334302935,0.13823272710445395,-0.11973246844269606,0.3343721440106562,-0.02650678808119475,0.08944515409487663
2.1049914360046387,-0.175054490009696,0.1448993937711206,-0.12625531165293846,0.3410388106773229,-0.03317345474786143,0.08277848742820997
2.1251204013824463,-0.18172115667636238,0.15156606043778634,-0.11958864498627178,0.3343721440106622,-0.03984012141454078,0.0894451540948747
2.1451988220214844,-0.17505449000937967,0.14489939377117275,-0.12625531165268558,0.3410388106773289,-0.03317345474784135,0.08277848742469933
2.165379047393799,-0.181721156676377,0.15156606043778234,-0.11958864498627798,0.3477054773439956,-0.03984012141453832,0.07611182076111624
2.1854960918426514,-0.1798509128448315,0.15489939377113202,-0.12292197831953489,0.35103881067732895,-0.03650678808119592,0.07277848742678701
2.205566883087158,-0.18150102672995572,0.16156606043778257,-0.12292197831960733,0.35770547734399566,-0.03650678808120404,0.06611182076094009
2.2256336212158203,-0.18150102672985688,0.16823272710446743,-0.12292197831952298,0.36437214401066237,-0.03650678808119465,0.05944515409324376
2.2456915378570557,-0.17816769339652036,0.17156606043780137,-0.12625531165285359,0.3677054773439957,-0.033173454747861035,0.056111820759881456
2.265885829925537,-0.1799995596605887,0.1782327271044797,-0.1329219783194683,0.37437214401066243,-0.026506788081189257,0.049445154092702594
2.2859678268432617,-0.1866662263359743,0.18489939376958056,-0.12625531166020368,0.36781274044460255,-0.03317345474644947,0.042778487496694745
2.3060402870178223,-0.1799995035096482,0.17823273798767267,-0.13292192947425038,0.37447940711126926,-0.026506782429554506,0.036111264268778094
2.326057195663452,-0.17333283684568257,0.18489940465383772,-0.13958859614320632,0.3811460737778018,-0.019840115762649324,0.02944459762154819
2.3461644649505615,-0.16999950351234921,0.18823273798717105,-0.14292192947653964,0.38447940711113515,-0.01650678242931599,0.026111264288214805
2.3663063049316406,-0.1699995035121,0.19489940465389116,-0.14958859614299252,0.39114607377780186,-0.01650678242930129,0.019444597620438517
2.386347770690918,-0.17666617017892206,0.20156607132052382,-0.15625526280979554,0.39781274044446857,-0.01650678242931184,0.012777930954668029
2.4063758850097656,-0.18333283684558863,0.20823273798719022,-0.15748193048042272,0.404479407111136,-0.009840115762648706,0.006111264288001048
2.4264800548553467,-0.18666617017892215,0.21156607132052405,-0.15558593138398719,0.4078127404444681,-0.006506782429308268,0.002777930954668262
2.4465689659118652,-0.17999950400482492,0.21823274389618025,-0.1622525966683075,0.4144793955209089,0.0001599648512228928,-0.0038887309987712705
2.4666454792022705,-0.18666617107710842,0.2244755393925504,-0.15558593000164084,0.42114606564841517,-0.00650668904379155,-0.010555392798939403
2.4867148399353027,-0.17999951045390447,0.2178088889178111,-0.1622525966683075,0.42781270554906553,0.0001602132461400209,-0.017222043658360282
2.5068106651306152,-0.17666614333250918,0.22114213453713957,-0.16558593000164082,0.43114613411775016,0.0034922349171401528,-0.020555436640076565
2.5268826484680176,-0.1699995246930559,0.22114225681294708,-0.17225259666830747,0.43781276478825204,0.0034940874547129074,-0.027222057495417756
2.5469603538513184,-0.16333279465993122,0.21913833843221206,-0.17225259666830747,0.44447963405579527,-0.0031750007968875033,-0.033888834731614206
2.5670101642608643,-0.15666614054524788,0.21700166643440957,-0.17225259666830747,0.45114624584464375,-0.0031745261750449473,-0.04055547144449781
2.587124824523926,-0.15333280573201372,0.21366832951205636,-0.1755859300016408,0.45447958926859344,0.0001587510194134634,-0.04388880792868426
2.607207775115967,-0.15999940859849573,0.22033484354555366,-0.16891926333497415,0.4611464649808547,-0.0065103109995537,-0.050555585866785394
2.627650499343872,-0.15333275308364425,0.21366820357058008,-0.1755859300016408,0.4678130890077475,-0.013176562678023107,-0.05722222563124504
2.647491455078125,-0.159999410837026,0.22033484954215404,-0.18225259666830745,0.4744798212996206,-0.019843557751852457,-0.06388892164174774
2.667570114135742,-0.1613056418849646,0.2236681607404924,-0.17891926333497413,0.4711465717052824,-0.023177244276559924,-0.060555626122148626
2.6877777576446533,-0.15914792614924947,0.22366816074113188,-0.17891926333260355,0.4711465717052824,-0.023177244276423616,-0.0605556261363145
2.7078874111175537,-0.15914792615011208,0.21700149407422273,-0.17891926333347635,0.47441210562247693,-0.023177244276469902,-0.06055562613194883
2.728048086166382,-0.15914792615020318,0.21033482740776563,-0.17891926333347635,0.477684419480385,-0.023177244273147997,-0.060555626131526596
2.74817156791687,-0.15581459281689058,0.20700149407442647,-0.18225259666683072,0.48101775281371834,-0.019843910939815773,-0.06388895946474588
2.7683804035186768,-0.1624812594866009,0.21366816074022968,-0.17558593000324466,0.48768441948038505,-0.026510577606637893,-0.07055562611625249
2.7883691787719727,-0.15581459281993404,0.20700149407356283,-0.18225259666991123,0.4943510861470526,-0.019843910939974792,-0.07722229278292005
2.80843448638916,-0.1624812594865889,0.21250427398082428,-0.17558593000324457,0.5010177528138119,-0.026510577607065235,-0.07055562611629804
2.828582286834717,-0.15914792615229473,0.2091709406477747,-0.17225259666888962,0.5043510861471452,-0.023177244273683794,-0.067222292788409
2.848628520965576,-0.15248125948573213,0.2025042739810767,-0.16588466855620673,0.5110177528138118,-0.016510577607021865,-0.06722229278797892
2.8687033653259277,-0.1524812594795425,0.1958376073162861,-0.16588466854958006,0.5176844194804784,-0.016510577606760533,-0.07388895947693426
2.889186382293701,-0.15581459281293722,0.19250427398293407,-0.16921800188297936,0.5210177528138117,-0.019843910940096538,-0.07722229281001682
2.9092977046966553,-0.16248125948422895,0.19917094064818452,-0.17588466855463494,0.5276844194804783,-0.026510577606966394,-0.08388895945568053
2.929483652114868,-0.16914792615194177,0.20583760731452466,-0.16921800188911865,0.5210177528138117,-0.03317724427367913,-0.07722229278336505
2.9495511054992676,-0.16248125947843758,0.19917094064994406,-0.17588466854822837,0.5276844194804783,-0.026510577606702414,-0.08388895949310596
2.9696593284606934,-0.16581459281427507,0.2025042739824958,-0.17921800188431522,0.5310177528138116,-0.029130716211498885,-0.08722229281291977
2.9897525310516357,-0.1724812594869642,0.2091709406472422,-0.17921800189105688,0.5376844194804782,-0.03482217428929453,-0.0938889594433602
3.009799003601074,-0.17248125947814041,0.20970604985913474,-0.17921800188090348,0.5443510861471448,-0.03482217428894306,-0.10055562616973462
3.0302069187164307,-0.1691479261452033,0.20718764814686555,-0.1825513352146916,0.5476844194804781,-0.031488840955625645,-0.10388895950056441
3.0503108501434326,-0.17581459282095385,0.2138543148105233,-0.18921800189178362,0.5543510861471447,-0.024822174289327637,-0.11055562611547547
3.070387125015259,-0.1824812594579927,0.22052098148730986,-0.18285081752340787,0.5610177528138217,-0.01815550762150552,-0.11722229291654232
3.090466260910034,-0.18914793952124725,0.22718764342949832,-0.1895174999664968,0.5676844194804883,-0.011488841512906054,-0.12388890860464422
3.1105458736419678,-0.1924812940259534,0.22385434979939015,-0.19285083329983013,0.5710176523398321,-0.008154782581364565,-0.1272221836920967
3.130659580230713,-0.1991479031884679,0.22385424441788662,-0.19285083329983013,0.5776845405508716,-0.008156746877340323,-0.13388897679858727
3.150972843170166,-0.19914790171484326,0.2305209084071583,-0.19285083329983013,0.5843512087970077,-0.008156797733219723,-0.1405556420792956
3.1714694499969482,-0.1991479134193144,0.23052092919377568,-0.1995174999664968,0.5910178486887468,-0.0014897322234199025,-0.14722228900355827
3.1915347576141357,-0.2024812278997262,0.22718756241025495,-0.2028508332998301,0.5943512383077482,0.0018429597758798624,-0.15055565658213035
3.2116217613220215,-0.2091478395960932,0.2338541328858167,-0.20261063258656897,0.6010180559006153,-0.0048255730432504905,-0.15722241259696668
3.2317004203796387,-0.20248116408289946,0.24052078445303274,-0.20927729925323563,0.607684737379947,0.0018407931542418843,-0.16388909157665546
3.2517855167388916,-0.2091477793243976,0.2338540299107229,-0.20261063258656897,0.6143515227755733,0.008505715822772996,-0.17055582990374243
3.2718653678894043,-0.20581448265789942,0.23052075864890795,-0.2059439659199023,0.6176848071876972,0.011840289648113747,-0.17388912837210355
3.291964292526245,-0.19914776345233978,0.2273226719742858,-0.21261063258656895,0.6243515122764953,0.011838515770255251,-0.1805558233832421
3.312040090560913,-0.19248115237081223,0.22411123322022605,-0.2192772992532356,0.6310180829480536,0.005173719634028114,-0.1872224283453138
3.3321168422698975,-0.18581439922121293,0.21744442840135544,-0.2192772992532356,0.6376849734242909,-0.00149584978015935,-0.19388921813582674
3.3528802394866943,-0.1824810309168907,0.2141110396633334,-0.21594396591990228,0.641018422397365,-0.004830353642646073,-0.1972226145033234
3.3730077743530273,-0.17581438126139257,0.20744440044206477,-0.22261063258656894,0.6476850538951785,-0.011496449871684498,-0.20388925612952902
3.3934214115142822,-0.16914762907917527,0.21411093522456648,-0.2292772992532356,0.6543521432931333,-0.018165964730645717,-0.21055615576998996
3.4133083820343018,-0.16248089706927132,0.20744416890957232,-0.22261063258656894,0.6610191979522394,-0.024834807511865967,-0.21722303855882422
3.433391571044922,-0.15914757432278287,0.20411085163565382,-0.22594396591990226,0.6643524635647581,-0.02150112233961431,-0.2205563333540452
3.453601837158203,-0.1545006513291646,0.20411073465611917,-0.23261063258656892,0.671019590290004,-0.021503723873287965,-0.22722325545324815
3.4739537239074707,-0.14998508563921453,0.21077729063245654,-0.23927729925323557,0.6776867224212434,-0.02150622358723836,-0.23389018169984505
3.493741273880005,-0.14802608791523167,0.2154827904867001,-0.23927729925323557,0.6843536843072421,-0.021507974549204896,-0.2405570141264938
3.513927459716797,-0.14926300473992016,0.21671776187632763,-0.23594396591990224,0.6876872373234985,-0.024842527955188043,-0.24389047010180273
3.534066915512085,-0.14259633830829566,0.21535922483779663,-0.2426106325865689,0.6943538959417572,-0.018175853499300496,-0.25055713157787146
3.5544331073760986,-0.13592956961351788,0.22202574793043509,-0.24927729925323555,0.7010210877955294,-0.01151259240399553,-0.2572240970124186
3.574374198913574,-0.12926282365902195,0.22869230477748118,-0.25594396591990226,0.7076880893056148,-0.004848581558597239,-0.2638909520206724
3.594572067260742,-0.1259295167224812,0.22901423177686478,-0.2592772992532356,0.7110213258573651,-0.00151436225721349,-0.2672242304199126
3.6146628856658936,-0.11926275133018005,0.23263712912349466,-0.2659439659199023,0.7176883071811052,0.005148986903898661,-0.2738910691405663
3.634803056716919,-0.11259604871565976,0.2336603039107791,-0.27261063290419213,0.7243549738477718,0.011814692806962084,-0.2805574277715704
3.6547672748565674,-0.11259595928942082,0.23491441985107805,-0.279277299874476,0.7310216405144384,0.011812295536203832,-0.28722348129915426
3.6751725673675537,-0.11592924969050315,0.23824769667341983,-0.28261063339312537,0.7343549738477717,0.00847779780252832,-0.290556478315042
3.6952741146087646,-0.10926252035583993,0.24491428147910438,-0.28927730036190213,0.7410216405144383,0.015142748181505109,-0.29722267133987185
3.71549654006958,-0.1159291809453443,0.23824760754685453,-0.2959439671033101,0.7476883071811049,0.01208827681595787,-0.3038892800362784
3.7354981899261475,-0.12405181693532,0.24655966997774312,-0.3007938599570468,0.7709260576587667,0.0031835478121185184,-0.3014101078252968
3.755568742752075,-0.12720736670119323,0.2500271993434849,-0.3041186534958128,0.7719536777264618,0.015350346561987353,-0.27134763937747763
3.77565336227417,-0.13350428423575167,0.25037450952275103,-0.30386941896231345,0.7732420624803242,0.02760535272342545,-0.27835575405473995
3.795734167098999,-0.13354853915035922,0.24390987330773004,-0.30368767655331264,0.7767115391741103,0.02680707886484178,-0.2854718778225382
3.816345453262329,-0.13021517852915235,0.24057650698091268,-0.3070210098309317,0.7800448725074436,0.023472965889897553,-0.2888050206595722
3.8364717960357666,-0.12354838233164517,0.23390966928971219,-0.31368772379158344,0.786711581763776,0.016802589474765785,-0.29547093969239985
3.8565828800201416,-0.11688147761350887,0.22724272035049792,-0.3070210577785749,0.7800449150971094,0.010129115077729553,-0.28880296347217027
3.876659393310547,-0.11021487114933452,0.22057612548111732,-0.3136877242046422,0.7733782484304428,0.0034641577771024274,-0.28213661647129584
3.896728754043579,-0.10368154258131776,0.22724277627872033,-0.30700847002660114,0.7800473803479463,0.01009910921385818,-0.2754665319327123
3.916825532913208,-0.1003482970135941,0.23057621445386045,-0.31034180296160574,0.7833807136812796,0.013434929458490457,-0.2721336501707488
3.936901569366455,-0.100348132401789,0.23724268874546076,-0.3170084699448303,0.7900473803479462,0.020096939580750196,-0.27213291073066076
3.9569804668426514,-0.10701469719800139,0.24390923713110657,-0.323675136611497,0.79671415637269,0.02676007060979709,-0.2787996067987151
3.9770963191986084,-0.11368125854261704,0.250575782733854,-0.3303418032781637,0.8033808633117497,0.033423058693157884,-0.2854662569001183
3.997629404067993,-0.11701453787189822,0.2539090544387856,-0.33367513661149706,0.8067141897223243,0.036754496589302244,-0.28879956381652616
4.017390966415405,-0.11034776116990086,0.26057558802678865,-0.34034182252805095,0.8133807836156293,0.043415988476912734,-0.2954661088145576
4.037674188613892,-0.10368109007802598,0.2539089167725274,-0.34700848919471766,0.8200474293033336,0.05008249352311841,-0.30213275792705174
4.057711362838745,-0.09701437718130734,0.2472421990629239,-0.35367515586138437,0.8267139478023742,0.043414180295549866,-0.2954660320807352
4.077809810638428,-0.09368097247355635,0.2439087872227899,-0.350341822528051,0.823380553315853,0.04007829843125407,-0.29213262055334427
4.097871541976929,-0.08701412219271314,0.23724191731759886,-0.3436751558613843,0.8167138319041273,0.04007178314378894,-0.2854658194939242
4.117968559265137,-0.08034734017387056,0.23057512205694336,-0.3370084891947176,0.8100470803630759,0.04673437689097144,-0.2787990357541066
4.138101100921631,-0.07701395068869758,0.22724172575366197,-0.33367515586138424,0.8067136753748825,0.05006573471390746,-0.27546562533469315
4.158208131790161,-0.07034717463163355,0.22057493568308217,-0.32700848919471753,0.8000468098403463,0.05672856598932343,-0.26879876945736964
4.178303003311157,-0.06368048837397354,0.22724158036510714,-0.33367515586138424,0.8067134119119658,0.0633945407269526,-0.26213204989420064
4.198455095291138,-0.07034714373600165,0.23390823454162513,-0.34034182252805095,0.8133800239121743,0.07006080146753411,-0.26879867568602994
4.218491554260254,-0.0736804200550698,0.23724150415573297,-0.3436751558613843,0.8167131475718259,0.07339211067511228,-0.2721318399445669
4.238562345504761,-0.08034696986922144,0.2439080409016389,-0.350341822528051,0.8233793280932037,0.08005460281727506,-0.2787981218513909
4.258711814880371,-0.08701351583504632,0.25057457422188884,-0.3570084891947177,0.8300454160601911,0.08671692045854118,-0.2854643387690529
4.278743743896484,-0.09368010368012776,0.2572411542402418,-0.36367515586138444,0.8367116626167083,0.09338072558050006,-0.2921306826245364
4.299328804016113,-0.09701341968495553,0.2605744686131584,-0.3670084891947178,0.840044894038399,0.0967134247185941,-0.29546393834533496
4.319426774978638,-0.10368005067182691,0.2672410963754669,-0.3736751558613845,0.8467113344920282,0.103378776390445,-0.30213043372132636
4.339516878128052,-0.11034668026492118,0.2739077227804706,-0.3803418225280512,0.853377743787355,0.11004406361260562,-0.30879690662294157
4.3595991134643555,-0.11701330843061124,0.28057434777226137,-0.3870084891947179,0.860044120353835,0.11670928361565985,-0.31546335577383317
4.379729509353638,-0.12367993513839057,0.2872409712940041,-0.39367515586138463,0.8667104626262265,0.12337443364627088,-0.32212977989154035
4.399813175201416,-0.12701324793697089,0.2905742824855833,-0.397008489194718,0.8700436204173672,0.1267069815694529,-0.3254629821627561
4.419905662536621,-0.1336798724083793,0.2972409036935616,-0.4036751558613847,0.8767099083548644,0.13337202155004432,-0.33212936633546514
4.439991474151611,-0.14034649536156407,0.3039075232850789,-0.4103418225280514,0.8833761581881078,0.1400369848424365,-0.33879572230393973
4.460097789764404,-0.1436798062633762,0.3072408324558288,-0.41367515586138476,0.8867092683605556,0.14336943692175902,-0.34212888932657715
4.480205535888672,-0.15034642690904207,0.31390744950902755,-0.42034182252805147,0.8933754583400523,0.15003428037454494,-0.3487952006991206
4.500280141830444,-0.15701304600308225,0.32057406479260125,-0.4270084891947182,0.9000416067161823,0.1566990408617025,-0.3554614808767093
4.5253119468688965,-0.16367966354070695,0.3272406782432317,-0.4336751558613849,0.90670771222439,0.16336371605317265,-0.3621277287524743
4.547686576843262,-0.16701302213121783,0.3239073723437221,-0.43700848919471824,0.9100413438341235,0.16669808226065483,-0.35879461821463715
4.568093538284302,-0.17034633001109345,0.32057401128861374,-0.4403418225280516,0.9133743705839354,0.17003036816147607,-0.3554610550181565
4.587916374206543,-0.16367960746228727,0.3139072834711616,-0.4470084891947183,0.9200403453140301,0.176694713271477,-0.3487938664102927
4.608000040054321,-0.15701288793018542,0.3072405584929793,-0.453675155861385,0.9267063312091872,0.18335915334476233,-0.34212668290608245
4.628070831298828,-0.15034618680777379,0.3100082804302911,-0.4603418225280517,0.9333725354278438,0.19002434621655456,-0.33545966314053505
4.648157596588135,-0.1470128342329805,0.3133415921906687,-0.4636751558613851,0.9367056042238102,0.19335684908591302,-0.33212612751499937
4.66823935508728,-0.14034611263684083,0.3200081968100582,-0.4703418225280518,0.9433714955014092,0.2000211202557658,-0.3321255337489437
4.688329696655273,-0.13367950785043894,0.3266748048739371,-0.47700865951960886,0.9500381621680758,0.20668781534320502,-0.3387930395857363
4.708510160446167,-0.13034620589958693,0.33000810818344434,-0.4803420807661534,0.9533714955014091,0.21002116376216678,-0.34212680982905125
4.72857141494751,-0.12367952123982735,0.3366747539165267,-0.48700874743282013,0.9600378856620223,0.21668701728217207,-0.34879326433062857
4.748786211013794,-0.11701283612239731,0.34334139881965386,-0.49367541409948684,0.9667042599224883,0.22335283784947926,-0.3554597063501138
4.768751382827759,-0.11034615056076996,0.3500080428642453,-0.5003420807661535,0.9733706182202793,0.23001862511255494,-0.36212613579274244
4.797246217727661,-0.11034615056076996,0.3500080428642453,-0.5003420807661535,0.9733706182202793,0.23001862511255494,-0.36212613579274244
4.81727933883667,-0.10701278806694717,0.3473548157252245,-0.5036753253672435,0.9767039515536126,0.23335194145612576,-0.3654590153002097
4.837329149246216,-0.10034613059901332,0.34163356035084586,-0.5103419920339101,0.9833707784103624,0.2333523872764173,-0.37212580674981083
4.857433080673218,-0.09367944428820776,0.33496686928372094,-0.5170086587005767,0.9900371178922782,0.22668477511895688,-0.37879221898065213
4.8775389194488525,-0.08701275170904409,0.3283001702153282,-0.5170086587005767,0.9967033716223229,0.22001685297376963,-0.3854585621778638
4.897989988327026,-0.08367940788359114,0.32496682393212606,-0.5136753253672434,1.0000365434116731,0.21668301056995848,-0.38879176850509817
4.918078184127808,-0.07701274517152301,0.3183001620321098,-0.52034199203391,1.0067032729742227,0.21001653393024805,-0.38212515090432564
4.938175678253174,-0.07034605652304451,0.31163346837794204,-0.5270086587005766,1.0133696283836984,0.20334879049651,-0.3754582364599117
4.9582884311676025,-0.06367936883445786,0.3049667756299244,-0.5336753253672432,1.006702676376901,0.19668109005520468,-0.36879134087749377
4.9783244132995605,-0.05701268077165892,0.2983000819537313,-0.5403419920339098,1.0000357266955513,0.1900133796803888,-0.3621244462831267
4.9984259605407715,-0.05367932574813194,0.29496672086425496,-0.5436753253672431,0.9967021123863301,0.19334566098755465,-0.3587908858484218
5.018542051315308,-0.04701263931514048,0.28830002823061146,-0.5503419920339097,0.9900351762502533,0.20001136590535046,-0.3521240018396348
5.038647174835205,-0.04034595407622123,0.28163333627718773,-0.5570086587005763,0.983368238878194,0.2066771245055072,-0.3454571174128875
5.058728933334351,-0.03701261188684094,0.27829999055103505,-0.5603419920339096,0.9800347698994447,0.21001002302784383,-0.3421236751902742
5.07892632484436,-0.030345928333507147,0.2716332995907508,-0.5670086587005762,0.9733678316739239,0.21667585676825177,-0.3354567909989735
5.098934888839722,-0.023679244447729734,0.2649666072635556,-0.5736753253672427,0.9800342046862461,0.22334166517564713,-0.3287898895253379
5.119050025939941,-0.017012561537404658,0.2582999156313806,-0.5803419920339093,0.9867005823089522,0.230007502707751,-0.3221229910802413
5.13933801651001,-0.02295665397904317,0.2516332600834964,-0.5870085692119658,0.993367082084242,0.2366736846665091,-0.31545574538935445
5.159262180328369,-0.026290010195826042,0.24829990293123103,-0.5903419880808252,0.9967004154175753,0.2400070342190223,-0.3121228469721663
5.179354906082153,-0.032884572105891435,0.2418217181409319,-0.5964260085928726,1.0089312348455581,0.2500491907219985,-0.30722792735173426
5.199421167373657,-0.03956013700627287,0.23607661393167637,-0.6000521040882001,1.033652797125256,0.2676907987607321,-0.30488062057394466
5.219537973403931,-0.046292065640804465,0.23032973947679602,-0.6034815680422919,1.0563773641748844,0.284819380383388,-0.3007808497026233
5.23962664604187,-0.04966279992753536,0.22746328102759114,-0.6051487804143638,1.0663538315907042,0.2936688125465372,-0.2987319055697514
5.25974178314209,-0.05640775791071986,0.22169660380223774,-0.6085693350523386,1.087193240970076,0.3114153479414828,-0.29459724443622376
5.279919862747192,-0.06315229487412825,0.21583718566197418,-0.6122842751094831,1.1123597485008907,0.3286001563923346,-0.2903447203624281
5.299973726272583,-0.06652618461456694,0.21289408854002817,-0.6141769183207535,1.1250638251643863,0.3372646163149654,-0.2882900078088411
5.320050477981567,-0.0732790009537725,0.20699034537695912,-0.617999124994145,1.1505220479085685,0.35483869255598444,-0.28431322924373204
5.340169906616211,-0.08003285541155196,0.20105661443745623,-0.621915066648057,1.1762738797374048,0.37268886183566663,-0.28070230001337865
5.360201358795166,-0.08678473145134537,0.19509704651665447,-0.6259251826550284,1.2023074120352144,0.39087239075466435,-0.27757180581220214
5.380289077758789,-0.09015851954860375,0.19210911381782259,-0.6279660619771062,1.2154338820822377,0.4001125388942732,-0.27622961645477473
5.400396108627319,-0.09685453724621247,0.18610379132551044,-0.6322997964170851,1.2417153695085297,0.41906469282656766,-0.27485482025963504
5.420475482940674,-0.10348283978244284,0.18005817816371145,-0.6368928628667267,1.2677933246424657,0.4385178112449757,-0.2746219903975393
5.440673112869263,-0.11004263376894265,0.17397914484968868,-0.6416601587777028,1.293658741125925,0.45849384966205015,-0.2750090237398761
5.461018323898315,-0.11328874371693548,0.17092388730639152,-0.6441048639782128,1.3064518551768423,0.4686881793945502,-0.27526732255935094
5.480889320373535,-0.11984977007734478,0.16482044798186732,-0.6464384060743831,1.3267682491928308,0.4723415540024627,-0.26709994647818924
5.5009801387786865,-0.1263547252313855,0.15877221626016938,-0.6472132518784356,1.3476040861012915,0.4703746743350004,-0.25917947027868093
5.521040678024292,-0.132871027541217,0.15267993347257577,-0.6480986009633583,1.3687484822488933,0.46867222019868393,-0.25168060821347943
5.541158437728882,-0.1361323283550006,0.14961548877628786,-0.6485673474903277,1.3793796442555684,0.4678383635531262,-0.2480817809589523
5.561288833618164,-0.14265995193461536,0.14344853991701978,-0.6495548513200886,1.4007619982912118,0.46621339319966343,-0.24120013864255613
5.58131742477417,-0.14911268688303336,0.13729257737087416,-0.65068779613449,1.4209057843735742,0.4722967028196213,-0.2340382276768556
5.601372241973877,-0.15551830895778945,0.13126679415538597,-0.6515699943031205,1.4381685171136036,0.4837922821890286,-0.22544669326518463
5.621485710144043,-0.15873124845858425,0.12830393228371448,-0.651991270090571,1.4465402888006265,0.489104921384992,-0.22088787265606247
5.641665935516357,-0.16517213672280753,0.12235270721544976,-0.6528697167608637,1.4631483313169744,0.49950915933609435,-0.21188890084877687
5.661662817001343,-0.17163387968674437,0.1163732287699677,-0.6537468085842868,1.4792644779508064,0.510205520273182,-0.20273258069292086
5.681950092315674,-0.1748845536629938,0.11339392544689889,-0.6541428877258332,1.4866606411636718,0.5154405372931707,-0.19772552558872802
5.702046632766724,-0.18141648387838508,0.10739827914028116,-0.6549609705059973,1.5014939788901627,0.5248681543526588,-0.18777894058956351
5.7221150398254395,-0.1879362355686022,0.10141386817961363,-0.6558070373509031,1.51696039556342,0.5342358002911304,-0.17891111080426325
5.742220640182495,-0.19446547909927733,0.09540866822863925,-0.6567141497246907,1.532197159571248,0.5439816632958285,-0.17025971385710875
5.762343645095825,-0.1977423891304293,0.09242437582010136,-0.6569870659528422,1.538080997932483,0.5481042216165256,-0.16606996222215983
5.78252387046814,-0.20431357776123824,0.08650252493170088,-0.6573761505154461,1.5473978088410196,0.5556960709680933,-0.15804315845385894
5.8025805950164795,-0.21089857802106482,0.08061605570012677,-0.657791375374895,1.5546728521185282,0.5633659831966628,-0.15037520735064794
5.822748184204102,-0.21749364544119135,0.07470963650729757,-0.6582424471225622,1.5616739411558653,0.5711264078173873,-0.142787402866038
5.842964172363281,-0.22079490681544323,0.07174842788103733,-0.6584690470656887,1.565074020653203,0.575006003928241,-0.1390169390905126
5.862907886505127,-0.2274045233052343,0.0658094136091989,-0.6589242092397608,1.5716829712272014,0.5827640785638851,-0.13152299791500288
5.883042573928833,-0.23397865240453217,0.059790824994029074,-0.6591199458910832,1.5781605982456604,0.5912564386463809,-0.12437652197570197
5.903094291687012,-0.24057274128706937,0.05372353822745546,-0.6591129948072504,1.5868095614688906,0.5990986803685986,-0.11731879769437467
5.9232001304626465,-0.24390385964589276,0.0507713703203303,-0.6593100915353779,1.590742848439907,0.6038996170536849,-0.11423828005449402
5.943293571472168,-0.25059583594690765,0.04488221473340845,-0.6599155674626492,1.5990886349089,0.6143432633814305,-0.10816834552738977
5.963456153869629,-0.2572563260782853,0.03909439879163945,-0.6597408969783474,1.599561651340177,0.6192744955220107,-0.10369121072641274
5.983723163604736,-0.26060952809833354,0.036202067113984944,-0.6596004016174377,1.5996738231305414,0.6213381380318964,-0.10151818531724054
6.0036091804504395,-0.26734345473656657,0.03038431032722754,-0.6596959707146507,1.5995082075468008,0.6272283429223088,-0.09702733016318729
6.0236945152282715,-0.2739200283784757,0.02458756777751529,-0.6594245047185996,1.5916134353916804,0.6301419510635078,-0.09308054398652557
6.043950796127319,-0.2807648533782864,0.018673675660964846,-0.6596189287067551,1.5912901376401911,0.6371517276840836,-0.08710911240440526
6.063964128494263,-0.2842039631724189,0.01567026563852527,-0.659852341754164,1.5913787110853352,0.6407197481866703,-0.08411154425378885
6.084035158157349,-0.29104215113956927,0.009681118588343869,-0.660261500841904,1.597717606503576,0.648592006587294,-0.07792455056781683
6.104416608810425,-0.29784401189987536,0.0036973321235747665,-0.6603040368140338,1.598605934225542,0.6541268717851679,-0.07345536619128683
6.124333143234253,-0.30124780343772983,0.000706547677894717,-0.6602504625646101,1.598663551848991,0.6567030328415604,-0.07129429540085248
6.144484996795654,-0.3080610578762245,-0.0053199014317558205,-0.660444889120077,1.5986400996135046,0.6628609688759778,-0.0669975352001289
6.164621829986572,-0.31471332053339557,-0.011298206314452539,-0.6599065875074261,1.5904039699051955,0.6638908464927874,-0.06354462322799906
6.184900283813477,-0.321588375896998,-0.01745309129766078,-0.6603620518830444,1.5912246350151178,0.6726999346167281,-0.05857005371279386
6.20482063293457,-0.3284474291033375,-0.02360285476292495,-0.6612732254645789,1.6002638818490889,0.6828801846736311,-0.05191065784034047
6.2249369621276855,-0.3317889579621604,-0.026714037234608787,-0.6607640368842168,1.6003288785292467,0.6819546420892267,-0.04962847955587134
6.245008230209351,-0.3385268399708432,-0.032846179660566625,-0.6613557028505507,1.6002946935417608,0.6905729079385059,-0.04538938150560172
6.265092134475708,-0.34531881190781105,-0.03904410471022861,-0.6616318298273404,1.6001203077506547,0.697044958975453,-0.04138458170920557
6.285221338272095,-0.3485778614688383,-0.042105520036797475,-0.662435076397246,1.5927827180022274,0.7041660097945055,-0.04084507663779449
6.305317640304565,-0.3553446160379207,-0.048388770471589924,-0.6619628310584166,1.592785844543339,0.7050562455237017,-0.035948244295213025
6.325403690338135,-0.36209328450259715,-0.054714190897865805,-0.6626767948678614,1.600678419847856,0.7153167381091695,-0.030753414972274996
6.345476150512695,-0.3688576587226308,-0.061042942583009595,-0.6627897271026895,1.6010201172588414,0.7205987589592379,-0.02682909660827295
6.365557909011841,-0.37223754050661284,-0.06421222298924724,-0.6628900454662492,1.6012445512174858,0.723563611261775,-0.024877286575822517
6.38569188117981,-0.37895954784143615,-0.07060629737498818,-0.6630067790382168,1.5952224158741632,0.7281092022177429,-0.020364262487584585
6.405884265899658,-0.37898845712826906,-0.07707699519728854,-0.6635025076168678,1.5975945969610026,0.7356334855412389,-0.016512518973536113
6.4263505935668945,-0.37910609531828676,-0.08348927031458984,-0.6637125044178582,1.6049308031919263,0.7420642125514868,-0.011356027137306013
6.446452617645264,-0.38244979021044395,-0.0866611113958839,-0.6641741869747476,1.6053691770456282,0.7467495989463638,-0.009286901838251517
6.466589689254761,-0.3891883411065245,-0.09306492360817595,-0.6646598945357727,1.6055641911139245,0.7540411280770365,-0.005329499191418752
6.486658811569214,-0.39570446658449066,-0.09947929609747944,-0.6644118133884315,1.5957483002944919,0.756552279877948,-0.002859752842003071
6.506748914718628,-0.38919141753461195,-0.10598750201310204,-0.6653946709666105,1.6006477804033226,0.7659875394596974,0.0016650433643372888
6.526870250701904,-0.39260471408203207,-0.10922211530567946,-0.6656123184303285,1.602307747128786,0.7697626140979579,0.0046168828296809985
6.546948194503784,-0.3994262393902255,-0.11569791882439473,-0.6663043872366239,1.605230981481601,0.7778828424148339,0.010487618918297824
6.566996097564697,-0.4062453147152241,-0.12219760977004594,-0.6669745926777264,1.6083731309484632,0.7858049279781841,0.01633740174536287
6.587136745452881,-0.4096514840044804,-0.12545613411065137,-0.6673276639614334,1.6099289945922999,0.7898418336982872,0.019237292427607237
6.607219934463501,-0.40297683534389805,-0.13195421242834757,-0.6675309060458405,1.6114954504719181,0.7943929090389628,0.023232493518953595
6.627347469329834,-0.4094964514862399,-0.13836901223360404,-0.6687983391609628,1.602966427870937,0.8056841957507482,0.025547624584001033
6.647358417510986,-0.4160824010576662,-0.14507836126140505,-0.6685630650410882,1.6013117253261624,0.8069348288996308,0.02929284600906635
6.667804718017578,-0.4127553037457862,-0.1484130772367513,-0.6688406715671988,1.6028401466325692,0.8105944499207836,0.031258388007883546
6.6876420974731445,-0.41047443330319483,-0.15497801322021812,-0.6696971740934522,1.6066923782392548,0.8189615515336865,0.03681000110510455
6.707708358764648,-0.4147143609432276,-0.16160348346277686,-0.6706195885967606,1.6095943400851975,0.8277486345841344,0.0424929881645937
6.728869199752808,-0.41808943137864174,-0.16494054774354414,-0.6710691585414195,1.6109743755567878,0.8319811230658212,0.04532971747273801
6.748983383178711,-0.42471278187194134,-0.1716485544364897,-0.671700759312658,1.6105061132237182,0.8386555973379283,0.04951530681390133
6.76903510093689,-0.417951492260952,-0.17820812218923388,-0.6729173986979234,1.6053514226721364,0.8484504629067254,0.05234716428504874
6.789123296737671,-0.4113053088878596,-0.18491132453585737,-0.6729504423882573,1.6056707059050637,0.8506886759877177,0.056764463187156874
6.810384035110474,-0.4178898860437983,-0.19174084404630817,-0.6737543476745964,1.6068020924900093,0.858288095034129,0.060987394622911834
6.830456495285034,-0.4212448542472984,-0.19513106339769115,-0.6742571495402461,1.6081860888728525,0.8624981336659168,0.06385745885519833
6.850537061691284,-0.4279457762915124,-0.2019299264445783,-0.6752985801356911,1.6109464833801204,0.8709725309512015,0.06956071518613531
6.8706042766571045,-0.4280142661652552,-0.20870861805626026,-0.6762826824350342,1.6146881463695422,0.8790338948640039,0.07509187361773184
6.890726804733276,-0.4247008751121397,-0.21207863174876496,-0.6768164016200063,1.6160625202574315,0.8832347426291585,0.07739191964409299
6.910788536071777,-0.41791091579479883,-0.21874292543972695,-0.6783039651036161,1.6106608497574977,0.8935882802351608,0.08060674882750064
6.930886745452881,-0.42432302350645257,-0.22579256058782066,-0.678562369978698,1.6079839704358243,0.896377700903276,0.08432214901960022
6.950962543487549,-0.4308629341485734,-0.23278057591261744,-0.6797491770022256,1.6118341818228539,0.905026234154178,0.08851380436384221
6.9710533618927,-0.4275682797368115,-0.23619252944611868,-0.680268527569173,1.6140828423958535,0.9089002187784134,0.09127847836054823
6.991132497787476,-0.42406678132380204,-0.24302461503357098,-0.6816762874351847,1.6172914039393027,0.9181575683554959,0.09689955316695507
7.011226654052734,-0.42717817432515776,-0.24996017465655646,-0.6830846309422203,1.6200328166717235,0.9272633283081163,0.10244220646320945
7.031515836715698,-0.43047476783649563,-0.2534656322663007,-0.6837591673305726,1.6213777951404675,0.9316491578388446,0.10517711763243506
7.051943302154541,-0.43704512212749924,-0.26047907619544264,-0.6852265295817392,1.624147502867536,0.9408967476617602,0.11025778772273287
7.071810245513916,-0.4306574029353757,-0.26729816762578174,-0.6869773152405229,1.6201525350441537,0.9513751291459337,0.11394598195942418
7.091865301132202,-0.4239335403337791,-0.27431555605339597,-0.6875778460355108,1.61984343523249,0.9546839778267624,0.11899908094817588
7.112352609634399,-0.43038810729018473,-0.2814492602751554,-0.689267086460781,1.6231324227854305,0.964463922046862,0.1232677672179002
7.132449626922607,-0.4336503374417294,-0.28500927041457785,-0.6901058060266491,1.6241860172739633,0.9691450875188143,0.1260042258731203
7.1529762744903564,-0.4361588972386877,-0.2921224058138729,-0.6916533259247671,1.6271266653305958,0.977744930206038,0.13146580578136308
7.172781705856323,-0.4357905793515525,-0.29921161719614175,-0.6932583831461655,1.6290189158249926,0.986194226138211,0.13645236417216008
7.193750858306885,-0.4389329813645992,-0.3064000509752973,-0.6943681882394926,1.6197680097975042,0.9913964242913105,0.1387004648550708
7.213627338409424,-0.44218527574484806,-0.3099742664587204,-0.6953863120843152,1.620587120167843,0.9963094511381879,0.1415555309368591
7.233967542648315,-0.4486614587566099,-0.31718443275002484,-0.6972635194386557,1.6226781544272548,1.0055139554271861,0.14717840270349047
7.254009246826172,-0.44456383799745686,-0.32428581808736334,-0.6991941434437073,1.6253535831726214,1.0147340318896159,0.15294088278174822
7.274671792984009,-0.4492662572528796,-0.33150644238414634,-0.701309642297917,1.627089895924264,1.0243733373243613,0.15860019558002017
7.294756889343262,-0.4524882094437598,-0.33513228974683346,-0.7024095417807062,1.6278497424125635,1.0292321525952712,0.16142697082007446
7.314845323562622,-0.45891947454590615,-0.34240882139392725,-0.7046224902529803,1.6293912636469978,1.0388723607412833,0.16707734906062754
7.3349409103393555,-0.46405307885943853,-0.34969408206963576,-0.7068101151226734,1.6313775475561616,1.0480367085959306,0.17276134473137567
7.355177879333496,-0.4657836853114222,-0.35332477338154744,-0.7079705785436492,1.6322541263178594,1.0527788846893735,0.17563708718668355
7.375295639038086,-0.46918137017187067,-0.36059728661262985,-0.7103689757687164,1.6338659733500829,1.0623460371412081,0.18140665201934741
7.395408391952515,-0.4755927351494405,-0.3679126332039913,-0.7129018855913505,1.6351066415388662,1.0720864357268294,0.18717213629508697
7.4154746532440186,-0.4787960692430364,-0.3715745967247122,-0.7142084857922116,1.6356530911922407,1.076988023065518,0.19006909004368655
7.435558319091797,-0.4841845357388655,-0.37889886935084155,-0.716888326589508,1.6366599961556862,1.0868209206833324,0.19590285360745777
7.455641508102417,-0.48797533128448023,-0.38620793836949474,-0.7197127041349236,1.6374148395159576,1.0968230223246969,0.20181096337788706
7.4756999015808105,-0.48961413684686783,-0.38986196180633786,-0.7211749947177092,1.6376964089487571,1.1018723331576104,0.20478580871340515
7.4958176612854,-0.4959981082158866,-0.39723541094741555,-0.7240661325931353,1.638486465810763,1.1114256898214347,0.21069065130017922
7.5159173011779785,-0.5024002662321165,-0.40456795092157727,-0.7271360720506509,1.6388729005077476,1.1219025439654746,0.21671591052068517
7.5360119342803955,-0.5063803925633655,-0.411884812976331,-0.7303525206522478,1.6391183052023135,1.132048291935803,0.22278250110214504
7.5560925006866455,-0.5082066601020818,-0.4155361210549492,-0.7320279272263459,1.639095020906753,1.137226296403029,0.2258270492524197
7.5762245655059814,-0.5130705139511519,-0.4227836031491812,-0.7356069741953424,1.6386944725220831,1.1475240922493035,0.23197901636835522
7.601365089416504,-0.5162761960193717,-0.42641758409140607,-0.7374140340478726,1.6383819893594969,1.1528527221495322,0.23505732861670972
7.625771522521973,-0.5226880352149147,-0.43368831038029687,-0.7411191414217033,1.6375867611790458,1.1635369008526655,0.24123271146802241
7.645980358123779,-0.5246982124112877,-0.44089944461322544,-0.7450125656931843,1.6367342413607762,1.17437184306257,0.24743969688867137
7.6660284996032715,-0.5308458467549283,-0.4481468703930482,-0.7489794973458499,1.6355950715479344,1.1850840788255155,0.2536758429481867
7.686326026916504,-0.5340668949694455,-0.4517568973161201,-0.7510565015972664,1.6348106138142706,1.1905335846728837,0.25681227206386875
7.706626653671265,-0.5405248424299647,-0.45894051633436483,-0.7554077309294546,1.6328024575745674,1.2016370292383636,0.2631239717668196
7.726451396942139,-0.5404314697586904,-0.4660541516967616,-0.7599333324455161,1.6308069989055827,1.2127821684544289,0.26947966349160957
7.747042417526245,-0.5371021897444025,-0.46955016291459883,-0.7623639765083491,1.6295431819354032,1.2185954555284515,0.27268892063849626
7.767175674438477,-0.5436097161221158,-0.4765976421555162,-0.7673780380105317,1.626017230747524,1.2302626810890671,0.27913496811698885
7.787236213684082,-0.5501275723041139,-0.48364038498506473,-0.7724486506713933,1.6225324631241367,1.2416740969437006,0.2856054375817789
7.80731463432312,-0.556682774407761,-0.490587732735102,-0.7778541036395534,1.6182723468959415,1.253384666196652,0.2921299850477407
7.827406167984009,-0.5533584374882736,-0.49401413684362805,-0.7806479838938095,1.616092111857365,1.2592692187331302,0.29541120884154104
7.847476959228516,-0.5533468216093873,-0.5007769561868899,-0.7865769655863357,1.610726092313414,1.271420669903573,0.30201242890335206
7.86759090423584,-0.5600126761956159,-0.5074337489949458,-0.7928365824787215,1.6045030075340276,1.2837729078626106,0.3086466945537665
7.887630939483643,-0.5644481496344786,-0.5140641294144161,-0.7991852979451284,1.5978850745395206,1.295822918468975,0.3152702892110423
7.908216714859009,-0.5654300194007417,-0.5173943849572512,-0.8023399238466395,1.5945934376112023,1.3016374089327558,0.3185779498009597
7.9283363819122314,-0.5720982964259166,-0.5240579991757536,-0.8086738067000289,1.588035027246092,1.31295765975778,0.3251983628176907
7.948467493057251,-0.5787666527293834,-0.5307251859191012,-0.8150403907466756,1.5814909343443737,1.3238613528669272,0.3318268113445879
7.9685728549957275,-0.5854349979336092,-0.5373952806871038,-0.8214397184395564,1.57495551633719,1.334340072668568,0.33846256893069415
7.988642454147339,-0.5887691412738785,-0.5407312057940149,-0.8246516682963524,1.5716893037125113,1.3394174169948818,0.34178295986903495
8.008710622787476,-0.5953044976578583,-0.547404373165802,-0.831100140532666,1.5651555017369123,1.349242687367032,0.3484283766024807
8.028784990310669,-0.6015195773193518,-0.5540786983448169,-0.8375813789954969,1.5586140853103132,1.3586212205491324,0.3550794314805515
8.048859119415283,-0.6048534975001257,-0.5574160754231682,-0.84083428972373,1.5553411024378252,1.363140223635154,0.3584066685709964
8.068956136703491,-0.6115211518571649,-0.5640907849137282,-0.8473646791478964,1.548784318146065,1.371831757403443,0.3650643193035596
8.089050531387329,-0.610101869649398,-0.5707646965437951,-0.8539275829041881,1.5421677125572009,1.3800541323406932,0.37172781114122405
8.109145641326904,-0.6167690387362212,-0.5774372389201001,-0.8605234390620756,1.5355661966603855,1.387795587221438,0.37839191086334195
8.12921953201294,-0.620102525330107,-0.5807727168682362,-0.8638336035153655,1.5322552396437867,1.3914836131030521,0.38172472310250255
8.14952564239502,-0.6267693242955297,-0.5874415833651,-0.8704784225796186,1.5256103259880018,1.3984871941618893,0.38839120654416076
8.169413805007935,-0.6334360131483002,-0.5941084561507513,-0.8771450892462852,1.5189436419659765,1.4051521460448693,0.39505788896105826
8.190102100372314,-0.6367434099635214,-0.5974418525807775,-0.8804784225796185,1.5156102991398641,1.4084849782833233,0.39839122936763804
8.210174560546875,-0.6410909195649087,-0.6041086294452509,-0.8871450892462851,1.5089436090498891,1.4151507758803943,0.4050579102551581
8.230228662490845,-0.6477575945359408,-0.6107754038154258,-0.8938117559129517,1.5022769107701577,1.4218166010613493,0.4117245930916228
8.251317739486694,-0.6544242688413925,-0.6174421779925654,-0.9004784225796183,1.4956102035788026,1.428482435472507,0.4183912781665869
8.271393537521362,-0.6577576057062146,-0.6207755645042518,-0.9038117559129516,1.492276846883941,1.4318153599142087,0.4217246214054393
8.291471481323242,-0.6644242788616413,-0.627442336371982,-0.9104784225796182,1.4856101274087938,1.4384812229968178,0.4283913091967066
8.31155014038086,-0.6710909512547549,-0.6341091066891924,-0.9171450892462848,1.4789433999648083,1.4451471047176585,0.43505799862550737
8.332150936126709,-0.6744242871671122,-0.6374424912602982,-0.9204784225796181,1.4756100333089115,1.4484800524793053,0.4383913439121866
8.35226845741272,-0.6810909584278758,-0.644109259209389,-0.9271450892462847,1.4689432942427227,1.4551459616798321,0.44505803554694623
8.372458457946777,-0.6877576289443158,-0.6507760255348993,-0.9338117559129513,1.4622765476688164,1.4618118890168093,0.4517247284840163
8.392438173294067,-0.6944242987278493,-0.6574427901864451,-0.9404784225796179,1.4556097938111316,1.46847783444998,0.4583914225823081
8.41256594657898,-0.6910909671994465,-0.6607762046696691,-0.9438117559129512,1.4522763646804795,1.4718105841729983,0.4617247867231336
8.432637691497803,-0.691350065705797,-0.6674428903463705,-0.9504784606183153,1.4456096527475106,1.478476905583912,0.46839158494217153
8.452726125717163,-0.6980167337275931,-0.6741096505078673,-0.9571451272849819,1.4389428819660774,1.4851428966130726,0.47505828125162447
8.472968101501465,-0.7046834010825281,-0.6807764086956241,-0.9638117939516485,1.4322761051275459,1.4918089063559794,0.4817249781182917
8.492968559265137,-0.7080167345186559,-0.68410978701493,-0.9671451272849818,1.4289427145982914,1.4951419183318821,0.4850583266938168
8.513067722320557,-0.7146834009284381,-0.6907765420189482,-0.9738117939516484,1.4222759297127072,1.5018079567552767,0.49172502397845863
8.533215761184692,-0.7213500667527442,-0.6974432947141663,-0.980478460618315,1.4156091403467586,1.5084740148855684,0.4983917212170268
8.55324387550354,-0.7280167320345833,-0.7041100449254807,-0.9871451272849816,1.408942347382841,1.5151400932886028,0.5050584181098047
8.573631525039673,-0.7313500644874432,-0.7074434190383302,-0.9904784606183149,1.4056089498747484,1.5184731402913427,0.5083917663225218
8.593627691268921,-0.7380167290520272,-0.7141101651415247,-0.9971451272849815,1.3989421535589175,1.5251392503403292,0.5150584620504055
8.61376428604126,-0.7446833921852226,-0.7207775432087838,-1.0038117939516482,1.3922746036565272,1.5318002881658157,0.5217252219067706
8.633753299713135,-0.7513500543648771,-0.727444882494006,-1.010478460618315,1.3856071199276536,1.5384615183401813,0.5283919437462711
8.653940677642822,-0.7546833853878752,-0.7307785366990388,-1.0138117939516484,1.3822734092532334,1.5417922065294911,0.5317252887527689
8.674371242523193,-0.7613500479171039,-0.737445812444961,-1.0204784606183153,1.3756060637616683,1.548453730548948,0.5383919436220064
8.694419860839844,-0.7680167119733154,-0.7441130421195503,-1.027145127284982,1.3689388387221333,1.555115453323167,0.5450585471200121
8.714350938796997,-0.7746833786897955,-0.7507802225364937,-1.033811793951649,1.3622717589510018,1.5617773770891572,0.5517250937507164
8.734640836715698,-0.7780167315592228,-0.7541135394104688,-1.0371451272849823,1.358938839529125,1.5616151033129195,0.5550582455281569
8.754598379135132,-0.7846834065301549,-0.7607806170475366,-1.0438117939516491,1.3522721042470842,1.5610162803090135,0.5617246801216044
8.77469515800476,-0.7913500678962747,-0.767447869495759,-1.050478460618316,1.3456050677013576,1.5625784343580982,0.5683911315111883
8.794761419296265,-0.7980167350852557,-0.7741147772575967,-1.0552628565685083,1.3389383181972492,1.5625186705496548,0.5750576680788061
8.815016984939575,-0.8013500612401083,-0.7774481854931686,-1.0565688129236814,1.335604787465935,1.5608692353552207,0.5783910390846384
8.835135221481323,-0.808016750437424,-0.7841149029915361,-1.0632354795903483,1.3289387353304585,1.5675344260616304,0.5850573874927136
8.855200290679932,-0.814683444965688,-0.790781597315216,-1.069902146257015,1.3222728588770174,1.5608662885914018,0.5917236726942658
8.875518321990967,-0.821350161385117,-0.7974483748208453,-1.076568812923682,1.3156076740751321,1.5541962692529654,0.598389562620359
8.895494222640991,-0.8280167991325786,-0.8041152766835643,-1.073538370475781,1.308940233308768,1.549813427258361,0.6050564087323153
8.915579795837402,-0.8246834491792657,-0.8074487262074815,-1.071388972591411,1.3056064217286325,1.548747194689645,0.6083898712544393
8.935693740844727,-0.8216938804677432,-0.81411516888838,-1.0687314541744701,1.2989406899341385,1.5444562065217144,0.6150562790617756
8.956058025360107,-0.8253366413016014,-0.8207815612457519,-1.0661675421398962,1.2922759013835001,1.5377899639053696,0.6217222299246483
8.975897073745728,-0.8253366277047737,-0.8274483160788147,-1.0611123668354625,1.2856088873105156,1.5331949368311835,0.6283889929017569
8.996247053146362,-0.8220033380183194,-0.8307815807365068,-1.057779033502129,1.2822768868125054,1.5320592118943896,0.6317216938855442
9.016358613967896,-0.8153367093973857,-0.8374480307565169,-1.054630361409338,1.275611169057663,1.5253938158026383,0.6383880731040182
9.036747932434082,-0.8220034103198729,-0.8441145146525243,-1.0535014136167316,1.2689453794395724,1.5187281842172753,0.6450544554177505
9.056640386581421,-0.8286701339086006,-0.8507808747969925,-1.0601680802833984,1.2622800885983794,1.512063347142689,0.6517206830336062
9.076714277267456,-0.835336791220866,-0.8574476012867944,-1.0535014136167316,1.2556132328020648,1.5053962517254857,0.6583873935473833
9.09680724143982,-0.8320034399274298,-0.8607810234819324,-1.0501680802833981,1.2522794508903152,1.5020624023383464,0.6617208847525299
9.116928339004517,-0.8293719186350952,-0.8674474917734271,-1.0447862624703599,1.2456137858696394,1.4953968905938946,0.668387190448898
9.136991739273071,-0.833336856281749,-0.8741140943975698,-1.039609293105292,1.2389474875761763,1.488730557730146,0.6750537134888257
9.157378435134888,-0.83333687153471,-0.8807806886736599,-1.0331782964526404,1.2322811551575137,1.482064332364583,0.6817202631278808
9.177435636520386,-0.830003548028409,-0.8841139847830378,-1.029844963119307,1.2289480682472869,1.4787311788755166,0.6850534892601835
9.19761037826538,-0.8363705498516011,-0.8907802918697016,-1.0263894991957763,1.2222831798740685,1.4720667430531231,0.6917194860918316
9.217663764953613,-0.8430371936651846,-0.8974470781086437,-1.0222444072838357,1.215616123718535,1.4653991826509136,0.6983862456230638
9.237782001495361,-0.8363704871168405,-0.904113915856696,-1.0155777406171689,1.2089486444632447,1.4587313979152277,0.7050532141535146
9.258198738098145,-0.8430371986499304,-0.910780409600358,-1.0133685831124921,1.2022829074372368,1.4520657997548163,0.711719494537738
9.278356075286865,-0.8463705487460047,-0.9141136770081518,-1.0167019164458255,1.1989499073655903,1.4487328938998918,0.7150526945320574
9.298391819000244,-0.8530372030303982,-0.9207803997283841,-1.0167019164458255,1.1922830323939118,1.4420658015059695,0.7217194233140117
9.318552494049072,-0.8597039039245626,-0.9274469424378935,-1.0136580971385842,1.1856170784495548,1.4353998899618126,0.728385772811093
9.338908195495605,-0.8630372514194354,-0.9307802299170476,-1.013918659762067,1.182284064302353,1.4320667969988388,0.731718946758556
9.359018087387085,-0.8563705869234483,-0.9374468973012765,-1.0072519930954003,1.175617477398265,1.4254000666449917,0.7383855511545515
9.379111766815186,-0.8630373152928513,-0.9441133494489496,-1.0016153810155126,1.1689520394480295,1.41873476039798,0.7450516595798347
9.39919638633728,-0.8697040454596997,-0.9507798029659942,-1.0082820476821794,1.1622866294376222,1.4120694373679554,0.7517177375491083
9.419651508331299,-0.876370698726535,-0.9574465249667918,-1.0016153810155126,1.1556197414753422,1.4054023447983142,0.7583844731461858
9.439497709274292,-0.8773970862447553,-0.9607798026496391,-1.0008497081159113,1.152286718508142,1.4020693838183445,0.7617176651849801
9.45954418182373,-0.8749874192286903,-0.9674465636604711,-0.9968271637037455,1.145619629170504,1.3954021991663494,0.768384736023202
9.483438491821289,-0.8716541250291719,-0.9707797771744885,-0.9934938303704122,1.1422870751748908,1.3920695997703472,0.771717669754914
9.503563404083252,-0.8749875011917556,-0.9741129798298217,-0.9901604970370789,1.1389545809794481,1.3887370835802428,0.7750505750587775
9.523630380630493,-0.8816541672708936,-0.9807795556016333,-0.9901603925157373,1.1322886418974925,1.3820710873001234,0.7817170773215139
9.543828010559082,-0.8883208399224087,-0.9874462126106549,-0.9901604281993394,1.1256219752308256,1.3754044266625702,0.788383690012612
9.563891172409058,-0.8927628456033196,-0.994112829727895,-0.9857703216148583,1.1189556906937694,1.3687381736398625,0.7950503680728845
9.584292650222778,-0.8937606768638288,-0.9974461202125702,-0.9848193020170779,1.1156226212765692,1.3654051298377472,0.7983835684391912
9.604407787322998,-0.8870939392598134,-1.0041128854360952,-0.9781525312424082,1.1089554532681565,1.3587378757153667,0.8050507473539358
9.624557256698608,-0.8937605276727617,-1.0107795822156118,-0.9714856752160069,1.1022887866014897,1.3520711523982916,0.8117178984951123
9.644632577896118,-0.9004270995411372,-1.0174462922849499,-0.9781520861648942,1.0956221199348228,1.3454044113908448,0.8183852042722852
9.664702653884888,-0.9070937050891673,-1.0241130175493263,-0.9714852988927186,1.0889552019535829,1.3387374325871904,0.8250523234130336
9.68481183052063,-0.9072404501578856,-1.02744628833193,-0.9699837225862105,1.085622267491497,1.3354045394441119,0.8283854486305722
9.704890251159668,-0.9040391606450546,-1.0341129666028148,-0.9652989705770197,1.078955525653704,1.3287377874409783,0.8350521550627291
9.724981546401978,-0.9040391350777424,-1.0407796100508104,-0.9586322081012093,1.0722891041468166,1.32207133689447,0.8417189733233579
9.745285034179688,-0.9107058327673244,-1.0474461962918724,-0.9586322081012093,1.0656229820931387,1.3154052383002754,0.8483853417479166
9.765303134918213,-0.9140391816497919,-1.0507794896605973,-0.9619655414345426,1.062289926874468,1.3120721829231825,0.8517185189461122
9.785382270812988,-0.9207058454254238,-1.0574461650812512,-0.955298874767876,1.05562321074457,1.3054054486721631,0.8583852080926079
9.805697202682495,-0.9178620891290821,-1.0641126854117604,-0.9510198294458068,1.0489575571043286,1.29873983373254,0.8650513104011781
9.825596570968628,-0.9111954190901221,-1.0707793617246992,-0.9443531627791402,1.042290832673534,1.292073092812682,0.8717180047667362
9.845696449279785,-0.9145287146541453,-1.0741127057165538,-0.9410197334405486,1.0389574993402007,1.2887397225675112,0.8750516685134272
9.86582326889038,-0.9211954237608858,-1.08077927028611,-0.9410197334405486,1.032291568835223,1.2820738013435138,0.8817179144287551
9.885889291763306,-0.9278620866657329,-1.0874459475559166,-0.9410197334405486,1.0256248349985944,1.2754070480005448,0.8883846145022176
9.906238794326782,-0.9311954419934133,-1.0907792281198716,-0.9376864001072153,1.0222918932087361,1.2720740976500007,0.891717718438199
9.926376104354858,-0.9265549587908007,-1.0974458219215053,-0.9320202914861943,1.0156257409542158,1.2654081568875046,0.8983845165650537
9.946435928344727,-0.9198883437119733,-1.1041124168264889,-0.9253537312434552,1.008959512653715,1.2587419527226784,0.9050505711362299
9.966774225234985,-0.9265550015080922,-1.1107790342174186,-0.9186869766137304,1.0022932824735833,1.2520756710881882,0.9117173269074573
9.986701488494873,-0.9332217268091467,-1.117445568785895,-0.925353643280397,0.9956276373795353,1.2454100070725207,0.9183833877564608
10.006826400756836,-0.9365550281351348,-1.120778976209984,-0.9220203099470637,0.992293735835144,1.2420761062918002,0.9217170555297451
10.027837991714478,-0.9398883901670373,-1.1241122445544782,-0.9186869766137304,0.9889609143733382,1.2387432644066754,0.9250500806367163
10.047980546951294,-0.9378718111064471,-1.1307788844598436,-0.9122021502845242,0.9822944415907143,1.2320769656426929,0.9317170702937778
10.068025588989258,-0.9312052378374018,-1.1374455017819605,-0.9055354814123626,0.9756283363585623,1.2254108591870119,0.9383831560601997
10.088136196136475,-0.9337872725815326,-1.1441121021967677,-0.8988687486929952,0.9689622425526887,1.2187447146622163,0.945049771179573
10.108257293701172,-0.9371205964828787,-1.1474454434334043,-0.9022020139168336,0.9656289092193554,1.2154113527486172,0.9483833582678668
10.128325462341309,-0.943787308288679,-1.1541120262742697,-0.9022020862965074,0.9589628701245584,1.2087453083189126,0.955049368000136
10.148400783538818,-0.9437873766574545,-1.1607785287075838,-0.8955354196298408,0.9522973679965376,1.202080171493461,0.9617154808167385
10.169132709503174,-0.9404540346753351,-1.1641118692111185,-0.8922020185195071,0.9489640346632043,1.1987468085067416,0.9650490816104823
10.189267873764038,-0.9337873526756234,-1.1707785501432297,-0.8855352135763735,0.9422973679965377,1.1920800801102882,0.9717163006707136
10.209344148635864,-0.9271206735656301,-1.1774452309656414,-0.8788684048803153,0.9356307013298711,1.1854133483190343,0.978383543812095
10.229408264160156,-0.9204539976945002,-1.184111911667331,-0.8722015922614568,0.9289640346632045,1.178746612915983,0.9850508120810952
10.249584674835205,-0.9171206610913779,-1.1874452519693022,-0.8688681844238233,0.9256307013298712,1.1754132437869158,0.9883844559877845
10.269636869430542,-0.9104539908048065,-1.1941119324678764,-0.8622013655690725,0.9189640346632046,1.1687465025158084,0.9950517640933858
10.289686679840088,-0.9064469473995891,-1.2007786073017104,-0.8555345758316097,0.912297367996538,1.1620797696277165,1.0017189947389828
10.30975866317749,-0.9041309656913364,-1.207445290047405,-0.8488677300544454,0.9056307013298714,1.1554130121329487,1.0083864220698198
10.330085039138794,-0.9025922727508666,-1.2107786297811984,-0.8455343160593908,0.9022973679965381,1.152079635987779,1.0117201108503564
10.350509643554688,-0.8959256287415541,-1.2174453140043977,-0.8388674486219769,0.8956307013298715,1.1454128644763704,1.0183876383697141
10.370393514633179,-0.8892589816857329,-1.224111993700418,-0.83220060796366,0.888964034663205,1.138746101582295,1.0250550847125368
10.390472650527954,-0.8825923414177724,-1.2307786731677166,-0.8255337616953827,0.8822973679965384,1.1320793328696976,1.0317225664127465
10.410819292068481,-0.8892590445664613,-1.2374453543250723,-0.8322002240978973,0.8756307013298718,1.1254125490133011,1.0383901654305228
10.430983304977417,-0.8925923597914408,-1.2407786802070122,-0.829902265461704,0.8722973679965385,1.1220792704664495,1.0417230529106398
10.451067924499512,-0.8992590287171265,-1.2474452975021308,-0.824500763039695,0.8656311296549483,1.1154130802881865,1.048389051100168
10.47120714187622,-0.905925744339724,-1.2541119787835742,-0.8178338792912551,0.8589644629882817,1.1087462857364792,1.0550567397848616
10.49135947227478,-0.909259105940313,-1.2574453193213322,-0.8145004346108234,0.8556311296549484,1.105412885462136,1.0583906019096996
10.511499404907227,-0.9025924973136429,-1.2641119986246172,-0.8078335768159662,0.8489644629882818,1.09874610299313,1.0650581711119806
10.531752824783325,-0.8959259057204376,-1.270778678827442,-0.8011666757764554,0.8422977963216152,1.0920792881653951,1.0717259759008324
10.551724195480347,-0.9024150975570596,-1.277445354234197,-0.7945000091097888,0.8356310568502244,1.0854124977025053,1.078392656053048
10.571834802627563,-0.9090817951019106,-1.2841119615556589,-0.8011666757764554,0.828965054729474,1.0787465027071894,1.0850589632274308
10.59191107749939,-0.9124151118822442,-1.2874453283671758,-0.7978333424431221,0.8256313491305344,1.075412790694415,1.0883924978204305
10.61226749420166,-0.9190818066137176,-1.294111938517688,-0.7911666757764555,0.818965323773052,1.068746771512416,1.0950588179137075
10.632174015045166,-0.9190818329577122,-1.3007785517739958,-0.7845000091097889,0.8122992734064085,1.0620807376218955,1.1017251609433358
10.652228832244873,-0.9124151952417108,-1.307445159956668,-0.7778333424431223,0.805633301240126,1.05541477624539,1.1083914630634488
10.672332286834717,-0.9090818766049545,-1.3107784635118829,-0.774500009109789,0.8023003277412133,1.0520818092860627,1.1117246098260125
10.692748546600342,-0.902415239763777,-1.3174450695023805,-0.7678333424431224,0.7956344075986903,1.045415904494349,1.118390894316718
10.712584018707275,-0.9090819127111357,-1.3241117256476693,-0.7739023827861481,0.7889678871364408,1.0387493489877275,1.1250574658299688
10.732695579528809,-0.915748576736644,-1.3307783981340826,-0.7672357161194815,0.7823011550729402,1.0320826108251906,1.131724164774624
10.752789974212646,-0.9190819497077979,-1.3341117339144892,-0.7705689895502896,0.7789678217396069,1.0287492330351529,1.1350578151848072
10.772858619689941,-0.9257485933370877,-1.3407783618516425,-0.7705690489508641,0.7723016121970927,1.02208307823698,1.14172393491432
10.792949438095093,-0.9324152915206882,-1.3474449517017766,-0.7639023822841975,0.7656359342131653,1.0154174317478881,1.1483901082452086
10.813010454177856,-0.9324153237415169,-1.3541115378787727,-0.7572357156175309,0.7589703256777266,1.008751873050369,1.1550562639219366
10.833137273788452,-0.9290820060561106,-1.3574448318574857,-0.7539023822841976,0.7556375222484748,1.005419087200558,1.1583893399995007
10.853274583816528,-0.9224153707361177,-1.3641114183799876,-0.747235715617531,0.7489719564008275,0.9987535585563679,1.1650554789647247
10.873364210128784,-0.9157487354196291,-1.3707780029209609,-0.7405690489508644,0.7423064487113421,0.9920880902096628,1.171721599210196
10.893431186676025,-0.9224154449330536,-1.3774446985749977,-0.7339023231465268,0.7356393858581768,0.9854209512574648,1.1783887802869617
10.913479566574097,-0.9257488339902468,-1.3807780330280255,-0.7305689292413962,0.7323060525248435,0.9820875655518534,1.1817224613770168
10.933622360229492,-0.9257489673672,-1.3874447018768277,-0.7239021240001521,0.7256393858581769,0.9754207768428171,1.188389928164722
10.953656673431396,-0.9190824299667097,-1.394111369783304,-0.7172353280165578,0.7189727191915103,0.9687539925179176,1.1950573545201821
10.973937273025513,-0.9124159050619146,-1.40077803704122,-0.7105685256597863,0.7123060525248437,0.9620871987995958,1.2017248289894606
10.994061708450317,-0.9090826475572433,-1.404111370398834,-0.7072351219850369,0.7089727191915104,0.9587537981816192,1.2050585853641949
11.01415228843689,-0.9157493869561509,-1.4107780743348481,-0.7005683802744728,0.7023054263331237,0.9520864099232054,1.2117259740911253
11.034223318099976,-0.922416233290757,-1.417444739540138,-0.6939015579706852,0.695638759666457,0.9454195868131274,1.218393600005689
11.054622650146484,-0.9157497947127642,-1.4241114034675038,-0.6872347010162924,0.6889720929997905,0.9387527240675134,1.2250614533944888
11.07485842704773,-0.9190830391294323,-1.427444738122074,-0.6839014396273061,0.6856387596664572,0.9354194662976945,1.2283943340382828
11.09486722946167,-0.9257499256775189,-1.4341114005489024,-0.6772345979611227,0.6789720929997906,0.9287526109887847,1.2350621204377126
11.114935159683228,-0.932416829696016,-1.4407780616390589,-0.6705677479904533,0.672305426333124,0.9220857412393039,1.241729978451464
11.135318994522095,-0.9324169594849201,-1.447444702802389,-0.6639009865030165,0.6656392081473167,0.9154194039920248,1.2483970853461903
11.15543246269226,-0.9290837591901839,-1.4507780320607082,-0.6605675551974243,0.6623058748139834,0.9120859568918794,1.251731073679533
11.175536632537842,-0.93535829846082,-1.4545703110001202,-0.6539007741695774,0.6556388304541718,0.9054187903833714,1.258398670576301
11.195684909820557,-0.9420251935184835,-1.4612369697274972,-0.6605672784528652,0.6489721637875052,0.8987519288014131,1.2650664516785244
11.21569275856018,-0.948691936835146,-1.4545703004111794,-0.6539005592181858,0.6423054971208386,0.8920851975462131,1.271733486765328
11.23577880859375,-0.9520253751763851,-1.4579036301933788,-0.657233820560595,0.6389721637875053,0.888751776210203,1.2750673227805045
11.255865573883057,-0.9586921079034707,-1.4579036278323683,-0.6572337752093929,0.6323054971208387,0.8820850535425975,1.281734307049768
11.275949954986572,-0.9653588957510514,-1.4579036053461232,-0.6572336952208692,0.6256392417384535,0.875418677740289,1.2884013755899157
11.296345233917236,-0.968692229841778,-1.4612369201058928,-0.6605670285542025,0.6223063212892154,0.8720857348105329,1.2917345403082
11.316440343856812,-0.9753587865129784,-1.4545702365704725,-0.6539004369145569,0.6156401016402239,0.8654195806857232,1.2984004871308292
11.336578607559204,-0.982025585925394,-1.4612368795087496,-0.6605670176989615,0.6089738825693447,0.87044806920856,1.3050675953979258
11.356614589691162,-0.98869213880549,-1.4545701953613766,-0.6539004273710268,0.6023076837886122,0.8637819307923333,1.3117335170603366
11.376757860183716,-0.9920256125038712,-1.4579035247039427,-0.657233671102303,0.5989743504552789,0.8671151506757707,1.3150675097232782
11.396905660629272,-0.9986921598236603,-1.457903508175923,-0.6572337500677135,0.5923081338572111,0.8671156631458553,1.3217334129726768
11.416937112808228,-1.0053589597427608,-1.4579034836144042,-0.6562394008830674,0.5856419542499796,0.8619428139925921,1.3284005020443481
11.43714427947998,-1.0086923980032638,-1.46123681359449,-0.6583445009777139,0.5823086209166463,0.8602868658623108,1.3317343668989852
11.457221984863281,-1.0153589486777104,-1.4545701278171541,-0.6516779082284377,0.575642478224019,0.8536207665670195,1.3384002662719099
11.47730565071106,-1.0220256141630932,-1.4612367424889756,-0.6505856456344788,0.5689770784125807,0.8602885678080815,1.3450664174205444
11.497382164001465,-1.0286922806487648,-1.4545700760871472,-0.6439189789678122,0.5623104156260132,0.8536219010059253,1.3517330841396866
11.517499685287476,-1.0320257986220205,-1.4579034039961505,-0.6472522035211236,0.55897708229268,0.856955086179352,1.3550672573683353
11.537616729736328,-1.0386923077567736,-1.4579033870610043,-0.6472522993138011,0.5523109479104742,0.8569556768913121,1.3617329700231693
11.55767273902893,-1.0453591669899613,-1.4579033589317216,-0.6472029471649258,0.5456448591056453,0.8569560212293161,1.3684002743234263
11.578342914581299,-1.0486923432847135,-1.4612366959639889,-0.6501587331390117,0.542311525772312,0.8602894765163549,1.3717329110824883
11.598340511322021,-1.0553588525196078,-1.4545700101254406,-0.64349216086303,0.535645459758079,0.8536234469067491,1.378398597534221
11.618375778198242,-1.0620255187789267,-1.461236641384685,-0.6501089887258541,0.5289797231133991,0.8602908972237147,1.3850648831253811
11.638477325439453,-1.0686920123317132,-1.4545699552718063,-0.6434424245206122,0.5223136797320294,0.8536248907085726,1.3917304884407857
11.658543348312378,-1.075358678661012,-1.4612365846058415,-0.6500713785750512,0.5156480101947643,0.8602923840001724,1.3983967447713836
11.67870283126831,-1.0786918300820896,-1.457903255480046,-0.6467381515830072,0.512314676861431,0.8569591974275642,1.4017292353532023
11.6987624168396,-1.08535849645021,-1.4579032127221874,-0.6467381515830072,0.5056491654808373,0.8569601442825128,1.4083954251170496
11.719025611877441,-1.0920249712635945,-1.4579031941571179,-0.6467382622657878,0.49898311437942394,0.8569607999242935,1.4150609500286933
11.738956451416016,-1.098691726613391,-1.4579031728741276,-0.6467382121194236,0.4923169820310624,0.8569611586471857,1.4217278009590704
11.759045600891113,-1.1020250599506984,-1.4612364830062825,-0.6500715454527569,0.48898428598934324,0.8602950027404788,1.4250608681870047
11.77948784828186,-1.108691818843721,-1.454569831471496,-0.6434048273252907,0.4823171533288119,0.8536278888090801,1.431728150018063
