liuyurong129/humanoid-gym/humanoid/data/robot1_actual_20250621-220425.csv
timestamp,joint_1,joint_2,joint_3,joint_4,joint_5,joint_6
0.00014829635620117188,0.0,0.0,0.0,0.0,0.0,0.0
0.020251750946044922,0.0,0.0,0.0,0.0,0.0,0.0
0.040302276611328125,0.0,0.0,0.0,0.0,0.0,0.0
0.060805320739746094,0.0,0.0,0.0,0.0,0.0,0.0
0.08061623573303223,0.0,0.0,0.0,0.0,0.0,0.0
0.10068678855895996,0.003333265906387002,-0.0033333338916467113,0.003333341202634347,0.0033333333333333335,0.0033333356095870525,0.0033331220332744756
0.12143659591674805,0.0066665990695810775,-0.006666667226580035,0.006666675417978,0.006666666666666667,0.006666668900251728,0.006666458497888682
0.14151954650878906,0.013333265726479847,-0.01333332936534811,0.013333343022025509,0.01333333938061716,0.013333333721195242,0.013333132737598887
0.16162443161010742,0.019999932494235116,-0.019999991287585006,0.02000001069483049,0.020000017934093596,0.020000000690062268,0.019999811510239947
0.18185186386108398,0.023333265802361357,-0.02333331965209496,0.023333344028163824,0.023333369098975522,0.023333336784020504,0.023333140876545002
0.2018413543701172,0.029999932650366073,-0.0299999810802963,0.0300000117830829,0.030000059624950563,0.030000008223638755,0.02999982261057499
0.22191882133483887,0.03666659960561639,-0.03666664222649577,0.036666679633160046,0.03666675623283885,0.03666668185972556,0.036666508629287976
0.24196386337280273,0.04333326666468274,-0.04333330307445193,0.04333334759079912,0.04333345893999662,0.04333335764845709,0.04333319880946057
0.2620716094970703,0.04666660066269706,-0.046666636341789844,0.04666668233403653,0.046666792273329954,0.046666690459903785,0.046666570660631866
0.2821791172027588,0.05333326795538648,-0.05333329685826554,0.053333350539406174,0.053333501051104064,0.05333336822725121,0.053333270750478695
0.30230116844177246,0.05999993532764506,-0.05999995705796215,0.060000018881389,0.060000215814323535,0.060000047920890864,0.059999974498560836
0.32257509231567383,0.0666666027619611,-0.06666661694396711,0.0666666873651066,0.06666693640949818,0.06666672934082625,0.06666668157504635
0.3426320552825928,0.06999993576853798,-0.06999994336029773,0.07000002069843993,0.07000032926841436,0.07000007975954767,0.06999999716343099
0.36301159858703613,0.07666660318579999,-0.07666660269255662,0.07666668932558543,0.07666706072717329,0.07666676381372028,0.0766667047550903
0.38287901878356934,0.08333331246410315,-0.08333326446081016,0.08060882253855245,0.08333372739383994,0.0833334151955665,0.08333441689851956
0.40294384956359863,0.0899999879229835,-0.08999992129201334,0.07782338607122563,0.09000048498868775,0.090000110841603,0.09000124141733824
0.42308592796325684,0.0933333208815272,-0.09333324911807381,0.0744900527378923,0.09333387381651595,0.09333344707868386,0.09333455521083411
0.4431891441345215,0.09999998716587825,-0.09999991086649646,0.06782338759183262,0.10000059266639066,0.10000011081191433,0.10000125595411556
0.46327638626098633,0.10666665308994323,-0.10666657337376989,0.06115672223770723,0.10666730713603444,0.10666676848501665,0.10666795419517668
0.48346996307373047,0.11333334390992299,-0.1133332900608206,0.054490023173539195,0.11333440394190651,0.11333432878369828,0.11333433524308127
0.503450870513916,0.12000002526400379,-0.12000001271849793,0.04782331797987033,0.12000143418809582,0.12000133956611961,0.12000078600166457
0.5235698223114014,0.12333886192669656,-0.12318516707168835,0.04456442639572984,0.12261025783306546,0.1230324076049826,0.12402208614003385
0.5436291694641113,0.13010069875218894,-0.12878215382500846,0.03816213412565367,0.126096487234769,0.12712941214560936,0.13375818453288968
0.5647385120391846,0.13680474379098434,-0.13420079779617067,0.03207475586335261,0.12734085126391279,0.13184702899014134,0.14557205048737082
0.5848679542541504,0.14014829477680713,-0.13676674189516044,0.029090607496306264,0.1276196144881721,0.13439379894488795,0.14842619339966356
0.6053369045257568,0.14682096773434375,-0.14186349974580184,0.023040165076121038,0.12906375034711173,0.14065525416277008,0.1471827078107881
0.6251304149627686,0.15346448421850387,-0.14681733371227906,0.016946292418819033,0.13101180610914426,0.14915432197176912,0.13205603890666057
0.6452052593231201,0.15032894516789552,-0.14900027054098924,0.01397302338228731,0.1315557312978295,0.15463126165789248,0.11303187274284374
0.6653332710266113,0.14603518346312805,-0.15331183806188695,0.008015399484416205,0.13309688670166708,0.16640949576873018,0.07560883814139197
0.6853911876678467,0.14130548493754325,-0.157577668679163,0.002022698890142084,0.13532578391518454,0.17963674100832927,0.036709327157702344
0.7060391902923584,0.13789407572907264,-0.15968508559810124,-0.0009856190589244826,0.13655533284480986,0.18696550827264877,0.01548081143680784
0.7261574268341064,0.13104915077517382,-0.16389037289140396,-0.007037017249159697,0.1396494560153432,0.2020985821497521,-0.027176797073362183
0.7462453842163086,0.12436321514151703,-0.1684690273994724,-0.0015286148762499161,0.1411821871985233,0.22479002709606347,-0.05008823027517796
0.7667627334594727,0.11758215009255935,-0.1732967920803669,-0.008256845092821413,0.14558438902972098,0.2401889252238715,-0.0680772972901522
0.7868611812591553,0.1208048216449625,-0.1756049002602218,-0.011390803187764729,0.14826247814658033,0.24792456510761557,-0.08188115680905585
0.806962251663208,0.12054286827209389,-0.1801433839073313,-0.017684068891132262,0.15344415420901858,0.26573760498125754,-0.11432401595752074
0.8273649215698242,0.11704896782274618,-0.18233365997096593,-0.02084484094995195,0.15610048112290295,0.2759472068675122,-0.13500742113875902
0.8475081920623779,0.11026487403926047,-0.18733246913053578,-0.01607320036390431,0.15389088643951349,0.3050947296044197,-0.14473419368769413
0.8678317070007324,0.10342996434698792,-0.1926526079605963,-0.02309534558190613,0.15749372018007718,0.32292581779896457,-0.14415952363159573
0.88775634765625,0.09664792232823845,-0.19820389462057839,-0.018056459212178293,0.15507770183362227,0.34778736747045114,-0.1414396042154961
0.9078619480133057,0.0931687829715713,-0.20073709689874802,-0.021291296328988105,0.1581696452939676,0.35708198549849524,-0.1382001227387294
0.9279499053955078,0.08635676946617782,-0.20652162979733826,-0.022354980537191295,0.1559778605566367,0.38019778515402775,-0.1251472922830594
0.9480359554290771,0.0794687772720764,-0.21221929972183484,-0.02323981588858182,0.15324790476141817,0.4064097853008584,-0.11181834255776542
0.9681847095489502,0.07595265613799217,-0.21481915465109297,-0.02653214171549561,0.1559897753097352,0.41791242062196055,-0.10847552680728334
0.9886224269866943,0.0688802864038712,-0.22007182402202508,-0.02072604875027294,0.1536131492867064,0.4480134519925306,-0.09580214758908058
1.0084373950958252,0.06177534998665442,-0.22532915946002716,-0.02776900695945884,0.15704514635635444,0.4726839315438069,-0.08765840595084634
1.0288429260253906,0.05818726820900729,-0.22796459551386325,-0.024895090042130422,0.15599133562652245,0.48768828529678065,-0.08152189818694175
1.0487287044525146,0.05100497253415943,-0.23339859887882938,-0.019219833962065568,0.15269767791413683,0.5176542255024882,-0.06833362492926945
1.0688080787658691,0.043801350633202764,-0.2390599658316232,-0.013875742040032425,0.1461197255506774,0.5399019684102943,-0.05249046152099718
1.0893638134002686,0.040167142904459045,-0.24188390449079472,-0.011325281494354827,0.1420570344946418,0.5473350945033122,-0.04394466635122665
1.1095147132873535,0.03283895026075298,-0.24745260163780816,-0.0061398921050087474,0.1346280986211388,0.5632907084989865,-0.02750192805793047
1.1296000480651855,0.02543236119731333,-0.2529356586124983,-0.0008411612435795762,0.1279341748688713,0.581032269922498,-0.011797685412384186
1.149899959564209,0.0179479193253462,-0.25834787299596584,0.004567755717033661,0.1219344412702054,0.6007262237603049,0.0031840752107459725
1.1698169708251953,0.014171585190353076,-0.26101936106249674,0.00730386388479491,0.11930416841345191,0.6111471937175963,0.010321942156793107
1.1899073123931885,0.0065112429537220575,-0.26622395950553723,0.0127804596769218,0.11503372772957599,0.6330316496560598,0.023687083129073014
1.209984302520752,-0.0012818514075118776,-0.2712763351560641,0.018301222805695367,0.11211758963850896,0.6568677917964979,0.035782117568395916
1.2300682067871094,-0.005114389761781033,-0.27421956100496414,0.020717784279963965,0.10382361642110781,0.6670286413969361,0.047271847644761666
1.2501907348632812,-0.012829481273429047,-0.2801970071218144,0.02554471480925147,0.0854116907883962,0.688646471661702,0.07150916931146749
1.2702600955963135,-0.02055647135762593,-0.2864019447585696,0.030403043266892957,0.06404228553489982,0.7129288039340436,0.08442968328971856
1.2906997203826904,-0.028483602732687876,-0.2918874688290469,0.03593666832780694,0.056251509338897276,0.7434237756418213,0.08634232274179937
1.3108010292053223,-0.03248175970861252,-0.29465447485051566,0.03870541425696266,0.05187752664048347,0.7599725236335929,0.08751308796142597
1.3308815956115723,-0.04049489235857234,-0.30052867813033957,0.04388709144118762,0.03788566375516915,0.7932566195497888,0.09356493100367191
1.3509705066680908,-0.04448294021005556,-0.303540177772136,0.046551681313401275,0.03105189245139347,0.8098285251230117,0.09637812962349454
1.3710603713989258,-0.05248591792894048,-0.3096681553398221,0.05194992136955536,0.016685429946337132,0.8449404309777446,0.10216458674464693
1.3912932872772217,-0.06054157046751706,-0.31593450288701214,0.0574236139380396,0.0009823419364785504,0.8834686324152798,0.10832521618315095
1.4113121032714844,-0.06858326701105143,-0.32235901606846235,0.0630309879351599,-0.015080333871058494,0.9241974009509291,0.11415043995723193
1.4313793182373047,-0.07253524358830174,-0.3256323766330914,0.06592802606985664,-0.02216308439314364,0.9433483721053415,0.11631791772808193
1.4514477252960205,-0.08038531070613195,-0.3322062004404396,0.07187341332237025,-0.03435478856370099,0.9819774487317519,0.11901195805414796
1.4715540409088135,-0.08807172665278377,-0.33913291705437376,0.07780870904718627,-0.05022572742965519,1.0184650615046458,0.12365533260851778
1.4917657375335693,-0.09184377015310843,-0.342643013322915,0.08082676843825026,-0.05758764714643605,1.035401131101282,0.1255037309141696
1.5119221210479736,-0.09928733057846834,-0.3496987634308523,0.08695693297759892,-0.07071367896921499,1.0682618463944504,0.12794984898204395
1.531968593597412,-0.10671479283965683,-0.35680756196490865,0.09307379316658934,-0.08471721794441169,1.096328941904914,0.1306531575881158
1.5520572662353516,-0.11405937282963033,-0.3639002833782442,0.09928893808587513,-0.09649148146015354,1.1221584055392702,0.13186174025564662
1.5721511840820312,-0.11769980919872444,-0.3674394500044877,0.10242722166440936,-0.10157990159991796,1.1341229696936797,0.13196519195880363
1.5922107696533203,-0.12487115979376925,-0.37424291384648223,0.10893369349025392,-0.10310398300651648,1.1541120488077472,0.12780833022570928
1.6123576164245605,-0.13200182202892802,-0.38095043287115404,0.11552445899870978,-0.10130859410883752,1.1727895170191542,0.12195499628310433
1.6329467296600342,-0.1355467868812674,-0.3843057635332406,0.1188247021251771,-0.10012823980374101,1.1813558175027552,0.118906482599116
1.6527979373931885,-0.1426216198980722,-0.39101334329965337,0.1254408876112753,-0.09721342501592584,1.1994128960008557,0.1124294461808508
1.672882318496704,-0.1494931386870796,-0.38433365259720537,0.13209739682072358,-0.10463699311046562,1.2043804119189454,0.11870031887991125
1.6933770179748535,-0.15626022578371482,-0.3774364953275588,0.12557533592144296,-0.10515430432884158,1.207807596015014,0.12192287577745639
1.713547706604004,-0.15636018863036405,-0.3740984062473528,0.1222448037752897,-0.10836949844620829,1.2046605231698984,0.12519080506687127
1.7335805892944336,-0.15478885475090487,-0.36743171137960007,0.11610121699909398,-0.11503537085317697,1.1979949537260663,0.1318568147558944
1.7536966800689697,-0.15662921403509722,-0.3607650484548548,0.11522695868273927,-0.12170205872788828,1.1913283240404193,0.1385234981995729
1.773979902267456,-0.15996254536320564,-0.3574317281720729,0.11671641183033696,-0.12503546034590873,1.1879960956726323,0.14185676429782199
1.7941303253173828,-0.1666292181734389,-0.35076501637170787,0.11004976699625381,-0.1317007592700445,1.1813316368264097,0.14852252886768513
1.8141884803771973,-0.17329589391007963,-0.3440983016125658,0.10338312394811848,-0.13836602095776795,1.1746671569178793,0.15518827544356859
1.8343040943145752,-0.16677909151004242,-0.33743164303660256,0.11004971409376121,-0.1450327041093406,1.168000484800326,0.1618545073108511
1.8545053005218506,-0.17011242494629764,-0.3340982965771294,0.10671638076042789,-0.14836578484558488,1.1646671122628633,0.16518768962734312
1.8748161792755127,-0.1767790914545922,-0.3274316460152252,0.1067163807604279,-0.15503276462636476,1.1580004953117615,0.17185454474676656
1.894751787185669,-0.18344575825013631,-0.32076496590544784,0.1067163807604279,-0.1616991741599189,1.1513337868757991,0.1785210555688307
1.9148917198181152,-0.18677905185121116,-0.317431711474206,0.10338300689521884,-0.1650338200702434,1.1479999235493503,0.1818550686942965
1.9350507259368896,-0.19344573274271648,-0.3107650487762369,0.11004970295036583,-0.1717001918441226,1.141332489180152,0.1885217120418967
1.955111026763916,-0.20011239185247895,-0.3040983694965189,0.10338303980864871,-0.17836595934732316,1.1346676332028922,0.19518770943354688
1.9751968383789062,-0.20677905832545523,-0.29743171930618,0.11004970647531537,-0.18503294264671336,1.128001021459723,0.20185457178572308
1.9953358173370361,-0.2134457152089261,-0.2907650470740603,0.1033830399325089,-0.19169879972666998,1.1213361585916182,0.20852061428277066
2.0153849124908447,-0.21677904836230447,-0.28743172956274166,0.10671637326584224,-0.1950324354555135,1.1180028802110549,0.21185413675361378
2.035487174987793,-0.22344571516450165,-0.2807650489267311,0.10671637326584224,-0.20169883943797381,1.111336164538605,0.21852063816564918
2.055593490600586,-0.23011237416190408,-0.2740984046449146,0.10671636872770734,-0.2083655714115128,1.104670359726772,0.22518727973554264
2.0756568908691406,-0.23677904505417507,-0.2674317145924117,0.10671637989812861,-0.21503154230146418,1.0980046066184421,0.23185347630562883
2.0957515239715576,-0.24011232376743433,-0.2640983919357753,0.1033829829459273,-0.21836497805565347,1.0946715793773205,0.2351866308228394
2.1158676147460938,-0.24677899029566278,-0.2574317422099373,0.11004964961259395,-0.22503196451598775,1.0880049768371116,0.24185350208626008
2.1359338760375977,-0.2534456570472268,-0.2507650612267128,0.1033829829459273,-0.2316983650882257,1.081338255420991,0.24851999769883512
2.1560723781585693,-0.2601123202907153,-0.24409840145104958,0.11004956983053744,-0.23836504677497242,1.0746715756495797,0.2551861248891215
2.1772890090942383,-0.26344564672087906,-0.2407650829530131,0.10671623276322381,-0.2416983186322157,1.071338945776305,0.2585193885325011
2.1973938941955566,-0.2667789837501512,-0.23743172007188637,0.1033829143972847,-0.245030753086414,1.0680067569105771,0.2618521082507847
2.2178354263305664,-0.2734456323430036,-0.23991815823005913,0.11004957577509321,-0.2516972418975541,1.0613394102810532,0.2685187394948068
2.2376065254211426,-0.27677896552232656,-0.23992487735909235,0.1133829050976638,-0.25503057523088746,1.0580060760250947,0.2718520444696505
2.2579421997070312,-0.28344568337689907,-0.24326428296119482,0.12004962631078268,-0.26169719636739625,1.0513390241306062,0.2718522399178926
2.2778115272521973,-0.29011247677995183,-0.24993101331694612,0.12671635057729516,-0.26715699570562845,1.0446713279571735,0.271852336764471
2.2987043857574463,-0.2934458118879709,-0.253264346862928,0.13004968453917734,-0.26907067570687127,1.04133828203212,0.2751856288968383
2.318831443786621,-0.30011248148045233,-0.2599310156966623,0.1367163456876811,-0.26240400674128295,1.0346715986001254,0.28185224430763983
2.3389227390289307,-0.3067791271128767,-0.2665976740269729,0.14338301544659826,-0.25573723968692835,1.0280053309358326,0.28851891490521825
2.359076976776123,-0.3001124605401927,-0.2732643441089182,0.15004968082684833,-0.24907062999501298,1.021338678216336,0.29518561011999794
2.3791260719299316,-0.29677912728291506,-0.2765976808098417,0.15338301416018166,-0.2457373545655381,1.0180053593035896,0.2985189823647408
2.3995134830474854,-0.29011246069607727,-0.2832643513190672,0.1600496808268483,-0.2390707540221919,1.0180053742590476,0.30518569388174105
2.419377088546753,-0.29011246097951415,-0.28993102769831275,0.16671634749351497,-0.23240425168029535,1.0246720829477822,0.31185247066285193
2.43943190574646,-0.2967791317150694,-0.29659769241555795,0.1667164469382522,-0.22573764773210855,1.03133878125852,0.3185199005205296
2.4595320224761963,-0.30011246514396284,-0.2999310296738926,0.16338311360491886,-0.22240438077050642,1.034672130075842,0.3218532781862045
2.4796335697174072,-0.3067791324414886,-0.306597723337014,0.17004978027158552,-0.21573817336659815,1.0413389029866944,0.32852025070198426
2.499702215194702,-0.31344579928213645,-0.31326439767216013,0.17671644693825217,-0.20907163586237537,1.0480055986495762,0.33518700294609655
2.5197906494140625,-0.31677914100666577,-0.31659768519658466,0.17338313382679008,-0.20573733644575676,1.0513397221761875,0.3385196952677371
2.5402204990386963,-0.3236642140431182,-0.32304214027907296,0.1734552302481626,-0.19794165171424244,1.061336997100772,0.34436344788980633
2.560044765472412,-0.3308678842436326,-0.32917139013479985,0.18029447283817082,-0.18842621666683873,1.0693474420408795,0.34898724224301875
2.5806148052215576,-0.3345209919932394,-0.33218465756897486,0.183728450796484,-0.18334166603551824,1.0705893369002435,0.35108553924166824
2.600738048553467,-0.3421615684383542,-0.33789206498568125,0.17735235604098706,-0.17150297578314416,1.0772584076039695,0.354114157189366
2.6208202838897705,-0.34963716122659133,-0.34380842418593777,0.18423096550149856,-0.16117238424116195,1.081255915894814,0.3581370610209201
2.6409146785736084,-0.357175589054214,-0.34965800849894707,0.19112105278092972,-0.15027287401564923,1.0852069380853209,0.36185184307651813
2.6610443592071533,-0.3610270170084414,-0.35250152280168057,0.1945849901767777,-0.1442849703517171,1.087802081265648,0.3633785731485404
2.681093215942383,-0.36879391278446505,-0.35812094269574735,0.20152584343805502,-0.13156370570885778,1.093397354897883,0.36600611328769245
2.701139450073242,-0.37667819655086704,-0.3636185182492844,0.2067958569257428,-0.11752337071720069,1.099957704322297,0.3678774745086485
2.7215592861175537,-0.38067127674040185,-0.36632000692604866,0.20841154457129496,-0.10999119597305326,1.1037471996679564,0.36851874005277596
2.742064952850342,-0.3886344952551831,-0.3717537506203968,0.21537279945055207,-0.094845274715221,1.1107852646038017,0.3698117942068466
2.761960029602051,-0.3966516149364246,-0.37712334347622606,0.22233906235609618,-0.07847331354246574,1.1181422660962335,0.35714423675425816
2.7819080352783203,-0.4047126048160448,-0.3824353560134613,0.2293073943788043,-0.06080895847190539,1.1257493882529803,0.3438370091737152
2.8020381927490234,-0.4087559907415268,-0.3850721531817655,0.23279136976667192,-0.051476806496506655,1.129623958244551,0.3369430781811864
2.8220877647399902,-0.416847956807914,-0.3903255745684808,0.23975419132263284,-0.0319140706602533,1.1373406477232815,0.32275025364169657
2.842317581176758,-0.4248905486472851,-0.39561460519113095,0.24669548879180622,-0.011589744834619232,1.1455967311328434,0.30821037426828085
2.8623952865600586,-0.4289006324366316,-0.3982578688616515,0.2501631840332793,-0.0009838491558366962,1.149711508578498,0.30075164543171445
2.8824751377105713,-0.42363793659824406,-0.4034625232952686,0.25710893990383976,0.02210333313169839,1.1592185967776427,0.2848991643080659
2.9025678634643555,-0.4182656372484117,-0.4087393213470852,0.26403546242804876,0.04594008285500689,1.1696912063096976,0.26876000317098536
2.922678232192993,-0.4155222491861057,-0.40476788847735734,0.2608270259518842,0.05739651586752934,1.1749180477250762,0.2609737459088718
2.942758560180664,-0.4095230257794257,-0.39739527204754765,0.2542937529835901,0.07306572962390356,1.178838940551634,0.24934347636498674
2.96287202835083,-0.4030406247637347,-0.3905398842242993,0.24766221301528632,0.07541123326880154,1.1753902332700361,0.2413569613852543
2.982954740524292,-0.39978556793449527,-0.3871190988739265,0.24434287032107627,0.07333181712108952,1.1735672460995081,0.23733002933588676
3.0031611919403076,-0.3932184491838159,-0.3803408505029078,0.23769430627980032,0.0682717467199695,1.1688774729518578,0.22976832648303294
3.0231773853302,-0.3865801593675723,-0.3736429246786372,0.23103268621981918,0.06205451910761696,1.1627911514117928,0.2361815860933677
3.043259382247925,-0.3799134927345454,-0.3669762635336292,0.2243660136892787,0.05538777514932695,1.1561244880926578,0.24284826602127174
3.0633933544158936,-0.3765801598294415,-0.3636429347659352,0.22103268035594537,0.05205436500806912,1.1527911569709886,0.24618164661087616
3.083735704421997,-0.3699134931653248,-0.3569762735075238,0.21436600753059348,0.045387622506253424,1.146124493716512,0.2528483234556518
3.103666305541992,-0.36324682570510686,-0.35030961437716673,0.20769932066968255,0.03872088048393798,1.1394578330922813,0.2595149131553185
3.123694896697998,-0.35658015680294164,-0.34364295389451244,0.20103261411570209,0.03205421381727131,1.1327911738197232,0.26618133220078166
3.1438231468200684,-0.35324682240435173,-0.34030962361170175,0.19769926108753413,0.028720880483937977,1.1294578440843517,0.26951454173523304
3.163909673690796,-0.34658015141886506,-0.33364297016475963,0.19103250935732566,0.02205421381727131,1.1227911926514553,0.2761806657549982
3.1840708255767822,-0.3399134784513208,-0.32697632362558793,0.18436571309069918,0.015387547150604641,1.116124548681822,0.2828464939406625
3.204113721847534,-0.333246827585045,-0.3203096090773838,0.17769899981343673,0.008721980430204786,1.1094586443751617,0.2895120610825598
3.2242536544799805,-0.32991351951900677,-0.31697621597506265,0.17436568067532646,0.005389666690779598,1.106126066690635,0.29284474485045175
3.2443082332611084,-0.323246898702501,-0.310309449466142,0.16769903592580354,-0.0012753723226913505,1.0994606403305596,0.2995103586975668
3.264397382736206,-0.3165802769599829,-0.30364268711554315,0.16103239015158133,-0.007940506603595788,1.0927951513406176,0.306176023558006
3.285292148590088,-0.3132469802820447,-0.30030927696545673,0.15769907355102622,-0.011272626360976883,1.0894627594489448,0.3095085570193538
3.305643320083618,-0.3065803849393284,-0.2936424627359545,0.1510324389381168,-0.01793699227689971,1.082797893302996,0.31617369504612186
3.3254973888397217,-0.300815085552887,-0.286975685154806,0.14436579794601248,-0.024601908763928662,1.0761325655802574,0.3228391960690858
3.345708131790161,-0.30748178939867865,-0.2803088993239838,0.1376991717901342,-0.03126624092337231,1.0694677113023452,0.329504333977398
3.365736246109009,-0.31081514294379314,-0.2769755083770496,0.13436585696440315,-0.03459851620795863,1.0661351484609782,0.3328369720757692
3.385780096054077,-0.31748184811285585,-0.27030873509597103,0.12769922422735108,-0.0412632736506958,1.0594698240760216,0.33950237974832187
3.40618634223938,-0.3241485285093392,-0.26364203397409297,0.12769914509044547,-0.04792909795829177,1.0528037383858884,0.34616778130060927
3.4260520935058594,-0.33081519613467275,-0.2569753634322725,0.12769917334956715,-0.05459576462495844,1.0461370689430531,0.35283466289625287
3.446122884750366,-0.33414852766240466,-0.25364203812512554,0.12436578487325438,-0.05792909795829177,1.0428037407884456,0.3561675762474286
3.466237783432007,-0.34081519030813484,-0.25362456562480823,0.1310323331762705,-0.06459576462495843,1.0361370843790643,0.349500000462975
3.486368179321289,-0.34748186194484215,-0.24695783446020522,0.12800324712111952,-0.07126096624054956,1.0294712880483838,0.34283234286544195
3.5064451694488525,-0.3541482621063618,-0.25360894947425,0.13468190130565336,-0.07751373947909407,1.0230047321908087,0.33591084991117287
3.5264763832092285,-0.3572579116255757,-0.2569422704344579,0.13801524067704118,-0.08084702949118197,1.019671584108019,0.3325775710373724
3.5466017723083496,-0.36338987064351025,-0.26360889414494276,0.14468190850159363,-0.08084683682143491,1.0130056569430592,0.3259109548509361
3.566662549972534,-0.36338986904111487,-0.2702755684655122,0.15134851715252823,-0.07418017015476826,1.006338993546139,0.3259104930989413
3.587003231048584,-0.3567232051417587,-0.2769422524833326,0.15801507689746,-0.0675135034881016,1.0063390011751776,0.33257628861442146
3.6070752143859863,-0.35338987017465956,-0.2802755936215287,0.16134835189305666,-0.06418017015476828,1.009672339149321,0.33590915440793756
3.6271579265594482,-0.34672320146476115,-0.2869422306436912,0.16537232496192672,-0.05751289600664604,1.0163389538618024,0.342575226353788
3.647268533706665,-0.34005653530312113,-0.2936088958559386,0.15870567130121768,-0.05084622933997937,1.0230056193383037,0.34924199621521684
3.667343854904175,-0.34672320086206515,-0.3002755936302785,0.16537227759994258,-0.04417998805775488,1.029672326485678,0.35590848636317823
3.6874325275421143,-0.3500565319503196,-0.30360893545604467,0.16870554998224918,-0.04084665472442155,1.0330056662107985,0.35924135064266355
3.707707405090332,-0.35672320032918214,-0.31027559703761365,0.16870558743098824,-0.03417998805775488,1.0396723283204863,0.3659082974750835
3.7276556491851807,-0.3633898656821549,-0.31694229554303643,0.1687055220107938,-0.02751373934209217,1.0463390313720802,0.37257475186838973
3.7477166652679443,-0.37005652658606136,-0.32360898017695267,0.1753720635184477,-0.0208470726754255,1.053005713071917,0.37924048607226646
3.7678098678588867,-0.3733898569938632,-0.32694232266341683,0.17870533339583536,-0.017513739342092167,1.0563390544105604,0.3825733518018342
3.7880208492279053,-0.38005651872379764,-0.33360897771140774,0.17203859976654343,-0.010846685717969382,1.0619899482397854,0.3892392714761186
3.8081352710723877,-0.3867231866833919,-0.34027566744995136,0.17870526478844212,-0.004180440340470295,1.0686566405514386,0.39590620708746277
3.82820463180542,-0.3939220245106072,-0.3464250163189552,0.18366356670370218,0.006922416488344653,1.076388654654545,0.3994919234317152
3.848299980163574,-0.39766969720744777,-0.349360554044972,0.1803807792685247,0.013708682930464136,1.0809562053877884,0.40044949523662576
3.8683769702911377,-0.3979195879111488,-0.35562881120400297,0.18052017594281924,0.02686590655598076,1.0815869078534028,0.40308717231835806
3.888453960418701,-0.39825054941900123,-0.3619841145085067,0.1805523104748978,0.0364162849913223,1.0815205285144802,0.40775451306319266
3.9096367359161377,-0.4016376399333571,-0.3652039646730274,0.1772679110651192,0.041997133879881035,1.0805466165417146,0.4096973207325608
3.929579019546509,-0.4083042919519262,-0.3718706574171323,0.18393441540143718,0.0486638005465477,1.0738799775916414,0.4163628365971259
3.949826240539551,-0.4149709473897384,-0.3785373458378424,0.19060095065440602,0.05533046721321437,1.0672133342886563,0.4230285607563269
3.9699666500091553,-0.4144067481934185,-0.3852040023562061,0.18393421499449314,0.06199753153708856,1.0689521512091378,0.4296944640049261
3.9901084899902344,-0.4177400836383801,-0.3885373592027384,0.18726754832782647,0.06533042855136678,1.0656188284056598,0.43302808744322496
4.010159730911255,-0.4244068149211227,-0.39520402055313497,0.18726751676514986,0.07199808120745302,1.0589527552957725,0.43969365141213657
4.030238151550293,-0.42440682783700556,-0.401870666358284,0.18726753168828114,0.0786652782684593,1.0558742252417064,0.4463599409637018
4.050603151321411,-0.42107348717316073,-0.40520401127412786,0.19060079874150754,0.08199861160179263,1.0561025592772677,0.449692781792447
4.070720434188843,-0.4277401568939359,-0.4118706735943895,0.1839341588999199,0.08866527826845928,1.0494358875427843,0.4563596427072332
4.090808629989624,-0.43440681748260374,-0.4185373750483725,0.1906007586575812,0.09533151382471813,1.0427692406129487,0.46302609254003313
4.110947132110596,-0.4389410476190439,-0.4252040663678591,0.19726730481397964,0.10199818049138479,1.0361025965700985,0.46969183443433615
4.13097357749939,-0.43227437029820187,-0.43187072294702966,0.1906005704158535,0.10866527140208444,1.0294359355228897,0.47635768627897046
4.151050806045532,-0.42894103944737677,-0.43520407965076197,0.19393390374918681,0.11199816318535552,1.0261026061671883,0.479691321603768
4.171194076538086,-0.4289410436027972,-0.44187074182928116,0.19393392927345368,0.11866482985202217,1.0194359345358928,0.48635819233424715
4.191236734390259,-0.43560770359632384,-0.4485374450380214,0.19393386037013585,0.125331053050035,1.0127692828146349,0.4930246149952696
4.212059497833252,-0.4422743500217318,-0.4552041378475549,0.20060039058005855,0.13199771971670166,1.0061026417433674,0.4996901759168215
4.232178449630737,-0.4456076732118181,-0.45853748452180304,0.20393365499116028,0.13533105305003498,1.0027693214649427,0.5030229467945734
4.252297401428223,-0.4479606668098352,-0.46520418102898964,0.2106002166226069,0.14199771971670164,0.996102674794639,0.5096887430125088
4.272392749786377,-0.4412939974698154,-0.4718708244807914,0.20393354995594024,0.14866482012563015,0.9894360063627516,0.5163551071303706
4.292456388473511,-0.437960666843563,-0.47520418202620424,0.20726688328927356,0.15199769386613138,0.9861026692110104,0.5196887629566388
4.312527418136597,-0.43796066564168473,-0.4818708675322463,0.21393355325702995,0.15866414149407657,0.9794372787348113,0.5263554768916617
4.332935094833374,-0.44462734782856633,-0.4885375503657889,0.2206002105508563,0.16533037979570184,0.9727721731569033,0.5330222861444384
4.3528313636779785,-0.45129410891159527,-0.49520400500505035,0.22105857546875424,0.172001216871823,0.9661131490659218,0.5396856965105865
4.3728954792022705,-0.45462745809990013,-0.4985372908725792,0.21847104143127827,0.17533552112257805,0.9627811568232154,0.5430183039566243
4.392985105514526,-0.44796077889060976,-0.5052039929869815,0.22513761623844972,0.18200189594226338,0.9561144881186091,0.5496843739100572
4.413092374801636,-0.4546274184340633,-0.4985373619304003,0.2318041144214555,0.17533522927559672,0.9494478523667074,0.5563495463576497
4.43326997756958,-0.4479607394728811,-0.49187068517673815,0.22513737561979758,0.16866904040532996,0.9427812004135838,0.5630152243776455
4.453399181365967,-0.4446273970165592,-0.4885373673267926,0.22180397093380505,0.16533570707199663,0.9394478809988129,0.5663479132591676
4.473450422286987,-0.4379607128007112,-0.48187073105217204,0.21513716401085986,0.15866904040532998,0.9327812420041095,0.5730132999348635
4.493595123291016,-0.43129402943478984,-0.4752040940012018,0.20847036032270325,0.15200237373866332,0.9261146027230116,0.5796786987878186
4.513773679733276,-0.42462734682909065,-0.46853745616395526,0.2018035598338695,0.14533570707199667,0.9194479630782251,0.5863441101774821
4.5338616371154785,-0.42129400578493786,-0.46520413694803797,0.19847016077844254,0.14200237373866334,0.91611464309602,0.5896768206876273
4.553955793380737,-0.4146273241645346,-0.45853749791804765,0.1918033650245528,0.13533570707199669,0.9094480027667228,0.5963422515688465
4.574382066726685,-0.40796064310635305,-0.4518708580874853,0.18513657238572537,0.12866904040533003,0.9027813618928646,0.6030076959063261
4.5942583084106445,-0.4012939625415567,-0.4452042174547437,0.17846978282922682,0.12200237373866338,0.8961147204077676,0.609673154069651
4.614720821380615,-0.3979606224242489,-0.4418708968376734,0.17513638919666835,0.11866904040533005,0.8927813994161521,0.6130058884508163
4.634580850601196,-0.3912939424830535,-0.4352042550035704,0.1684696042025406,0.1120023737386634,0.8861147568971641,0.6196713680391956
4.654623031616211,-0.38462726288809423,-0.42853761237297566,0.16180282220902467,0.10533570707199674,0.8794481136165858,0.626336862360019
4.674744129180908,-0.38129392320484057,-0.4252042907607676,0.15846943232713373,0.10200237373866342,0.8761147916739548,0.6296696151546924
4.69490122795105,-0.3746272502566161,-0.4185376356186289,0.15180270984876698,0.09533570707199676,0.8694481361881898,0.6363357050878022
4.714949131011963,-0.3679605774314467,-0.41187097996504496,0.1451359891867185,0.08866904040533011,0.8627814801113177,0.6430018028292837
4.735014915466309,-0.3612938930479746,-0.4052043411415576,0.1518025146100313,0.08200237373866345,0.8561148410459041,0.6496669704086022
4.755102157592773,-0.36796056203324884,-0.39853767085833347,0.14513586668402526,0.0753357070719968,0.8494481705370569,0.656333833244719
4.775444746017456,-0.371293890461783,-0.395204347795133,0.14180248240202048,0.07200237373866347,0.8461148471277825,0.6596666158362496
4.807429075241089,-0.37462722379481384,-0.39187101446223793,0.13846914906635174,0.06866904040533015,0.8427815137948985,0.6629999491442095
4.8516786098480225,-0.37462722379481384,-0.39187101446223793,0.13846914906635174,0.06866904040533015,0.8427815137948985,0.6629999491442095
4.871731758117676,-0.3731152915345049,-0.3852043552740657,0.14461112465322787,0.062002218885700254,0.8361148321519443,0.6696667347646963
4.891785144805908,-0.3797819605725675,-0.37853768581255326,0.13794447405928373,0.055335552219033586,0.8294481622415422,0.6763335745014804
4.9120776653289795,-0.38311528460012506,-0.3752043673197762,0.13630656314481687,0.05200221888570025,0.8261148439248904,0.6796660118779662
4.933164119720459,-0.38311527295998243,-0.36853772384825917,0.13816573545534686,0.045335552219033584,0.8194481996060495,0.6863313115548211
4.953498840332031,-0.3797819355610107,-0.36520440012353805,0.1414990187449934,0.04200221888570025,0.8161148754644224,0.68966407869041
4.97347354888916,-0.38644860405228854,-0.3585377299491342,0.13483237119729685,0.03533555221903358,0.8094482050948194,0.6852854727894332
4.993554353713989,-0.3918767505148003,-0.3518710856443416,0.14149891778652052,0.028668885552366914,0.8027815597045173,0.6919507584983267
5.013674736022949,-0.3985434202552918,-0.34520441519349004,0.1348322745716149,0.022002218885700246,0.7961148886765096,0.6986176916374323
5.033770561218262,-0.4018767462821951,-0.3418710945062328,0.13816553469827428,0.018668885552366912,0.7927815677331574,0.6952835034055979
5.053861618041992,-0.4085434157711162,-0.3352044248984716,0.13816555523829185,0.012002218885700244,0.786114897584882,0.6886170781578211
5.073915719985962,-0.4144654846430777,-0.3285377775564679,0.1381654423095184,0.005335552219033576,0.7794482491810586,0.6819634364523419
5.094012260437012,-0.4167953542142326,-0.32520445202892845,0.14149873338226043,0.002002218885700243,0.7761149226095583,0.6786295972309921
5.11411190032959,-0.42346202056529875,-0.31853778022122575,0.13483206671559378,-0.004664343854019077,0.7694482501416176,0.6719628514881196
5.134171009063721,-0.41679535240359106,-0.3252044624413555,0.1414986955899102,-0.011331192110689689,0.7627815984481519,0.665295864950823
5.154245376586914,-0.4101286820953089,-0.3318711359656688,0.14816531886387196,-0.017997858777356355,0.7561149372117114,0.6586286694373024
5.174702405929565,-0.4067953416492735,-0.3285378137609126,0.15149857850140566,-0.014664525444023021,0.7527816124703106,0.6552944369959695
5.194536924362183,-0.4067953438864865,-0.3218711689112614,0.15816524516807232,-0.007998291368304405,0.746115046659775,0.6486280919086825
5.214625358581543,-0.4134620149906576,-0.3152044950825724,0.15816530760252837,-0.0013316776988494352,0.7394483720841427,0.641962240835296
5.234706163406372,-0.41347357917672906,-0.3152045028079267,0.15816526209853318,0.0053349889678172314,0.7327817135507659,0.6352950026041251
5.255062580108643,-0.41048398554921023,-0.31853784220055953,0.1614985568907155,0.008668322301150565,0.7294483875752388,0.6319611818743683
5.275290489196777,-0.40381731941817295,-0.32520451941520995,0.16816522355738214,0.015334780332975854,0.7227817216802757,0.6252946765742086
5.29534387588501,-0.3971506722314272,-0.33187120788333024,0.17483181163200065,0.022001446999642522,0.7294484050344109,0.6319603143595721
5.315428972244263,-0.3904840075327347,-0.3385378715950925,0.1681651652593961,0.02866811366630919,0.7361150673149021,0.6386272380424394
5.335660934448242,-0.38715067071295284,-0.3418712168169604,0.17149843100254694,0.032001446999642524,0.7394484153310903,0.6419597194295927
5.355594873428345,-0.38048400213403705,-0.34853789855062167,0.1781650168766653,0.03866811366630919,0.7461151000911039,0.6486253758703698
5.375725030899048,-0.37381733683047236,-0.35520456373440157,0.17956259021834847,0.04533478033297586,0.7527817642380528,0.6552921623261445
5.395819902420044,-0.36715066583382655,-0.3618712540644034,0.18115359900266492,0.05200144699964253,0.7594484605485988,0.6619572834964079
5.4161176681518555,-0.36381733178490266,-0.365204595993999,0.1844868884630001,0.05533478033297586,0.7627818043479018,0.6652900839803223
5.436234712600708,-0.35715066452158617,-0.37187127148551663,0.19115351043151166,0.062001446999642496,0.7694484818299924,0.6719562112846372
5.45630669593811,-0.35048400035485594,-0.37853792490479155,0.1844869135808779,0.06866811366630915,0.776115131161954,0.6786237083447274
5.476388454437256,-0.34381733368818923,-0.38520459157145825,0.1911535802475444,0.07533478033297578,0.7827817978286207,0.6852903750113922
5.4964799880981445,-0.34048400064597106,-0.3885379265948312,0.19448691358087772,0.0786680794920911,0.7794484818913816,0.6886237322490733
5.516551733016968,-0.33381733819952725,-0.3952045896664401,0.19448693807190798,0.08533474615875776,0.7794484754471052,0.6952906877328624
5.536941766738892,-0.3271506661520635,-0.4018712828497572,0.19448680698402887,0.09200141282542441,0.779448508770257,0.7019558174988345
5.557739734649658,-0.3238173326594635,-0.40520462666032386,0.19782009228142333,0.09533474615875774,0.7761151877256476,0.7052885856600735
5.57789421081543,-0.3304839968334855,-0.4118712977797734,0.1933134769571421,0.1020014128254244,0.7694485270527116,0.7119549687503036
5.597973823547363,-0.32381733390544126,-0.4185379904624129,0.19998003403702103,0.10866807949209105,0.7654787730164092,0.7186203220875405
5.618043661117554,-0.3304839763156543,-0.42520466519097655,0.20664662559068256,0.1153347461587577,0.7588121261780272,0.7252860877614543
5.638389587402344,-0.32715065051079995,-0.42853798423296413,0.20331336779566206,0.11866807949209103,0.7554787728761309,0.7286203335446116
5.658329725265503,-0.3204839844848669,-0.4352046798541586,0.20331324303116247,0.1253347461587577,0.7507654174827195,0.7352854741917814
5.678706407546997,-0.3204839925463108,-0.4418713782573082,0.20997986236114355,0.1320009750794597,0.7461903980346979,0.7419518517369804
5.699084997177124,-0.32381732747829567,-0.4452047231213642,0.21331314833675544,0.13533430841279304,0.7428570770706432,0.7452846023110639
5.7192301750183105,-0.3171506725008853,-0.4518713975708925,0.20918107073452405,0.1420009750794597,0.7361904140620121,0.7519510761939715
5.739429712295532,-0.3104840092112293,-0.45853809033045473,0.21584763193002546,0.14866764174612634,0.7295237745576232,0.7586164222226186
5.7593982219696045,-0.31715067186810236,-0.4652047522165826,0.20918098031463722,0.155334308412793,0.7228571039035036,0.7652832728471406
5.77980899810791,-0.31382939337907356,-0.46853810515862243,0.21251424707073868,0.15866764174612633,0.7195237871219813,0.7686157602648398
5.79972243309021,-0.31417351579704106,-0.4752047735351907,0.21918083961626697,0.16533430841279298,0.7128571401347028,0.7752814487764645
5.819793462753296,-0.3208401935252729,-0.4818714656504967,0.2258474158386914,0.17200097507945963,0.7061904959173078,0.7819469537716269
5.839879512786865,-0.3241735333881656,-0.48520481202324317,0.22918070384320835,0.17533430841279296,0.7028571737690453,0.7852797032218675
5.859999656677246,-0.33084021526974505,-0.4918715054374432,0.23584727961874635,0.18200097507945961,0.6961905293590959,0.7919451961759867
5.880327939987183,-0.33750688636638815,-0.4852048772472155,0.22918056846280244,0.18866730173590296,0.6895233025422147,0.7986116099059686
5.900201320648193,-0.3441735537288529,-0.4918715548288011,0.23584719131558027,0.1953339684025696,0.6828566474875938,0.791944360469884
5.920309066772461,-0.3475068826381415,-0.49520487948204234,0.23565982563318158,0.19866730173590294,0.6795233063667966,0.7886114232173681
5.940426349639893,-0.34750689282044667,-0.4952049178373614,0.23882445377428724,0.1986669025660031,0.672856440404316,0.7842102152528745
5.960464715957642,-0.34750687841131406,-0.4885382455741337,0.23882445984189313,0.1938980459859752,0.666189772308591,0.7799160822058968
5.980598211288452,-0.3508402259594298,-0.4852049273216507,0.23549108129163138,0.19259103593445867,0.6628564508167047,0.7765821453474291
6.000715255737305,-0.357506909876072,-0.4785382753104169,0.22882437470801745,0.18592436926779202,0.6561897946677141,0.7699149428510448
6.020837306976318,-0.35084024528232705,-0.4718716289269701,0.2221576697717572,0.17925772623003997,0.6495223579539003,0.7632478173590115
6.040889739990234,-0.34417359105552575,-0.46520497691525226,0.21549095640359667,0.1725910595633733,0.6428557040174541,0.7565804980278406
6.061159372329712,-0.33750694172174894,-0.4585383316611088,0.2088242199543177,0.16592439289670666,0.636189056493326,0.7632461758564729
6.081233501434326,-0.33417361666464124,-0.4552050085577239,0.2054908530688684,0.16259105956337333,0.6328557323907704,0.766579028397868
6.101660251617432,-0.32750696526908424,-0.4485383612663346,0.19882412197659338,0.15592439289670668,0.626189083491971,0.7732447610967892
6.121503591537476,-0.32084031222262327,-0.44187171258620034,0.1921573943544997,0.14925772623004002,0.6195224336630067,0.7799105302859384
6.141707420349121,-0.3141736575991872,-0.4352050625863627,0.1854906700802899,0.14259105956337337,0.6128557829022517,0.7865763355174509
6.1618523597717285,-0.3108403297204949,-0.43187173711309285,0.18215730916027084,0.13925772623004004,0.6095224571733476,0.789909251493719
6.181845664978027,-0.3041736728800128,-0.4252050852626732,0.17549058967752207,0.1325910595633734,0.6028558050229404,0.7965751098265912
6.201991558074951,-0.2975070146653051,-0.41853843226361676,0.16882387323535059,0.12592439289670673,0.5961891519583512,0.8032410028405341
6.222066402435303,-0.29084035516203244,-0.411871778182847,0.1621571597110956,0.11925772623004008,0.5895224979944628,0.8099069299001926
6.242480754852295,-0.28750702495431,-0.4085384507573819,0.15882380400502585,0.11592439289670675,0.586189170681023,0.8132399059854721
6.262407541275024,-0.2808403601477145,-0.4018718096862572,0.15215711564942022,0.10925732566723452,0.5795224442547622,0.8199065341337393
6.282445430755615,-0.27486884486222174,-0.39520514821451574,0.14549042861155323,0.10259065900056785,0.572855782965713,0.8265728679516922
6.302617788314819,-0.2724944790441743,-0.3918718148811824,0.1421570952782199,0.09925732566723451,0.5695224496323797,0.8299062012850255
6.323081016540527,-0.2658278156393322,-0.38520515927954296,0.14882371605780248,0.09259065900056786,0.5628557948206668,0.8365720995238076
6.342933893203735,-0.27249447747476907,-0.37853849092431696,0.1421570712569138,0.08592390577370045,0.5561891113340887,0.8432391990995497
6.3629889488220215,-0.27916114455021857,-0.37187182550083564,0.13549039933584453,0.07925723910703379,0.5495224460020717,0.84990577595132
6.383096694946289,-0.2758278113331693,-0.36853849248287396,0.1388237313467014,0.07592390577370046,0.5461891129969074,0.8465724197132662
6.403177261352539,-0.275827811333169,-0.36187182581621075,0.13882373134668471,0.06925723910703382,0.5395224463302449,0.8399057530463091
6.423662185668945,-0.2791611456840356,-0.3585384957713788,0.13549038352153148,0.0659239057737005,0.5361891165680479,0.8365721653001645
6.443696022033691,-0.28582781286011505,-0.3518718384362212,0.12921654231458998,0.059257239107033836,0.5295224605109352,0.8299047149866225
6.463783025741577,-0.27916114656308216,-0.34520519161099594,0.1358831949276093,0.05259023096689519,0.5228557578868356,0.8232380539850082
6.483852863311768,-0.2858278042490166,-0.3385385124321472,0.12921657919545793,0.04592356430022852,0.5161890791896346,0.8165723054614883
6.503918409347534,-0.29249447143417273,-0.33187186582545714,0.1358832335516691,0.03925653956512998,0.5095224167602118,0.8099056774893786
6.524250030517578,-0.29582781046172213,-0.3285385216854217,0.1325499627012409,0.035923206231796644,0.5061890692125344,0.8065734930095089
6.5442187786102295,-0.30249447688107284,-0.321871859068877,0.12588327496465546,0.029256539565129976,0.4995224071853159,0.7999064341504325
6.564507246017456,-0.30249447421211423,-0.3218718505967394,0.1258832650280332,0.02259011420170831,0.4928553867542492,0.7932394428129363
6.584599018096924,-0.2991611403975824,-0.3252051856298812,0.129216588933436,0.019256780868374977,0.4895220552849832,0.7899059303762108
6.605116844177246,-0.2924944733423219,-0.33187185728130203,0.13588324591268008,0.025923383246517096,0.49618871553305083,0.7832391285416672
6.624952793121338,-0.28582780631010457,-0.3385385263146057,0.1425498996697022,0.03259004991318376,0.5028553848038938,0.7765722210543369
6.645061016082764,-0.2791611393980237,-0.3452051972230356,0.1492165437287911,0.03925671657985043,0.5095220562091768,0.7832384711532396
6.665104389190674,-0.2724944732680182,-0.35187186858902686,0.15588318640961918,0.0459233832465171,0.5161887281162872,0.7899047022378678
6.68522834777832,-0.2691611404486879,-0.35520520446936066,0.15921650704736082,0.04925671657985043,0.5195220643028287,0.7932378075421176
6.705587387084961,-0.26249447535517495,-0.3618718766558665,0.16588314684376598,0.0559233832465171,0.5261887371693993,0.7999039969609826
6.725470066070557,-0.25582781106385893,-0.36853854945397463,0.17254978456667053,0.06259004991318376,0.5328554107308204,0.8065701571790933
6.745919466018677,-0.24916114766923209,-0.3752052229189773,0.17921642009082475,0.06925671657985041,0.5395220850312752,0.8132362870668961
6.766030788421631,-0.2458278163389076,-0.3785385599196819,0.18254973698815452,0.07259004991318374,0.5428554224723486,0.8165693402875106
6.786135196685791,-0.23916115220849174,-0.38520522636459825,0.17588307517706675,0.0792567165798504,0.5495220878615348,0.8232360901734027
6.806493759155273,-0.23249448877564294,-0.39187190270635613,0.18254969743191846,0.08592338324651705,0.5561887657309845,0.8299020113548368
6.826420307159424,-0.2291611584547337,-0.3952052405850386,0.18588301190601175,0.08925671657985038,0.5595221038855405,0.8332350322051646
6.8465025424957275,-0.22249449875471128,-0.40187191701658626,0.19254963886684712,0.09592338324651703,0.5661887808420591,0.8399010485771533
6.866931676864624,-0.21582783395593647,-0.4085385824636518,0.19254964734145383,0.10259004991318368,0.5728554451754059,0.8465678501219893
6.8867833614349365,-0.20916117267260664,-0.4152052558097273,0.19254962167764036,0.10925671657985034,0.5795221185641948,0.8532341058258076
6.907362699508667,-0.20582783933927332,-0.41853858914306064,0.1958829550109737,0.11259004991318367,0.5827253391704675,0.8565674391591409
6.927562952041626,-0.21249449364816542,-0.4252052531197642,0.20254961865378407,0.11925671657985032,0.576058673519966,0.8632340517770006
6.9476189613342285,-0.2058278713721498,-0.4318719322997339,0.20921628367818032,0.1259233754739705,0.5693920045657417,0.8699007245765843
6.967792272567749,-0.19916120387443437,-0.4385385974067813,0.20254962352580028,0.13259004214063716,0.5627253361485516,0.876567494882903
6.987899303436279,-0.195827883115675,-0.4418719410955841,0.20588292308889353,0.1359233754739705,0.5660586781160127,0.8799002889718325
7.007981538772583,-0.19582786385576592,-0.44853860313353294,0.21254958816937894,0.14259004214063714,0.5660586789710896,0.8865669133387142
7.0280303955078125,-0.2024945324710572,-0.45520525252699556,0.2152194553412936,0.14925703403522272,0.5593920922841197,0.8932333011288289
7.0480968952178955,-0.20582787717957046,-0.45853859468643277,0.21462230923487963,0.15259036736855605,0.5560587660256076,0.8965661914203472
7.068231582641602,-0.1991613158664279,-0.46520530842609986,0.22128887846340717,0.1592570340352227,0.5493921219892568,0.9032313823423362
7.088319301605225,-0.20582796737577896,-0.4718719701322742,0.21462221771692858,0.16592370070188936,0.5427254540783757,0.9098981261482755
7.108704566955566,-0.19916135078648256,-0.47853866027981945,0.22128883162634794,0.172590367368556,0.5360587991412529,0.9165639801454918
7.128974914550781,-0.20249468700061368,-0.47540381849960084,0.22462213258116695,0.17592370070188934,0.5327254736918111,0.9198967754468472
7.149109601974487,-0.20916134197802558,-0.469249111141142,0.2246221605170961,0.17592370070188934,0.5260587998284183,0.9198972276808034
7.169234275817871,-0.21582802542087903,-0.46258245293308975,0.2179554726235915,0.1692570340352227,0.5193921383845729,0.9132302265442555
7.1892664432525635,-0.21582802542087903,-0.45591578626642304,0.2179554726235915,0.16259036736855598,0.5127254717179062,0.9065635598775889
7.209647178649902,-0.2124946920875457,-0.4525824529330897,0.22128880595692482,0.15925703403522265,0.5093921383845729,0.9032302265442556
7.229761600494385,-0.21916135875421236,-0.445915786266423,0.21462213929025817,0.15259036736855605,0.5027254717179063,0.8965635598775888
7.249911308288574,-0.2126946038726342,-0.43924911959975627,0.20795547262359151,0.14592370070188937,0.49605880505123956,0.8898968932109222
7.269937992095947,-0.20602793720596754,-0.43258245293308956,0.20128880595692486,0.13925703403522272,0.48939213838457285,0.8832302265442556
7.2900474071502686,-0.20269460387263422,-0.4292491195997562,0.19795547262359153,0.1359237007018894,0.4860588050512395,0.886563559877589
7.310107469558716,-0.19602793720596756,-0.4225824529330895,0.19128880595692488,0.12925703403522273,0.4793921383845728,0.8932302265442555
7.330227851867676,-0.18936127642258593,-0.4159157898931335,0.1846221275448859,0.12259036736855608,0.4727254747613448,0.8998966793441154
7.350341796875,-0.1860279485326984,-0.4125824599764233,0.18128878298267678,0.11925703403522275,0.46939214432885584,0.9032298062219138
7.370434522628784,-0.17936128184668365,-0.4059157935193766,0.17462211631601013,0.1125903635954117,0.46272547633082,0.9098964757410104
7.390497207641602,-0.1726946151643335,-0.39924912703889187,0.16795544964934347,0.10592369354316651,0.45605880857634434,0.9165631449446223
7.410573720932007,-0.16602794814702587,-0.3925824651364273,0.16128878298267682,0.09925693904333115,0.44939211793906186,0.9232298766132283
7.430907487869263,-0.15936128098504598,-0.3859158080913733,0.1546221159028263,0.09259009573009311,0.4427254074853816,0.9298966648478045
7.451025009155273,-0.16051845660967531,-0.38258247733723866,0.15795544923615962,0.08925671138297905,0.43939207733752567,0.933230033688228
7.4714014530181885,-0.16489323948439574,-0.3759158036300295,0.15795547726194142,0.0825900447163124,0.4327254036845713,0.9398972670879294
7.491252183914185,-0.17155990883947086,-0.36924913913317714,0.15128880399163863,0.07592337122028861,0.4260587367842507,0.9398971380179552
7.5113465785980225,-0.1748932421004747,-0.3659158074470694,0.1479554706583053,0.07259000731196685,0.4227253964464819,0.9365638266701225
7.531425714492798,-0.18155991281259562,-0.3592491489354236,0.15462209829274515,0.0659233406453002,0.4160587391620168,0.9298963378976196
7.551547050476074,-0.18822658031749573,-0.3525824780101594,0.1479554558355044,0.05925667397863354,0.4093920665740852,0.9232301843589541
7.5716118812561035,-0.1948932494807579,-0.34591581351468936,0.14128877988492336,0.05259000731196687,0.40272540206431673,0.9165633176456979
7.591702699661255,-0.19822658151204875,-0.3425824846961533,0.14462208700892987,0.049256673978633536,0.3993920747516851,0.9132294088742949
7.611782789230347,-0.20489325123234944,-0.3359158153344902,0.14462210575066367,0.04259000731196687,0.3927254037364577,0.9065631561850551
7.63187313079834,-0.2115599159754914,-0.3292491529685506,0.14462207915100464,0.0359233406453002,0.3860587430226873,0.899895893751387
7.651917457580566,-0.2182265862908463,-0.32258248419523716,0.14462209568905982,0.029256673978633532,0.3793920726361394,0.8932295995383494
7.672001123428345,-0.2215599199401916,-0.3192491514504419,0.14128875921204295,0.0259233406453002,0.3760587399929078,0.8898961947786169
7.692111968994141,-0.22822658325308753,-0.3125824880496162,0.1479554028350531,0.01925667397863353,0.3693920783052466,0.8832290004834182
7.712179660797119,-0.23489325378638545,-0.3059158196095956,0.14128875136493102,0.012590007311966862,0.36272540833456784,0.8765626816842733
7.732609748840332,-0.2415599194380141,-0.3125824863979303,0.14795541614076377,0.005923340645300194,0.3560587420366473,0.8698959711031934
7.752671480178833,-0.2382266037617946,-0.315915822766186,0.1512887496190341,0.009256673978633528,0.3593920753728749,0.8665626309170406
7.772841691970825,-0.23155993706753503,-0.32258249023291224,0.15795541117238193,0.015923340645300196,0.3660587430384285,0.8598958456837396
7.792846441268921,-0.22489327048239532,-0.32924915746523314,0.1646220743413037,0.022590007311966864,0.37272541041284984,0.8598957657446026
7.8129072189331055,-0.2182266109759618,-0.3359158195842219,0.16843136632865202,0.029256673978633532,0.37939206914842927,0.8665632555971576
7.833202600479126,-0.2148932782228987,-0.33924915347388945,0.16885968895343362,0.032590007311966866,0.3827254030889654,0.8698965262314099
7.8534417152404785,-0.20822660760408962,-0.345915828219586,0.17552630084790613,0.039256673978633534,0.38939208168204875,0.8765619867818045
7.873470783233643,-0.20155994292827523,-0.352582496626898,0.18219295903255173,0.0459233406453002,0.39605875026045845,0.8832284705899177
7.8934571743011475,-0.1948932787445179,-0.3592491602169986,0.17552631444359437,0.05259000731196687,0.4027254117885338,0.8898956081745627
7.913565158843994,-0.19155994571238688,-0.36258249873172627,0.1788596172150467,0.055923340645300204,0.4060587521428374,0.8932282927380267
7.9336488246917725,-0.1848932804078695,-0.36924916405588964,0.18223261268426477,0.06259000731196687,0.4127254165275316,0.8998951580385282
7.953718900680542,-0.17822661774427156,-0.37591583564427267,0.18560160768110556,0.06925667397863353,0.41939208891716473,0.9065613255330419
7.974083185195923,-0.17155994943981664,-0.38258249681221684,0.1856016377394274,0.07592334064530018,0.42605874824643675,0.9132286014191955
7.994162321090698,-0.1682266196449061,-0.3859158321575471,0.18226829694491373,0.07925667397863351,0.42939208334731005,0.9165617853800336
8.014263391494751,-0.16155995297264497,-0.39258249893704983,0.18893496361158038,0.08592333865466363,0.43605874942017947,0.9232284535045071
8.034355640411377,-0.15489328627452062,-0.39924916615127626,0.19560163027824704,0.09258999574531684,0.4427254129553344,0.9298951272495205
8.054431200027466,-0.14822662013716567,-0.40591582078061955,0.18893496361158038,0.09925687831015857,0.4493921153901253,0.9365616373869843
8.074519395828247,-0.1448932901833866,-0.40924915703866227,0.19226828498013968,0.1025902116434919,0.4527254516249151,0.9398947398522829
8.094614028930664,-0.14489329160733194,-0.4159158228628159,0.19893495110915313,0.10925686361188808,0.4527256250635696,0.9465613890186401
8.114709377288818,-0.14822662488863705,-0.41924915685113967,0.20226828444248646,0.11259018554410043,0.44939228767759193,0.9498947308924612
8.135207414627075,-0.14489329017524008,-0.42258249308434903,0.20560161777581978,0.11592350698783849,0.452725413837915,0.9532280937427774
8.15606141090393,-0.14155995682465913,-0.42591582659030003,0.2089349511091531,0.11925683742452596,0.45605874569402677,0.9565614292908368
8.176132678985596,-0.1348932781480968,-0.4325824882445243,0.20226829796679016,0.12592350409119263,0.44939207582717533,0.9632283398610786
8.196491241455078,-0.1282266268797895,-0.4392491608823698,0.20893494969937376,0.13259017075785928,0.45605874584154155,0.9698947373039605
8.216415166854858,-0.13489326929099096,-0.44591582233755156,0.2156016175128414,0.13925683742452594,0.44939207945939874,0.9765613934697427
8.236478567123413,-0.1382266032721521,-0.4492491559236558,0.21893495020311957,0.14259017075785926,0.4460587462694567,0.9798947154334694
8.256558895111084,-0.1382266035105311,-0.45591581270402254,0.21893494956015197,0.14925707443567895,0.446058535886822,0.9865612245041723
8.276890516281128,-0.13822660352605717,-0.46258248233030436,0.21893494956015197,0.15592367467784646,0.4460585804935995,0.9932279335613404
8.296844959259033,-0.14155993682332652,-0.46591581586568265,0.2222682828934853,0.15925700496615725,0.4427252443911199,0.9965612693334959
8.316944360733032,-0.14822661847632154,-0.4725824877974535,0.22893493736013693,0.1659236716328239,0.43605858016373755,1.0032277282539435
8.337101697921753,-0.15489327729242203,-0.47924915055185985,0.22950836992323675,0.17259033829949055,0.4293919107959278,1.009894619850391
8.357246160507202,-0.16155998029655444,-0.4859158295305871,0.23617500829916152,0.1792570049661572,0.42302216198794323,1.0165608086480886
8.377214670181274,-0.1682266469632211,-0.4792491628639204,0.22950834163249487,0.18592367163282386,0.42968882865460983,1.0232274753147554
8.397334098815918,-0.16489331362988777,-0.48258249619725374,0.2328416749658282,0.18259033829949053,0.4263554953212765,1.019894141981422
8.417449474334717,-0.16489331362988777,-0.48258249619725374,0.2328416749658282,0.17592367163282388,0.4196888286546098,1.0132274753147552
8.438982725143433,-0.16489331362988777,-0.47591582953058703,0.22617500829916154,0.1692570049661572,0.41302216198794306,1.0132274753147552
8.459068775177002,-0.16155998029655444,-0.4725824961972537,0.2228416749658282,0.16592367163282387,0.4096888286546097,1.0165608086480886
8.479133367538452,-0.15489333183481777,-0.46591583491270827,0.21617499711000696,0.15925700496615722,0.4030221639522258,1.0232272854274658
8.499222755432129,-0.1482266651681511,-0.45924916824604156,0.2095083304433403,0.15259033829949056,0.3963554972855591,1.0298939520941326
8.519283294677734,-0.14155999850148446,-0.45258250157937485,0.20284166377667365,0.1459236716328239,0.38968883061889237,1.0365606187607994
8.539381980895996,-0.13822666516815113,-0.4492491682460415,0.19950833044334032,0.14259033829949058,0.386355497285559,1.0398939520941328
8.55954122543335,-0.13155999850148448,-0.4425825015793748,0.19284166377667367,0.13592367163282393,0.3796888306188923,1.0465606187607996
8.57979941368103,-0.1248933382149156,-0.4359158445475692,0.1861749919138365,0.1292568932310634,0.3730220720686759,1.053227268946614
8.599984407424927,-0.12156001187039,-0.43258251327621444,0.18284165370530114,0.12592355989773008,0.36968873962447624,1.056560507067214
8.620062589645386,-0.1148933548727864,-0.42591585011609256,0.17647924903299964,0.11925688882642946,0.3630220700482308,1.0632269957830818
8.6401526927948,-0.10822671071348398,-0.419249190603771,0.18201773087486411,0.1125902221597628,0.3563554069607302,1.0698932656157976
8.660266637802124,-0.1148933086831746,-0.4125825101440743,0.1753510792405778,0.10592355549309615,0.34968873842788867,1.0765601587227687
8.680298328399658,-0.12155998674685593,-0.405915846351998,0.16868440646971136,0.0992568888264295,0.343022072842943,1.069893367509207
8.700398206710815,-0.12489332490487852,-0.4025825142732392,0.16535107026933185,0.09592355549309617,0.33968874002447935,1.0665599736553024
8.720837831497192,-0.13156002411413675,-0.39591586122529926,0.16331909176646647,0.08925688882642951,0.3330220830692127,1.0598921496418452
8.74074387550354,-0.1382266779305113,-0.3892491864268244,0.16115706430731974,0.08259022215976286,0.3263554089341654,1.05322636705225
8.760847091674805,-0.14156001143214791,-0.38591585313268667,0.15782373089178364,0.07925688882642953,0.32302207561521395,1.049893031923374
8.780888557434082,-0.1482266837481044,-0.37924918792124307,0.15115706054959976,0.07259022215976288,0.31635540961258435,1.0432262807775607
8.800980567932129,-0.1463178724681213,-0.3725825366364592,0.15782372534283265,0.06592334500251125,0.3096884564418321,1.036559720778406
8.821075677871704,-0.15298443877962464,-0.36591584896021945,0.15115709887019407,0.05925667833584459,0.3030217828197879,1.0298939653267445
8.841478109359741,-0.15965111088081396,-0.3592491863409364,0.1504347219420174,0.05259001166917792,0.29635512019203286,1.0232267668328086
8.86141324043274,-0.16298444497655662,-0.3559158506995795,0.14710140418240988,0.049256678335844586,0.29302178377945715,1.0198938437128104
8.881479501724243,-0.16298453479602434,-0.35591586053503815,0.14710142056688988,0.04259001166917792,0.2863551132217953,1.0132276873249242
8.90160322189331,-0.15631786927095875,-0.3625825274951154,0.15376808631913144,0.03592334500251125,0.2796884467127421,1.0065609968784164
8.921931743621826,-0.15298453698434136,-0.3659158610863329,0.15710141883217946,0.03259001166917792,0.27635511350632685,1.0032276420068076
8.942018508911133,-0.15517069920844578,-0.359249194970176,0.1504347507148206,0.039256678335844584,0.2830217803858411,0.9965609376605269
8.962104320526123,-0.14850403384224115,-0.36591586182486585,0.15710141725922505,0.03259001166917792,0.2763551137247146,0.9898942684060059
8.982212543487549,-0.15254682177655146,-0.37258252895456273,0.16376808291624909,0.039256678335844584,0.2705242949719553,0.9832275764769105
9.002305746078491,-0.14921349742268358,-0.3759158633765938,0.16710141664697817,0.04259001166917792,0.27385762819159504,0.9865609266068567
9.022376298904419,-0.1425468327039211,-0.3825825304349666,0.17376808231863541,0.049256678335844586,0.28052429500227927,0.9932275681122553
9.042455673217773,-0.13588017017092602,-0.3892491979436534,0.1804347469066939,0.055923345002511254,0.28719096197513744,0.9998941841148036
9.062520265579224,-0.1292135594372309,-0.3892492084777707,0.18043472629547858,0.06259001166917792,0.29385763159655665,1.006560381295126
9.0825777053833,-0.12588022747767583,-0.3859158755311244,0.1771013916053947,0.06592334500251125,0.29719096515732274,1.0098936815703288
9.10271668434143,-0.1325468247265105,-0.3925825322518095,0.1837680600196751,0.0725900116691779,0.2905242989365775,1.003226980739514
9.12283730506897,-0.1362981960920774,-0.39924920169501693,0.19043472505260875,0.07925667833584456,0.2838576323382597,0.9965602977999917
9.142885684967041,-0.12963153144699036,-0.4059158738355785,0.19710139023481094,0.08592341444956457,0.29052362503020934,0.9898936145777268
9.163305521011353,-0.12296482868748887,-0.4125825296612477,0.19043476488484967,0.09259008111623122,0.29719028431108063,0.9965612616168925
9.183401823043823,-0.11963149390889054,-0.4159158786863618,0.193768098218183,0.09592318494911156,0.3005234600384636,0.9998947440878019
9.203566074371338,-0.1129647750257669,-0.42258253043442784,0.19376814822385643,0.10258985161577822,0.3071901181606958,1.0065625467381702
9.223591089248657,-0.10629813498771748,-0.42924920317153104,0.19376813370911922,0.10925651828244487,0.3138567870217053,1.0132289070800766
9.243841171264648,-0.10296480908605544,-0.4325825379772533,0.19710146448856314,0.1125898516157782,0.3171901206928282,1.0165621925734902
9.263935804367065,-0.10479191431359003,-0.43924918630186005,0.19217565733726502,0.11925671209888306,0.32385750612458286,1.0232285638814411
9.284082174301147,-0.09812525204735739,-0.44591587904061436,0.19884232069843466,0.12592316322575045,0.3305233829743174,1.0298953806604445
9.30413818359375,-0.09145859902447752,-0.4525825485261185,0.20550898275013793,0.1325898298924171,0.33719005020974907,1.0365619684126588
9.324188470840454,-0.08479193832377838,-0.4459158980013155,0.19884231205249928,0.13925635000002512,0.34385634516616587,1.043228689925789
9.344297409057617,-0.08812527433219795,-0.44924922312975896,0.2021756453858326,0.13592304817816825,0.34052342842318317,1.0398952953150495
9.364448308944702,-0.0947919585553647,-0.4492492269484507,0.20217563863932497,0.13592304817816825,0.3338567626605603,1.0332285110251345
9.384490966796875,-0.09479196053828806,-0.44258259695694974,0.20217563470998315,0.1359228280809845,0.32718872017051337,1.0265620495199979
9.404987096786499,-0.09145863849388096,-0.4392492659911404,0.205508963900232,0.13258949474765117,0.32385538741204833,1.0232286446698282
9.425084352493286,-0.09812519406382529,-0.4325825796868157,0.19884231685437373,0.1259228280809845,0.3171887193013449,1.029895521238425
9.445159435272217,-0.09145852940546682,-0.42591592441799186,0.1921756475563247,0.11925621382657478,0.3105211995587471,1.0232288521295478
9.465261459350586,-0.08479187362549191,-0.41924926004841706,0.18550897622132845,0.11258954715990813,0.30385453360567666,1.0165620939911224
9.48531460762024,-0.07812521552163977,-0.41258259524264146,0.17884230537908183,0.10592288049324147,0.29718786760151583,1.0232286738397736
9.505475759506226,-0.07479188615124342,-0.4092492627319295,0.1755089702989292,0.10258954715990815,0.29385453453750093,1.0265619708098315
9.52550745010376,-0.06812522635205484,-0.4025825974831387,0.16884230055529123,0.09592288049324149,0.2871878683465888,1.0332285717109229
9.558757066726685,-0.06812522635205484,-0.4025825974831387,0.16884230055529123,0.09592288049324149,0.2871878683465888,1.0332285717109229
9.57881236076355,-0.0647918959702601,-0.39924926475651545,0.16550896587227376,0.09258954715990816,0.2838545352224979,1.0365618753885062
9.59890341758728,-0.0581252766055302,-0.39258261032481045,0.172175594311023,0.08592288049324151,0.2771878750790392,1.0349457455520292
9.619010210037231,-0.0647919489756522,-0.38591593115834216,0.16550892659495453,0.07925630146884562,0.2705217801345918,1.041612291632092
9.639050960540771,-0.06812534897355171,-0.38258260970662183,0.1621755707168656,0.07592296813551229,0.2671884501809446,1.0382784597228512
9.659169912338257,-0.07479202092365721,-0.3759159439485501,0.15550890240423176,0.06925630146884564,0.2605217837547704,1.031611756386824
9.67923355102539,-0.07709844265471831,-0.36924929514810584,0.15550887912500205,0.06258963480217898,0.2538551199494734,1.0249446114489968
9.699322700500488,-0.07950733551884652,-0.3625826135686223,0.15550889780593202,0.05592296813551231,0.24718845089358746,1.0182783340592743
9.719916343688965,-0.08284067045127672,-0.3592492804952109,0.15217556397256635,0.05258963480217898,0.2438551176377712,1.0149449884833655
9.73999571800232,-0.08950734398702428,-0.3525826182491537,0.15884221188889092,0.045922954400030074,0.23718843914779006,1.0082777942336636
9.760344743728638,-0.09617400886778414,-0.34591594985902135,0.15217556196803023,0.039256278462839626,0.23052175718329068,1.0016116184682173
9.780274152755737,-0.10284067548545868,-0.33924928861661874,0.14726538992987948,0.03258952521922033,0.2238550698996323,0.994944996042824
9.800338745117188,-0.09617402773905032,-0.34591595707515826,0.15393205873559163,0.025922858552553663,0.21718840268582473,0.9882784101572571
9.820430278778076,-0.09284069440524433,-0.3492492904201305,0.15726539206892495,0.02258952508944948,0.21385506900544857,0.9849450769056778
9.840556621551514,-0.08617403878038706,-0.3559159586399064,0.16393205889620377,0.022589519192794966,0.2138550610253572,0.9782784235895788
9.860607385635376,-0.07950737616101423,-0.36258262589998624,0.1705987241021694,0.029256185859461634,0.22052172790058308,0.9749784227358348
9.880642652511597,-0.07284071911341534,-0.3692492940911432,0.1772653866725299,0.0359228525261283,0.22718839516236156,0.9783416800110497
9.900822639465332,-0.06950739194725344,-0.37258262835994066,0.18059871785244455,0.03925618585946163,0.23052172880183164,0.9816749563386008
9.920936107635498,-0.06284073972695102,-0.37924929725018414,0.187265379501087,0.0459228525261283,0.23718839618135323,0.9883414941786531
9.941067457199097,-0.05617407884093459,-0.3859159626312416,0.1805987289170354,0.05258951919279497,0.24385506014064798,0.9950086141156892
9.961485147476196,-0.04950743441840248,-0.3925826352097024,0.18726536982056532,0.05925618585946164,0.25052173066861366,1.0016745926492165
9.981534719467163,-0.046174088035387716,-0.39591596393019585,0.18400180632461938,0.06258951919279497,0.2538550603397918,1.0050085512925544
10.001611232757568,-0.03950746075187027,-0.402582640387954,0.18439787152070158,0.06925618585946162,0.2605217323917112,1.0116742575241864
10.02173399925232,-0.03284082502115523,-0.40924931225617844,0.1910645279841948,0.07592285252612828,0.2671884003195334,1.0183406971139246
10.042205810546875,-0.029507509138313428,-0.41258264856892196,0.1943978555182106,0.0792561858594616,0.27052173437156285,1.0216739046692431
10.061980247497559,-0.02284082900235608,-0.41924931005758437,0.18773121434961115,0.08592285252612826,0.27718839710155757,1.028341215269408
10.082051038742065,-0.016174235579745302,-0.4259159927380376,0.19439783555019652,0.09258951919279491,0.2838550697964058,1.0350068274297075
10.102137327194214,-0.022840921594868772,-0.4325826584177624,0.201064493700531,0.09925608003922953,0.2905224860485766,1.041673307001804
10.122217416763306,-0.01950758505802364,-0.4359159986021748,0.20439782703386433,0.10258950731186037,0.29385496665454186,1.0450066584282882
10.142368078231812,-0.012840870555145689,-0.44258265255088364,0.20439786866179738,0.10925617397852702,0.3005216273872646,1.05167425073763
10.16237998008728,-0.006174344885068425,-0.4492493499229931,0.2043977954200031,0.11592284064519368,0.3071883031317386,1.058339406958732
10.18246603012085,-0.006174388612950597,-0.4559160131976264,0.21106444898642246,0.12258937895690475,0.31160568820325923,1.0650058039299328
10.202538967132568,-0.00950772135435306,-0.4592493506310471,0.2143977823197558,0.12592265707348724,0.3125800900768825,1.0683391757040301
10.222638607025146,-0.01617438282119362,-0.46591603617637395,0.22106444898642244,0.1325892428006867,0.31924586331954735,1.0750059729401433
10.242729187011719,-0.02284104741120011,-0.4725827140845006,0.2277311156530891,0.13925577961911406,0.3259123077115329,1.0816727400630004
10.262784242630005,-0.02950771519944347,-0.47924938416950896,0.23439778231975575,0.14592228345850725,0.3290488852191313,1.0883394732616798
10.282872676849365,-0.032841012327633395,-0.4825827091325912,0.23106446822768842,0.14925561679184057,0.3323822162468094,1.0916731572800924
10.302961587905884,-0.03950769529695396,-0.48924938198441803,0.2310644452518131,0.15592228345850723,0.33238221931416817,1.091672677240172
10.323044300079346,-0.04617441924075103,-0.49406609731584367,0.23773109497866077,0.16258895012517388,0.32571555398714097,1.0916724397302393
10.34310269355774,-0.05284130399994396,-0.4920678396356873,0.24439769152063448,0.16925561679184054,0.3190488930577008,1.0916714352786694
10.363774538040161,-0.056174637333277294,-0.48873450630235393,0.2477310248539678,0.17258895012517386,0.31571555972436743,1.088338101945336
10.383882761001587,-0.06284130399994396,-0.4820678396356872,0.24106435818730115,0.1659222834585072,0.30904889305770084,1.0816714352786692
10.403974294662476,-0.06950797066661062,-0.4754011729690205,0.2343976915206345,0.15925561679184055,0.3023822263910341,1.0750047686120023
10.424022912979126,-0.06284130503708879,-0.4687345064756407,0.2277310246423683,0.1525889501251739,0.2957155597364236,1.0683380998354464
10.444106817245483,-0.059507971703755456,-0.46540117314230733,0.22439769130903497,0.14925561679184057,0.29238222640309025,1.065004766502113
10.464209794998169,-0.052841327667063384,-0.4587345104615128,0.2177310181754142,0.14258895012517392,0.2857155603246955,1.065004671698038
10.484275102615356,-0.04617468128187969,-0.4520678472389461,0.21106434617919614,0.13592228345850726,0.27904889411941236,1.0716712614613926
10.504378080368042,-0.04284135698926259,-0.44873451541589143,0.20773101050742426,0.13258895012517394,0.2757155609892995,1.075004560286217
10.52450442314148,-0.03617470640390098,-0.4420678513925983,0.20106433974383794,0.12592228345850728,0.26904889467997994,1.0816711650999349
10.544562339782715,-0.029508053401831692,-0.43540118692294855,0.19439766966499536,0.11925561679184063,0.2623822283124511,1.088337778562666
10.564644575119019,-0.022841398263393896,-0.4287345220687667,0.1877310001743082,0.11258895012517398,0.2557155618947374,1.0950043996625478
10.584712505340576,-0.016174741246500996,-0.42206785688532045,0.18106433118564863,0.10592228345850732,0.24904889543408806,1.1016710274691892
10.604818105697632,-0.01284148377381649,-0.4187345364933637,0.18439763614440605,0.102588950125174,0.2457155653358462,1.1050037638333923
10.624916076660156,-0.012841492902160873,-0.4120678564175284,0.1843976349458351,0.095922290526808,0.23904974937714782,1.1116703409382764
10.645001411437988,-0.019508186818796715,-0.4054011934081948,0.17773096392422283,0.08925562386014134,0.23238308300386518,1.1116702805381844
10.665445804595947,-0.02284152448956219,-0.4020678606514302,0.1743976298837372,0.08592229052680801,0.22904974972105877,1.1083369367438527
10.68572449684143,-0.029508198791171128,-0.39540119497608045,0.1677309620256016,0.07925562386014136,0.22238308313818045,1.1016702521842527
10.705678939819336,-0.036174904862537306,-0.38873453472236635,0.1743976120418373,0.0725889571934747,0.21571641859132445,1.0950031761823602
10.72571873664856,-0.042841548953639855,-0.382067863983616,0.16773095893910128,0.06592229052680805,0.2090497499579161,1.0883368664901758
10.745821714401245,-0.049508215479326725,-0.37540119861483046,0.16106429227243463,0.05925561452129046,0.20238303447805678,1.0816702073179516
10.766076803207397,-0.052841549847094965,-0.3787345169702669,0.16439762560576796,0.055922449064534155,0.19905001238913772,1.0783367775897388
10.786100625991821,-0.05845514064076457,-0.3854011870442321,0.17106429210634114,0.04925577676608408,0.19238333713615366,1.0716701584150612
10.806154489517212,-0.06384067568773936,-0.392067854101291,0.1777309587730078,0.04258903360100265,0.18571699432844546,1.0650035077843067
10.826228857040405,-0.07050734245437328,-0.39873452517739055,0.18439762543967445,0.04258895005633491,0.17905040549536885,1.0583368731084293
10.846301794052124,-0.07384067816476432,-0.40206785883016144,0.18773095769799983,0.04592228338966824,0.17571707226187103,1.0550035092581105
10.86638331413269,-0.06717408325814081,-0.40873453174409846,0.19439762348950915,0.05258895005633491,0.16905040525287499,1.0483369251048849
10.886476039886475,-0.060507437695587134,-0.40206786703836517,0.20106428826995512,0.04592228338966824,0.17571707198069725,1.0514320484361461
10.906538963317871,-0.06717411437902765,-0.3954012002858522,0.19439762056997298,0.03925558488400463,0.1690506260209482,1.0447653666619403
10.926622867584229,-0.06384078037074854,-0.3987345321940555,0.1977309539033063,0.035922374010844096,0.1657167983106558,1.0414320041993064
10.947064876556396,-0.05717413147034139,-0.39873453377908885,0.1977309522629103,0.02925570734417743,0.15905013172428817,1.0347653081691262
10.966921329498291,-0.050632103952362735,-0.39873453313127716,0.19773095275332325,0.02258904067751076,0.1523834650423137,1.028098648689085
10.987645626068115,-0.04774424144402228,-0.40206786319158905,0.20106428422311282,0.019255707344177427,0.14905013203281786,1.0247652126008922
11.00766396522522,-0.05441088916441557,-0.39540119530414275,0.1943976155664881,0.012589040677510759,0.15571679891909326,1.0180984658030665
11.027708053588867,-0.05559007410195879,-0.4020678621859355,0.20106428252520306,0.005922374010844091,0.14905013222533042,1.011431808632477
11.047873258590698,-0.0489234716842291,-0.408734533268116,0.19439761854064438,0.012589040677510757,0.1447218155227476,1.0047652558632874
11.06790542602539,-0.045590220921791866,-0.4120678726022592,0.1977309497332504,0.01592237401084409,0.1480551488389911,1.008098578964053
11.08797001838684,-0.038923563212366376,-0.4187345399611621,0.20439761589091776,0.022589040677510757,0.154721815518044,1.0147652358666748
11.108058214187622,-0.03225691526247879,-0.42540120816806404,0.2110642811659526,0.029255707344177425,0.16138848222110577,1.0214318765955024
11.128464460372925,-0.02559025900045496,-0.42540122634409955,0.21106428028682586,0.03592224378947438,0.16805461752171735,1.0280986051661292
11.148584842681885,-0.022256928344503858,-0.42206789333840006,0.20773094572701006,0.039255577122807715,0.1713879509230493,1.0314319047193161
11.168653011322021,-0.028923469584472568,-0.4287345497186682,0.21439761103025443,0.04592224378947438,0.16472128479892145,1.024765037440538
11.18873381614685,-0.035590141679041405,-0.4354012169220637,0.22106427648600493,0.05258891045614105,0.15805461818911992,1.0180983430742683
11.20882248878479,-0.028923492562421577,-0.4420678907011485,0.2277309415779358,0.05925582116322823,0.16471985446094223,1.0247649587852663
11.228901386260986,-0.025590158851525966,-0.4387345611434795,0.22439760824460248,0.06258914591961244,0.16805299946462285,1.028098304241922
11.248988151550293,-0.025590169268915247,-0.4387345594394545,0.22439760655678842,0.0692557560076428,0.1680533996233399,1.0280982781624068
11.269080877304077,-0.028923513167883136,-0.44206789380877237,0.2277309381564543,0.07258908934097613,0.16472006635871345,1.0247649161316554
11.28937554359436,-0.0355901938443233,-0.44873456177704096,0.2343976028869511,0.07925575600764279,0.15805339974291163,1.0180982252702728
11.30935788154602,-0.03225685721960298,-0.45206790858988244,0.23773093622028443,0.08258934726127237,0.16138497086591916,1.0214315325031538
11.32957148551941,-0.02559021783195135,-0.4520679406825469,0.23773093327010114,0.0892558778960085,0.16805063079277183,1.0280982972582475
11.34956407546997,-0.0255902384964508,-0.45206793725051897,0.2377309305078925,0.09592248417139487,0.16805114396848567,1.0280982682049367
11.369953155517578,-0.028923592172306244,-0.4554012725660217,0.24106426093326183,0.0992558175047282,0.16471781069851363,1.0247649078959633
11.390029668807983,-0.035590284506814944,-0.46206794164157405,0.24773092417571388,0.10592248417139485,0.1580511440714458,1.0180982197905866
11.41011905670166,-0.028923658733560058,-0.46873462936042015,0.25439758582244865,0.11258934786373753,0.15138293083926566,1.0114315453407623
11.430229663848877,-0.022257020736039943,-0.46206798127575416,0.24773091481522475,0.11925610064727457,0.1580485642043436,1.0180982082954826
11.450316429138184,-0.028923722521298476,-0.46873464200012477,0.25439757685320563,0.12592269749631435,0.15138255636991327,1.011431523319074
11.470443964004517,-0.03225706586197462,-0.46540130956417275,0.25106424231956714,0.12925603082964768,0.14804922302265985,1.0080981924644543
11.490500926971436,-0.03892375664829692,-0.4654013117054288,0.2510642397328423,0.13592269749631433,0.141382556299199,1.0014315393511943
11.51058292388916,-0.03892374944540936,-0.47206800759912154,0.257730906399509,0.14258957385929238,0.1347140127272843,0.9947648760567255
11.530810356140137,-0.035590412255632004,-0.47540135914185977,0.2610642397328424,0.14592287852511027,0.13138004185085095,0.9914315810268398
11.550953388214111,-0.028923826136985444,-0.4820679763876247,0.2543975631808977,0.15258943030834415,0.12471591596104636,0.984764872419366
11.571111917495728,-0.022257233375000293,-0.48873465772171115,0.2610642187340044,0.15925615178932856,0.13138210176360773,0.9914315729603134
11.591105222702026,-0.01559067596646831,-0.48206800062544125,0.25439753483311706,0.1659228184559952,0.13804876834598495,0.9980982622156506
11.611438274383545,-0.01237663886022907,-0.4754013294355513,0.24773087408417024,0.15925615178932856,0.14471543522691702,0.991431514043363
11.631486415863037,-0.009043215128152813,-0.4720679878535959,0.2443975532300943,0.15592281845599523,0.1413821021028704,0.9947647886240625
11.651587963104248,-0.0023766462791148415,-0.46540133000129985,0.23773087202602153,0.14925615178932858,0.13471543530659827,0.9947648146830862
11.671683073043823,0.004289943281527557,-0.45873467011005337,0.23106419347403517,0.14258948512266192,0.1280487685947296,0.9947648123322047
11.691741228103638,0.010956539518338526,-0.4520680093429796,0.22439751692027196,0.13592281845599527,0.12138210183708456,1.001431498859644
11.711836814880371,0.014289841366577124,-0.44873467856414495,0.2210641793366805,0.13258948512266194,0.11804876845835117,1.0047648435219203
11.731927633285522,0.020956451862364125,-0.44206801631039394,0.21439750538470786,0.1259228184559953,0.11138210170253061,1.0114315347987428
11.75200343132019,0.02762308910520984,-0.4354013518332393,0.20773083519660565,0.11925615178932863,0.10471543497856778,1.0180982198755495
11.772131204605103,0.03254089414907213,-0.4287346768750349,0.2010641721886984,0.11258942069232629,0.09804917746955709,1.024764825161759
11.792232751846313,0.029884692746627053,-0.42540133432049,0.19773083885536508,0.10925597715520115,0.094716541258907,1.0280981679046037
11.812323570251465,0.024160692175437256,-0.4187346524532907,0.19106416426413703,0.10258900099575156,0.0880516306791933,1.0347649739934
11.83236312866211,0.017494007148428563,-0.41206801603764576,0.18665270496909775,0.0959224263874102,0.08138355607261748,1.0347650091957548
11.852467775344849,0.01082740576158239,-0.40540134543972667,0.18234906897094208,0.08925575972074355,0.07471688939565385,1.0280983658666052
