liuyurong129/humanoid-gym/humanoid/data/robot1_actual_20250621-214834.csv
timestamp,joint_1,joint_2,joint_3,joint_4,joint_5,joint_6
0.0003218650817871094,0.0,0.0,0.0,0.0,0.0,0.0
0.02041792869567871,0.0,0.0,0.0,0.0,0.0,0.0
0.04044508934020996,0.0,0.0,0.0,0.0,0.0,0.0
0.06076836585998535,0.0,0.0,0.0,0.0,0.0,0.0
0.08098554611206055,0.0,0.0,0.0,0.0,0.0,0.0
0.10096406936645508,0.0,0.0,0.0,0.0,0.0,0.0
0.12101912498474121,0.0066665990695810775,-0.006666667226580035,0.006666675417978,0.006666666666666667,0.006666668900251728,0.006666458497888682
0.14110040664672852,0.013333265726479847,-0.01333332936534811,0.013333343022025509,0.01333333938061716,0.013333333721195242,0.013333132737598887
0.1612098217010498,0.016666599062844286,-0.01666665796209621,0.01666667635535884,0.016666684600760262,0.0166666675503697,0.016666463510741556
0.18127727508544922,0.023333265802361357,-0.02333331965209496,0.023333344028163824,0.023333369098975522,0.023333336784020504,0.023333140876545002
0.20133209228515625,0.029999932650366073,-0.0299999810802963,0.0300000117830829,0.030000059624950563,0.030000008223638755,0.02999982261057499
0.22183585166931152,0.03666659960561639,-0.03666664222649577,0.036666679633160046,0.03666675623283885,0.03666668185972556,0.036666508629287976
0.24193334579467773,0.03999993346261705,-0.039999975513103234,0.040000014257465785,0.04000008956617218,0.04000001475672305,0.03999987450050653
0.26204586029052734,0.04666660066269706,-0.046666636341789844,0.04666668233403653,0.046666792273329954,0.046666690459903785,0.046666570660631866
0.28212857246398926,0.05333326795538648,-0.05333329685826554,0.053333350539406174,0.053333501051104064,0.05333336822725121,0.053333270750478695
0.3023233413696289,0.05999993532764506,-0.05999995705796215,0.060000018881389,0.060000215814323535,0.060000047920890864,0.059999974498560836
0.32234740257263184,0.06333326838832154,-0.06333328374898935,0.06333335221472233,0.06333360307616485,0.06333339679663075,0.06333329244310472
0.34243059158325195,0.06999993576853798,-0.06999994336029773,0.07000002069843993,0.07000032926841436,0.07000007975954767,0.06999999716343099
0.3625023365020752,0.07666660318579999,-0.07666660269255662,0.07666668932558543,0.07666706072717329,0.07666676381372028,0.0766667047550903
0.3825829029083252,0.08333331246410315,-0.08333326446081016,0.08060882253855245,0.08333372739383994,0.0833334151955665,0.08333441689851956
0.4027113914489746,0.08666664523646853,-0.08666658903923279,0.0811567143804709,0.08666715165535442,0.08666678023634057,0.08666772265901151
0.4228789806365967,0.0933333208815272,-0.09333324911807381,0.0744900527378923,0.09333387381651595,0.09333344707868386,0.09333455521083411
0.44292521476745605,0.09999998716587825,-0.09999991086649646,0.06782338759183262,0.10000059266639066,0.10000011081191433,0.10000125595411556
0.4632837772369385,0.10666665308994323,-0.10666657337376989,0.06115672223770723,0.10666730713603444,0.10666676848501665,0.10666795419517668
0.4834563732147217,0.10999998345618399,-0.10999993625982717,0.057823374506686384,0.11000085383154888,0.11000065615187181,0.11000107466457447
0.5035154819488525,0.11666669318839966,-0.11666664759707049,0.05115666615964822,0.11666796023536496,0.11666789638810743,0.11666758487945808
0.5235490798950195,0.12333886192669656,-0.12318516707168835,0.04456442639572984,0.12261025783306546,0.1230324076049826,0.12402208614003385
0.543649435043335,0.1266922400363597,-0.12593715490116514,0.041520609097678324,0.12322829163053266,0.12481089274805048,0.12994791297484665
0.5637586116790771,0.13345423756655866,-0.13151857734296798,0.035105561474293945,0.12680461625069506,0.12946299263714428,0.1395841020179375
0.5838370323181152,0.14014829477680713,-0.13676674189516044,0.029090607496306264,0.1276196144881721,0.13439379894488795,0.14842619339966356
0.6039066314697266,0.14682096773434375,-0.14186349974580184,0.023040165076121038,0.12906375034711173,0.14065525416277008,0.1471827078107881
0.6239876747131348,0.1501457909384381,-0.14437792694727672,0.019985677647617855,0.13006471008840353,0.14470086361933004,0.141349802662677
0.6443674564361572,0.15032894516789552,-0.14900027054098924,0.01397302338228731,0.1315557312978295,0.15463126165789248,0.11303187274284374
0.6643085479736328,0.14603518346312805,-0.15331183806188695,0.008015399484416205,0.13309688670166708,0.16640949576873018,0.07560883814139197
0.6843490600585938,0.1447096460707927,-0.1554842447467263,0.005014054395484995,0.1341820122497441,0.1728068782475373,0.05730748015242439
0.704456090927124,0.13789407572907264,-0.15968508559810124,-0.0009856190589244826,0.13655533284480986,0.18696550827264877,0.01548081143680784
0.7245559692382812,0.13104915077517382,-0.16389037289140396,-0.007037017249159697,0.1396494560153432,0.2020985821497521,-0.027176797073362183
0.7446014881134033,0.12436321514151703,-0.1684690273994724,-0.0015286148762499161,0.1411821871985233,0.22479002709606347,-0.05008823027517796
0.7646994590759277,0.12104802520051662,-0.17123182064922063,-0.00517572706711311,0.14320469292548954,0.23122546393681023,-0.04579469220980241
0.7849102020263672,0.1208048216449625,-0.1756049002602218,-0.011390803187764729,0.14826247814658033,0.24792456510761557,-0.08188115680905585
0.804908275604248,0.12054286827209389,-0.1801433839073313,-0.017684068891132262,0.15344415420901858,0.26573760498125754,-0.11432401595752074
0.8255653381347656,0.11704896782274618,-0.18233365997096593,-0.02084484094995195,0.15610048112290295,0.2759472068675122,-0.13500742113875902
0.8456840515136719,0.11026487403926047,-0.18733246913053578,-0.01607320036390431,0.15389088643951349,0.3050947296044197,-0.14473419368769413
0.8657488822937012,0.10342996434698792,-0.1926526079605963,-0.02309534558190613,0.15749372018007718,0.32292581779896457,-0.14415952363159573
0.8859391212463379,0.09664792232823845,-0.19820389462057839,-0.018056459212178293,0.15507770183362227,0.34778736747045114,-0.1414396042154961
0.906029224395752,0.0931687829715713,-0.20073709689874802,-0.021291296328988105,0.1581696452939676,0.35708198549849524,-0.1382001227387294
0.9261233806610107,0.08635676946617782,-0.20652162979733826,-0.022354980537191295,0.1559778605566367,0.38019778515402775,-0.1251472922830594
0.9461827278137207,0.0794687772720764,-0.21221929972183484,-0.02323981588858182,0.15324790476141817,0.4064097853008584,-0.11181834255776542
0.9662940502166748,0.07595265613799217,-0.21481915465109297,-0.02653214171549561,0.1559897753097352,0.41791242062196055,-0.10847552680728334
0.9866464138031006,0.0688802864038712,-0.22007182402202508,-0.02072604875027294,0.1536131492867064,0.4480134519925306,-0.09580214758908058
1.006563425064087,0.06177534998665442,-0.22532915946002716,-0.02776900695945884,0.15704514635635444,0.4726839315438069,-0.08765840595084634
1.0266544818878174,0.05818726820900729,-0.22796459551386325,-0.024895090042130422,0.15599133562652245,0.48768828529678065,-0.08152189818694175
1.0467479228973389,0.05100497253415943,-0.23339859887882938,-0.019219833962065568,0.15269767791413683,0.5176542255024882,-0.06833362492926945
1.0668511390686035,0.043801350633202764,-0.2390599658316232,-0.013875742040032425,0.1461197255506774,0.5399019684102943,-0.05249046152099718
1.0873873233795166,0.036516123346851476,-0.2446862086994229,-0.008735944161834173,0.13832214416931318,0.5549926650664473,-0.03568251037277886
1.1075294017791748,0.03283895026075298,-0.24745260163780816,-0.0061398921050087474,0.1346280986211388,0.5632907084989865,-0.02750192805793047
1.127683401107788,0.02543236119731333,-0.2529356586124983,-0.0008411612435795762,0.1279341748688713,0.581032269922498,-0.011797685412384186
1.1476898193359375,0.0179479193253462,-0.25834787299596584,0.004567755717033661,0.1219344412702054,0.6007262237603049,0.0031840752107459725
1.1678688526153564,0.014171585190353076,-0.26101936106249674,0.00730386388479491,0.11930416841345191,0.6111471937175963,0.010321942156793107
1.1879024505615234,0.0065112429537220575,-0.26622395950553723,0.0127804596769218,0.11503372772957599,0.6330316496560598,0.023687083129073014
1.2079699039459229,0.0026252306482048376,-0.26875710509974954,0.015524746735942924,0.1134196929238721,0.6446542926278643,0.029884286031442976
1.228379726409912,-0.0012818514075118776,-0.2712763351560641,0.018301222805695367,0.11211758963850896,0.6568677917964979,0.035782117568395916
1.2484087944030762,-0.008963486635712548,-0.2771926930243403,0.023130753525816117,0.09492080306139127,0.6776182927571447,0.059183249093671945
1.2683913707733154,-0.012829481273429047,-0.2801970071218144,0.02554471480925147,0.0854116907883962,0.688646471661702,0.07150916931146749
1.2884571552276611,-0.02055647135762593,-0.2864019447585696,0.030403043266892957,0.06404228553489982,0.7129288039340436,0.08442968328971856
1.308565378189087,-0.028483602732687876,-0.2918874688290469,0.03593666832780694,0.056251509338897276,0.7434237756418213,0.08634232274179937
1.3286714553833008,-0.03248175970861252,-0.29465447485051566,0.03870541425696266,0.05187752664048347,0.7599725236335929,0.08751308796142597
1.3488109111785889,-0.04049489235857234,-0.30052867813033957,0.04388709144118762,0.03788566375516915,0.7932566195497888,0.09356493100367191
1.368833303451538,-0.048480125406585375,-0.3065861308345776,0.0492394510061318,0.02399486450876016,0.8270356883041792,0.09924232708885831
1.3891887664794922,-0.05248591792894048,-0.3096681553398221,0.05194992136955536,0.016685429946337132,0.8449404309777446,0.10216458674464693
1.409294843673706,-0.06054157046751706,-0.31593450288701214,0.0574236139380396,0.0009823419364785504,0.8834686324152798,0.10832521618315095
1.4294309616088867,-0.06858326701105143,-0.32235901606846235,0.0630309879351599,-0.015080333871058494,0.9241974009509291,0.11415043995723193
1.449462652206421,-0.07646615333112064,-0.3289182576766253,0.06887766047477267,-0.028587391747827255,0.9625768323155293,0.11793712841611206
1.4695749282836914,-0.08038531070613195,-0.3322062004404396,0.07187341332237025,-0.03435478856370099,0.9819774487317519,0.11901195805414796
1.4896447658538818,-0.08807172665278377,-0.33913291705437376,0.07780870904718627,-0.05022572742965519,1.0184650615046458,0.12365533260851778
1.5097215175628662,-0.09557839125316672,-0.34616345747366023,0.08388068734213297,-0.06432831720965305,1.0517938359453392,0.12689207818684264
1.5298523902893066,-0.09928733057846834,-0.3496987634308523,0.08695693297759892,-0.07071367896921499,1.0682618463944504,0.12794984898204395
1.5499417781829834,-0.10671479283965683,-0.35680756196490865,0.09307379316658934,-0.08471721794441169,1.096328941904914,0.1306531575881158
1.570009708404541,-0.11405937282963033,-0.3639002833782442,0.09928893808587513,-0.09649148146015354,1.1221584055392702,0.13186174025564662
1.590101718902588,-0.12129993445484374,-0.3708892741408244,0.10564321613813658,-0.10379198011255905,1.1448083702514313,0.13059283930746868
1.6101672649383545,-0.12487115979376925,-0.37424291384648223,0.10893369349025392,-0.10310398300651648,1.1541120488077472,0.12780833022570928
1.6303093433380127,-0.13200182202892802,-0.38095043287115404,0.11552445899870978,-0.10130859410883752,1.1727895170191542,0.12195499628310433
1.6503682136535645,-0.13908811828236453,-0.3876621856643373,0.12213025590455716,-0.09880287890363322,1.1906358863314064,0.1157219379298214
1.6707656383514404,-0.1426216198980722,-0.39101334329965337,0.1254408876112753,-0.09721342501592584,1.1994128960008557,0.1124294461808508
1.6908934116363525,-0.1494931386870796,-0.38433365259720537,0.13209739682072358,-0.10463699311046562,1.2043804119189454,0.11870031887991125
1.7109954357147217,-0.15626022578371482,-0.3774364953275588,0.12557533592144296,-0.10515430432884158,1.207807596015014,0.12192287577745639
1.7310423851013184,-0.15644771576151997,-0.3707650415616432,0.11891148468805825,-0.11170203751984364,1.2013282894705148,0.12852365693967696
1.751159429550171,-0.15478885475090487,-0.36743171137960007,0.11610121699909398,-0.11503537085317697,1.1979949537260663,0.1318568147558944
1.771235704421997,-0.15662921403509722,-0.3607650484548548,0.11522695868273927,-0.12170205872788828,1.1913283240404193,0.1385234981995729
1.7913098335266113,-0.16329588062250777,-0.3540983740093681,0.1133830886020064,-0.12836813987869714,1.1846638492504789,0.14518966254953444
1.8115370273590088,-0.16996255580376818,-0.34743165986676483,0.10671644493745593,-0.13503341608584235,1.177999356649457,0.1518554193990456
1.8317196369171143,-0.17329589391007963,-0.3440983016125658,0.10338312394811848,-0.13836602095776795,1.1746671569178793,0.15518827544356859
1.851768970489502,-0.16677909151004242,-0.33743164303660256,0.11004971409376121,-0.1450327041093406,1.168000484800326,0.1618545073108511
1.8718721866607666,-0.17344575827260758,-0.33076496402678907,0.10338304742709456,-0.15169913332662963,1.1613337813032476,0.16852103204931482
1.8921239376068115,-0.18011242477979797,-0.3240983134989599,0.11004971409376123,-0.15836611372266726,1.1546671644986437,0.17518788760339243
1.9122166633605957,-0.18344575825013631,-0.32076496590544784,0.1067163807604279,-0.1616991741599189,1.1513337868757991,0.1785210555688307
1.9323620796203613,-0.19011237593260047,-0.31409837077079705,0.10671634553143779,-0.1683669216819186,1.1446661393359099,0.1851883225677008
1.9524104595184326,-0.19677905548502614,-0.3074317211605417,0.10671636517783717,-0.1750332176010709,1.1380001209923118,0.19185477309916893
1.9725170135498047,-0.20011239185247895,-0.3040983694965189,0.10338303980864871,-0.17836595934732316,1.1346676332028922,0.19518770943354688
1.9926033020019531,-0.20677905832545523,-0.29743171930618,0.11004970647531537,-0.18503294264671336,1.128001021459723,0.20185457178572308
2.0127272605895996,-0.2134457152089261,-0.2907650470740603,0.1033830399325089,-0.19169879972666998,1.1213361585916182,0.20852061428277066
2.032806634902954,-0.22011238168691447,-0.2840983970443117,0.11004970659917557,-0.19836578424178605,1.1146695497137,0.21518747978169714
2.0528523921966553,-0.22677904099078286,-0.27743172202728417,0.10338303539437402,-0.20503193502938222,1.1080036352616067,0.2218537546552389
2.073040246963501,-0.23011237416190408,-0.2740984046449146,0.10671636872770734,-0.2083655714115128,1.104670359726772,0.22518727973554264
2.093158483505249,-0.23677904505417507,-0.2674317145924117,0.10671637989812861,-0.21503154230146418,1.0980046066184421,0.23185347630562883
2.1132009029388428,-0.2434456569681434,-0.26076507473337807,0.10671631627926062,-0.2216986160068909,1.0913383070942295,0.23852015901880375
2.133578062057495,-0.24677899029566278,-0.2574317422099373,0.11004964961259395,-0.22503196451598775,1.0880049768371116,0.24185350208626008
2.1536974906921387,-0.2534456570472268,-0.2507650612267128,0.1033829829459273,-0.2316983650882257,1.081338255420991,0.24851999769883512
2.173771858215332,-0.2601123202907153,-0.24409840145104958,0.11004956983053744,-0.23836504677497242,1.0746715756495797,0.2551861248891215
2.1938529014587402,-0.2667789837501512,-0.23743172007188637,0.1033829143972847,-0.245030753086414,1.0680067569105771,0.2618521082507847
2.213970899581909,-0.2701123106540171,-0.23874036570278998,0.10671624883670197,-0.2483639066151937,1.0646725732051974,0.265185412417735
2.234039306640625,-0.27677896552232656,-0.23992487735909235,0.1133829050976638,-0.25503057523088746,1.0580060760250947,0.2718520444696505
2.2541654109954834,-0.28344568337689907,-0.24326428296119482,0.12004962631078268,-0.26169719636739625,1.0513390241306062,0.2718522399178926
2.2744836807250977,-0.28677908693153326,-0.24659765110745976,0.12338299793650785,-0.2650305999310852,1.048005018320291,0.26851901611159856
2.2945330142974854,-0.2934458118879709,-0.253264346862928,0.13004968453917734,-0.26907067570687127,1.04133828203212,0.2751856288968383
2.314592123031616,-0.30011248148045233,-0.2599310156966623,0.1367163456876811,-0.26240400674128295,1.0346715986001254,0.28185224430763983
2.3346924781799316,-0.3067791271128767,-0.2665976740269729,0.14338301544659826,-0.25573723968692835,1.0280053309358326,0.28851891490521825
2.3549671173095703,-0.303445793806791,-0.2699310074733449,0.146716347493515,-0.252403906353595,1.024671997310942,0.2918522385875314
2.374957799911499,-0.29677912728291506,-0.2765976808098417,0.15338301416018166,-0.2457373545655381,1.0180053593035896,0.2985189823647408
2.395305633544922,-0.29011246069607727,-0.2832643513190672,0.1600496808268483,-0.2390707540221919,1.0180053742590476,0.30518569388174105
2.4152109622955322,-0.29011246097951415,-0.28993102769831275,0.16671634749351497,-0.23240425168029535,1.0246720829477822,0.31185247066285193
2.4356250762939453,-0.29344579440986346,-0.2932643647507279,0.1700496808268483,-0.22907098106544188,1.0280054313070546,0.3151858460636615
2.4557182788848877,-0.30011246514396284,-0.2999310296738926,0.16338311360491886,-0.22240438077050642,1.034672130075842,0.3218532781862045
2.4757895469665527,-0.3067791324414886,-0.306597723337014,0.17004978027158552,-0.21573817336659815,1.0413389029866944,0.32852025070198426
2.4959452152252197,-0.31344579928213645,-0.31326439767216013,0.17671644693825217,-0.20907163586237537,1.0480055986495762,0.33518700294609655
2.516293525695801,-0.31677914100666577,-0.31659768519658466,0.17338313382679008,-0.20573733644575676,1.0513397221761875,0.3385196952677371
2.536162853240967,-0.3236642140431182,-0.32304214027907296,0.1734552302481626,-0.19794165171424244,1.061336997100772,0.34436344788980633
2.5562713146209717,-0.3308678842436326,-0.32917139013479985,0.18029447283817082,-0.18842621666683873,1.0693474420408795,0.34898724224301875
2.5764052867889404,-0.3345209919932394,-0.33218465756897486,0.183728450796484,-0.18334166603551824,1.0705893369002435,0.35108553924166824
2.596468687057495,-0.3421615684383542,-0.33789206498568125,0.17735235604098706,-0.17150297578314416,1.0772584076039695,0.354114157189366
2.61655592918396,-0.34963716122659133,-0.34380842418593777,0.18423096550149856,-0.16117238424116195,1.081255915894814,0.3581370610209201
2.636627197265625,-0.357175589054214,-0.34965800849894707,0.19112105278092972,-0.15027287401564923,1.0852069380853209,0.36185184307651813
2.657167434692383,-0.36489557235784087,-0.3553260476587727,0.19805231002807386,-0.13805964220915914,1.0904973291248168,0.36477241457198256
2.6775622367858887,-0.36879391278446505,-0.35812094269574735,0.20152584343805502,-0.13156370570885778,1.093397354897883,0.36600611328769245
2.6974680423736572,-0.37667819655086704,-0.3636185182492844,0.2067958569257428,-0.11752337071720069,1.099957704322297,0.3678774745086485
2.717534065246582,-0.3846455819227208,-0.3690452637868923,0.21189137084996362,-0.1025667328174309,1.1072222260781655,0.3692424852913015
2.7376065254211426,-0.3886344952551831,-0.3717537506203968,0.21537279945055207,-0.094845274715221,1.1107852646038017,0.3698117942068466
2.757707357406616,-0.3966516149364246,-0.37712334347622606,0.22233906235609618,-0.07847331354246574,1.1181422660962335,0.35714423675425816
2.7777721881866455,-0.4047126048160448,-0.3824353560134613,0.2293073943788043,-0.06080895847190539,1.1257493882529803,0.3438370091737152
2.797863006591797,-0.4087559907415268,-0.3850721531817655,0.23279136976667192,-0.051476806496506655,1.129623958244551,0.3369430781811864
2.8179330825805664,-0.416847956807914,-0.3903255745684808,0.23975419132263284,-0.0319140706602533,1.1373406477232815,0.32275025364169657
2.8380320072174072,-0.4248905486472851,-0.39561460519113095,0.24669548879180622,-0.011589744834619232,1.1455967311328434,0.30821037426828085
2.8580939769744873,-0.4289006324366316,-0.3982578688616515,0.2501631840332793,-0.0009838491558366962,1.149711508578498,0.30075164543171445
2.8784279823303223,-0.42363793659824406,-0.4034625232952686,0.25710893990383976,0.02210333313169839,1.1592185967776427,0.2848991643080659
2.8985395431518555,-0.4182656372484117,-0.4087393213470852,0.26403546242804876,0.04594008285500689,1.1696912063096976,0.26876000317098536
2.918510675430298,-0.41273818534413936,-0.40083899595865885,0.25760268082393273,0.06860422462970385,1.1803328455631996,0.2533292289550657
2.9386026859283447,-0.4095230257794257,-0.39739527204754765,0.2542937529835901,0.07306572962390356,1.178838940551634,0.24934347636498674
2.9587020874023438,-0.4030406247637347,-0.3905398842242993,0.24766221301528632,0.07541123326880154,1.1753902332700361,0.2413569613852543
2.9788243770599365,-0.3965111674549336,-0.3837198150212528,0.24102018751095033,0.070946597390977,1.1713969495330128,0.23346943867218295
2.9988391399383545,-0.3932184491838159,-0.3803408505029078,0.23769430627980032,0.0682717467199695,1.1688774729518578,0.22976832648303294
3.018949270248413,-0.3865801593675723,-0.3736429246786372,0.23103268621981918,0.06205451910761696,1.1627911514117928,0.2361815860933677
3.039034128189087,-0.3799134927345454,-0.3669762635336292,0.2243660136892787,0.05538777514932695,1.1561244880926578,0.24284826602127174
3.059115171432495,-0.3732468261027084,-0.36030960238407944,0.2176993408639268,0.048721031674735786,1.1494578248174891,0.24951494314656497
3.079228639602661,-0.3699134931653248,-0.3569762735075238,0.21436600753059348,0.045387622506253424,1.146124493716512,0.2528483234556518
3.0993216037750244,-0.36324682570510686,-0.35030961437716673,0.20769932066968255,0.03872088048393798,1.1394578330922813,0.2595149131553185
3.119678497314453,-0.35658015680294164,-0.34364295389451244,0.20103261411570209,0.03205421381727131,1.1327911738197232,0.26618133220078166
3.1395151615142822,-0.3499134880382121,-0.336976293300823,0.19436590822408886,0.025387547150604643,1.1261245142801874,0.27284775129094696
3.1607584953308105,-0.34658015141886506,-0.33364297016475963,0.19103250935732566,0.02205421381727131,1.1227911926514553,0.2761806657549982
3.1808505058288574,-0.3399134784513208,-0.32697632362558793,0.18436571309069918,0.015387547150604641,1.116124548681822,0.2828464939406625
3.201153516769409,-0.333246827585045,-0.3203096090773838,0.17769899981343673,0.008721980430204786,1.1094586443751617,0.2895120610825598
3.221099615097046,-0.3265802091801212,-0.31364283227092615,0.1710323584153498,0.002057158148904239,1.1027933606916687,0.296177546079736
3.2413384914398193,-0.31991358799567055,-0.306976067695925,0.16436571318125132,-0.0046079265417967325,1.0961279043764809,0.3028431840180906
3.2614314556121826,-0.3165802769599829,-0.30364268711554315,0.16103239015158133,-0.007940506603595788,1.0927951513406176,0.306176023558006
3.281501531600952,-0.30991368301342087,-0.29697586871414816,0.15436575650587253,-0.01460478651020066,1.0861303414254413,0.3128411129397988
3.301945447921753,-0.3035460162676954,-0.29030907542843004,0.1476991179374814,-0.021269475232982945,1.0794652125481279,0.3195064626249516
3.3220458030700684,-0.300815085552887,-0.286975685154806,0.14436579794601248,-0.024601908763928662,1.0761325655802574,0.3228391960690858
3.3421218395233154,-0.30748178939867865,-0.2803088993239838,0.1376991717901342,-0.03126624092337231,1.0694677113023452,0.329504333977398
3.3622007369995117,-0.31414849591083216,-0.2736421201746803,0.13103254115093624,-0.03793085872693719,1.062802519624304,0.33616965282883343
3.382340669631958,-0.32081519938255293,-0.266975353454091,0.12436590609626212,-0.044595764624958435,1.0561370622597688,0.34283515538407366
3.402395725250244,-0.3241485285093392,-0.26364203397409297,0.12769914509044547,-0.04792909795829177,1.0528037383858884,0.34616778130060927
3.4224703311920166,-0.33081519613467275,-0.2569753634322725,0.12769917334956715,-0.05459576462495844,1.0461370689430531,0.35283466289625287
3.4425535202026367,-0.33748185874265324,-0.2536328424094262,0.12769905675428603,-0.061262431291625105,1.0394704128762158,0.35283377190646875
3.462977170944214,-0.34081519030813484,-0.25362456562480823,0.1310323331762705,-0.06459576462495843,1.0361370843790643,0.349500000462975
3.483105182647705,-0.34748186194484215,-0.24695783446020522,0.12800324712111952,-0.07126096624054956,1.0294712880483838,0.34283234286544195
3.5036511421203613,-0.3541482621063618,-0.25360894947425,0.13468190130565336,-0.07751373947909407,1.0230047321908087,0.33591084991117287
3.523373603820801,-0.3600565381995844,-0.2602755573245627,0.14134860231125582,-0.08418017015476824,1.0163389889159353,0.32924450288666024
3.5442116260528564,-0.36672320228225536,-0.26694223477475204,0.14801518590274113,-0.07751350348810158,1.0096723267485497,0.322577176698676
3.5642945766448975,-0.36338986904111487,-0.2702755684655122,0.15134851715252823,-0.07418017015476826,1.006338993546139,0.3259104930989413
3.584376811981201,-0.3567232051417587,-0.2769422524833326,0.15801507689746,-0.0675135034881016,1.0063390011751776,0.33257628861442146
3.6044299602508545,-0.3500565352444259,-0.28360889423367674,0.16346624409308663,-0.06084622933997937,1.0130056185405276,0.33924206818011704
3.624528646469116,-0.34672320146476115,-0.2869422306436912,0.16537232496192672,-0.05751289600664604,1.0163389538618024,0.342575226353788
3.644615650177002,-0.34005653530312113,-0.2936088958559386,0.15870567130121768,-0.05084622933997937,1.0230056193383037,0.34924199621521684
3.66500186920166,-0.34672320086206515,-0.3002755936302785,0.16537227759994258,-0.04417998805775488,1.029672326485678,0.35590848636317823
3.6848666667938232,-0.3533898630362409,-0.3069422773980713,0.17203882176855795,-0.03751332139108821,1.0363390062914482,0.3625742137031313
3.7049522399902344,-0.35672320032918214,-0.31027559703761365,0.16870558743098824,-0.03417998805775488,1.0396723283204863,0.3659082974750835
3.7250547409057617,-0.3633898656821549,-0.31694229554303643,0.1687055220107938,-0.02751373934209217,1.0463390313720802,0.37257475186838973
3.7451295852661133,-0.37005652658606136,-0.32360898017695267,0.1753720635184477,-0.0208470726754255,1.053005713071917,0.37924048607226646
3.7652010917663574,-0.3733898569938632,-0.32694232266341683,0.17870533339583536,-0.017513739342092167,1.0563390544105604,0.3825733518018342
3.785290479660034,-0.38005651872379764,-0.33360897771140774,0.17203859976654343,-0.010846685717969382,1.0619899482397854,0.3892392714761186
3.8056840896606445,-0.3867231866833919,-0.34027566744995136,0.17870526478844212,-0.004180440340470295,1.0686566405514386,0.39590620708746277
3.8255674839019775,-0.3939220245106072,-0.3464250163189552,0.18366356670370218,0.006922416488344653,1.076388654654545,0.3994919234317152
3.8456385135650635,-0.39766969720744777,-0.349360554044972,0.1803807792685247,0.013708682930464136,1.0809562053877884,0.40044949523662576
3.865722179412842,-0.3979195879111488,-0.35562881120400297,0.18052017594281924,0.02686590655598076,1.0815869078534028,0.40308717231835806
3.886080265045166,-0.39825054941900123,-0.3619841145085067,0.1805523104748978,0.0364162849913223,1.0815205285144802,0.40775451306319266
3.906158685684204,-0.4016376399333571,-0.3652039646730274,0.1772679110651192,0.041997133879881035,1.0805466165417146,0.4096973207325608
3.9262378215789795,-0.4083042919519262,-0.3718706574171323,0.18393441540143718,0.0486638005465477,1.0738799775916414,0.4163628365971259
3.9463841915130615,-0.4149709473897384,-0.3785373458378424,0.19060095065440602,0.05533046721321437,1.0672133342886563,0.4230285607563269
3.9664225578308105,-0.4144067481934185,-0.3852040023562061,0.18393421499449314,0.06199753153708856,1.0689521512091378,0.4296944640049261
3.986534357070923,-0.4177400836383801,-0.3885373592027384,0.18726754832782647,0.06533042855136678,1.0656188284056598,0.43302808744322496
4.006645441055298,-0.4244068149211227,-0.39520402055313497,0.18726751676514986,0.07199808120745302,1.0589527552957725,0.43969365141213657
4.026716947555542,-0.42440682783700556,-0.401870666358284,0.18726753168828114,0.0786652782684593,1.0558742252417064,0.4463599409637018
4.046949863433838,-0.42107348717316073,-0.40520401127412786,0.19060079874150754,0.08199861160179263,1.0561025592772677,0.449692781792447
4.067058563232422,-0.4277401568939359,-0.4118706735943895,0.1839341588999199,0.08866527826845928,1.0494358875427843,0.4563596427072332
4.087129354476929,-0.43440681748260374,-0.4185373750483725,0.1906007586575812,0.09533151382471813,1.0427692406129487,0.46302609254003313
4.107235431671143,-0.4389410476190439,-0.4252040663678591,0.19726730481397964,0.10199818049138479,1.0361025965700985,0.46969183443433615
4.127588748931885,-0.43227437029820187,-0.43187072294702966,0.1906005704158535,0.10866527140208444,1.0294359355228897,0.47635768627897046
4.147541522979736,-0.42894103944737677,-0.43520407965076197,0.19393390374918681,0.11199816318535552,1.0261026061671883,0.479691321603768
4.16761326789856,-0.4289410436027972,-0.44187074182928116,0.19393392927345368,0.11866482985202217,1.0194359345358928,0.48635819233424715
4.187697887420654,-0.43560770359632384,-0.4485374450380214,0.19393386037013585,0.125331053050035,1.0127692828146349,0.4930246149952696
4.208007097244263,-0.4422743500217318,-0.4552041378475549,0.20060039058005855,0.13199771971670166,1.0061026417433674,0.4996901759168215
4.2279016971588135,-0.4456076732118181,-0.45853748452180304,0.20393365499116028,0.13533105305003498,1.0027693214649427,0.5030229467945734
4.248091220855713,-0.4479606668098352,-0.46520418102898964,0.2106002166226069,0.14199771971670164,0.996102674794639,0.5096887430125088
4.268140554428101,-0.4412939974698154,-0.4718708244807914,0.20393354995594024,0.14866482012563015,0.9894360063627516,0.5163551071303706
4.288214206695557,-0.4346273350642879,-0.4785375302990901,0.2106002166226069,0.1553307458435993,0.9827693254306066,0.5230222952444766
4.308314323425293,-0.43796066564168473,-0.4818708675322463,0.21393355325702995,0.15866414149407657,0.9794372787348113,0.5263554768916617
4.328410625457764,-0.44462734782856633,-0.4885375503657889,0.2206002105508563,0.16533037979570184,0.9727721731569033,0.5330222861444384
4.348502159118652,-0.45129410891159527,-0.49520400500505035,0.22105857546875424,0.172001216871823,0.9661131490659218,0.5396856965105865
4.3685972690582275,-0.4512941106732464,-0.5018706440049774,0.2218042829051164,0.17866885445591138,0.9594478401666122,0.5463508305378886
4.389657735824585,-0.44796077889060976,-0.5052039929869815,0.22513761623844972,0.18200189594226338,0.9561144881186091,0.5496843739100572
4.409941911697388,-0.4546274184340633,-0.4985373619304003,0.2318041144214555,0.17533522927559672,0.9494478523667074,0.5563495463576497
4.4299092292785645,-0.4479607394728811,-0.49187068517673815,0.22513737561979758,0.16866904040532996,0.9427812004135838,0.5630152243776455
4.450025320053101,-0.4412940547965527,-0.4852040492858109,0.21847056706571283,0.1620023737386633,0.9361145615323329,0.5696806050970199
4.470064401626587,-0.4379607128007112,-0.48187073105217204,0.21513716401085986,0.15866904040532998,0.9327812420041095,0.5730132999348635
4.490152359008789,-0.43129402943478984,-0.4752040940012018,0.20847036032270325,0.15200237373866332,0.9261146027230116,0.5796786987878186
4.510221719741821,-0.42462734682909065,-0.46853745616395526,0.2018035598338695,0.14533570707199667,0.9194479630782251,0.5863441101774821
4.530290842056274,-0.4179606648999275,-0.4618708175329237,0.19513676251005627,0.13866904040533,0.9127813229951393,0.5930095344693427
4.550691843032837,-0.4146273241645346,-0.45853749791804765,0.1918033650245528,0.13533570707199669,0.9094480027667228,0.5963422515688465
4.570802688598633,-0.40796064310635305,-0.4518708580874853,0.18513657238572537,0.12866904040533003,0.9027813618928646,0.6030076959063261
4.590903043746948,-0.4012939625415567,-0.4452042174547437,0.17846978282922682,0.12200237373866338,0.8961147204077676,0.609673154069651
4.6109678745269775,-0.3946272824070825,-0.43853757602047516,0.1718029963224697,0.11533570707199672,0.889448078248377,0.6163386264256567
4.63102650642395,-0.3879606026454996,-0.4318709337875109,0.16513621283277094,0.10866904040533007,0.8827814353554888,0.623004113335982
4.6511452198028564,-0.3879606026454996,-0.4318709337875109,0.16513621283277094,0.10866904040533007,0.8827814353554888,0.623004113335982
4.671369552612305,-0.3879606026454996,-0.4318709337875109,0.16513621283277094,0.10866904040533007,0.8827814353554888,0.623004113335982
4.69150972366333,-0.38129392320484057,-0.4252042907607676,0.15846943232713373,0.10200237373866342,0.8761147916739548,0.6296696151546924
4.711821794509888,-0.3746272502566161,-0.4185376356186289,0.15180270984876698,0.09533570707199676,0.8694481361881898,0.6363357050878022
4.731769800186157,-0.3679605774314467,-0.41187097996504496,0.1451359891867185,0.08866904040533011,0.8627814801113177,0.6430018028292837
4.752149343490601,-0.3646272318060006,-0.40853766288818394,0.14846923739347287,0.08533570707199678,0.8594481633356057,0.6463342342220054
4.772002696990967,-0.3646272336133785,-0.40187099372828916,0.1484692516689366,0.07866904040533013,0.8527814936927501,0.6530010546692095
4.7921226024627686,-0.371293890461783,-0.395204347795133,0.14180248240202048,0.07200237373866347,0.8461148471277825,0.6596666158362496
4.82249641418457,-0.37462722379481384,-0.39187101446223793,0.13846914906635174,0.06866904040533015,0.8427815137948985,0.6629999491442095
4.8498077392578125,-0.37462722379481384,-0.39187101446223793,0.13846914906635174,0.06866904040533015,0.8427815137948985,0.6629999491442095
4.870030879974365,-0.37462722379481384,-0.39187101446223793,0.13846914906635174,0.06866904040533015,0.8427815137948985,0.6629999491442095
4.8901097774505615,-0.3731152915345049,-0.3852043552740657,0.14461112465322787,0.062002218885700254,0.8361148321519443,0.6696667347646963
4.910448312759399,-0.3797819605725675,-0.37853768581255326,0.13794447405928373,0.055335552219033586,0.8294481622415422,0.6763335745014804
4.930411100387573,-0.3864486109774929,-0.3718710472782174,0.13483245371684133,0.04866888555236692,0.8227815235204035,0.6829985601564269
4.950520753860474,-0.38311527295998243,-0.36853772384825917,0.13816573545534686,0.045335552219033584,0.8194481996060495,0.6863313115548211
4.970582008361816,-0.3831152744499583,-0.36187105468080716,0.13816575031270392,0.038668885552366916,0.8127815301474425,0.6873602116718002
4.990647554397583,-0.3893055200168655,-0.3552044099301492,0.13816562967182183,0.03200221888570025,0.8061148849992534,0.6886179474605848
5.010781764984131,-0.3952100902948569,-0.3485377404852301,0.13816565206753312,0.02533555221903358,0.7994482143325807,0.69528487164434
5.030847072601318,-0.3985434202552918,-0.34520441519349004,0.1348322745716149,0.022002218885700246,0.7961148886765096,0.6986176916374323
5.0511884689331055,-0.40521007641859186,-0.3385377694495784,0.14149882226495952,0.015335552219033578,0.7894482421636961,0.6919496331144263
5.07112193107605,-0.4118767460189904,-0.33187109902817624,0.13483217950248155,0.00866888555236691,0.7827815712442483,0.6852976082340515
5.091202735900879,-0.4167953542142326,-0.32520445202892845,0.14149873338226043,0.002002218885700243,0.7761149226095583,0.6786295972309921
5.111266851425171,-0.42346202056529875,-0.31853778022122575,0.13483206671559378,-0.004664343854019077,0.7694482501416176,0.6719628514881196
5.131357192993164,-0.42012868518945584,-0.32187112020203534,0.13816536225657688,-0.007997677187352411,0.7661149224331661,0.6686290593821467
5.151500225067139,-0.41346201877931194,-0.32853779627782337,0.1448320257267432,-0.014664525444023023,0.7594482655381212,0.6619624927724621
5.171553611755371,-0.4067953416492735,-0.3285378137609126,0.15149857850140566,-0.014664525444023021,0.7527816124703106,0.6552944369959695
5.191608905792236,-0.4067953438864865,-0.3218711689112614,0.15816524516807232,-0.007998291368304405,0.746115046659775,0.6486280919086825
5.212740898132324,-0.4101286773918428,-0.3185378382591969,0.16149857850140564,-0.004665011032182769,0.7427817159495729,0.6452947992644543
5.232833623886108,-0.41679534653875827,-0.31187116806488546,0.1548319366172862,0.0020016556344838983,0.7361150454239923,0.6386284354169173
5.252913236618042,-0.41048398554921023,-0.31853784220055953,0.1614985568907155,0.008668322301150565,0.7294483875752388,0.6319611818743683
5.272989273071289,-0.40381731941817295,-0.32520451941520995,0.16816522355738214,0.015334780332975854,0.7227817216802757,0.6252946765742086
5.293077707290649,-0.400484006580742,-0.32853786778311317,0.17149851631953578,0.01866811366630919,0.7261150636264219,0.6286274663070441
5.3131935596466064,-0.3938173416591754,-0.33520453067673833,0.17149853975020413,0.025334780332975856,0.7327817250351829,0.6352944257653469
5.333247900009155,-0.38715067071295284,-0.3418712168169604,0.17149843100254694,0.032001446999642524,0.7394484153310903,0.6419597194295927
5.353427171707153,-0.38048400213403705,-0.34853789855062167,0.1781650168766653,0.03866811366630919,0.7461151000911039,0.6486253758703698
5.373544931411743,-0.3771506680229076,-0.3518712397342271,0.18149830861782676,0.042001446999642526,0.7494484429977397,0.6519581940989135
5.393904447555542,-0.37048400176579077,-0.3585379102194134,0.17782032260369748,0.048668113666309194,0.7561151138416304,0.6586246451054548
5.413811206817627,-0.36381733178490266,-0.365204595993999,0.1844868884630001,0.05533478033297586,0.7627818043479018,0.6652900839803223
5.434081315994263,-0.35715066452158617,-0.37187127148551663,0.19115351043151166,0.062001446999642496,0.7694484818299924,0.6719562112846372
5.454136610031128,-0.35381733368818935,-0.37520459157145797,0.18782024691421248,0.06533478033297582,0.7727817978286203,0.6752903750114088
5.474360942840576,-0.3471506670215226,-0.3818712582381249,0.18782024691421106,0.07200144699964248,0.7794484644952874,0.6819570416780588
5.494297742843628,-0.34048400064597106,-0.3885379265948312,0.19448691358087772,0.0786680794920911,0.7794484818913816,0.6886237322490733
5.514388084411621,-0.3371506670663241,-0.3918712699180164,0.1978201992884522,0.08200141282542443,0.7761151606635058,0.6919565064344851
5.534491062164307,-0.330484005077761,-0.3985379341479342,0.19115355338570647,0.08866807949209109,0.7827818218854432,0.698623417339613
5.5548789501190186,-0.3238173326594635,-0.40520462666032386,0.19782009228142333,0.09533474615875774,0.7761151877256476,0.7052885856600735
5.574909925460815,-0.3304839968334855,-0.4118712977797734,0.1933134769571421,0.1020014128254244,0.7694485270527116,0.7119549687503036
5.5953450202941895,-0.3271506651986247,-0.41520464555358716,0.1966467488394568,0.10533474615875772,0.7673591845705345,0.7152875661436493
5.615196228027344,-0.32715064267942,-0.4218713209511191,0.2033133402205586,0.11200141282542438,0.7621454469658334,0.7219533320755267
5.63532567024231,-0.32715065051079995,-0.42853798423296413,0.20331336779566206,0.11866807949209103,0.7554787728761309,0.7286203335446116
5.655937194824219,-0.3238173194235947,-0.4318713293402372,0.1999799863929071,0.12200141282542436,0.7521454520615506,0.73195308169975
5.676034927368164,-0.3171506543192976,-0.43853802526592967,0.20664652902781022,0.12866807949209103,0.7495233787616427,0.7386182270092974
5.696141004562378,-0.32381732747829567,-0.4452047231213642,0.21331314833675544,0.13533430841279304,0.7428570770706432,0.7452846023110639
5.7162957191467285,-0.3171506725008853,-0.4518713975708925,0.20918107073452405,0.1420009750794597,0.7361904140620121,0.7519510761939715
5.7363927364349365,-0.313817338614129,-0.4552047447990056,0.21251434454407783,0.14533430841279302,0.732857096088736,0.7552836644355102
5.756427764892578,-0.3138173331371622,-0.46187140573831337,0.2125143610308648,0.15200097507945967,0.7261904252442615,0.761950538393834
5.776521682739258,-0.31382939337907356,-0.46853810515862243,0.21251424707073868,0.15866764174612633,0.7195237871219813,0.7686157602648398
5.796677350997925,-0.3108402277692229,-0.47187144853648344,0.2158475328866069,0.16200097507945965,0.7161904658364743,0.7719484821776674
5.816729784011841,-0.3175068543378063,-0.47853811948981645,0.2225141277629975,0.1686676417461263,0.7095238180366096,0.7786142023144972
5.8368000984191895,-0.3241735333881656,-0.48520481202324317,0.22918070384320835,0.17533430841279296,0.7028571737690453,0.7852797032218675
5.856916904449463,-0.33084021526974505,-0.4918715054374432,0.23584727961874635,0.18200097507945961,0.6961905293590959,0.7919451961759867
5.877141237258911,-0.33750688636638815,-0.4852048772472155,0.22918056846280244,0.18866730173590296,0.6895233025422147,0.7986116099059686
5.897227048873901,-0.34084021023109223,-0.4885382076531871,0.2325139017178884,0.1920006350692363,0.6861899694964596,0.7952782671824827
5.917360067367554,-0.3475068826381415,-0.49520487948204234,0.23565982563318158,0.19866730173590294,0.6795233063667966,0.7886114232173681
5.937565803527832,-0.34750689282044667,-0.4952049178373614,0.23882445377428724,0.1986669025660031,0.672856440404316,0.7842102152528745
5.957511901855469,-0.34750687841131406,-0.4885382455741337,0.23882445984189313,0.1938980459859752,0.666189772308591,0.7799160822058968
5.97763729095459,-0.3508402259594298,-0.4852049273216507,0.23549108129163138,0.19259103593445867,0.6628564508167047,0.7765821453474291
5.997720956802368,-0.357506909876072,-0.4785382753104169,0.22882437470801745,0.18592436926779202,0.6561897946677141,0.7699149428510448
6.017907381057739,-0.35084024528232705,-0.4718716289269701,0.2221576697717572,0.17925772623003997,0.6495223579539003,0.7632478173590115
6.037898302078247,-0.34417359105552575,-0.46520497691525226,0.21549095640359667,0.1725910595633733,0.6428557040174541,0.7565804980278406
6.05830454826355,-0.34084026634106196,-0.46187165439154393,0.21215758775274787,0.16925772623003998,0.6395223803663975,0.7599133325791094
6.078186988830566,-0.33417361666464124,-0.4552050085577239,0.2054908530688684,0.16259105956337333,0.6328557323907704,0.766579028397868
6.098586320877075,-0.32750696526908424,-0.4485383612663346,0.19882412197659338,0.15592439289670668,0.626189083491971,0.7732447610967892
6.118451118469238,-0.32084031222262327,-0.44187171258620034,0.1921573943544997,0.14925772623004002,0.6195224336630067,0.7799105302859384
6.138519525527954,-0.3175069851032143,-0.4385383877469319,0.1888240318065773,0.1459243928967067,0.6161891083990021,0.7832434284266061
6.158725261688232,-0.3108403297204949,-0.43187173711309285,0.18215730916027084,0.13925772623004004,0.6095224571733476,0.789909251493719
6.17886757850647,-0.3041736728800128,-0.4252050852626732,0.17549058967752207,0.1325910595633734,0.6028558050229404,0.7965751098265912
6.198877334594727,-0.30084034393912223,-0.4218717589025144,0.17215723108404193,0.12925772623004006,0.5995224786040854,0.7999080520369833
6.218933582305908,-0.2941736850693278,-0.4152051053543113,0.16549051611612808,0.1225910595633734,0.5928558250877305,0.8065739621562605
6.239025354385376,-0.28750702495431,-0.4085384507573819,0.15882380400502585,0.11592439289670675,0.586189170681023,0.8132399059854721
6.25909948348999,-0.2808403601477145,-0.4018718096862572,0.15215711564942022,0.10925732566723452,0.5795224442547622,0.8199065341337393
6.279436111450195,-0.27750702910449665,-0.3985384815478491,0.14882376194488656,0.10592399233390119,0.5761891162990463,0.8232395346183589
6.299596071243286,-0.2724944790441743,-0.3918718148811824,0.1421570952782199,0.09925732566723451,0.5695224496323797,0.8299062012850255
6.319643020629883,-0.2658278156393322,-0.38520515927954296,0.14882371605780248,0.09259065900056786,0.5628557948206668,0.8365720995238076
6.339779853820801,-0.27249447747476907,-0.37853849092431696,0.1421570712569138,0.08592390577370045,0.5561891113340887,0.8432391990995497
6.359888792037964,-0.27582781116051397,-0.37520515859747994,0.13882373369651563,0.08259057244036712,0.5528557790767303,0.8465724602906702
6.379976034164429,-0.2758278113331693,-0.36853849248287396,0.1388237313467014,0.07592390577370046,0.5461891129969074,0.8465724197132662
6.400096893310547,-0.275827811333169,-0.36187182581621075,0.13882373134668471,0.06925723910703382,0.5395224463302449,0.8399057530463091
6.4202351570129395,-0.2791611456840356,-0.3585384957713788,0.13549038352153148,0.0659239057737005,0.5361891165680479,0.8365721653001645
6.440293788909912,-0.28582781286011505,-0.3518718384362212,0.12921654231458998,0.059257239107033836,0.5295224605109352,0.8299047149866225
6.4603800773620605,-0.27916114656308216,-0.34520519161099594,0.1358831949276093,0.05259023096689519,0.5228557578868356,0.8232380539850082
6.480487823486328,-0.2858278042490166,-0.3385385124321472,0.12921657919545793,0.04592356430022852,0.5161890791896346,0.8165723054614883
6.5005552768707275,-0.2891611378359774,-0.3352051966517596,0.13254991252879125,0.04258987289846331,0.5128557472955196,0.8132392369501311
6.520637035369873,-0.29582781046172213,-0.3285385216854217,0.1325499627012409,0.035923206231796644,0.5061890692125344,0.8065734930095089
6.540714979171753,-0.30249447688107284,-0.321871859068877,0.12588327496465546,0.029256539565129976,0.4995224071853159,0.7999064341504325
6.561317205429077,-0.30249447421211423,-0.3218718505967394,0.1258832650280332,0.02259011420170831,0.4928553867542492,0.7932394428129363
6.581462860107422,-0.2991611403975824,-0.3252051856298812,0.129216588933436,0.019256780868374977,0.4895220552849832,0.7899059303762108
6.601518630981445,-0.2924944733423219,-0.33187185728130203,0.13588324591268008,0.025923383246517096,0.49618871553305083,0.7832391285416672
6.621621608734131,-0.28582780631010457,-0.3385385263146057,0.1425498996697022,0.03259004991318376,0.5028553848038938,0.7765722210543369
6.641698598861694,-0.2791611393980237,-0.3452051972230356,0.1492165437287911,0.03925671657985043,0.5095220562091768,0.7832384711532396
6.661947965621948,-0.2724944732680182,-0.35187186858902686,0.15588318640961918,0.0459233832465171,0.5161887281162872,0.7899047022378678
6.682056665420532,-0.2691611404486879,-0.35520520446936066,0.15921650704736082,0.04925671657985043,0.5195220643028287,0.7932378075421176
6.702148675918579,-0.26249447535517495,-0.3618718766558665,0.16588314684376598,0.0559233832465171,0.5261887371693993,0.7999039969609826
6.722217321395874,-0.25582781106385893,-0.36853854945397463,0.17254978456667053,0.06259004991318376,0.5328554107308204,0.8065701571790933
6.742412805557251,-0.24916114766923209,-0.3752052229189773,0.17921642009082475,0.06925671657985041,0.5395220850312752,0.8132362870668961
6.762541055679321,-0.2458278163389076,-0.3785385599196819,0.18254973698815452,0.07259004991318374,0.5428554224723486,0.8165693402875106
6.7829344272613525,-0.23916115220849174,-0.38520522636459825,0.17588307517706675,0.0792567165798504,0.5495220878615348,0.8232360901734027
6.802834749221802,-0.23249448877564294,-0.39187190270635613,0.18254969743191846,0.08592338324651705,0.5561887657309845,0.8299020113548368
6.822918653488159,-0.22582782844327828,-0.39853857868564846,0.18921632572332128,0.0925900499131837,0.562855442254376,0.836568044653875
6.843005657196045,-0.22249449875471128,-0.40187191701658626,0.19254963886684712,0.09592338324651703,0.5661887808420591,0.8399010485771533
6.863100051879883,-0.21582783395593647,-0.4085385824636518,0.19254964734145383,0.10259004991318368,0.5728554451754059,0.8465678501219893
6.883209705352783,-0.20916117267260664,-0.4152052558097273,0.19254962167764036,0.10925671657985034,0.5795221185641948,0.8532341058258076
6.903418302536011,-0.20582783933927332,-0.41853858914306064,0.1958829550109737,0.11259004991318367,0.5827253391704675,0.8565674391591409
6.9235680103302,-0.21249449364816542,-0.4252052531197642,0.20254961865378407,0.11925671657985032,0.576058673519966,0.8632340517770006
6.9438793659210205,-0.2058278713721498,-0.4318719322997339,0.20921628367818032,0.1259233754739705,0.5693920045657417,0.8699007245765843
6.963775157928467,-0.19916120387443437,-0.4385385974067813,0.20254962352580028,0.13259004214063716,0.5627253361485516,0.876567494882903
6.983857154846191,-0.195827883115675,-0.4418719410955841,0.20588292308889353,0.1359233754739705,0.5660586781160127,0.8799002889718325
7.004026889801025,-0.19582786385576592,-0.44853860313353294,0.21254958816937894,0.14259004214063714,0.5660586789710896,0.8865669133387142
7.0241193771362305,-0.2024945324710572,-0.45520525252699556,0.2152194553412936,0.14925703403522272,0.5593920922841197,0.8932333011288289
7.044318199157715,-0.20249463657215488,-0.46187196711479794,0.217955567871507,0.15592370070188938,0.5527254497576561,0.8998984066884238
7.065264463424683,-0.1991613158664279,-0.46520530842609986,0.22128887846340717,0.1592570340352227,0.5493921219892568,0.9032313823423362
7.085201263427734,-0.20582796737577896,-0.4718719701322742,0.21462221771692858,0.16592370070188936,0.5427254540783757,0.9098981261482755
7.105314493179321,-0.19916135078648256,-0.47853866027981945,0.22128883162634794,0.172590367368556,0.5360587991412529,0.9165639801454918
7.12544059753418,-0.20582802270262313,-0.47258245395242704,0.2279554650235881,0.17925703403522267,0.5293921405170479,0.9232300973350286
7.145507574081421,-0.20916134197802558,-0.469249111141142,0.2246221605170961,0.17592370070188934,0.5260587998284183,0.9198972276808034
7.165590524673462,-0.21582802542087903,-0.46258245293308975,0.2179554726235915,0.1692570340352227,0.5193921383845729,0.9132302265442555
7.185733318328857,-0.21582802542087903,-0.45591578626642304,0.2179554726235915,0.16259036736855598,0.5127254717179062,0.9065635598775889
7.206681728363037,-0.21582802542087903,-0.44924911959975633,0.2179554726235915,0.15592370070188938,0.5060588050512396,0.8998968932109221
7.226611137390137,-0.21916135875421236,-0.445915786266423,0.21462213929025817,0.15259036736855605,0.5027254717179063,0.8965635598775888
7.246691942214966,-0.2126946038726342,-0.43924911959975627,0.20795547262359151,0.14592370070188937,0.49605880505123956,0.8898968932109222
7.267016172409058,-0.20602793720596754,-0.43258245293308956,0.20128880595692486,0.13925703403522272,0.48939213838457285,0.8832302265442556
7.287005186080933,-0.20269460387263422,-0.4292491195997562,0.19795547262359153,0.1359237007018894,0.4860588050512395,0.886563559877589
7.307066440582275,-0.19602793720596756,-0.4225824529330895,0.19128880595692488,0.12925703403522273,0.4793921383845728,0.8932302265442555
7.327152729034424,-0.18936127642258593,-0.4159157898931335,0.1846221275448859,0.12259036736855608,0.4727254747613448,0.8998966793441154
7.347368955612183,-0.1826946151834874,-0.4092491268140633,0.17795544964934346,0.11592369762629526,0.46605880990646814,0.9065631418816417
7.367682456970215,-0.17936128184668365,-0.4059157935193766,0.17462211631601013,0.1125903635954117,0.46272547633082,0.9098964757410104
7.387530565261841,-0.1726946151643335,-0.39924912703889187,0.16795544964934347,0.10592369354316651,0.45605880857634434,0.9165631449446223
7.407653093338013,-0.16602794814702587,-0.3925824651364273,0.16128878298267682,0.09925693904333115,0.44939211793906186,0.9232298766132283
7.427732229232788,-0.15936128098504598,-0.3859158080913733,0.1546221159028263,0.09259009573009311,0.4427254074853816,0.9298966648478045
7.447851657867432,-0.16051845660967531,-0.38258247733723866,0.15795544923615962,0.08925671138297905,0.43939207733752567,0.933230033688228
7.467889308929443,-0.16489323948439574,-0.3759158036300295,0.15795547726194142,0.0825900447163124,0.4327254036845713,0.9398972670879294
7.488075256347656,-0.17155990883947086,-0.36924913913317714,0.15128880399163863,0.07592337122028861,0.4260587367842507,0.9398971380179552
7.50806450843811,-0.17822657734635983,-0.36258248072725696,0.15128877099768387,0.06925667397863353,0.41939207105641135,0.9332297977971302
7.528144359588623,-0.18155991281259562,-0.3592491489354236,0.15462209829274515,0.0659233406453002,0.4160587391620168,0.9298963378976196
7.54833197593689,-0.18822658031749573,-0.3525824780101594,0.1479554558355044,0.05925667397863354,0.4093920665740852,0.9232301843589541
7.568434238433838,-0.1948932494807579,-0.34591581351468936,0.14128877988492336,0.05259000731196687,0.40272540206431673,0.9165633176456979
7.588489294052124,-0.2015599159395279,-0.3392491523899344,0.14795541575421872,0.0459233406453002,0.39605874246549766,0.9098959749658072
7.608636856079102,-0.20489325123234944,-0.3359158153344902,0.14462210575066367,0.04259000731196687,0.3927254037364577,0.9065631561850551
7.628708362579346,-0.2115599159754914,-0.3292491529685506,0.14462207915100464,0.0359233406453002,0.3860587430226873,0.899895893751387
7.648780107498169,-0.2182265862908463,-0.32258248419523716,0.14462209568905982,0.029256673978633532,0.3793920726361394,0.8932295995383494
7.668856382369995,-0.22489324965540614,-0.31591582080279,0.14462207271602093,0.022590007311966864,0.37272541094447487,0.8865624076743231
7.689328908920288,-0.22822658325308753,-0.3125824880496162,0.1479554028350531,0.01925667397863353,0.3693920783052466,0.8832290004834182
7.7094221115112305,-0.23489325378638545,-0.3059158196095956,0.14128875136493102,0.012590007311966862,0.36272540833456784,0.8765626816842733
7.729488849639893,-0.2415599194380141,-0.3125824863979303,0.14795541614076377,0.005923340645300194,0.3560587420366473,0.8698959711031934
7.7528486251831055,-0.23489327037748858,-0.3192491564807517,0.15462208047291734,0.012590007311966862,0.36272540918517493,0.863229239843794
7.773036241531372,-0.23489327037748858,-0.3192491564807517,0.15462208047291734,0.012590007311966862,0.36272540918517493,0.863229239843794
7.7931129932403564,-0.23155993706753503,-0.32258249023291224,0.15795541117238193,0.015923340645300196,0.3660587430384285,0.8598958456837396
7.813400745391846,-0.22489327048239532,-0.32924915746523314,0.1646220743413037,0.022590007311966864,0.37272541041284984,0.8598957657446026
7.833345651626587,-0.2182266109759618,-0.3359158195842219,0.16843136632865202,0.029256673978633532,0.37939206914842927,0.8665632555971576
7.853760004043579,-0.21155994017503438,-0.34258249411852326,0.1721929714067357,0.0359233406453002,0.3860587474914417,0.8732287385158778
7.8746888637542725,-0.20822660760408962,-0.345915828219586,0.17552630084790613,0.039256673978633534,0.38939208168204875,0.8765619867818045
7.8947978019714355,-0.20155994292827523,-0.352582496626898,0.18219295903255173,0.0459233406453002,0.39605875026045845,0.8832284705899177
7.915194511413574,-0.1948932787445179,-0.3592491602169986,0.17552631444359437,0.05259000731196687,0.4027254117885338,0.8898956081745627
7.935139179229736,-0.18822661408846586,-0.3659158332662169,0.18219294535344624,0.05925667397863354,0.4093920866734551,0.8965615172187832
7.955204486846924,-0.1815599491834863,-0.3725824987793808,0.1822682927822058,0.0659233406453002,0.4160587512099377,0.9032283723948663
7.975303888320923,-0.17822661774427156,-0.37591583564427267,0.18560160768110556,0.06925667397863353,0.41939208891716473,0.9065613255330419
7.99543023109436,-0.17155994943981664,-0.38258249681221684,0.1856016377394274,0.07592334064530018,0.42605874824643675,0.9132286014191955
8.016037464141846,-0.1648932863115727,-0.3892491654908815,0.18560163027824705,0.08259000731194749,0.4327254166806397,0.9198951187133809
8.036058187484741,-0.16155995297264497,-0.39258249893704983,0.18893496361158038,0.08592333865466363,0.43605874942017947,0.9232284535045071
8.056167364120483,-0.15489328627452062,-0.39924916615127626,0.19560163027824704,0.09258999574531684,0.4427254129553344,0.9298951272495205
8.07653522491455,-0.14822662013716567,-0.40591582078061955,0.18893496361158038,0.09925687831015857,0.4493921153901253,0.9365616373869843
8.096428155899048,-0.14155995718076392,-0.4125824905409726,0.1956016177758198,0.10592354497682523,0.45605878508646125,0.943228063061943
8.116615533828735,-0.14489329160733194,-0.4159158228628159,0.19893495110915313,0.10925686361188808,0.4527256250635696,0.9465613890186401
8.136641263961792,-0.14489329017524008,-0.42258249308434903,0.20560161777581978,0.11592350698783849,0.452725413837915,0.9532280937427774
8.15678358078003,-0.13822661087828164,-0.4292491546670176,0.20560163193905276,0.12259017075785929,0.4527254090130977,0.9598950180674004
8.176769495010376,-0.13155995958763955,-0.4359158273009907,0.20560161699629215,0.12925683742452596,0.45272541236605707,0.9665614152569448
8.19697117805481,-0.1282266268797895,-0.4392491608823698,0.20893494969937376,0.13259017075785928,0.45605874584154155,0.9698947373039605
8.217024087905884,-0.13489326929099096,-0.44591582233755156,0.2156016175128414,0.13925683742452594,0.44939207945939874,0.9765613934697427
8.237138986587524,-0.1415599373091914,-0.4525824895192588,0.2222682828934853,0.1459235040911926,0.44272541307707364,0.9832280374953422
8.257238626480103,-0.13489327013827337,-0.45924914626157004,0.21560161622681864,0.15259040441340732,0.44939186600870445,0.9898945605407217
8.277369260787964,-0.13822660352605717,-0.46258248233030436,0.21893494956015197,0.15592367467784646,0.4460585804935995,0.9932279335613404
8.297396659851074,-0.1448932711306811,-0.469249149523414,0.22560161553766725,0.16259033829949057,0.43939191119360627,0.9998945911379685
8.317468643188477,-0.15155992810438873,-0.4759158121421784,0.2292367617318987,0.16925700496615723,0.4327252421465612,1.0065614624616765
8.337735891342163,-0.1582266469632211,-0.48258249619725374,0.2328416749658282,0.17592367163282388,0.4260585827601428,1.0132274753147552
8.357833862304688,-0.16155998029655444,-0.4859158295305871,0.23617500829916152,0.1792570049661572,0.42302216198794323,1.0165608086480886
8.378195524215698,-0.1682266469632211,-0.4792491628639204,0.22950834163249487,0.18592367163282386,0.42968882865460983,1.0232274753147554
8.398190259933472,-0.16155998029655444,-0.4859158295305871,0.23617500829916152,0.1792570049661572,0.4230221619879431,1.0165608086480886
8.418199300765991,-0.1682266469632211,-0.4792491628639204,0.22950834163249487,0.17259033829949055,0.41635549532127647,1.0098941419814218
8.438283681869507,-0.16489331362988777,-0.47591582953058703,0.22617500829916154,0.1692570049661572,0.41302216198794306,1.0132274753147552
8.458406686782837,-0.15822665108206968,-0.4692491640374969,0.21950833936197908,0.16259033829949054,0.40635549570685486,1.0198941047036336
8.478477478027344,-0.15155999850148444,-0.4625825015793749,0.21284166377667363,0.1559236716328239,0.39968883061889243,1.0265606187607992
8.498671293258667,-0.14489333183481778,-0.4559158349127082,0.20617499711000697,0.14925700496615724,0.3930221639522257,1.033227285427466
8.518847465515137,-0.14155999850148446,-0.45258250157937485,0.20284166377667365,0.1459236716328239,0.38968883061889237,1.0365606187607994
8.539108753204346,-0.1348933318348178,-0.44591583491270814,0.196174997110007,0.13925700496615726,0.38302216395222566,1.0432272854274662
8.559033870697021,-0.1282266639955685,-0.4392491756538787,0.18950833044334034,0.13259022656439673,0.37635540445542387,1.049894035717284
8.579102039337158,-0.12156001187039,-0.43258251327621444,0.18284165370530114,0.12592355989773008,0.36968873962447624,1.056560507067214
8.599374294281006,-0.11822667848899399,-0.42924918024604686,0.17950832037196782,0.12259022215976279,0.36635540172131353,1.0598938437565955
8.619329690933228,-0.11156004008439183,-0.4225825232203425,0.17939422980342962,0.11592355549309613,0.3596887402911244,1.066559934309031
8.63951325416565,-0.11155996922129204,-0.4159158418714752,0.1786844161237202,0.10925688882642948,0.35302207111944,1.0732268972347008
8.659619331359863,-0.11822664817807911,-0.4092491783211676,0.1720177428835514,0.10259022215976282,0.346355405621653,1.0732267649521432
8.679702997207642,-0.12155998674685593,-0.405915846351998,0.16868440646971136,0.0992568888264295,0.343022072842943,1.069893367509207
8.699830293655396,-0.12822666267676947,-0.3992491820921283,0.16201773426983926,0.09259022215976284,0.33635540716850565,1.0632265832317713
8.719866037368774,-0.13489336064326593,-0.3925825285998723,0.16449035943224188,0.08592355549309619,0.3296887499486755,1.0565587899247628
8.739932298660278,-0.14156001143214791,-0.38591585313268667,0.15782373089178364,0.07925688882642953,0.32302207561521395,1.049893031923374
8.76001524925232,-0.14489334772388549,-0.3825825205610302,0.15449039564953518,0.0759235554930962,0.31968874262762254,1.0465596550240726
8.7800931930542,-0.1472220454187987,-0.375915869659496,0.1544903938829331,0.06925667833584458,0.31302178939949715,1.0398931016780495
8.800171375274658,-0.14965110354316682,-0.369249181802202,0.15449043356975203,0.06259001166917792,0.30635511590071,1.0332273317609675
8.820318460464478,-0.15298443877962464,-0.36591584896021945,0.15115709887019407,0.05925667833584459,0.3030217828197879,1.0298939653267445
8.840389728546143,-0.15965111088081396,-0.3592491863409364,0.1504347219420174,0.05259001166917792,0.29635512019203286,1.0232267668328086
8.860498189926147,-0.16631777955760757,-0.3525825176959176,0.1437680698397777,0.04592334500251125,0.28968845063138504,1.0165604846151925
8.88060712814331,-0.15965120255766788,-0.3592491941514078,0.15043475301358106,0.039256678335844584,0.28302178004160294,1.009894330930327
8.900758981704712,-0.15298453698434136,-0.3659158610863329,0.15710141883217946,0.03259001166917792,0.27635511350632685,1.0032276420068076
8.920936107635498,-0.15413514686442378,-0.36258252780253136,0.15376808475483086,0.03592334500251125,0.27968844695464135,0.999894288381937
8.940998315811157,-0.15183736612886928,-0.3625825282336499,0.1537680847461749,0.03592334500251125,0.27968844693113004,0.99322762327756
8.961085796356201,-0.15063180978297455,-0.3692491945235279,0.16043474997820117,0.03592334500251125,0.27328626180247884,0.9865609158441216
8.981265306472778,-0.15254682177655146,-0.37258252895456273,0.16376808291624909,0.039256678335844584,0.2705242949719553,0.9832275764769105
9.0014967918396,-0.14588016565097556,-0.37924919702813253,0.17043474914950665,0.04592334500251125,0.27719096164545237,0.9898942388274335
9.021566152572632,-0.13921350132644256,-0.38591586416648566,0.1771014146584526,0.05259001166917792,0.28385762848153906,0.9965608770210027
9.04169774055481,-0.1325468392550649,-0.3925825317705749,0.18376807905595682,0.05925667833584459,0.29052429548425807,1.0032274892812785
9.061733484268188,-0.12588022747767583,-0.3859158755311244,0.1771013916053947,0.06592334500251125,0.29719096515732274,1.0098936815703288
9.081893920898438,-0.129213489845006,-0.3892491985088663,0.1804347280194698,0.06925667833584458,0.29385763203701887,1.0065603461281156
9.1019606590271,-0.13452123140538427,-0.39591586699387016,0.18710139306780538,0.07592334500251123,0.2871909655316774,0.9998936533361796
9.122023344039917,-0.13296486052607898,-0.40258253971650504,0.19376805838594208,0.08259008111623124,0.28719029147585007,0.9932269789807986
9.142157793045044,-0.12963153144699036,-0.4059158738355785,0.19710139023481094,0.08592341444956457,0.29052362503020934,0.9898936145777268
9.162540912628174,-0.12296482868748887,-0.4125825296612477,0.19043476488484967,0.09259008111623122,0.29719028431108063,0.9965612616168925
9.18244481086731,-0.11629816626059887,-0.41924921310728425,0.19710142958952326,0.09925651828244489,0.30385679364745244,1.0032280386004508
9.202541589736938,-0.10963144864027946,-0.4259158651385751,0.19043481238245819,0.10592318494911154,0.310523451841704,1.0098958311749056
9.222599029541016,-0.10296480908605544,-0.4325825379772533,0.19710146448856314,0.1125898516157782,0.3171901206928282,1.0165621925734902
9.24271559715271,-0.10392643703842819,-0.4359158495883689,0.19450893755417215,0.11592337876554973,0.32052417200757993,1.0198953411516256
9.262796401977539,-0.10145857578154667,-0.4425825437391978,0.19550899067059835,0.12258982989241711,0.32719004922761563,1.026562105963254
9.28287410736084,-0.0947919213457874,-0.449249212895455,0.20217565325693954,0.12925649655908378,0.3338567163969525,1.0332287012728718
9.302936792373657,-0.09145859902447752,-0.4525825485261185,0.20550898275013793,0.1325898298924171,0.33719005020974907,1.0365619684126588
9.32334852218628,-0.08479193832377838,-0.4459158980013155,0.19884231205249928,0.13925635000002512,0.34385634516616587,1.043228689925789
9.34329104423523,-0.09145861642704102,-0.4525825584884266,0.20550897471678434,0.13258971484483492,0.33719009567120917,1.0365618889116777
9.363370180130005,-0.09812530334822442,-0.4459158960032838,0.19884230137664982,0.13925638151150158,0.3305234298263185,1.0298951118627613
9.383440732955933,-0.09145863849388096,-0.4392492659911404,0.205508963900232,0.13258949474765117,0.32385538741204833,1.0232286446698282
9.403515338897705,-0.09479185110098613,-0.43591591107565353,0.2021756534699767,0.12925616141431784,0.3205220521807803,1.0265622444808504
9.423822164535522,-0.0947918565442626,-0.42924925643456685,0.1955089835210404,0.12258954715990811,0.31385453249176654,1.026562235746716
9.443751096725464,-0.08812520174992713,-0.4225825922857293,0.18884231179467187,0.11592288049324145,0.30718786659614217,1.0198954715960373
9.464279651641846,-0.08145854450606185,-0.41591592766935365,0.1821756406120795,0.1092562138265748,0.3005212006425859,1.0198953793671133
9.484680414199829,-0.07812521552163977,-0.41258259524264146,0.17884230537908183,0.10592288049324147,0.29718786760151583,1.0232286738397736
9.504572868347168,-0.07145855642003057,-0.4059159301434628,0.1721756353610127,0.09925621382657482,0.2905212014520463,1.0298952701432607
9.544877529144287,-0.06812522635205484,-0.4025825974831387,0.16884230055529123,0.09592288049324149,0.2871878683465888,1.0332285717109229
9.582738876342773,-0.06812522635205484,-0.4025825974831387,0.16884230055529123,0.09592288049324149,0.2871878683465888,1.0332285717109229
9.602797031402588,-0.061458606057227236,-0.39591594292844845,0.1688422624091671,0.08925621382657484,0.28052120819810106,1.035710827387598
9.622875928878784,-0.061458612334996034,-0.3892492639076418,0.16884226097768967,0.08258963480217894,0.2738551133141159,1.0382789806883312
9.643062353134155,-0.06812534897355171,-0.38258260970662183,0.1621755707168656,0.07592296813551229,0.2671884501809446,1.0382784597228512
9.663098096847534,-0.07145868507320839,-0.3792492768513408,0.15884223651961224,0.07258963480217896,0.26385511697387887,1.0349451073106022
9.6831955909729,-0.07812535654456566,-0.3725826110024324,0.15217556836391652,0.06592296813551231,0.25718845052461364,1.0282784068534359
9.70325493812561,-0.076174103958385,-0.3659159618685622,0.15884221170918666,0.05925630146884565,0.25052178676369463,1.021611256219743
9.723369836807251,-0.08284067045127672,-0.3592492804952109,0.15217556397256635,0.05258963480217898,0.2438551176377712,1.0149449884833655
9.74347472190857,-0.08950734398702428,-0.3525826182491537,0.15884221188889092,0.045922954400030074,0.23718843914779006,1.0082777942336636
9.763591527938843,-0.09284067556409041,-0.34924928249640685,0.15550889530136355,0.04258962106669674,0.23385510255924455,1.0049449463497797
9.783668041229248,-0.09950734216776108,-0.3425826203409891,0.1495912608953193,0.03592288374917734,0.22718841209297017,0.9982783164321061
9.803876876831055,-0.0995073603228502,-0.3425826236323034,0.15059872562958737,0.029256191885886997,0.22052173598292546,0.9916117498653708
9.823875665664673,-0.09617402773905032,-0.34591595707515826,0.15393205873559163,0.025922858552553663,0.21718840268582473,0.9882784101572571
9.844001054763794,-0.08950736106609244,-0.3525826241987124,0.16059872540225828,0.019256185859461632,0.210521727760241,0.9816117467910024
9.86409854888916,-0.0828407093353468,-0.35924929254409266,0.16726539081806313,0.0259228525261283,0.21718839456037564,0.9749450495843117
9.884183406829834,-0.07617404776548353,-0.3659159599692684,0.17393205568640507,0.032589519192794965,0.22385506148306217,0.9750084116648416
9.904252529144287,-0.06950739194725344,-0.37258262835994066,0.18059871785244455,0.03925618585946163,0.23052172880183164,0.9816749563386008
9.924342632293701,-0.06617406546758242,-0.37591596274278455,0.183932048802017,0.04258951919279497,0.23385506247386076,0.985008227834411
9.944417476654053,-0.05950740272218338,-0.3825826277436318,0.18393206598196354,0.049256185859461635,0.24052172628406013,0.9916753743119137
9.964503288269043,-0.052840756940504226,-0.38924930013930753,0.1839320401064492,0.0559228525261283,0.24718839685697072,0.9983413457533784
9.9845871925354,-0.046174088035387716,-0.39591596393019585,0.18400180632461938,0.06258951919279497,0.2538550603397918,1.0050085512925544
10.004693269729614,-0.04284077165728555,-0.39924930087679783,0.18106456366887633,0.0659228525261283,0.25718839537319377,1.0083415840930525
10.024847269058228,-0.03617414225247242,-0.40591597620197817,0.1877311999740074,0.07258951919279495,0.263855066327662,1.015007481249602
10.044967889785767,-0.029507509138313428,-0.41258264856892196,0.1943978555182106,0.0792561858594616,0.27052173437156285,1.0216739046692431
10.065056324005127,-0.02284082900235608,-0.41924931005758437,0.18773121434961115,0.08592285252612826,0.27718839710155757,1.028341215269408
10.085095643997192,-0.019507545974940907,-0.42258265532905376,0.19106450980194603,0.08925618585946159,0.28052173558622007,1.0316736494658492
10.105201959609985,-0.019507571481443838,-0.4292493216185684,0.19773116888352985,0.0959227467058962,0.28718915161123904,1.0383401582526162
10.125267028808594,-0.01950758505802364,-0.4359159986021748,0.20439782703386433,0.10258950731186037,0.29385496665454186,1.0450066584282882
10.145360469818115,-0.012840870555145689,-0.44258265255088364,0.20439786866179738,0.10925617397852702,0.3005216273872646,1.05167425073763
10.165444135665894,-0.00950757338143077,-0.4459159928098279,0.2010645223088857,0.11258950731186035,0.3038549622122776,1.0550073360923473
10.185514688491821,-0.002841049999507178,-0.45258269064271256,0.20773111565308913,0.119256173978527,0.3105216378809126,1.0616725012461652
10.205590009689331,-0.00950772135435306,-0.4592493506310471,0.2143977823197558,0.12592265707348724,0.3125800900768825,1.0683391757040301
10.225707769393921,-0.01617438282119362,-0.46591603617637395,0.22106444898642244,0.1325892428006867,0.31924586331954735,1.0750059729401433
10.246110200881958,-0.01950771516481016,-0.4692493749452673,0.22439778231975577,0.13592251314829235,0.3225790895575156,1.0783393548167026
10.26603078842163,-0.02617438281232909,-0.4759160452241442,0.23106444898642242,0.14258902484019043,0.327563417610892,1.085006086624541
10.286127805709839,-0.032841012327633395,-0.4825827091325912,0.23106446822768842,0.14925561679184057,0.3323822162468094,1.0916731572800924
10.306179761886597,-0.03950769529695396,-0.48924938198441803,0.2310644452518131,0.15592228345850723,0.33238221931416817,1.091672677240172
10.326289653778076,-0.04284104473444275,-0.4925827185355913,0.23439777342426082,0.15925561679184055,0.32904888642484925,1.0883392673583157
10.346397638320923,-0.049507861608799275,-0.49540115263543016,0.24106438757681248,0.1659222834585072,0.3223822243332194,1.095005138337233
10.366467714309692,-0.056174637333277294,-0.48873450630235393,0.2477310248539678,0.17258895012517386,0.31571555972436743,1.088338101945336
10.386862516403198,-0.06284130399994396,-0.4820678396356872,0.24106435818730115,0.1659222834585072,0.30904889305770084,1.0816714352786692
10.406776666641235,-0.06617463733327729,-0.47873450630235387,0.23773102485396783,0.16258895012517388,0.3057155597243675,1.0783381019453357
10.426852703094482,-0.06617463733327728,-0.47206783963568716,0.23106435818730117,0.15592228345850723,0.2990488930577007,1.071671435278669
10.447235584259033,-0.059507971703755456,-0.46540117314230733,0.22439769130903497,0.14925561679184057,0.29238222640309025,1.065004766502113
10.467336177825928,-0.052841327667063384,-0.4587345104615128,0.2177310181754142,0.14258895012517392,0.2857155603246955,1.065004671698038
10.48745584487915,-0.04950800485492718,-0.4554011789240627,0.21439768206343202,0.1392556167918406,0.28238222723161627,1.0683379652154705
10.507552146911621,-0.04284135698926259,-0.44873451541589143,0.20773101050742426,0.13258895012517394,0.2757155609892995,1.075004560286217
10.527620792388916,-0.03617470640390098,-0.4420678513925983,0.20106433974383794,0.12592228345850728,0.26904889467997994,1.0816711650999349
10.547741651535034,-0.0328413801869042,-0.43873451920954565,0.1977310046251132,0.12258895012517396,0.265715561502972,1.085004470815336
10.567802429199219,-0.026174726083017904,-0.43206785454032093,0.19106433485175287,0.1159222834585073,0.25904889510939616,1.0916710882180094
10.588204622268677,-0.019508069974499876,-0.42540118951499256,0.1843976656222173,0.10925561679184065,0.25238222866935667,1.0983377127825233
10.608109951019287,-0.01284148377381649,-0.4187345364933637,0.18439763614440605,0.102588950125174,0.2457155653358462,1.1050037638333923
10.628542423248291,-0.009508156307929972,-0.41540120400836317,0.18773096827916844,0.09925561679184067,0.24238223210075313,1.1083370781849093
10.648507118225098,-0.016174831339672065,-0.4087345237842053,0.18106430073040589,0.09258895719347467,0.23571641610836996,1.1150036614460719
10.668613910675049,-0.02284152448956219,-0.4020678606514302,0.1743976298837372,0.08592229052680801,0.22904974972105877,1.1083369367438527
10.68866753578186,-0.029508198791171128,-0.39540119497608045,0.1677309620256016,0.07925562386014136,0.22238308313818045,1.1016702521842527
10.708785772323608,-0.03284156835976653,-0.3920678676500431,0.17106427925238718,0.07592229052680803,0.2190497518781256,1.0983365190879244
10.728905439376831,-0.03950821296981665,-0.3854011969966978,0.17106429264314651,0.06925562386014138,0.21238308326330974,1.0916702057869236
10.748958587646484,-0.04617488221099522,-0.37873453133648055,0.16439762560576796,0.0625889522267897,0.205716391085132,1.0850035371464595
10.769266843795776,-0.052841549847094965,-0.3787345169702669,0.16439762560576796,0.055922449064534155,0.19905001238913772,1.0783367775897388
10.789280652999878,-0.05617488315300761,-0.38206785077353095,0.16773095893910128,0.05258911009941741,0.19571667071853074,1.0750034472857226
10.809366703033447,-0.060507341706299886,-0.3887345209556279,0.17439762543967446,0.04592245193944791,0.18904992465691345,1.0683368257819272
10.829428672790527,-0.06717400900939548,-0.3954011878361835,0.18106429210634112,0.03925569520567089,0.18238365565016562,1.061670176912563
10.855926275253296,-0.07384067816476432,-0.40206785883016144,0.18773095769799983,0.04592228338966824,0.17571707226187103,1.0550035092581105
10.87640643119812,-0.07050740491288772,-0.40540119731439833,0.1910642912121183,0.04925561672300158,0.17238373855099554,1.0516702726003597
10.896275043487549,-0.06384076111958413,-0.4054011993839348,0.19773095643458155,0.04925561672300158,0.17238373855139313,1.0499659572798024
10.91651725769043,-0.06384077136628892,-0.39873453269708004,0.1977309549366218,0.042588918217337964,0.17238395929560565,1.0480987184350143
10.936434507369995,-0.06384078037074854,-0.3987345321940555,0.1977309539033063,0.035922374010844096,0.1657167983106558,1.0414320041993064
10.956553936004639,-0.06050745588969869,-0.40206786632651487,0.20106428642637264,0.03258904067751076,0.1623834650182108,1.03809865642815
10.976633548736572,-0.05384079826307086,-0.3954012004658745,0.19439761881414525,0.025922374010844094,0.15571679840171918,1.03143197133896
10.996907472610474,-0.04774424144402228,-0.40206786319158905,0.20106428422311282,0.019255707344177427,0.14905013203281786,1.0247652126008922
11.016869068145752,-0.05441088916441557,-0.39540119530414275,0.1943976155664881,0.012589040677510759,0.15571679891909326,1.0180984658030665
11.03697657585144,-0.0550315036804905,-0.39873452806330506,0.19773094942557728,0.009255707344177425,0.15238346555857316,1.0147651446618522
11.05733060836792,-0.0522567840701357,-0.40540119843880745,0.19773095186260317,0.009255707344177423,0.14677207069105952,1.0080985775273243
11.077208518981934,-0.045590220921791866,-0.4120678726022592,0.1977309497332504,0.01592237401084409,0.1480551488389911,1.008098578964053
11.097476243972778,-0.04225689464493165,-0.41540120648313633,0.20106428261388157,0.019255707344177423,0.1513884821852028,1.011431902718197
11.117572546005249,-0.035590238732354326,-0.4220678740143886,0.20773094858471614,0.02592237401084409,0.15805514886833,1.018098556998431
11.137810945510864,-0.028923592874818032,-0.42873454243210346,0.2143976136201592,0.032589040677510756,0.164721815576745,1.024765194481426
11.157833576202393,-0.022256928344503858,-0.42206789333840006,0.20773094572701006,0.039255577122807715,0.1713879509230493,1.0314319047193161
11.177878141403198,-0.028923469584472568,-0.4287345497186682,0.21439761103025443,0.04592224378947438,0.16472128479892145,1.024765037440538
11.19796085357666,-0.032256803178547906,-0.4320678830754287,0.21773094433605295,0.04925557712280772,0.1613879514663873,1.0214317036790799
11.21804690361023,-0.0322568063566208,-0.4387345556772343,0.22439760981933826,0.055922487829894896,0.16138652111322696,1.021431637281736
11.238397598266602,-0.025590158851525966,-0.4387345611434795,0.22439760824460248,0.06258914591961244,0.16805299946462285,1.028098304241922
11.258327722549438,-0.025590169268915247,-0.4387345594394545,0.22439760655678842,0.0692557560076428,0.1680533996233399,1.0280982781624068
11.27842664718628,-0.028923513167883136,-0.44206789380877237,0.2277309381564543,0.07258908934097613,0.16472006635871345,1.0247649161316554
11.298511743545532,-0.0355901938443233,-0.44873456177704096,0.2343976028869511,0.07925575600764279,0.15805339974291163,1.0180982252702728
11.318604946136475,-0.028923554710999867,-0.4554012446735621,0.24106426660343447,0.0859226805946057,0.1647183042015218,1.0247648567464582
11.33876085281372,-0.02559021783195135,-0.4520679406825469,0.23773093327010114,0.0892558778960085,0.16805063079277183,1.0280982972582475
11.3588228225708,-0.0255902384964508,-0.45206793725051897,0.2377309305078925,0.09592248417139487,0.16805114396848567,1.0280982682049367
11.378906011581421,-0.032256927053373664,-0.45873460604084226,0.24439759412417222,0.10258915083806153,0.16138447736290285,1.0214315749384868
11.398985862731934,-0.032256947139451514,-0.46540129202012237,0.2510642575090472,0.1092560145304042,0.15471626420265805,1.0147648784565808
11.419801473617554,-0.028923658733560058,-0.46873462936042015,0.25439758582244865,0.11258934786373753,0.15138293083926566,1.0114315453407623
11.439951181411743,-0.022257020736039943,-0.46206798127575416,0.24773091481522475,0.11925610064727457,0.1580485642043436,1.0180982082954826
11.460022211074829,-0.028923722521298476,-0.46873464200012477,0.25439757685320563,0.12592269749631435,0.15138255636991327,1.011431523319074
11.480161666870117,-0.03559045087555166,-0.4620679808631994,0.2477309023133237,0.132589364162981,0.14471588963480642,1.0047648643761435
11.500211477279663,-0.03892375664829692,-0.4654013117054288,0.2510642397328423,0.13592269749631433,0.141382556299199,1.0014315393511943
11.52030324935913,-0.03892374944540936,-0.47206800759912154,0.257730906399509,0.14258957385929238,0.1347140127272843,0.9947648760567255
11.540684700012207,-0.032257091689661115,-0.4787346373725763,0.257730906399509,0.14925609697501083,0.1280492493668107,0.9880981848596093
11.56056833267212,-0.025590490656189645,-0.48540131798368935,0.25773089651423103,0.15592281845599523,0.12804876850842553,0.9880982058363416
11.58108925819397,-0.022257233375000293,-0.48873465772171115,0.2610642187340044,0.15925615178932856,0.13138210176360773,0.9914315729603134
11.601158380508423,-0.01559067596646831,-0.48206800062544125,0.25439753483311706,0.1659228184559952,0.13804876834598495,0.9980982622156506
11.621236562728882,-0.01237663886022907,-0.4754013294355513,0.24773087408417024,0.15925615178932856,0.14471543522691702,0.991431514043363
11.641356229782104,-0.005709930024014478,-0.4687346589341148,0.24106421236489747,0.1525894851226619,0.13804876872919497,0.9980981250212533
11.661396265029907,0.0009566449210866514,-0.46206800037811074,0.23439753241042172,0.14592281845599525,0.13138210192923566,0.9914314880920494
11.681492805480957,0.004289943281527557,-0.45873467011005337,0.23106419347403517,0.14258948512266192,0.1280487685947296,0.9947648123322047
11.701574802398682,0.010956539518338526,-0.4520680093429796,0.22439751692027196,0.13592281845599527,0.12138210183708456,1.001431498859644
11.72165584564209,0.017623145523757534,-0.44540134754732885,0.2177308421689301,0.12925615178932862,0.11471543508008215,1.0080981888870246
11.742035150527954,0.020956451862364125,-0.44206801631039394,0.21439750538470786,0.1259228184559953,0.11138210170253061,1.0114315347987428
11.762186527252197,0.02762308910520984,-0.4354013518332393,0.20773083519660565,0.11925615178932863,0.10471543497856778,1.0180982198755495
11.782310247421265,0.03254089414907213,-0.4287346768750349,0.2010641721886984,0.11258942069232629,0.09804917746955709,1.024764825161759
11.80247712135315,0.02749402940453272,-0.42206800654719434,0.19439749759747035,0.10592264382186782,0.09138320765976433,1.031431607190339
11.82268738746643,0.020827336305943522,-0.41540132054744017,0.18773082880515696,0.09925566766241824,0.08471829728270715,1.0380983323798827
11.842859983444214,0.017494007148428563,-0.41206801603764576,0.18665270496909775,0.0959224263874102,0.08138355607261748,1.0347650091957548
11.862890720367432,0.01082740576158239,-0.40540134543972667,0.18234906897094208,0.08925575972074355,0.07471688939565385,1.0280983658666052
