liuyurong129/humanoid-gym/humanoid/data/robot2_actual_20250621-225021.csv
timestamp,joint_1,joint_2,joint_3,joint_4,joint_5,joint_6
0.0003571510314941406,0.0,0.0,0.0,0.0,0.0,0.0
0.02067255973815918,0.0,0.0,0.0,0.0,0.0,0.0
0.04065537452697754,0.0,0.0,0.0,0.0,0.0,0.0
0.06075620651245117,0.0,0.0,0.0,0.0,0.0,0.0
0.08084559440612793,0.0,0.0,0.0,0.0,0.0,0.0
0.10097765922546387,0.0,0.0,0.0,0.0,0.0,0.0
0.12106680870056152,-0.006666671976686367,0.0066657836869941575,0.006666666666666667,0.006666620640993189,-0.00666555724353821,0.006666708025933931
0.14118480682373047,-0.010000003837262876,0.010000103199774332,0.003333333333333334,0.009999848623035181,-0.009998206275007474,0.003333479008145062
0.1612088680267334,-0.016666668556104377,0.016666084863122415,-0.003333333333333333,0.016666634327939585,-0.016665755387407413,-0.003333306122142035
0.18126988410949707,-0.02333332772985815,0.02333206370242124,-0.01,0.023333481476520215,-0.023333632183471262,-0.010000150814286717
0.201401948928833,-0.026666658208264207,0.026665242337976874,-0.013333333333333334,0.026666874826870707,-0.02666742399762098,-0.013333543710958353
0.22159886360168457,-0.033333306955090666,0.03333121484286194,-0.02,0.03333383481823597,-0.033335858767229894,-0.006667163504724687
0.24179911613464355,-0.039999957535747206,0.035807095755645404,-0.013333333333333332,0.026667481079510037,-0.0400048210209174,-8.08367631950635e-07
0.2618062496185303,-0.04666680437634799,0.02914082254562359,-0.020000198874167506,0.033334062337072486,-0.0333394944009877,0.006666261513806579
0.28200411796569824,-0.05333345273475288,0.02623346541521324,-0.013333532207500838,0.040000875446132914,-0.04000539553433205,0.013332796622454464
0.3021063804626465,-0.056666799130351,0.022900477365385787,-0.016666865540834172,0.043333984713626414,-0.04333701079881962,0.01666635091680703
0.3221926689147949,-0.06333345094071427,0.022900133016112968,-0.016666865540834172,0.04938011125145405,-0.05000527950747015,0.023332790949978113
0.3423318862915039,-0.07000013281302753,0.022900409216921123,-0.016666865540834172,0.05515463036213132,-0.05000615659639109,0.0299995446239811
0.3623619079589844,-0.0733334548876884,0.019566869063080437,-0.020000198874167506,0.058488104247941666,-0.04667357149304096,0.03333274500640802
0.38246726989746094,-0.08000009049060407,0.022426680793090292,-0.013333532207500838,0.05924039336484014,-0.053341361257045576,0.03999912216737815
0.4025399684906006,-0.08666676889146367,0.015760218607620342,-0.020000198874167506,0.0659069907188424,-0.0466753943803089,0.04666585256344433
0.4226372241973877,-0.09333338534185281,0.022426118358015796,-0.013333532207500838,0.07257415868011025,-0.05334457573798473,0.05333205458587379
0.4426705837249756,-0.09999977822907531,0.01575922774506274,-0.02000005842351376,0.07924099769498334,-0.04667901335828224,0.05999820040836485
0.4627809524536133,-0.10333310807367409,0.019092516236062236,-0.023333391756847094,0.08257433052021773,-0.050012015183261274,0.06333153327365497
0.4829380512237549,-0.10999976762346374,0.02575909431166575,-0.029848870426347984,0.08924108472836356,-0.05667941492803268,0.06999812059532842
0.5029418468475342,-0.11666642216457834,0.03242562306871733,-0.03519015907341045,0.09590793759779655,-0.05668126909241761,0.0766646204267739
0.5233163833618164,-0.1199997457349936,0.03575885007571083,-0.036997318855766674,0.09924137755500909,-0.05334878697050672,0.07999785686240714
0.5434398651123047,-0.12666639634572885,0.042425348194717674,-0.030330652189100006,0.10590821765881347,-0.04668372595821326,0.08666436271454085
0.5635397434234619,-0.13333307805798375,0.035758833684621204,-0.036997318855766674,0.11257473804090602,-0.040015497335527124,0.07999784321725514
0.5836317539215088,-0.13999973397261647,0.04242539932120307,-0.04366398552243334,0.11924149955098948,-0.03334980428528327,0.07333108936420428
0.6036911010742188,-0.1433330737348775,0.0457587910910656,-0.046997318855766676,0.12257475837511703,-0.036682204046790526,0.06999782446764079
0.6237790584564209,-0.1499997244602742,0.052425317098977645,-0.053663985522433344,0.12924155018224884,-0.04335011935047931,0.06333104293603671
0.6438617706298828,-0.15666638046376707,0.05909189330298331,-0.05999758697019001,0.13308656301712665,-0.050017600627366925,0.06333096581633382
0.6639220714569092,-0.16333300924346783,0.0657582442368946,-0.05936449493983768,0.1302139638958163,-0.05668696368117453,0.06999735814402146
0.6840364933013916,-0.1666663079423812,0.06909128299295321,-0.05603116160650434,0.12688088208958676,-0.06002221823410283,0.0733304545612149
0.7041079998016357,-0.15999964127414124,0.062424616312599,-0.05687643355504373,0.12377467249196732,-0.053355551769298466,0.07999712121135877
0.7242465019226074,-0.16666630794098827,0.06909128298095006,-0.05020976688837706,0.1304413391561523,-0.06002221840502295,0.08666378788027848
0.744265079498291,-0.15999964127435726,0.06242461631458259,-0.05687643355504373,0.13710800582251578,-0.05335555173504838,0.09333045454725691
0.7643642425537109,-0.16333297472762556,0.06575794964531202,-0.05354310024401056,0.1404413391558491,-0.05668888506968004,0.09666378794595555
0.7844634056091309,-0.16333297167149557,0.06575794970537374,-0.053543099470547584,0.14710800582578817,-0.05668888506143597,0.09666378579478417
0.8045198917388916,-0.16333297213935746,0.06575794969312601,-0.0598887897330987,0.15377467249245483,-0.05002221840472411,0.08999711968114049
0.8245937824249268,-0.16999963463446932,0.07242461649348962,-0.06503991892450026,0.16044133915912148,-0.050022218363575684,0.08333045102614951
0.8447909355163574,-0.17333296901003475,0.07575794979413736,-0.06723592723208979,0.1637746724924548,-0.05335555170783621,0.07999711823245013
0.8649382591247559,-0.17999964382648503,0.08242461620377484,-0.07099110248752384,0.17044133915912146,-0.046688885127380765,0.07333045581386025
0.8852496147155762,-0.1866663055860303,0.08909128305117663,-0.0740327921494275,0.17182300696048786,-0.05335555174241974,0.07999712005144705
0.905156135559082,-0.1933329722445834,0.09575794966465981,-0.07649656164103628,0.1784896736746482,-0.06002221889691798,0.08666378667053595
0.9253051280975342,-0.18999963821618607,0.09909127851735168,-0.07316322830770296,0.17515634435193728,-0.0566889260257671,0.08999711595464012
0.9454514980316162,-0.18999963569523093,0.0990912632941341,-0.0664965616410363,0.1751563569747086,-0.050022236423507165,0.08999710770987783
0.9654223918914795,-0.18999958263735806,0.09717430267979833,-0.06554690547693268,0.18182327104769339,-0.04335817746984214,0.08333016939483356
0.9858417510986328,-0.18333285623185874,0.10178231488219668,-0.06962299343631546,0.1884901831620304,-0.03669423693095577,0.07666323207005914
1.0059144496917725,-0.179999495588223,0.10511548057044776,-0.07136069409268392,0.1918236197289562,-0.03336211416691619,0.07332978285251483
1.0260100364685059,-0.1733328015901365,0.11178198355172111,-0.07433216221507398,0.19849037662610095,-0.026696623289354373,0.06666301032125228
1.0460929870605469,-0.16666610635098056,0.11844848323307873,-0.07673905139420992,0.2051571244572567,-0.020031149790062524,0.05999624285252289
1.0661835670471191,-0.15999938826860857,0.12511485524850485,-0.07868863162931003,0.2118239175568247,-0.013366551240789613,0.053329409992536866
1.0865144729614258,-0.15666602937181148,0.1284480447956952,-0.07951976846637902,0.21515730501622507,-0.01003421867872308,0.049996000493839635
1.106440782546997,-0.14999931163860541,0.13511442948483834,-0.08094101245776701,0.22182406292416385,-0.00336949773461839,0.043329194056162944
1.1265373229980469,-0.1433325745518991,0.14160262251205866,-0.08209222009079128,0.22849082601210285,0.003294453223482514,0.03666235069230302
1.1468896865844727,-0.136665870277719,0.1469979398972065,-0.08302469827354093,0.23515754024899985,0.0099591257075218,0.029995567484419547
1.16682767868042,-0.13333250957444298,0.14929800678415608,-0.08342222844618684,0.23849089705259446,0.013291249068349891,0.026662166412190554
1.1869139671325684,-0.1266657722049641,0.15323104753280004,-0.08410200504141133,0.2451576020160494,0.019955111490719327,0.019995353239915723
1.2069966793060303,-0.11999901491976084,0.1564167246981366,-0.08465262408354317,0.251824287074295,0.026618510542103648,0.01332853417139894
1.227107286453247,-0.11333223902086244,0.15899704775855933,-0.08509862550766996,0.25849094431351377,0.033281493728101116,0.006661717857886889
1.2471842765808105,-0.1066654454894905,0.1610870422961253,-0.08545988666121267,0.2651575675912963,0.03994409826611971,-5.088729346726991e-06
1.2672693729400635,-0.10333204234541503,0.16197801611027443,-0.08561389799509139,0.2684908649218054,0.04327526792053636,-0.003338486547608819
1.2873575687408447,-0.09666522364607269,0.16350153792967462,-0.08587725737602403,0.27515742831401524,0.04993735710807186,-0.01000526811266682
1.3074398040771484,-0.08999838872207981,0.16473553756010273,-0.08609057847457946,0.28182394694236595,0.05659912896201372,-0.016672027299044396
1.3274946212768555,-0.08999838921342132,0.1657357986245836,-0.08626336856440936,0.2884906158805664,0.0632658318289365,-0.023338693802126043
1.347644329071045,-0.09333168980977202,0.16616207974747974,-0.08633703170796843,0.29182391040940703,0.06659825191295174,-0.026672035307117568
1.3677318096160889,-0.09999828668086119,0.16689100765220014,-0.08646299568345443,0.2984904858019085,0.07326301060287164,-0.033338710517533184
1.3878324031829834,-0.10666487796814693,0.1674814238091941,-0.08656502650359808,0.30515704236535796,0.0799276688458567,-0.04000537435274649
1.4079158306121826,-0.11333146355158834,0.16795964572056832,-0.08664767146791445,0.3118235790012257,0.08659222711308874,-0.046672025758904875
1.42799711227417,-0.11666475416053972,0.1681635134440147,-0.08668290432112301,0.315156839499972,0.0899244687414665,-0.05000534647875367
1.4480786323547363,-0.12333133091416851,0.1685121158467238,-0.08674315250010964,0.3218233441558657,0.09658887668475631,-0.05667197731521338
1.4681565761566162,-0.12999790157069877,0.16879446888121039,-0.08679195352508881,0.32848982606716337,0.10325318349183332,-0.06333859316935884
1.4882245063781738,-0.13666446594252915,0.16902315991222525,-0.08683148235532193,0.33515628406194165,0.10991738797579631,-0.07000519302732727
1.5087122917175293,-0.13999774570915072,0.16912064870169982,-0.08684833411978973,0.33848950371607966,0.11324945138662205,-0.07333848663968283
1.5286099910736084,-0.14666430027184046,0.16928734304120596,-0.0868771506370297,0.3451559235715151,0.11991349947216891,-0.08000506059068074
1.5487923622131348,-0.15333084802306413,0.16942235029350397,-0.08690049201599405,0.35182231644505163,0.12657744096733484,-0.08667161598204237
1.5689091682434082,-0.15999738873342909,0.16953169085469594,-0.08691939853295517,0.3584886810560209,0.13324127375779807,-0.0933381517701309
1.5889866352081299,-0.1633306563742558,0.16957829846932052,-0.08692745867965966,0.36182185235473996,0.13657314867775638,-0.09667141198354748
1.6090898513793945,-0.16999718607509767,0.16965798557937145,-0.08694124153052432,0.36848817210683954,0.1432368140587161,-0.10333791638382973
1.6291921138763428,-0.17333044807308237,0.16969195134951284,-0.08694711737747189,0.3718213202226519,0.14656860389058657,-0.10667116030244758
1.6494133472442627,-0.17333044807308237,0.16969195134951284,-0.08694711737747189,0.3718213202226519,0.14656860389058657,-0.10667116030244758
1.669431209564209,-0.1799969662065872,0.1697500206781117,-0.08695716507575223,0.37848759207882526,0.1532320962085116,-0.11333763090112149
1.6894896030426025,-0.18666347631012584,0.1697970407544467,-0.0869653037113593,0.38515383027905603,0.15989546981929434,-0.12000407760765655
1.7095720767974854,-0.18999672826983247,0.16981707985214742,-0.08696877334022336,0.38848693632063275,0.16322711124685124,-0.12333729165930171
1.7297179698944092,-0.19666322584204732,0.1698513341711534,-0.08697470640558093,0.3951531214031218,0.1698903015810894,-0.13000370047197862
1.7500123977661133,-0.2033297147327282,0.16987906356417687,-0.08697951218852056,0.4018192692978364,0.176553366157977,-0.13667008264467992
1.7699203491210938,-0.20999619467900135,0.16990150756107233,-0.08698340487270165,0.40848537857316675,0.18321630206276465,-0.14333643707339344
1.7904846668243408,-0.21666266541833246,0.1699196701870872,-0.08698655794688834,0.41515144779291696,0.18987910634826732,-0.15000276265563414
1.810617208480835,-0.21999589725370877,0.16992740654223418,-0.08698790215219951,0.41848446693296276,0.19321045820715213,-0.1533359142860007
1.8307056427001953,-0.2266623536937474,0.1699406224880257,-0.0869902007432816,0.425150473377303,0.19987305949875,-0.16000219454262596
1.8507628440856934,-0.23332880027899966,0.16995130993255791,-0.0869920626020581,0.4318164361847587,0.2065355217450745,-0.1666684432246808
1.8708317279815674,-0.2399952367565173,0.16995994912770518,-0.08699357070766706,0.4384823539387357,0.21319784198367017,-0.17333465926136915
1.890956163406372,-0.2433284511272035,0.16996362526554776,-0.08699421363690035,0.4418152954823253,0.21652894792983615,-0.17666775470768195
1.9110219478607178,-0.24999487198035858,0.16996989782010838,-0.08699531304588928,0.44848114303715364,0.2231910496517845,-0.1833339198073004
1.9311234951019287,-0.256661282118189,0.1699749606109597,-0.08699620356717032,0.4551469420796172,0.22985300207639403,-0.19000004966833675
1.9511995315551758,-0.26332776554398746,0.16997926619706064,-0.08699692488940795,0.46181298131728504,0.23651633041461534,-0.19666632494546987
1.9712834358215332,-0.26666104693291875,0.16998120319844637,-0.08699723240046715,0.46514613480369943,0.23984872471497257,-0.19999954529968134
1.9915764331817627,-0.27332760620455654,0.16998450945085847,-0.0869977582443784,0.4718124259956688,0.2465134634830114,-0.20666597463300726
2.0115292072296143,-0.27999416071219185,0.16998717957205806,-0.0869981841779465,0.4784786956407284,0.25317813463600547,-0.21333238842944297
2.0315797328948975,-0.2866607103529295,0.1699893343700855,-0.08699852918413667,0.48514494314671597,0.2598427367997766,-0.21999878625764321
2.0518534183502197,-0.28999398331729676,0.16999024987629835,-0.086998676265723,0.4884780584173027,0.263175011590298,-0.22333197905304264
2.0717978477478027,-0.29666052547492533,0.16999180922998647,-0.08699892777523563,0.49514427164398084,0.2698395077681827,-0.2299983521545284
2.091865301132202,-0.3033270625295747,0.16999306420552615,-0.08699913149794086,0.501810461334521,0.2765039316782418,-0.2366647082813951
2.1119914054870605,-0.30999359439659097,0.1699940726121171,-0.0869992965133321,0.5084766269700622,0.283168282084227,-0.24333104706492725
2.132091999053955,-0.3133268583600004,0.16999449935705194,-0.0869993668619989,0.5118097006122775,0.28650042935043063,-0.24666420984373744
2.152228593826294,-0.31999338230082564,0.16999522288040933,-0.0869994871582191,0.518475829251401,0.29316466729319973,-0.25333052196999667
2.1723031997680664,-0.32665990087114766,0.16999580080147395,-0.08699958459815747,0.5251419326603765,0.2998288288707461,-0.25999681593233603
2.1925408840179443,-0.333326414010581,0.169996260800719,-0.08699966352450755,0.5318080104244809,0.30649291304275755,-0.26666309144784384
2.212613582611084,-0.3366596685270154,0.16999645376624842,-0.0869996971720568,0.5351410395696853,0.30982492579464616,-0.2699962222073903
2.232696056365967,-0.3433261734244823,0.16999677758259535,-0.086999754709366,0.5418070781666807,0.3164888920544748,-0.2766624695851449
2.252762794494629,-0.34999267277599116,0.16999703184856033,-0.08699980131458646,0.5484730902414436,0.32315277860887287,-0.2833286979374501
2.2733407020568848,-0.3533259203620991,0.16999713715182507,-0.08699982118312781,0.5518060862434717,0.3264846917472012,-0.2866618049228396
2.293379783630371,-0.3599924113403173,0.16999731117362085,-0.08699985515833351,0.5584720580211641,0.3331484572918819,-0.2933280044181685
2.3135082721710205,-0.3666588967140003,0.16999744427300661,-0.08699988267825014,0.5651380026553501,0.3398121413169812,-0.29999418451327864
2.333557367324829,-0.3733253764768539,0.16999754431347916,-0.0869999049693826,0.5718039199765719,0.3464757432478462,-0.30666034512039836
2.3539493083953857,-0.37999185063287,0.16999761767674282,-0.0869999230251999,0.5784698098633902,0.3531392626021849,-0.31332648618915154
2.374016284942627,-0.3833250856124453,0.1699976460139465,-0.08699993072267992,0.5818027444945028,0.3564709911886392,-0.31665954939139546
2.39412522315979,-0.3899915513888882,0.16999768876503066,-0.08699994388537075,0.5884685931112331,0.3631343859852817,-0.3233256611426071
2.4142005443573,-0.39665801161527225,0.1699977160284747,-0.0869999545471503,0.5951344142109011,0.3697976974283352,-0.3299917533999732
2.4350478649139404,-0.3999912396598846,0.1699977248403816,-0.08699995909243527,0.5984673144581862,0.37312932184738173,-0.3333247922444363
2.4551374912261963,-0.4066576916434967,0.16999773447363814,-0.08699996686487256,0.6051330944100303,0.37979250804944975,-0.3399908554393637
2.475252866744995,-0.41332413820332176,0.16999773529073842,-0.08699997316054678,0.6117988470949534,0.38645561077556423,-0.34665689943853284
2.495298385620117,-0.419990579409827,0.1699977291385415,-0.08699997826004288,0.6184645727099229,0.3931186301705025,-0.3533229244340864
2.51538348197937,-0.42332379803075254,0.1699977239313399,-0.08699998043403859,0.6217974254431557,0.3964501086952642,-0.35665592987705313
2.5355091094970703,-0.42999030075629546,0.16999784949074997,-0.08699998415157124,0.6284634031271331,0.4031141251386851,-0.3633221263032433
2.5555715560913086,-0.4366568699453328,0.16999807305327674,-0.0869999871627727,0.6351296580275149,0.4097792160859394,-0.3699885117895856
2.575855016708374,-0.4399901536785921,0.16999816720974306,-0.08699998844649542,0.6384627811124697,0.4131117475425565,-0.3733217015055566
2.5960052013397217,-0.4466567194506895,0.1699983260066405,-0.08699999064166129,0.645129018648282,0.4197767825459191,-0.3799880749666687
2.6162309646606445,-0.45332328300501057,0.1699984518131044,-0.08699999241974564,0.6517952448202484,0.4264417805453246,-0.3866544405924576
2.636246681213379,-0.4599898443959768,0.16999855099405073,-0.08699999385999396,0.6584614598297366,0.43310674184365144,-0.39332079855076546
2.6563949584960938,-0.4666564036832963,0.16999862870977758,-0.08699999502659511,0.6651276639047768,0.4397716668035096,-0.39998714902854127
2.676426649093628,-0.4699896825581713,0.16999866085859042,-0.0869999955239356,0.6684607619203757,0.44310411578625786,-0.40332032152580144
2.696579694747925,-0.47665623881331154,0.1699987139687865,-0.08699999637438784,0.6751269500790416,0.4497689870498477,-0.4099866611743238
2.71662974357605,-0.4833227931365594,0.16999875463998457,-0.08699999706325415,0.681793127988224,0.4564338231448135,-0.41665299389104726
2.73671293258667,-0.48998934560526985,0.16999878535172064,-0.08699999762123586,0.6884592959667559,0.46309862464451845,-0.42331931992682176
2.7578532695770264,-0.49332262116963826,0.16999879761726833,-0.08699999785911228,0.6917923763384541,0.46643101261671327,-0.42665248052243077
2.7780797481536865,-0.4999891710118215,0.16999881704097722,-0.08699999826588095,0.6984585300728019,0.473095763429463,-0.43331879704430015
2.7981016635894775,-0.5066557192130128,0.16999883084774028,-0.08699999859536357,0.7051246747803217,0.47976048134122257,-0.43998510758557974
2.8181214332580566,-0.5133222658661539,0.16999884023228684,-0.0869999988622445,0.7117908108631376,0.4864251671323221,-0.4466514124538205
2.838217258453369,-0.5199888110681374,0.16999884616493177,-0.08699999907841803,0.7184569387451623,0.4930898216403406,-0.45331771197101595
2.8583667278289795,-0.5233220831562411,0.16999884808924015,-0.08699999917057623,0.7217899997490468,0.4964221374403014,-0.45665085982732373
2.878605365753174,-0.5299886263711645,0.1699988502746208,-0.08699999932816674,0.7284561161697268,0.5030867467163999,-0.4633171519510553
2.89853572845459,-0.5366551683927122,0.16999885071043294,-0.08699999945581506,0.7351222255374796,0.5097513270455105,-0.46998343958587163
2.918804407119751,-0.5399884389897945,0.1699988504224847,-0.08699999951023356,0.7384552777293465,0.5130836066739827,-0.47331658183362746
2.938953161239624,-0.5466549794257193,0.1699988490853069,-0.08699999960328918,0.7451213774438094,0.5197481455246101,-0.47998286342279484
2.958970785140991,-0.5533215189446308,0.1699988470115851,-0.08699999967866423,0.7517874713634152,0.5264126580903563,-0.48664914145416266
2.9792542457580566,-0.5599880576611791,0.1699988444802267,-0.08699999973971802,0.7584535600174228,0.5330771455206914,-0.4933154163156815
2.999244451522827,-0.5633213267549098,0.1699988431154229,-0.08699999976574621,0.7617866025387198,0.5364093801816784,-0.4966485526809652
3.0193214416503906,-0.5699878644868304,0.1699988403081339,-0.08699999981025443,0.768452684313919,0.5430738321620977,-0.503314823530401
3.0394017696380615,-0.5766544017103461,0.16999883753089734,-0.08699999984630609,0.7751187621985532,0.549738262072688,-0.5099810922084805
3.059466600418091,-0.5833209385450646,0.16999883491687684,-0.08699999987550792,0.7817848367592207,0.5564026712098769,-0.5166473591229035
3.0798733234405518,-0.5866542068541841,0.16999883370544067,-0.08699999988795713,0.7851178729720957,0.5597348684035247,-0.5199804920469827
3.1000072956085205,-0.5933207433312518,0.1699988315303277,-0.08699999990924528,0.7917839436240998,0.5663992488895876,-0.5266467570864195
3.120138645172119,-0.5999872797205233,0.16999882974748132,-0.08699999992648869,0.7984500123957258,0.5730636119949776,-0.5333130213915718
3.1401867866516113,-0.6066538161422662,0.16999882841751882,-0.08699999994045583,0.8051160798708537,0.579727959129806,-0.5399792853750444
3.1602768898010254,-0.6099870844027436,0.16999882793763882,-0.08699999994641025,0.8084491133050571,0.5830601271560446,-0.543312417374762
3.1803550720214844,-0.6166536210972906,0.16999882737242059,-0.0869999999565923,0.8151151799322998,0.5897244530344531,-0.5499786816461435
3.2004430294036865,-0.623320158121609,0.16999882735870997,-0.08699999996483976,0.8217812467241813,0.5963887665733456,-0.5566449466190159
3.220813035964966,-0.6299866955923866,0.16999882791991125,-0.0869999999715202,0.8284473142613791,0.6030530692591156,-0.563311212696257
3.240919351577759,-0.6366532336245476,0.16999882907247246,-0.08699999997693138,0.8351133831199727,0.6097173625927196,-0.5699774802754056
3.2611143589019775,-0.6399865028865016,0.16999882987402945,-0.08699999997923824,0.8384464182231711,0.6130495062246857,-0.5733106147507004
3.2813799381256104,-0.6466530419716,0.169998831931947,-0.08699999998318297,0.8451124901300721,0.6197137883681388,-0.5799768853137759
3.3013060092926025,-0.6533195818956659,0.16999883459874815,-0.08699999998637821,0.8517785647681877,0.6263780649540452,-0.5866431583422786
3.321354627609253,-0.6599861227650843,0.16999883787410572,-0.08699999998896635,0.8584446426853535,0.6330423375085429,-0.593309434206852
3.3414649963378906,-0.6633193935867168,0.16999883973898433,-0.08699999999006972,0.8617776830417164,0.6363744727509796,-0.5966425733158236
3.3615922927856445,-0.6699859360668784,0.16999884391955297,-0.08699999999195647,0.8684437668794848,0.6430387421186717,-0.6033088541076882
3.381619453430176,-0.6766524797444402,0.1699988486946005,-0.08699999999348475,0.8751098553133858,0.6497030112626406,-0.6099751386172886
3.401681900024414,-0.6833190247140417,0.16999885405430487,-0.08699999999472265,0.8817759488458661,0.6563672816945565,-0.6166414271771524
3.421771287918091,-0.686652297711886,0.16999885694980946,-0.08699999999525038,0.8851089976768197,0.6596994178629213,-0.619974573076415
3.4418609142303467,-0.693318844788535,0.16999886316402282,-0.08699999999615281,0.8917750997645713,0.6663636930358938,-0.6266408683073695
3.461925745010376,-0.6999853933766067,0.16999886993064886,-0.08699999999688378,0.8984412081358993,0.6730279732206017,-0.6333071683632574
3.482067584991455,-0.703318668262729,0.1699988735163691,-0.0869999999971954,0.9017742648170403,0.6763601156492971,-0.6366403202903687
3.5021071434020996,-0.7099852192673594,0.16999888108251274,-0.08699999999772827,0.9084403834381679,0.6830244060819123,-0.6433066281145973
3.522230863571167,-0.7166517719761847,0.16999888916073658,-0.0869999999981599,0.9151065094139095,0.689688705134661,-0.6499729414501486
3.5422866344451904,-0.7233183264584188,0.1699988977332828,-0.0869999999985095,0.921772643137835,0.6963530142090412,-0.6566392605451946
3.5624706745147705,-0.726651604384924,0.1699989021991804,-0.08699999999865855,0.9251057130226481,0.6996851729347966,-0.6599724223258189
3.5826032161712646,-0.7333181616468583,0.16999891147840043,-0.08699999999891342,0.9317718590608358,0.7063494996081413,-0.6666387504911854
3.6026837825775146,-0.7399847208347577,0.16999892120472315,-0.08699999999911988,0.938438013738328,0.7130138396804432,-0.6733050849675614
3.6227734088897705,-0.7466512820013214,0.16999893135843772,-0.0869999999992871,0.9451041773731577,0.7196781944461177,-0.6799714259473956
3.642810344696045,-0.7533178451944557,0.16999894191951642,-0.08699999999942255,0.951770350260852,0.7263425651641674,-0.686637773606839
3.663189172744751,-0.756651127564647,0.16999894734649434,-0.0869999999994803,0.955103440260659,0.7296747568886214,-0.6899709499919905
3.683105707168579,-0.7633176270186212,0.16999882572516478,-0.08699999999957904,0.9617693079708093,0.7363376368582334,-0.6966371022443908
3.7031490802764893,-0.7699840634308719,0.16999861188394666,-0.08699999999965902,0.9684348738481078,0.7429990277220643,-0.7033030615546132
3.7234692573547363,-0.7733172834771715,0.1699985229024689,-0.08699999999969311,0.9717676654006989,0.7463297394384869,-0.7066360473406342
3.7435860633850098,-0.7799837272881951,0.16999837509690727,-0.08699999999975142,0.9784332660111205,0.7529911969220627,-0.7133020313242088
3.7636663913726807,-0.7866501761001408,0.16999826114812105,-0.08699999999979864,0.9850988902933246,0.7596527017048413,-0.7199680320294071
3.7837491035461426,-0.7933166299562293,0.1699981747001675,-0.0869999999998369,0.991764538602891,0.7663142559871633,-0.7266340496343393
3.8038244247436523,-0.7966498587867474,0.16999814013754042,-0.08699999999985321,0.9950973718659615,0.7696450523535436,-0.7299670648207925
3.823922872543335,-0.8033163202695036,0.16999808558564028,-0.0869999999998811,1.0017630567788047,0.7763066848121245,-0.7366331080369889
3.8439855575561523,-0.8099827868636451,0.16999804740977745,-0.0869999999999037,1.008428766399952,0.7829683718706666,-0.7432991684546195
3.8640363216400146,-0.8166492585803575,0.1699980225506008,-0.086999999999922,1.015094500920292,0.7896301154047254,-0.7499652461386781
3.8841474056243896,-0.8199824963608193,0.16999801431897454,-0.0869999999999298,1.018427377564895,0.7929610089099627,-0.7532982914675224
3.904341459274292,-0.826648975763671,0.16999800492510772,-0.08699999999994314,1.0250931496930853,0.7996228404637233,-0.7599643951062638
3.9244303703308105,-0.8333154602801618,0.16999800348084454,-0.08699999999995395,1.0317589470016495,0.8062847327600275,-0.7666305160417328
3.944489002227783,-0.8399819498927602,0.1699980085053792,-0.0869999999999627,1.0384247695274693,0.8129466873351194,-0.7732966542356029
3.964545249938965,-0.8433151966025645,0.1699980130574918,-0.08699999999996644,1.0417576902470262,0.8162776884305015,-0.7766297297849621
3.9846301078796387,-0.8499816938101667,0.16999802559657826,-0.08699999999997282,1.0484235505777382,0.8229397390899368,-0.7832958937351042
4.0047078132629395,-0.8566481960380413,0.1699980419960085,-0.08699999999997798,1.0550894360398362,0.8296018554402833,-0.7899620747306744
4.0248401165008545,-0.8633147032439702,0.16999806153194982,-0.08699999999998217,1.0617553465313927,0.8362640386755067,-0.7966282726425233
4.044946193695068,-0.866647958698793,0.16999807228680308,-0.08699999999998395,1.0650883111213731,0.8395951557215496,-0.7999613778952662
4.065036058425903,-0.8733144732790746,0.16999809545275132,-0.086999999999987,1.0717542588868287,0.8462574413110613,-0.8066276008885491
4.0851616859436035,-0.8799809927053323,0.16999812047118032,-0.08699999999998947,1.078420231271155,0.8529197963483339,-0.8132938403755483
4.105228424072266,-0.8866475169150949,0.16999814698231738,-0.08699999999999147,1.085086228052003,0.8595822216922298,-0.8199600961505433
4.125509738922119,-0.8899807807929053,0.1699981607030213,-0.08699999999999232,1.0884192355131892,0.862913460972036,-0.8232932300764901
4.145470380783081,-0.8966473120500704,0.16999818891496846,-0.08699999999999378,1.0950852684051515,0.8695759931827847,-0.8299595098562748
4.165587902069092,-0.9033138479137292,0.16999821797402798,-0.08699999999999496,1.101751325007017,0.8762385974428795,-0.8366258053288451
4.185617685317993,-0.9099803883057161,0.16999824769651165,-0.08699999999999591,1.1084174049963131,0.8829012742918112,-0.8432921162270324
4.206049680709839,-0.9133136601743961,0.1699982627577963,-0.08699999999999632,1.111750453653661,0.8862326400817416,-0.8466252773731752
4.226167678833008,-0.9199802072044122,0.16999829319738402,-0.08699999999999702,1.118416568065805,0.8928954266349214,-0.8532916108769206
4.2462477684021,-0.926646758552122,0.16999832396492967,-0.08699999999999758,1.125082704954702,0.8995582867478629,-0.8599579590765358
4.266400098800659,-0.9333133141281095,0.16999835496281407,-0.08699999999999804,1.1317488639188,0.9062212206632724,-0.8666243216586127
4.286469221115112,-0.9366465934730893,0.1699983705219078,-0.08699999999999823,1.1350819515483923,0.9095527153508399,-0.8699575082422354
4.306531190872192,-0.9433131552185977,0.16999840171511155,-0.08699999999999856,1.141748142831835,0.916215760250916,-0.8766238917877541
4.326620578765869,-0.9499797209589002,0.16999843295596895,-0.08699999999999883,1.1484143551082568,0.9228788792159157,-0.8832902888889138
4.34723687171936,-0.95331300529699,0.1699984485768368,-0.08699999999999894,1.1517474689756535,0.9262104664673351,-0.8866234924153085
4.367384672164917,-0.9599795687986228,0.16999845618680362,-0.08699999999999915,1.1584136759811534,0.9328734043009099,-0.8932898879900442
4.387624502182007,-0.9666461284251953,0.16999844756915838,-0.0869999999999993,1.165079869205562,0.9395361312627356,-0.8999562765185273
4.407679080963135,-0.9733126922739769,0.169998447227927,-0.08699999999999944,1.1717460848408285,0.946198942424084,-0.9066226793511178
4.427764654159546,-0.9799792602267384,0.1699984535178756,-0.08699999999999955,1.1784123223018514,0.9528618373519708,-0.9132890960629367
4.447865009307861,-0.9833125457051595,0.16999845872214012,-0.08699999999999959,1.1817454490323513,0.9561933160762411,-0.9166223094902359
4.4679365158081055,-0.9899791195922969,0.16999847253792952,-0.08699999999999967,1.1884117181210876,0.9628563357091671,-0.923288746220378
4.488052845001221,-0.9966456972884323,0.1699984901066512,-0.08699999999999973,1.195078007547555,0.969519437765471,-0.9299551957614243
4.508133888244629,-0.9999789875282461,0.16999850004508155,-0.08699999999999976,1.1984111596995366,0.9728510195064026,-0.9332884252024681
4.528448104858398,-1.006645570718543,0.1699985218083963,-0.0869999999999998,1.2050774785041822,0.9795142439938103,-0.9399548931591073
4.548369646072388,-1.0133121574266821,0.1699985456184287,-0.08699999999999983,1.2117438161401464,0.9861775492264284,-0.9466213728612355
4.568451881408691,-1.0199787475380087,0.16999857100607105,-0.08699999999999986,1.2184101720042753,0.9928409344492961,-0.9532878638864645
4.593212366104126,-1.0199787475380087,0.16999857100607105,-0.08699999999999986,1.2184101720042753,0.9928409344492961,-0.9532878638864645
4.61335825920105,-1.026645340939179,0.16999859759050717,-0.08699999999999988,1.225076545494871,0.9995043988638923,-0.9599543658157128
4.633395433425903,-1.0299786388384349,0.16999861123248933,-0.0869999999999999,1.2284097386627357,1.0028361605073286,-0.9632876207394587
4.653899431228638,-1.033311937518325,0.1699986250625397,-0.08699999999999991,1.2317429360128003,1.0061679416309308,-0.9666208782339062
4.673708438873291,-1.0399785371652073,0.1699986531710805,-0.08699999999999994,1.2384093429625394,1.0128315618731096,-0.973287400730632
4.693791151046753,-1.046645139771351,0.16999868171220284,-0.08699999999999994,1.245075765753158,1.0194952586778125,-0.979953932900747
4.713921070098877,-1.0499784421507614,0.16999869609193133,-0.08699999999999994,1.2484089829056146,1.0228271354969145,-0.9832872024882983
4.73405122756958,-1.0566450489965737,0.16999872498131555,-0.08699999999999994,1.255075428361853,1.0294909453634984,-0.9899537484217533
4.75420355796814,-1.0633116585389724,0.16999875394562908,-0.08699999999999994,1.2617418882076232,1.0361548293737928,-0.9966203030423737
4.779627799987793,-1.066644964289619,0.16999876842434533,-0.08699999999999994,1.2650751233487634,1.0394867988663665,-0.9999535834905329
4.8099424839019775,-1.066644964289619,0.16999876842434533,-0.08699999999999994,1.2650751233487634,1.0394867988663665,-0.9999535834905329
4.8465471267700195,-1.066644964289619,0.16999876842434533,-0.08699999999999994,1.2650751233487634,1.0394867988663665,-0.9999535834905329
4.866710424423218,-1.0733115776874722,0.16999879732235765,-0.08699999999999994,1.2717416037163531,1.046150792180114,-1.0066201504269072
4.886733293533325,-1.0799781556413808,0.1699986683919466,-0.08699999999999994,1.278407968389596,1.0528129074811219,-1.0132866566888015
4.906814336776733,-1.0866447003573372,0.16999843197654846,-0.08699999999999994,1.285074229699157,1.0594732054239444,-1.0199531096472758
4.926937103271484,-1.089977974763089,0.16999833585503635,-0.08699999999999994,1.2884073713668016,1.0628034149046899,-1.023286342666456
4.94700026512146,-1.0966445275397483,0.1699981805626431,-0.08699999999999994,1.2950736759690238,1.069463953532968,-1.0299528212789362
4.967330694198608,-1.1033110854330017,0.16999806652572078,-0.08699999999999994,1.301740007929796,1.076124649876406,-1.0366193159952053
4.987266540527344,-1.109977648243094,0.16999798573694275,-0.08699999999999994,1.308406366071092,1.0827855016954775,-1.0432858260372337
5.0076377391815186,-1.113310931430977,0.16999795573267232,-0.08699999999999994,1.311739554597388,1.0861159851997086,-1.046619086567387
5.027714490890503,-1.1199775012533775,0.16999791305014528,-0.08699999999999994,1.3184059498497804,1.0927770659644351,-1.0532856181803736
5.048095941543579,-1.1266440755164848,0.16999788963727372,-0.08699999999999994,1.325072368437232,1.0994382964746838,-1.0599521632569795
5.067990779876709,-1.133310654039248,0.1699978816648554,-0.08699999999999994,1.331738809263476,1.1060996743954745,-1.066618721086526
5.088428974151611,-1.1366439448428975,0.16999788247520534,-0.08699999999999994,1.3350720376803709,1.1094304178997823,-1.06995200456702
5.10836935043335,-1.14331052942748,0.16999789203749077,-0.08699999999999994,1.3417385098640526,1.1160920125170888,-1.0766185802372086
5.128431558609009,-1.1499771178426965,0.1699979103568057,-0.08699999999999994,1.3484050016562363,1.1227537486305539,-1.0832851669714803
5.148485422134399,-1.1566437099263516,0.16999793560292079,-0.08699999999999994,1.3550715120502446,1.1294156238522566,-1.0899517641298784
5.168930768966675,-1.1599770072946176,0.1699979503487261,-0.08699999999999994,1.358404773915594,1.1327466128802033,-1.0932850664237375
5.18904185295105,-1.1666436045884756,0.16999798329686996,-0.08699999999999994,1.3650713103829462,1.1394086922702202,-1.0999516780632155
5.20914626121521,-1.173310205168533,0.16999801997899136,-0.08699999999999994,1.371737863052119,1.146070904770073,-1.106618298616574
5.2292256355285645,-1.1799768088910605,0.16999805952148536,-0.08699999999999994,1.3784044310103818,1.1527332479764278,-1.1132849275155505
5.249273061752319,-1.1833101118872438,0.16999808013887147,-0.08699999999999994,1.3817377204451329,1.1560644678439067,-1.1166182449226367
5.269384860992432,-1.1899767200652158,0.16999812268982636,-0.08699999999999994,1.3884043096852026,1.1627270026082417,-1.1232848853190758
5.289474725723267,-1.196643331048672,0.16999816657908307,-0.08699999999999994,1.3950709120516798,1.169389662083749,-1.1299515327293117
5.309520483016968,-1.2033099447115418,0.16999821139103125,-0.08699999999999994,1.4017375267271628,1.1760524438837965,-1.1366181866557428
5.3302483558654785,-1.206643252509689,0.1699982340354086,-0.08699999999999994,1.4050708384327668,1.1793838799123535,-1.1399515159124423
5.350513935089111,-1.213309869965884,0.1699982796226003,-0.08699999999999994,1.411737470098453,1.1860468407465259,-1.1466181787233345
5.370537042617798,-1.2199764898073289,0.1699983254105412,-0.08699999999999994,1.4184041121480448,1.1927099179864973,-1.1532848468923442
5.390630483627319,-1.2266431119244998,0.16999837120304537,-0.08699999999999994,1.4250707638584108,1.1993731092890787,-1.159951519989905
5.41071629524231,-1.2299764238034876,0.16999839405037848,-0.08699999999999994,1.4284040931176483,1.2027047469860956,-1.1632848582577962
5.430956602096558,-1.2366430491386873,0.16999843956361535,-0.08699999999999994,1.435070758021109,1.2093681050258893,-1.169951537983732
5.4509193897247314,-1.243309676495215,0.16999848474299786,-0.08699999999999994,1.441737430892649,1.2160315713465533,-1.1766182216457148
5.471049070358276,-1.24997630577878,0.16999852949758465,-0.08699999999999994,1.4484041111004338,1.2226951436700149,-1.1832849088783846
5.4922075271606445,-1.2533096211148582,0.1699985516922873,-0.08699999999999994,1.451737453764906,1.226026968876857,-1.186618253724352
5.512195825576782,-1.2599762531211058,0.16999859567841422,-0.08699999999999994,1.4584041438476676,1.2326906959814499,-1.1932849456662071
5.532279968261719,-1.266642886836313,0.16999863908541582,-0.08699999999999994,1.46507083979704,1.2393545234923837,-1.1999516403411026
5.5525758266448975,-1.2733095221799957,0.1699986818729147,-0.08699999999999994,1.471737541068084,1.246018449213762,-1.206618337443211
5.572746276855469,-1.2766428404383723,0.16999870302419928,-0.08699999999999994,1.4750708935354786,1.2493504482242397,-1.209951686813305
5.592842102050781,-1.2833094780818668,0.16999874482562202,-0.08699999999999994,1.4817376018193584,1.256014517201179,-1.2166183870178398
5.612896919250488,-1.2899761171684414,0.16999878594174284,-0.08699999999999994,1.4884043141659815,1.2626786790147848,-1.22328508895437
5.632982492446899,-1.293309437231459,0.16999880623762792,-0.08699999999999994,1.491737671717124,1.2660107940777283,-1.226618440492967
5.6534271240234375,-1.2999760783558987,0.16999884629709996,-0.08699999999999994,1.4984043892958714,1.2726750912164935,-1.2332851445604813
5.673481225967407,-1.3066427207591147,0.16999888563892684,-0.08699999999999994,1.5050711098202343,1.2793394759947796,-1.2399518497583255
5.693531036376953,-1.313309364380875,0.16999892425628144,-0.08699999999999994,1.5117378328813322,1.2860039463857837,-1.2466185558704557
5.713720083236694,-1.3166426866306997,0.16999894329185433,-0.08699999999999994,1.5150711952411198,1.2893362130610513,-1.2499519092055382
5.733757734298706,-1.3233093319737868,0.16999898081510614,-0.08699999999999994,1.521737921386321,1.2960008081381196,-1.2566186163131834
5.753857374191284,-1.3299759783975402,0.16999901760687663,-0.08699999999999994,1.528404649136511,1.302665483896231,-1.2632853238525994
5.774133682250977,-1.333309301998825,0.16999903572844827,-0.08699999999999994,1.5317380135071381,1.3059978514302757,-1.2666186777302693
5.7942376136779785,-1.3399759168884353,0.16999880961635075,-0.08699999999999994,1.5384048548576776,1.3126593359737107,-1.2732854594097847
5.814323902130127,-1.346642534248168,0.16999864168921322,-0.08699999999999994,1.5450716992132394,1.3193210123546488,-1.2799522417819773
5.834433317184448,-1.3499758438381444,0.1699985760472192,-0.08699999999999994,1.5484051222106092,1.3226519230487306,-1.283285633066295
5.85450291633606,-1.3566424647723916,0.16999847531253748,-0.08699999999999994,1.555071969374991,1.3293138869567764,-1.2899524156026492
5.87483024597168,-1.3633090879616898,0.16999840855072026,-0.08699999999999994,1.5617388175047136,1.3359760376238077,-1.2966191978105086
5.89507794380188,-1.3699757133097092,0.16999836900671622,-0.08699999999999994,1.5684056659243018,1.3426383711880843,-1.3032859793700207
5.915221929550171,-1.3733090267644845,0.16999835768855523,-0.08699999999999994,1.5717390900432517,1.3459696053685695,-1.3066193698135842
5.935267925262451,-1.3799756551806377,0.16999834904627495,-0.08699999999999994,1.5784059377230408,1.3526322061876774,-1.3132861498555373
5.955423355102539,-1.3866422855356468,0.16999835583077835,-0.08699999999999994,1.5850727841864567,1.3592949805502559,-1.3199529285573963
5.975488662719727,-1.393308917749347,0.16999837481220936,-0.08699999999999994,1.5917396289017953,1.3659579248368265,-1.3266197056832474
5.995618581771851,-1.396642234529284,0.1699983880386344,-0.08699999999999994,1.5950730504485315,1.3692894595898515,-1.3299530935874773
6.015681028366089,-1.4033088693896405,0.16999842056960388,-0.08699999999999994,1.601739891630458,1.3759526521308552,-1.3366198679547856
6.03575325012207,-1.4099755059257788,0.16999845965902052,-0.08699999999999994,1.6084067299051006,1.3826160058581864,-1.343286640250468
6.055934906005859,-1.4133088248012802,0.1699984811681615,-0.08699999999999994,1.6117401478264968,1.3859477421110928,-1.3466200255697987
6.076045274734497,-1.4199754637270374,0.16999852729226161,-0.08699999999999994,1.6184069810062005,1.3926113313240045,-1.3532867944585683
6.096153497695923,-1.4266421041680022,0.16999857664406187,-0.08699999999999994,1.6250738103532383,1.3992750734381265,-1.359953560903665
6.116252899169922,-1.433308746065474,0.16999862831014256,-0.08699999999999994,1.6317406355605861,1.4059389652683447,-1.3666203247878448
6.1363513469696045,-1.4366420675428433,0.16999865477378215,-0.08699999999999994,1.6350740465255633,1.4092709663520222,-1.3699537057375588
6.156419277191162,-1.4433087115212129,0.16999870856733057,-0.08699999999999994,1.6417408650244905,1.4159350769476349,-1.3766204655969676
6.176907539367676,-1.44997535682142,0.1699987630769843,-0.08699999999999994,1.6484076787688553,1.4225993296242134,-1.3832872226738366
6.196658611297607,-1.456642003393924,0.1699988178629519,-0.08699999999999994,1.6550744875724397,1.4292637214603199,-1.389953976905897
6.216782331466675,-1.4599753271424099,0.1699988452450214,-0.08699999999999994,1.6584078900724057,1.4325959686711902,-1.3932873529394658
6.236889839172363,-1.4666419755352114,0.16999889979602922,-0.08699999999999994,1.6650746911887455,1.4392605639367244,-1.3999541028175533
6.256955862045288,-1.4733086250856406,0.16999895384929606,-0.08699999999999994,1.6717414870443186,1.4459252913948002,-1.4066208497537729
6.277420520782471,-1.4799752757510278,0.16999900718958968,-0.08699999999999994,1.6784082775684501,1.4525901483947719,-1.4132875937305467
6.297234773635864,-1.4833086014889283,0.16999903353589702,-0.08699999999999994,1.6817416708179898,1.455922624666134,-1.4166209646066459
6.317357301712036,-1.4899752229228969,0.16999876625389496,-0.08699999999999994,1.6884087656341573,1.462584666572838,-1.4232879251954467
6.337460279464722,-1.4933085345657275,0.1699986601804907,-0.08699999999999994,1.6917423101106848,1.4659158185339018,-1.426621404009425
6.358137369155884,-1.4933085345657275,0.1699986601804907,-0.08699999999999994,1.6917423101106848,1.4659158185339018,-1.426621404009425
6.378180980682373,-1.4999751597153261,0.16999849442309942,-0.08699999999999994,1.698409392786813,1.4725783920533244,-1.4332883583186036
6.401015520095825,-1.50664178724923,0.16999837979884405,-0.08699999999999994,1.705076467480538,1.4792413214235554,-1.439955308243982
6.421088695526123,-1.5133084170467967,0.169998305576529,-0.08699999999999994,1.7117435347524874,1.485904602495216,-1.4466222538467646
6.441220998764038,-1.5199750489875394,0.16999826304284202,-0.08699999999999994,1.7184105952743904,1.4925682313325905,-1.4532891951985734
6.461314678192139,-1.5233083657238813,0.1699982513919901,-0.08699999999999994,1.7217441232446562,1.495900174992146,-1.4566226643047706
6.481417179107666,-1.5299750006527104,0.16999824354080834,-0.08699999999999994,1.7284111751469255,1.5025643185681812,-1.463289599428932
6.501437187194824,-1.536641637421254,0.16999825207848024,-0.08699999999999994,1.7350782224724632,1.5092288010113133,-1.4699565305045317
6.521666526794434,-1.5399749030524685,0.16999750378138345,-0.08699999999999994,1.738412731434657,1.5125603365683047,-1.4732907039085215
6.541943550109863,-1.5466414339274146,0.16999621916191868,-0.08699999999999994,1.7450817993378855,1.5192240970010948,-1.4799590625638732
6.562053680419922,-1.5533079652474413,0.1699951803832313,-0.08699999999999994,1.7517509277451073,1.525888944644165,-1.4866274296237876
6.582008361816406,-1.5599744964805253,0.16999433671326056,-0.08699999999999994,1.7584201226914464,1.5325548793267378,-1.4932958041189865
6.602200984954834,-1.563307761892839,0.16999397483849776,-0.08699999999999994,1.7617547471301014,1.5358882540994114,-1.4966299938295424
6.622289419174194,-1.5699742919597586,0.16999334901812377,-0.08699999999999994,1.7684240541824947,1.5425558183868364,-1.5032983774508029
6.642422676086426,-1.5766408205423572,0.16999282932334434,-0.08699999999999994,1.775093444752587,1.5492244692188923,-1.5099667655953684
6.662469148635864,-1.583307347061347,0.16999239126145732,-0.08699999999999994,1.7817629263343728,1.5558942073073365,-1.5166351568291034
6.683913469314575,-1.586640609362611,0.16999219646790067,-0.08699999999999994,1.7850977037074065,1.5592294844306733,-1.5199693531088827
6.704133033752441,-1.5933071316730576,0.16999184472102025,-0.08699999999999994,1.7917673367462652,1.5659008558145326,-1.5266377459016407
6.724132776260376,-1.5999736504172553,0.1699915315826321,-0.08699999999999994,1.7984370813123185,1.5725733183599606,-1.5333061374038968
6.7442731857299805,-1.6066402323015592,0.16999211984256082,-0.08699999999999994,1.8051055439878168,1.579243936138172,-1.5399737772953441
6.764332056045532,-1.6099735564860567,0.16999278138995638,-0.08699999999999994,1.8084390929526968,1.582578001296403,-1.5433072210864538
6.784465312957764,-1.6166402049548299,0.1699939122924093,-0.08699999999999994,1.8151062034985626,1.5892463676064117,-1.549974105407983
6.804529905319214,-1.6233068534169182,0.16999482666460256,-0.08699999999999994,1.8217733330413433,1.5959150481056332,-1.5566409851626064
6.824609041213989,-1.6266401775921102,0.1699952153676644,-0.08699999999999994,1.8251069057828324,1.599249506086697,-1.5599744232299781
6.844716787338257,-1.6333068257210712,0.1699958769304959,-0.08699999999999994,1.8317740689759388,1.6059186574383937,-1.5666412955167246
6.864882707595825,-1.6399734734044058,0.16999640744713826,-0.08699999999999994,1.8384412582467113,1.6125881226861893,-1.5733081623207492
6.884931802749634,-1.6466401204566559,0.1699968302913381,-0.08699999999999994,1.8451084766784553,1.6192579020510767,-1.5799750231580534
6.904998779296875,-1.6533067666866204,0.16999716436879625,-0.08699999999999994,1.8517757275001605,1.625927995945898,-1.5866418774696767
6.925158500671387,-1.6566400894319173,0.16999730301883195,-0.08699999999999994,1.8551093661064917,1.6292631610229584,-1.5899753019819123
6.945226430892944,-1.6633067340573273,0.16999753167097714,-0.08699999999999994,1.861776671889617,1.6359337279005477,-1.5966421452802484
6.965451955795288,-1.6699733773572134,0.16999770445907114,-0.08699999999999994,1.8684440187815237,1.642604611162238,-1.6033089802935694
6.98725438117981,-1.673306698444267,0.1699977727799803,-0.08699999999999994,1.8717777088090155,1.6459401717616273,-1.606642394427719
7.00739598274231,-1.67997333935787,0.16999787804329536,-0.08699999999999994,1.8784451244410836,1.6526115316427306,-1.6133092153665753
7.027473449707031,-1.6866399784071182,0.16999794674104296,-0.08699999999999994,1.8851125908384925,1.6592832108851037,-1.6199760256793663
7.047545909881592,-1.6933066301267081,0.16999815639222404,-0.08699999999999994,1.8917797370431804,1.6659532317067867,-1.6266427566355062
7.067957401275635,-1.6966399630111988,0.1699983240372117,-0.08699999999999994,1.89511313270389,1.6692873144231755,-1.6299760859403039
7.087728261947632,-1.7033066285180516,0.16999860774078063,-0.08699999999999994,1.9017799335257266,1.675955546756776,-1.6366427418826794
7.107809782028198,-1.7099732936192351,0.16999883320050468,-0.08699999999999994,1.9084467480684288,1.6826238685303325,-1.6433093940385946
7.127948045730591,-1.7166399582455352,0.16999901094061956,-0.08699999999999994,1.9151135776419366,1.6892922800946981,-1.6499760421025473
7.148003101348877,-1.719973290358417,0.16999908464459776,-0.08699999999999994,1.9184469984889572,1.6926265196782282,-1.6533093644949888
7.168173313140869,-1.7266399541381767,0.16999920625212142,-0.08699999999999994,1.9251138531799505,1.6992950667468112,-1.6599760057706474
7.188258409500122,-1.7333066172612153,0.1699992984804463,-0.08699999999999994,1.9317807264077316,1.7059637047999185,-1.6666426420325362
7.208377838134766,-1.739973280673441,0.16999937241301905,-0.08699999999999994,1.9384476179746992,1.7123694678814347,-1.6733092642501717
7.228409767150879,-1.7433066127339887,0.16999940478256975,-0.08699999999999994,1.9417810708531558,1.7151337852803326,-1.6766425675645695
7.24849009513855,-1.749973275803411,0.1699994522059086,-0.08699999999999994,1.9484479933967285,1.7198607624335729,-1.6833091734126946
7.268924713134766,-1.7566399375283308,0.16999948107713694,-0.08699999999999994,1.9551149372906937,1.723689609812153,-1.6899757781175035
7.288767576217651,-1.7633065979602631,0.16999949572159884,-0.08699999999999994,1.9617819016053317,1.72679097498084,-1.6966423816267033
7.309263229370117,-1.7666399277026956,0.16999949877604795,-0.08699999999999994,1.965115391210658,1.7281131361404236,-1.6999756829327017
7.329246520996094,-1.773306586255497,0.16999949803493494,-0.08699999999999994,1.9717823850311202,1.7303740331789261,-1.706642284666393
7.34920859336853,-1.7799732435772233,0.1699994899347044,-0.08699999999999994,1.9784493980980309,1.7322053627218892,-1.7133088852688676
7.369499683380127,-1.7866398996736612,0.16999947615516395,-0.08699999999999994,1.9851164302814472,1.733688743551592,-1.7199754847967839
7.389754056930542,-1.7899732272620308,0.16999946754670928,-0.08699999999999994,1.9884499535417697,1.7343211339764515,-1.7233087841766177
7.4095892906188965,-1.796639881514709,0.16999944753491972,-0.08699999999999994,1.9951170144687773,1.73540252544809,-1.7299753822055437
7.429678440093994,-1.8033065345254191,0.16999942446443625,-0.08699999999999994,2.001784094776047,1.7362784580084563,-1.7366419793079546
7.450132608413696,-1.8099731862781536,0.1699993989580472,-0.08699999999999994,2.0084511947526766,1.7369879692874493,-1.7433085755371818
7.470061540603638,-1.8133065116766536,0.1699993854409521,-0.08699999999999994,2.011784752230356,1.7372904475609285,-1.746641873339535
7.490163326263428,-1.8199731615037362,0.16999935710748715,-0.08699999999999994,2.01845188243167,1.7378076903739117,-1.7533084683468767
7.510330677032471,-1.8266398100164607,0.1699993272727192,-0.08699999999999994,2.0251190333652054,1.7382266638237758,-1.7599750625895656
7.530346632003784,-1.8333064571871402,0.16999929614492665,-0.08699999999999994,2.031786205567665,1.7385660393855058,-1.7666416561006195
7.550429105758667,-1.836639780259915,0.16999928014399146,-0.08699999999999994,2.0351197998271746,1.7387107233773356,-1.769974952590526
7.5707292556762695,-1.8433064253605995,0.1699992473370544,-0.08699999999999994,2.041787005054394,1.7389581387489477,-1.7766415450535644
7.590891599655151,-1.8499730690404705,0.1699992135212844,-0.08699999999999994,2.048454233114176,1.7391585529541165,-1.7833081368430315
7.610845327377319,-1.8533063903368372,0.1699991962523506,-0.08699999999999994,2.0517878559242217,1.7392439957864052,-1.7866414324898006
7.630938768386841,-1.859973031820076,0.1699991610141364,-0.08699999999999994,2.058455119562082,1.7393901092823758,-1.7933080232940521
7.651077508926392,-1.8666396717931832,0.16999912485822513,-0.08699999999999994,2.0651224078606094,1.7395084696290528,-1.799974613451484
7.67116641998291,-1.8733063102181082,0.16999908779229764,-0.08699999999999994,2.0717897216149037,1.7396043501892016,-1.8066412029650163
7.691232442855835,-1.8766396288377998,0.16999906891768563,-0.08699999999999994,2.0751233882956375,1.73964522903697,-1.8099744974801084
7.711641311645508,-1.8833062648666679,0.1699990304802945,-0.08699999999999994,2.0817907417972914,1.739715138827897,-1.816641086024371
7.731547117233276,-1.8899728992475242,0.16999899111493477,-0.08699999999999994,2.0884581228859513,1.73977177510665,-1.823307673914551
7.752017259597778,-1.8933062158069944,0.16999897107944367,-0.08699999999999994,2.0917918240575575,1.7397959237587057,-1.8266409676111817
7.772078037261963,-1.8999728476376665,0.16999893029166874,-0.08699999999999994,2.0984592482358457,1.7398372254324195,-1.8333075544992175
7.792173624038696,-1.9066394777149644,0.169998888531963,-0.08699999999999994,2.1051267023227647,1.739870689819135,-1.8399741407000112
7.812266111373901,-1.9133061059954688,0.1699988457799469,-0.08699999999999994,2.1117941872974844,1.7398978062803883,-1.8466407261942566
7.832363128662109,-1.916639419448182,0.1699988240252994,-0.08699999999999994,2.1151279416814446,1.7399093705428266,-1.8499740186694744
7.852447271347046,-1.923306044950733,0.16999877974560224,-0.08699999999999994,2.1217954748850842,1.7399291536520538,-1.856640603060393
7.872498989105225,-1.9299726685453427,0.16999873442132615,-0.08699999999999994,2.1284630415463686,1.73994518897872,-1.8633071866819566
7.892628192901611,-1.9333059796130185,0.16999871136104117,-0.08699999999999994,2.131796837758757,1.7399520294511883,-1.8666404781947168
7.9127092361450195,-1.93997260026058,0.16999866443159836,-0.08699999999999994,2.138464456632039,1.7399637354179236,-1.8733070606033908
7.93332576751709,-1.9466392188861084,0.16999861640734631,-0.08699999999999994,2.145132111702867,1.7399732289663017,-1.8799736421594988
7.953291654586792,-1.9499725274261681,0.16999859197871448,-0.08699999999999994,2.1484659531684223,1.739977280850049,-1.88330693260579
7.973422288894653,-1.9566391429318457,0.16999854227694533,-0.08699999999999994,2.1551336646863963,1.7399842188708499,-1.8899735128089672
7.9935197830200195,-1.9633057562993992,0.16999849143441753,-0.08699999999999994,2.1618014153081155,1.7399898510912795,-1.8966400920560478
8.01396131515503,-1.966639062166765,0.1699984655800263,-0.08699999999999994,2.1651353056594704,1.7399922571042454,-1.8999733813064492
8.034168720245361,-1.9733056722393834,0.16999841299474996,-0.08699999999999994,2.171803117210541,1.7399963812244394,-1.9066399590299665
8.054262161254883,-1.9799722800567545,0.1699983592277626,-0.08699999999999994,2.1784709709346974,1.7399997348883482,-1.9133065356733403
8.074323892593384,-1.9866388855719677,0.16999830426412185,-0.08699999999999994,2.185138868104622,1.7400024647608578,-1.9199731111811345
8.094592571258545,-1.993305488738179,0.16999824808970856,-0.08699999999999994,2.1918068100183286,1.7400046896381425,-1.9266396854945536
8.114691972732544,-1.9966387894258062,0.16999821954427483,-0.08699999999999994,2.19514079816659,1.7400056435315199,-1.9299729721840742
8.134817123413086,-1.9999720895086832,0.16999819069122574,-0.08699999999999994,2.1984747979988923,1.740006505742259,-1.9333062585514185
8.154870748519897,-2.0033053889810057,0.16999816152902755,-0.08699999999999994,2.201808809684488,1.740007285473998,-1.9366395445882818
8.175267696380615,-2.006638687836987,0.1699981320561979,-0.08699999999999994,2.2051428333941576,1.740007991009763,-1.9399728302861456
8.195310354232788,-2.0133052836768845,0.16999807217297228,-0.08699999999999994,2.211810917576413,1.7400092085654792,-1.9466394006297254
8.215551853179932,-2.019971876982536,0.16999801103072187,-0.08699999999999994,2.2184790519420314,1.7400102095362482,-1.9533059695097055
8.235498189926147,-2.0266384677085467,0.16999794861945094,-0.08699999999999994,2.2251472379110786,1.7400110353300537,-1.959972536850176
8.255582571029663,-2.029971762090144,0.16999791693503824,-0.08699999999999994,2.228481350697031,1.7400113932799057,-1.9633058199184252
8.276004552841187,-2.036638348862762,0.16999785260333242,-0.08699999999999994,2.2351496167845957,1.7400120171435933,-1.9699723847997128
8.295864343643188,-2.043304932944759,0.16999778698130996,-0.08699999999999994,2.2418179381264696,1.7400125380986855,-1.9766389479365334
8.315932512283325,-2.0499715142929706,0.16999772006196062,-0.08699999999999994,2.2484863162219715,1.740012975934056,-1.983305509240825
8.336847305297852,-2.0533048039286452,0.16999768611383878,-0.08699999999999994,2.251820527026745,1.7400131688152949,-1.9866387891773052
8.356923818588257,-2.0599713810971076,0.16999761723729198,-0.08699999999999994,2.2584889931106074,1.7400135110345278,-1.9933053475601101
8.377052545547485,-2.0666379978464495,0.1699977874645117,-0.08699999999999994,2.265156712529154,1.7400130483987366,-1.9999718968524307
8.39711880683899,-2.073304612643821,0.16999791520237614,-0.08699999999999994,2.271824472414868,1.7400126802079643,-2.0066384451563453
8.417197704315186,-2.076637919293639,0.16999796562423586,-0.08699999999999994,2.2751583680307594,1.7400125260295847,-2.0099717189141986
8.437255620956421,-2.083304531073682,0.16999804377058278,-0.08699999999999994,2.281826191381601,1.7400122680073828,-2.016638265607504
8.457440376281738,-2.08997114079894,0.1699980963089444,-0.08699999999999994,2.2884940586023985,1.7400120665565986,-2.0233048111566427
8.477670907974243,-2.0966377484356626,0.16999812789140775,-0.08699999999999994,2.29516197096283,1.7400119111377434,-2.02997135550201
8.497767925262451,-2.0999710514604955,0.16999813703134797,-0.08699999999999994,2.2984959444721222,1.7400118479537403,-2.0333046272038886
8.517851829528809,-2.1066376559029294,0.16999814401534002,-0.08699999999999994,2.3051639269618516,1.7400117460842435,-2.039971169625732
8.537988185882568,-2.1133042581761834,0.16999813816423862,-0.08699999999999994,2.31183195784274,1.7400116718248861,-2.0466377106825977
8.558476686477661,-2.119970858249718,0.16999812170298756,-0.08699999999999994,2.318500038444552,1.7400116201183249,-2.05330425030517
8.578595638275146,-2.1233041574523486,0.16999811007103488,-0.08699999999999994,2.3218340978106293,1.7400116014079923,-2.0566375195561903
8.59880518913269,-2.1299707541715027,0.16999808096473368,-0.08699999999999994,2.32850225552093,1.7400115760841914,-2.063304056891414
8.618775606155396,-2.1366373486196593,0.1699980451342971,-0.08699999999999994,2.3351704663428223,1.7400115644554486,-2.0699705926072327
8.638838768005371,-2.1399706449838574,0.16999802503896363,-0.08699999999999994,2.3385045921015424,1.7400115629953725,-2.0733038598333846
8.658923625946045,-2.1466372641513995,0.16999812890484603,-0.08699999999999994,2.3451722820390852,1.7400108056485113,-2.079970440333737
8.679330587387085,-2.153303852810496,0.16999805240648816,-0.08699999999999994,2.3518406317043983,1.7400109633098673,-2.086636971652081
8.699298858642578,-2.159970438669724,0.1699979751243068,-0.08699999999999994,2.3585090474919927,1.7400110962738637,-2.0799701690662444
8.719345092773438,-2.166637078866354,0.16333115512506866,-0.08699999999999994,2.3651763725016535,1.7400106434631462,-2.0733033425497873
8.739429712295532,-2.163303744068037,0.15999781083060333,-0.08699999999999994,2.3685099353442682,1.7400117887376654,-2.0699697416674527
8.75951623916626,-2.1566369870199407,0.15333062490171698,-0.08699999999999994,2.3751785686239253,1.740011816931164,-2.0633029500757947
8.779638767242432,-2.149970225051086,0.14666341511552725,-0.08699999999999994,2.3818473094570867,1.740011857031499,-2.0566361680364014
8.79967713356018,-2.143303458051181,0.13999618124724708,-0.08699999999999994,2.3885161608697145,1.74001191124616,-2.049969395498901
8.820526361465454,-2.139970072616257,0.13666255513085165,-0.08699999999999994,2.39185062923058,1.7400119436592092,-2.046636012875283
8.840715408325195,-2.133303297781268,0.1299952842319525,-0.08699999999999994,2.398519653674486,1.7400120191118953,-2.0399692550742965
8.860751628875732,-2.1266365175347506,0.12332798804520578,-0.08699999999999994,2.405188798346718,1.7400121087388245,-2.033302507398426
8.880869150161743,-2.1199697317301918,0.1166606660946593,-0.08699999999999994,2.4118580672189363,1.7400122125280928,-2.0266357700695004
8.900922536849976,-2.1133029402250734,0.1099933179094906,-0.08699999999999994,2.418527464318085,1.7400123304459003,-2.019969043291994
8.921079397201538,-2.1099695422914873,0.10665963383344715,-0.08699999999999994,2.4218622122247093,1.740012394686253,-2.016635683918902
8.941145658493042,-2.103302677383699,0.0999918967672391,-0.08699999999999994,2.428533222928909,1.740013722252686,-2.009968954479063
8.96120285987854,-2.0966358055283867,0.09332412932328937,-0.08699999999999994,2.4352044025998665,1.7400148665759476,-2.0033022352653376
8.981411457061768,-2.0933023669697333,0.08999023410840197,-0.08699999999999994,2.438540057072404,1.740015381790807,-1.9999688794957975
9.001517057418823,-2.0866354845343,0.08332242044990738,-0.08699999999999994,2.4452114980099284,1.7400163178636954,-1.9933021756429317
9.021645545959473,-2.079968686990215,0.08998840563096666,-0.08699999999999994,2.4518808894891526,1.740014639668236,-1.9999689708587165
9.041715383529663,-2.073301799273307,0.09665388572734412,-0.08699999999999994,2.458552528368033,1.7400157599119261,-2.006635578470155
9.06181025505066,-2.0666349116401785,0.10331935256290188,-0.08699999999999994,2.46522421934634,1.7400166468763059,-2.0133021641315954
9.08187222480774,-2.063301467875176,0.1066520809422715,-0.08699999999999994,2.468560084965129,1.7400170165235505,-2.01663544876499
9.102266073226929,-2.056634695230276,0.1066514849388026,-0.08699999999999994,2.4752293621072754,1.7400165904123668,-2.0166352394480547
9.122196435928345,-2.049967802834437,0.09998357136376475,-0.08699999999999994,2.4819012826620703,1.7400173224800626,-2.0099684617787723
9.14218807220459,-2.0433009036009606,0.09331562590444821,-0.08699999999999994,2.488573388673514,1.7400179880651085,-2.0033016925379354
9.162302494049072,-2.0399674514297415,0.0899816412305378,-0.08699999999999994,2.4919095120538826,1.7400183005417136,-1.999968310990114
9.18237566947937,-2.0333005419649743,0.08331364782696257,-0.08699999999999994,2.498581901934631,1.7400188922825415,-1.9933015539674015
9.202449560165405,-2.0266336256609647,0.0766456221411504,-0.08699999999999994,2.5052544857472534,1.7400194478996893,-1.986634804926937
9.222574234008789,-2.019966702516754,0.06997756394250076,-0.08699999999999994,2.511927267142786,1.740019975459677,-1.9799680637080574
9.242615938186646,-2.0166332383826284,0.0666435225849026,-0.08699999999999994,2.5152637330492733,1.7400202307826895,-1.9766346959743495
9.262713193893433,-2.009966305003383,0.059975415233894755,-0.08699999999999994,2.521936817453051,1.7400207278872224,-1.969967966129238
9.282878398895264,-2.0032993648364057,0.053307274893566424,-0.08699999999999994,2.5286101081261405,1.7400212105962574,-1.9633012435889607
9.303033113479614,-1.999965892220759,0.04997319230508484,-0.08699999999999994,2.531946831840599,1.7400214476970959,-1.9599678849800555
9.323140859603882,-1.9932989419591405,0.04330500221065595,-0.08699999999999994,2.5386204380075896,1.7400219152298109,-1.9533011729139842
9.343225240707397,-1.9866319850460037,0.03663677880409564,-0.08699999999999994,2.5452942583658364,1.7400223758223385,-1.9466344674698781
9.36336612701416,-1.9799650220533356,0.029968524614422693,-0.08699999999999994,2.5519682839146265,1.7400228249801097,-1.9533011015214672
9.38341760635376,-1.9732980997985985,0.0366338937771795,-0.08699999999999994,2.5586405588572307,1.74001975054241,-1.9599682645064969
9.40353536605835,-1.9699646167284963,0.03996641325538121,-0.08699999999999994,2.5619776845280633,1.7400202716547324,-1.9633015691751552
9.42361569404602,-1.9632976522866388,0.04663144287114836,-0.08699999999999994,2.568651972171274,1.7400211328297948,-1.969968158425294
9.443694114685059,-1.963297496284941,0.05329727722928193,-0.08699999999999994,2.575322316687244,1.7400179901059611,-1.9766350324287294
9.463893413543701,-1.9666306828050444,0.05662978116540468,-0.08699999999999994,2.5786595033426223,1.7400186276243812,-1.9799683051067556
9.48404049873352,-1.9696462987020926,0.04996283949501046,-0.08699999999999994,2.585327568195454,1.7400166514778994,-1.973301456674909
9.50419020652771,-1.9629795159186418,0.043295484204265156,-0.08699999999999994,2.591997601628941,1.7400162509699117,-1.9666345490619113
9.524168729782104,-1.9563127568368879,0.036628289688069436,-0.08699999999999994,2.5986667670429657,1.7400146345738823,-1.9599678403973215
