liuyurong129/humanoid-gym/humanoid/data/robot1_action_20250621-214834.csv
timestamp,joint_1,joint_2,joint_3,joint_4,joint_5,joint_6
0.0003218650817871094,0.0,0.0,0.0,0.0,0.0,0.0
0.02041792869567871,0.0,0.0,0.0,0.0,0.0,0.0
0.04044508934020996,0.0,0.0,0.0,0.0,0.0,0.0
0.06076836585998535,0.0,0.0,0.0,0.0,0.0,0.0
0.08098554611206055,0.0,0.0,0.0,0.0,0.0,0.0
0.10096406936645508,0.0,0.0,0.0,0.0,0.0,0.0
0.12101912498474121,1.3298875,-0.9307179,0.7302446,2.5537727,1.8532199,0.943713
0.14110040664672852,2.1662624,-1.1751668,1.2394048,3.1714392,3.2980263,2.3333173
0.1612098217010498,2.3307536,-1.2052716,1.5679125,3.83924,3.8245022,2.503303
0.18127727508544922,2.3864028,-1.2923933,1.6112354,3.9489837,4.0647535,2.2594397
0.20133209228515625,2.3473113,-1.3700922,1.6093991,3.9188747,4.0383782,2.0483189
0.22183585166931152,2.3303893,-1.4053816,1.5800518,3.8574734,4.011542,1.9805317
0.24193334579467773,2.3303893,-1.4053816,1.5800518,3.8574734,4.011542,1.9805317
0.26204586029052734,2.3276644,-1.4277993,1.5376657,3.7874534,4.015136,2.0127578
0.28212857246398926,2.3310277,-1.4498799,1.4806161,3.7107613,4.0671573,2.1259158
0.3023233413696289,2.336361,-1.4724296,1.4068798,3.6266851,4.1659,2.3049755
0.32234740257263184,2.3296173,-1.4972984,1.3038293,3.5255394,4.291147,2.5402029
0.34243059158325195,2.2791553,-1.516534,1.1090745,3.3777308,4.4144225,2.8720505
0.3625023365020752,2.1947286,-1.5288509,0.7595819,3.1360884,4.5262284,3.3329458
0.3825829029083252,2.0926204,-1.5157424,0.08608774,2.6693687,4.7024217,4.0341535
0.4027113914489746,2.0926204,-1.5157424,0.08608774,2.6693687,4.7024217,4.0341535
0.4228789806365967,1.9114153,-1.5641817,-0.7775884,1.9404366,5.0059676,5.212069
0.44292521476745605,1.7680012,-1.5702394,-1.5274966,1.7302417,4.912832,5.7144194
0.4632837772369385,1.8011847,-1.5609468,-1.7507646,1.8004566,4.732001,5.724581
0.4834563732147217,1.7332389,-1.5856988,-1.7749702,1.8864919,4.60929,5.6138735
0.5035154819488525,1.5946157,-1.6206896,-1.724271,1.9198675,4.5199103,5.5052185
0.5235490798950195,1.440289,-1.6529598,-1.6618451,1.9296741,4.448358,5.428164
0.543649435043335,1.440289,-1.6529598,-1.6618451,1.9296741,4.448358,5.428164
0.5637586116790771,1.0676262,-1.716457,-1.5223466,1.9824269,4.1361275,5.09233
0.5838370323181152,0.75821424,-1.7577864,-1.4234732,1.9689884,4.0469623,5.0914707
0.6039066314697266,0.5553358,-1.7976817,-1.3371072,1.9577837,3.8503528,4.9879103
0.6239876747131348,0.35150668,-1.8531765,-1.2149017,1.9392631,3.6105661,4.8950086
0.6443674564361572,0.12240961,-1.9244516,-1.016196,1.9482441,3.2932708,4.6802607
0.6643085479736328,0.13338134,-1.9924978,-0.6078054,2.104256,3.1325243,3.765803
0.6843490600585938,0.13338134,-1.9924978,-0.6078054,2.104256,3.1325243,3.765803
0.704456090927124,0.032978088,-2.0349824,-0.2947231,2.109173,3.219748,3.8795586
0.7245559692382812,0.0580419,-2.0489235,-0.09311909,2.216107,3.1338441,3.5625572
0.7446014881134033,0.084011644,-2.0594876,0.081163235,2.2551954,3.149454,3.479399
0.7646994590759277,-0.053896517,-1.4439437,-0.7691981,2.3839667,3.1911576,3.8129835
0.7849102020263672,0.17068037,-1.9740092,-0.36843154,2.1811564,3.0259511,3.553429
0.804908275604248,-0.32454732,-2.096495,-0.09578077,2.1062217,2.7921722,4.2002454
0.8255653381347656,-0.32454732,-2.096495,-0.09578077,2.1062217,2.7921722,4.2002454
0.8456840515136719,-0.18170583,-2.0905268,0.18183707,2.30273,2.6159604,3.4189696
0.8657488822937012,-0.7199034,-1.8724225,-0.26958066,2.473107,2.4536946,3.720942
0.8859391212463379,-0.59036106,-2.1579762,0.21677011,2.4496162,2.694844,3.9412088
0.906029224395752,-0.6914158,-1.8152089,-0.43976477,2.5395052,2.9234273,4.2128587
0.9261233806610107,-0.43620518,-2.0601325,0.04761722,2.543942,3.1444745,4.338581
0.9461827278137207,-0.9201689,-1.7938946,-0.633569,2.5625224,2.251683,4.127306
0.9662940502166748,-0.9201689,-1.7938946,-0.633569,2.5625224,2.251683,4.127306
0.9866464138031006,-1.0831541,-2.2344656,0.19430801,2.5691476,1.9017726,3.8245523
1.006563425064087,-1.857398,-2.104518,-0.17852962,2.4608777,0.9188657,3.52922
1.0266544818878174,-1.6128007,-2.589439,0.7913976,2.4822338,1.4773161,3.2107012
1.0467479228973389,-2.008212,-2.3846788,0.4002276,2.4164064,0.9005671,2.9695354
1.0668511390686035,-2.0032048,-2.5214276,0.52624077,2.3495252,0.4164736,2.9990296
1.0873873233795166,-2.1051874,-2.6584964,0.72425896,2.3491235,0.48636112,2.74551
1.1075294017791748,-2.1051874,-2.6584964,0.72425896,2.3491235,0.48636112,2.74551
1.127683401107788,-2.1474853,-2.718185,0.80983585,2.4028382,0.39359042,2.5287814
1.1476898193359375,-2.1378963,-2.7490778,0.847735,2.3834963,0.1981295,2.3622634
1.1678688526153564,-2.146207,-2.7788172,0.86535823,2.3270292,-0.08389589,2.188099
1.1879024505615234,-2.2091453,-2.8214178,0.87104064,2.200982,-0.44883618,1.9062413
1.2079699039459229,-2.2091453,-2.8214178,0.87104064,2.200982,-0.44883618,1.9062413
1.228379726409912,-2.4308507,-2.9109755,0.8433102,1.9359704,-1.0800177,1.2537979
1.2484087944030762,-3.0191574,-3.1602387,0.7041429,1.8246993,-1.634731,0.52419955
1.2683913707733154,-3.0191574,-3.1602387,0.7041429,1.8246993,-1.634731,0.52419955
1.2884571552276611,-3.670535,-3.4052758,0.6010385,1.8365532,-2.3510492,-0.26144567
1.308565378189087,-4.296486,-3.719263,0.5792381,2.2447953,-3.192609,-0.51616424
1.3286714553833008,-4.982585,-3.7551236,0.6466726,2.7547898,-3.7413847,-1.5413346
1.3488109111785889,-5.7558427,-3.9733934,0.5672447,2.9742382,-4.5609016,-2.8052742
1.368833303451538,-6.38183,-4.1206746,0.47594285,3.20825,-5.5515447,-4.0273814
1.3891887664794922,-6.38183,-4.1206746,0.47594285,3.20825,-5.5515447,-4.0273814
1.409294843673706,-6.643191,-4.1591625,0.36964732,3.5580378,-6.5315623,-5.0907574
1.4294309616088867,-6.369452,-4.054212,0.31966484,4.000879,-7.02592,-5.379797
1.449462652206421,-5.8372116,-3.904334,0.31669593,4.291076,-7.206062,-5.236937
1.4695749282836914,-4.7533975,-3.5635633,0.3067297,4.2214465,-7.0168643,-4.322619
1.4896447658538818,-3.8271928,-3.3026013,0.34141743,4.0489626,-6.424513,-3.5312576
1.5097215175628662,-3.2683632,-2.9943419,0.42651904,3.661032,-5.7618766,-2.6654305
1.5298523902893066,-3.2683632,-2.9943419,0.42651904,3.661032,-5.7618766,-2.6654305
1.5499417781829834,-3.0030944,-2.7317162,0.50855154,3.1603024,-5.1917176,-1.9512463
1.570009708404541,-2.9572144,-2.5944848,0.57260865,2.7676468,-4.79154,-1.4079344
1.590101718902588,-2.8737295,-2.3283243,0.65604895,2.2414122,-4.3224626,-0.874268
1.6101672649383545,-2.595299,-1.7574545,0.7120506,1.4559934,-3.5843287,-0.38006175
1.6303093433380127,-2.6141343,-1.1792533,0.5936142,0.9249305,-3.3537948,-0.5966312
1.6503682136535645,-2.1561105,-0.6389132,0.54879755,0.3374316,-2.5714996,-0.32224923
1.6707656383514404,-2.1561105,-0.6389132,0.54879755,0.3374316,-2.5714996,-0.32224923
1.6908934116363525,-1.5238152,0.08507851,0.44202578,-0.5808711,-1.2672011,0.3866902
1.7109954357147217,-1.0557436,1.3540436,-0.05934503,-1.5149701,-0.47438917,1.357072
1.7310423851013184,-0.15723535,1.3183887,0.07265783,-1.9684563,-0.4781462,1.7659156
1.751159429550171,-0.13985914,1.0049931,0.09080913,-2.2802398,-0.5045017,1.5931301
1.771235704421997,-0.22618552,0.9594259,0.1301215,-2.462697,-0.50238293,1.4663185
1.7913098335266113,-0.5192054,1.3587931,-0.55663127,-2.280536,-0.56472325,1.550334
1.8115370273590088,-0.24427857,0.91719115,0.046623074,-2.5015535,-0.55610114,1.4157295
1.8317196369171143,-0.24427857,0.91719115,0.046623074,-2.5015535,-0.55610114,1.4157295
1.851768970489502,-0.13812794,0.7955252,0.3016072,-2.2281656,-0.66177946,1.3639312
1.8718721866607666,-0.9520675,1.1936951,-0.575317,-2.4405692,-0.34462517,1.1450458
1.8921239376068115,-0.4715927,0.76436424,0.14600483,-2.401538,-0.70155716,1.2496185
1.9122166633605957,-0.738144,1.3090266,-0.70787054,-2.18739,-0.5408342,1.3268799
1.9323620796203613,-0.36459994,0.6954956,0.16048683,-2.4538338,-0.54369336,1.2686278
1.9524104595184326,-0.681257,1.2676274,-0.6279372,-2.2075744,-0.49499652,1.3734882
1.9725170135498047,-0.681257,1.2676274,-0.6279372,-2.2075744,-0.49499652,1.3734882
1.9926033020019531,-0.51783013,0.5504874,0.2197071,-2.1250794,-0.6708565,1.0527124
2.0127272605895996,-0.7556733,1.1326891,-0.52471304,-2.1170168,-0.52566385,1.2420646
2.032806634902954,-0.5363331,0.4024756,0.31459725,-1.9945986,-0.6741013,0.9595749
2.0528523921966553,-0.73073465,0.98640907,-0.3968883,-2.0205033,-0.53565264,1.1653004
2.073040246963501,-0.52440405,0.23838854,0.42514443,-1.8392608,-0.665586,0.85798305
2.093158483505249,-0.7414577,0.8997394,-0.3006716,-1.9781556,-0.49262372,1.1887137
2.1132009029388428,-0.5430403,0.12311393,0.5094357,-1.7471652,-0.6295444,0.8138436
2.133578062057495,-0.5430403,0.12311393,0.5094357,-1.7471652,-0.6295444,0.8138436
2.1536974906921387,-0.7240313,0.7643187,-0.197027,-1.9084951,-0.49750128,1.1245371
2.173771858215332,-0.54512167,-0.021309257,0.6052749,-1.6143502,-0.6105318,0.7474869
2.1938529014587402,-0.68110955,0.57621914,-0.04809744,-1.7829863,-0.52075195,1.0314817
2.213970899581909,-0.49340114,-0.25051835,0.73496157,-1.3766848,-0.60323954,0.58902955
2.234039306640625,-0.40742576,-0.23998535,0.73527294,-1.3026968,-0.3957146,0.5887378
2.2541654109954834,-0.5672854,-0.38785586,0.76933855,-0.78568774,-0.4945195,0.21303004
2.2744836807250977,-0.5672854,-0.38785586,0.76933855,-0.78568774,-0.4945195,0.21303004
2.2945330142974854,-0.52567405,-0.7909551,0.9866469,-0.28629425,-0.50346005,0.30617028
2.314592123031616,-0.46173638,-1.1087106,1.1382259,0.21759143,-0.5242487,0.5036293
2.3346924781799316,-0.4791129,-1.3632245,1.2294781,0.8917239,-0.7264775,0.51373214
2.3549671173095703,0.037429124,-1.0441,1.3126155,1.0307989,-0.16066533,1.6311764
2.374957799911499,-0.15336886,-1.3042605,1.24321,1.7286633,0.3393298,1.3067805
2.395305633544922,-0.11749481,-1.5985919,0.99482036,2.3407862,1.1132848,1.969959
2.4152109622955322,-0.4810051,-1.766873,0.39380562,2.494051,1.2616018,2.6192086
2.4356250762939453,-0.4810051,-1.766873,0.39380562,2.494051,1.2616018,2.6192086
2.4557182788848877,-0.6848012,-1.8825424,-0.025469592,2.8215663,1.3758332,2.6394286
2.4757895469665527,-0.6153217,-2.312541,0.8209931,3.0675604,1.5979158,2.6071756
2.4959452152252197,-0.7907684,-2.0762272,0.3018422,3.1489186,1.4246463,2.4383016
2.516293525695801,-0.9551384,-2.0518951,-0.024946203,3.1446135,1.235172,2.5199528
2.536162853240967,-1.0000668,-2.4300065,0.8072999,3.1858275,1.2574033,2.5086126
2.5562713146209717,-1.3003057,-2.2273726,0.4041898,3.1259587,0.50295144,2.0372581
2.5764052867889404,-1.3003057,-2.2273726,0.4041898,3.1259587,0.50295144,2.0372581
2.596468687057495,-1.4471052,-2.2764325,0.13775612,3.0946846,0.38672778,2.0706794
2.61655592918396,-1.5605896,-2.7299356,0.91384655,2.9797397,0.2891384,1.8540032
2.636627197265625,-1.8544455,-2.5446825,0.55514723,2.971216,-0.068101674,1.5453142
2.657167434692383,-2.0139854,-2.5348425,0.33506092,2.963395,-0.3524728,1.4462671
2.6775622367858887,-2.06802,-2.526019,0.25322726,2.6237357,-0.5331008,1.0854127
2.6974680423736572,-2.182146,-2.5447626,0.22139451,2.512246,-0.8506288,0.9150887
2.717534065246582,-2.2003133,-2.7003102,0.52111304,2.3924954,-1.1635039,0.5421807
2.7376065254211426,-2.2003133,-2.7003102,0.52111304,2.3924954,-1.1635039,0.5421807
2.757707357406616,-2.3528898,-2.6474514,0.47938827,2.5182137,-1.7218785,0.10285266
2.7777721881866455,-2.3546038,-2.5829177,0.45762134,2.7290168,-2.3120594,-0.22558527
2.797863006591797,-2.1767046,-2.486134,0.44079208,3.0471716,-2.8815935,-0.8024327
2.8179330825805664,-1.649607,-2.241509,0.3912928,3.510779,-3.3194575,-1.3871331
2.8380320072174072,-0.7262838,-1.778056,0.40061486,3.8458247,-3.5015218,-1.4878032
2.8580939769744873,-0.7262838,-1.778056,0.40061486,3.8458247,-3.5015218,-1.4878032
2.8784279823303223,0.36818135,-1.0072365,0.44455817,3.9080625,-3.2822235,-1.1086149
2.8985395431518555,0.91622925,-0.55072016,0.31761605,3.1029298,-2.7138224,-0.7615624
2.918510675430298,0.61456823,-0.2516695,0.048474275,1.6914636,-1.8344042,-0.098601624
2.9386026859283447,-0.32434607,-0.058184624,-0.009025296,0.84971774,-2.2697322,-1.451333
2.9587020874023438,-0.09946552,0.45798606,0.1217012,-0.356029,-1.7210104,-0.500342
2.9788243770599365,0.17124702,0.45355237,-0.104902335,-1.203024,-0.44885853,0.035218913
2.9988391399383545,0.17124702,0.45355237,-0.104902335,-1.203024,-0.44885853,0.035218913
3.018949270248413,-0.006596758,0.9013512,-0.69871825,-2.318336,-0.14136419,0.3621771
3.039034128189087,0.05557418,1.2270063,-0.98548657,-3.0646465,-0.12980524,0.7783256
3.059115171432495,0.1059327,1.508039,-1.294684,-3.2901034,-0.29779026,1.2199334
3.079228639602661,0.10714537,1.6487297,-1.4861856,-3.3552108,-0.40904453,1.3723073
3.0993216037750244,0.11035329,1.7342738,-1.5666554,-3.3957322,-0.44734165,1.4604783
3.119678497314453,0.09476732,1.7782665,-1.5935782,-3.4188669,-0.47506365,1.5149024
3.1395151615142822,0.06409359,1.7887965,-1.5796307,-3.43438,-0.5011145,1.5308126
3.1607584953308105,0.06409359,1.7887965,-1.5796307,-3.43438,-0.5011145,1.5308126
3.1808505058288574,0.023937376,1.7801102,-1.5370157,-3.4472246,-0.52504104,1.5232388
3.201153516769409,-0.022557495,1.7554766,-1.4726009,-3.4551544,-0.5473663,1.4978684
3.221099615097046,-0.071717076,1.7157675,-1.3875678,-3.4567814,-0.56726503,1.458277
3.2413384914398193,-0.12207276,1.6587994,-1.2795165,-3.4489162,-0.58540136,1.4056939
3.2614314556121826,-0.17313534,1.579203,-1.1412221,-3.426537,-0.60295534,1.3387026
3.281501531600952,-0.22586419,1.4699546,-0.9624292,-3.3839998,-0.6209523,1.2529621
3.301945447921753,-0.27623644,1.3116515,-0.7139604,-3.306143,-0.63897574,1.141542
3.3220458030700684,-0.27623644,1.3116515,-0.7139604,-3.306143,-0.63897574,1.141542
3.3421218395233154,-0.34726438,1.1668023,-0.42363876,-3.202262,-0.5906331,1.1777843
3.3622007369995117,-0.45566222,1.0497981,-0.20449732,-2.949481,-0.7407246,1.2406876
3.382340669631958,-0.44967672,0.7381289,0.09336772,-2.5516887,-0.56353176,1.0469248
3.402395725250244,-0.37522152,0.3244208,0.48841345,-2.111572,-0.37740242,0.8328332
3.4224703311920166,-0.7972746,0.8082193,-0.31099802,-2.029935,-0.28519294,0.6147552
3.4425535202026367,-0.7621359,-0.25355,0.63306624,-1.5746121,-0.503222,0.058232468
3.462977170944214,-0.7621359,-0.25355,0.63306624,-1.5746121,-0.503222,0.058232468
3.483105182647705,-0.75069493,-0.13774419,0.11508966,-1.5378826,-0.44701394,0.057508025
3.5036511421203613,-0.653204,-0.3312976,0.5844292,-1.435525,-0.5892584,0.0804843
3.523373603820801,-0.38524497,-0.8224521,0.6109205,-1.035834,-0.28274336,-0.15216862
3.5442116260528564,-0.6283159,-0.7128991,0.34504953,0.69400346,-0.16472816,-0.5798624
3.5642945766448975,0.23066846,-1.0747926,0.914493,0.7888373,0.7771761,1.6629171
3.584376811981201,0.22119632,-1.4753166,0.5091228,1.9057807,1.4103853,1.5152668
3.6044299602508545,0.0918107,-1.6945713,0.18252727,2.467036,1.5534912,1.8074282
3.624528646469116,0.0918107,-1.6945713,0.18252727,2.467036,1.5534912,1.8074282
3.644615650177002,-0.20110476,-1.9020306,0.025203967,2.6868858,1.5430671,2.3715646
3.66500186920166,-0.47350872,-2.2668526,0.75000626,2.8819118,1.5599319,2.4168866
3.6848666667938232,-0.46045962,-2.0405827,0.32022268,3.1288218,1.4364662,2.0141373
3.7049522399902344,-0.43363807,-1.9615759,0.087640174,3.170537,1.3265682,2.102099
3.7250547409057617,-0.47163564,-2.295412,0.7453071,3.1563678,1.5726141,2.471349
3.7451295852661133,-0.4183065,-2.025916,0.2458504,3.1973329,1.4326812,2.1690862
3.7652010917663574,-0.4183065,-2.025916,0.2458504,3.1973329,1.4326812,2.1690862
3.785290479660034,-0.48358765,-1.9208767,-0.026429689,3.1376276,1.0860807,2.1572208
3.8056840896606445,-0.5020063,-2.313892,0.6834394,3.1151762,1.3864495,2.487244
3.8255674839019775,-0.5397966,-2.0489988,0.20444857,3.1407115,1.0573438,2.122161
3.8456385135650635,-0.4960877,-2.0276237,-0.038245477,2.9280763,0.7455019,2.2847283
3.865722179412842,-0.3510376,-2.3242097,0.7435567,2.9665587,0.76708704,2.167124
3.886080265045166,-0.87997174,-2.0788033,0.032452635,2.7208743,0.5766023,2.3463244
3.906158685684204,-0.87997174,-2.0788033,0.032452635,2.7208743,0.5766023,2.3463244
3.9262378215789795,-0.7882568,-2.4345298,0.8098361,2.9898648,0.84139967,2.1862266
3.9463841915130615,-0.5823179,-2.1550817,0.2933217,3.0334296,0.9485614,1.9867291
3.9664225578308105,-0.41200152,-2.008922,-0.10671737,3.0112534,1.076365,2.2184398
3.986534357070923,-0.53922105,-2.3826966,0.6013334,2.9425836,1.0004139,2.3835158
4.006645441055298,-0.4635218,-2.0533233,0.065404184,2.944766,0.8179205,2.1290274
4.026716947555542,-0.37808475,-2.3711991,0.6805794,3.0174153,1.0581574,2.3239996
4.046949863433838,-0.77755487,-2.0367947,0.015963623,2.6881063,0.46046063,2.1839592
4.067058563232422,-0.77755487,-2.0367947,0.015963623,2.6881063,0.46046063,2.1839592
4.087129354476929,-0.58457196,-2.4213524,0.699752,2.9255652,0.7403375,2.181695
4.107235431671143,-0.45827124,-2.021175,0.30471906,2.835032,0.5246394,1.8575059
4.127588748931885,-0.32243428,-1.8255035,0.00015615858,2.825615,0.5310213,2.0800254
4.147541522979736,-0.37234035,-2.4371924,0.6427523,2.858976,0.67111796,2.2986956
4.16761326789856,-0.93374485,-2.0220218,-0.0077875685,2.54701,0.07662502,2.1224818
4.187697887420654,-0.74376863,-2.501245,0.7839417,2.888809,0.12549523,1.9471055
4.208007097244263,-0.68759733,-1.8790573,0.48038173,2.6335912,-0.14676133,1.6738377
4.2279016971588135,-0.68759733,-1.8790573,0.48038173,2.6335912,-0.14676133,1.6738377
4.248091220855713,-0.45799184,-1.7342008,0.28629437,2.2513134,0.12444463,1.4260303
4.268140554428101,-0.3883364,-1.5506867,0.083664395,2.01538,0.1936821,1.5703444
4.288214206695557,-0.33263323,-2.1617594,0.85021603,2.005813,0.32783067,1.540071
4.308314323425293,-0.9037289,-1.3963586,0.345715,1.3141309,-0.13130009,1.3592567
4.328410625457764,-0.6747695,-0.83200246,0.26007923,1.4621859,-0.32835203,1.2642725
4.348502159118652,-0.535761,-0.53700453,0.19518304,1.0835451,-0.19325277,1.1948123
4.3685972690582275,-0.38329488,-0.86273617,1.0556964,0.9194963,-0.35187066,1.1528333
4.389657735824585,-0.38329488,-0.86273617,1.0556964,0.9194963,-0.35187066,1.1528333
4.409941911697388,-0.65100956,0.8367127,0.2780673,-0.5419104,0.25911477,1.4791683
4.4299092292785645,-0.32678315,2.2491455,-1.1295656,-1.8237855,0.1336365,1.7673628
4.450025320053101,-0.102760226,1.336067,-0.87096614,-2.449953,-0.021527324,0.94954664
4.470064401626587,0.0069089243,1.4860312,-0.87077355,-2.6620412,-0.48354355,1.4543114
4.490152359008789,-0.055403545,1.578794,-1.0536219,-2.6311598,-0.60821277,1.5196654
4.510221719741821,-0.083616614,1.5508002,-1.0244792,-2.6545882,-0.610503,1.4793072
4.530290842056274,-0.104626894,1.5703189,-0.98903364,-2.6972768,-0.62692165,1.5407702
4.550691843032837,-0.104626894,1.5703189,-0.98903364,-2.6972768,-0.62692165,1.5407702
4.570802688598633,-0.14305983,1.5487858,-0.9320926,-2.7070549,-0.6456142,1.5254047
4.590903043746948,-0.17723355,1.4956691,-0.82357836,-2.7048104,-0.6520626,1.4933498
4.6109678745269775,-0.22928202,1.4354934,-0.66984516,-2.681166,-0.59833795,1.5436642
4.63102650642395,-0.25022882,1.3753653,-0.5116039,-2.6656003,-0.54817694,1.5726616
4.6511452198028564,-0.25022882,1.3753653,-0.5116039,-2.6656003,-0.54817694,1.5726616
4.671369552612305,-0.25022882,1.3753653,-0.5116039,-2.6656003,-0.54817694,1.5726616
4.69150972366333,-0.2604979,1.3013585,-0.35262498,-2.649668,-0.527547,1.5655242
4.711821794509888,-0.25473055,1.2116208,-0.18216829,-2.611281,-0.5049055,1.5550709
4.731769800186157,-0.20990227,1.124218,0.018067116,-2.5352097,-0.46068797,1.546375
4.752149343490601,-0.18982437,0.9485148,0.22629622,-2.339391,-0.36776397,1.4445218
4.772002696990967,-0.5552033,1.8792149,-0.73221266,-2.628263,0.24795899,1.1237184
4.7921226024627686,-0.49728256,1.2488151,-0.19808233,-2.3145857,-0.3493081,1.2815154
4.82249641418457,-0.49728256,1.2488151,-0.19808233,-2.3145857,-0.3493081,1.2815154
4.8498077392578125,-0.49728256,1.2488151,-0.19808233,-2.3145857,-0.3493081,1.2815154
4.870030879974365,-0.49728256,1.2488151,-0.19808233,-2.3145857,-0.3493081,1.2815154
4.8901097774505615,-0.36666968,0.799224,0.17079534,-1.8288622,-0.38566032,1.1659142
4.910448312759399,-0.66674054,1.6014866,-0.41976926,-2.214494,0.21426465,1.0976719
4.930411100387573,-0.5669518,0.7064547,0.12156617,-1.6440301,-0.43822518,0.8320353
4.950520753860474,-0.3249893,0.5767422,0.29387203,-1.5232519,-0.2247305,0.93862754
4.970582008361816,-0.71238667,1.1237037,-0.07089675,-1.9705482,0.28711203,0.66661805
4.990647554397583,-0.41501784,0.526222,0.31360626,-1.460568,-0.4381992,0.74780446
5.010781764984131,-0.6309742,1.320274,-0.41246644,-1.8003795,-0.030798499,0.9295594
5.030847072601318,-0.6309742,1.320274,-0.41246644,-1.8003795,-0.030798499,0.9295594
5.0511884689331055,-0.58554524,-0.025671959,0.42737147,-1.1119072,-0.65174454,0.0035892613
5.07112193107605,-0.70864075,1.1565104,-0.49677736,-1.5628209,-0.32411253,0.6554274
5.091202735900879,-0.4377642,-0.21713454,0.40710872,-1.0833249,-0.6148832,-0.21560647
5.111266851425171,-0.5883335,0.8514713,-0.30618918,-1.4145489,-0.46764073,0.5718581
5.131357192993164,-0.27445927,-0.38934392,0.5921783,-0.63250196,-0.5410512,-0.2417872
5.151500225067139,0.056409985,-0.47495252,0.82936484,-0.6757688,0.5380962,0.38836744
5.171553611755371,-0.095310636,-0.24068838,0.25435036,0.7374958,0.34019318,-0.25385982
5.191608905792236,-0.77680075,0.2794367,0.43915665,0.27474812,-0.44655654,-0.35446754
5.212740898132324,-0.77680075,0.2794367,0.43915665,0.27474812,-0.44655654,-0.35446754
5.232833623886108,-1.0193682,0.7177584,-0.82183444,1.152943,-1.3787621,-0.61364645
5.252913236618042,-0.38357767,-1.9682876,0.5695875,1.0509107,-1.4313501,-1.7865162
5.272989273071289,0.38497245,-1.9100918,0.48145556,2.5451362,0.27715638,-0.46033934
5.293077707290649,1.0825135,-1.4315575,0.2167697,3.0614438,1.2235196,1.0353994
5.3131935596466064,1.0610298,-1.0642073,0.115855046,2.7397876,1.2140244,1.6885065
5.333247900009155,1.1943007,-1.9840438,0.6967462,2.9215603,1.7025412,2.0361886
5.353427171707153,0.9961977,-1.2936949,0.44914833,2.5638409,1.5168712,1.8041787
5.373544931411743,0.9961977,-1.2936949,0.44914833,2.5638409,1.5168712,1.8041787
5.393904447555542,0.9173434,-1.2556748,0.16214061,2.491858,1.5218428,1.9434094
5.413811206817627,0.8230263,-2.0174322,0.6135453,2.652792,1.4800231,2.1402879
5.434081315994263,0.5381573,-1.4246424,0.2704843,2.5077243,1.1200129,1.8608993
5.454136610031128,0.44152978,-1.2853838,-0.12311997,2.5289292,0.9482622,2.0154347
5.474360942840576,0.48212534,-2.1952505,0.6602586,2.820253,0.9908431,2.0660927
5.494297742843628,0.0046364972,-1.6863784,0.23896894,2.498221,0.6458395,1.8371469
5.514388084411621,0.0046364972,-1.6863784,0.23896894,2.498221,0.6458395,1.8371469
5.534491062164307,0.068484575,-1.5721855,-0.1467813,2.6816144,0.82334894,2.0328584
5.5548789501190186,-0.09369686,-2.3621078,0.7147657,2.8396869,0.6718877,1.9865031
5.574909925460815,-0.42326754,-2.0107403,0.17410122,2.6153514,0.6107388,1.8648242
5.5953450202941895,-0.27322343,-2.3620324,0.7080715,2.9923973,0.74855494,1.8418732
5.615196228027344,-0.40730956,-1.9250494,0.31272852,2.6821358,0.4082308,1.6445202
5.63532567024231,-0.038526207,-1.6687008,0.130563,2.771617,0.5724518,1.7903453
5.655937194824219,-0.038526207,-1.6687008,0.130563,2.771617,0.5724518,1.7903453
5.676034927368164,-0.06172049,-2.458281,0.7564834,3.0111783,0.7383449,2.0033536
5.696141004562378,-0.52157545,-1.8923093,0.25547683,2.499445,0.1643546,1.670805
5.7162957191467285,-0.16672847,-1.5892475,0.19156548,2.7152371,0.21806118,1.6483752
5.7363927364349365,-0.14484766,-2.321796,0.6443338,2.885263,0.35544613,1.7926495
5.756427764892578,-0.75003076,-1.6074042,0.08150713,2.3411913,-0.29329088,1.7851577
5.776521682739258,-0.28393778,-2.31952,0.8856892,2.8414516,-0.17667621,1.5269822
5.796677350997925,-0.28393778,-2.31952,0.8856892,2.8414516,-0.17667621,1.5269822
5.816729784011841,-0.74378246,-1.6692442,0.411601,2.3186855,-0.58557653,1.4465679
5.8368000984191895,-0.43691984,-1.2021415,0.39050263,2.4925451,-0.6824594,1.3620931
5.856916904449463,-0.39305764,-0.9455241,0.28408936,1.7703004,-0.43866584,1.3020505
5.877141237258911,-0.49823225,-0.3751167,0.08540937,1.2057108,-0.12834063,1.4915533
5.897227048873901,-1.0124342,-1.4404643,0.61173683,0.9568799,-1.7729131,-0.63709
5.917360067367554,-1.1787008,-1.2282226,0.23397323,1.7139654,-2.4553459,-0.843259
5.937565803527832,-0.019802181,-0.39684948,0.8887829,0.16550067,-1.5377921,0.7746015
5.957511901855469,-0.82525975,0.12699229,-0.48699552,0.18082795,-0.8581614,-0.13919075
5.97763729095459,-0.82525975,0.12699229,-0.48699552,0.18082795,-0.8581614,-0.13919075
5.997720956802368,-0.46521232,0.40259928,-0.23414513,-1.2271129,-0.81063896,0.05217271
6.017907381057739,-0.109616086,1.0617039,-0.49536598,-1.5009322,-0.6081053,0.62116563
6.037898302078247,-0.08512801,1.1800343,-0.7519979,-1.9331427,-0.40737334,0.5977258
6.05830454826355,0.08932334,1.4117148,-1.080293,-2.2689528,-0.56483656,0.98861665
6.078186988830566,0.08271235,1.450739,-1.0912951,-2.400166,-0.6238138,1.135158
6.098586320877075,0.042188033,1.4822594,-1.0782667,-2.417125,-0.691248,1.258137
6.118451118469238,0.0014090847,1.4727308,-1.0464059,-2.4238884,-0.72724813,1.2701142
6.138519525527954,0.0014090847,1.4727308,-1.0464059,-2.4238884,-0.72724813,1.2701142
6.158725261688232,-0.037967086,1.4435692,-0.9727296,-2.4269783,-0.73536235,1.2703032
6.17886757850647,-0.07997137,1.4187617,-0.8583526,-2.415693,-0.6769356,1.3891635
6.198877334594727,-0.094671786,1.3862416,-0.7658511,-2.4064555,-0.67269593,1.4144384
6.218933582305908,-0.11258216,1.3224043,-0.6461678,-2.3849258,-0.68284804,1.3672456
6.239025354385376,-0.12636265,1.2300893,-0.48311043,-2.3458502,-0.6866866,1.3081446
6.25909948348999,-0.16671288,1.0494081,-0.27312437,-2.251615,-0.66470784,1.1990901
6.279436111450195,-0.16671288,1.0494081,-0.27312437,-2.251615,-0.66470784,1.1990901
6.299596071243286,-0.2511252,0.71985424,-0.007299578,-2.0786884,-0.56252724,1.0200853
6.319643020629883,-0.056515247,0.37520838,0.45271173,-1.7678065,-0.3851091,0.96960825
6.339779853820801,-0.408357,1.6268992,-0.3726223,-2.3715835,0.2527944,1.0474951
6.359888792037964,-0.3252269,0.9791181,0.049563073,-2.08293,-0.36394128,1.0109712
6.379976034164429,-0.17476694,0.27091748,0.5713598,-1.328052,-0.33337578,0.64231426
6.400096893310547,-0.40271702,1.4281626,-0.24124122,-1.8592377,0.22908114,0.6412752
6.4202351570129395,-0.40271702,1.4281626,-0.24124122,-1.8592377,0.22908114,0.6412752
6.440293788909912,-0.342707,0.74821436,0.10247039,-1.8661335,-0.41228756,0.66134495
6.4603800773620605,-0.18282048,0.2687359,0.47704864,-1.3752418,-0.3222387,0.49275932
6.480487823486328,-0.427314,1.3002384,-0.245536,-1.8769917,0.12725918,0.45207736
6.5005552768707275,-0.32914338,0.4929726,0.23632297,-1.7783775,-0.42483798,0.4265888
6.520637035369873,-0.641576,1.8982116,-0.82754433,-1.9912114,-0.20495993,0.69088817
6.540714979171753,-0.4598951,0.4553609,-0.07013743,-1.4757072,-0.5982037,-0.15211885
6.561317205429077,-0.1184904,-0.66313756,0.8056479,-0.4785932,-0.4737579,-0.33879897
6.581462860107422,-0.1184904,-0.66313756,0.8056479,-0.4785932,-0.4737579,-0.33879897
6.601518630981445,0.20491007,-1.2594569,0.9504519,0.25987604,0.74591905,0.14231668
6.621621608734131,0.46065912,-0.97750723,0.8029426,1.1401113,0.9974173,0.5733847
6.641698598861694,0.9624144,-0.97740316,0.65118533,1.748106,1.5494179,1.037447
6.661947965621948,1.0237614,-1.2061574,0.81622994,2.0450623,1.7899483,1.2604177
6.682056665420532,1.0581276,-1.2472484,0.83710843,2.1809878,1.8932986,1.3359599
6.702148675918579,1.0200565,-1.1986172,0.79865164,2.1998866,1.8821231,1.3648449
6.722217321395874,0.9404372,-1.0890698,0.69059354,2.1626494,1.8156307,1.403104
6.742412805557251,0.82025695,-0.89869803,0.4770789,2.087361,1.7132391,1.5082245
6.762541055679321,0.82025695,-0.89869803,0.4770789,2.087361,1.7132391,1.5082245
6.7829344272613525,0.67162484,-0.6181106,0.11059823,1.9668192,1.5838679,1.7453907
6.802834749221802,0.71139705,-2.1019812,0.8628432,2.3302572,1.3532611,1.8728418
6.822918653488159,0.28058752,-1.2754761,0.6211457,2.1604464,0.9541816,1.3896511
6.843005657196045,0.2010394,-1.1968448,0.33287853,2.167244,0.88833874,1.4275148
6.863100051879883,0.038868695,-0.9615923,-0.010913515,2.1482594,0.66122967,1.6121765
6.883209705352783,0.2060368,-2.1509743,0.8865134,2.5009904,0.6115543,1.6431272
6.903418302536011,0.2060368,-2.1509743,0.8865134,2.5009904,0.6115543,1.6431272
6.9235680103302,-0.30030957,-1.6286374,0.60544115,2.1788793,0.16619155,1.1979957
6.9438793659210205,0.04247406,-1.3853818,0.44031727,2.3593225,0.48526356,1.37401
6.963775157928467,-0.10740343,-1.1925454,-0.02276933,2.3417392,0.47519198,1.6930512
6.983857154846191,0.1595039,-2.1684701,0.73573583,2.4327,0.8145322,1.8632164
7.004026889801025,-0.58667195,-1.3435688,0.31767002,1.8638605,0.013430324,1.3991351
7.0241193771362305,-0.2941077,-1.2194926,0.20924827,2.0550995,0.2772062,1.3697944
7.044318199157715,-0.02173659,-1.6524608,0.7314732,2.381643,0.2806862,1.5767912
7.065264463424683,-0.02173659,-1.6524608,0.7314732,2.381643,0.2806862,1.5767912
7.085201263427734,-0.48088473,-0.94227225,0.08709732,1.729159,0.1687445,1.6703126
7.105314493179321,-0.051623136,-1.6698167,0.937733,2.0403888,0.19525811,1.571639
7.12544059753418,-0.65007406,-0.44719017,0.26049563,1.1524546,0.077363044,1.4446108
7.145507574081421,-1.2227968,0.54674023,-0.36341628,-0.038731012,-1.1419238,0.25446305
7.165590524673462,-0.45590326,-0.25086936,0.03415245,-0.47791323,-1.1354733,-0.39276466
7.185733318328857,-0.1702413,-0.35287258,0.2897675,-0.57256746,-1.3409483,-0.06264168
7.206681728363037,-0.59869325,1.0349483,-0.7732846,-1.5085084,-0.5302191,0.72133905
7.226611137390137,-0.59869325,1.0349483,-0.7732846,-1.5085084,-0.5302191,0.72133905
7.246691942214966,-0.18449381,1.131094,-0.6992948,-1.8521254,-0.6431808,0.6413225
7.267016172409058,-0.06838003,1.0757333,-0.6735183,-2.0876288,-0.55505246,0.7755574
7.287005186080933,0.006737382,1.3314756,-0.8855347,-2.2986977,-0.67762965,1.2187696
7.307066440582275,-0.07622984,1.2595837,-0.7660501,-2.340686,-0.6793875,1.2629592
7.327152729034424,-0.07272683,1.1941258,-0.58332556,-2.3124287,-0.681615,1.3438396
7.347368955612183,-0.11003992,1.1628488,-0.48626643,-2.3198013,-0.67422324,1.3355465
7.367682456970215,-0.11003992,1.1628488,-0.48626643,-2.3198013,-0.67422324,1.3355465
7.387530565261841,-0.12508105,1.0900772,-0.35181266,-2.3005595,-0.6664919,1.290386
7.407653093338013,-0.12357956,0.9885812,-0.1802971,-2.2588668,-0.6588133,1.2541883
7.427732229232788,-0.09204166,0.86977506,0.023506636,-2.1903863,-0.63058144,1.2237895
7.447851657867432,-0.17093304,0.52139693,0.24722813,-1.9714861,-0.5324858,1.0077287
7.467889308929443,-0.54863864,1.816821,-0.7034734,-2.3989284,-0.014234724,1.1711318
7.488075256347656,-0.44354698,0.8921912,-0.124449424,-1.9905562,-0.46762243,0.6714434
7.50806450843811,-0.3131667,0.3189022,0.27072346,-1.4932728,-0.56507725,0.49559924
7.528144359588623,-0.3131667,0.3189022,0.27072346,-1.4932728,-0.56507725,0.49559924
7.54833197593689,-0.7014218,1.8722957,-0.8385272,-1.9274393,-0.19614479,0.8253911
7.568434238433838,-0.50437844,0.64262104,-0.24172327,-1.6087852,-0.5740178,0.075552866
7.588489294052124,-0.29433432,-0.20799863,0.4700566,-1.232509,-0.61275613,-0.057243373
7.608636856079102,-0.6376741,1.4980538,-0.5908514,-1.8213029,-0.28967252,0.72777325
7.628708362579346,-0.46169877,0.14442527,0.18727542,-1.2907128,-0.62256116,-0.14473084
7.648780107498169,-0.76786923,1.5256513,-0.7782281,-1.7597954,-0.42851695,0.40274817
7.668856382369995,-0.44792107,-0.12783328,0.3021477,-1.0205792,-0.6568035,-0.4038327
7.689328908920288,-0.71563494,0.92248106,-0.3938897,-1.2543992,-0.61158,0.2435477
7.7094221115112305,-0.71563494,0.92248106,-0.3938897,-1.2543992,-0.61158,0.2435477
7.729488849639893,-0.28069064,-0.9214921,0.6901315,-0.5626815,-0.55470794,-0.91805106
7.7528486251831055,0.3667779,-1.3317763,0.39337263,1.4043903,0.4374826,-0.25022224
7.773036241531372,0.3667779,-1.3317763,0.39337263,1.4043903,0.4374826,-0.25022224
7.7931129932403564,0.89280677,-1.6115841,0.58443093,2.2641315,1.1066755,0.7033637
7.813400745391846,1.0248083,-1.1743886,0.22905931,2.3501263,1.5368686,1.4443669
7.833345651626587,1.2585175,-1.0572956,0.17271462,2.35814,2.0500114,1.9362444
7.853760004043579,1.2168237,-1.8204902,0.5005416,2.3994174,2.0233796,2.0356262
7.8746888637542725,1.2168237,-1.8204902,0.5005416,2.3994174,2.0233796,2.0356262
7.8947978019714355,1.1152812,-1.0077674,0.260165,2.3915837,1.9215282,1.9619161
7.915194511413574,1.1115267,-0.63849795,-0.15091385,2.222114,1.9977089,2.2360094
7.935139179229736,1.1281288,-2.135787,0.598605,2.4185498,1.851961,2.27568
7.955204486846924,0.73252684,-1.0610436,0.18258947,2.3225281,1.4692892,1.90926
7.975303888320923,0.7764766,-1.9055256,0.48388028,2.4221528,1.4916309,2.0199614
7.99543023109436,0.5285424,-1.2868795,0.09608793,2.3856862,1.209517,1.8501238
8.016037464141846,0.54060996,-2.3018775,0.8603636,2.7615302,1.2174181,1.9171517
8.036058187484741,0.54060996,-2.3018775,0.8603636,2.7615302,1.2174181,1.9171517
8.056167364120483,0.25982723,-1.6698407,0.4743651,2.4712625,0.8836201,1.501029
8.07653522491455,0.20241466,-1.5627965,0.13933855,2.510748,0.79733306,1.6269258
8.096428155899048,0.10225779,-2.396759,0.9279735,2.8969803,0.649263,1.6190629
8.116615533828735,-0.2848928,-1.9959098,0.5432852,2.4992614,0.39280155,1.2610537
8.136641263961792,0.11565974,-1.624024,0.33805823,2.6360426,0.72773635,1.5378282
8.15678358078003,0.05493197,-1.4428732,0.041047134,2.7668476,0.31811813,1.5799598
8.176769495010376,0.19450453,-2.4050207,0.779715,2.865226,0.7605701,1.8264601
8.19697117805481,0.19450453,-2.4050207,0.779715,2.865226,0.7605701,1.8264601
8.217024087905884,-0.49995026,-1.8303382,0.32304662,2.319441,0.009857324,1.3429192
8.237138986587524,-0.19810888,-1.5974928,0.27862135,2.5232255,0.30130675,1.4301438
8.257238626480103,0.10195765,-1.3146244,0.15728405,2.5267725,0.55903405,1.6773362
8.277369260787964,-0.24995562,-2.1107557,0.90129507,2.362702,0.0715964,1.6683131
8.297396659851074,-0.42370728,-1.2771143,0.53945285,1.9777863,-0.18902543,1.236408
8.317468643188477,-0.3058283,-0.87098604,0.23195295,1.8651742,0.21156812,1.5185876
8.337735891342163,-0.29201558,-0.96961135,0.51103836,1.1760947,0.39569438,1.5395818
8.357833862304688,-0.29201558,-0.96961135,0.51103836,1.1760947,0.39569438,1.5395818
8.378195524215698,-0.42180386,0.20536771,-0.06174349,0.6827389,0.612254,1.4512773
8.398190259933472,-0.06705837,-1.000193,0.66575074,-0.24253345,-0.74984604,0.07839163
8.418199300765991,-0.46566653,0.34365326,-0.31662798,-1.2684829,-0.027536888,0.8587422
8.438283681869507,0.13949235,1.2232611,-0.45403352,-2.1611314,-0.4840283,1.4566305
8.458406686782837,-0.03939691,1.0903703,-0.6023709,-2.0860677,-0.556864,1.180367
8.478477478027344,0.0169497,1.1057893,-0.5531888,-2.183389,-0.6575914,1.2756495
8.498671293258667,0.050523072,0.95538485,-0.32635987,-2.0569751,-0.6105277,1.3306296
8.518847465515137,0.050523072,0.95538485,-0.32635987,-2.0569751,-0.6105277,1.3306296
8.539108753204346,0.03780502,0.87646127,-0.14368741,-2.0172877,-0.61538035,1.344693
8.559033870697021,0.050871506,0.771989,0.0016649012,-1.9797785,-0.57980245,1.3238771
8.579102039337158,0.033255838,0.78337467,0.07437792,-2.0294516,-0.5716309,1.3476865
8.599374294281006,0.05719894,0.78127086,0.1492177,-2.031147,-0.5576451,1.3567412
8.619329690933228,0.07167968,0.8175893,0.20562924,-2.0403152,-0.5177807,1.3438227
8.63951325416565,-0.3199269,1.540633,-0.7007608,-2.3432376,0.019322868,1.1264267
8.659619331359863,-0.29091254,1.0976107,-0.21201235,-2.0961244,-0.5415512,1.0203686
8.679702997207642,-0.29091254,1.0976107,-0.21201235,-2.0961244,-0.5415512,1.0203686
8.699830293655396,-0.21216324,0.8207983,-0.11992686,-1.6534066,-0.68656963,0.8979864
8.719866037368774,-0.23717383,0.3530888,0.17503178,-1.3836381,-0.6647321,0.62707365
8.739932298660278,-0.49615148,1.4101852,-0.4704734,-1.8283718,-0.2748585,0.97351235
8.76001524925232,-0.40442654,0.53773785,0.00011670031,-1.4979926,-0.6056599,0.33637446
8.7800931930542,-0.13818032,-0.20349687,0.5556453,-1.0291479,-0.60065705,0.16003744
8.800171375274658,-0.4598349,1.2823192,-0.36402118,-1.8155246,-0.10946347,0.6450869
8.820318460464478,-0.4598349,1.2823192,-0.36402118,-1.8155246,-0.10946347,0.6450869
8.840389728546143,-0.33171389,0.31968647,0.14735521,-1.5437021,-0.6259427,0.2360213
8.860498189926147,-0.31382033,0.4856217,0.00601227,-1.5432435,-0.49615237,0.45195866
8.88060712814331,-0.12452707,-0.42490026,0.7201414,-0.8503813,-0.5596301,-0.11433332
8.900758981704712,-0.06992021,-0.6881929,0.6670371,-0.78304505,-0.042726252,-0.46124443
8.920936107635498,-0.16449064,-1.9043684e-05,-0.066328354,0.37494197,0.41920254,-0.28887385
8.940998315811157,0.12632811,-1.164779,0.9417542,-0.13373813,-0.4380468,-0.3308322
8.961085796356201,-0.16978185,-1.0156665,0.36249632,1.2849514,0.2456666,-0.40237984
8.981265306472778,-0.16978185,-1.0156665,0.36249632,1.2849514,0.2456666,-0.40237984
9.0014967918396,0.17150536,-0.7087256,1.0482894,0.7480124,0.5689557,1.351355
9.021566152572632,0.22731334,-0.51045656,0.5726717,1.1114695,1.0717171,1.0864091
9.04169774055481,0.4814992,-0.47864985,0.37942573,1.3181562,1.4220909,1.3250586
9.061733484268188,0.6230295,-0.3259859,0.06579602,1.4974631,1.610063,1.686893
9.081893920898438,-0.61739707,-2.0227776,1.0676472,1.5141157,-0.58188355,-0.45067126
9.1019606590271,-0.15229079,-2.1878514,0.481599,2.460464,-0.6066427,-0.33746028
9.122023344039917,0.69651276,-1.5559036,0.4189986,3.0935392,0.5488686,0.8717646
9.142157793045044,0.69651276,-1.5559036,0.4189986,3.0935392,0.5488686,0.8717646
9.162540912628174,0.9295497,-0.8645465,-0.059805483,2.8884676,0.65603954,1.5829054
9.18244481086731,1.0465516,-1.8192888,0.7234947,2.6120934,1.1077,2.0336761
9.202541589736938,0.26134947,-0.761895,0.060449444,1.744787,0.93911815,1.934465
9.222599029541016,0.82356334,-1.9163059,0.84713817,2.178624,1.3086034,1.9397672
9.24271559715271,-0.112581044,-0.725623,0.1711762,1.4246448,0.88704705,1.7710311
9.262796401977539,0.5416939,-1.6441675,0.96213967,1.9117292,1.0727245,1.7229892
9.28287410736084,-0.0602569,-0.51304245,0.4199395,1.3619516,0.825684,1.4673735
9.302936792373657,-0.0602569,-0.51304245,0.4199395,1.3619516,0.825684,1.4673735
9.32334852218628,0.056315273,0.17116737,-0.10975317,1.0067415,1.1677461,1.643627
9.34329104423523,-0.4020189,-0.7884598,0.55293953,-0.33080384,-0.3102211,0.064402714
9.363370180130005,-0.35890657,0.74238014,-1.0954473,0.19476292,-0.25366184,0.0713938
9.383440732955933,-0.019549636,-0.30785605,0.3124393,-1.183713,-0.5234993,-0.005178008
9.403515338897705,-0.26663682,1.445529,-0.93058544,-2.3098955,-0.042503033,1.372695
9.423822164535522,-0.058603093,1.0595713,-0.5528695,-2.1051626,-0.6911465,0.92965317
9.443751096725464,0.012240768,0.82625103,-0.4476106,-1.9247184,-0.72951645,0.80481076
9.464279651641846,0.057898134,1.016751,-0.5284149,-2.0791092,-0.7619458,1.1215683
9.484680414199829,0.057898134,1.016751,-0.5284149,-2.0791092,-0.7619458,1.1215683
9.504572868347168,-0.014397859,0.9142544,-0.34614936,-2.1291234,-0.7263605,1.0804318
9.544877529144287,0.002742798,0.76688635,-0.06788287,-2.0513039,-0.70859253,1.0813563
9.582738876342773,0.002742798,0.76688635,-0.06788287,-2.0513039,-0.70859253,1.0813563
9.602797031402588,0.060275078,0.57371587,0.22104251,-1.8982008,-0.66065836,1.0280603
9.622875928878784,-0.2904352,1.9558352,-1.0916518,-2.5836945,-0.16249433,1.15067
9.643062353134155,-0.23233716,0.9578159,-0.5360686,-2.0977018,-0.73851484,0.5561566
9.663098096847534,-0.23233716,0.9578159,-0.5360686,-2.0977018,-0.73851484,0.5561566
9.6831955909729,-0.2327936,0.39408648,-0.0343638,-1.6315227,-0.8486313,0.39542544
9.70325493812561,-0.06785506,-0.24581286,0.5223573,-1.1999984,-0.60061556,0.21629258
9.723369836807251,-0.4146146,1.138201,-0.36716372,-1.8336881,-0.14253482,0.5184818
9.74347472190857,-0.29628953,0.129727,0.22973143,-1.5394453,-0.6497002,0.1169008
9.763591527938843,-0.61376774,1.4508699,-0.79724735,-1.8267666,-0.38414887,0.5089845
9.783668041229248,-0.36717203,-0.017496347,0.12633255,-1.2882675,-0.69889325,-0.38034067
9.803876876831055,-0.035954244,-0.7438251,0.73591506,-0.7372592,-0.5881693,-0.43554354
9.823875665664673,0.015667947,-1.2957143,0.66238886,-0.05572558,0.1053497,-0.77697134
9.844001054763794,0.015667947,-1.2957143,0.66238886,-0.05572558,0.1053497,-0.77697134
9.86409854888916,-0.039775446,-1.1125071,0.38056207,1.3551612,0.66822714,-0.3592588
9.884183406829834,0.7505338,-1.6811166,0.63344085,1.8492329,1.3713335,0.9752788
9.904252529144287,0.9849706,-1.3126694,0.4043561,2.188705,1.8497494,1.5022022
9.924342632293701,1.0418067,-1.0483503,0.25128654,2.1650896,2.0753114,1.8378284
9.944417476654053,1.011711,-0.58879143,-0.14315838,2.041193,2.1097836,2.1909518
9.964503288269043,1.0791976,-2.0847387,0.6406693,2.2906857,1.88996,2.2592201
9.9845871925354,0.63610125,-1.0727277,0.1546295,2.1567824,1.606407,1.9141136
10.004693269729614,0.63610125,-1.0727277,0.1546295,2.1567824,1.606407,1.9141136
10.024847269058228,0.77961934,-2.1940842,0.8848482,2.5029063,1.6891145,2.0097027
10.044967889785767,0.43438917,-1.4786676,0.4357568,2.2159877,1.4626912,1.637495
10.065056324005127,0.36433336,-1.3299394,0.06969373,2.141416,1.4552228,1.8038758
10.085095643997192,0.3851595,-2.2907615,0.9276212,2.5416975,1.264032,1.8674338
10.105201959609985,-0.08414337,-1.8200957,0.44190043,2.1749196,0.9700517,1.5060863
10.125267028808594,0.17228928,-1.3342677,0.3572711,2.2846284,1.0054436,1.5353578
10.145360469818115,0.10570499,-1.3167332,-0.032503963,2.194472,0.91995066,1.7506292
10.165444135665894,0.10570499,-1.3167332,-0.032503963,2.194472,0.91995066,1.7506292
10.185514688491821,0.034174174,-2.2464905,0.91628546,2.4263024,0.7654978,1.7756126
10.205590009689331,-0.5636003,-1.8182139,0.44616026,2.022216,0.32135025,1.3181432
10.225707769393921,-0.36903992,-1.5982361,0.3915984,2.1208239,0.4096034,1.2900466
10.246110200881958,-0.23274836,-1.3374667,0.3496973,2.1560636,0.35839948,1.3737975
10.26603078842163,-0.14109668,-0.99980825,0.28539693,2.1169732,0.34241882,1.4866078
10.286127805709839,-0.20859581,-0.70933163,0.11997714,1.6329618,0.48379335,1.5007514
10.306179761886597,-0.13710323,-1.6729344,1.087927,1.7265137,0.09903455,1.0316172
10.326289653778076,-0.13710323,-1.6729344,1.087927,1.7265137,0.09903455,1.0316172
10.346397638320923,-0.35073385,-0.5074164,0.4161251,1.402668,0.19600293,1.1354607
10.366467714309692,-0.6449299,-0.12916851,0.29489028,1.4827936,-0.11892107,0.76069885
10.386862516403198,-1.0415819,1.0999283,-0.44269037,-0.6474861,-1.0480655,0.7081786
10.406776666641235,-0.16437732,0.34160346,-0.40927714,-1.030303,-0.67542875,-0.11325851
10.426852703094482,0.08493145,0.22403395,0.041140817,-1.2644049,-0.65839124,0.3128765
10.447235584259033,0.1381469,0.5559294,-0.047663815,-1.844305,-0.5023404,0.8465045
10.467336177825928,0.12515593,0.91641915,-0.38004726,-2.0386612,-0.57657737,1.3271575
10.48745584487915,0.12515593,0.91641915,-0.38004726,-2.0386612,-0.57657737,1.3271575
10.507552146911621,-0.0019796928,0.90434146,-0.3386847,-2.1295342,-0.6127207,1.3028244
10.527620792388916,0.016995909,0.9067234,-0.23930651,-2.1415188,-0.6205763,1.3582143
10.547741651535034,0.016204895,0.85702,-0.1474897,-2.113473,-0.6326167,1.3209865
10.567802429199219,0.021242412,0.7721759,-0.016288644,-2.079573,-0.62702686,1.2687209
10.588204622268677,0.051690027,0.6724663,0.14456406,-2.0275679,-0.60460204,1.2344178
10.608109951019287,0.10567181,0.5705498,0.3272755,-1.9363402,-0.56760204,1.1923156
10.628542423248291,0.10567181,0.5705498,0.3272755,-1.9363402,-0.56760204,1.1923156
10.648507118225098,-0.30660838,1.8569084,-0.751781,-2.660913,0.028466012,1.3454556
10.668613910675049,-0.19584885,1.0182744,-0.3860441,-2.1049213,-0.6340278,0.8350205
10.68866753578186,-0.24425986,0.5429679,-0.038986154,-1.6226861,-0.80466473,0.6015392
10.708785772323608,-0.14812538,-0.029043555,0.39207304,-1.3011799,-0.65372455,0.4361188
10.728905439376831,-0.57873815,1.6375953,-0.6677597,-1.8425864,-0.20344558,0.85571885
10.748958587646484,-0.3850219,0.4351437,-0.07134359,-1.5179155,-0.5842795,0.11430839
10.769266843795776,-0.14664647,-0.43329883,0.60780203,-1.0689323,-0.64918625,-0.075638175
10.789280652999878,-0.14664647,-0.43329883,0.60780203,-1.0689323,-0.64918625,-0.075638175
10.809366703033447,-0.07897715,-0.6202052,0.38232613,-0.55890894,-0.48274255,-0.11071895
10.829428672790527,-0.24738252,-0.5470747,0.47102344,-0.17835733,-0.4008674,0.018715847
10.855926275253296,-0.11238186,-0.7811027,0.4980324,0.19533084,-0.4144253,0.099073574
10.87640643119812,-0.0060536033,-0.60394526,0.86371714,0.29518184,-0.39148822,0.3905438
10.896275043487549,0.24093315,0.058593392,0.75067496,-0.49572173,0.6541483,1.0646272
10.91651725769043,-0.2262844,0.9634334,-0.34814563,-0.28944638,0.06691239,0.13022791
10.936434507369995,0.070216134,-0.48243606,0.28931785,-0.91576463,-0.5155086,-0.4393642
10.956553936004639,0.070216134,-0.48243606,0.28931785,-0.91576463,-0.5155086,-0.4393642
10.976633548736572,-0.022709189,-0.3042071,-0.3540225,-1.2549437,0.08783698,-0.46455756
10.996907472610474,-0.021753935,-0.5753401,0.49221522,-1.1699921,-0.40021595,-0.4130379
11.016869068145752,-0.11753528,-0.2843065,-0.76858586,-0.07903907,0.19582655,-0.4611186
11.03697657585144,-0.060617104,-1.1502303,0.65393215,-0.6428201,-0.75526315,-0.617559
11.05733060836792,0.07822706,-1.3366985,0.09375047,1.1898954,0.12626952,-0.24321947
11.077208518981934,0.8433069,-2.0708587,1.1039063,2.1641765,1.2938992,1.3421168
11.097476243972778,0.9742056,-1.2814461,0.7735111,1.9330792,1.875943,1.3217996
11.117572546005249,0.9742056,-1.2814461,0.7735111,1.9330792,1.875943,1.3217996
11.137810945510864,1.0856507,-0.8179714,0.553769,1.8297293,2.1246269,1.5441147
11.157833576202393,1.0457458,-0.14615598,0.04435245,1.6201327,2.1766608,2.019008
11.177878141403198,-0.4601717,-1.9966327,1.0724182,1.4483067,-0.38477218,-0.14037825
11.19796085357666,-0.06662837,-2.0254028,0.37818587,2.304457,-0.29159352,-0.11365433
11.21804690361023,0.8964274,-1.1750332,0.3033602,2.6139178,1.1441442,1.5274074
11.238397598266602,0.9123931,-0.21873005,-0.34306943,1.9501781,1.5676904,2.2661154
11.258327722549438,-0.41641402,-1.9881614,0.8427855,1.3909981,-0.8188041,-0.3538541
11.27842664718628,-0.41641402,-1.9881614,0.8427855,1.3909981,-0.8188041,-0.3538541
11.298511743545532,-0.2288801,-2.1842513,0.44461608,1.9690034,-0.7723981,-0.38302568
11.318604946136475,0.59171003,-1.3022243,0.412766,2.6298609,0.4563776,1.1070967
11.33876085281372,0.8477243,-0.40524685,-0.16703247,2.2731867,0.92457014,1.7636243
11.3588228225708,-0.59025455,-1.8721019,0.8151341,1.0687292,-1.1255445,-0.73694164
11.378906011581421,-0.3139224,-2.0603018,0.33825412,1.9794769,-1.1677353,-0.6472662
11.398985862731934,0.570395,-1.0981444,0.4040043,2.709045,-0.059051428,0.81875485
11.419801473617554,0.570395,-1.0981444,0.4040043,2.709045,-0.059051428,0.81875485
11.439951181411743,0.91212994,-0.16807373,-0.39234686,1.9992464,1.1161019,2.010139
11.460022211074829,-0.2813301,-1.3634984,0.6304565,0.6155374,-0.64494866,-0.29307005
11.480161666870117,-0.22676623,-0.35059,-0.38140094,1.4893954,-0.6776466,-0.15254895
11.500211477279663,-0.45479962,-2.1661217,0.8058019,1.1367071,-1.6801687,-1.3342896
11.52030324935913,0.21166462,-2.1625733,0.5341943,2.1390295,-0.81710434,-0.3757095
11.540684700012207,0.780779,-0.7743758,0.108794294,2.4967914,0.04220369,0.5726549
11.56056833267212,1.2267251,-0.69830316,0.6625874,1.0570012,1.532677,2.3097556
11.58108925819397,0.35925958,1.2352611,-0.60450274,0.3156303,1.4935735,2.0558867
11.601158380508423,0.35925958,1.2352611,-0.60450274,0.3156303,1.4935735,2.0558867
11.621236562728882,0.001325057,0.559865,-0.21658239,-0.9596834,0.2593127,0.69515675
11.641356229782104,0.17298816,1.0532674,-0.7577141,-2.0209038,-0.48248094,1.267189
11.661396265029907,0.19334996,1.0589768,-0.9120643,-2.1964254,-0.53039,0.9517458
11.681492805480957,0.22133595,1.2714182,-1.1053957,-2.2706223,-0.68915707,1.086811
11.701574802398682,0.19422388,1.2534165,-1.0274345,-2.354208,-0.66020906,1.0442452
11.72165584564209,0.1476037,1.2330606,-0.9118014,-2.36901,-0.6844663,1.0842067
11.742035150527954,0.1476037,1.2330606,-0.9118014,-2.36901,-0.6844663,1.0842067
11.762186527252197,0.08165753,1.1843677,-0.783555,-2.3553257,-0.70178944,1.1169465
11.782310247421265,0.05350606,1.1485816,-0.6273696,-2.3304777,-0.6615374,1.197281
11.80247712135315,0.005978898,1.0904074,-0.48868406,-2.2712088,-0.71578234,1.1913617
11.82268738746643,-0.077312686,0.9814558,-0.23779303,-2.1825883,-0.81078047,1.21305
11.842859983444214,-0.14296891,0.44405913,0.17694959,-1.7265868,-0.6495165,0.8294187
11.862890720367432,-0.2405009,0.869185,-0.013413256,-1.7253623,-0.27389783,0.867153
