liuyurong129/humanoid-gym/humanoid/data/robot1_action_20250621-220758.csv
timestamp,joint_1,joint_2,joint_3,joint_4,joint_5,joint_6
0.00013756752014160156,0.0,0.0,0.0,0.0,0.0,0.0
0.02020096778869629,0.0,0.0,0.0,0.0,0.0,0.0
0.04028820991516113,0.0,0.0,0.0,0.0,0.0,0.0
0.06065082550048828,0.0,0.0,0.0,0.0,0.0,0.0
0.08086633682250977,0.0,0.0,0.0,0.0,0.0,0.0
0.1007697582244873,0.0,0.0,0.0,0.0,0.0,0.0
0.12084341049194336,-1.445524,-0.14851642,-0.13415945,-0.08327578,-0.34466222,0.94909227
0.14092350006103516,-1.2720308,0.24009737,-0.11489037,-0.23681903,-0.76401484,1.9275625
0.16130995750427246,-0.78377664,-0.11344662,-0.24789625,-0.37734637,-0.26423436,1.9218085
0.18124699592590332,-0.8845731,-0.18899806,-0.054290436,0.028828561,-0.32294738,2.2726002
0.20134735107421875,-0.91236055,-0.41200775,0.09725545,0.19707803,-0.2994014,2.4081457
0.2213902473449707,-1.2764323,-0.5913716,0.30887908,0.34898734,-0.45362297,2.18503
0.24205613136291504,-1.2764323,-0.5913716,0.30887908,0.34898734,-0.45362297,2.18503
0.2622058391571045,-1.8445852,-0.50633293,0.13052653,0.14818896,-0.58388305,2.20037
0.282437801361084,-1.4345281,-0.69136333,0.18890768,0.37223604,-0.68345493,2.33025
0.302715539932251,-1.6109155,-0.5673437,0.07644142,0.2644561,-0.6692811,2.3277876
0.3226161003112793,-1.5204067,-0.6272069,0.20627284,0.4132198,-0.5684713,2.2159986
0.34271836280822754,-1.9327044,-0.4203092,0.2383684,0.2937655,-0.70455897,1.966264
0.3628087043762207,-1.6341586,-0.53313625,0.26391342,0.43325296,-0.8629528,2.115465
0.38292646408081055,-1.9056761,-0.33961076,0.15398037,0.20679475,-0.8392271,1.968571
0.40314459800720215,-1.5383961,-0.4733913,0.19202971,0.33936298,-0.839417,2.1079628
0.423159122467041,-1.5383961,-0.4733913,0.19202971,0.33936298,-0.839417,2.1079628
0.4432501792907715,-1.8381722,-0.21849711,0.11133312,0.043758407,-0.75441647,1.8527308
0.46329832077026367,-1.4994197,-0.2918927,0.038784027,0.15394966,-0.717178,1.9980617
0.484050989151001,-1.3507118,-0.17129183,0.12659515,0.19064006,-0.5354489,1.765538
0.5043759346008301,-1.5266826,-0.10698728,0.14091742,0.085788086,-0.4776357,1.6157184
0.5244314670562744,-1.5087347,-0.05513051,0.048617348,-0.08854537,-0.46869954,1.460341
0.5451197624206543,-1.5087347,-0.05513051,0.048617348,-0.08854537,-0.46869954,1.460341
0.5693163871765137,-1.6749715,0.44088063,-0.110631526,-0.5854907,-0.54920524,1.1889629
0.5897257328033447,-0.8613929,0.123616785,-0.47303885,-0.6104046,0.08848032,1.6518342
0.609830379486084,-0.4792706,-0.14214334,-0.3674019,-0.4906071,0.35650754,1.6680198
0.6302058696746826,-0.6381563,-0.13436642,-0.1302223,0.010551988,0.37128597,1.9166257
0.6500968933105469,-0.86915046,-0.42706123,0.14233457,0.41289613,0.20368636,1.9271612
0.6702773571014404,-0.86915046,-0.42706123,0.14233457,0.41289613,0.20368636,1.9271612
0.6904206275939941,-1.3936079,-0.4505783,0.29480457,0.3707211,0.18756068,1.7387824
0.7106103897094727,-1.9420494,-0.2641673,0.18999627,0.12190919,-0.014173504,1.7017515
0.7305853366851807,-1.3571802,-0.44513634,0.26900747,0.32945195,-0.41774455,2.1003468
0.7510035037994385,-1.7091599,-0.24191612,0.06572874,-0.0010650428,-0.339117,1.700942
0.7711596488952637,-1.3957716,-0.3004406,0.16428863,0.35805535,-0.7330144,1.9199481
0.7911982536315918,-1.5594416,0.026160955,-0.03429237,-0.2577314,-0.42852545,1.6211576
0.8112902641296387,-0.976732,-0.15609711,-0.2254659,-0.19569507,-0.033680264,1.6958983
0.8315532207489014,-0.976732,-0.15609711,-0.2254659,-0.19569507,-0.033680264,1.6958983
0.8516824245452881,-0.8450312,-0.1947793,-0.019881882,0.14409328,0.07377203,1.773668
0.8717861175537109,-1.0517306,-0.32150486,0.24105571,0.30285645,-0.032360602,1.8030164
0.8918848037719727,-1.7017266,-0.052664638,0.103811204,-0.13762628,0.027591746,1.6627314
0.9119727611541748,-1.1558475,-0.14702335,-0.0045427606,-0.073472664,0.17712924,1.4775717
0.9320464134216309,-1.2048469,0.38611165,-0.020627603,-0.26326627,-0.07158175,1.3365977
0.9521377086639404,-0.80366695,-0.16214667,-0.12946036,-0.30743706,-0.17052314,1.4251328
0.9723646640777588,-0.7792062,-0.11765655,-0.006691873,0.16919897,-0.15899405,1.5121696
0.9924654960632324,-0.7792062,-0.11765655,-0.006691873,0.16919897,-0.15899405,1.5121696
1.01283860206604,-0.93887013,-0.0036838353,0.06890431,-0.056992747,0.050897177,1.1098199
1.0328586101531982,-1.4546571,0.37407354,-0.02368009,-0.50454456,-0.06142575,0.84948665
1.0528416633605957,-0.7232281,-0.20500293,-0.21829686,-0.25968972,0.17142962,1.4615512
1.0729966163635254,-0.55242306,-0.118749425,0.005954057,0.23762663,0.21760745,1.58218
1.0930447578430176,-0.87467766,-0.25529888,0.21132924,0.17354965,0.18899778,1.2405872
1.1134366989135742,-1.5298548,0.094213456,0.061037943,-0.21511197,0.17194502,1.2316976
1.1336076259613037,-1.5298548,0.094213456,0.061037943,-0.21511197,0.17194502,1.2316976
1.153792381286621,-1.0412693,-0.021297649,-0.049615577,-0.12536225,0.19473074,1.1545074
1.1738026142120361,-0.97364855,0.36907062,-0.14107561,-0.42981803,0.26764148,1.0168436
1.1942243576049805,-0.69966775,-0.18073975,-0.13256668,-0.29770952,0.038058426,1.1149642
1.2145569324493408,-0.82359815,-0.38634115,0.17426749,0.40933514,-0.15221722,1.3833096
1.2350311279296875,-1.2339042,0.0800021,0.055670634,-0.24415225,0.03735685,1.2862167
1.2549142837524414,-0.86839557,-0.14081526,-0.13626747,-0.2327565,0.3454342,1.2176774
1.2750563621520996,-0.7823173,0.028420687,-0.06476731,-0.35819122,-0.008536268,1.7293437
1.295125961303711,-0.7823173,0.028420687,-0.06476731,-0.35819122,-0.008536268,1.7293437
1.3152391910552979,-0.29958168,-0.4765964,-0.042444922,-0.023919582,0.29587314,1.708271
1.3353509902954102,-0.69275844,-0.5883169,0.27908927,0.41856587,0.10696831,1.7603557
1.3555941581726074,-1.3856428,-0.3260235,0.3151809,0.16749695,0.11418496,1.4796443
1.3757715225219727,-1.06904,-0.5412608,0.35232127,0.4309222,-0.2540919,1.7188311
1.39607834815979,-1.1459975,-0.2911414,-0.04212731,0.10047189,0.0886987,1.6471913
1.4160475730895996,-1.1459975,-0.2911414,-0.04212731,0.10047189,0.0886987,1.6471913
1.437972068786621,-0.90710115,-0.7636622,0.44650057,0.61789155,-0.31942567,1.9565489
1.4598031044006348,-1.5749712,-0.34517208,0.47009307,0.45196664,-0.42847753,1.3541589
1.47987699508667,-1.5749712,-0.34517208,0.47009307,0.45196664,-0.42847753,1.3541589
1.4999947547912598,-1.5543272,-0.3212834,0.22955775,0.36120015,-0.76694614,1.6289785
1.5200915336608887,-1.1827943,-0.322553,0.0053594112,-0.0021089474,-0.7730213,1.9183617
1.540428638458252,-0.68082345,-0.49641374,0.22006722,0.5084518,-0.567529,1.9461908
1.560462474822998,-0.908716,0.11666739,0.1384036,-0.14578497,-0.22009099,1.3393478
1.5805232524871826,-0.48895112,0.10250446,-0.15540056,-0.19279608,0.18442465,0.9924092
1.600600004196167,-0.09970859,0.05044198,-0.13687631,-0.04345276,0.19334257,0.7060692
1.6217777729034424,-0.09970859,0.05044198,-0.13687631,-0.04345276,0.19334257,0.7060692
1.6418530941009521,-0.4973525,-0.53342974,0.01779572,0.20187896,0.132709,0.8128741
1.6620478630065918,-1.0558419,0.24580583,0.18051463,0.077883005,0.21521203,0.8616471
1.682166576385498,-0.76492655,0.09304109,0.21847342,-0.011052986,-0.26034436,0.56580174
1.7021379470825195,-0.83079404,0.62820184,-0.21065778,-0.56395775,-0.031192813,0.22419134
1.722294807434082,-0.106891185,0.062339157,-0.29038078,-0.5232073,0.1159645,0.75710315
1.7423527240753174,0.06520493,-0.34155804,-0.15412319,-0.33354908,0.16695467,1.0352793
1.7624566555023193,-0.32007787,0.10655168,0.028862208,-0.30206406,0.28642017,1.535943
1.7824933528900146,-0.32007787,0.10655168,0.028862208,-0.30206406,0.28642017,1.535943
1.802595615386963,-0.20955314,-0.4899579,0.064317085,-0.10669358,0.19059706,1.3041508
1.8226749897003174,-0.6885277,-0.027907446,-0.034645304,-0.4454453,0.17981482,1.6433983
1.8427650928497314,0.011756451,-0.41755947,-0.009244308,-0.02032391,0.40034392,1.5680196
1.8628604412078857,-0.5365834,-0.59369063,0.3166498,0.44257095,0.14760736,1.5800321
1.8829407691955566,-1.2508593,-0.30296823,0.39258862,0.2578416,0.04191311,1.2862067
1.9030582904815674,-1.2121762,-0.43771467,0.0979297,0.07573384,-0.18311161,1.761203
1.923703670501709,-1.2121762,-0.43771467,0.0979297,0.07573384,-0.18311161,1.761203
1.9438068866729736,-0.5284803,-0.44571736,-0.34665674,-0.39546672,0.045881268,2.0009937
1.9638898372650146,-0.29369095,-0.77992225,0.0375856,0.27189323,0.26674184,1.8889778
1.9841539859771729,-0.5037651,-0.6664185,0.29694712,0.41577762,0.13830452,1.7797222
2.0040764808654785,-0.9082823,-0.2455901,0.25543547,0.25681317,0.12829943,1.2416499
2.0241873264312744,-0.97392845,-0.16339913,0.036051653,-0.0024932483,0.06746738,1.5938056
2.044604539871216,-0.40058187,-0.2854058,0.20364042,0.36877412,-0.05332953,1.2501938
2.0645480155944824,-0.8850248,0.22243673,-0.07996608,-0.30386576,0.029009853,1.0320916
2.0849227905273438,-0.20050237,-0.26715684,-0.09455904,0.0045669517,0.23593803,1.1740425
2.1049914360046387,-0.20050237,-0.26715684,-0.09455904,0.0045669517,0.23593803,1.1740425
2.1251204013824463,-0.4701986,-0.37458304,0.24206221,0.38723236,0.00048207864,1.3868775
2.1451988220214844,-0.741405,0.2724131,0.100638404,-0.18455726,0.21948849,0.9513255
2.165379047393799,-0.4511153,-0.101019606,-0.070818454,-0.049654465,0.3548027,0.7740819
2.1854960918426514,-0.3224294,0.38836452,-0.1277841,-0.29436675,0.3179488,0.61818844
2.205566883087158,-0.22890945,-0.5096719,-0.039841086,-0.20449433,0.05212697,0.94862056
2.2256336212158203,-0.5746949,0.34662035,0.0153347105,-0.32752684,-0.020030033,1.2403917
2.2456915378570557,-0.5746949,0.34662035,0.0153347105,-0.32752684,-0.020030033,1.2403917
2.265885829925537,-0.0075906506,0.026868626,-0.067386076,-0.28858843,-0.15709245,0.91781
2.2859678268432617,-0.23589449,-0.21585642,0.073212,-0.062012002,-0.42910233,0.8071552
2.3060402870178223,-0.6912868,0.75018,-0.25604677,-0.8602222,-0.2732317,0.87657857
2.326057195663452,0.48091877,0.10652909,-0.25576988,-0.87869275,-0.06855711,1.3162992
2.3461644649505615,0.55780804,0.025672033,-0.066759385,-0.7840668,-0.32676086,1.3336434
2.3663063049316406,0.46132985,-0.12149316,0.015336528,-0.48641002,-0.4803007,1.3729589
2.386347770690918,0.24481268,0.37950274,-0.049463853,-0.49098018,-0.33211616,0.718615
2.4063758850097656,0.1395478,-0.10688716,-0.10724501,-0.33744058,-0.21646768,0.7459311
2.4264800548553467,0.1395478,-0.10688716,-0.10724501,-0.33744058,-0.21646768,0.7459311
2.4465689659118652,-0.24178374,0.25419953,-0.06352575,-0.4447052,-0.145206,0.7154842
2.4666454792022705,-0.14045171,-0.3170416,0.018498808,-0.22075841,-0.38764712,0.97552663
2.4867148399353027,-0.4046464,0.46797702,-0.25750586,-0.8963844,-0.13998708,1.1577802
2.5068106651306152,0.3787563,-0.1621505,-0.19430052,-0.69909495,0.07431772,1.3946362
2.5268826484680176,0.1898228,-0.49915197,0.26273322,-0.15262607,-0.15301546,1.7374382
2.5469603538513184,0.003327177,-0.45548692,-0.0065810904,-0.05912143,0.1723127,1.5287728
2.5670101642608643,-0.2682796,-0.11343223,0.025195695,-0.4702446,0.1011927,1.8762004
2.587124824523926,-0.2682796,-0.11343223,0.025195695,-0.4702446,0.1011927,1.8762004
2.607207775115967,-0.0040441146,-0.4475994,0.043229602,-0.20678395,0.16349462,1.4266479
2.627650499343872,-0.28282005,0.025504202,-0.16560954,-0.5481347,0.22981134,1.493753
2.647491455078125,0.12730211,-0.48642388,0.0011215508,-0.2630592,0.25895438,1.5362766
2.667570114135742,-0.35726961,-0.3945513,0.18287694,0.27555552,0.028170224,1.3398705
2.6877777576446533,-0.9658687,-0.14921558,0.18971463,-0.10111521,-0.06680407,1.1763802
2.7078874111175537,-0.5937915,-0.26854032,0.03938624,0.12526384,-0.13555548,1.0224833
2.728048086166382,-0.35845193,0.23051766,-0.32363486,-0.3769366,0.2653556,1.1261482
2.74817156791687,-0.35845193,0.23051766,-0.32363486,-0.3769366,0.2653556,1.1261482
2.7683804035186768,-0.15969437,-0.65146583,-0.08143133,-0.044302754,0.39563435,1.1963761
2.7883691787719727,-0.5933525,-0.20272785,0.10997198,-0.046819113,0.30323225,1.5755486
2.80843448638916,-0.408942,-0.5814626,0.09415193,0.15672542,0.15425286,1.4739592
2.828582286834717,-0.6561797,-0.113651216,0.08222653,-0.038467526,0.19981901,1.0658492
2.848628520965576,-0.6344037,0.08070424,-0.13210516,-0.41892636,0.07611668,0.88951135
2.8687033653259277,-0.27109876,-0.043617457,-0.2502356,-0.33198863,0.049566176,1.2196164
2.889186382293701,-0.27109876,-0.043617457,-0.2502356,-0.33198863,0.049566176,1.2196164
2.9092977046966553,0.035147354,-0.15430346,-0.12958138,-0.24173966,0.25322,1.1278329
2.929483652114868,-0.20218499,-0.32813442,0.07223588,0.13489993,-0.041779224,0.9969627
2.9495511054992676,-0.8181745,0.25354573,-0.04309854,-0.4956149,-0.0377074,0.8835133
2.9696593284606934,-0.15674269,-0.17718929,-0.14732893,-0.16023034,0.034538787,0.9802988
2.9897525310516357,-0.37517333,-0.15188347,0.10844823,0.14056115,-0.22257745,0.9756631
3.009799003601074,-0.583215,0.7082614,-0.0787862,-0.73937744,-0.003013987,0.41987652
3.0302069187164307,-0.583215,0.7082614,-0.0787862,-0.73937744,-0.003013987,0.41987652
3.0503108501434326,0.08757498,0.07696059,-0.27231812,-0.60439324,-0.07101624,0.71868867
3.070387125015259,0.047955744,-0.017160863,-0.17236552,-0.44736522,-0.25416008,0.5835737
3.090466260910034,-0.31954002,0.48976514,-0.13227591,-0.7047676,-0.3220484,0.62109303
3.1105458736419678,-0.033074014,0.05510907,-0.21790767,-0.67813915,-0.3070787,0.7010149
3.130659580230713,-0.0251849,-0.09115133,-0.16485512,-0.3231104,-0.12208027,0.7382581
3.150972843170166,-0.25418225,0.7033831,-0.12848283,-0.7982808,-0.11123538,0.54449916
3.1714694499969482,0.077816054,-0.022868961,-0.21191412,-0.7904925,-0.40065044,0.9196603
3.1915347576141357,0.077816054,-0.022868961,-0.21191412,-0.7904925,-0.40065044,0.9196603
3.2116217613220215,0.10939856,-0.07660836,-0.15690139,-0.36802799,-0.1145729,0.9843749
3.2317004203796387,-0.09762416,0.41147342,-0.08390769,-0.5447063,-0.09520817,0.64245635
3.2517855167388916,-0.17333135,-0.14931692,-0.071852505,-0.41279268,-0.49045548,0.74255043
3.2718653678894043,-0.1899331,0.16354123,-0.40424597,-0.6159638,-0.38119376,1.4050462
3.291964292526245,0.23017934,-0.4369541,-0.07174058,-0.42831844,-0.036289845,1.5914474
3.312040090560913,-0.0164852,-0.3796783,0.16954614,-0.06969909,-0.05593324,1.6532362
3.3321168422698975,-0.14944583,-0.44394186,0.07888505,-0.097630665,0.048635464,1.5791187
3.3528802394866943,-0.14944583,-0.44394186,0.07888505,-0.097630665,0.048635464,1.5791187
3.3730077743530273,-0.23396862,-0.18483678,-0.21145886,-0.49834543,0.08562638,1.8446541
3.3934214115142822,-0.025740117,-0.45404783,0.16878757,-0.12624888,-0.030370887,1.8448021
3.4133083820343018,-0.20010388,-0.15668495,0.17913371,-0.1734543,-0.29605246,1.4104359
3.433391571044922,-0.19890113,0.24810705,-0.40670353,-0.8169224,-0.2559791,1.7269058
3.453601837158203,0.3643323,-0.15914851,-0.112234175,-0.7303006,-0.1602214,1.7390275
3.4739537239074707,0.26736847,0.07748285,0.09209412,-0.5238686,-0.29537952,1.8178127
3.493741273880005,0.042786837,0.14496803,-0.045950867,-0.5212151,-0.70829415,1.1327283
3.513927459716797,0.042786837,0.14496803,-0.045950867,-0.5212151,-0.70829415,1.1327283
3.534066915512085,-0.062227085,1.0269743,-0.3860246,-1.3002298,-0.5952381,0.95677394
3.5544331073760986,0.66754174,0.43595293,-0.3666916,-1.5132617,-0.5945622,1.5728428
3.574374198913574,0.83943295,0.5289756,-0.2497198,-1.4177,-0.7641599,1.5585239
3.594572067260742,0.79297894,0.5036075,-0.21986076,-1.3447037,-0.864138,1.5676136
3.6146628856658936,0.73756766,0.39065424,-0.1873696,-1.2443424,-0.8052919,1.6899078
3.634803056716919,0.7105217,0.31466565,-0.13891593,-1.097015,-0.8877857,1.6533098
3.6547672748565674,0.5761821,0.12177718,-0.05735585,-0.8615606,-0.75477624,1.8088655
3.6751725673675537,0.5761821,0.12177718,-0.05735585,-0.8615606,-0.75477624,1.8088655
3.6952741146087646,0.5108716,0.7400701,-0.26548907,-1.0252723,-0.6656804,1.0070739
3.71549654006958,0.46936223,0.11625579,-0.19636858,-0.96951556,-0.738673,1.4259603
3.7354981899261475,0.43915898,0.09945941,-0.1492681,-0.62189305,-0.33670303,1.4301915
3.755568742752075,0.315032,0.41518512,-0.059973404,-0.5693846,-0.40824136,0.8534605
3.77565336227417,-0.31791225,-0.16194287,-0.07665987,-0.29113394,-0.62752867,0.684411
3.795734167098999,-0.16403499,-0.10908334,-0.39080936,-0.33735585,-0.22702181,1.2857602
3.816345453262329,-0.16403499,-0.10908334,-0.39080936,-0.33735585,-0.22702181,1.2857602
3.8364717960357666,-0.08659421,-0.79931414,0.21407586,0.15367404,0.037992176,1.5721354
3.8565828800201416,-0.22591409,-1.119481,0.5460448,0.52683693,0.092515275,1.2792304
3.876659393310547,-0.18160863,-1.3057965,0.6919761,0.9865552,-0.021966312,0.80118614
3.896728754043579,0.23983088,0.5903919,-0.10602087,0.61184156,-0.0022395141,-0.36655176
3.916825532913208,0.22434422,1.0502489,-0.5481606,0.29232687,-0.59459776,-1.1114779
3.936901569366455,0.56115854,0.82048523,-0.95286644,-0.0031902948,-0.84458363,-1.3887539
3.9569804668426514,0.78814614,0.8032453,-1.0525815,-0.27168378,-0.7946126,-1.2351711
3.9770963191986084,0.8537581,0.5834998,-0.9280439,-0.35654613,-0.61720383,-0.7992174
3.997629404067993,0.8537581,0.5834998,-0.9280439,-0.35654613,-0.61720383,-0.7992174
4.017390966415405,0.715299,0.28852147,-0.7294149,-0.31137156,-0.40551212,-0.39137077
4.037674188613892,0.4386345,-0.08675654,-0.547237,-0.07432801,-0.2256282,-0.06316741
4.057711362838745,0.26559246,-0.49258396,-0.15035827,0.14706618,0.17970058,0.22330266
4.077809810638428,0.2235741,-0.89053965,0.35927898,0.5664066,0.53044516,0.59380084
4.097871541976929,0.061399266,-1.040104,0.88658404,0.8590796,0.7910634,0.847022
4.117968559265137,-0.2162216,-1.0044398,1.289916,1.2158499,0.59667873,0.76375294
4.138101100921631,-0.6151907,-0.9241296,1.7049007,1.7420008,-0.06956589,0.48784176
4.158208131790161,-0.6151907,-0.9241296,1.7049007,1.7420008,-0.06956589,0.48784176
4.178303003311157,0.5521864,1.1062942,-0.9772477,0.7607814,-0.28020945,-0.9510413
4.198455095291138,0.9094572,3.3709173,-2.336077,0.18898074,-0.9550779,-3.0923803
4.218491554260254,2.1066353,6.228902,-3.6862652,-0.89170337,-1.9753543,-4.2179384
4.238562345504761,3.631913,8.103482,-3.767437,-2.8581343,-2.8630118,-2.8411083
4.258711814880371,5.2965736,10.23171,-3.78234,-5.083929,-3.3460445,-1.2314043
4.278743743896484,6.8581405,12.6414995,-3.8824887,-6.854554,-4.0726933,-0.51618594
4.299328804016113,6.8581405,12.6414995,-3.8824887,-6.854554,-4.0726933,-0.51618594
4.319426774978638,8.278229,14.9479685,-4.1057854,-8.198062,-4.8109,-0.36844772
4.339516878128052,9.584243,17.052504,-4.253128,-9.340435,-5.5164795,-0.27477306
4.3595991134643555,10.720282,19.057636,-4.3748884,-10.301009,-6.207743,-0.33324784
4.379729509353638,11.731042,20.91535,-4.4766397,-11.1057205,-6.870854,-0.48362702
4.399813175201416,12.637035,22.544182,-4.549035,-11.790373,-7.464084,-0.6168291
4.419905662536621,13.424662,23.936073,-4.584113,-12.36654,-7.9748635,-0.7234389
4.439991474151611,14.091577,25.096169,-4.582266,-12.835414,-8.402513,-0.8130552
4.460097789764404,14.091577,25.096169,-4.582266,-12.835414,-8.402513,-0.8130552
4.480205535888672,11.175282,20.356195,-1.333426,-8.389345,-7.0001645,0.7197388
4.500280141830444,8.239032,14.439544,-0.74173117,-5.4183545,-5.523399,-0.1286053
4.5253119468688965,5.6741304,7.8818054,0.52139616,-2.71119,-3.5142121,0.32379276
4.547686576843262,2.7749372,2.447134,1.6015513,0.0400663,-1.4625522,0.27648956
4.568093538284302,2.7749372,2.447134,1.6015513,0.0400663,-1.4625522,0.27648956
4.587916374206543,1.2913549,-1.1626294,2.0910752,1.8894231,0.21031189,-0.17352405
4.608000040054321,1.5572515,-0.5617927,1.5400895,2.0758455,0.5433179,-0.37825745
4.628070831298828,-0.31314066,-0.47850284,-0.16210496,1.033508,0.44283012,0.15714848
4.648157596588135,-0.2655162,0.49149814,-1.0912685,0.12794441,0.14930776,0.3138776
4.66823935508728,0.2107647,0.6495614,-0.96862364,-0.664518,-0.27117947,0.48963743
4.688329696655273,0.49904722,0.74722004,-0.8260155,-1.1229137,-0.41489938,0.8038448
4.708510160446167,0.49904722,0.74722004,-0.8260155,-1.1229137,-0.41489938,0.8038448
4.72857141494751,0.81580067,0.77055156,-0.6186933,-1.4269265,-0.4023315,1.08814
4.748786211013794,0.9522646,0.73641586,-0.46190894,-1.5092199,-0.3525295,1.2204912
4.768751382827759,0.91242456,0.56204045,-0.31208307,-1.4056333,-0.22712764,1.2552664
4.797246217727661,0.91242456,0.56204045,-0.31208307,-1.4056333,-0.22712764,1.2552664
4.81727933883667,0.65232205,0.17450377,-0.13515475,-1.0247128,-0.056642998,1.2109339
4.837329149246216,0.24395612,-0.11071317,-0.1364612,-0.6553155,0.24499922,1.0728524
4.857433080673218,-0.0025171703,-0.30994654,0.063708186,-0.34860584,-0.030447323,1.4416063
4.8775389194488525,-0.15797311,-0.53797746,0.4330166,0.10833995,-0.1246818,1.5130508
4.897989988327026,-0.15797311,-0.53797746,0.4330166,0.10833995,-0.1246818,1.5130508
4.918078184127808,-0.564495,-0.675737,0.79123574,0.3228745,-0.43795878,1.9250076
4.938175678253174,-0.71476907,-0.8593229,1.2261137,1.2049096,-0.94458866,1.4087722
4.9582884311676025,-0.8507816,-1.041739,1.4235914,1.8201263,-1.2036351,0.87900496
4.9783244132995605,-0.8137506,-1.0092747,1.5767258,2.115708,-1.0979166,0.48407808
4.9984259605407715,-0.71063143,-0.93086815,1.6657941,2.2519455,-1.0547792,0.29880902
5.018542051315308,-0.51720166,-0.9073278,1.6861591,2.2871633,-0.89947844,0.13885373
5.038647174835205,-0.32761487,-0.830039,1.7514544,2.2956102,-0.7550546,-0.022284627
5.058728933334351,-0.32761487,-0.830039,1.7514544,2.2956102,-0.7550546,-0.022284627
5.07892632484436,-0.15293363,-0.76293874,1.8681474,2.3102663,-0.65289575,-0.16230059
5.098934888839722,-0.03983748,-0.71466625,2.0176082,2.3352034,-0.59151006,-0.30347228
5.119050025939941,0.018618252,-0.78301454,2.0446696,2.390392,-0.57135767,-0.4333707
5.13933801651001,0.07297039,-0.93039906,1.9966146,2.4399278,-0.49248,-0.59156865
5.159262180328369,0.08077648,-0.8299465,2.1419704,2.4890168,-0.5283792,-0.76331633
5.179354906082153,0.11349499,-0.81637037,2.237286,2.544121,-0.516052,-0.901141
5.199421167373657,0.19135442,-0.86681247,2.2385101,2.588954,-0.5051066,-0.97640306
5.219537973403931,0.2566883,-0.8600329,2.325127,2.6345196,-0.4629921,-1.1102278
5.23962664604187,0.2566883,-0.8600329,2.325127,2.6345196,-0.4629921,-1.1102278
5.25974178314209,0.33232644,-0.8495562,2.4221377,2.693017,-0.44184646,-1.2320077
5.279919862747192,0.40270448,-0.83953,2.508548,2.7658648,-0.45761374,-1.3253293
5.299973726272583,0.46877047,-0.8321568,2.5822682,2.8402882,-0.48744938,-1.407862
5.320050477981567,0.5266671,-0.82377815,2.6530561,2.911454,-0.5201494,-1.4752908
5.340169906616211,0.5802547,-0.81684995,2.7145655,2.976026,-0.54941165,-1.5313315
5.360201358795166,0.63261414,-0.8121418,2.7644484,3.0320654,-0.57329524,-1.5778594
5.380289077758789,0.63261414,-0.8121418,2.7644484,3.0320654,-0.57329524,-1.5778594
5.400396108627319,0.64163464,-0.79964817,2.8027008,3.075468,-0.60486114,-1.6122928
5.420475482940674,0.65165645,-0.7970526,2.8180363,3.1008687,-0.6251131,-1.637171
5.440673112869263,0.65913886,-0.79539955,2.827244,3.1161728,-0.6382661,-1.652941
5.461018323898315,0.6647868,-0.7943858,2.8327482,3.1254,-0.646801,-1.6620686
5.480889320373535,0.59381527,-0.75762665,2.917178,3.1709383,-0.6903092,-1.6894758
5.5009801387786865,0.43306762,-0.6879264,3.0788348,3.232156,-0.7633885,-1.714745
5.521040678024292,0.400257,-0.6913489,3.1097672,3.2527697,-0.7909353,-1.7331958
5.541158437728882,0.400257,-0.6913489,3.1097672,3.2527697,-0.7909353,-1.7331958
5.561288833618164,0.3823948,-0.68662894,3.1246822,3.2647538,-0.81027263,-1.7498646
5.58131742477417,0.36574775,-0.6813096,3.1368792,3.2736235,-0.828343,-1.7642367
5.601372241973877,0.4374957,-0.7151741,3.0805266,3.2561686,-0.8210867,-1.7561922
5.621485710144043,0.41080603,-0.69135094,3.1084874,3.267099,-0.8375063,-1.7646272
5.641665935516357,0.3909486,-0.68383753,3.1225102,3.2753992,-0.85294926,-1.7742319
5.661662817001343,0.37169665,-0.6770762,3.1322153,3.2815213,-0.8678239,-1.7841797
5.681950092315674,0.35018495,-0.666988,3.1468847,3.2888272,-0.8839368,-1.7931421
5.702046632766724,0.35018495,-0.666988,3.1468847,3.2888272,-0.8839368,-1.7931421
5.7221150398254395,0.3239893,-0.6580651,3.1593077,3.2950807,-0.90030926,-1.8027453
5.742220640182495,0.30564174,-0.6554371,3.1591718,3.2953262,-0.9135614,-1.8105826
5.762343645095825,0.2843104,-0.6493677,3.1612961,3.294891,-0.92679393,-1.8171005
5.78252387046814,0.24715295,-0.6270492,3.1786537,3.2969465,-0.94382185,-1.8248813
5.8025805950164795,0.21061435,-0.6063409,3.1944268,3.2983894,-0.9607116,-1.8312609
5.822748184204102,0.18494603,-0.5945266,3.2014134,3.2955556,-0.9741601,-1.8334975
5.842964172363281,0.18494603,-0.5945266,3.2014134,3.2955556,-0.9741601,-1.8334975
5.862907886505127,0.16363627,-0.52221966,3.269008,3.2837582,-0.98860884,-1.8291421
5.883042573928833,0.14158863,-0.46555844,3.3125162,3.2658572,-0.99733055,-1.8168838
5.903094291687012,0.13904822,-0.42499748,3.3431227,3.2467952,-0.99587774,-1.8094978
5.9232001304626465,0.13161576,-0.42397347,3.345256,3.238166,-0.9947412,-1.8019652
5.943293571472168,0.15332194,-0.41876945,3.3252509,3.22788,-0.9864024,-1.8120096
5.963456153869629,0.10172315,-0.42336482,3.3237972,3.2387135,-0.9973483,-1.8203292
5.983723163604736,0.10172315,-0.42336482,3.3237972,3.2387135,-0.9973483,-1.8203292
6.0036091804504395,0.11396763,-0.3652003,3.3699136,3.2272625,-1.0004345,-1.8278201
6.0236945152282715,0.12423706,-0.35614547,3.3708847,3.2236178,-1.0006428,-1.8342717
6.043950796127319,0.057553485,-0.34013888,3.4082234,3.241054,-1.0166292,-1.8328729
6.063964128494263,0.105817825,-0.33611032,3.3929284,3.2261848,-1.0107869,-1.8444297
6.084035158157349,0.13350996,-0.37380695,3.3476956,3.219148,-1.0023105,-1.8457887
6.104416608810425,0.113245375,-0.4135171,3.293946,3.2219539,-1.0059099,-1.8575809
6.124333143234253,0.11617789,-0.3685331,3.323664,3.210671,-1.0093263,-1.8660705
6.144484996795654,0.11617789,-0.3685331,3.323664,3.210671,-1.0093263,-1.8660705
6.164621829986572,0.11878285,-0.37539437,3.3097568,3.2065089,-1.0098757,-1.8716602
6.184900283813477,0.018625632,-0.3213654,3.3989913,3.2269144,-1.036157,-1.8631475
6.20482063293457,0.18878926,-0.31999075,3.3984303,3.1855426,-0.91744685,-1.8069818
6.2249369621276855,0.2502313,-0.4837051,3.1969247,3.1837015,-0.86277366,-1.7856596
6.245008230209351,0.13021025,-0.43310526,3.1610973,3.186396,-0.96756566,-1.8652055
6.265092134475708,0.101554126,-0.37210372,3.2538562,3.1816542,-1.0089384,-1.8898749
6.285221338272095,0.13545704,-0.27293822,3.2898889,3.1659453,-1.0120317,-1.9210002
6.305317640304565,0.13545704,-0.27293822,3.2898889,3.1659453,-1.0120317,-1.9210002
6.325403690338135,0.32953215,-0.42639473,3.221244,3.1510615,-0.8279045,-1.8178911
6.345476150512695,0.15631464,-0.45759824,3.126107,3.1570988,-0.95052004,-1.853482
6.365557909011841,0.0998518,-0.40521818,3.1749027,3.1624324,-1.0035911,-1.9022365
6.38569188117981,0.055930004,-0.22474417,3.3537023,3.1577907,-1.0365479,-1.9209166
6.405884265899658,0.2670425,-0.2963574,3.3437061,3.1217937,-0.8459096,-1.8108425
6.4263505935668945,0.3598029,-0.5627428,3.0553172,3.134888,-0.7538912,-1.761085
6.446452617645264,0.3598029,-0.5627428,3.0553172,3.134888,-0.7538912,-1.761085
6.466589689254761,0.111559734,-0.3600568,3.0966501,3.1209416,-0.9307404,-1.8693664
6.486658811569214,0.15145347,-0.30817115,3.263593,3.101593,-0.9258124,-1.8388815
6.506748914718628,0.14917117,-0.3282814,3.2928607,3.1005244,-0.82452226,-1.7586062
6.526870250701904,0.27365416,-0.5104954,3.078072,3.0830026,-0.7789571,-1.7325246
6.546948194503784,0.08557248,-0.36452746,3.07256,3.07895,-0.91851616,-1.8487718
6.566996097564697,0.12797128,-0.28114468,3.2450392,3.0631864,-0.9225481,-1.8336098
6.587136745452881,0.12797128,-0.28114468,3.2450392,3.0631864,-0.9225481,-1.8336098
6.607219934463501,0.26182434,-0.33040735,3.2190652,3.041778,-0.78227544,-1.762665
6.627347469329834,0.25971097,-0.52372193,3.016788,3.0522532,-0.7679351,-1.733109
6.647358417510986,0.0852354,-0.27882102,3.0146983,3.0376048,-0.9073553,-1.8832018
6.667804718017578,0.2720467,-0.30433834,3.1935787,3.003339,-0.78395474,-1.7743745
6.6876420974731445,0.30010363,-0.5223963,2.9841626,3.018426,-0.7063343,-1.7178514
6.707708358764648,0.12468411,-0.43206888,2.9203968,2.9934676,-0.8226102,-1.7785361
6.728869199752808,0.12468411,-0.43206888,2.9203968,2.9934676,-0.8226102,-1.7785361
6.748983383178711,0.061134495,-0.23091754,3.1343718,2.991685,-0.92468625,-1.8536777
6.76903510093689,0.252354,-0.2790798,3.1890612,2.9627862,-0.76720446,-1.7549679
6.789123296737671,0.32310182,-0.5067494,2.9355738,2.9689693,-0.67982996,-1.7004519
6.810384035110474,0.19086409,-0.5407788,2.7896156,2.938762,-0.7700488,-1.7357922
6.830456495285034,0.05607062,-0.3553652,2.9390666,2.9495254,-0.8802953,-1.8469794
6.850537061691284,0.13220873,-0.27391505,3.1244836,2.9352827,-0.8539029,-1.8044641
6.8706042766571045,0.24779135,-0.28633526,3.1284337,2.916463,-0.7310667,-1.7318513
6.890726804733276,0.24779135,-0.28633526,3.1284337,2.916463,-0.7310667,-1.7318513
6.910788536071777,0.3104047,-0.5331602,2.8424032,2.9243758,-0.63107884,-1.6797006
6.930886745452881,0.16410643,-0.464319,2.746977,2.8946042,-0.75329584,-1.755225
6.950962543487549,0.071095794,-0.29577234,2.935308,2.8965104,-0.8579347,-1.8378994
6.9710533618927,0.23038135,-0.28439727,3.097573,2.875094,-0.73537266,-1.7371819
6.991132497787476,0.3007885,-0.53653896,2.794769,2.8870437,-0.6225989,-1.6938732
7.011226654052734,0.12278702,-0.4448418,2.756118,2.8579671,-0.7579221,-1.7631576
7.031515836715698,0.12278702,-0.4448418,2.756118,2.8579671,-0.7579221,-1.7631576
7.051943302154541,0.054586828,-0.21741211,2.9984956,2.861898,-0.8683084,-1.8377912
7.071810245513916,0.24364203,-0.2852202,3.0602274,2.8421571,-0.72533524,-1.7377596
7.091865301132202,0.31302688,-0.51424325,2.7633033,2.8498254,-0.60793775,-1.6892083
7.112352609634399,0.15975402,-0.5148973,2.6654878,2.8198862,-0.7287982,-1.7509537
7.132449626922607,0.060046688,-0.2774324,2.8795002,2.8172526,-0.82656026,-1.8303554
7.1529762744903564,0.2380842,-0.28453156,3.0128925,2.7983558,-0.7084029,-1.7359784
7.172781705856323,0.28586623,-0.49761114,2.7360795,2.802797,-0.59527767,-1.6954067
7.193750858306885,0.11080154,-0.36330178,2.6793826,2.7859046,-0.7425315,-1.8024919
7.213627338409424,0.11080154,-0.36330178,2.6793826,2.7859046,-0.7425315,-1.8024919
7.233967542648315,0.097382754,-0.24207845,2.9347384,2.7897677,-0.81191474,-1.8130302
7.254009246826172,0.23526663,-0.2689029,2.9989307,2.7726977,-0.69871163,-1.7293003
7.274671792984009,0.284286,-0.51409143,2.6842384,2.7786498,-0.5841408,-1.7017672
7.294756889343262,0.08591842,-0.3765325,2.6725028,2.7507448,-0.738809,-1.7984056
7.314845323562622,0.047979757,-0.2237165,2.899283,2.7613232,-0.8492418,-1.8559325
7.3349409103393555,0.22350311,-0.27885035,2.9691868,2.7451813,-0.7057688,-1.746665
7.355177879333496,0.22350311,-0.27885035,2.9691868,2.7451813,-0.7057688,-1.746665
7.375295639038086,0.25393066,-0.44638437,2.7178,2.7379603,-0.59360874,-1.7103851
7.395408391952515,0.08408865,-0.39149672,2.6423092,2.7241435,-0.73700696,-1.8043683
7.4154746532440186,0.03717666,-0.21428442,2.8767488,2.7360573,-0.8476652,-1.8665419
7.435558319091797,0.21846148,-0.2737741,2.9405987,2.7180734,-0.70141685,-1.7553334
7.455641508102417,0.24489442,-0.43733153,2.688114,2.7078547,-0.5859761,-1.7198739
7.4756999015808105,0.24489442,-0.43733153,2.688114,2.7078547,-0.5859761,-1.7198739
7.4958176612854,0.07662129,-0.38281086,2.6106298,2.6937456,-0.7281323,-1.8160517
7.5159173011779785,0.028258562,-0.21360704,2.8509195,2.7058778,-0.8380626,-1.8679812
7.5360119342803955,0.21349305,-0.2704866,2.9078028,2.6859992,-0.69174623,-1.7573581
7.5560925006866455,0.2379571,-0.43764794,2.645559,2.6743624,-0.5713109,-1.726407
7.5762245655059814,0.06772318,-0.37252486,2.574211,2.6621327,-0.7139376,-1.8321795
7.601365089416504,0.06772318,-0.37252486,2.574211,2.6621327,-0.7139376,-1.8321795
7.625771522521973,0.044601634,-0.21747708,2.804239,2.6685476,-0.8055536,-1.8635671
7.645980358123779,0.20784384,-0.2581528,2.8737185,2.6518414,-0.6766929,-1.761219
7.6660284996032715,0.23635149,-0.4516858,2.5877736,2.6419425,-0.5538393,-1.7395339
7.686326026916504,0.052512288,-0.33826166,2.550742,2.6254041,-0.70390624,-1.8479569
7.706626653671265,0.122603506,-0.2524026,2.7687473,2.6178167,-0.7054604,-1.8011947
7.726451396942139,0.22363085,-0.25120616,2.7924078,2.5960302,-0.6031473,-1.7131784
7.747042417526245,0.22363085,-0.25120616,2.7924078,2.5960302,-0.6031473,-1.7131784
7.767175674438477,0.2519846,-0.5245786,2.4507115,2.5988846,-0.4949343,-1.7309852
7.787236213684082,0.045731597,-0.32089287,2.4796405,2.5710523,-0.6573981,-1.8622391
7.80731463432312,0.15768951,-0.2793231,2.6737528,2.553078,-0.6284005,-1.7763431
7.827406167984009,0.22782713,-0.31988847,2.6232777,2.5307138,-0.5265551,-1.7078338
7.847476959228516,0.18199196,-0.5299907,2.3618522,2.5261197,-0.5087853,-1.7725785
7.86759090423584,0.03905402,-0.2809908,2.4839964,2.516893,-0.6508882,-1.8803437
7.887630939483643,0.21193832,-0.28653142,2.6309152,2.4983954,-0.5617256,-1.7702911
7.908216714859009,0.21193832,-0.28653142,2.6309152,2.4983954,-0.5617256,-1.7702911
7.9283363819122314,0.21344602,-0.46623975,2.3965003,2.4874623,-0.45562384,-1.7710636
7.948467493057251,0.027905911,-0.3432201,2.3805583,2.4792717,-0.609296,-1.897887
7.9685728549957275,0.06314162,-0.26446724,2.5773926,2.4799166,-0.66434735,-1.8595438
7.988642454147339,0.18134502,-0.26227283,2.6500463,2.4663675,-0.5703403,-1.7720797
8.008710622787476,0.19121659,-0.37056404,2.4762814,2.4481447,-0.47591934,-1.7493169
8.028784990310669,0.020873308,-0.3233278,2.4138875,2.4529457,-0.6161742,-1.8736935
8.048859119415283,0.020873308,-0.3233278,2.4138875,2.4529457,-0.6161742,-1.8736935
8.068956136703491,0.079416424,-0.2685417,2.5766802,2.446549,-0.6229075,-1.8323166
8.089050531387329,0.17404044,-0.26659474,2.5942783,2.4219384,-0.52503276,-1.7471633
8.109145641326904,0.1841794,-0.44171715,2.3578503,2.403339,-0.42114756,-1.7621062
8.12921953201294,-0.0027481755,-0.31778264,2.3632069,2.3930411,-0.57375133,-1.8922918
8.14952564239502,0.06644402,-0.2868634,2.5039127,2.3803325,-0.5750345,-1.8337023
8.169413805007935,0.13973555,-0.28029498,2.5102327,2.3539152,-0.48652086,-1.7505631
8.190102100372314,0.13973555,-0.28029498,2.5102327,2.3539152,-0.48652086,-1.7505631
8.210174560546875,0.1449765,-0.31053174,2.44528,2.3323727,-0.43942112,-1.7284062
8.230228662490845,0.06907516,-0.3311989,2.3928587,2.327867,-0.49172524,-1.7883489
8.251317739486694,0.018788055,-0.23838302,2.4844542,2.3301163,-0.58083755,-1.8162124
8.271393537521362,0.13635024,-0.2732751,2.4948106,2.3107462,-0.47149202,-1.7519233
8.291471481323242,0.12905768,-0.34705368,2.3605473,2.2793646,-0.39790666,-1.7527432
8.31155014038086,-0.012385189,-0.2767967,2.3716984,2.287715,-0.54764724,-1.8494189
8.332150936126709,-0.012385189,-0.2767967,2.3716984,2.287715,-0.54764724,-1.8494189
8.35226845741272,0.10772197,-0.29277748,2.4234648,2.2651443,-0.4517006,-1.7771926
8.372458457946777,0.076988555,-0.29819855,2.3791754,2.2409048,-0.439626,-1.7668571
8.392438173294067,0.066361226,-0.26011413,2.4112763,2.2283244,-0.46039328,-1.751642
8.41256594657898,0.14187622,-0.27900055,2.37979,2.2002926,-0.36847368,-1.6954553
8.432637691497803,0.08258872,-0.5497247,2.0509117,2.1578517,-0.27918348,-1.8373411
8.452726125717163,-0.01935698,-0.2488358,2.300831,2.1622164,-0.47171643,-1.8617682
8.472968101501465,0.11478652,-0.31284213,2.2820652,2.1324294,-0.3334042,-1.7652154
8.492968559265137,0.11478652,-0.31284213,2.2820652,2.1324294,-0.3334042,-1.7652154
8.513067722320557,-0.004468872,-0.3737079,2.1848876,2.1071692,-0.38843977,-1.8641729
8.533215761184692,-0.03166361,-0.27906096,2.3019428,2.1218731,-0.4927009,-1.8670621
8.55324387550354,0.062298544,-0.3014703,2.2822258,2.1024804,-0.36584806,-1.8021579
8.573631525039673,0.034277968,-0.29215398,2.2676506,2.0820835,-0.3797364,-1.7887702
8.593627691268921,0.050597638,-0.2848861,2.266818,2.0666208,-0.35645607,-1.7661049
8.61376428604126,0.060161173,-0.3011155,2.2289662,2.0426207,-0.3176072,-1.7601306
8.633753299713135,0.019010827,-0.33156368,2.1789966,2.0201066,-0.32724658,-1.8114681
8.653940677642822,0.019010827,-0.33156368,2.1789966,2.0201066,-0.32724658,-1.8114681
8.674371242523193,-0.033407062,-0.26679906,2.2484267,2.0302048,-0.4348865,-1.8394015
8.694419860839844,0.07334909,-0.30918851,2.1740096,2.0041778,-0.25899467,-1.7852924
8.714350938796997,-0.011954366,-0.40638864,2.047447,1.9561442,-0.2733247,-1.884917
8.734640836715698,-0.049912512,-0.28614423,2.1842136,1.972214,-0.39643368,-1.8837895
8.754598379135132,0.00013239775,-0.28126574,2.1678154,1.9628357,-0.2653335,-1.8392878
8.77469515800476,0.01419066,-0.2570185,2.1743712,1.9424359,-0.23607162,-1.794091
8.794761419296265,0.051330656,-0.296518,2.0982797,1.9054929,-0.16785367,-1.7740126
8.815016984939575,0.051330656,-0.296518,2.0982797,1.9054929,-0.16785367,-1.7740126
8.835135221481323,-0.06768146,-0.3214273,2.0867062,1.9015367,-0.23244336,-1.8383193
8.855200290679932,-0.066381484,-0.28495705,2.1404767,1.8949355,-0.33011895,-1.864085
8.875518321990967,-0.05822131,-0.23558822,2.1450646,1.8970109,-0.2310681,-1.853086
8.895494222640991,-0.021109827,-0.2158244,2.1216347,1.8772622,-0.15567932,-1.819284
8.915579795837402,-0.019915596,-0.12470111,2.2669306,1.9024982,-0.19544321,-1.6386759
8.935693740844727,-0.010270535,-0.23722026,2.1162539,1.8834251,-0.13831413,-1.6241319
8.956058025360107,-0.040114798,-0.21319732,2.092765,1.8419385,-0.09470408,-1.6878383
8.975897073745728,-0.039072163,-0.08839372,2.2443116,1.8440664,-0.14401902,-1.6073871
8.996247053146362,-0.039072163,-0.08839372,2.2443116,1.8440664,-0.14401902,-1.6073871
9.016358613967896,-0.016169399,-0.18914789,2.123728,1.8342718,-0.113715366,-1.5696917
9.036747932434082,-0.046871297,-0.27795497,1.9470367,1.7775905,-0.024014194,-1.7003446
9.056640386581421,-0.14521793,-0.106633395,2.2063851,1.7863181,-0.2658411,-1.738931
9.076714277267456,-0.069356605,-0.19612174,2.0143595,1.7401328,-0.0684938,-1.8192594
9.09680724143982,-0.054484002,-0.05947633,2.2013423,1.7766972,-0.11784011,-1.6067712
9.116928339004517,-0.052031383,-0.17801334,2.0311904,1.7508326,-0.05464684,-1.6151464
9.136991739273071,-0.06345013,-0.15716963,2.018474,1.7090083,-0.017753068,-1.6642094
9.157378435134888,-0.06000352,-0.059899926,2.1282203,1.7025473,-0.054576565,-1.5934944
9.177435636520386,-0.06000352,-0.059899926,2.1282203,1.7025473,-0.054576565,-1.5934944
9.19761037826538,-0.05179877,-0.18545377,1.9500127,1.6774945,0.0019880794,-1.6272597
9.217663764953613,-0.08178419,-0.1363458,1.9850367,1.638273,0.005321678,-1.6901302
9.237782001495361,-0.05851835,-0.053891838,2.0768535,1.6431003,-0.016977508,-1.6193597
9.258198738098145,-0.055806227,-0.2085101,1.8538051,1.6080908,0.05318607,-1.655349
9.278356075286865,-0.14824186,-0.14150566,1.9548793,1.5847726,-0.061346192,-1.7752807
9.298391819000244,-0.09120038,-0.17712899,1.8486327,1.5435846,0.062016677,-1.8460064
9.318552494049072,-0.10379914,-0.038787797,2.0517297,1.5921649,-0.052024562,-1.6476469
9.338908195495605,-0.10379914,-0.038787797,2.0517297,1.5921649,-0.052024562,-1.6476469
9.359018087387085,-0.07659977,-0.06915565,1.9859418,1.5581952,0.03127716,-1.6628895
9.379111766815186,-0.06751387,-0.20150998,1.7743847,1.5259908,0.09722184,-1.6675739
9.39919638633728,-0.18411194,-0.10070023,1.9342492,1.5214682,-0.083449915,-1.7547548
9.419651508331299,-0.11736408,-0.16374144,1.799302,1.4806553,0.086100236,-1.8525653
9.439497709274292,-0.12529173,-0.0011415035,2.0388129,1.5389924,-0.042488087,-1.6386316
9.45954418182373,-0.090372615,-0.07571329,1.9092706,1.4972259,0.064504,-1.6485271
9.483438491821289,-0.090372615,-0.07571329,1.9092706,1.4972259,0.064504,-1.6485271
9.503563404083252,-0.08245362,-0.19756216,1.6924418,1.4467796,0.14068496,-1.6782506
9.523630380630493,-0.21494421,-0.06596902,1.8958234,1.4525827,-0.09015511,-1.7448149
9.543828010559082,-0.13960695,-0.1511234,1.7471578,1.4168725,0.10770394,-1.8604698
9.563891172409058,-0.14568737,0.018678859,1.994709,1.4808241,-0.020803731,-1.6444011
9.584292650222778,-0.14568737,0.018678859,1.994709,1.4808241,-0.020803731,-1.6444011
9.604407787322998,-0.10540448,-0.051711828,1.8715718,1.4384687,0.0855912,-1.6413443
9.624557256698608,-0.0921192,-0.18650725,1.6276307,1.372763,0.17092456,-1.6778612
9.644632577896118,-0.22474703,-0.06258594,1.8161371,1.3787087,-0.04643396,-1.7449133
9.664702653884888,-0.15581892,-0.13935469,1.692526,1.3504015,0.13409324,-1.8652878
9.68481183052063,-0.16526899,0.039913833,1.9509058,1.419858,0.0007558577,-1.6445916
9.704890251159668,-0.11911234,-0.041222528,1.8120037,1.3758527,0.11067319,-1.6344626
9.724981546401978,-0.10177319,-0.17542133,1.5591497,1.2947758,0.20125076,-1.6753008
9.745285034179688,-0.23551115,-0.05393091,1.7411472,1.304041,-0.0055268146,-1.7348847
9.765303134918213,-0.23551115,-0.05393091,1.7411472,1.304041,-0.0055268146,-1.7348847
9.785382270812988,-0.17252144,-0.12711129,1.6398727,1.284292,0.15697205,-1.8641062
9.805697202682495,-0.18333751,0.060176924,1.9036746,1.3566177,0.024840165,-1.639241
9.825596570968628,-0.12973389,-0.034045517,1.7388583,1.3078411,0.13672811,-1.6197982
9.845696449279785,-0.11227729,-0.1678566,1.4825038,1.2115611,0.23233007,-1.6719968
9.86582326889038,-0.24995077,-0.039024755,1.6750426,1.232005,0.030404579,-1.7136831
9.885889291763306,-0.19065678,-0.115063116,1.5869963,1.216699,0.17644946,-1.8576274
9.906238794326782,-0.19065678,-0.115063116,1.5869963,1.216699,0.17644946,-1.8576274
9.926376104354858,-0.20213939,0.07807568,1.8530016,1.2918599,0.048522424,-1.628974
9.946435928344727,-0.13935412,-0.014094666,1.6776876,1.2366595,0.15841125,-1.5941582
9.966774225234985,-0.122368336,-0.15745218,1.412266,1.1274564,0.25848955,-1.6572664
9.986701488494873,-0.2946261,-0.009126276,1.6506464,1.2017647,0.0319609,-1.6959677
10.006826400756836,-0.2171806,-0.106652394,1.539062,1.1572367,0.18468852,-1.8477943
10.027837991714478,-0.2171806,-0.106652394,1.539062,1.1572367,0.18468852,-1.8477943
10.047980546951294,-0.24297014,0.09887007,1.8228368,1.2494651,0.04260158,-1.6244447
10.068025588989258,-0.15893447,0.033756167,1.676481,1.1839131,0.15753528,-1.5510345
10.088136196136475,-0.13272561,-0.11761619,1.4011389,1.0662918,0.26040193,-1.6059706
10.108257293701172,-0.30300936,-0.033197314,1.5640033,1.1583151,0.074133635,-1.6727991
10.128325462341309,-0.2564914,-0.09025635,1.5020983,1.1061289,0.19042763,-1.8301668
10.148400783538818,-0.30602413,0.124384075,1.8251139,1.253073,0.01479682,-1.6149046
10.169132709503174,-0.30602413,0.124384075,1.8251139,1.253073,0.01479682,-1.6149046
10.189267873764038,-0.19201721,-0.009551361,1.5465453,1.1103917,0.17799726,-1.550271
10.209344148635864,-0.21545294,-0.045981005,1.4665293,1.0822256,0.2027608,-1.5886643
10.229408264160156,-0.22499394,-0.0004900694,1.5358782,1.0963916,0.1744218,-1.5419958
10.249584674835205,-0.21684025,0.001054585,1.5163897,1.0622048,0.19210613,-1.5003102
10.269636869430542,-0.20931189,-0.042721793,1.425085,1.0013115,0.22646253,-1.4913859
10.289686679840088,-0.2410413,-0.061563104,1.3894333,0.9794911,0.20744197,-1.5042741
10.30975866317749,-0.3112886,0.0857788,1.6176711,1.0694473,0.0964338,-1.4327092
10.330085039138794,-0.3112886,0.0857788,1.6176711,1.0694473,0.0964338,-1.4327092
10.350509643554688,-0.2518702,0.0450826,1.5155668,1.0030531,0.17937124,-1.4318163
10.370393514633179,-0.22083855,-0.005526319,1.4207894,0.9393341,0.222686,-1.4014425
10.390472650527954,-0.21911871,-0.117591515,1.2201263,0.83814937,0.29625642,-1.4365177
10.410819292068481,-0.34868065,-0.0675357,1.1759337,0.92886645,0.20260835,-1.4643869
10.430983304977417,-0.4118946,0.0033355504,1.277491,0.996701,0.16061047,-1.7691345
10.451067924499512,-0.26587877,-0.031854674,1.3388984,1.0151414,0.25329235,-1.6502707
10.47120714187622,-0.31811073,0.10696679,1.5509217,1.0817641,0.16310596,-1.5286555
10.49135947227478,-0.27122656,0.14250061,1.6465372,1.0199467,0.19057843,-1.3962383
10.511499404907227,-0.27122656,0.14250061,1.6465372,1.0199467,0.19057843,-1.3962383
10.531752824783325,-0.25188413,-0.0029073209,1.4316523,0.9518991,0.19831654,-1.3972859
10.551724195480347,-0.29664603,-0.08874002,1.2939626,0.8844157,0.22440466,-1.4039879
10.571834802627563,-0.4652141,0.20974222,1.5142288,1.0714437,0.07383372,-1.3647125
10.59191107749939,-0.30059436,-0.04030803,1.461571,0.9768263,0.1913865,-1.5681376
10.61226749420166,-0.4719527,0.15163624,1.6923077,1.0911171,0.010832656,-1.3436899
10.632174015045166,-0.36194983,0.19939256,1.6802158,0.9823413,0.15702593,-1.2645693
10.652228832244873,-0.29629764,0.037834525,1.4778924,0.9368719,0.16024542,-1.2820034
10.672332286834717,-0.29629764,0.037834525,1.4778924,0.9368719,0.16024542,-1.2820034
10.692748546600342,-0.3017655,-0.07588436,1.303262,0.841371,0.23012292,-1.2735429
10.712584018707275,-0.45794746,0.0035491437,1.2489874,0.9306221,0.1390194,-1.3031256
10.732695579528809,-0.41695583,-0.038973227,1.2311703,0.8810958,0.2260897,-1.5738223
10.752789974212646,-0.5096387,0.14512643,1.4503431,1.0663453,0.0609868,-1.3995795
10.772858619689941,-0.3369123,-0.018121183,1.4770173,0.9836084,0.18249348,-1.4923306
10.792949438095093,-0.52618694,0.103447616,1.6415242,1.0467745,0.03596599,-1.2732122
10.813010454177856,-0.44758254,0.18250853,1.6502595,0.9578183,0.16401757,-1.198247
10.833137273788452,-0.44758254,0.18250853,1.6502595,0.9578183,0.16401757,-1.198247
10.853274583816528,-0.37813345,0.022129878,1.4726726,0.90404445,0.15518382,-1.1833603
10.873364210128784,-0.43617272,-0.009005249,1.4510312,0.84690404,0.15244742,-1.0954561
10.893431186676025,-0.62239265,0.009234756,1.4310781,0.80866337,0.07346727,-0.897515
10.913479566574097,-0.74227643,0.29155332,1.5916302,0.88170266,0.10529274,-0.9434437
10.933622360229492,-0.5868064,0.19520816,1.6157613,0.8310434,0.14874375,-0.8942541
10.953656673431396,-0.52104723,0.046436116,1.4313898,0.71925235,0.20117992,-0.89000666
10.973937273025513,-0.5420528,0.0256581,1.2705691,0.63262075,0.28255224,-0.9157908
10.994061708450317,-0.5420528,0.0256581,1.2705691,0.63262075,0.28255224,-0.9157908
11.01415228843689,-0.5831575,0.055970415,1.1308062,0.63022816,0.30350864,-0.9416682
11.034223318099976,-0.5446593,0.10716733,1.1884596,0.62967753,0.39287236,-0.9222483
11.054622650146484,-0.5530796,0.13142866,1.2146881,0.619924,0.41447586,-0.95646304
11.07485842704773,-0.47241786,-0.07784255,1.0127671,0.48650002,0.44325146,-0.9009235
11.09486722946167,-0.80696535,0.38780048,1.250729,0.7438043,0.2572408,-0.96670884
11.114935159683228,-0.5300559,0.10677573,1.2165458,0.63289654,0.3581306,-0.8821539
11.135318994522095,-0.61330515,0.18691635,1.282271,0.66128546,0.378893,-0.95282274
11.15543246269226,-0.61330515,0.18691635,1.282271,0.66128546,0.378893,-0.95282274
11.175536632537842,-0.51252925,-0.037989616,1.06002,0.5123516,0.4202696,-0.8863004
11.195684909820557,-0.5912802,0.31079236,1.3405726,0.8311774,0.2404121,-1.1801696
11.21569275856018,-0.24025014,0.0034393072,1.1786051,0.7225519,0.36420658,-1.3683541
11.23577880859375,-0.45469615,0.09522697,1.1141034,0.90690595,0.2707337,-1.5588651
11.255865573883057,-0.25941777,-0.075954445,1.0855994,0.7729104,0.38561222,-1.6034839
11.275949954986572,-0.5096716,0.07579526,1.1014347,0.9394609,0.25285044,-1.6361389
11.296345233917236,-0.31995937,-0.06602305,1.0751283,0.7550764,0.39535686,-1.5928833
11.316440343856812,-0.31995937,-0.06602305,1.0751283,0.7550764,0.39535686,-1.5928833
11.336578607559204,-0.53975683,0.055827767,0.9750821,0.83528316,0.31806412,-1.6595924
11.356614589691162,-0.38011146,-0.07368847,0.94130874,0.61563534,0.42900476,-1.5969157
11.376757860183716,-0.53934586,0.015535831,0.7562807,0.66318977,0.42108753,-1.648946
11.396905660629272,-0.4670853,0.031829104,0.7896861,0.52203435,0.47425938,-1.6116986
11.416937112808228,-0.4812626,0.122900635,0.8437438,0.61898714,0.45802584,-1.5730753
11.43714427947998,-0.30328998,-0.06969893,0.72828686,0.3659574,0.6284508,-1.5735002
11.457221984863281,-0.30328998,-0.06969893,0.72828686,0.3659574,0.6284508,-1.5735002
11.47730565071106,-0.5978253,0.09042272,0.5507045,0.45070794,0.5417228,-1.7198131
11.497382164001465,-0.33487302,-0.056080118,0.6242491,0.31127095,0.6630076,-1.5394704
11.517499685287476,-0.607766,0.14118513,0.5505114,0.4574779,0.52479184,-1.7157745
11.537616729736328,-0.23034343,-0.10757512,0.54594374,0.25354093,0.70216686,-1.631057
11.55767273902893,-0.5818855,0.12231138,0.46385577,0.40855196,0.5601309,-1.7586124
11.578342914581299,-0.23428908,-0.100236624,0.5043254,0.22729883,0.71771836,-1.6397712
11.598340511322021,-0.23428908,-0.100236624,0.5043254,0.22729883,0.71771836,-1.6397712
11.618375778198242,-0.5868398,0.13636151,0.43365875,0.38831758,0.55593425,-1.7755861
11.638477325439453,-0.22227791,-0.090137504,0.47509298,0.21133345,0.7226331,-1.6666968
11.658543348312378,-0.5884112,0.15237826,0.40415758,0.3676073,0.544737,-1.8076854
11.67870283126831,-0.21874696,-0.07045299,0.45011815,0.20255141,0.718453,-1.7015955
11.6987624168396,-0.5919175,0.17577913,0.37554342,0.34648398,0.5224467,-1.849103
11.719025611877441,-0.21449411,-0.043396994,0.42054304,0.19247922,0.7074034,-1.7470686
11.738956451416016,-0.59331775,0.20985666,0.3347901,0.31549126,0.4905753,-1.90205
11.759045600891113,-0.59331775,0.20985666,0.3347901,0.31549126,0.4905753,-1.90205
11.77948784828186,-0.20931092,-0.0042962283,0.3784189,0.17381996,0.6889652,-1.801172
