liuyurong129/humanoid-gym/humanoid/data/robot1_action_20250621-225021.csv
timestamp,joint_1,joint_2,joint_3,joint_4,joint_5,joint_6
0.0003571510314941406,0.0,0.0,0.0,0.0,0.0,0.0
0.02067255973815918,0.0,0.0,0.0,0.0,0.0,0.0
0.04065537452697754,0.0,0.0,0.0,0.0,0.0,0.0
0.06075620651245117,0.0,0.0,0.0,0.0,0.0,0.0
0.08084559440612793,0.0,0.0,0.0,0.0,0.0,0.0
0.10097765922546387,0.0,0.0,0.0,0.0,0.0,0.0
0.12106680870056152,-1.445524,-0.14851642,-0.13415945,-0.08327578,-0.34466222,0.94909227
0.14118480682373047,-1.2719817,0.24013638,-0.11489877,-0.23678912,-0.7640228,1.9276674
0.1612088680267334,-0.78366345,-0.11342651,-0.24791586,-0.3773266,-0.2641527,1.9219358
0.18126988410949707,-0.8844704,-0.18899654,-0.05429683,0.028835863,-0.3228619,2.272756
0.201401948928833,-0.8844704,-0.18899654,-0.05429683,0.028835863,-0.3228619,2.272756
0.22159886360168457,-0.91221434,-0.4119966,0.097221725,0.19708438,-0.29930216,2.4082549
0.24179911613464355,-1.2762859,-0.59136796,0.3087805,0.34894395,-0.453459,2.1851382
0.2618062496185303,-1.8447543,-0.5062244,0.13061695,0.1481602,-0.58389235,2.2001011
0.28200411796569824,-1.4346516,-0.69126153,0.18881845,0.37211138,-0.6834677,2.3300786
0.3021063804626465,-1.6097028,-0.5671562,0.07544117,0.26384252,-0.6686387,2.3288152
0.3221926689147949,-1.5189515,-0.6273124,0.20537516,0.41263312,-0.56679934,2.2165463
0.3423318862915039,-1.9301114,-0.42091495,0.23902178,0.29435086,-0.70418763,1.9669104
0.3623619079589844,-1.9301114,-0.42091495,0.23902178,0.29435086,-0.70418763,1.9669104
0.38246726989746094,-1.6338831,-0.53338426,0.26385957,0.43339363,-0.8631484,2.115076
0.4025399684906006,-1.9062731,-0.33953825,0.1529505,0.20649025,-0.8376811,1.9687243
0.4226372241973877,-1.537671,-0.47354558,0.19174758,0.33938155,-0.8374842,2.108617
0.4426705837249756,-1.8373188,-0.21891151,0.11114183,0.04401595,-0.75217223,1.8535032
0.4627809524536133,-1.4980981,-0.2924547,0.03795579,0.1535773,-0.7140311,1.9986947
0.4829380512237549,-1.3490789,-0.17206216,0.12686959,0.1926972,-0.5341487,1.7668958
0.5029418468475342,-1.5272107,-0.10900341,0.14290084,0.08884861,-0.47761843,1.6168733
0.5233163833618164,-1.5272107,-0.10900341,0.14290084,0.08884861,-0.47761843,1.6168733
0.5434398651123047,-1.5082946,-0.056441307,0.04634136,-0.09279451,-0.46958122,1.478091
0.5635397434234619,-1.6716926,0.44409874,-0.106655866,-0.58505267,-0.5540229,1.2006924
0.5836317539215088,-0.8589025,0.12617937,-0.4723487,-0.6155647,0.08166142,1.6557298
0.6036911010742188,-0.47550377,-0.13643554,-0.3693015,-0.4988532,0.34784392,1.6704352
0.6237790584564209,-0.6285315,-0.12419802,-0.13259193,-0.0040876875,0.36466402,1.9231277
0.6438617706298828,-0.83600783,-0.42583078,0.11249681,0.39463395,0.27510732,1.9459984
0.6639220714569092,-1.3190229,-0.49040475,0.3059827,0.42144674,0.22979338,1.7206161
0.6840364933013916,-1.3190229,-0.49040475,0.3059827,0.42144674,0.22979338,1.7206161
0.7041079998016357,-1.9348714,-0.31657344,0.23804528,0.21095884,0.041752312,1.6678736
0.7242465019226074,-1.5485191,-0.39497143,0.23117466,0.3328933,-0.42933977,2.1407502
0.744265079498291,-1.7668611,-0.20689821,0.07782096,0.003373406,-0.37894747,1.712378
0.7643642425537109,-1.4015706,-0.24345429,0.103271544,0.25943816,-0.6860572,1.8975511
0.7844634056091309,-1.4273329,0.17798904,-0.15741548,-0.4508611,-0.3226424,1.6123941
0.8045198917388916,-0.7611506,-0.001663968,-0.37651846,-0.50625396,0.06368832,1.7438352
0.8245937824249268,-0.4766867,-0.101402074,-0.30874532,-0.4165588,0.31517994,1.5479794
0.8447909355163574,-0.4766867,-0.101402074,-0.30874532,-0.4165588,0.31517994,1.5479794
0.8649382591247559,-0.61258346,0.07573035,-0.21747082,-0.26208067,0.47324702,1.2987285
0.8852496147155762,-0.8350995,-0.2740696,-0.14721975,-0.06570621,0.49850115,1.1818576
0.905156135559082,-1.2369801,-0.12151003,0.18900543,0.508651,0.058862906,1.2598588
0.9253051280975342,-1.4797187,-0.06959559,0.24777499,0.1391491,0.02585828,1.1103866
0.9454514980316162,-1.700428,0.18758371,0.07071906,-0.45331138,-0.351863,1.0616989
0.9654223918914795,-1.1350534,0.46048036,-0.6644334,-0.9655855,0.15922178,1.3430314
0.9858417510986328,-0.3060412,0.13751367,-0.5159683,-1.1278076,0.09475285,1.7439003
1.0059144496917725,-0.3060412,0.13751367,-0.5159683,-1.1278076,0.09475285,1.7439003
1.0260100364685059,0.04987812,0.1548998,-0.3666891,-1.0735265,-0.033096265,1.818716
1.0460929870605469,0.023007482,0.07012686,-0.20845777,-1.1139731,-0.24368659,2.086803
1.0661835670471191,0.18930782,0.22124675,-0.278784,-1.1826555,-0.3875236,2.1277921
1.0865144729614258,0.28620172,0.35608396,-0.3200527,-1.3740629,-0.5140594,2.1698382
1.106440782546997,0.44686738,0.50361824,-0.37702593,-1.5905935,-0.59637177,2.1835108
1.1265373229980469,0.65520287,0.68098795,-0.44210982,-1.8157341,-0.65629834,2.1603556
1.1468896865844727,0.9158421,0.8886837,-0.53357476,-2.0425012,-0.692732,2.1232507
1.16682767868042,0.9158421,0.8886837,-0.53357476,-2.0425012,-0.692732,2.1232507
1.1869139671325684,1.2153039,1.1950377,-0.6186192,-2.2420416,-0.704757,2.044437
1.2069966793060303,1.54479,1.7057782,-0.7176715,-2.4131632,-0.71200854,1.8454726
1.227107286453247,1.9382195,2.3991256,-0.84498656,-2.6278825,-0.726741,1.561707
1.2471842765808105,2.3973615,3.2335975,-0.98756135,-2.9103088,-0.7547476,1.2651532
1.2672693729400635,2.9001098,4.1521235,-1.1367521,-3.2407403,-0.8457246,0.990194
1.2873575687408447,3.4103422,5.1131964,-1.2965124,-3.5869794,-1.0428809,0.76632327
1.3074398040771484,3.905331,6.061165,-1.4419793,-3.9424462,-1.3043631,0.60027593
1.3274946212768555,4.364837,6.975533,-1.5670162,-4.2862353,-1.5920504,0.47169644
1.347644329071045,4.364837,6.975533,-1.5670162,-4.2862353,-1.5920504,0.47169644
1.3677318096160889,4.895742,7.836649,-1.6654813,-4.578364,-1.8312823,0.25303334
1.3878324031829834,5.282147,8.477989,-1.7650938,-4.7861166,-2.0815892,0.10283953
1.4079158306121826,5.550787,9.002542,-1.8377929,-4.9979067,-2.2726636,0.051258862
1.42799711227417,5.789491,9.479432,-1.8950031,-5.195675,-2.441523,0.009690344
1.4480786323547363,6.0057673,9.913468,-1.9445806,-5.373857,-2.59624,-0.030098855
1.4681565761566162,6.199865,10.303808,-1.9875381,-5.532265,-2.7367375,-0.06681579
1.4882245063781738,6.3723083,10.651934,-2.0251353,-5.672097,-2.8628871,-0.100087106
1.5087122917175293,6.3723083,10.651934,-2.0251353,-5.672097,-2.8628871,-0.100087106
1.5286099910736084,6.5244446,10.960661,-2.0583456,-5.795165,-2.9752102,-0.12985224
1.5487923622131348,6.6580997,11.233618,-2.0879085,-5.903415,-3.0746875,-0.15632218
1.5689091682434082,6.775278,11.474724,-2.1144226,-5.9987326,-3.162542,-0.17983025
1.5889866352081299,6.8779745,11.687861,-2.1383827,-6.082859,-3.2400723,-0.20073718
1.6090898513793945,6.9680805,11.876683,-2.1601999,-6.1573715,-3.3085504,-0.21938366
1.6291921138763428,6.9680805,11.876683,-2.1601999,-6.1573715,-3.3085504,-0.21938366
1.6494133472442627,6.9680805,11.876683,-2.1601999,-6.1573715,-3.3085504,-0.21938366
1.669431209564209,7.047325,12.044527,-2.1802204,-6.223666,-3.369171,-0.23608607
1.6894896030426025,7.117254,12.194384,-2.1987333,-6.282968,-3.4230194,-0.2511236
1.7095720767974854,7.179233,12.32889,-2.2159817,-6.3363366,-3.4710667,-0.26474684
1.7297179698944092,7.2344575,12.450346,-2.2321699,-6.384688,-3.5141673,-0.27716535
1.7500123977661133,7.283956,12.560749,-2.2474692,-6.4288034,-3.5530677,-0.28856725
1.7699203491210938,7.3286185,12.661812,-2.2620242,-6.46935,-3.5884113,-0.29911274
1.7904846668243408,7.369206,12.755003,-2.2759566,-6.506897,-3.6207533,-0.3089344
1.810617208480835,7.369206,12.755003,-2.2759566,-6.506897,-3.6207533,-0.3089344
1.8307056427001953,7.4063644,12.841576,-2.2893693,-6.541925,-3.6505663,-0.31815284
1.8507628440856934,7.4355145,12.936283,-2.3036141,-6.5752635,-3.6803992,-0.33019274
1.8708317279815674,7.452228,13.078701,-2.3228471,-6.6111465,-3.718709,-0.35203308
1.890956163406372,7.492441,13.248814,-2.3471973,-6.6581993,-3.7685804,-0.37143773
1.9110219478607178,7.5484767,13.434818,-2.373194,-6.714744,-3.8260787,-0.38889426
1.9311234951019287,7.6144223,13.628031,-2.3987398,-6.7768154,-3.8882804,-0.4063179
1.9511995315551758,7.6855297,13.821503,-2.4231117,-6.8409557,-3.9525104,-0.42415017
1.9712834358215332,7.6855297,13.821503,-2.4231117,-6.8409557,-3.9525104,-0.42415017
1.9915764331817627,7.75815,14.010035,-2.4460573,-6.904724,-4.0165396,-0.4421
2.0115292072296143,7.829739,14.190204,-2.4674976,-6.9665213,-4.078722,-0.45980638
2.0315797328948975,7.898582,14.359928,-2.487436,-7.025365,-4.138002,-0.4770047
2.0518534183502197,7.96363,14.518181,-2.5059268,-7.0807056,-4.1937547,-0.49352783
2.0717978477478027,8.024319,14.664663,-2.523055,-7.1322985,-4.245686,-0.50928897
2.091865301132202,8.0804205,14.799581,-2.5389216,-7.180114,-4.2937303,-0.524254
2.1119914054870605,8.131944,14.923468,-2.5536363,-7.224261,-4.337979,-0.53843683
2.132091999053955,8.131944,14.923468,-2.5536363,-7.224261,-4.337979,-0.53843683
2.152228593826294,8.179051,15.037056,-2.567312,-7.264937,-4.3786216,-0.5518696
2.1723031997680664,8.222001,15.141184,-2.5800593,-7.302396,-4.4159093,-0.56459755
2.1925408840179443,8.261108,15.236734,-2.5919826,-7.336914,-4.450124,-0.57667845
2.212613582611084,8.296717,15.324584,-2.60318,-7.3687797,-4.4815574,-0.5881693
2.232696056365967,8.32917,15.405588,-2.6137438,-7.3982725,-4.5105023,-0.5991344
2.252762794494629,8.35881,15.48055,-2.6237552,-7.425662,-4.5372357,-0.60962766
2.2733407020568848,8.38596,15.55021,-2.63329,-7.4512024,-4.56202,-0.61970633
2.293379783630371,8.38596,15.55021,-2.63329,-7.4512024,-4.56202,-0.61970633
2.3135082721710205,8.410921,15.615248,-2.642413,-7.4751263,-4.5850997,-0.62942046
2.333557367324829,8.433969,15.676273,-2.6511824,-7.497641,-4.606691,-0.63881654
2.3539493083953857,8.455353,15.733833,-2.6596513,-7.518939,-4.6269946,-0.6479351
2.374016284942627,8.4753,15.788414,-2.6678646,-7.5391893,-4.6461873,-0.656815
2.39412522315979,8.49401,15.840446,-2.6758611,-7.558539,-4.6644273,-0.66549176
2.4142005443573,8.511658,15.890305,-2.683677,-7.577122,-4.6818514,-0.6739957
2.4350478649139404,8.511658,15.890305,-2.683677,-7.577122,-4.6818514,-0.6739957
2.4551374912261963,8.528403,15.93832,-2.6913402,-7.5950546,-4.698582,-0.6823482
2.475252866744995,8.544379,15.984774,-2.6988764,-7.6124363,-4.714727,-0.69057244
2.495298385620117,8.559706,16.029919,-2.7063093,-7.6293545,-4.730375,-0.69869536
2.51538348197937,8.574487,16.073967,-2.7136567,-7.6458864,-4.745608,-0.7067248
2.5355091094970703,8.588811,16.117105,-2.7209368,-7.662098,-4.760495,-0.7146794
2.5555715560913086,8.602751,16.159483,-2.728168,-7.678046,-4.7750993,-0.7225701
2.575855016708374,8.616387,16.20126,-2.7353554,-7.6937804,-4.7894635,-0.73040646
2.5960052013397217,8.616387,16.20126,-2.7353554,-7.6937804,-4.7894635,-0.73040646
2.6162309646606445,8.629771,16.242546,-2.7425106,-7.7093425,-4.80364,-0.7382056
2.636246681213379,8.642954,16.28344,-2.7496426,-7.724769,-4.8176665,-0.74597186
2.6563949584960938,8.6559725,16.324032,-2.7567585,-7.7400885,-4.831572,-0.7537162
2.676426649093628,8.668869,16.364384,-2.7638662,-7.7553296,-4.845387,-0.7614388
2.696579694747925,8.68167,16.404566,-2.7709694,-7.7705126,-4.8591323,-0.7691476
2.71662974357605,8.694404,16.444632,-2.7780755,-7.785659,-4.872829,-0.77684706
2.73671293258667,8.707091,16.484627,-2.7851865,-7.800784,-4.8864956,-0.7845387
2.7578532695770264,8.707091,16.484627,-2.7851865,-7.800784,-4.8864956,-0.7845387
2.7780797481536865,8.719755,16.524586,-2.7923052,-7.8159027,-4.900146,-0.792226
2.7981016635894775,8.732408,16.564547,-2.7994354,-7.831025,-4.913793,-0.79991645
2.8181214332580566,8.745068,16.604534,-2.8065798,-7.8461633,-4.927448,-0.8076057
2.838217258453369,8.757743,16.644577,-2.8137414,-7.861326,-4.9411187,-0.81529874
2.8583667278289795,8.770448,16.684696,-2.8209221,-7.876522,-4.9548144,-0.8229987
2.878605365753174,8.783189,16.724907,-2.828121,-7.891757,-4.9685416,-0.8307039
2.89853572845459,8.795976,16.765226,-2.835342,-7.907036,-4.982306,-0.83841914
2.918804407119751,8.795976,16.765226,-2.835342,-7.907036,-4.982306,-0.83841914
2.938953161239624,8.808816,16.805668,-2.842584,-7.922364,-4.996113,-0.8461415
2.958970785140991,8.821711,16.846245,-2.849848,-7.937742,-5.0099664,-0.85387534
2.9792542457580566,8.834666,16.886965,-2.8571367,-7.953173,-5.0238724,-0.8616225
2.999244451522827,8.847687,16.927837,-2.8644493,-7.968661,-5.0378313,-0.8693773
3.0193214416503906,8.860774,16.968866,-2.8717866,-7.984207,-5.0518475,-0.8771464
3.0394017696380615,8.873933,17.01006,-2.8791487,-7.999814,-5.0659223,-0.88492745
3.059466600418091,8.887165,17.051422,-2.8865368,-8.015484,-5.0800576,-0.89272183
3.0798733234405518,8.887165,17.051422,-2.8865368,-8.015484,-5.0800576,-0.89272183
3.1000072956085205,8.900471,17.092955,-2.893951,-8.031218,-5.094255,-0.9005267
3.120138645172119,8.913856,17.134666,-2.901392,-8.047017,-5.1085157,-0.90834683
3.1401867866516113,8.92732,17.176558,-2.9088597,-8.062885,-5.1228433,-0.9161784
3.1602768898010254,8.940865,17.218634,-2.916356,-8.078821,-5.137236,-0.92402285
3.1803550720214844,8.954493,17.260897,-2.923878,-8.094828,-5.1516986,-0.93188065
3.2004430294036865,8.968205,17.30335,-2.93143,-8.110906,-5.166229,-0.93975276
3.220813035964966,8.982002,17.346,-2.9390097,-8.127055,-5.1808295,-0.9476382
3.240919351577759,8.995887,17.388842,-2.9466183,-8.143278,-5.195502,-0.95553607
3.2611143589019775,8.995887,17.388842,-2.9466183,-8.143278,-5.195502,-0.95553607
3.2813799381256104,9.009859,17.431883,-2.9542549,-8.159576,-5.210246,-0.9634473
3.3013060092926025,9.02392,17.475124,-2.9619212,-8.175947,-5.225064,-0.9713704
3.321354627609253,9.03807,17.518566,-2.969618,-8.192396,-5.2399545,-0.97930783
3.3414649963378906,9.052311,17.562212,-2.9773433,-8.20892,-5.254919,-0.98725575
3.3615922927856445,9.066644,17.606066,-2.985099,-8.225523,-5.2699604,-0.9952175
3.381619453430176,9.081071,17.650124,-2.9928834,-8.242203,-5.2850776,-1.0031927
3.401681900024414,9.095589,17.694393,-3.0006998,-8.258962,-5.3002706,-1.0111775
3.421771287918091,9.095589,17.694393,-3.0006998,-8.258962,-5.3002706,-1.0111775
3.4418609142303467,9.1102,17.73887,-3.0085466,-8.275799,-5.3155413,-1.0191758
3.461925745010376,9.124906,17.783562,-3.0164225,-8.292717,-5.33089,-1.0271862
3.482067584991455,9.139708,17.828466,-3.0243318,-8.309715,-5.346318,-1.035208
3.5021071434020996,9.154605,17.873585,-3.0322707,-8.326795,-5.361824,-1.0432386
3.522230863571167,9.169597,17.918919,-3.0402405,-8.343956,-5.3774085,-1.0512803
3.5422866344451904,9.184687,17.96447,-3.0482428,-8.361197,-5.3930755,-1.0593345
3.5624706745147705,9.184687,17.96447,-3.0482428,-8.361197,-5.3930755,-1.0593345
3.5826032161712646,9.199873,18.010239,-3.0562756,-8.378521,-5.4088216,-1.0673993
3.6026837825775146,9.2151575,18.056225,-3.0643399,-8.395929,-5.424649,-1.0754712
3.6227734088897705,9.230536,18.10243,-3.0724368,-8.413419,-5.440558,-1.0835526
3.642810344696045,9.246015,18.148855,-3.0805652,-8.43099,-5.456548,-1.0916431
3.663189172744751,9.26159,18.1955,-3.0887256,-8.448645,-5.472619,-1.0997374
3.683105707168579,9.277263,18.242363,-3.096917,-8.466379,-5.488772,-1.1078408
3.7031490802764893,9.293037,18.28945,-3.1051314,-8.484192,-5.5050006,-1.1159503
3.7234692573547363,9.293037,18.28945,-3.1051314,-8.484192,-5.5050006,-1.1159503
3.7435860633850098,9.308897,18.336742,-3.1133835,-8.502086,-5.5213156,-1.1240752
3.7636663913726807,9.324851,18.384249,-3.12167,-8.5200615,-5.53771,-1.1321995
3.7837491035461426,9.340901,18.431976,-3.1299899,-8.538121,-5.5541863,-1.1403258
3.8038244247436523,9.357047,18.47993,-3.1383457,-8.556265,-5.570746,-1.1484587
3.823922872543335,9.373292,18.528109,-3.1467335,-8.574494,-5.5873895,-1.1565926
3.8439855575561523,9.389633,18.576511,-3.155156,-8.592808,-5.604117,-1.1647325
3.8640363216400146,9.4060755,18.625141,-3.1636117,-8.611208,-5.6209292,-1.172874
3.8841474056243896,9.4060755,18.625141,-3.1636117,-8.611208,-5.6209292,-1.172874
3.904341459274292,9.422614,18.674004,-3.1721041,-8.629692,-5.6378264,-1.1810195
3.9244303703308105,9.439252,18.723091,-3.18063,-8.648262,-5.6548095,-1.1891646
3.944489002227783,9.455989,18.772411,-3.18919,-8.666919,-5.6718802,-1.1973126
3.964545249938965,9.472824,18.821957,-3.1977847,-8.685661,-5.689035,-1.2054613
3.9846301078796387,9.489756,18.871735,-3.2064128,-8.70449,-5.706277,-1.2136109
4.0047078132629395,9.506786,18.921741,-3.2150774,-8.723405,-5.7236056,-1.2217605
4.0248401165008545,9.523915,18.971977,-3.2237756,-8.742405,-5.74102,-1.2299049
4.044946193695068,9.523915,18.971977,-3.2237756,-8.742405,-5.74102,-1.2299049
4.065036058425903,9.5411415,19.02244,-3.2325099,-8.761491,-5.758521,-1.2380486
4.0851616859436035,9.558463,19.073132,-3.241278,-8.780663,-5.7761083,-1.2461898
4.105228424072266,9.575882,19.124056,-3.250081,-8.799919,-5.793782,-1.2543275
4.125509738922119,9.593394,19.175209,-3.2589207,-8.81926,-5.8115425,-1.2624629
4.145470380783081,9.611007,19.226587,-3.2677944,-8.838688,-5.8293905,-1.2705889
4.165587902069092,9.628729,19.278198,-3.2767003,-8.858208,-5.8473234,-1.2787335
4.185617685317993,9.646576,19.33004,-3.2856343,-8.877823,-5.8653436,-1.2869055
4.206049680709839,9.646576,19.33004,-3.2856343,-8.877823,-5.8653436,-1.2869055
4.226167678833008,9.664552,19.382116,-3.2945976,-8.897533,-5.883453,-1.2951071
4.2462477684021,9.682654,19.43443,-3.3035889,-8.917341,-5.9016514,-1.3033373
4.266400098800659,9.700885,19.486984,-3.3126104,-8.937246,-5.9199414,-1.3115981
4.286469221115112,9.719246,19.539778,-3.3216586,-8.957249,-5.9383216,-1.3198907
4.306531190872192,9.737737,19.592812,-3.3307369,-8.97735,-5.956795,-1.328212
4.326620578765869,9.75636,19.64609,-3.339844,-8.99755,-5.975361,-1.3365648
4.34723687171936,9.775113,19.699606,-3.3489797,-9.017847,-5.994018,-1.3449466
4.367384672164917,9.775113,19.699606,-3.3489797,-9.017847,-5.994018,-1.3449466
4.387624502182007,9.794002,19.753368,-3.358142,-9.038244,-6.0127673,-1.3533585
4.407679080963135,9.813018,19.80737,-3.3673337,-9.058741,-6.0316095,-1.3618028
4.427764654159546,9.832168,19.861614,-3.3765552,-9.079336,-6.0505457,-1.3702757
4.447865009307861,9.851414,19.916052,-3.385771,-9.099993,-6.069562,-1.3787563
4.4679365158081055,9.870803,19.970734,-3.395048,-9.120758,-6.0886683,-1.3872926
4.488052845001221,9.8903265,20.02565,-3.4043524,-9.141629,-6.107866,-1.3958473
4.508133888244629,9.8903265,20.02565,-3.4043524,-9.141629,-6.107866,-1.3958473
4.528448104858398,9.909985,20.080807,-3.4136856,-9.162599,-6.127158,-1.4044306
4.548369646072388,9.929774,20.136204,-3.4230468,-9.183664,-6.146543,-1.4130435
4.568451881408691,9.949696,20.191837,-3.432439,-9.204824,-6.16602,-1.4216826
4.593212366104126,9.949696,20.191837,-3.432439,-9.204824,-6.16602,-1.4216826
4.61335825920105,9.969748,20.24771,-3.4418583,-9.226082,-6.1855903,-1.4303515
4.633395433425903,9.989931,20.303814,-3.4513092,-9.247433,-6.2052517,-1.4390469
4.653899431228638,9.989931,20.303814,-3.4513092,-9.247433,-6.2052517,-1.4390469
4.673708438873291,10.010245,20.360151,-3.4607875,-9.268879,-6.225005,-1.4477665
4.693791151046753,10.030691,20.416723,-3.4702942,-9.290419,-6.2448506,-1.4565148
4.713921070098877,10.051265,20.473522,-3.4798286,-9.312053,-6.264786,-1.4652882
4.73405122756958,10.071969,20.530548,-3.4893906,-9.33378,-6.2848115,-1.4740894
4.75420355796814,10.092798,20.5878,-3.4989803,-9.355598,-6.3049245,-1.4829154
4.779627799987793,10.092798,20.5878,-3.4989803,-9.355598,-6.3049245,-1.4829154
4.8099424839019775,10.092798,20.5878,-3.4989803,-9.355598,-6.3049245,-1.4829154
4.8465471267700195,10.092798,20.5878,-3.4989803,-9.355598,-6.3049245,-1.4829154
4.866710424423218,10.113756,20.645275,-3.5085967,-9.377508,-6.325127,-1.4917667
4.886733293533325,10.134839,20.702976,-3.51824,-9.399509,-6.3454194,-1.5006423
4.906814336776733,10.156092,20.760923,-3.527919,-9.421623,-6.3658,-1.5095522
4.926937103271484,10.177437,20.819082,-3.5376117,-9.443816,-6.386277,-1.5184922
4.94700026512146,10.198903,20.877453,-3.5473342,-9.466091,-6.4068394,-1.527451
4.967330694198608,10.220492,20.936033,-3.557081,-9.488455,-6.427486,-1.5364311
4.987266540527344,10.242206,20.994827,-3.5668552,-9.510905,-6.448217,-1.5454361
5.0076377391815186,10.242206,20.994827,-3.5668552,-9.510905,-6.448217,-1.5454361
5.027714490890503,10.264039,21.053833,-3.5766559,-9.533444,-6.469033,-1.5544631
5.048095941543579,10.2859955,21.113056,-3.5864818,-9.556069,-6.4899354,-1.5635188
5.067990779876709,10.308074,21.172485,-3.5963328,-9.578782,-6.5109215,-1.5725944
5.088428974151611,10.330274,21.232126,-3.60621,-9.601582,-6.5319934,-1.5816977
5.10836935043335,10.352586,21.291962,-3.6161053,-9.624455,-6.553147,-1.5908201
5.128431558609009,10.375015,21.351997,-3.626028,-9.647412,-6.5743814,-1.5999675
5.148485422134399,10.397558,21.412233,-3.6359775,-9.670453,-6.5956926,-1.6091392
5.168930768966675,10.397558,21.412233,-3.6359775,-9.670453,-6.5956926,-1.6091392
5.18904185295105,10.420215,21.472673,-3.645953,-9.69358,-6.6170793,-1.6183302
5.20914626121521,10.442988,21.53332,-3.655956,-9.71679,-6.6385446,-1.6275437
5.2292256355285645,10.4658785,21.594173,-3.6659882,-9.740086,-6.660086,-1.6367772
5.249273061752319,10.488886,21.655235,-3.6760476,-9.763468,-6.6817083,-1.6460364
5.269384860992432,10.512015,21.716509,-3.6861327,-9.786936,-6.7034082,-1.6553154
5.289474725723267,10.53526,21.777992,-3.6962473,-9.810492,-6.7251887,-1.6646168
5.309520483016968,10.558625,21.839687,-3.7063894,-9.834133,-6.747049,-1.6739414
5.3302483558654785,10.558625,21.839687,-3.7063894,-9.834133,-6.747049,-1.6739414
5.350513935089111,10.582109,21.901592,-3.7165575,-9.857861,-6.768988,-1.6832864
5.370537042617798,10.605712,21.963707,-3.7267542,-9.881673,-6.7910075,-1.6926546
5.390630483627319,10.629433,22.026028,-3.736975,-9.905571,-6.8131037,-1.702044
5.41071629524231,10.65327,22.08855,-3.7472236,-9.929554,-6.8352766,-1.7114518
5.430956602096558,10.67719,22.15121,-3.7574604,-9.953579,-6.8575096,-1.7208521
5.4509193897247314,10.7012205,22.214073,-3.7677562,-9.977694,-6.8798103,-1.7303035
5.471049070358276,10.725365,22.277117,-3.778075,-10.001892,-6.9021783,-1.7397635
5.4922075271606445,10.725365,22.277117,-3.778075,-10.001892,-6.9021783,-1.7397635
5.512195825576782,10.749618,22.34035,-3.7884164,-10.02617,-6.924618,-1.7492423
5.532279968261719,10.773976,22.403763,-3.798782,-10.05052,-6.947126,-1.7587435
5.5525758266448975,10.798437,22.467356,-3.8091702,-10.0749445,-6.969699,-1.7682612
5.572746276855469,10.822999,22.53112,-3.8195798,-10.09944,-6.992339,-1.7777951
5.592842102050781,10.84766,22.59505,-3.830014,-10.124004,-7.015042,-1.7873504
5.612896919250488,10.872418,22.659143,-3.8404672,-10.148636,-7.037806,-1.7969182
5.632982492446899,10.872418,22.659143,-3.8404672,-10.148636,-7.037806,-1.7969182
5.6534271240234375,10.897269,22.723396,-3.8509433,-10.173334,-7.060631,-1.8065054
5.673481225967407,10.922215,22.787804,-3.8614383,-10.198097,-7.0835133,-1.8161061
5.693531036376953,10.947249,22.852364,-3.8719537,-10.222923,-7.1064553,-1.8257239
5.713720083236694,10.972375,22.917068,-3.882489,-10.24781,-7.1294537,-1.8353584
5.733757734298706,10.997587,22.981918,-3.893042,-10.2727585,-7.1525083,-1.8450084
5.753857374191284,11.022885,23.04691,-3.9036129,-10.297763,-7.1756144,-1.8546708
5.774133682250977,11.022885,23.04691,-3.9036129,-10.297763,-7.1756144,-1.8546708
5.7942376136779785,11.048266,23.112038,-3.9142046,-10.322828,-7.1987743,-1.864351
5.814323902130127,11.073767,23.177324,-3.9248235,-10.347968,-7.2219872,-1.874052
5.834433317184448,11.099318,23.24273,-3.935445,-10.373154,-7.245259,-1.8837657
5.85450291633606,11.124947,23.308262,-3.9460838,-10.398386,-7.2685785,-1.8934939
5.87483024597168,11.150649,23.373907,-3.9567401,-10.423669,-7.291943,-1.9032314
5.89507794380188,11.176426,23.439674,-3.9674132,-10.449001,-7.315354,-1.912981
5.915221929550171,11.176426,23.439674,-3.9674132,-10.449001,-7.315354,-1.912981
5.935267925262451,11.202275,23.505554,-3.9781005,-10.474381,-7.3388095,-1.9227455
5.955423355102539,11.228167,23.571491,-3.9887679,-10.499777,-7.362296,-1.932493
5.975488662719727,11.254134,23.637545,-3.9994829,-10.525227,-7.3858247,-1.942287
5.995618581771851,11.280173,23.703705,-4.010211,-10.550731,-7.409394,-1.9520843
6.015681028366089,11.306281,23.769968,-4.0209513,-10.576281,-7.4330053,-1.9618909
6.03575325012207,11.332457,23.83634,-4.031704,-10.601874,-7.45666,-1.9717155
6.055934906005859,11.332457,23.83634,-4.031704,-10.601874,-7.45666,-1.9717155
6.076045274734497,11.358695,23.90281,-4.042468,-10.627508,-7.4803543,-1.9815526
6.096153497695923,11.384997,23.969372,-4.0532436,-10.653183,-7.504088,-1.9913995
6.116252899169922,11.411359,24.036026,-4.0640306,-10.678893,-7.5278583,-2.0012603
6.1363513469696045,11.4377775,24.10276,-4.0748262,-10.704639,-7.5516644,-2.0111313
6.156419277191162,11.464223,24.169582,-4.085615,-10.7304,-7.575504,-2.0210078
6.176907539367676,11.490754,24.236479,-4.0964394,-10.756211,-7.599376,-2.0309062
6.196658611297607,11.517342,24.303446,-4.1072683,-10.782061,-7.623281,-2.0408103
6.216782331466675,11.517342,24.303446,-4.1072683,-10.782061,-7.623281,-2.0408103
6.236889839172363,11.543979,24.370487,-4.118108,-10.807943,-7.6472163,-2.0507293
6.256955862045288,11.570664,24.437597,-4.128951,-10.833853,-7.671183,-2.0606616
6.277420520782471,11.597394,24.50477,-4.139802,-10.859787,-7.6951776,-2.0706015
6.297234773635864,11.624172,24.572002,-4.1506586,-10.885748,-7.7191987,-2.0805502
6.317357301712036,11.651024,24.63931,-4.1615334,-10.911749,-7.743244,-2.0905151
6.337460279464722,11.651024,24.63931,-4.1615334,-10.911749,-7.743244,-2.0905151
6.358137369155884,11.677887,24.706661,-4.1723986,-10.937761,-7.767322,-2.1004882
6.378180980682373,11.677887,24.706661,-4.1723986,-10.937761,-7.767322,-2.1004882
6.401015520095825,11.704785,24.774052,-4.1832676,-10.963786,-7.7914186,-2.1104739
6.421088695526123,11.731685,24.841326,-4.1940823,-10.989767,-7.815502,-2.1204045
6.441220998764038,11.758567,24.908648,-4.204939,-11.015757,-7.8395886,-2.1303957
6.461314678192139,11.78548,24.97599,-4.2157965,-11.041763,-7.86369,-2.140384
6.481417179107666,11.812423,25.043358,-4.226657,-11.067781,-7.887805,-2.1503785
6.501437187194824,11.839391,25.110744,-4.2375174,-11.093807,-7.9119315,-2.1603796
6.521666526794434,11.839391,25.110744,-4.2375174,-11.093807,-7.9119315,-2.1603796
6.541943550109863,11.866418,25.178165,-4.248396,-11.119857,-7.9360714,-2.1703858
6.562053680419922,11.893438,25.245602,-4.259261,-11.145906,-7.9602265,-2.1803973
6.582008361816406,11.920469,25.31303,-4.2701178,-11.171953,-7.9843936,-2.1904175
6.602200984954834,11.947503,25.38044,-4.2809696,-11.197993,-8.008564,-2.200444
6.622289419174194,11.9745455,25.447834,-4.2918186,-11.224026,-8.032731,-2.2104757
6.642422676086426,12.001588,25.515205,-4.302663,-11.2500515,-8.056899,-2.220512
6.662469148635864,12.028633,25.582548,-4.3134995,-11.276066,-8.081065,-2.2305496
6.683913469314575,12.028633,25.582548,-4.3134995,-11.276066,-8.081065,-2.2305496
6.704133033752441,12.055675,25.649857,-4.3243303,-11.302069,-8.105226,-2.24059
6.724132776260376,12.0826845,25.717049,-4.3351107,-11.328018,-8.129364,-2.2506006
6.7442731857299805,12.109673,25.78421,-4.3459187,-11.353954,-8.153488,-2.260651
6.764332056045532,12.136691,25.851334,-4.3567142,-11.379903,-8.177597,-2.2707124
6.784465312957764,12.163661,25.918388,-4.367485,-11.405816,-8.201708,-2.2807763
6.804529905319214,12.1906185,25.985394,-4.378255,-11.431696,-8.225801,-2.290837
6.824609041213989,12.1906185,25.985394,-4.378255,-11.431696,-8.225801,-2.290837
6.844716787338257,12.217563,26.052338,-4.389019,-11.457556,-8.24988,-2.3008907
6.864882707595825,12.244493,26.11922,-4.3997736,-11.483393,-8.273943,-2.3109462
6.884931802749634,12.271397,26.186033,-4.410513,-11.509203,-8.297991,-2.3210018
6.904998779296875,12.293736,26.239765,-4.4142447,-11.528576,-8.319313,-2.3252616
6.925158500671387,12.305151,26.269985,-4.410161,-11.536034,-8.334139,-2.3244812
6.945226430892944,12.306595,26.283714,-4.40672,-11.5361805,-8.342435,-2.3254826
6.965451955795288,12.30179,26.285349,-4.4038258,-11.532782,-8.345843,-2.3262713
6.98725438117981,12.30179,26.285349,-4.4038258,-11.532782,-8.345843,-2.3262713
7.00739598274231,12.293198,26.279934,-4.4014444,-11.527651,-8.346123,-2.3271694
7.027473449707031,12.282688,26.271145,-4.399659,-11.521985,-8.344746,-2.3284528
7.047545909881592,12.271614,26.261568,-4.3985224,-11.516606,-8.342768,-2.3302314
7.067957401275635,12.2609415,26.253002,-4.398076,-11.512086,-8.340916,-2.332556
7.087728261947632,12.251237,26.246605,-4.398299,-11.508752,-8.339695,-2.3354263
7.107809782028198,12.242939,26.243143,-4.39919,-11.506822,-8.339413,-2.3388207
7.127948045730591,12.236283,26.24305,-4.4007196,-11.506412,-8.340262,-2.3427176
7.148003101348877,12.236283,26.24305,-4.4007196,-11.506412,-8.340262,-2.3427176
7.168173313140869,12.231393,26.246538,-4.4028444,-11.507551,-8.342346,-2.3470867
7.188258409500122,12.228303,26.253643,-4.4055214,-11.510223,-8.3457,-2.3518937
7.208377838134766,12.226982,26.264294,-4.408704,-11.514366,-8.350313,-2.357101
7.228409767150879,12.232717,26.281286,-4.4138594,-11.523004,-8.355956,-2.3636029
7.24849009513855,12.247409,26.306767,-4.4207153,-11.538122,-8.363539,-2.3726895
7.268924713134766,12.262984,26.337437,-4.4263306,-11.555189,-8.374312,-2.3837955
7.288767576217651,12.278581,26.37161,-4.431529,-11.57223,-8.387228,-2.395919
7.309263229370117,12.278581,26.37161,-4.431529,-11.57223,-8.387228,-2.395919
7.329246520996094,12.293756,26.407642,-4.4367867,-11.588997,-8.401307,-2.40813
7.34920859336853,12.308371,26.44467,-4.4421635,-11.605494,-8.416017,-2.4200914
7.369499683380127,12.322405,26.482248,-4.4476233,-11.621723,-8.431093,-2.4317596
7.389754056930542,12.335881,26.520111,-4.4531374,-11.637686,-8.446398,-2.4431741
7.4095892906188965,12.34884,26.55807,-4.4586773,-11.653383,-8.461835,-2.454367
7.429678440093994,12.361322,26.595993,-4.464225,-11.668814,-8.47734,-2.465379
7.450132608413696,12.373372,26.63378,-4.4697657,-11.683991,-8.492861,-2.476229
7.470061540603638,12.373372,26.63378,-4.4697657,-11.683991,-8.492861,-2.476229
7.490163326263428,12.385032,26.671383,-4.475294,-11.698931,-8.508369,-2.4869497
7.510330677032471,12.396331,26.70875,-4.4807987,-11.713638,-8.523839,-2.4975555
7.530346632003784,12.407298,26.745853,-4.4862757,-11.728127,-8.539253,-2.5080693
7.550429105758667,12.417968,26.782673,-4.49172,-11.742407,-8.554597,-2.5184963
7.5707292556762695,12.428357,26.81921,-4.4971323,-11.756491,-8.569868,-2.5288584
7.590891599655151,12.4385,26.855453,-4.50251,-11.7703905,-8.585059,-2.5391562
7.610845327377319,12.4385,26.855453,-4.50251,-11.7703905,-8.585059,-2.5391562
7.630938768386841,12.448412,26.891403,-4.5078497,-11.784119,-8.600172,-2.549401
7.651077508926392,12.458108,26.927074,-4.513151,-11.797682,-8.615202,-2.5596051
7.67116641998291,12.467609,26.96246,-4.5184135,-11.81109,-8.630152,-2.569763
7.691232442855835,12.476925,26.997572,-4.523638,-11.824348,-8.645021,-2.5798929
7.711641311645508,12.486066,27.03242,-4.528822,-11.837463,-8.659816,-2.5899901
7.731547117233276,12.495042,27.067005,-4.533968,-11.850441,-8.674535,-2.6000636
7.752017259597778,12.495042,27.067005,-4.533968,-11.850441,-8.674535,-2.6000636
7.772078037261963,12.503862,27.101334,-4.539073,-11.863287,-8.689179,-2.6101134
7.792173624038696,12.512539,27.135406,-4.5441446,-11.876007,-8.703743,-2.620137
7.812266111373901,12.521085,27.16922,-4.5491896,-11.888609,-8.718221,-2.6301324
7.832363128662109,12.529504,27.202793,-4.5542097,-11.901094,-8.732608,-2.6401064
7.852447271347046,12.537803,27.236128,-4.559207,-11.913471,-8.746912,-2.650058
7.872498989105225,12.545983,27.269234,-4.564187,-11.925745,-8.761129,-2.6599977
7.892628192901611,12.545983,27.269234,-4.564187,-11.925745,-8.761129,-2.6599977
7.9127092361450195,12.554055,27.302124,-4.569152,-11.93792,-8.775266,-2.6699197
7.93332576751709,12.56202,27.334812,-4.5741014,-11.949997,-8.789322,-2.679828
7.953291654586792,12.569886,27.367298,-4.5790377,-11.961983,-8.803303,-2.689726
7.973422288894653,12.577657,27.399586,-4.583956,-11.97388,-8.817211,-2.6996076
7.9935197830200195,12.585332,27.431684,-4.5888605,-11.985687,-8.831045,-2.7094781
8.01396131515503,12.585332,27.431684,-4.5888605,-11.985687,-8.831045,-2.7094781
8.034168720245361,12.592914,27.46359,-4.593751,-11.997406,-8.844809,-2.7193367
8.054262161254883,12.600404,27.495312,-4.598626,-12.009038,-8.8585,-2.7291853
8.074323892593384,12.6078005,27.52684,-4.603483,-12.020584,-8.872122,-2.7390192
8.094592571258545,12.615107,27.558186,-4.608326,-12.032042,-8.885672,-2.7488477
8.114691972732544,12.62232,27.589336,-4.6131496,-12.043409,-8.899153,-2.7586634
8.134817123413086,12.62232,27.589336,-4.6131496,-12.043409,-8.899153,-2.7586634
8.154870748519897,12.629439,27.620293,-4.6179543,-12.0546875,-8.912561,-2.7684672
8.175267696380615,12.636462,27.65105,-4.6227427,-12.065874,-8.925898,-2.778261
8.195310354232788,12.636462,27.65105,-4.6227427,-12.065874,-8.925898,-2.778261
8.215551853179932,12.643387,27.681606,-4.627508,-12.076968,-8.939159,-2.7880414
8.235498189926147,12.650213,27.71196,-4.6322546,-12.087967,-8.952347,-2.7978146
8.255582571029663,12.656933,27.7421,-4.636979,-12.098867,-8.965458,-2.807576
8.276004552841187,12.66355,27.772026,-4.6416807,-12.109673,-8.978495,-2.817323
8.295864343643188,12.670062,27.801731,-4.6463594,-12.120374,-8.991447,-2.827061
8.315932512283325,12.676461,27.83121,-4.6510096,-12.130972,-9.00432,-2.8367827
8.336847305297852,12.676461,27.83121,-4.6510096,-12.130972,-9.00432,-2.8367827
8.356923818588257,12.682748,27.860453,-4.65563,-12.141462,-9.017109,-2.8464873
8.377052545547485,12.688918,27.889454,-4.660219,-12.151842,-9.029812,-2.856181
8.39711880683899,12.694964,27.918198,-4.664774,-12.162104,-9.042419,-2.8658555
8.417197704315186,12.700879,27.946678,-4.6692963,-12.172247,-9.054938,-2.8755167
8.437255620956421,11.482028,26.42795,-3.7072108,-11.136311,-9.119524,-3.0749137
8.457440376281738,10.347312,24.2548,-3.1680152,-10.089491,-8.770798,-3.1481457
8.477670907974243,9.127127,21.844828,-2.7354314,-9.059105,-8.132992,-3.0634286
8.497767925262451,9.127127,21.844828,-2.7354314,-9.059105,-8.132992,-3.0634286
8.517851829528809,7.9102764,19.476995,-2.3622024,-8.073604,-7.4158835,-2.9588313
8.537988185882568,6.7403884,17.222767,-2.0203655,-7.146649,-6.705507,-2.8392086
8.558476686477661,5.621018,15.104823,-1.7023162,-6.270712,-6.025583,-2.726291
8.578595638275146,4.5301228,13.112915,-1.4147035,-5.4373617,-5.362155,-2.6151278
8.59880518913269,3.42304,11.2337,-1.1494559,-4.6284027,-4.7068257,-2.48966
8.618775606155396,2.3113582,9.502855,-0.91783893,-3.8743815,-4.0658445,-2.2866323
8.638838768005371,2.3113582,9.502855,-0.91783893,-3.8743815,-4.0658445,-2.2866323
8.658923625946045,1.2426454,7.936779,-0.710068,-3.1395729,-3.4719346,-2.0976427
8.679330587387085,0.33534607,6.4941483,-0.5160854,-2.400982,-3.0642023,-1.9031315
8.699298858642578,-0.59721696,5.1565084,-0.12172288,-1.6132189,-2.737742,-1.5722466
8.719345092773438,-1.5131643,3.9270945,0.7490613,-0.91439825,-2.5377462,-1.265209
8.739429712295532,-2.4506602,2.9081364,1.5214766,-0.07076204,-2.5682302,-0.59995025
8.75951623916626,-3.1182992,1.8559808,2.0608163,0.5499259,-2.6279106,0.013414055
8.779638767242432,-3.6220243,1.4283308,2.4544127,0.90502524,-2.8771367,0.33259717
8.79967713356018,-3.8831747,1.3772827,2.6319633,1.0976684,-3.089403,0.44859326
8.820526361465454,-3.8831747,1.3772827,2.6319633,1.0976684,-3.089403,0.44859326
8.840715408325195,-3.9618924,1.3509914,2.685652,1.1883634,-3.1658306,0.4517094
8.860751628875732,-3.9835079,1.3312203,2.703138,1.2345805,-3.1888719,0.43984506
8.880869150161743,-3.9910614,1.3184234,2.707823,1.2561718,-3.192649,0.4353149
8.900922536849976,-3.994507,1.3121649,2.7053423,1.261515,-3.1899557,0.43803394
8.921079397201538,-3.7061493,1.0825716,1.855504,0.5225755,-2.6559064,0.9237312
8.941145658493042,-3.5236404,1.2941073,1.3379431,-0.2327929,-2.5182366,1.2150557
8.96120285987854,-3.2168682,1.8240017,0.60826355,-0.97230613,-2.3711808,1.2412794
8.981411457061768,-2.8952997,2.847539,-0.4695943,-1.6565944,-2.1545246,1.0686077
9.001517057418823,-2.8952997,2.847539,-0.4695943,-1.6565944,-2.1545246,1.0686077
9.021645545959473,-2.1032288,4.279195,-1.4117544,-2.453931,-2.2299786,0.5500202
9.041715383529663,-0.70978963,5.814542,-1.9218667,-3.396947,-2.558438,-0.20879224
9.06181025505066,-0.40612468,5.6661453,-0.6231101,-2.9392295,-2.8798504,-0.44818926
9.08187222480774,-0.7367176,5.271498,-0.24731752,-2.218822,-2.8379288,-0.82835907
9.102266073226929,-1.2558146,4.4038916,0.22405289,-1.4788579,-2.6396873,-0.9215743
9.122196435928345,-2.0385597,3.442358,0.9622426,-0.74782413,-2.5449927,-0.6233491
9.14218807220459,-2.6363761,2.561837,1.5365177,-0.08090253,-2.5518837,-0.10720876
9.162302494049072,-2.6363761,2.561837,1.5365177,-0.08090253,-2.5518837,-0.10720876
9.18237566947937,-3.2055137,1.7882447,2.0237525,0.39761972,-2.6263778,0.27634484
9.202449560165405,-3.608206,1.4884856,2.3503778,0.6921023,-2.8420107,0.4794768
9.222574234008789,-3.8017073,1.4374596,2.4931934,0.86434877,-2.9967647,0.526882
9.242615938186646,-3.8649542,1.4066781,2.5424633,0.9527159,-3.0541952,0.51440364
9.262713193893433,-3.8872678,1.384899,2.5596273,0.99686515,-3.070617,0.5041702
9.282878398895264,-3.5462973,1.1744353,1.6216638,0.21575244,-2.5261908,0.9931288
9.303033113479614,-3.2890291,1.5690712,0.90305996,-0.6400902,-2.3699043,1.1894178
9.323140859603882,-3.2890291,1.5690712,0.90305996,-0.6400902,-2.3699043,1.1894178
9.343225240707397,-2.954188,2.5421588,-0.23144484,-1.4436756,-2.1413956,1.0666535
9.36336612701416,-2.2710083,4.0698004,-1.3959928,-2.2971158,-2.1288426,0.6019317
9.38341760635376,-0.6833627,5.769867,-2.0293593,-3.2176466,-2.4714127,-0.018135548
9.40353536605835,-0.22693673,5.83322,-0.804064,-2.9678802,-2.7917788,-0.53521216
9.42361569404602,-0.44077536,5.530723,-0.48196185,-2.4432356,-2.8379097,-0.9195524
9.443694114685059,-0.8476789,4.867179,-0.15449907,-1.8753135,-2.6922727,-1.015177
9.463893413543701,-0.8476789,4.867179,-0.15449907,-1.8753135,-2.6922727,-1.015177
9.48404049873352,-1.3819343,4.2520275,0.17270306,-1.3764625,-2.4574041,-1.1152649
9.50419020652771,-2.0748575,3.3847275,0.91179264,-0.75230235,-2.476079,-0.65396494
9.524168729782104,-2.6132877,2.551147,1.4497862,-0.18830605,-2.4730139,-0.097862065
