liuyurong129/humanoid-gym/humanoid/data/robot2_action_20250621-225021.csv
timestamp,joint_1,joint_2,joint_3,joint_4,joint_5,joint_6
0.0003571510314941406,0.0,0.0,0.0,0.0,0.0,0.0
0.02067255973815918,0.0,0.0,0.0,0.0,0.0,0.0
0.04065537452697754,0.0,0.0,0.0,0.0,0.0,0.0
0.06075620651245117,0.0,0.0,0.0,0.0,0.0,0.0
0.08084559440612793,0.0,0.0,0.0,0.0,0.0,0.0
0.10097765922546387,0.0,0.0,0.0,0.0,0.0,0.0
0.12106680870056152,-0.70788586,0.24196145,0.23717225,0.43358323,-0.9981458,0.043643378
0.14118480682373047,-0.3299843,0.17102396,-0.848934,1.9270574,-0.13207704,-0.7506761
0.1612088680267334,-0.47305924,0.21749449,-0.4150641,1.0600905,-0.37354833,-0.72308666
0.18126988410949707,-0.43986356,0.38075045,-0.4485215,1.0781797,-0.7923641,-0.29910192
0.201401948928833,-0.43986356,0.38075045,-0.4485215,1.0781797,-0.7923641,-0.29910192
0.22159886360168457,-0.46810988,0.3530304,-0.25311732,0.4472531,-0.84910154,0.2732981
0.24179911613464355,-0.3252752,0.046365082,0.112482734,-0.03168746,-0.7811439,0.8340277
0.2618062496185303,-0.11178064,-0.39087728,-0.42486575,0.49532396,0.16616477,0.7184396
0.28200411796569824,-0.5580918,0.013841808,0.23867169,0.19274062,-0.70745337,1.2056047
0.3021063804626465,-0.32656476,-0.25850034,-0.26251954,0.36861467,-0.080159925,1.0944462
0.3221926689147949,-0.53609484,0.090822786,0.17631823,0.07379294,-0.62730145,1.3403256
0.3423318862915039,-0.19738956,-0.42486286,-0.2911148,0.13779658,0.44908005,0.970111
0.3623619079589844,-0.19738956,-0.42486286,-0.2911148,0.13779658,0.44908005,0.970111
0.38246726989746094,-0.65891016,0.034621134,0.31081763,0.062446006,-0.50359786,1.3029513
0.4025399684906006,-0.30509844,-0.3597686,-0.3219008,0.28802526,0.41093078,0.82153505
0.4226372241973877,-0.6353013,0.12788278,0.20389727,0.20951608,-0.52865744,1.0646938
0.4426705837249756,-0.14247267,-0.36019784,-0.47118446,0.5817476,0.7149328,0.4346293
0.4627809524536133,-0.5143711,0.210251,-0.055154845,0.75698143,-0.39740568,0.5025511
0.4829380512237549,-0.50291574,0.22870037,-0.097598605,0.16144255,-0.23907557,0.4282177
0.5029418468475342,-0.3791817,0.18825135,-0.053261757,0.32935762,-0.001315631,0.38057396
0.5233163833618164,-0.3791817,0.18825135,-0.053261757,0.32935762,-0.001315631,0.38057396
0.5434398651123047,-0.4234885,0.109583765,0.09522513,0.32747364,0.11090375,0.27374348
0.5635397434234619,-0.23892742,-0.006839782,-0.4975374,1.2072057,1.0722446,-0.6926099
0.5836317539215088,-0.64925414,0.5325825,-0.44673052,1.5199484,0.09509194,-0.8830547
0.6036911010742188,-0.4903155,0.50581074,-0.3046769,0.86979216,-0.3093572,-0.46370035
0.6237790584564209,-0.32217148,0.6159121,-0.3491349,0.80620867,-0.582325,0.027589194
0.6438617706298828,-0.28466836,0.57794154,-0.09607223,0.1376909,-0.83506334,0.76954925
0.6639220714569092,-0.23851965,0.37871227,0.36923748,-0.26645422,-0.699203,1.3485764
0.6840364933013916,-0.23851965,0.37871227,0.36923748,-0.26645422,-0.699203,1.3485764
0.7041079998016357,-0.05972926,-0.12562904,-0.06047996,0.11053241,0.36684725,1.1953886
0.7242465019226074,-0.5438092,0.2436043,0.27221197,0.24974436,-0.48904327,1.2121694
0.744265079498291,-0.023340542,-0.3498067,-0.4771496,0.6548305,1.0218452,0.51911354
0.7643642425537109,-0.44736052,0.20963827,-0.0054019783,0.7613774,-0.34263995,0.44675192
0.7844634056091309,0.28187254,-0.3007021,-0.8334268,1.8410378,1.3985336,-0.52859074
0.8045198917388916,-0.40250093,0.4285045,-0.44858238,1.5994879,0.16405283,-0.7805189
0.8245937824249268,-0.4072555,0.43851468,-0.32500395,0.78763545,-0.1207874,-0.40355223
0.8447909355163574,-0.4072555,0.43851468,-0.32500395,0.78763545,-0.1207874,-0.40355223
0.8649382591247559,-0.3535144,0.49222067,-0.31684554,0.6010115,0.02009812,-0.10595275
0.8852496147155762,-0.35484877,0.3399435,-0.09379917,0.17771327,-0.18177393,0.4271177
0.905156135559082,-0.23493542,0.33837444,-0.12075268,0.22888377,-0.27571315,0.6743891
0.9253051280975342,-0.15225,0.15590388,0.22506836,0.13766932,0.17786807,0.61807406
0.9454514980316162,-0.29258516,-0.16454078,0.123646446,0.66425,0.7316495,-0.0887016
0.9654223918914795,-0.14279284,0.10992482,-0.7098937,2.238691,1.1376708,-0.9413887
0.9858417510986328,-0.14831086,0.45450577,-0.7129564,2.3564334,0.53528905,-1.5946656
1.0059144496917725,-0.14831086,0.45450577,-0.7129564,2.3564334,0.53528905,-1.5946656
1.0260100364685059,0.03950761,0.42831215,-0.74058664,2.3012655,0.3838623,-1.7783545
1.0460929870605469,0.10230933,0.42731377,-0.6751721,2.7301939,0.21038319,-1.885729
1.0661835670471191,0.15125291,0.3386424,-0.799841,2.852282,0.42520666,-2.1379125
1.0865144729614258,0.32788077,0.25653782,-0.91205174,3.378015,0.6550318,-2.4713624
1.106440782546997,0.5176693,0.19482067,-1.0447977,4.0328226,0.91126716,-2.839561
1.1265373229980469,0.70487183,0.1764524,-1.1970949,4.760236,1.1440898,-3.181891
1.1468896865844727,0.8468463,0.22540867,-1.3717622,5.5490336,1.3198987,-3.488632
1.16682767868042,0.8468463,0.22540867,-1.3717622,5.5490336,1.3198987,-3.488632
1.1869139671325684,0.91086215,0.36755082,-1.56453,6.3416777,1.4738413,-3.785156
1.2069966793060303,0.8463767,0.6501347,-1.7806299,7.1800647,1.6389194,-4.112054
1.227107286453247,0.69368225,1.0434076,-2.04994,8.184214,1.8562672,-4.523003
1.2471842765808105,0.51223177,1.5066503,-2.3677044,9.377767,2.1201599,-5.0102963
1.2672693729400635,0.3234264,2.0108464,-2.6993575,10.725128,2.4421108,-5.567841
1.2873575687408447,0.13467829,2.5298562,-3.047566,12.189626,2.7937398,-6.1724052
1.3074398040771484,-0.055539448,3.0359073,-3.3832774,13.682624,3.1501112,-6.794273
1.3274946212768555,-0.25150475,3.522374,-3.689505,15.144475,3.5024269,-7.3875856
1.347644329071045,-0.25150475,3.522374,-3.689505,15.144475,3.5024269,-7.3875856
1.3677318096160889,-0.43154868,3.9381206,-3.9786353,16.204248,3.9139266,-7.8393326
1.3878324031829834,-0.724129,4.2571177,-4.1984515,16.967743,4.175471,-8.206576
1.4079158306121826,-0.84423906,4.505793,-4.373574,17.846361,4.3872814,-8.561075
1.42799711227417,-0.93591624,4.7391863,-4.5319786,18.66288,4.5927134,-8.8902
1.4480786323547363,-1.016838,4.9530697,-4.6762695,19.405798,4.7841616,-9.187832
1.4681565761566162,-1.0898494,5.146565,-4.805626,20.073683,4.9580836,-9.453688
1.4882245063781738,-1.1557714,5.3199387,-4.9206533,20.668499,5.113911,-9.689463
1.5087122917175293,-1.1557714,5.3199387,-4.9206533,20.668499,5.113911,-9.689463
1.5286099910736084,-1.2147185,5.47425,-5.0225782,21.195414,5.252364,-9.897705
1.5487923622131348,-1.2669169,5.611078,-5.112812,21.660934,5.37482,-10.081279
1.5689091682434082,-1.3127993,5.732218,-5.1927795,22.07197,5.482919,-10.243079
1.5889866352081299,-1.352925,5.8394976,-5.26383,22.43527,5.5783477,-10.385878
1.6090898513793945,-1.3879019,5.9346714,-5.3271956,22.757147,5.6627207,-10.512236
1.6291921138763428,-1.3879019,5.9346714,-5.3271956,22.757147,5.6627207,-10.512236
1.6494133472442627,-1.3879019,5.9346714,-5.3271956,22.757147,5.6627207,-10.512236
1.669431209564209,-1.418338,6.019361,-5.383978,23.043343,5.7375336,-10.624464
1.6894896030426025,-1.4448096,6.095031,-5.4351482,23.298979,5.804138,-10.724611
1.7095720767974854,-1.4678482,6.162984,-5.4815555,23.52857,5.8637285,-10.814471
1.7297179698944092,-1.4879328,6.22436,-5.523927,23.73603,5.917353,-10.895601
1.7500123977661133,-1.5054878,6.280156,-5.5628943,23.924768,5.965923,-10.969343
1.7699203491210938,-1.5208887,6.3312283,-5.5989933,24.097692,6.0102205,-11.036846
1.7904846668243408,-1.5344592,6.3783116,-5.632681,24.257298,6.0509186,-11.099096
1.810617208480835,-1.5344592,6.3783116,-5.632681,24.257298,6.0509186,-11.099096
1.8307056427001953,-1.5464801,6.4220376,-5.664348,24.405706,6.0885897,-11.156922
1.8507628440856934,-1.5597881,6.472112,-5.6947246,24.57569,6.124279,-11.214468
1.8708317279815674,-1.5853711,6.554741,-5.72743,24.847788,6.16277,-11.286951
1.890956163406372,-1.627221,6.6548204,-5.7697034,25.152569,6.212366,-11.384533
1.9110219478607178,-1.6726245,6.7613373,-5.8193054,25.481873,6.272454,-11.496997
1.9311234951019287,-1.7186834,6.869532,-5.8730497,25.821812,6.3402057,-11.616699
1.9511995315551758,-1.7643534,6.975989,-5.928284,26.160238,6.4119663,-11.738038
1.9712834358215332,-1.7643534,6.975989,-5.928284,26.160238,6.4119663,-11.738038
1.9915764331817627,-1.808782,7.078325,-5.98307,26.488491,6.484624,-11.857146
2.0115292072296143,-1.8511974,7.175024,-6.0361366,26.801008,6.5560193,-11.971487
2.0315797328948975,-1.8911077,7.2652583,-6.0866947,27.094603,6.624708,-12.0795355
2.0518534183502197,-1.9282373,7.348696,-6.1343083,27.36778,6.689824,-12.180487
2.0717978477478027,-1.9624821,7.4253416,-6.1787934,27.620253,6.7509155,-12.27405
2.091865301132202,-1.993867,7.4954295,-6.2201333,27.852541,6.8078237,-12.360285
2.1119914054870605,-2.0225055,7.5593424,-6.2584295,28.065676,6.860588,-12.43948
2.132091999053955,-2.0225055,7.5593424,-6.2584295,28.065676,6.860588,-12.43948
2.152228593826294,-2.048564,7.61754,-6.293852,28.26101,6.9093733,-12.512072
2.1723031997680664,-2.0722418,7.670527,-6.3266134,28.44005,6.95443,-12.578575
2.1925408840179443,-2.0937495,7.7188153,-6.3569484,28.604359,6.996052,-12.639542
2.212613582611084,-2.1133018,7.762906,-6.3850946,28.755484,7.0345535,-12.69553
2.232696056365967,-2.1311069,7.803277,-6.4112883,28.894903,7.070249,-12.747078
2.252762794494629,-2.147365,7.840374,-6.435753,29.024008,7.103445,-12.794704
2.2733407020568848,-2.1622553,7.874607,-6.4586987,29.144089,7.1344366,-12.838882
2.293379783630371,-2.1622553,7.874607,-6.4586987,29.144089,7.1344366,-12.838882
2.3135082721710205,-2.1759486,7.9063473,-6.480319,29.256311,7.163493,-12.880048
2.333557367324829,-2.1885967,7.9359293,-6.500787,29.361717,7.19086,-12.918596
2.3539493083953857,-2.2003388,7.963649,-6.52026,29.461256,7.2167635,-12.954884
2.374016284942627,-2.2112942,7.989769,-6.5388784,29.555754,7.241405,-12.9892235
2.39412522315979,-2.2215705,8.0145235,-6.5567675,29.645943,7.264962,-13.021895
2.4142005443573,-2.2312632,8.038113,-6.5740347,29.73247,7.2875934,-13.053141
2.4350478649139404,-2.2312632,8.038113,-6.5740347,29.73247,7.2875934,-13.053141
2.4551374912261963,-2.2404528,8.060714,-6.590777,29.815886,7.309435,-13.083176
2.475252866744995,-2.2492127,8.082482,-6.6070776,29.896687,7.330613,-13.112187
2.495298385620117,-2.2576065,8.103546,-6.623008,29.975283,7.3512297,-13.140334
2.51538348197937,-2.265685,8.124025,-6.6386304,30.052048,7.371376,-13.167759
2.5355091094970703,-2.2734962,8.144017,-6.654002,30.127298,7.3911357,-13.194582
2.5555715560913086,-2.2811012,8.163615,-6.669168,30.201292,7.4105587,-13.220919
2.575855016708374,-2.288496,8.182879,-6.68417,30.274277,7.4297323,-13.246845
2.5960052013397217,-2.288496,8.182879,-6.68417,30.274277,7.4297323,-13.246845
2.6162309646606445,-2.2957249,8.201881,-6.699045,30.346457,7.4487,-13.272442
2.636246681213379,-2.3028178,8.220672,-6.7138205,30.417997,7.4675055,-13.297776
2.6563949584960938,-2.309795,8.239296,-6.728522,30.48903,7.486185,-13.322903
2.676426649093628,-2.3166738,8.257793,-6.743172,30.559694,7.5047693,-13.347872
2.696579694747925,-2.323471,8.276197,-6.757786,30.63008,7.523285,-13.372723
2.71662974357605,-2.3301992,8.294538,-6.772384,30.700285,7.5417557,-13.397493
2.73671293258667,-2.3368702,8.312837,-6.786977,30.770388,7.560204,-13.422213
2.7578532695770264,-2.3368702,8.312837,-6.786977,30.770388,7.560204,-13.422213
2.7780797481536865,-2.343492,8.331115,-6.801578,30.840456,7.578646,-13.446907
2.7981016635894775,-2.3500752,8.349393,-6.816197,30.910536,7.5970964,-13.471596
2.8181214332580566,-2.356625,8.3676815,-6.8308406,30.980679,7.615567,-13.4963
2.838217258453369,-2.3631487,8.385999,-6.8455176,31.050922,7.6340694,-13.521036
2.8583667278289795,-2.3696513,8.404353,-6.860236,31.12131,7.652614,-13.545818
2.878605365753174,-2.376134,8.422755,-6.874998,31.19187,7.6712084,-13.570659
2.89853572845459,-2.3826036,8.441214,-6.889812,31.26262,7.68986,-13.595567
2.918804407119751,-2.3826036,8.441214,-6.889812,31.26262,7.68986,-13.595567
2.938953161239624,-2.3890624,8.459734,-6.9046783,31.333593,7.708574,-13.620552
2.958970785140991,-2.3955178,8.478324,-6.9195995,31.404795,7.7273564,-13.645614
2.9792542457580566,-2.4019742,8.496988,-6.934578,31.47625,7.746209,-13.670762
2.999244451522827,-2.4084306,8.515728,-6.949616,31.547962,7.7651362,-13.696003
3.0193214416503906,-2.4148908,8.534552,-6.964717,31.619947,7.784143,-13.721338
3.0394017696380615,-2.4213557,8.553461,-6.9798803,31.692215,7.80323,-13.746774
3.059466600418091,-2.4278264,8.572455,-6.99511,31.764765,7.822399,-13.772311
3.0798733234405518,-2.4278264,8.572455,-6.99511,31.764765,7.822399,-13.772311
3.1000072956085205,-2.4343042,8.59154,-7.0104036,31.837612,7.8416543,-13.797954
3.120138645172119,-2.4407892,8.610718,-7.0257664,31.910757,7.8609967,-13.823706
3.1401867866516113,-2.4472823,8.629991,-7.041198,31.98421,7.8804274,-13.849571
3.1602768898010254,-2.453785,8.649358,-7.0566998,32.057972,7.8999515,-13.875549
3.1803550720214844,-2.460298,8.668823,-7.072271,32.13205,7.919566,-13.901642
3.2004430294036865,-2.4668226,8.688389,-7.0879154,32.206444,7.9392743,-13.927854
3.220813035964966,-2.4733562,8.708057,-7.1036315,32.281166,7.9590793,-13.954186
3.240919351577759,-2.4799032,8.727827,-7.119422,32.35622,7.978983,-13.980641
3.2611143589019775,-2.4799032,8.727827,-7.119422,32.35622,7.978983,-13.980641
3.2813799381256104,-2.486462,8.747702,-7.135285,32.431595,7.9989815,-14.007219
3.3013060092926025,-2.493034,8.767681,-7.1512227,32.507305,8.01908,-14.033922
3.321354627609253,-2.4996219,8.787768,-7.1672363,32.58335,8.039279,-14.060749
3.3414649963378906,-2.5062208,8.807964,-7.1833243,32.659737,8.05958,-14.087707
3.3615922927856445,-2.512834,8.828267,-7.199491,32.73646,8.079984,-14.114795
3.381619453430176,-2.519462,8.848681,-7.2157335,32.81353,8.100491,-14.142014
3.401681900024414,-2.5261068,8.869206,-7.2320523,32.890938,8.121101,-14.169363
3.421771287918091,-2.5261068,8.869206,-7.2320523,32.890938,8.121101,-14.169363
3.4418609142303467,-2.5327663,8.889844,-7.2484493,32.968697,8.141818,-14.196846
3.461925745010376,-2.539441,8.910595,-7.264923,33.046795,8.162639,-14.2244625
3.482067584991455,-2.5461345,8.931459,-7.281478,33.12525,8.183568,-14.252217
3.5021071434020996,-2.5528402,8.952438,-7.2981105,33.204052,8.204606,-14.280106
3.522230863571167,-2.559566,8.973533,-7.3148203,33.283207,8.22575,-14.30813
3.5422866344451904,-2.56631,8.994744,-7.3316116,33.362717,8.247006,-14.336294
3.5624706745147705,-2.56631,8.994744,-7.3316116,33.362717,8.247006,-14.336294
3.5826032161712646,-2.57307,9.016073,-7.3484807,33.442577,8.268371,-14.364596
3.6026837825775146,-2.5798497,9.03752,-7.3654304,33.52279,8.289846,-14.393039
3.6227734088897705,-2.586648,9.059086,-7.3824587,33.60336,8.31143,-14.42162
3.642810344696045,-2.5934658,9.080772,-7.3995657,33.68428,8.333125,-14.450342
3.663189172744751,-2.6003056,9.102576,-7.416751,33.76554,8.354929,-14.479204
3.683105707168579,-2.6071677,9.124502,-7.4340143,33.84716,8.376843,-14.508206
3.7031490802764893,-2.6140237,9.146538,-7.451353,33.92911,8.398885,-14.537333
3.7234692573547363,-2.6140237,9.146538,-7.451353,33.92911,8.398885,-14.537333
3.7435860633850098,-2.6209254,9.168695,-7.4687705,34.011402,8.421021,-14.566603
3.7636663913726807,-2.627851,9.190974,-7.4862623,34.094036,8.443261,-14.596017
3.7837491035461426,-2.634797,9.213376,-7.503835,34.17702,8.465611,-14.625575
3.8038244247436523,-2.641767,9.235903,-7.521488,34.26036,8.488075,-14.655279
3.823922872543335,-2.6487598,9.258554,-7.53922,34.344055,8.510652,-14.685127
3.8439855575561523,-2.655778,9.281329,-7.557031,34.42811,8.533342,-14.71512
3.8640363216400146,-2.6628175,9.304232,-7.574922,34.512516,8.556146,-14.745262
3.8841474056243896,-2.6628175,9.304232,-7.574922,34.512516,8.556146,-14.745262
3.904341459274292,-2.6698842,9.327262,-7.5928946,34.597286,8.579065,-14.775551
3.9244303703308105,-2.6769753,9.350419,-7.6109476,34.682415,8.602101,-14.805987
3.944489002227783,-2.684093,9.373706,-7.62908,34.7679,8.625255,-14.836573
3.964545249938965,-2.6912327,9.3971195,-7.647293,34.85374,8.648524,-14.867308
3.9846301078796387,-2.6983986,9.420661,-7.665586,34.939945,8.671908,-14.8981905
4.0047078132629395,-2.705593,9.444332,-7.683959,35.026505,8.695411,-14.929224
4.0248401165008545,-2.712812,9.468135,-7.702411,35.113422,8.719031,-14.960405
4.044946193695068,-2.712812,9.468135,-7.702411,35.113422,8.719031,-14.960405
4.065036058425903,-2.7200584,9.4920635,-7.7209415,35.20069,8.742768,-14.991734
4.0851616859436035,-2.7273297,9.516123,-7.739552,35.28832,8.7666235,-15.0232115
4.105228424072266,-2.7346282,9.540312,-7.7582407,35.376293,8.790595,-15.054838
4.125509738922119,-2.7419567,9.564631,-7.777009,35.464622,8.814684,-15.086614
4.145470380783081,-2.749308,9.589081,-7.795854,35.553307,8.838892,-15.118541
4.165587902069092,-2.7566938,9.613654,-7.8147845,35.642345,8.863215,-15.150622
4.185617685317993,-2.7641153,9.638349,-7.8338,35.73176,8.887655,-15.182866
4.206049680709839,-2.7641153,9.638349,-7.8338,35.73176,8.887655,-15.182866
4.226167678833008,-2.7715774,9.663168,-7.852902,35.821537,8.9122095,-15.215271
4.2462477684021,-2.7790756,9.68811,-7.872089,35.91169,8.936882,-15.24784
4.266400098800659,-2.7866163,9.713178,-7.8913655,36.00222,8.961673,-15.280574
4.286469221115112,-2.7941995,9.738372,-7.9107265,36.093124,8.986584,-15.313471
4.306531190872192,-2.801825,9.763688,-7.9301767,36.18441,9.011613,-15.346537
4.326620578765869,-2.809494,9.789135,-7.9497137,36.276073,9.036762,-15.379769
4.34723687171936,-2.8172069,9.814706,-7.9693365,36.36812,9.06203,-15.413169
4.367384672164917,-2.8172069,9.814706,-7.9693365,36.36812,9.06203,-15.413169
4.387624502182007,-2.8249593,9.840404,-7.9890475,36.460533,9.087421,-15.446734
4.407679080963135,-2.8327618,9.866228,-8.008845,36.553337,9.11293,-15.480468
4.427764654159546,-2.8406115,9.892179,-8.028731,36.646515,9.138559,-15.514372
4.447865009307861,-2.8485074,9.918246,-8.048656,36.74002,9.164267,-15.548391
4.4679365158081055,-2.8564677,9.944425,-8.068695,36.833855,9.190111,-15.582597
4.488052845001221,-2.8644547,9.97072,-8.088822,36.928085,9.216076,-15.616975
4.508133888244629,-2.8644547,9.97072,-8.088822,36.928085,9.216076,-15.616975
4.528448104858398,-2.8724875,9.997142,-8.109039,37.022705,9.242162,-15.6515255
4.548369646072388,-2.8805704,10.023688,-8.129339,37.1177,9.268367,-15.686243
4.568451881408691,-2.888702,10.050355,-8.149725,37.213074,9.294691,-15.721128
4.593212366104126,-2.888702,10.050355,-8.149725,37.213074,9.294691,-15.721128
4.61335825920105,-2.8968868,10.077143,-8.170194,37.308826,9.321131,-15.756184
4.633395433425903,-2.9051232,10.104052,-8.190747,37.404945,9.347689,-15.791405
4.653899431228638,-2.9051232,10.104052,-8.190747,37.404945,9.347689,-15.791405
4.673708438873291,-2.9134107,10.131081,-8.211384,37.50144,9.374361,-15.826792
4.693791151046753,-2.921749,10.15823,-8.232102,37.598297,9.401151,-15.862346
4.713921070098877,-2.93014,10.185496,-8.252901,37.69552,9.428055,-15.898062
4.73405122756958,-2.9385834,10.212879,-8.273782,37.7931,9.455073,-15.933944
4.75420355796814,-2.9470792,10.240377,-8.294743,37.891033,9.482204,-15.969988
4.779627799987793,-2.9470792,10.240377,-8.294743,37.891033,9.482204,-15.969988
4.8099424839019775,-2.9470792,10.240377,-8.294743,37.891033,9.482204,-15.969988
4.8465471267700195,-2.9470792,10.240377,-8.294743,37.891033,9.482204,-15.969988
4.866710424423218,-2.955626,10.267991,-8.315783,37.989326,9.509449,-16.006195
4.886733293533325,-2.9642262,10.29572,-8.336901,38.087967,9.536806,-16.04256
4.906814336776733,-2.972846,10.323558,-8.358124,38.186966,9.56432,-16.079105
4.926937103271484,-2.9815388,10.351518,-8.379408,38.286343,9.591918,-16.1158
4.94700026512146,-2.9903035,10.379591,-8.400763,38.386047,9.619617,-16.152653
4.967330694198608,-2.999124,10.407773,-8.422191,38.48608,9.647421,-16.18966
4.987266540527344,-3.008,10.436064,-8.443693,38.58644,9.675331,-16.226824
5.0076377391815186,-3.008,10.436064,-8.443693,38.58644,9.675331,-16.226824
5.027714490890503,-3.0169291,10.464464,-8.465271,38.68714,9.703351,-16.264145
5.048095941543579,-3.025917,10.492973,-8.486923,38.78817,9.731476,-16.30162
5.067990779876709,-3.0349603,10.521591,-8.508648,38.889534,9.759708,-16.339252
5.088428974151611,-3.0440607,10.550316,-8.530446,38.991226,9.788049,-16.377039
5.10836935043335,-3.053225,10.579135,-8.552304,39.093224,9.816486,-16.414963
5.128431558609009,-3.06245,10.60806,-8.574235,39.195526,9.845028,-16.453037
5.148485422134399,-3.071722,10.637093,-8.596235,39.29815,9.873671,-16.491262
5.168930768966675,-3.071722,10.637093,-8.596235,39.29815,9.873671,-16.491262
5.18904185295105,-3.081046,10.666241,-8.618305,39.401115,9.902421,-16.52964
5.20914626121521,-3.0904245,10.695503,-8.640445,39.50441,9.93128,-16.568172
5.2292256355285645,-3.0998583,10.724884,-8.662655,39.608044,9.960246,-16.606857
5.249273061752319,-3.1093464,10.754381,-8.684937,39.71202,9.989324,-16.6457
5.269384860992432,-3.1188931,10.783998,-8.707287,39.816338,10.018507,-16.6847
5.289474725723267,-3.1284957,10.813729,-8.729709,39.920998,10.047803,-16.723858
5.309520483016968,-3.1381593,10.843581,-8.752201,40.026,10.077206,-16.763172
5.3302483558654785,-3.1381593,10.843581,-8.752201,40.026,10.077206,-16.763172
5.350513935089111,-3.1478825,10.87355,-8.774763,40.131355,10.106718,-16.802645
5.370537042617798,-3.1576676,10.903637,-8.797394,40.237045,10.136341,-16.842274
5.390630483627319,-3.1675081,10.933836,-8.820092,40.34307,10.166071,-16.882057
5.41071629524231,-3.1774106,10.96415,-8.842857,40.449432,10.195904,-16.921993
5.430956602096558,-3.187365,10.994555,-8.865637,40.556053,10.225798,-16.962025
5.4509193897247314,-3.1973963,11.025058,-8.888509,40.662926,10.255808,-17.002216
5.471049070358276,-3.2074647,11.055662,-8.911443,40.770126,10.285915,-17.042557
5.4922075271606445,-3.2074647,11.055662,-8.911443,40.770126,10.285915,-17.042557
5.512195825576782,-3.2175903,11.08637,-8.934438,40.877632,10.31612,-17.083038
5.532279968261719,-3.2277746,11.117183,-8.957492,40.985428,10.346422,-17.123661
5.5525758266448975,-3.2380161,11.14809,-8.980602,41.093513,10.376816,-17.164417
5.572746276855469,-3.2483168,11.179096,-9.003766,41.201874,10.407301,-17.205307
5.592842102050781,-3.2586765,11.2101965,-9.026985,41.3105,10.437874,-17.246328
5.612896919250488,-3.2690935,11.241387,-9.050253,41.419384,10.46853,-17.287476
5.632982492446899,-3.2690935,11.241387,-9.050253,41.419384,10.46853,-17.287476
5.6534271240234375,-3.2795725,11.272669,-9.073572,41.528526,10.499271,-17.328747
5.673481225967407,-3.2901053,11.304034,-9.09694,41.637917,10.530095,-17.370144
5.693531036376953,-3.300696,11.335485,-9.120353,41.747543,10.560999,-17.411657
5.713720083236694,-3.3113465,11.367021,-9.143814,41.857414,10.591984,-17.453293
5.733757734298706,-3.322054,11.398636,-9.167318,41.967506,10.623044,-17.49504
5.753857374191284,-3.3328204,11.430331,-9.190863,42.07782,10.654177,-17.536903
5.774133682250977,-3.3328204,11.430331,-9.190863,42.07782,10.654177,-17.536903
5.7942376136779785,-3.343645,11.462103,-9.214453,42.18835,10.685386,-17.578876
5.814323902130127,-3.354497,11.493952,-9.238108,42.299103,10.716704,-17.62098
5.834433317184448,-3.3654227,11.525877,-9.261784,42.41009,10.748072,-17.663177
5.85450291633606,-3.3764248,11.557876,-9.285492,42.521255,10.7795,-17.70548
5.87483024597168,-3.3874836,11.58994,-9.309233,42.632614,10.810989,-17.74788
5.89507794380188,-3.3986034,11.622073,-9.333009,42.74415,10.842544,-17.790384
5.915221929550171,-3.3986034,11.622073,-9.333009,42.74415,10.842544,-17.790384
5.935267925262451,-3.4097834,11.654272,-9.356818,42.855858,10.874159,-17.832983
5.955423355102539,-3.42101,11.686515,-9.380613,42.9677,10.905798,-17.875626
5.975488662719727,-3.4323158,11.718813,-9.404469,43.07965,10.937514,-17.918379
5.995618581771851,-3.4436607,11.751168,-9.428356,43.191788,10.969289,-17.961233
6.015681028366089,-3.4550605,11.783585,-9.452274,43.3041,11.001126,-18.004177
6.03575325012207,-3.4665217,11.816061,-9.476222,43.416565,11.033023,-18.047213
6.055934906005859,-3.4665217,11.816061,-9.476222,43.416565,11.033023,-18.047213
6.076045274734497,-3.4780436,11.848594,-9.500194,43.529182,11.064971,-18.090334
6.096153497695923,-3.4896255,11.881179,-9.52419,43.64194,11.096972,-18.133537
6.116252899169922,-3.5012646,11.9138155,-9.548209,43.754837,11.1290245,-18.176819
6.1363513469696045,-3.5129633,11.946501,-9.572248,43.86785,11.161126,-18.220177
6.156419277191162,-3.5247245,11.979246,-9.596281,43.98104,11.193249,-18.26359
6.176907539367676,-3.536561,12.012023,-9.620361,44.09426,11.225441,-18.3071
6.196658611297607,-3.5484352,12.044838,-9.644462,44.207615,11.25768,-18.350683
6.216782331466675,-3.5484352,12.044838,-9.644462,44.207615,11.25768,-18.350683
6.236889839172363,-3.5603647,12.077695,-9.668581,44.321083,11.289964,-18.394337
6.256955862045288,-3.572353,12.110593,-9.692714,44.434643,11.3222885,-18.438051
6.277420520782471,-3.5843978,12.143526,-9.716858,44.548294,11.35465,-18.48183
6.297234773635864,-3.5965037,12.176496,-9.741012,44.662025,11.387047,-18.525671
6.317357301712036,-3.608646,12.209499,-9.765201,44.775833,11.41951,-18.569582
6.337460279464722,-3.608646,12.209499,-9.765201,44.775833,11.41951,-18.569582
6.358137369155884,-3.6208591,12.242536,-9.789379,44.889744,11.451984,-18.61354
6.378180980682373,-3.6208591,12.242536,-9.789379,44.889744,11.451984,-18.61354
6.401015520095825,-3.6331415,12.275597,-9.813559,45.003685,11.484481,-18.657543
6.421088695526123,-3.645463,12.308611,-9.837662,45.117455,11.516934,-18.701488
6.441220998764038,-3.6578522,12.341642,-9.861788,45.23123,11.549412,-18.745478
6.461314678192139,-3.6702862,12.374689,-9.885918,45.34505,11.581905,-18.78951
6.481417179107666,-3.6827755,12.407753,-9.910044,45.458893,11.614418,-18.833578
6.501437187194824,-3.695323,12.440831,-9.934167,45.572746,11.646949,-18.877682
6.521666526794434,-3.695323,12.440831,-9.934167,45.572746,11.646949,-18.877682
6.541943550109863,-3.707952,12.473966,-9.9583025,45.6866,11.679488,-18.921843
6.562053680419922,-3.7206097,12.507075,-9.982423,45.8005,11.712049,-18.966024
6.582008361816406,-3.7333298,12.540182,-10.006528,45.914375,11.744619,-19.010223
6.602200984954834,-3.746107,12.573283,-10.030615,46.028206,11.777191,-19.054432
6.622289419174194,-3.7589374,12.606375,-10.054684,46.14198,11.809759,-19.098648
6.642422676086426,-3.7718196,12.639456,-10.078737,46.2557,11.842324,-19.142872
6.662469148635864,-3.7847552,12.672527,-10.102769,46.369347,11.874885,-19.187103
6.683913469314575,-3.7847552,12.672527,-10.102769,46.369347,11.874885,-19.187103
6.704133033752441,-3.797741,12.705581,-10.12678,46.482925,11.907436,-19.23133
6.724132776260376,-3.8107648,12.7385845,-10.15071,46.59632,11.939935,-19.27549
6.7442731857299805,-3.8238578,12.771563,-10.174644,46.709587,11.972433,-19.319653
6.764332056045532,-3.8368716,12.80444,-10.1985855,46.822754,12.0050125,-19.363811
6.784465312957764,-3.8500013,12.837352,-10.222475,46.93586,12.037512,-19.407944
6.804529905319214,-3.863215,12.870247,-10.246325,47.048813,12.069976,-19.452066
6.824609041213989,-3.863215,12.870247,-10.246325,47.048813,12.069976,-19.452066
6.844716787338257,-3.8764791,12.903113,-10.2701435,47.161648,12.102414,-19.496176
6.864882707595825,-3.8897924,12.935948,-10.293934,47.27436,12.13483,-19.540268
6.884931802749634,-3.9031549,12.968748,-10.317686,47.38694,12.167224,-19.584333
6.904998779296875,-3.914555,12.9962635,-10.332569,47.483635,12.192073,-19.617897
6.925158500671387,-3.9248896,13.012735,-10.334593,47.54249,12.204591,-19.63287
6.945226430892944,-3.935176,13.019589,-10.332275,47.56698,12.209933,-19.63651
6.965451955795288,-3.9421473,13.019335,-10.327778,47.571037,12.210164,-19.63338
6.98725438117981,-3.9421473,13.019335,-10.327778,47.571037,12.210164,-19.63338
7.00739598274231,-3.9461021,13.014756,-10.322458,47.563293,12.20778,-19.626476
7.027473449707031,-3.9480276,13.007911,-10.317219,47.54998,12.204424,-19.617996
7.047545909881592,-3.9488058,13.000279,-10.312631,47.53544,12.201173,-19.609516
7.067957401275635,-3.94904,12.9928665,-10.309092,47.52267,12.198794,-19.602135
7.087728261947632,-3.9492636,12.986411,-10.306784,47.513725,12.197663,-19.596556
7.107809782028198,-3.9497843,12.981352,-10.305833,47.50979,12.198084,-19.593235
7.127948045730591,-3.9507904,12.977953,-10.306294,47.51163,12.2002125,-19.592415
7.148003101348877,-3.9507904,12.977953,-10.306294,47.51163,12.2002125,-19.592415
7.168173313140869,-3.952415,12.976359,-10.308157,47.519585,12.2041025,-19.5942
7.188258409500122,-3.95473,12.976614,-10.311375,47.533726,12.209747,-19.59858
7.208377838134766,-3.957767,12.978701,-10.315877,47.553905,12.217087,-19.605482
7.228409767150879,-3.9561753,12.981442,-10.32559,47.578957,12.232523,-19.617176
7.24849009513855,-3.9458742,12.984689,-10.342588,47.61415,12.259974,-19.634663
7.268924713134766,-3.9350576,12.990816,-10.360855,47.664066,12.290429,-19.654423
7.288767576217651,-3.9282746,12.999735,-10.3787565,47.720356,12.321104,-19.675777
7.309263229370117,-3.9282746,12.999735,-10.3787565,47.720356,12.321104,-19.675777
7.329246520996094,-3.9252028,13.010503,-10.396066,47.780174,12.350878,-19.69833
7.34920859336853,-3.9248648,13.022525,-10.4128,47.84221,12.379561,-19.721739
7.369499683380127,-3.9265528,13.035422,-10.429023,47.90569,12.407241,-19.745728
7.389754056930542,-3.9298034,13.048946,-10.444794,47.970066,12.43404,-19.770077
7.4095892906188965,-3.9342823,13.0629015,-10.460156,48.03494,12.46007,-19.794632
7.429678440093994,-3.9397426,13.077151,-10.475151,48.099995,12.485425,-19.819271
7.450132608413696,-3.9459853,13.09158,-10.489813,48.165024,12.510191,-19.843906
7.470061540603638,-3.9459853,13.09158,-10.489813,48.165024,12.510191,-19.843906
7.490163326263428,-3.9528532,13.10612,-10.504189,48.229866,12.534444,-19.86849
7.510330677032471,-3.9602299,13.120702,-10.518292,48.29442,12.558244,-19.89297
7.530346632003784,-3.96802,13.135282,-10.532155,48.35859,12.581644,-19.917313
7.550429105758667,-3.9761453,13.149824,-10.545797,48.422325,12.604689,-19.941502
7.5707292556762695,-3.9845495,13.164308,-10.55924,48.485596,12.627423,-19.965519
7.590891599655151,-3.993184,13.178714,-10.572502,48.54837,12.649876,-19.989365
7.610845327377319,-3.993184,13.178714,-10.572502,48.54837,12.649876,-19.989365
7.630938768386841,-4.002007,13.193028,-10.585599,48.61065,12.672082,-20.013031
7.651077508926392,-4.0109935,13.207248,-10.598543,48.672424,12.694067,-20.036518
7.67116641998291,-4.0201197,13.221361,-10.611343,48.733692,12.715849,-20.059824
7.691232442855835,-4.02937,13.235368,-10.624014,48.794456,12.737451,-20.08295
7.711641311645508,-4.038728,13.249269,-10.636558,48.85472,12.758884,-20.1059
7.731547117233276,-4.0481896,13.263059,-10.648987,48.914494,12.780166,-20.128675
7.752017259597778,-4.0481896,13.263059,-10.648987,48.914494,12.780166,-20.128675
7.772078037261963,-4.0577416,13.276739,-10.661302,48.973785,12.801304,-20.15128
7.792173624038696,-4.067357,13.290301,-10.673507,49.032585,12.822298,-20.17371
7.812266111373901,-4.0770006,13.30374,-10.685607,49.090927,12.84315,-20.195972
7.832363128662109,-4.0866685,13.317058,-10.697607,49.148823,12.863866,-20.218065
7.852447271347046,-4.096358,13.330258,-10.709512,49.20628,12.884452,-20.239996
7.872498989105225,-4.1060667,13.3433485,-10.721327,49.263325,12.904911,-20.261768
7.892628192901611,-4.1060667,13.3433485,-10.721327,49.263325,12.904911,-20.261768
7.9127092361450195,-4.115801,13.356334,-10.733054,49.31996,12.925247,-20.283388
7.93332576751709,-4.125556,13.369216,-10.7447,49.376213,12.945469,-20.304861
7.953291654586792,-4.135337,13.382001,-10.756269,49.432095,12.965581,-20.326195
7.973422288894653,-4.1451383,13.394689,-10.767759,49.487606,12.985585,-20.347387
7.9935197830200195,-4.1549616,13.407281,-10.779173,49.54275,13.005485,-20.368443
8.01396131515503,-4.1549616,13.407281,-10.779173,49.54275,13.005485,-20.368443
8.034168720245361,-4.16481,13.419779,-10.79051,49.597538,13.025281,-20.389362
8.054262161254883,-4.1746783,13.432182,-10.801774,49.65197,13.044978,-20.410147
8.074323892593384,-4.184565,13.4444895,-10.812962,49.70605,13.064575,-20.430798
8.094592571258545,-4.1944776,13.456701,-10.824075,49.75976,13.084075,-20.45131
8.114691972732544,-4.204412,13.468817,-10.835113,49.813126,13.103473,-20.471685
8.134817123413086,-4.204412,13.468817,-10.835113,49.813126,13.103473,-20.471685
8.154870748519897,-4.2143607,13.480835,-10.846073,49.86611,13.122772,-20.491917
8.175267696380615,-4.2243342,13.49275,-10.856956,49.918728,13.141972,-20.512005
8.195310354232788,-4.2243342,13.49275,-10.856956,49.918728,13.141972,-20.512005
8.215551853179932,-4.2343225,13.504564,-10.867756,49.970963,13.161067,-20.531948
8.235498189926147,-4.2443295,13.516272,-10.878479,50.02281,13.18006,-20.551743
8.255582571029663,-4.254353,13.527871,-10.889118,50.074265,13.198947,-20.57138
8.276004552841187,-4.2643943,13.539361,-10.899672,50.12532,13.21773,-20.590864
8.295864343643188,-4.2744493,13.550735,-10.910141,50.175964,13.236401,-20.61019
8.315932512283325,-4.2845135,13.561992,-10.920519,50.226185,13.254964,-20.629345
8.336847305297852,-4.2845135,13.561992,-10.920519,50.226185,13.254964,-20.629345
8.356923818588257,-4.2945857,13.573127,-10.930806,50.275978,13.273413,-20.648327
8.377052545547485,-4.3046656,13.584136,-10.940996,50.325333,13.291746,-20.667131
8.39711880683899,-4.314737,13.594996,-10.951084,50.374203,13.309965,-20.68574
8.417197704315186,-4.3248243,13.605731,-10.961071,50.42261,13.328051,-20.704159
8.437255620956421,-5.477953,12.463849,-9.840385,48.617374,13.330278,-19.24261
8.457440376281738,-6.009453,11.2195,-9.014784,44.640396,12.720593,-17.530788
8.477670907974243,-5.9453306,9.874095,-8.188894,40.448006,11.839573,-15.738476
8.497767925262451,-5.9453306,9.874095,-8.188894,40.448006,11.839573,-15.738476
8.517851829528809,-5.6800733,8.561381,-7.404606,36.345753,10.911914,-13.990155
8.537988185882568,-5.3587403,7.3198504,-6.6649723,32.475746,10.006905,-12.330286
8.558476686477661,-5.036474,6.148777,-5.967642,28.858656,9.149618,-10.761011
8.578595638275146,-4.7035146,5.031395,-5.3194795,25.501799,8.3395195,-9.260809
8.59880518913269,-4.3837647,3.9577434,-4.712825,22.38562,7.566496,-7.7897797
8.618775606155396,-4.1248765,2.9644191,-4.1803875,19.584753,6.854547,-6.2956495
8.638838768005371,-4.1248765,2.9644191,-4.1803875,19.584753,6.854547,-6.2956495
8.658923625946045,-3.92732,2.0761669,-3.6944695,17.000929,6.2246695,-4.8083735
8.679330587387085,-3.5562835,1.2205786,-3.2792802,14.46848,5.652957,-3.3046026
8.699298858642578,-3.1269581,0.5198821,-2.8755898,12.338151,5.3475533,-1.8043259
8.719345092773438,-2.258361,-0.40095034,-2.531941,10.573735,5.491746,-0.17429116
8.739429712295532,-1.2872095,-1.1161612,-2.0275974,8.407664,5.331582,1.7192997
8.75951623916626,-0.80058223,-1.9081742,-1.7442181,6.3861547,5.375055,3.2714038
8.779638767242432,-0.5064656,-2.2063148,-1.6657362,5.330827,5.543927,4.0764728
8.79967713356018,-0.41900533,-2.2060018,-1.6283212,4.9970393,5.6334953,4.4118023
8.820526361465454,-0.41900533,-2.2060018,-1.6283212,4.9970393,5.6334953,4.4118023
8.840715408325195,-0.45172334,-2.1966808,-1.6104807,4.838994,5.6572943,4.5661197
8.860751628875732,-0.48721078,-2.1935709,-1.6067828,4.749288,5.6455946,4.6437535
8.880869150161743,-0.50749797,-2.1921344,-1.6057367,4.696229,5.629326,4.6780143
8.900922536849976,-0.5149029,-2.1917803,-1.605083,4.6693993,5.618007,4.6834803
8.921079397201538,0.11426593,-1.915591,-1.2689105,4.905306,5.7733917,3.2476985
8.941145658493042,0.7171405,-1.8834633,-1.2731298,6.054495,5.9377527,2.070842
8.96120285987854,1.077163,-1.6315162,-1.4683037,7.5611973,6.002488,0.87707627
8.981411457061768,1.1788766,-1.0242702,-1.9511342,9.539101,6.0104513,-0.5245483
9.001517057418823,1.1788766,-1.0242702,-1.9511342,9.539101,6.0104513,-0.5245483
9.021645545959473,0.6320646,0.15788743,-2.6928596,11.810922,5.87819,-2.6339264
9.041715383529663,0.59410554,1.0302207,-3.4855738,14.187184,5.8090873,-4.830703
9.06181025505066,-0.8676489,0.6400136,-3.2800312,14.685207,6.0189953,-4.0395174
9.08187222480774,-1.7202014,0.3623689,-2.9944563,13.502004,6.0159006,-2.8405702
9.102266073226929,-1.9259619,-0.15244189,-2.6926198,11.854377,5.793021,-1.4271444
9.122196435928345,-1.3834276,-0.786245,-2.3125706,10.272286,5.7186956,0.17717299
9.14218807220459,-0.81028384,-1.3892673,-1.8722761,8.12979,5.477413,1.7672539
9.162302494049072,-0.81028384,-1.3892673,-1.8722761,8.12979,5.477413,1.7672539
9.18237566947937,-0.41370752,-2.022429,-1.6782224,6.4642057,5.5495076,3.0025904
9.202449560165405,-0.20423467,-2.2304163,-1.622206,5.643683,5.6829214,3.6413996
9.222574234008789,-0.18232296,-2.224653,-1.5913013,5.3094196,5.7341847,3.9374938
9.242615938186646,-0.23124905,-2.2159672,-1.5778457,5.126608,5.7261605,4.084406
9.262713193893433,-0.2690201,-2.2133057,-1.57517,5.0220776,5.7009773,4.158157
9.282878398895264,0.3325416,-1.8828515,-1.2474042,5.382341,5.8206797,2.7323282
9.303033113479614,0.87649876,-1.7055076,-1.3477075,6.794135,5.900871,1.3829547
9.323140859603882,0.87649876,-1.7055076,-1.3477075,6.794135,5.900871,1.3829547
9.343225240707397,1.1333885,-1.2026004,-1.8249505,8.816432,5.939904,-0.09328952
9.36336612701416,0.6675882,-0.008898646,-2.5818532,11.2569475,5.827111,-2.2702549
9.38341760635376,0.53209144,1.2910335,-3.476794,14.256297,5.4705935,-4.556263
9.40353536605835,-1.0394752,0.83935595,-3.3438869,14.592833,5.834877,-4.2257476
9.42361569404602,-1.7893746,0.5614742,-3.131244,13.8071995,5.882246,-3.3376431
9.443694114685059,-2.0209713,0.16812143,-2.8981557,12.583903,5.710129,-2.2638247
9.463893413543701,-2.0209713,0.16812143,-2.8981557,12.583903,5.710129,-2.2638247
9.48404049873352,-1.9825026,-0.17715517,-2.6227717,11.033117,5.662267,-1.2620144
9.50419020652771,-1.2236571,-0.81560826,-2.2299287,9.931186,5.572385,0.13742194
9.524168729782104,-0.67981225,-1.4023387,-1.8227863,8.151496,5.4607153,1.537448
