liuyurong129/humanoid-gym/humanoid/data/robot1_action_20250621-221030.csv
timestamp,joint_1,joint_2,joint_3,joint_4,joint_5,joint_6
0.00034928321838378906,0.0,0.0,0.0,0.0,0.0,0.0
0.020323991775512695,0.0,0.0,0.0,0.0,0.0,0.0
0.04049277305603027,0.0,0.0,0.0,0.0,0.0,0.0
0.06053805351257324,0.0,0.0,0.0,0.0,0.0,0.0
0.08065319061279297,0.0,0.0,0.0,0.0,0.0,0.0
0.10071182250976562,0.0,0.0,0.0,0.0,0.0,0.0
0.1208655834197998,-1.445524,-0.14851642,-0.13415945,-0.08327578,-0.34466222,0.94909227
0.1409454345703125,-0.2733858,8.181461,5.518614,-0.46987027,-5.276151,-3.0924206
0.1610407829284668,4.709436,3.56012,5.8153553,1.4057784,-6.665107,-1.4335678
0.18116307258605957,2.9924867,5.915181,4.36753,-1.6947657,-6.7322316,-0.78746885
0.2012021541595459,1.7465816,4.204773,5.5240173,1.5720203,-7.5704646,-2.1815925
0.22203826904296875,1.7465816,4.204773,5.5240173,1.5720203,-7.5704646,-2.1815925
0.24224233627319336,1.3544335,4.5808935,7.3355017,0.86810863,-5.3876877,-3.6919334
0.26227450370788574,2.1580625,4.4355984,0.5727433,-1.4412683,-3.7247312,-1.3951652
0.2823829650878906,3.9110029,8.465042,-1.7382233,-1.152335,-5.1689696,-4.0011034
0.302443265914917,5.7018113,12.871489,-4.2840557,-2.0054908,-5.546227,-4.3687363
0.3225264549255371,6.7225127,14.441563,-3.890156,-2.3661985,-6.5260367,-4.8118105
0.3426499366760254,7.056674,14.02368,-3.6066418,-2.7813332,-6.5160193,-4.629672
0.36281371116638184,6.708673,12.152602,-2.7006583,-2.7480145,-6.131384,-3.8721838
0.384080171585083,6.708673,12.152602,-2.7006583,-2.7480145,-6.131384,-3.8721838
0.4042782783508301,5.5459275,11.084261,-2.5892138,-2.6745446,-5.4703364,-3.8184571
0.42439723014831543,4.0208673,10.099841,-2.2702458,-2.3320847,-4.8876204,-4.068421
0.4445967674255371,2.8919814,10.504969,-2.7861173,-2.568218,-4.3878913,-4.49082
0.4645402431488037,2.7680995,9.751169,-2.4583313,-2.8122158,-4.3762097,-3.9600089
0.4846231937408447,2.1482766,8.675325,-2.0917866,-2.527441,-4.2759748,-3.3148468
0.5047237873077393,1.2262323,9.117068,-2.5534632,-2.8298478,-3.8224053,-3.3366902
0.5247931480407715,2.1474447,7.546466,-1.117918,-2.1370974,-4.739388,-2.412553
0.5459651947021484,2.1474447,7.546466,-1.117918,-2.1370974,-4.739388,-2.412553
0.5660743713378906,-0.55776805,8.427371,-1.573148,-2.982944,-3.7007365,-2.564084
0.5861563682556152,1.1766818,8.543621,4.8722343,0.24020526,-6.750175,-2.492165
0.6063046455383301,3.623541,6.365487,8.088521,0.4114985,-8.618989,-1.5461681
0.6265730857849121,1.3825967,8.652698,2.3489404,-5.0695267,-7.2019114,6.6073112
0.6466872692108154,1.2191157,11.0574665,2.654552,-4.4509325,-9.763272,2.686752
0.6667735576629639,-0.10534373,6.3805,5.205885,-2.4735157,-7.9626784,1.5015113
0.6868190765380859,0.31373784,9.392853,4.1369677,-2.7741337,-9.902641,4.45255
0.7069220542907715,0.31373784,9.392853,4.1369677,-2.7741337,-9.902641,4.45255
0.7270064353942871,-0.7725035,7.4008393,2.8996336,-2.3949666,-8.501002,1.7460225
0.7471115589141846,0.017606288,5.695723,4.650689,-1.8200283,-5.768765,2.152858
0.7671692371368408,1.7180476,11.033039,0.29854047,-3.0279112,-5.2703815,4.24518
0.7872583866119385,9.549899,19.56539,-3.0296059,-6.437024,-9.248053,-6.5286665
0.8073484897613525,12.890437,18.603456,-3.7821996,-4.3837624,-9.471222,-5.1674347
0.827406644821167,11.251217,16.825779,-3.4849246,-4.360326,-7.9870925,-4.500456
0.8475601673126221,8.662618,14.47684,-4.0158176,-2.7597694,-6.255091,-4.080101
0.8677024841308594,8.662618,14.47684,-4.0158176,-2.7597694,-6.255091,-4.080101
0.887814998626709,6.1661367,13.477667,-4.15833,-2.278153,-5.1403074,-4.4200783
0.907921314239502,4.185498,14.278132,-4.764903,-2.3312411,-4.706601,-5.5874586
0.9279758930206299,4.179199,14.352824,-5.3811283,-3.039945,-4.8447537,-5.7710404
0.9481165409088135,4.613794,12.722429,-4.8586245,-3.3997395,-4.833529,-4.5515127
0.9681546688079834,3.7331202,11.861395,-4.51344,-3.300011,-4.5616508,-4.621545
0.9882261753082275,2.9535832,11.00721,-4.043825,-3.2129016,-4.4860196,-4.544267
1.0082874298095703,2.2870305,10.006608,-3.4145172,-3.0416725,-4.385292,-4.258237
1.0292143821716309,2.2870305,10.006608,-3.4145172,-3.0416725,-4.385292,-4.258237
1.0492560863494873,1.5960178,9.065307,-2.8293595,-2.7261732,-4.1951165,-4.099857
1.0693349838256836,1.3733103,8.240737,-1.879693,-2.5145807,-3.6472445,-3.8084264
1.0894312858581543,0.64646757,7.8885736,-1.27073,-2.150533,-3.3340476,-4.295758
1.109487533569336,0.32155994,7.4842534,0.9959438,-1.4535279,-3.185032,-4.6689124
1.1295793056488037,-2.1700306,7.2207026,6.260461,-2.587389,-3.4076986,-3.236154
1.1497838497161865,2.1534696,11.72099,7.311034,-2.011137,-8.393074,2.640115
1.169790267944336,-2.3184614,8.234905,8.813951,-2.1978664,-9.608953,-1.3806682
1.189915657043457,-2.3184614,8.234905,8.813951,-2.1978664,-9.608953,-1.3806682
1.2099854946136475,1.0148699,12.827551,5.8963194,-1.8853097,-8.329026,0.35762018
1.2301113605499268,-3.972655,9.886429,8.020732,-2.4544103,-7.208648,-5.139967
1.250220775604248,2.8401637,14.1252165,3.620344,-1.6351253,-6.7290387,-0.6957707
1.2703170776367188,0.057507724,11.3172865,2.7066221,-3.203868,-6.3551264,-5.1292944
1.2903516292572021,4.9891267,9.388005,1.7997906,-1.4141384,-4.235082,-4.880678
1.3103952407836914,0.120281786,9.570743,-1.0841179,-1.0223061,-4.540002,-5.7742186
1.3305988311767578,0.120281786,9.570743,-1.0841179,-1.0223061,-4.540002,-5.7742186
1.3506767749786377,5.0129604,15.319706,-5.0535183,-2.908083,-5.5760646,-5.7956996
1.370786428451538,7.221212,20.947403,-4.816386,-5.111477,-9.163898,-5.564561
1.3908360004425049,10.2524,23.60811,-5.4215984,-7.0570536,-9.692251,-3.9785917
1.4109280109405518,11.263522,25.19846,-5.6923065,-8.537171,-9.762886,-3.1604288
1.4310691356658936,11.776113,26.216837,-5.7080164,-9.783695,-9.71515,-2.745227
1.451080560684204,12.118644,27.336344,-5.7295113,-11.139707,-9.911701,-2.558646
1.471527338027954,12.118644,27.336344,-5.7295113,-11.139707,-9.911701,-2.558646
1.4919648170471191,12.604354,28.46518,-5.604636,-12.050465,-10.277939,-2.6492474
1.5118434429168701,13.065842,29.19667,-5.5055704,-12.4879875,-10.518734,-2.8844316
1.5319304466247559,13.265173,29.42052,-5.4597464,-12.579799,-10.590303,-3.1704667
1.5520029067993164,13.1206255,29.268126,-5.3400965,-12.5310955,-10.530197,-3.3614047
1.5723767280578613,12.801865,29.018492,-5.166396,-12.441732,-10.402201,-3.4746568
1.5922958850860596,12.484075,28.691845,-4.971615,-12.297039,-10.264767,-3.5717661
1.6125397682189941,12.144033,28.193546,-4.735094,-12.09334,-10.115782,-3.6244762
1.632730484008789,11.73949,27.438826,-4.4245243,-11.803649,-9.93771,-3.6278346
1.6531519889831543,11.73949,27.438826,-4.4245243,-11.803649,-9.93771,-3.6278346
1.6729953289031982,10.439877,27.445976,-5.5279694,-10.903989,-10.102768,-4.4780912
1.6930766105651855,10.12778,26.189177,-5.17047,-10.767906,-9.868989,-3.7509577
1.7132563591003418,9.5773115,25.270899,-4.911463,-10.415194,-9.596039,-3.7528503
1.733273983001709,9.045565,24.249142,-4.648221,-10.030926,-9.340381,-3.735346
1.7533483505249023,8.487188,23.172798,-4.3869457,-9.603888,-9.063839,-3.7304456
1.7734503746032715,7.907696,22.041481,-4.130457,-9.148984,-8.765854,-3.7203896
1.7934918403625488,7.3177724,20.866772,-3.868797,-8.677797,-8.446489,-3.687988
1.8135802745819092,7.3177724,20.866772,-3.868797,-8.677797,-8.446489,-3.687988
1.833702564239502,6.7202954,19.670408,-3.6074975,-8.196452,-8.1113825,-3.6441638
1.8537530899047852,6.1180005,18.467197,-3.3511207,-7.7105856,-7.766033,-3.5951147
1.873828411102295,5.509849,17.274878,-3.101753,-7.225413,-7.414642,-3.544012
1.8939692974090576,4.88969,16.11039,-2.842191,-6.7387576,-7.0651536,-3.4785542
1.9140188694000244,5.015029,14.426956,-1.4905332,-6.882562,-6.351027,-2.713887
1.9341387748718262,4.2432103,13.794094,-1.2941319,-6.4870076,-6.094907,-2.9391968
1.954197645187378,3.28845,12.340237,-1.0442438,-5.7853374,-5.901339,-2.5495994
1.9743545055389404,3.28845,12.340237,-1.0442438,-5.7853374,-5.901339,-2.5495994
1.994791030883789,2.9405866,11.695023,-0.81523836,-5.570003,-5.5428853,-2.7378986
2.014724016189575,1.8703451,10.014829,-0.37305677,-4.7510834,-5.302237,-2.0988953
2.0347936153411865,1.2899514,8.806318,0.26783556,-4.5111446,-4.9810715,-1.7661142
2.054882764816284,0.32216176,5.102913,2.8606834,-3.1760404,-4.549631,-0.05153942
2.0750062465667725,1.0504152,8.544168,5.562848,-1.5098745,-9.169806,4.3003016
2.095094919204712,-3.57285,11.902976,11.853641,-4.4645176,-11.352983,-2.5261967
2.115126371383667,-1.908294,11.935413,11.143552,-1.0266016,-11.294344,2.1905496
2.135220527648926,-1.908294,11.935413,11.143552,-1.0266016,-11.294344,2.1905496
2.1553103923797607,-1.7580712,9.175158,8.880833,-3.5015056,-8.70262,3.134357
2.175403356552124,-1.5448978,9.304356,7.348173,-2.0426173,-8.865889,3.0233605
2.195469379425049,-2.0435264,7.719571,7.6058598,-2.2566965,-7.1763005,-0.94474655
2.215555191040039,3.2652097,11.566311,0.39165485,-2.6134298,-4.095129,0.50503945
2.2356715202331543,9.863774,19.907951,-3.5671208,-5.540908,-8.431829,-5.288889
2.2557339668273926,12.548047,20.888273,-4.6109543,-4.6075277,-9.90757,-5.30665
2.275843381881714,11.754866,20.318481,-4.4749336,-4.8512683,-8.874362,-4.6552167
2.2959237098693848,11.754866,20.318481,-4.4749336,-4.8512683,-8.874362,-4.6552167
2.3160436153411865,10.77242,20.078718,-4.783781,-5.281436,-8.104706,-4.587276
2.3360955715179443,10.283215,19.954834,-4.9987745,-5.837059,-7.5926194,-4.438405
2.3561694622039795,9.906428,19.984608,-5.3056564,-6.5563107,-7.1723537,-4.2129836
2.37626576423645,9.683552,20.181843,-5.38566,-7.4009733,-7.009819,-3.9908402
2.396357774734497,9.625798,20.269136,-5.147339,-8.118827,-7.0029826,-3.6539137
2.416594982147217,9.562644,20.472092,-4.826501,-8.6091795,-7.125703,-3.4898431
2.4368577003479004,9.422673,20.78241,-4.579281,-8.88067,-7.2958922,-3.5434153
2.4571382999420166,9.422673,20.78241,-4.579281,-8.88067,-7.2958922,-3.5434153
2.4771368503570557,9.26575,21.057287,-4.378502,-9.069112,-7.468307,-3.6013997
2.497190237045288,9.128971,21.21127,-4.175127,-9.196932,-7.608359,-3.6169176
2.5172839164733887,8.945072,21.110678,-3.9046562,-9.228381,-7.708549,-3.5857737
2.5373499393463135,8.665702,20.810402,-3.606824,-9.143438,-7.73872,-3.5639422
2.5574774742126465,8.304993,20.333359,-3.310786,-8.963404,-7.697219,-3.5478761
2.5775556564331055,7.886837,19.70507,-3.0312426,-8.711836,-7.590714,-3.5286639
2.5975987911224365,7.4267178,18.965652,-2.7729628,-8.413062,-7.4328094,-3.5054793
2.6176910400390625,7.4267178,18.965652,-2.7729628,-8.413062,-7.4328094,-3.5054793
2.637799024581909,6.9396167,18.151453,-2.5356548,-8.085005,-7.235759,-3.4779499
2.657893419265747,6.9396167,18.151453,-2.5356548,-8.085005,-7.235759,-3.4779499
2.6782262325286865,6.437628,17.291859,-2.3169239,-7.737812,-7.0123267,-3.4469097
2.700204610824585,5.9281907,16.406311,-2.1143782,-7.378457,-6.7728853,-3.4141076
2.7202835083007812,5.4150605,15.506104,-1.925303,-7.011406,-6.524671,-3.3802989
2.7403340339660645,4.9003725,14.595432,-1.7439862,-6.6393213,-6.2725635,-3.3414092
2.7604053020477295,4.380901,13.677586,-1.565567,-6.2619133,-6.022247,-3.2948375
2.780520439147949,3.8399203,12.778668,-1.4034492,-5.874893,-5.783306,-3.2582877
2.8005263805389404,3.2800584,11.9076805,-1.2464411,-5.4874516,-5.5445523,-3.2105134
2.820842981338501,3.2800584,11.9076805,-1.2464411,-5.4874516,-5.5445523,-3.2105134
2.8409557342529297,2.7044237,11.064638,-1.0889843,-5.1009502,-5.304767,-3.1509566
2.86108136177063,1.8933578,9.938627,-0.8503445,-4.691473,-5.067215,-2.700652
2.8811428546905518,1.2291633,8.615779,-0.28094316,-4.475865,-4.803607,-1.9326923
2.9012205600738525,0.81770694,5.8383284,2.2482092,-3.500783,-4.829714,0.11626905
2.9214043617248535,1.6786582,6.5852685,5.0413322,-0.99525607,-8.816097,2.7770026
2.9414665699005127,-1.8051059,9.803914,8.780137,-6.2885685,-8.916767,3.8361447
2.961550235748291,-4.795521,13.353025,14.428405,-1.7407849,-14.205521,-0.242356
2.9822115898132324,-4.795521,13.353025,14.428405,-1.7407849,-14.205521,-0.242356
3.0023505687713623,-0.8561971,14.422177,8.960547,-0.65177786,-10.436266,1.0227883
3.022388219833374,-2.113275,8.483038,9.5737915,-2.6018617,-7.970614,-2.514575
3.0424656867980957,3.0339909,13.500322,1.933048,-1.6473186,-6.2038684,-0.07810922
3.06254243850708,5.958177,15.060674,-2.0197334,-5.2701135,-5.0873046,-4.2387066
3.082627058029175,10.022431,18.197384,-4.171195,-4.026817,-8.371974,-5.075896
3.102729320526123,10.150132,19.49075,-4.5499077,-4.469458,-8.268602,-4.9906583
3.1227867603302,10.152019,20.198092,-5.109329,-5.2933083,-7.9463263,-4.809097
3.1432595252990723,10.152019,20.198092,-5.109329,-5.2933083,-7.9463263,-4.809097
3.163339853286743,10.281455,20.54562,-5.568507,-6.2721796,-7.60801,-4.4674506
3.1834185123443604,10.223562,20.919294,-5.724744,-7.2517757,-7.4347105,-4.1245856
3.203511953353882,10.167294,21.203598,-5.555068,-8.113741,-7.364326,-3.7529624
3.2236244678497314,10.188743,21.372318,-5.235465,-8.819508,-7.4062295,-3.40255
3.2436933517456055,10.098372,21.640717,-4.9041357,-9.206053,-7.564709,-3.3615654
3.263787031173706,9.914351,21.91555,-4.660104,-9.402279,-7.7366858,-3.447712
3.2838642597198486,9.914351,21.91555,-4.660104,-9.402279,-7.7366858,-3.447712
3.30391788482666,9.72823,22.10706,-4.4536085,-9.5352125,-7.8769917,-3.529973
3.324112892150879,9.545536,22.196255,-4.255888,-9.602399,-7.973499,-3.5778859
3.3441102504730225,9.341929,22.06371,-4.0073004,-9.587961,-8.023479,-3.5608108
3.3641915321350098,9.061982,21.71431,-3.7179687,-9.481568,-8.01927,-3.5477946
3.3842766284942627,8.696991,21.185793,-3.4211576,-9.285274,-7.95652,-3.538203
3.4043924808502197,8.265763,20.503819,-3.1360223,-9.015692,-7.8343506,-3.5240896
3.4244771003723145,7.7880406,19.709494,-2.8699946,-8.697355,-7.6617475,-3.5048096
3.444507360458374,7.2814255,18.840668,-2.624109,-8.34934,-7.4507494,-3.4804688
3.464860200881958,7.2814255,18.840668,-2.624109,-8.34934,-7.4507494,-3.4804688
3.484849452972412,6.7588296,17.928528,-2.3983572,-7.9842935,-7.2120957,-3.4521346
3.5048859119415283,6.2304125,16.99532,-2.1897347,-7.609345,-6.9572945,-3.420692
3.5249831676483154,5.70109,16.054024,-1.9955862,-7.2290096,-6.6943817,-3.3876255
3.5450432300567627,5.1731224,15.110014,-1.8123498,-6.846112,-6.4283147,-3.3521245
3.565138578414917,4.646263,14.163077,-1.6320592,-6.4613066,-6.1627946,-3.3066885
3.585214376449585,4.108351,13.227536,-1.4604266,-6.0706177,-5.9066367,-3.2632587
3.6053237915039062,3.5472298,12.326138,-1.3047326,-5.674222,-5.662881,-3.2261593
3.6257541179656982,2.969748,11.454105,-1.1455398,-5.2806854,-5.4180126,-3.1694572
3.645857334136963,2.969748,11.454105,-1.1455398,-5.2806854,-5.4180126,-3.1694572
3.6659770011901855,2.2682166,10.457421,-0.9520122,-4.881135,-5.183972,-2.9109118
3.686047077178955,1.40973,9.261255,-0.5993844,-4.486786,-4.920755,-2.3247354
3.706113815307617,1.1332009,7.434069,0.7272069,-4.2479014,-4.8817925,-1.1620569
3.7262182235717773,2.0915186,4.049759,4.555914,-1.3413335,-6.36821,0.28992683
3.7463107109069824,1.6923459,8.928544,3.9618416,-5.8795347,-7.733684,7.846246
3.7664105892181396,-2.1977375,9.203816,6.651519,-3.22505,-9.006708,2.919606
3.7870066165924072,-2.1977375,9.203816,6.651519,-3.22505,-9.006708,2.919606
3.8071494102478027,-2.6283562,12.71673,12.173552,-2.3868923,-12.6045265,3.1654587
3.827256679534912,-4.606834,12.355875,13.65614,-1.6042117,-12.120068,-0.27031022
3.847327470779419,0.8913133,13.970383,6.2277603,-1.212351,-7.8141503,-0.075303376
3.8674426078796387,0.4031107,7.372191,8.599394,-0.6595675,-8.441961,-3.2564585
3.887509822845459,2.9058118,11.49313,0.7636349,-2.2197096,-6.518425,-0.72289675
3.907608985900879,9.848826,15.375159,-3.071639,-4.6336117,-6.684052,-4.7515106
3.9278392791748047,10.579635,16.260729,-3.5542421,-4.0768285,-7.5713906,-4.9811277
3.948051929473877,9.5473175,16.28954,-3.860724,-4.075923,-7.031405,-5.1223717
3.9681437015533447,9.5473175,16.28954,-3.860724,-4.075923,-7.031405,-5.1223717
3.988402843475342,8.812963,16.14232,-4.089141,-4.3404684,-6.5057855,-4.9824944
4.008303165435791,8.347689,15.95359,-4.2565985,-4.73452,-6.125127,-4.840992
4.028336524963379,7.934937,15.855808,-4.528043,-5.2335443,-5.870334,-4.6885843
4.048451900482178,7.5370173,15.974293,-4.7245913,-5.770831,-5.759028,-4.5273323
4.068509340286255,7.353566,16.254406,-4.603162,-6.3514204,-5.78199,-4.2608514
4.0885820388793945,7.281545,16.529343,-4.3335886,-6.837042,-5.872524,-3.974518
4.109236001968384,7.281545,16.529343,-4.3335886,-6.837042,-5.872524,-3.974518
4.1294941902160645,7.151977,16.849277,-4.04593,-7.128485,-6.0516105,-3.8402126
4.149474620819092,7.0267015,17.167717,-3.832639,-7.3348455,-6.2265277,-3.7697592
4.169626951217651,6.9496174,17.44109,-3.6429443,-7.5104694,-6.3787646,-3.695389
4.189702033996582,6.863344,17.464222,-3.387869,-7.6198673,-6.513275,-3.5899537
4.20977520942688,6.6904616,17.264854,-3.098367,-7.6166954,-6.5847883,-3.5108602
4.229870557785034,6.420141,16.892036,-2.8142552,-7.5062504,-6.584777,-3.4642112
4.250023365020752,6.077234,16.383455,-2.5514758,-7.3170156,-6.5211043,-3.4340606
4.270103216171265,5.684484,15.769569,-2.3127425,-7.0744524,-6.4069085,-3.406571
4.290978670120239,5.684484,15.769569,-2.3127425,-7.0744524,-6.4069085,-3.406571
4.31084942817688,5.2567325,15.076732,-2.0943706,-6.7948256,-6.2551136,-3.376965
4.330933332443237,4.803444,14.323427,-1.8882331,-6.4879293,-6.0766835,-3.3402288
4.3511011600494385,4.3296785,13.5256605,-1.6920793,-6.159889,-5.8815455,-3.2984908
4.3711302280426025,3.8336318,12.708374,-1.5129927,-5.814969,-5.6838703,-3.262191
4.391252756118774,3.3134785,11.896479,-1.3482127,-5.4604764,-5.480951,-3.2247574
4.411383628845215,2.7684839,11.097003,-1.1798108,-5.0999374,-5.2677455,-3.1629786
4.4314048290252686,2.1019952,10.178319,-0.9823837,-4.7290344,-5.05971,-2.9219677
4.451534986495972,2.1019952,10.178319,-0.9823837,-4.7290344,-5.05971,-2.9219677
4.471663951873779,1.2836586,9.039277,-0.641807,-4.363746,-4.833855,-2.367863
4.491694688796997,1.0617199,7.1567545,0.8781358,-4.053986,-4.8526063,-1.2255027
4.511802673339844,2.717154,3.8765297,4.5944796,-0.83537734,-6.506392,-0.17943591
4.532967805862427,2.0333784,8.72986,3.806726,-6.9208617,-6.1898365,7.3805475
4.553021669387817,-0.5224953,7.661506,5.9833727,-1.9611362,-9.325055,2.4585743
4.57309889793396,-1.583823,11.639639,9.49623,-3.4048069,-10.816692,2.524677
4.593188762664795,-4.321509,12.005859,13.24967,-1.5780321,-11.855776,-1.7296169
4.613284587860107,-4.321509,12.005859,13.24967,-1.5780321,-11.855776,-1.7296169
4.633364677429199,0.79721755,15.314884,6.4839506,-0.47826472,-8.602199,-0.7401015
4.653525114059448,-0.20306852,7.752384,8.750743,-0.9890889,-8.36589,-2.6935704
4.673559665679932,3.2098925,13.211755,-0.90842724,-3.3259058,-5.4708176,-0.90699416
4.693636655807495,11.045969,18.899548,-3.977893,-5.043806,-8.7780485,-5.5459
4.713726043701172,11.706946,18.881676,-4.4821024,-4.46636,-8.021228,-5.315814
4.739451169967651,11.706946,18.881676,-4.4821024,-4.46636,-8.021228,-5.315814
4.771080732345581,11.706946,18.881676,-4.4821024,-4.46636,-8.021228,-5.315814
4.79665994644165,11.706946,18.881676,-4.4821024,-4.46636,-8.021228,-5.315814
4.816778659820557,10.515582,18.072613,-4.4922695,-4.6619077,-7.322394,-5.16154
4.83696985244751,9.666195,17.520582,-4.651496,-4.9749713,-6.687032,-4.9505563
4.857025384902954,9.090108,17.172628,-4.8047533,-5.389838,-6.2829223,-4.755141
4.87704610824585,8.534537,17.01706,-4.994295,-5.9260025,-6.103722,-4.619544
4.8972227573394775,8.146333,17.130037,-4.9109793,-6.4101562,-6.01872,-4.378009
4.91737961769104,7.958199,17.245203,-4.6472015,-6.9414716,-6.0499206,-4.064976
4.937419176101685,7.7610564,17.423023,-4.3288097,-7.2799697,-6.1620054,-3.8832715
4.957545042037964,7.5378137,17.637737,-4.0521393,-7.479645,-6.3238807,-3.8062809
4.977631092071533,7.5378137,17.637737,-4.0521393,-7.479645,-6.3238807,-3.8062809
4.997732877731323,7.3721147,17.874775,-3.8532076,-7.645466,-6.4654408,-3.7583578
5.017840623855591,7.2587085,18.045288,-3.6552243,-7.78377,-6.5939994,-3.6861038
5.037903070449829,7.130325,17.960009,-3.3842463,-7.8509974,-6.701288,-3.5800903
5.058038949966431,6.910322,17.678528,-3.0890782,-7.8037386,-6.7415113,-3.5106308
5.078096389770508,6.601872,17.241255,-2.8072085,-7.6590614,-6.7142386,-3.4721117
5.098283290863037,6.2304683,16.681095,-2.549304,-7.4447026,-6.6291013,-3.4444225
5.118605136871338,5.817884,16.026285,-2.314972,-7.1844373,-6.497913,-3.416077
5.138712644577026,5.817884,16.026285,-2.314972,-7.1844373,-6.497913,-3.416077
5.158782243728638,5.375403,15.301714,-2.099862,-6.8916793,-6.3330417,-3.385838
5.179094076156616,4.9114523,14.524422,-1.8968382,-6.575067,-6.144353,-3.3496237
5.1989991664886475,4.429489,13.707336,-1.7018638,-6.2393947,-5.940494,-3.3074143
5.219151735305786,3.9276948,12.871513,-1.5216477,-5.8879366,-5.733693,-3.2685885
5.239290237426758,3.4027965,12.043421,-1.3577505,-5.527108,-5.5259395,-3.2322285
5.259462833404541,2.8542264,11.229373,-1.1908721,-5.161709,-5.3088026,-3.1728034
5.279492378234863,2.209594,10.331238,-1.0035818,-4.789955,-5.097241,-2.971701
5.299633741378784,2.209594,10.331238,-1.0035818,-4.789955,-5.097241,-2.971701
5.319735527038574,1.3856618,9.185885,-0.7030378,-4.3934984,-4.8685,-2.4717958
5.339861154556274,1.1991866,7.5847483,0.41326633,-4.217579,-4.8752346,-1.5749547
5.360558748245239,2.2928526,3.7867904,4.488949,-1.7072953,-6.005651,-0.033877313
5.3806445598602295,1.6768045,8.161257,4.019308,-4.876516,-7.1253524,6.34422
5.400733709335327,-2.9535353,9.331615,8.635112,-2.7513006,-10.056783,1.0805209
5.420821905136108,-1.9807978,16.29732,10.396803,-0.7792936,-12.37274,0.8924927
5.440927267074585,-1.9807978,16.29732,10.396803,-0.7792936,-12.37274,0.8924927
5.4610490798950195,-4.172468,11.7361965,12.121497,-2.8783073,-9.410382,-3.0178478
5.481088161468506,1.1647917,15.215327,5.610735,0.07168183,-9.019139,-0.24577421
5.501171827316284,-2.1517022,9.753797,7.857502,-2.3682785,-7.1357822,-1.5867813
5.521401882171631,2.1419115,12.296983,2.3530014,-1.394347,-6.5264697,0.33920562
5.541380167007446,3.6746957,12.769683,-0.46967268,-4.8151655,-5.0489554,-2.8387845
5.561540603637695,9.973232,17.71246,-4.057868,-3.8766038,-8.10267,-5.069879
5.581559181213379,10.236436,19.550604,-4.614892,-4.277374,-8.294392,-5.403648
5.6021997928619385,10.236436,19.550604,-4.614892,-4.277374,-8.294392,-5.403648
5.622292518615723,10.3453455,20.296894,-5.2192106,-5.1470394,-8.028667,-5.1686535
5.642376899719238,10.558961,20.729607,-5.7455244,-6.1445684,-7.682725,-4.767561
5.664089918136597,10.6193285,21.116642,-5.938278,-7.198429,-7.5364285,-4.375254
5.684307813644409,10.6193285,21.116642,-5.938278,-7.198429,-7.5364285,-4.375254
5.704617261886597,10.509743,21.493044,-5.778719,-8.043621,-7.4551682,-3.9785964
5.724506855010986,10.4654665,21.605076,-5.4590626,-8.773825,-7.4544563,-3.5729396
5.7445666790008545,10.331169,21.767183,-5.0588093,-9.192387,-7.571985,-3.4419253
5.764673233032227,10.089843,21.953728,-4.7634783,-9.379972,-7.726994,-3.4943287
5.784889221191406,10.089843,21.953728,-4.7634783,-9.379972,-7.726994,-3.4943287
5.804906129837036,9.8439665,22.087555,-4.528205,-9.493829,-7.852432,-3.5634704
5.825040102005005,9.622607,22.153803,-4.3236256,-9.5627365,-7.940392,-3.6146011
5.845200538635254,9.408476,22.109606,-4.1137877,-9.5710125,-7.9868274,-3.6183956
5.865265607833862,9.16164,21.833849,-3.8402188,-9.504555,-8.00009,-3.5793314
5.88536524772644,8.829473,21.373062,-3.542249,-9.345633,-7.960922,-3.5591447
5.90541934967041,8.422165,20.744576,-3.2492192,-9.103546,-7.862502,-3.5410378
5.925487756729126,7.959952,19.988861,-2.973882,-8.803074,-7.7098613,-3.5205886
5.946239233016968,7.959952,19.988861,-2.973882,-8.803074,-7.7098613,-3.5205886
5.966345548629761,7.4623103,19.145058,-2.7187312,-8.465762,-7.514222,-3.4958458
5.986602306365967,6.944122,18.246948,-2.4841652,-8.107108,-7.2866187,-3.4673395
6.006659984588623,6.416715,17.320267,-2.268151,-7.735971,-7.038338,-3.4356196
6.02672553062439,5.886897,16.381323,-2.0678024,-7.3577337,-6.779131,-3.4021983
6.046844005584717,5.3578086,15.438053,-1.8801017,-6.975991,-6.514837,-3.367207
6.066919803619385,4.8303285,14.491927,-1.6984365,-6.5922117,-6.24938,-3.3252246
6.087024211883545,4.2979684,13.548452,-1.5206443,-6.2043495,-5.9888196,-3.2778406
6.107064485549927,3.7434435,12.633624,-1.3604527,-5.8083196,-5.742969,-3.2416904
6.127189874649048,3.7434435,12.633624,-1.3604527,-5.8083196,-5.742969,-3.2416904
6.147267818450928,3.1710875,11.750506,-1.2021272,-5.4140663,-5.4987726,-3.1905138
6.167394161224365,2.5631583,10.865651,-1.040036,-5.0242987,-5.2610736,-3.0844486
6.1874680519104,1.7108874,9.681049,-0.77854913,-4.59492,-5.013764,-2.5913937
6.2075560092926025,1.2705735,8.304739,-0.06122005,-4.4678507,-4.8670316,-1.8644888
6.2276811599731445,1.3660026,5.017622,3.2398012,-2.8429446,-5.2032056,0.17156285
6.2478110790252686,1.5223258,7.671248,5.2408743,-1.6116492,-9.173353,3.7103045
6.268176078796387,-2.9959207,10.340491,10.400466,-4.815566,-10.062528,1.8736594
6.288431167602539,-2.9959207,10.340491,10.400466,-4.815566,-10.062528,1.8736594
6.3084540367126465,-4.77685,14.686185,16.4943,-1.7836825,-15.341675,-1.1992834
6.328510284423828,-0.13441816,15.035519,8.297456,-0.38635227,-10.064976,0.4802739
6.348638534545898,-0.61034656,8.076319,8.900757,-2.0984268,-7.8375626,-1.4674773
6.368726015090942,2.7491992,12.070889,-0.16175735,-2.9407308,-5.3838906,0.86716914
6.388795375823975,9.425712,21.684893,-4.1567583,-5.53539,-9.582049,-6.9252176
6.40887975692749,12.77946,22.055546,-5.3657026,-4.8979363,-8.987337,-5.589014
6.429198741912842,12.77946,22.055546,-5.3657026,-4.8979363,-8.987337,-5.589014
6.449306488037109,11.617555,21.103643,-5.323967,-5.353671,-8.33153,-5.0125337
6.469404935836792,10.967757,20.5274,-5.488984,-5.8703847,-7.627957,-4.645667
6.489518165588379,10.487655,20.149061,-5.5930004,-6.4944577,-7.17349,-4.4113913
6.509679555892944,9.961769,20.088984,-5.5770187,-7.144726,-6.9433837,-4.2693105
6.529700517654419,9.684004,19.992647,-5.300956,-7.752686,-6.8555756,-3.9671304
6.549818277359009,9.47249,19.87714,-4.926791,-8.205654,-6.8742948,-3.6707304
6.569887399673462,9.188897,19.943733,-4.5835123,-8.44146,-6.985147,-3.6352625
6.589938163757324,9.188897,19.943733,-4.5835123,-8.44146,-6.985147,-3.6352625
6.6103410720825195,8.896698,20.090252,-4.341239,-8.575567,-7.117475,-3.6672971
6.630282402038574,8.679079,20.218998,-4.139716,-8.687702,-7.232665,-3.6859276
6.6503236293792725,8.510961,20.228598,-3.9191492,-8.766111,-7.324306,-3.6471422
6.6704511642456055,8.292972,20.01743,-3.629752,-8.75992,-7.389871,-3.580318
6.690497636795044,7.981233,19.632204,-3.3246443,-8.640017,-7.391025,-3.5452309
6.710603475570679,7.601064,19.088419,-3.0358965,-8.4350195,-7.3245606,-3.5206432
6.730638027191162,7.172464,18.423597,-2.7713103,-8.173431,-7.2013245,-3.4960115
6.751187562942505,7.172464,18.423597,-2.7713103,-8.173431,-7.2013245,-3.4960115
6.7713141441345215,6.7118287,17.673122,-2.5287917,-7.8744617,-7.0347075,-3.4678383
6.7914063930511475,6.231247,16.865942,-2.3055296,-7.5501394,-6.8371944,-3.4366488
6.811580657958984,5.738155,16.02227,-2.0991814,-7.208685,-6.6191287,-3.4040427
6.831615686416626,5.236568,15.154481,-1.906671,-6.855201,-6.3885474,-3.370433
6.851733922958374,4.7301474,14.26702,-1.7193815,-6.493209,-6.150268,-3.3276658
6.871788740158081,4.2115865,13.370758,-1.539043,-6.121155,-5.9127936,-3.2834482
6.891856670379639,3.669999,12.492962,-1.3779094,-5.739211,-5.683701,-3.2483895
6.911991834640503,3.669999,12.492962,-1.3779094,-5.739211,-5.683701,-3.2483895
6.932119131088257,3.1098642,11.637578,-1.2176144,-5.357473,-5.4508724,-3.1957293
6.952353000640869,2.5208828,10.790056,-1.056262,-4.9779034,-5.220132,-3.105131
6.972380876541138,1.6811177,9.626149,-0.7964296,-4.5609636,-4.9845557,-2.6153052
6.992408275604248,1.290497,8.281247,-0.118065,-4.4551654,-4.8716474,-1.9331224
7.012523889541626,1.4571528,5.0185385,3.1866412,-2.781405,-5.2533784,0.11347586
7.032625198364258,1.2907562,7.434331,5.2500286,-1.5890478,-8.80587,3.3412125
7.052633762359619,-2.4137082,9.810555,9.768561,-5.1188517,-9.653645,3.1326692
7.072755336761475,-2.4137082,9.810555,9.768561,-5.1188517,-9.653645,3.1326692
7.092843294143677,-5.1209006,13.871897,16.074202,-1.6884683,-15.061455,0.0064068437
7.11292290687561,-0.84358716,14.56406,8.848103,-0.41281116,-10.291903,0.6627527
7.133028507232666,-1.8340325,8.156227,9.234838,-2.5341532,-7.546043,-2.9158723
7.153079509735107,3.626014,13.906252,0.77471995,-2.0230722,-5.543965,-0.8601397
7.173158884048462,8.731477,18.856676,-3.4456217,-4.8362613,-7.216644,-5.6622467
7.193279266357422,11.345628,20.60503,-4.685234,-4.5698805,-8.951223,-5.3767595
7.213391304016113,11.19204,21.0223,-5.109831,-5.2704916,-8.556837,-4.9289327
7.233481168746948,11.19204,21.0223,-5.109831,-5.2704916,-8.556837,-4.9289327
7.2535765171051025,11.020085,21.174603,-5.5329657,-6.0740576,-8.06773,-4.61609
7.273669481277466,10.9643755,21.333569,-5.8007574,-7.034406,-7.706748,-4.2344246
7.2937469482421875,10.729146,21.591043,-5.758133,-7.857603,-7.5172715,-3.9060748
7.313863515853882,10.61701,21.625587,-5.4836597,-8.618385,-7.447823,-3.5305974
7.333935260772705,10.476945,21.726118,-5.1247187,-9.124971,-7.512946,-3.3552973
7.354038953781128,10.252518,21.915058,-4.8217363,-9.372357,-7.659512,-3.4161713
7.3744590282440186,9.999736,22.088743,-4.5854053,-9.512029,-7.8037734,-3.5046866
7.394526958465576,9.999736,22.088743,-4.5854053,-9.512029,-7.8037734,-3.5046866
7.414650201797485,9.763891,22.206482,-4.384243,-9.600474,-7.921701,-3.5841308
7.434736728668213,9.546124,22.21528,-4.1803436,-9.629333,-7.9969993,-3.6089447
7.454814672470093,9.304815,21.981552,-3.9122214,-9.578503,-8.028368,-3.5738833
7.474903106689453,8.981051,21.563,-3.6171272,-9.436104,-8.003108,-3.5595105
7.494985818862915,8.582711,20.973274,-3.322962,-9.209305,-7.9185,-3.5447223
7.515300989151001,8.127618,20.247078,-3.0443137,-8.918837,-7.777647,-3.5265787
7.535368204116821,8.127618,20.247078,-3.0443137,-8.918837,-7.777647,-3.5265787
7.555724620819092,7.6342607,19.423662,-2.7853985,-8.587242,-7.5910883,-3.5038977
7.57564115524292,7.1181874,18.538092,-2.5467257,-8.231601,-7.370292,-3.4771423
7.595722436904907,6.5908437,17.618397,-2.3275402,-7.8623514,-7.125755,-3.4469821
7.61580491065979,6.060649,16.683506,-2.124564,-7.4852233,-6.8683696,-3.4144366
7.636050701141357,5.5310497,15.743453,-1.9351294,-7.1040335,-6.604879,-3.3805392
7.656220197677612,5.003426,14.801409,-1.7547245,-6.7209263,-6.339743,-3.3429008
7.676226377487183,4.4753265,13.8575115,-1.5761577,-6.3354707,-6.0771213,-3.2953928
7.696342468261719,4.4753265,13.8575115,-1.5761577,-6.3354707,-6.0771213,-3.2953928
7.7164130210876465,3.9298828,12.933512,-1.4112523,-5.942362,-5.8276706,-3.2562664
7.736527681350708,3.3642743,12.043053,-1.2553394,-5.5478354,-5.584144,-3.2124577
7.756587028503418,2.7832904,11.182917,-1.0973964,-5.15571,-5.340176,-3.1536667
7.776668548583984,1.9866271,10.07225,-0.868213,-4.745712,-5.1005893,-2.7340572
7.796756267547607,1.2180018,8.8043995,-0.3533777,-4.469628,-4.810225,-1.9768419
7.816925048828125,0.6171072,6.081217,2.081382,-3.6640022,-4.774219,0.12119442
7.83696174621582,1.490886,6.646283,5.0535774,-0.9472259,-8.725475,2.782505
7.8570685386657715,1.490886,6.646283,5.0535774,-0.9472259,-8.725475,2.782505
7.877167463302612,-1.8391502,10.009181,9.426877,-6.1612234,-9.123153,3.2801323
7.897228956222534,-4.988827,13.708016,15.075208,-1.693559,-14.435068,-0.63013965
7.917330265045166,-0.45948556,14.372124,8.618561,-0.6569591,-10.1801815,0.98071414
7.937397241592407,-1.1694922,7.9962244,9.373616,-2.299584,-8.117949,-2.003744
7.957658529281616,3.045058,12.279158,0.71222067,-2.3999505,-5.4384446,0.15202254
7.9776387214660645,8.153909,18.159454,-3.4937158,-4.886218,-7.155458,-5.918791
7.997731447219849,11.022608,19.37537,-4.4799957,-4.296785,-8.446161,-5.3124256
8.017860174179077,11.022608,19.37537,-4.4799957,-4.296785,-8.446161,-5.3124256
8.03806447982788,10.488969,19.270395,-4.66457,-4.7565966,-7.929272,-4.923555
8.058085918426514,10.054112,19.184952,-4.940447,-5.333553,-7.3927226,-4.664426
8.078176498413086,9.763375,19.118858,-5.2510204,-6.0150595,-6.9964266,-4.439816
8.098290920257568,9.434931,19.248411,-5.38957,-6.7778177,-6.804327,-4.2443547
8.118392705917358,9.234628,19.41623,-5.214137,-7.4703255,-6.751928,-3.9607599
8.138476610183716,9.166553,19.510399,-4.8921204,-8.047935,-6.799574,-3.6410782
8.158520698547363,9.012056,19.721783,-4.5595627,-8.368151,-6.9426513,-3.5723178
8.178638219833374,9.012056,19.721783,-4.5595627,-8.368151,-6.9426513,-3.5723178
8.19871473312378,8.800345,19.976555,-4.3274364,-8.54718,-7.101807,-3.59708
8.218837976455688,8.63861,20.185352,-4.134946,-8.69141,-7.2378497,-3.623501
8.238966941833496,8.510912,20.26067,-3.9248044,-8.790431,-7.3443913,-3.5967596
8.259018898010254,8.320976,20.093725,-3.6432748,-8.79789,-7.421909,-3.5417867
8.279303789138794,8.027526,19.738743,-3.3425105,-8.687889,-7.432636,-3.517009
8.29924464225769,7.659043,19.21438,-3.055635,-8.488651,-7.372067,-3.5006464
8.319336652755737,7.2377553,18.56032,-2.7915585,-8.230175,-7.2519917,-3.4817786
8.339407682418823,7.2377553,18.56032,-2.7915585,-8.230175,-7.2519917,-3.4817786
8.3595130443573,6.781199,17.814524,-2.5492256,-7.93286,-7.086062,-3.4576194
8.37960171699524,6.302862,17.008572,-2.3258562,-7.6092224,-6.8878813,-3.4293032
8.399709463119507,5.811094,16.16436,-2.119231,-7.2679424,-6.668362,-3.3987942
8.419790029525757,5.3104553,15.295477,-1.9266849,-6.9144526,-6.4358964,-3.3671145
8.439868450164795,4.8048086,14.407246,-1.7405982,-6.552494,-6.1956124,-3.3274782
8.459968328475952,4.2891426,13.508302,-1.5596309,-6.181354,-5.95486,-3.2831604
8.479986906051636,3.750817,12.625083,-1.3965943,-5.7995796,-5.7235894,-3.248449
8.500730276107788,3.750817,12.625083,-1.3965943,-5.7995796,-5.7235894,-3.248449
8.520835638046265,3.1935146,11.765434,-1.23735,-5.417137,-5.490446,-3.1997883
8.540958404541016,2.6197925,10.933231,-1.0790842,-5.035309,-5.255585,-3.139033
8.561222553253174,1.7934536,9.788629,-0.83053607,-4.6260138,-5.0227265,-2.6627233
8.581214189529419,1.2470207,8.4384,-0.20387626,-4.462776,-4.827792,-1.9074864
8.601271152496338,1.1263207,5.4401965,2.6616633,-3.2203207,-4.9644227,0.14896518
8.621382236480713,1.6945512,6.9201326,5.1073914,-1.2040024,-9.038618,3.1298013
8.641563177108765,-2.2459862,10.1545105,9.762853,-5.86368,-9.530001,2.8474884
8.661642074584961,-2.2459862,10.1545105,9.762853,-5.86368,-9.530001,2.8474884
8.681765079498291,-2.2459862,10.1545105,9.762853,-5.86368,-9.530001,2.8474884
8.703093528747559,-5.0646625,14.452435,16.133852,-1.9631804,-15.014332,-0.6397802
8.723151922225952,-0.79073215,14.722224,8.910485,-0.08749847,-10.598057,0.85506123
8.743231058120728,-1.5340502,8.373559,9.386945,-2.8328576,-7.430751,-2.3758373
8.76333212852478,3.1090193,13.042683,0.9463298,-1.8484489,-5.7895875,-0.09588736
8.783511400222778,3.1090193,13.042683,0.9463298,-1.8484489,-5.7895875,-0.09588736
8.803550243377686,7.8137903,18.587526,-3.2720306,-5.263631,-6.7227798,-5.3525543
8.823639154434204,11.293099,20.349777,-4.6846533,-4.466904,-8.831919,-5.3558865
8.843708753585815,11.013158,20.567554,-4.979415,-5.044888,-8.411427,-4.8968287
8.863804817199707,10.752961,20.633236,-5.3677483,-5.7540207,-7.8854628,-4.6037965
8.883936882019043,10.597439,20.65465,-5.661207,-6.617007,-7.507442,-4.3312154
8.90401315689087,10.309934,20.83897,-5.6749077,-7.422151,-7.298099,-4.0535736
8.924451351165771,10.309934,20.83897,-5.6749077,-7.422151,-7.298099,-4.0535736
8.94452691078186,10.144553,20.899693,-5.4329605,-8.159138,-7.221691,-3.7176135
8.964659214019775,10.036321,20.946741,-5.081911,-8.715601,-7.26268,-3.4427054
8.98477292060852,9.831097,21.12291,-4.756366,-8.998796,-7.398096,-3.444543
9.004844903945923,9.584008,21.319828,-4.5172253,-9.150322,-7.5454226,-3.5174458
9.02493929862976,9.374597,21.466963,-4.3149414,-9.261915,-7.6673636,-3.579465
9.045035123825073,9.188087,21.512627,-4.1128864,-9.320478,-7.7526517,-3.59458
9.065152406692505,8.968851,21.321554,-3.8454301,-9.297037,-7.8025074,-3.5578005
9.085254669189453,8.968851,21.321554,-3.8454301,-9.297037,-7.8025074,-3.5578005
9.105333805084229,8.662384,20.941742,-3.5479543,-9.175224,-7.796474,-3.541007
9.125406503677368,8.281335,20.38866,-3.254111,-8.9653,-7.726277,-3.5264933
9.145525455474854,7.8429623,19.69805,-2.9779992,-8.690973,-7.5980887,-3.5090728
9.165604591369629,7.365854,18.908926,-2.7225485,-8.375232,-7.4228587,-3.4869401
9.18582558631897,6.865083,18.056337,-2.4879148,-8.034301,-7.212153,-3.4604495
9.20593523979187,6.352464,17.167309,-2.271509,-7.677273,-6.9783883,-3.4303534
9.226059675216675,6.352464,17.167309,-2.271509,-7.677273,-6.9783883,-3.4303534
9.246153354644775,5.834538,16.258999,-2.0709426,-7.3102903,-6.731176,-3.398467
9.266236066818237,5.3146834,15.340435,-1.8830612,-6.9373245,-6.4768434,-3.36486
9.286315679550171,4.7944856,14.413954,-1.700923,-6.560442,-6.2196727,-3.3235967
9.306417465209961,4.267295,13.486393,-1.5233028,-6.1778183,-5.9664493,-3.2777088
9.326780319213867,3.7169704,12.584866,-1.3636646,-5.7863016,-5.725989,-3.2424955
9.34666919708252,3.1488602,11.71173,-1.2049582,-5.396209,-5.485118,-3.190736
9.367023706436157,2.544403,10.83526,-1.0425103,-5.0095487,-5.249856,-3.0847645
9.387343883514404,1.6958617,9.656422,-0.7807066,-4.582379,-5.0049605,-2.5946436
9.407452821731567,1.6958617,9.656422,-0.7807066,-4.582379,-5.0049605,-2.5946436
9.42756986618042,1.2802098,8.292522,-0.07262498,-4.4655895,-4.871782,-1.8880615
9.447670936584473,1.4243853,5.011666,3.2415004,-2.8025064,-5.243045,0.15341419
9.478574991226196,1.4113066,7.5579023,5.2470865,-1.5987003,-8.999154,3.5254822
9.521812200546265,1.4113066,7.5579023,5.2470865,-1.5987003,-8.999154,3.5254822
9.542185068130493,-2.6552966,9.954948,10.07048,-4.9806395,-9.800911,2.723964
9.56208872795105,-4.8699865,14.653025,16.745049,-1.842242,-15.53314,-0.88693744
9.582313060760498,-0.35021475,15.077416,8.530391,-0.14465493,-10.251557,0.39635414
9.602471828460693,-0.35021475,15.077416,8.530391,-0.14465493,-10.251557,0.39635414
9.622526407241821,-1.0154333,8.068735,9.244727,-2.2341952,-7.5210123,-2.2587943
9.642640590667725,3.287708,12.98612,0.01543951,-2.70848,-5.237946,-0.349612
9.662701845169067,9.671849,20.621283,-4.211116,-5.0625706,-8.598915,-6.1157165
9.682793855667114,12.051007,21.342817,-5.131695,-4.8449726,-8.831673,-5.4922204
9.702909708023071,11.379044,20.924038,-5.23734,-5.3868074,-8.289956,-4.952709
9.72299075126648,11.379044,20.924038,-5.23734,-5.3868074,-8.289956,-4.952709
9.743074178695679,10.927845,20.625917,-5.5167933,-6.008931,-7.686811,-4.622436
9.76319146156311,10.603544,20.493204,-5.6922455,-6.7889214,-7.3065147,-4.363021
9.7832612991333,10.2283535,20.596018,-5.6198387,-7.4970307,-7.110793,-4.1141534
9.803369283676147,10.026215,20.537142,-5.324335,-8.142909,-7.0516295,-3.7669852
9.823442220687866,9.821958,20.52327,-4.949692,-8.572567,-7.1034193,-3.5542033
9.843865394592285,9.541669,20.639624,-4.629204,-8.786533,-7.2312045,-3.5671992
9.86374020576477,9.262364,20.79134,-4.394203,-8.915303,-7.3658824,-3.6171622
9.88416051864624,9.262364,20.79134,-4.394203,-8.915303,-7.3658824,-3.6171622
9.904270887374878,9.046182,20.909887,-4.1961117,-9.01667,-7.4775157,-3.649065
9.924412965774536,8.862581,20.904985,-3.9794514,-9.071791,-7.560262,-3.6244588
9.944435834884644,8.626232,20.669907,-3.6949956,-9.039915,-7.611648,-3.5717046
9.964557409286499,8.300647,20.25875,-3.3935006,-8.902437,-7.599705,-3.5464263
9.984647750854492,7.9079432,19.685534,-3.1052663,-8.682374,-7.5217214,-3.525501
10.00471305847168,7.4655776,18.989311,-2.838475,-8.405642,-7.388095,-3.503078
10.024803876876831,6.990521,18.206955,-2.5934746,-8.093281,-7.2105756,-3.477042
10.04581093788147,6.990521,18.206955,-2.5934746,-8.093281,-7.2105756,-3.477042
10.065959453582764,6.496487,17.369947,-2.367927,-7.757437,-7.002061,-3.4473078
10.086257219314575,5.992114,16.500109,-2.1594398,-7.4062157,-6.773536,-3.4153843
10.106199264526367,5.481807,15.610891,-1.9656065,-7.0449,-6.533195,-3.3825786
10.126274585723877,4.9687138,14.708036,-1.7809052,-6.6770196,-6.286348,-3.345154
10.146352529525757,4.4510374,13.794642,-1.5990772,-6.3029084,-6.0381866,-3.298855
10.166457891464233,3.9140835,12.893055,-1.4318318,-5.9187126,-5.7996974,-3.2608497
10.18649935722351,3.3573725,12.018402,-1.2748816,-5.5320077,-5.5643516,-3.2183125
10.206605911254883,3.3573725,12.018402,-1.2748816,-5.5320077,-5.5643516,-3.2183125
10.226685285568237,2.783284,11.170263,-1.1146364,-5.1463194,-5.326224,-3.1574478
10.247059106826782,2.0157237,10.1015835,-0.8936741,-4.745089,-5.093658,-2.7795966
10.267001152038574,1.233154,8.870517,-0.42591065,-4.445721,-4.8169723,-2.068663
10.287288188934326,0.6408491,6.2616863,1.8264635,-3.7774978,-4.753349,-0.025823534
10.307272911071777,1.6100047,6.0661983,4.9293594,-0.6888161,-8.480271,2.3244517
10.327356815338135,-1.124325,9.714478,8.01547,-6.788266,-8.261298,4.3938103
10.347418069839478,-3.6373904,11.848769,12.172316,-1.5736464,-12.818834,0.1102522
10.368961334228516,-3.6373904,11.848769,12.172316,-1.5736464,-12.818834,0.1102522
10.38906717300415,-0.85665274,14.571145,9.003461,-1.1406817,-10.396992,0.9769663
10.40912938117981,-2.6861756,8.827563,9.99389,-2.1559973,-8.507151,-3.0068755
10.429223775863647,3.113479,14.762514,3.0678866,-1.3657123,-6.678489,-0.8590334
10.449338674545288,4.2112746,10.375813,1.5439129,-4.357564,-5.017737,-3.0261943
10.469402313232422,6.3068066,10.422887,-1.905482,-2.716569,-5.9165425,-5.115451
10.489604711532593,7.3814473,16.444065,-4.0578737,-3.478627,-7.2589903,-4.98122
10.509825706481934,7.3814473,16.444065,-4.0578737,-3.478627,-7.2589903,-4.98122
10.529935359954834,8.997106,19.257998,-4.7766457,-4.57507,-7.918829,-5.0167494
10.550047874450684,9.863463,20.819027,-5.6201735,-5.850776,-7.9889255,-4.889083
10.570100545883179,10.396544,21.902409,-6.034135,-7.285431,-8.02721,-4.368583
10.590159177780151,10.702429,22.770634,-5.980645,-8.466631,-8.02142,-3.7854135
10.610510110855103,11.002809,23.355507,-5.7212086,-9.480408,-8.080456,-3.328046
10.630524396896362,11.17576,23.87711,-5.3847218,-10.102617,-8.3118305,-3.2374547
10.650801181793213,11.153672,24.303444,-5.1080666,-10.398005,-8.54328,-3.348118
10.670722246170044,11.153672,24.303444,-5.1080666,-10.398005,-8.54328,-3.348118
10.690813064575195,10.986484,24.532843,-4.8751564,-10.542593,-8.7106495,-3.4797904
10.710897207260132,10.772452,24.607172,-4.6634398,-10.58815,-8.803825,-3.584418
10.73097562789917,10.550053,24.539942,-4.4572525,-10.564431,-8.823899,-3.6349123
10.751317977905273,10.305903,24.240501,-4.2037554,-10.475272,-8.79516,-3.6279833
10.771403312683105,9.982693,23.729095,-3.9106748,-10.293985,-8.717201,-3.6077075
10.79151177406311,9.563934,23.039536,-3.6070516,-10.028902,-8.591011,-3.595132
10.811586141586304,9.075099,22.201859,-3.312486,-9.695829,-8.411222,-3.5784862
10.832038164138794,9.075099,22.201859,-3.312486,-9.695829,-8.411222,-3.5784862
10.85214638710022,8.540175,21.261456,-3.0356345,-9.3187275,-8.186182,-3.5556338
10.872227430343628,7.9791274,20.258068,-2.7778754,-8.9161215,-7.9284678,-3.5274682
10.892659187316895,7.4063926,19.22324,-2.5394661,-8.501467,-7.6493115,-3.4961817
10.912589311599731,6.8314385,18.179726,-2.3205712,-8.083799,-7.3563886,-3.462551
10.932650327682495,6.2612834,17.142574,-2.1189501,-7.668246,-7.057383,-3.4268599
10.952715635299683,5.700419,16.11936,-1.9302247,-7.2568026,-6.7590365,-3.389067
10.97321605682373,5.700419,16.11936,-1.9302247,-7.2568026,-6.7590365,-3.389067
10.993324279785156,5.1482787,15.110961,-1.7512324,-6.849833,-6.4648952,-3.3491342
11.013493299484253,4.602137,14.113712,-1.5740011,-6.446104,-6.177642,-3.2992785
11.033531188964844,4.046176,13.144563,-1.4071498,-6.0398006,-5.906402,-3.254526
11.053946256637573,3.467608,12.220996,-1.2527069,-5.631296,-5.6500773,-3.21259
11.07404637336731,2.8760111,11.333803,-1.0964987,-5.2279444,-5.3964677,-3.1566613
11.09411907196045,2.0906808,10.226812,-0.8770602,-4.8117414,-5.1503906,-2.7697694
11.114487171173096,1.2094269,9.029928,-0.39417028,-4.451954,-4.857306,-2.0040956
11.134424686431885,1.2094269,9.029928,-0.39417028,-4.451954,-4.857306,-2.0040956
11.154518127441406,0.81411,6.5335064,1.8709893,-3.8579297,-4.8998966,-0.233747
11.174598455429077,1.780499,5.7728677,4.8150835,-0.61947036,-8.332803,2.0792649
11.194736003875732,-0.66135263,9.284639,6.672014,-6.9666157,-7.5600877,5.287189
11.21485710144043,-2.4968557,10.570088,10.646854,-1.3475615,-11.815594,0.58320993
11.234869718551636,-0.3192909,13.395346,7.7643366,-1.9623712,-9.63106,1.5152631
11.25494384765625,-2.1877182,8.618456,9.737246,-1.789914,-8.641902,-2.779003
11.275040864944458,3.203817,14.261289,2.5734086,-1.9035879,-6.084224,-1.0625083
11.295146226882935,3.203817,14.261289,2.5734086,-1.9035879,-6.084224,-1.0625083
11.315290689468384,5.973478,12.435072,-0.4983878,-4.5066967,-4.9552617,-4.99685
11.335352897644043,8.792874,15.88117,-3.5831106,-3.5277495,-7.6394076,-5.3698974
11.355490446090698,8.995396,17.890839,-4.2702837,-3.948048,-7.6133604,-5.3772917
11.375486612319946,9.281676,18.83736,-4.8184853,-4.8574696,-7.4683385,-5.1506557
11.395566940307617,9.568692,19.42568,-5.373708,-5.8469563,-7.1983895,-4.7725806
11.415714263916016,9.630786,19.954185,-5.6865606,-6.901681,-7.1230087,-4.436749
11.435753583908081,9.65985,20.480614,-5.5635815,-7.8095503,-7.1309543,-4.0203333
11.456202030181885,9.778771,20.796059,-5.2385044,-8.558495,-7.2157044,-3.6127465
11.476279973983765,9.778771,20.796059,-5.2385044,-8.558495,-7.2157044,-3.6127465
11.4965500831604,9.74736,21.124657,-4.8695793,-8.969016,-7.3994813,-3.507891
11.51651382446289,9.588386,21.435772,-4.6126366,-9.17114,-7.5868735,-3.5507188
11.536818504333496,9.432477,21.647549,-4.4002237,-9.316021,-7.7323794,-3.6046994
11.55696177482605,9.284261,21.747787,-4.199602,-9.401708,-7.8291965,-3.6219223
11.577083587646484,9.099994,21.631594,-3.9486845,-9.402407,-7.885795,-3.5871794
11.597136735916138,8.828837,21.296886,-3.6546752,-9.305641,-7.892099,-3.5618074
11.61767864227295,8.828837,21.296886,-3.6546752,-9.305641,-7.892099,-3.5618074
11.63779616355896,8.4712305,20.776104,-3.3569558,-9.112987,-7.8330407,-3.545298
11.657899856567383,8.046767,20.103859,-3.074279,-8.848444,-7.7132716,-3.5269608
11.67804479598999,7.576511,19.321497,-2.8114126,-8.536446,-7.5432277,-3.5041034
11.698269605636597,7.576511,19.321497,-2.8114126,-8.536446,-7.5432277,-3.5041034
11.71841812133789,7.0776005,18.46666,-2.5691557,-8.195213,-7.3348813,-3.4768574
11.738531351089478,6.5630126,17.569258,-2.3463447,-7.836275,-7.0999055,-3.4459386
11.758713006973267,6.0419545,16.649843,-2.139909,-7.4666166,-6.849589,-3.4127192
11.778698205947876,5.518572,15.720116,-1.9473617,-7.090706,-6.5912127,-3.3783767
11.798775911331177,4.995112,14.784352,-1.7638125,-6.7112207,-6.329469,-3.3399274
11.818866491317749,4.4693227,13.844792,-1.5827148,-6.327918,-6.068892,-3.2922735
