liuyurong129/humanoid-gym/humanoid/data/robot1_actual_20250621-221030.csv
timestamp,joint_1,joint_2,joint_3,joint_4,joint_5,joint_6
0.00034928321838378906,0.0,0.0,0.0,0.0,0.0,0.0
0.020323991775512695,0.0,0.0,0.0,0.0,0.0,0.0
0.04049277305603027,0.0,0.0,0.0,0.0,0.0,0.0
0.06053805351257324,0.0,0.0,0.0,0.0,0.0,0.0
0.08065319061279297,0.0,0.0,0.0,0.0,0.0,0.0
0.10071182250976562,0.0,0.0,0.0,0.0,0.0,0.0
0.1208655834197998,-0.27464955566898847,-0.028218115781866185,-0.016529999999999996,-0.015822447435396923,-0.06548580241232918,0.18032753526077705
0.1409454345703125,-0.2745231805175605,-0.008396304316263849,0.2991229988229455,-0.06122722962171258,-0.23293722356300822,-0.13860510725559422
0.1610407829284668,-0.037968505603421826,0.02549899740546582,0.8388896837919497,0.04869546057459667,-0.5192791252558233,-0.5264374475646441
0.18116307258605957,0.3663454807589151,0.052954181595554164,1.2761009749091003,-0.0035131889089114465,-0.7512161244471776,-0.6341841029777495
0.2012021541595459,0.6594979827838306,0.07519300022454345,1.630242301711341,0.0018267185314619072,-0.9390847671546584,-0.8027211443159706
0.22203826904296875,0.7682062466642021,0.0846736529646942,1.7812215436752976,0.1588460759065262,-1.019176488136251,-0.9406134814190452
0.24224233627319336,0.8795890649648285,0.10088455752728867,2.039439960568871,0.2936059612185544,-1.156136469420444,-1.3336467245309476
0.26227450370788574,1.1095661442010052,0.1139930230854888,1.761910701368503,-0.036020153134848965,-1.2671350951682836,-1.3459342337662055
0.2823829650878906,1.2958480863455066,0.12463366881572323,1.4106419820657679,-0.2481181349034,-1.3569814802230074,-1.6619333476732108
0.302443265914917,1.375263243069857,0.12916986468185754,1.2608777838591911,-0.42385335988054096,-1.3952844857846538,-1.7966410243826907
0.3225264549255371,1.511063144039961,0.13692686263005358,1.004781004925945,-0.7604313889992077,-1.460781760172145,-2.026990688060167
0.3426499366760254,1.6210610867800113,0.14321022025677557,0.7973426139900154,-1.1070379607983376,-1.5138333885052222,-2.2135730919796925
0.36281371116638184,1.710159438517834,0.14829951110529185,0.6293175173319124,-1.4218198948350804,-1.556803822745636,-2.364704551941546
0.384080171585083,1.7481434935585922,0.1504694332179192,0.5576857655987212,-1.5544392176261181,-1.5751229420829485,-2.4291341193196327
0.4042782783508301,1.813096236637671,0.15417984221548983,0.4351954701349642,-1.7672595442759278,-1.606446800937249,-2.5393086525982156
0.42439723014831543,1.8657079623562658,0.15718524348605245,0.335978330809321,-1.8745775602758052,-1.6318172140347948,-2.6285498872426545
0.4445967674255371,1.908323453094164,0.159619808347692,0.25561244795555,-2.0063702741786176,-1.6523685206755383,-2.7008352342315454
0.4645402431488037,1.9264911082339273,0.1606578012599587,0.22135120315999499,-2.0869549814607535,-1.6611310594743587,-2.731651668893624
0.4846231937408447,1.9575577859495514,0.1624325145692216,0.16276447455959595,-2.1962792826660036,-1.6761130493546317,-2.784347388672001
0.5047237873077393,1.896345036421371,0.16387033970382928,0.11530922439327272,-2.2894406238411427,-1.6882516507595637,-2.8270314082817016
0.5247931480407715,1.8554003638002614,0.1650347565008333,0.07687047175855091,-2.3228453425993,-1.6980824796169882,-2.8019602600408655
0.5459651947021484,1.8788603234142687,0.16553125206043307,0.060483424582695816,-2.304270858588299,-1.7022744519446438,-2.76301952312203
0.5660743713378906,1.4159009284164341,0.16638029327838183,0.032461573911983614,-2.4288598409173323,-1.7094424460596866,-2.725221721576483
0.5861563682556152,1.3704492818516771,0.16706780953308847,0.622893874868707,-1.9217392344085984,-1.715246890321647,-2.680940763853708
0.6063046455383301,1.5071638871472925,0.16762457140727627,1.1011436124162113,-1.4784251539176418,-1.7199499241782754,-2.46533391298784
0.6265730857849121,1.4834961273468505,0.1680759655763072,1.3382267621998447,-1.75992437467329,-1.7237594350190146,-1.632000579654507
0.6466872692108154,1.4570580164413085,0.16826834227258228,1.4698580186686472,-1.879931937205961,-1.7253835087259584,-1.2153339129878402
0.6667735576629639,1.2794030392697113,0.1685973607834383,1.7434946394024073,-2.0364964440345945,-1.7281606453325473,-0.5924616499257397
0.6868190765380859,1.0582089452280077,0.168874034718111,2.00883065791595,-2.1495753126440023,-1.7303914628529147,-0.043861976818656
0.7069220542907715,0.9837613736561439,0.16900130511843578,2.121947592124355,-2.2120087969114155,-1.7313303996482856,0.26141687902089356
0.7270064353942871,0.6500656085695441,0.16939200983467742,2.2697079423628845,-2.2464917055575673,-1.732760159615533,0.5433725763258509
0.7471115589141846,0.5299015523391788,0.16949573867818596,2.4352817968766836,-2.1654786772801056,-1.7341433236199146,0.8491706994891295
0.7671692371368408,0.7557199876895125,0.16958707091273656,2.0353325829805593,-2.316437728596885,-1.7352146731400697,1.2592567325005564
0.7872583866119385,0.8891501052143072,0.16962852448579058,1.8231841462087217,-2.3807939557371967,-1.7356919601627319,0.8425900658338896
0.8073484897613525,1.117311645089103,0.1696994960921264,1.4602511787764552,-2.490841952975294,-1.7365095096738448,0.11078745050969718
0.827406644821167,1.3021224870211394,0.1697557411570537,1.1662734548089289,-2.57998540035289,-1.7371749678546657,-0.48197171966859975
0.8475601673126221,1.380910262354569,0.16977984673025462,1.0409461093280359,-2.6179885028757663,-1.737458322751563,-0.7346744036499797
0.8677024841308594,1.515637353112887,0.16982115202412376,0.826636348555709,-2.644930056367973,-1.7379425136830664,-1.1667960605928516
0.887814998626709,1.6247662964926664,0.1698545825704591,0.6530454423301243,-2.5752463200192195,-1.7383344806332504,-1.5168146336294026
0.907921314239502,1.713160724856828,0.1698818057454576,0.5124368082874007,-2.5288884630881356,-1.7386514232469772,-1.8003297563900063
0.9279758930206299,1.7847602006298944,0.16990385222049378,0.39854381471279454,-2.6108031304305386,-1.7389078497754045,-2.029976973155654
0.9481165409088135,1.8152841816329306,0.1699133438235792,0.3499894332415151,-2.645724004781754,-1.7390170803259413,-2.1278792084989284
0.9681546688079834,1.8674801821018392,0.16992947203337597,0.26696144092562724,-2.705440180629621,-1.7392037929002269,-2.2952918775540225
0.9882261753082275,1.9097589350756674,0.16994249628325578,0.19970876714975808,-2.7538112976851252,-1.7393549234589631,-2.4308959900950766
1.0082874298095703,1.944004725485993,0.16995318199088597,0.14523410139130405,-2.792990636391387,-1.7394773675525061,-2.5407353938288737
1.0292143821716309,1.9586042473271223,0.1699577691514794,0.12201069125217365,-2.8096930857625204,-1.7395295779629265,-2.587561688467219
1.0492560863494873,1.8897128185532757,0.16996563341790102,0.08229865991426066,-2.793827044523084,-1.73961890731862,-2.6676346640218513
1.0693349838256836,1.7915963318081347,0.16997200435481707,0.05013191453055113,-2.740773153036704,-1.7396912075573032,-2.7324937330713355
1.0894312858581543,1.5740218530844179,0.16997722353476052,0.02407685076974641,-2.628629323461186,-1.7397501828417365,-2.785029793178911
1.109487533569336,1.3360540903084175,0.16998158089417403,0.20873156821910616,-2.405359852232483,-1.7397976510253335,-2.827584135437521
1.1295793056488037,0.9854456189612484,0.1699833719120879,0.5018584113971956,-2.423563269764729,-1.7398177924509064,-2.845725679320551
1.1497838497161865,0.8119082052466513,0.16998658671372996,1.0031053132317285,-2.397064335754484,-1.7398526326900943,-2.4453864716630336
1.169790267944336,0.613899440517785,0.16998985911202102,1.4091153037177,-2.3424076758372023,-1.739878799301456,-1.963914772810825
1.189915657043457,0.3206633306730014,0.16999121775024348,1.58220377334593,-2.3279523194833875,-1.7398900205956767,-1.9055902485528167
1.2099854946136475,0.45256283922331125,0.16999291758053503,1.8781899011224152,-2.2438502210590707,-1.739910761216923,-1.4755811158803827
1.2301113605499268,-0.23001323531514672,0.1699952507183146,2.1183325775834136,-2.2838566388242354,-1.7399215840199456,-1.7669713610023297
1.250220775604248,0.21080710208879092,0.16999691736178812,2.313421298331785,-2.1605976805386797,-1.739926413305214,-1.5635145988624122
1.2703170776367188,0.19550051927843248,0.1699973597209826,2.354412963811591,-2.240537912484812,-1.7399210970325745,-1.708158039344848
1.2903516292572021,0.37255154688362646,0.1699965452765415,2.3322066024718042,-2.222649552744442,-1.7399228326095435,-1.9554080028465142
1.3103952407836914,0.5019422182242609,0.1699981319063215,2.0456275164236994,-2.029849205454855,-1.7399123272077694,-2.155780671320583
1.3305988311767578,0.4637752435577344,0.16999819740586963,1.8323190780852054,-1.9290948933726568,-1.7399214921484274,-2.2410992482599035
1.3506767749786377,0.7727577136217292,0.1699984930699065,1.4676392097910183,-2.1151026264187176,-1.7399364879804917,-2.3869996124185993
1.370786428451538,1.023033686098675,0.16999966291463317,1.172257759930725,-2.2756303143462375,-1.739946274367602,-2.5051799030935156
1.3908360004425049,1.2257572963511094,0.16999963745253296,0.9329987855438872,-2.4056612329513025,-1.7399566577193897,-2.6009057218320004
1.4109280109405518,1.3121816136294506,0.16999917956966712,0.8309989069894984,-2.461097896720695,-1.7399620963018625,-2.6417150901779562
1.4310691356658936,1.4599671470184568,0.16999886988623045,0.6565791146614937,-2.55589232311109,-1.7399701616183199,-2.6851218733440634
1.451080560684204,1.579673415263701,0.16999865344909412,0.5152990828758099,-2.6326761159187617,-1.739976368436672,-2.6778836517832696
1.471527338027954,1.6307060862281644,0.1699984460872611,0.45506917458822893,-2.6654115070891407,-1.7399790015634713,-2.6659597488227544
1.4919648170471191,1.7179719354633485,0.16999838986861115,0.35207603141646543,-2.721386766133867,-1.7399831499317147,-2.6627842008909135
1.5118434429168701,1.7886572661648483,0.169998524040614,0.268651585447337,-2.766725236381319,-1.739986365613115,-2.7048970559484977
1.5319304466247559,1.845912374305625,0.16999841354180667,0.20107778421234299,-2.8034525766498684,-1.7399888857990888,-2.762676142703068
1.5520029067993164,1.8922890122584988,0.1699984641570427,0.1463430052119978,-2.8332003397938426,-1.739990902198539,-2.809477287028697
1.5723767280578613,1.9120601059287938,0.1699985203062892,0.12300870469079803,-2.8458819025196735,-1.7399917666640483,-2.829429382609792
1.5922958850860596,1.945868677436019,0.16999865973164394,0.0831070507995464,-2.8675668595575834,-1.7399932560836084,-2.863547509823753
1.6125397682189941,1.973253621904386,0.16999881110961249,0.050786711147632585,-2.885131180184744,-1.7399944758740704,-2.8911832386569207
1.632730484008789,1.9954354281824778,0.16999895884011618,0.02460723602958239,-2.8993579228633215,-1.7399954749578554,-2.9135682150073263
1.6531519889831543,2.0048918828394466,0.1699990288722555,0.013446512426624148,-2.905422899012678,-1.7399959044501292,-2.9231112955028506
1.6729953289031982,2.0210624070551413,0.16999897699015734,-0.005638324934434438,-2.9157981414338012,-1.7399965223321692,-2.939429425622743
1.6930766105651855,2.0341605346141614,0.16999897928088548,-0.021097043196891895,-2.92420129970053,-1.7399970484148934,-2.952647201927807
1.7132563591003418,2.0447700202518964,0.16999901391178399,-0.03361860498948244,-2.9310072274270427,-1.739997494886422,-2.9633536761833152
1.733273983001709,2.0492930122308204,0.16999903866790123,-0.03895674449053419,-2.933908498162799,-1.73999769171793,-2.967918040191166
1.7533483505249023,2.0570273296955692,0.1699990966370209,-0.048084963037332694,-2.9388693359670066,-1.7399980388158547,-2.9757231445551913
1.7734503746032715,2.0632921281105467,0.1699991600334194,-0.05547882006023948,-2.9428872467297102,-1.7399983313106155,-2.9820453258127153
1.7934918403625488,2.0683666158285923,0.16999922411296053,-0.06146784424879397,-2.946141456625258,-1.7399985772250195,-2.9871663310409753
1.8135802745819092,2.0705299503861503,0.1699992554426983,-0.06402105982391458,-2.9475286807606174,-1.7399986849393616,-2.9893495090585382
1.833702564239502,2.0742292529990576,0.16999931546816752,-0.06838705845737081,-2.949900673897184,-1.7399988738095447,-2.9930827645118065
1.8537530899047852,2.077225688678508,0.16999937102834925,-0.07192351735047035,-2.9518218121579407,-1.7399990318686396,-2.996106724738163
1.873828411102295,2.0796528020281357,0.16999942153043116,-0.07478804905388098,-2.9533777912929873,-1.7399991639475598,-2.998556151549552
1.8939692974090576,2.0806875189165295,0.1699994448216849,-0.07600924414849287,-2.954041083248364,-1.7399992215589135,-2.9996003870992185
1.9140188694000244,2.0824568855221157,0.16999949334256856,-0.07809748776027922,-2.95517505366879,-1.7399993271442278,-2.9718747634431177
1.9341387748718262,2.083890071784044,0.1699995245221712,-0.07978896508582617,-2.9560938377082606,-1.739999405465398,-2.945387782760443
1.954197645187378,2.085050955406041,0.16999958240903373,-0.0811590617195192,-2.9568370325195454,-1.7399994939719803,-2.905251615879812
1.9743545055389404,2.0855458573309225,0.1699995941539244,-0.08174315554756728,-2.9571542804371536,-1.739999521890195,-2.8696862619144174
1.994791030883789,2.0863921414450894,0.1699996358367419,-0.0827419559935295,-2.9576960938583037,-1.7399995859184323,-2.8446464458761733
2.014724016189575,2.045343206879981,0.16999970930951241,-0.08355098435475888,-2.9581336993989846,-1.7399996865059926,-2.702953756073191
2.0347936153411865,1.9018187732604703,0.1699997868864326,-0.016787541409805554,-2.9584877269391847,-1.7399997602870736,-2.5249543219380137
2.054882764816284,1.7438530687212117,0.1699997516227562,0.270959556847386,-2.9586404303653038,-1.7399997449030955,-2.2776126348667924
2.0750062465667725,1.5465570649839002,0.16999960615478585,0.7909387507509726,-2.8138877278358208,-1.740000149088822,-1.6383388059076738
2.095094919204712,1.0802761935090388,0.1700002107859833,1.2372603881082878,-2.7111341529128876,-1.7399988920413132,-1.3521247140866568
2.115126371383667,0.4064191602875391,0.1700009621069716,1.5987809143677132,-2.565075284294246,-1.7399968762443372,-1.1035242645677228
2.135220527648926,0.1749480598229817,0.17000088852648743,1.7529063943618364,-2.411227911161147,-1.739997033365501,-0.7741176445043736
2.1553103923797607,-0.19232314310368614,0.17000093326778076,2.0165225947247905,-2.515494608040529,-1.7399960007894755,-0.05533471989021843
2.175403356552124,-0.44930660146757073,0.1700009201279921,2.230249189406024,-2.4256479235055655,-1.73999307667655,0.5268637405143821
2.195469379425049,-0.7521961670817088,0.17000031032726082,2.4039023908006887,-2.393547145939441,-1.7399863759501377,0.24720263061473538
2.215555191040039,-0.4680349079267243,0.17265922896254624,2.2026776366258627,-2.4121267176713284,-1.7387376538619819,0.270964958655889
2.2356715202331543,0.018010133484777813,0.17215444515574066,1.8116313308216823,-2.4850313219435063,-1.7389658399276515,-0.03604270189905634
2.2557339668273926,0.41168905004444245,0.17174517847414406,1.450912212587313,-2.57527537077424,-1.7391617627821545,-0.6009077718217213
2.275843381881714,0.7305680862883409,0.17141435694342383,1.1587088921957236,-2.6483698259639987,-1.7393189528019202,-1.0584457254556694
2.2959237098693848,0.8665112559804969,0.1712732454517033,1.0341380029761513,-2.679531132413603,-1.7393861819638456,-1.2535013125355965
2.3160436153411865,1.098974083016484,0.17103154912199212,0.8211217824106826,-2.732818393191558,-1.739505091170036,-1.5870462325406847
2.3360955715179443,1.2872690290970739,0.17083517915295104,0.6485786437526528,-2.7759857221466993,-1.7395998664005567,-1.857217280725077
2.3561694622039795,1.4397879331051222,0.17067601338897012,0.5088187014396488,-2.8109526413885404,-1.7396765820703768,-2.0760557407078233
2.37626576423645,1.5048091427955206,0.17060828890124682,0.4492368312956839,-2.825858581086366,-1.7397090472032173,-2.1693500850733525
2.396357774734497,1.615995410008609,0.17049229963913112,0.347351833349504,-2.8513499210024484,-1.7397646072227964,-2.328883229649762
2.416594982147217,1.706056280743693,0.17039856169777073,0.2648249850130982,-2.8719959153180374,-1.7398093883453092,-2.458105198595381
2.4368577003479004,1.7790055815006935,0.17032257948029841,0.19797823786060953,-2.8887203386744416,-1.7398455977605416,-2.5627748481835977
2.4571382999420166,1.8101050186401644,0.17029016630706964,0.16948041407454859,-2.8958506883525716,-1.7398610140547623,-2.607397113571238
2.4771368503570557,1.8632850571949597,0.1702348250872274,0.12074913540038436,-2.9080425514927795,-1.7398873591611925,-2.683701275335414
2.497190237045288,1.9063608898754827,0.17019006907315487,0.08127679967431133,-2.917917039890633,-1.7399086992378543,-2.7455077314889467
2.5172839164733887,1.9412523154565842,0.17015385587824672,0.04930420773619217,-2.9259148265941257,-1.7399259929977353,-2.7955710154166686
2.5373499393463135,1.9561270814629594,0.17013842800223736,0.03567378696257296,-2.9293242527139376,-1.739933368930556,-2.8169138002252816
2.5574774742126465,1.981562931927092,0.1701120608710547,0.012365767439684098,-2.9351541360070628,-1.7399459876908334,-2.853409988014157
2.5775556564331055,2.0021659601313697,0.17009054606420543,-0.006513728373855877,-2.9398802316996733,-1.7399561066596467,-2.8829713911783164
2.5975987911224365,2.018854415101732,0.17007316091150734,-0.02180611998282326,-2.9437075947232456,-1.7399643243571024,-2.9069162183989286
2.6176910400390625,2.025968967642935,0.17006576185005787,-0.028325507984540935,-2.9453390142793916,-1.7399678346613083,-2.9171243058794207
2.637799024581909,2.038134853607846,0.17005312868365002,-0.039473661467478154,-2.9481283435453816,-1.7399738487134981,-2.9345801844290933
2.657893419265747,2.038134853607846,0.17005312868365002,-0.039473661467478154,-2.9481283435453816,-1.7399738487134981,-2.9345801844290933
2.6782262325286865,2.0479892224575686,0.17004291575609315,-0.0485036657886573,-2.9503872681924648,-1.7399787325264529,-2.9487195001292568
2.700204610824585,2.0559712622015014,0.17003465850416502,-0.055817969288812413,-2.95221665104789,-1.7399826983279039,-2.9601723899328833
2.7202835083007812,2.0624367151766045,0.17002798187866844,-0.06174255512393805,-2.953698172877948,-1.739985918526104,-2.9694492666191903
2.7403340339660645,2.0651930401187335,0.17002513922361112,-0.06426829961154425,-2.9543296788815407,-1.739987293883036,-2.973404157383489
2.7604053020477295,2.069906356184459,0.17002028421853646,-0.06858732268535084,-2.955409405768477,-1.7399896498778271,-2.9801670400916644
2.780520439147949,2.0737241426511246,0.17001635804111356,-0.07208573137513417,-2.9562838217881864,-1.739991562727523,-2.9856449966121987
2.8005263805389404,2.07681655005437,0.1700131828842319,-0.07491944241385869,-2.9569919671791873,-1.7399931157315225,-2.990082158907876
2.820842981338501,2.0781348922762204,0.17001183088031452,-0.07612749817247282,-2.957293817979004,-1.7399937789609228,-2.9919737969714473
2.8409557342529297,2.080389257670354,0.17000952158567761,-0.07819327351970298,-2.957809912304255,-1.739994914982214,-2.995208507524051
2.86108136177063,2.0448532712109664,0.17000770424264042,-0.07986655155095941,-2.9582262894440055,-1.7399958924806218,-2.9392427187668067
2.8811428546905518,1.889872172349177,0.170006213295711,-0.08122190675627712,-2.958564157186293,-1.7399966438912133,-2.74799801317305
2.9012205600738525,1.6861607808519294,0.17000518239346085,0.3613700107573655,-2.9588348616093354,-1.7399972943056534,-2.203787480230246
2.9214043617248535,1.68541052750912,0.1700043841749921,0.639233009681629,-2.76248042527308,-1.7399977198986394,-1.7871208135635792
2.9414665699005127,1.3357511302914995,0.17000418805770448,1.1143787378421195,-2.6231777558012754,-1.739996867170703,-0.9537874802302457
2.961550235748291,0.6054988399628115,0.17000407366156176,1.4992467776521168,-2.5652491240125936,-1.7399956057843127,-0.5259938152745516
2.9822115898132324,0.23094911719653644,0.17000368500998184,1.6633242711816478,-2.482802699961249,-1.7399959232188782,-0.4976305868251934
3.0023505687713623,0.02439230068703449,0.17000309043378792,1.9439133769778811,-2.134907981034087,-1.7399960694236916,-0.2087544294506497
3.022388219833374,-0.381758296853575,0.1700031046698079,2.171432433354844,-2.223629190547797,-1.7399936189731302,-0.6468833201970647
3.0424656867980957,0.08789837923302185,0.17000381457030428,2.127348360633907,-2.114130178649288,-1.739982609799073,-0.5389049577517622
3.06254243850708,0.4683209469728794,0.17000515749350814,1.7078320395648128,-2.2748454447059236,-1.7399745733476517,-1.0083106097121777
3.082627058029175,0.6304889991782807,0.1700046598884619,1.5283517476023354,-2.3433609002353313,-1.7399770288739915,-1.2083800393696307
3.102729320526123,0.9077960382978696,0.17000454100453977,1.2214349155578916,-2.460519586109154,-1.7399794083898161,-1.5504981667885671
3.1227867603302,1.1324147428519196,0.17000425664185925,0.9728322816018922,-2.555417971832715,-1.7399818193828727,-1.8276137167144273
3.1432595252990723,1.228173306088297,0.17000339323911415,0.8668490534417029,-2.595878791172941,-1.7399846747649674,-1.9457522139874577
3.163339853286743,1.3919204277254975,0.1700021069765351,0.6856177332877793,-2.665066217330878,-1.739988884109511,-2.1477691036545186
3.1834185123443604,1.524555581924823,0.17000107709100443,0.5388203639631012,-2.721108710947193,-1.739991917138377,-2.311402740218954
3.203511953353882,1.6319900331476016,0.17000043294928424,0.419914494810112,-2.7665022553412517,-1.7399938229249445,-2.4439459671567185
3.2236244678497314,1.6777910320797054,0.1700001870920635,0.3692230453291008,-2.7858541530995673,-1.739994550122115,-2.5004512225475928
3.2436933517456055,1.7561107350843006,0.16999992858704938,0.28254066671657163,-2.8189444487345017,-1.7399956452194612,-2.5970752830699984
3.263787031173706,1.8195496887341542,0.16999966490929336,0.21232794004042302,-2.8457487548014067,-1.7399964601600812,-2.675340625028672
3.2838642597198486,1.8465947143921206,0.16999953114778646,0.1823951460363807,-2.8571763242918147,-1.739996785514704,-2.7087063161829277
3.30391788482666,1.8928417092988619,0.16999939260046848,0.13121006828946838,-2.8767164551659374,-1.739997318536151,-2.765761723995132
3.324112892150879,1.9303017767636188,0.1699993543297914,0.08975015531446938,-2.8925430625476065,-1.7399977573917222,-2.811976682163848
3.3441102504730225,1.960644432830228,0.16999936734957458,0.05616762580472019,-2.9053620283856256,-1.739998123636427,-2.8494108539382434
3.3641915321350098,1.9735799866699857,0.16999938449193414,0.04185086322424817,-2.910826789023991,-1.7399982837910648,-2.865369649331076
3.3842766284942627,1.9956997844864526,0.1699994299709157,0.01736919921164102,-2.9201712788343928,-1.7399985645711689,-2.892659216218482
3.4043924808502197,2.013616808522169,0.1699992965759001,-0.002460948638570772,-2.9277444430742583,-1.7399986795832543,-2.91476322818535
3.4244771003723145,2.0281296006421177,0.1699992350334047,-0.018523368397242328,-2.933877872040757,-1.7399987974328883,-2.93266757416855
3.444507360458374,2.0398849643560992,0.16999921922057587,-0.03153392840176629,-2.938845291556603,-1.7399989127236735,-2.9471701731037787
3.464860200881958,2.044896462186265,0.1699992227825215,-0.03708053556158966,-2.9409627702811094,-1.7399989682369332,-2.953352885819942
3.484849452972412,2.053466124557192,0.16999924490530074,-0.046565233804887626,-2.9445833147944414,-1.7399990735011128,-2.963925367528594
3.5048859119415283,2.0604075522456102,0.1699992796067101,-0.05424783938195898,-2.947515580245119,-1.7399991699386361,-2.972489125339476
3.5249831676483154,2.0660301096014537,0.16999932064945614,-0.06047074989938677,-2.9498904127661736,-1.7399992569242606,-2.9794258081120018
3.5450432300567627,2.068427094877246,0.16999934221091273,-0.06312367490944809,-2.950902743264379,-1.7399992968480749,-2.9823830382673395
3.565138578414917,2.072525940184561,0.16999938560148556,-0.06766017667665294,-2.9526336667796906,-1.73999936973956,-2.9874399230391546
3.585214376449585,2.0758460054119037,0.16999942774773838,-0.07133474310808888,-2.9540355373808516,-1.739999433796302,-2.991536023144525
3.6053237915039062,2.078535258669466,0.16999946742152688,-0.07431114191755199,-2.9551709089889564,-1.7399994896872135,-2.9948538833258986
3.6257541179656982,2.079681729931751,0.16999948610597673,-0.07558002772579679,-2.9556548891458805,-1.7399995148038718,-2.9962683457470103
3.645857334136963,2.0816421960144766,0.1699995209399623,-0.0777498224578954,-2.9564824181598603,-1.7399995598632831,-2.998687086823022
3.6659770011901855,2.0832301739160446,0.16999955384252774,-0.07950735619089527,-2.957152583296993,-1.7399995999758093,-2.982009527051853
3.686047077178955,1.9552651312591955,0.1699996200251836,-0.08093095851462517,-2.9576941834846635,-1.7399996564882612,-2.857127358684803
3.706113815307617,1.7990729217381103,0.1699996711717823,0.07261523190794031,-2.9581331645605458,-1.7399997023484164,-2.535063846317974
3.7262182235717773,1.8281656255235972,0.1699996083697131,0.37935370871714624,-2.7964551736258487,-1.7399996839992022,-2.2525645355119046
3.7463107109069824,1.8381487243937102,0.1700001678149253,0.9038765040608886,-2.681844255558018,-1.7399992186733255,-1.581648907342989
3.7664105892181396,1.4214378083797772,0.170000759758681,1.3287399682893197,-2.7346901112237005,-1.7399977846815258,-0.7565236081053022
3.7870066165924072,1.0595202659607401,0.17000105303721624,1.5098659714603877,-2.7572194163813184,-1.7399969562742474,-0.3889108837321459
3.8071494102478027,0.35882459500205627,0.17000092489296204,1.8196108216208504,-2.686857267826729,-1.7399968975933517,0.2566884499495554
3.827256679534912,-0.3059435863792087,0.17000118686582036,2.070789756026919,-2.481154607667571,-1.7399918166107184,0.15652062355427843
3.847327470779419,-0.07845466547037563,0.17000126965170026,2.274426896490486,-2.2400819154745113,-1.739987007777201,0.11243074009189964
3.8674426078796387,-0.030293446852862886,0.17000117790622135,2.3612856996497844,-2.082030471458951,-1.7399855978038057,-0.19973161270456663
3.887509822845459,0.22079410980802386,0.16999985997815636,2.277375704147126,-1.9677767181385404,-1.7399666445697357,-0.5050892446599795
3.907608985900879,0.5759566736605743,0.1700013037195164,1.905619809741028,-2.0896730088224973,-1.7399675428408392,-0.7751332028671767
3.9278392791748047,0.8636253422435965,0.17000111566469375,1.5270360615347072,-2.2550351371462227,-1.7399735014017004,-1.1995693931456228
3.948051929473877,1.0966364784733384,0.17000162657148765,1.220369209843113,-2.388976037418956,-1.7399766844355438,-1.5433614797883854
3.9681437015533447,1.1959727893014402,0.17000195788538675,1.0896322888588017,-2.44607624340417,-1.7399777159901864,-1.6899254864969837
3.988402843475342,1.3658380213952348,0.17000089788691572,0.8660721539756293,-2.5437255798240925,-1.7399836103715982,-1.940549471229905
4.008303165435791,1.5034288382886605,0.17000022038877108,0.6849884447202598,-2.6228211640889367,-1.7399877078688566,-2.143554950495036
4.028336524963379,1.6148773986928904,0.16999951904371996,0.5383106402234105,-2.686890341999193,-1.7399909814825825,-2.307989301840099
4.048451900482178,1.662389664443163,0.16999941913524294,0.4757795762010694,-2.714202626584242,-1.7399920261692956,-2.378090304933282
4.068509340286255,1.7436356371893882,0.16999905730027318,0.36885145672286623,-2.7609088015311043,-1.7399938330108264,-2.497962855911873
4.0885820388793945,1.8094448651558694,0.16999901799204264,0.28223967994552157,-2.7987386265524488,-1.739995052637208,-2.5950597178459134
4.109236001968384,1.837500377275774,0.1699990459552929,0.2453157119509694,-2.814865657444902,-1.7399955463313874,-2.636453666492093
4.1294941902160645,1.8854752945147664,0.1699988684355931,0.1821757266802852,-2.842446210373931,-1.7399963274524646,-2.7072369783894596
4.149474620819092,1.9243349785723707,0.1699988532319255,0.131032338611031,-2.864785074932153,-1.73999693990013,-2.7645715607038968
4.169626951217651,1.9558113244019768,0.16999891561884126,0.08960619427493512,-2.882878659600838,-1.7399974465347996,-2.8110126488974063
4.189702033996582,1.981307166066008,0.16999901062707123,0.05605101736269744,-2.8975338778912256,-1.7399978693514235,-2.848629985432481
4.20977520942688,1.992176446434741,0.16999906285301822,0.041745915626427696,-2.9037814617653,-1.7399980539975304,-2.8646668667752158
4.229870557785034,2.0107629166731598,0.16999916852447616,0.01728419165740644,-2.9144645783692176,-1.7399983771157421,-2.892089960633386
4.250023365020752,2.0258179515909673,0.16999917595458397,-0.0025298047575007844,-2.92311988731765,-1.7399985844105814,-2.914302404448423
4.270103216171265,2.0380125259790205,0.16999913465881594,-0.018579141853575638,-2.9301320373576734,-1.7399987168858395,-2.932294299692441
4.290978670120239,2.043211266489368,0.16999913116665274,-0.025421227668218072,-2.9331211587531976,-1.7399987817279814,-2.9399645607166396
4.31084942817688,2.0521011142156036,0.1699991468577478,-0.037121194411256636,-2.938232119357455,-1.7399989061669232,-2.9530807603680835
4.330933332443237,2.059301892434924,0.16999918199130326,-0.046598167473117874,-2.942371522065447,-1.739999021579862,-2.963704941227668
4.3511011600494385,2.0651345240249235,0.16999922753604055,-0.054274515653225476,-2.9457240564379013,-1.7399991266286898,-2.972310576159488
4.3711302280426025,2.0676210673591755,0.16999925227834015,-0.05754706408790293,-2.9471531711254264,-1.7399991751040156,-2.975979310103936
4.391252756118774,2.0718730570991304,0.16999930307549538,-0.06314312191120137,-2.9495967536990975,-1.7399992639849122,-2.9822528715937127
4.411383628845215,2.075317169480061,0.16999935328295093,-0.06767592874807311,-2.951575832262613,-1.7399993424569045,-2.987334485666645
4.4314048290252686,2.078106901206218,0.16999940284014242,-0.07134750228593922,-2.953178651513461,-1.7399994126773501,-2.9827473989495337
4.451534986495972,2.0792962079761703,0.16999942514147354,-0.0729127520573453,-2.9538619334068126,-1.7399994433362778,-2.9766692740668836
4.471663951873779,1.9281250652724151,0.1699995140513141,-0.0755893291664497,-2.955028802776171,-1.7399995262619883,-2.860995978927938
4.491694688796997,1.76350807975342,0.1699995833182693,0.1056184454438861,-2.955974349598954,-1.7399995927639575,-2.5502521092238815
4.511802673339844,1.8255415388873943,0.16999979370323215,0.6821509408095479,-2.5530604158209895,-1.739999496053978,-2.0997969641582857
4.532967805862427,1.865030491986618,0.17000039762601765,1.1491422620557339,-2.6303751194346248,-1.7399985012590586,-1.2664636308249522
4.553021669387817,1.6262778893562246,0.17000065194213984,1.3482280358501606,-2.5634496726216773,-1.7399978627790738,-0.893959976173683
4.57309889793396,1.1118782973325012,0.1700008350144865,1.688666111903239,-2.5488952315790425,-1.7399973913399185,-0.2503686871918207
4.593188762664795,0.4440800290851869,0.1700008857484487,1.9644922428180764,-2.4888083511753685,-1.7399960434845523,-0.14855038493145845
4.613284587860107,0.08568074302111173,0.17000133100552847,2.082357429553539,-2.3977307296541754,-1.739990794399563,-0.30669330386046806
4.633364677429199,0.2208844872350485,0.17000163072261612,2.283863563225371,-2.0330321876769677,-1.7399854651432014,-0.38908903178211407
4.653525114059448,0.14033887653786972,0.1700015561570776,2.4470021956953145,-1.834682961676318,-1.7399858793477159,-0.8269618051704902
4.673559665679932,0.5108235446336703,0.1700013894024383,1.9724970378427793,-2.0484931989578175,-1.739972468902761,-0.8423609708823786
4.693636655807495,0.6687418470169528,0.17000134113739596,1.766574344144718,-2.1396438790620356,-1.7399749338185986,-1.0590271885350147
4.713726043701172,0.9387809764293576,0.17000161941224226,1.4143978410502713,-2.295510151613844,-1.7399783918528342,-1.4295225904743178
4.739451169967651,1.05390284238522,0.17000198180840126,1.2642580569452442,-2.3619573377249883,-1.7399791930396311,-1.587470522863316
4.771080732345581,1.05390284238522,0.17000198180840126,1.2642580569452442,-2.3619573377249883,-1.7399791930396311,-1.587470522863316
4.79665994644165,1.05390284238522,0.17000198180840126,1.2642580569452442,-2.3619573377249883,-1.7399791930396311,-1.587470522863316
4.816778659820557,1.2507613192308786,0.17000144339840467,1.007519026125648,-2.475586477357295,-1.739983538485032,-1.8575610936274956
4.83696985244751,1.4102167321225103,0.1700004641291451,0.7995604111617749,-2.567629159182898,-1.7399883011486752,-2.0763343206055813
4.857025384902954,1.5393755924956716,0.16999986147524102,0.6311139330410377,-2.642183248717211,-1.7399914537627466,-2.25354067410418
4.87704610824585,1.6439942525472053,0.16999944509731268,0.4946722857632405,-2.7025721042712316,-1.7399936172432184,-2.397077786028206
4.8972227573394775,1.6885948372194675,0.16999915532182847,0.43650505718691646,-2.728318124067717,-1.7399945265550076,-2.458269827682675
4.91737961769104,1.7648618218657066,0.16999896218534563,0.33703909632140233,-2.7723413541031867,-1.7399957302859101,-2.562908312007219
4.937419176101685,1.8266380737394483,0.16999898719934592,0.2564716680203359,-2.807998559277769,-1.7399965596368283,-2.6476655613946636
4.957545042037964,1.8529742606392055,0.1699988621044896,0.2221245012183023,-2.8232017131468297,-1.7399968867841697,-2.683798726028447
4.977631092071533,1.8980091402622061,0.1699987748619763,0.16339084598682485,-2.8491978227741677,-1.7399974035621688,-2.7455865194274605
4.997732877731323,1.9344873942035141,0.169998808376994,0.11581658524932813,-2.870253514789104,-1.739997814238684,-2.795634719695536
5.017840623855591,1.9640347816020465,0.1699988972450045,0.07728143405195578,-2.8873078631452045,-1.739998158980436,-2.8361738292505683
5.037903070449829,1.987968166838517,0.1699990069277892,0.04606796158208418,-2.9011213739953727,-1.7399984503619204,-2.8690105574369027
5.058038949966431,1.998171347324349,0.1699990637988829,0.03276116542387576,-2.9070101432610445,-1.7399985787212484,-2.883009388426866
5.078096389770508,2.0156187866998585,0.16999917535655298,0.010006543993339369,-2.9170797119926553,-1.7399988050738797,-2.9069474139683606
5.098283290863037,2.0297512005808866,0.16999910483153075,-0.00842469936539511,-2.925240025357129,-1.7399988790610266,-2.926336695876006
5.118605136871338,2.0357760728218777,0.1699990920516951,-0.0162822294288556,-2.9287185828870923,-1.7399989203173016,-2.934602689256018
5.138712644577026,2.0460786060639315,0.16999909651225123,-0.029718605837373034,-2.934666408918951,-1.739999006683952,-2.9487375986365074
5.158782243728638,2.0544236598239283,0.16999912713328325,-0.040602070728272155,-2.9394835979217255,-1.7399990937076388,-2.960186942597356
5.179094076156616,2.0611831548143025,0.1699991723388472,-0.049417677289900444,-2.943385080376957,-1.7399991776984942,-2.9694609664132265
5.1989991664886475,2.066658346898052,0.16999922456999267,-0.05655831860481936,-2.9465449266913963,-1.7399992564163476,-2.9769729709217843
5.219151735305786,2.0689925080983063,0.16999925171897978,-0.05960248674433742,-2.947891904168178,-1.7399992933874764,-2.9801754718916795
5.239290237426758,2.072983924342958,0.16999930594390414,-0.06480801426291331,-2.9501950463967477,-1.7399993621472054,-2.9856517732317553
5.259462833404541,2.076216972143104,0.16999935821107826,-0.06902449155295978,-2.9520603838625337,-1.7399994238392582,-2.9900876046265963
5.279492378234863,2.077595271674685,0.1699993831447831,-0.0708220423976638,-2.952855539157298,-1.739999452063123,-2.9919786785267566
5.299633741378784,2.079952164260801,0.16999943067938597,-0.07389585434210769,-2.9542151247849646,-1.7399995039773568,-2.988125604601414
5.319735527038574,1.9480370009304435,0.1699995172121025,-0.07638564201710722,-2.955314929241897,-1.7399995758831448,-2.890022844324687
5.339861154556274,1.8057554198037689,0.169999645649292,0.01664823284805158,-2.956204247300635,-1.7399996779766684,-2.6401600134791265
5.360558748245239,1.8597618873680895,0.16999979855679928,0.6100850686069218,-2.7189113123997104,-1.7399996452075146,-2.144966245726361
5.3806445598602295,1.8414661431394967,0.17000002789815233,0.8630765617462297,-2.743018397034001,-1.7399994028119712,-1.7282995790596944
5.400733709335327,1.4083333036710972,0.17000047816488686,1.2956920150144462,-2.76337210019562,-1.73999836899934,-1.0724176807594148
5.420821905136108,0.6944202963991046,0.17000081177571422,1.6461121170574584,-2.563875853011314,-1.7399974127988427,-0.6821628384593157
5.440927267074585,0.4268989245786731,0.17000077491676868,1.7955090534229428,-2.385417627384636,-1.7399973579511745,-0.5246988983945833
5.4610490798950195,-0.25080408746395455,0.17000126362631432,2.051203534525276,-2.4790666732621216,-1.7399929057349772,-0.9967463730415694
5.481088161468506,0.018168662727306717,0.1700014811165271,2.258532296111,-1.9944244581540362,-1.739988569149731,-0.854101074821837
5.501171827316284,-0.39408933946145414,0.17000190807410817,2.4274451221889564,-2.0654567267541832,-1.7399829711376784,-0.9933786516353602
5.521401882171631,-0.14565837748069313,0.1700008432106115,2.422036974596904,-1.9983457493226005,-1.7399734342904694,-0.8602101871716437
5.541380167007446,0.2791831229558226,0.1700002024007451,2.17210259667472,-2.040151282670758,-1.739950924903661,-0.9503843417107392
5.561540603637695,0.6232418831197817,0.17000051607640237,1.7430746453827066,-2.214922538963314,-1.7399586419943038,-1.326215154952378
5.581559181213379,0.90192601127586,0.17000095123457853,1.3953629959422844,-2.3564857396163568,-1.7399651608078206,-1.6459448890152388
5.6021997928619385,1.020733386212373,0.17000119568993438,1.247126696348056,-2.4168359211041746,-1.7399677551094768,-1.7822505356337546
5.622292518615723,1.2238940286906745,0.17000116598250242,0.9936426240419254,-2.5200364287599437,-1.7399733353536682,-2.015333016212592
5.642376899719238,1.388454216193365,0.17000033537659626,0.7883205254739596,-2.603633184146025,-1.7399798045765313,-2.204129578506013
5.664089918136597,1.4586088202682996,0.16999996700382244,0.7007884729265637,-2.6392722166242724,-1.7399824600345613,-2.284616529497121
5.684307813644409,1.5217479499897801,0.16999979125222822,0.6220096256339073,-2.6713463600659093,-1.7399845026590806,-2.357054821192925
5.704617261886597,1.6297158596705135,0.16999940572577035,0.4872977967634649,-2.7261941618667995,-1.73998796224367,-2.480924232500895
5.724506855010986,1.6757442824515352,0.16999912941737064,0.4298680170871184,-2.7495779534414106,-1.7399894298744445,-2.5337316196410082
5.7445666790008545,1.7544528718049024,0.16999894859025752,0.3316630938405659,-2.789561809575376,-1.7399916003308837,-2.6240323538417463
5.764673233032227,1.8182068241081197,0.16999897874965403,0.2521171060108584,-2.821947132439154,-1.739993215473217,-2.6971760310070607
5.784889221191406,1.845386136058789,0.16999885775790163,0.21820539540977257,-2.8357554314033897,-1.739993879184869,-2.7283581442356883
5.804906129837036,1.8918627596044735,0.16999877357864626,0.1602163702819158,-2.8593663618201695,-1.7399949614414179,-2.7816796389915175
5.825040102005005,1.9295088262492874,0.1699988116869732,0.1132452599283518,-2.878489997785663,-1.739995839466864,-2.824870147915777
5.845200538635254,1.9600021418683962,0.16999890278742383,0.07519866054196496,-2.8939793867468486,-1.7399965616464048,-2.8598545280490857
5.865265607833862,1.973001924343496,0.16999895696391595,0.05897879448776846,-2.900582549450767,-1.7399968740634728,-2.874768941842718
5.88536524772644,1.9952315532793718,0.1699990704529724,0.031242823535092445,-2.9118736519139627,-1.7399974163335987,-2.9002726208419016
5.90541934967041,2.0132375536842466,0.16999918198286715,0.008776687063424876,-2.9210191355524238,-1.7399978645391265,-2.9209306342122203
5.925487756729126,2.0278224023803344,0.16999911438376925,-0.00942088347862585,-2.9284308864230537,-1.7399981206768573,-2.9376631126587114
5.946239233016968,2.0340401546741305,0.16999910243709757,-0.017178795130763265,-2.9315903246648647,-1.7399982392573674,-2.944796468354178
5.966345548629761,2.0446725127245666,0.16999910769773974,-0.030444824055918245,-2.936992464904301,-1.7399984573448886,-2.9569945664777144
5.986602306365967,2.0532847244946453,0.16999913833114164,-0.04119030748529378,-2.941367657801783,-1.7399986505426501,-2.96687509230982
6.006659984588623,2.0602606174094618,0.16999918307140544,-0.04989414906308796,-2.9449111313497496,-1.7399988201398364,-2.9748783725289782
6.02672553062439,2.0659110917639305,0.16999923456549315,-0.056944260741101246,-2.9477809971106677,-1.7399989678963124,-2.981361073922868
6.046844005584717,2.0683199785490225,0.16999926128855172,-0.05994983466699112,-2.949004353520313,-1.739999034205241,-2.9841247664478976
6.066919803619385,2.072439175520562,0.1699993146079658,-0.06508936608026282,-2.9510961074670927,-1.7399991529821999,-2.9888507048739408
6.087024211883545,2.075775725685157,0.16999936595338366,-0.0692523865250129,-2.952790224608569,-1.7399992550280527,-2.992678741770479
6.107064485549927,2.0784783318121858,0.16999941397179785,-0.07262443308526044,-2.9541622948592297,-1.7399993423373687,-2.9957794734784233
6.127189874649048,2.0796304956359672,0.16999943649467433,-0.0740619897767344,-2.9547471765519173,-1.7399993810543226,-2.99710137149638
6.147267818450928,2.081600696035209,0.16999947834344534,-0.07652021171915485,-2.955747235930002,-1.7399994497042635,-2.9993618289274533
6.167394161224365,2.083196558643107,0.16999951585918127,-0.07851137149251543,-2.956557186973427,-1.739999507973591,-3.00119281248266
6.1874680519104,2.0124578274518345,0.1699996425481457,-0.0801242109089375,-2.9572102317405036,-1.7399996605130965,-2.923331146755675
6.2075560092926025,1.9382693941397935,0.16999967533085553,-0.07823379480385308,-2.9574893021424553,-1.7399996923769978,-2.8174469030414513
6.2276811599731445,1.8209500747892042,0.16999967461813809,0.24512082172165062,-2.946262748035533,-1.7399997024731777,-2.432779428954331
6.2478110790252686,1.7501423658310968,0.16999995881745852,0.795147865594537,-2.8035001086091924,-1.7399995796174783,-1.755678691264795
6.268176078796387,1.3106940235141753,0.1700005152119228,1.240669771131575,-2.711879816100234,-1.739998378360669,-1.0177450131354915
6.288431167602539,0.8940273568475086,0.17000084106969435,1.4306027940184176,-2.736689964646804,-1.7399974818633734,-0.728604792411405
6.3084540367126465,0.1275626800461091,0.17000073403546018,1.7553974556471321,-2.555618539819035,-1.7399975665669574,-0.8180357253027324
6.328510284423828,0.07778785970267096,0.17000073502064536,2.0185114820266676,-2.143457948713322,-1.739997002852181,-0.5713628339083481
6.348638534545898,0.008975910261228043,0.17000082138621808,2.1307221760657127,-2.1389548357267554,-1.7399965579153238,-0.6609797381038217
6.368726015090942,0.16138812457678012,0.17000303761026425,2.0028596177540106,-2.2154849116515014,-1.7399723045974382,-0.5809414561385622
6.388795375823975,0.5278267094681353,0.1700026915981458,1.6058702882218583,-2.355208551352603,-1.7399762899441007,-0.6934259010203592
6.40887975692749,0.8246395788497375,0.17000311544606722,1.2842249334597053,-2.4701158500949445,-1.7399784360354689,-1.1333854347215864
6.429198741912842,0.9511755853248232,0.1700032780565988,1.1471024401137349,-2.5191021892319254,-1.739979323729044,-1.3209470899579068
6.449306488037109,1.1675522295994436,0.17000259829063066,0.9126229764921252,-2.602873324776943,-1.7399833385599066,-1.641677135637392
6.469404935836792,1.3428173626567297,0.1700013780642411,0.7226946109586214,-2.670732243304539,-1.7399880609316638,-1.9014682478620264
6.489518165588379,1.484782091860101,0.17000062137996194,0.5688526348764833,-2.725697082739313,-1.7399910899385695,-2.1118990906308017
6.509679555892944,1.5453038902870357,0.17000036935484567,0.5032673713888349,-2.749129057891531,-1.7399922002069632,-2.201609090290186
6.529700517654419,1.648796164372654,0.16999971394398758,0.39111657082495627,-2.7892002869086956,-1.7399941481439656,-2.355012996541356
6.549818277359009,1.7326248932718256,0.1699995029565015,0.30027442236821456,-2.8216552339615446,-1.7399953572452576,-2.4792702930706416
6.569887399673462,1.8005261572133844,0.169999281489419,0.2266922821182538,-2.8479449125774234,-1.7399962472821644,-2.579918551668164
6.589938163757324,1.8294735360649397,0.16999916594591147,0.1953230539064284,-2.8591530980482682,-1.739996601230377,-2.622826431635945
6.6103410720825195,1.8789735546941628,0.16999907208037887,0.141681673664207,-2.878317947221558,-1.7399971787611557,-2.6961989921499336
6.630282402038574,1.91906857136506,0.1699990815236449,0.09823215566800768,-2.8938404467460535,-1.7399976434321731,-2.7556308527915303
6.6503236293792725,1.9515455363022927,0.16999913846042697,0.06303804609108622,-2.9064130239030987,-1.7399980297534898,-2.803770720618897
6.6704511642456055,1.9653909797232763,0.16999917554157531,0.048034241481977595,-2.9117727302523067,-1.7399981984424788,-2.8242935245792666
6.690497636795044,1.9890666887432884,0.16999925662570337,0.022377735600401853,-2.9209375577749994,-1.7399984939547475,-2.859387547906303
6.710603475570679,2.008244007178761,0.16999924237232467,0.0015959658363254997,-2.928363083968148,-1.7399986788849997,-2.8878134412394196
6.730638027191162,2.0237776312461566,0.169999182898934,-0.015237267672576346,-2.9343791239999595,-1.7399987929889515,-2.910838228908803
6.751187562942505,2.0303998613219623,0.16999917233064576,-0.02241354090531871,-2.9369435778438735,-1.739998849907527,-2.9206540924356617
6.7713141441345215,2.0417238761565146,0.16999917686040966,-0.03468496813330815,-2.941328342218464,-1.7399989607502337,-2.937439273854926
6.7914063930511475,2.0508963296882983,0.1699992038469692,-0.044624824187979605,-2.944879511357828,-1.7399990651727817,-2.9510353314682516
6.811580657958984,2.0583260182516505,0.16999924341450215,-0.05267610759226348,-2.9477555657978303,-1.7399991613861217,-2.962048187727219
6.831615686416626,2.0614934121822808,0.16999926578984856,-0.05610849683303713,-2.94898154628939,-1.7399992061251994,-2.9667431584946966
6.851733922958374,2.0669096564310214,0.16999931281215325,-0.06197788243476008,-2.9510777642371457,-1.7399992886769788,-2.9747715855354575
6.871788740158081,2.071296814954061,0.16999936023906018,-0.06673208477215567,-2.9527754720020107,-1.7399993620952536,-2.981274641335544
6.891856670379639,2.07485041390299,0.1699994059873558,-0.07058298866544609,-2.9541504304125703,-1.7399994267850065,-2.9865421409115323
6.911991834640503,2.076365369420198,0.1699994278247515,-0.07222468979890148,-2.9547365368212106,-1.7399994560411811,-2.9887877671216456
6.932119131088257,2.0789559436427245,0.16999946895189474,-0.0750319987371102,-2.955738679685238,-1.739999508809948,-2.992627801153947
6.952353000640869,2.0810543090776634,0.16999950636459674,-0.07730591897705925,-2.9565503065344805,-1.7399995545375575,-2.995738243296025
6.972380876541138,2.0050663479396156,0.16999964114880015,-0.079147794371418,-2.9572044662270933,-1.7399997059703631,-2.9234561539546866
6.992408275604248,1.9336094080448765,0.16999968135970298,-0.0799330149342762,-2.9574838833465145,-1.739999738849873,-2.8244227973472205
7.012523889541626,1.8280836244957253,0.1699996767673133,0.24142425790323635,-2.9401045036632505,-1.7399997379519367,-2.4504156064129656
7.032625198364258,1.7409671127564814,0.1700000170538488,0.7921536489016217,-2.7907126697380518,-1.7399995411817955,-1.7773599464706626
7.052633762359619,1.284980551714583,0.1700007834552728,1.2382444556103136,-2.6994865535152552,-1.739997794959199,-0.9440266131373292
7.072755336761475,0.9151116574654559,0.17000103745036996,1.4284200100492823,-2.725536251569742,-1.7399970867232242,-0.5487241403977571
7.092843294143677,0.14464088875191783,0.17000131874248467,1.7536284099874766,-2.5284915740948617,-1.739996082796368,-0.4432512939667697
7.11292290687561,-0.04312054033572836,0.17000124860205026,2.0170880056570084,-2.1265122954334794,-1.7399955871632788,-0.23311770989400749
7.133028507232666,-0.38338709152819583,0.1700015890854466,2.2307665890819868,-2.203964071678285,-1.7399930003482191,-0.7428664834200043
7.153079509735107,-0.13601080317456132,0.17000267953798023,2.0874363713230935,-2.1858748887841384,-1.739973009660544,-0.7547447316167646
7.173158884048462,0.2869415134908663,0.17000318464889044,1.7522667513135586,-2.2486351617614653,-1.739972801676145,-0.9896936765139229
7.193279266357422,0.6295228627067404,0.1700031567135124,1.4028119732041258,-2.3837928631060863,-1.7399764770252553,-1.3733630351329666
7.213391304016113,0.90701346638698,0.17000325805890187,1.119747698295342,-2.493269335358046,-1.7399790932549035,-1.6841343374130904
7.233481168746948,1.025312089568625,0.17000328632242,0.9990729284658079,-2.539940580547906,-1.739980270765355,-1.8166210215290362
7.2535765171051025,1.2276027968673557,0.17000259982717203,0.7927190720573044,-2.6197524218642645,-1.7399841013702653,-2.043173013364988
7.273669481277466,1.3914583099818465,0.17000145357468874,0.6255724483664166,-2.6844043221423317,-1.7399882564005344,-2.226679934662938
7.2937469482421875,1.5241812495728924,0.17000078199470492,0.49018368317679745,-2.736770873912601,-1.7399909784667726,-2.3753205800778243
7.313863515853882,1.5807631330694583,0.17000037855896521,0.43246531485911766,-2.7590969037924085,-1.7399921481116003,-2.43868833481107
7.333935260772705,1.6775181408640063,0.1699999653053559,0.3337669050358853,-2.7972721167746184,-1.739993811289254,-2.5470472940484745
7.354038953781128,1.7558896921732936,0.16999980285942595,0.2538211930790671,-2.8281924776631264,-1.7399950110371787,-2.634818132442196
7.3744590282440186,1.8193706403182435,0.16999946595697282,0.18906516639404433,-2.853241119557512,-1.7399959260222373,-2.705912183148547
7.394526958465576,1.8464335710503448,0.16999937993674388,0.1614586497546399,-2.8639191402869173,-1.7399963001062304,-2.7362207426207767
7.414650201797485,1.8927111838867379,0.1699993062434304,0.11425150630125833,-2.882177692273786,-1.7399969281821615,-2.7880484482973893
7.434736728668213,1.930196051804427,0.16999930531349272,0.07601372010401924,-2.8969663833583525,-1.7399974460427305,-2.8300289557626024
7.454814672470093,1.9461764433852462,0.16999931993873468,0.05971234809361732,-2.903270832274754,-1.7399976709310243,-2.847925928578145
7.474903106689453,1.9735029138467748,0.16999936541705452,0.03183700195583003,-2.914051140402742,-1.7399980630142717,-2.8785297827780725
7.494985818862915,1.9956373558446945,0.16999942153892397,0.009257971584222322,-2.922782886364798,-1.7399983891383102,-2.903318937363781
7.515300989151001,2.0050736115797205,0.16999935650600875,-0.000367825574199912,-2.9265075225605957,-1.7399984696386672,-2.913886665009208
7.535368204116821,2.0212096108683113,0.16999927973460843,-0.01682793871510193,-2.932876031577962,-1.7399986255966584,-2.93195755077642
7.555724620819092,2.034279772437774,0.16999925253081735,-0.03016063035923256,-2.938033854459356,-1.739998772021158,-2.946595047921435
7.57564115524292,2.0448666050055806,0.1699992565380396,-0.04096011059097837,-2.942211158225773,-1.7399989066744757,-2.9584514858645803
7.595722436904907,2.053441940729178,0.16999927948161953,-0.04970768957869248,-2.9455943474182997,-1.7399990285128477,-2.9680552540756024
7.61580491065979,2.0570977421778895,0.16999929537103917,-0.05343692062082323,-2.9470365163327736,-1.7399990845428035,-2.97214950966578
7.636050701141357,2.06334916335394,0.1699993322356374,-0.05981390570286682,-2.949502398094808,-1.7399991869985763,-2.979150715972936
7.656220197677612,2.0684128152645433,0.1699993724092853,-0.06497926361932213,-2.951499513284791,-1.7399992771844828,-2.984821725479575
7.676226377487183,2.0725143739175618,0.16999941303124708,-0.06916320353165092,-2.953116975230681,-1.7399993559684068,-2.989415269635709
7.696342468261719,2.0742629333277747,0.16999943291791694,-0.07094688317848583,-2.953806459344634,-1.7399993913971135,-2.9913735786972957
7.7164130210876465,2.0772529702383813,0.16999947108502853,-0.07399697537457352,-2.954985369169369,-1.739999454987458,-2.9947223015594333
7.736527681350708,2.0796749004842394,0.16999950650262546,-0.07646755005340455,-2.955940167423985,-1.7399995097694487,-2.997434782938151
7.756587028503418,2.081636664263356,0.1699995387797732,-0.07846871554325768,-2.956713457873292,-1.7399995567675202,-2.9996319057579792
7.776668548583984,2.0721357083681315,0.1699995891903381,-0.07932184398893191,-2.9570419761328504,-1.7399996161569915,-2.9730744571905987
7.796756267547607,1.9790265484625975,0.16999968237268182,-0.08078069363103485,-2.957603519713463,-1.7399997052724028,-2.8519397190222016
7.816925048828125,1.7743423836758543,0.1699996512383586,0.13487584177977247,-2.958061751471862,-1.7399996795802242,-2.4758670926240818
7.83696174621582,1.6418455806387857,0.16999959877276727,0.6105738151004352,-2.7571534224509944,-1.73999988649606,-1.799494596643006
7.8570685386657715,1.6267496031638176,0.17000003132393443,0.8635164335903918,-2.576157267777002,-1.7399993515284404,-1.3828279299763393
7.877167463302612,0.9682285833072362,0.17000078052045203,1.2960483112082173,-2.6490828870153047,-1.7399976592571327,-0.5686453265975939
7.897228956222534,0.1876652507678731,0.17000112188171607,1.6464007396034577,-2.467531159907397,-1.7399966907402944,-0.5803299372141518
7.917330265045166,0.06470728001989046,0.1700009851698229,1.9301984430486483,-2.1235224716521808,-1.7399968747086751,-0.2837339486619951
7.937397241592407,-0.05871167346262586,0.17000101242150567,2.0512134545354894,-2.141128615676538,-1.7399966997863565,-0.45573845526439727
7.957658529281616,0.05621822066233312,0.17000285576252663,2.0168674280078256,-2.1812717811989115,-1.739982451449679,-0.5343944915527793
7.9776387214660645,0.4426424505135939,0.1700029320096568,1.6892612801296076,-2.2788256881583866,-1.7399827713517708,-0.720098014128679
7.997731447219849,0.755640472197491,0.17000288877074918,1.3517738756832427,-2.4082471970485586,-1.739984709987639,-1.1549900095130217
8.017860174179077,0.8890763963195573,0.1700029942437789,1.2078964881149183,-2.463420915525737,-1.7399851934816701,-1.3403911711508887
8.03806447982788,1.11725181178279,0.17000325605206004,0.9618661553730838,-2.557766800585653,-1.7399858495199452,-1.6574271372740284
8.058085918426514,1.3020740251948055,0.170001942366108,0.7625815858521979,-2.634195535590438,-1.7399900802887196,-1.9142257785347867
8.078176498413086,1.451779999370158,0.17000096792482067,0.6011610845402803,-2.696103018001177,-1.7399929635573845,-2.1222326787902475
8.098290920257568,1.515602010468151,0.1700006388732473,0.5323449760862522,-2.722494688590546,-1.739993960070316,-2.2109093139921834
8.118392705917358,1.6247376391162573,0.17000010220295353,0.4146694306298643,-2.7676246925755814,-1.7399954467662384,-2.3625463017565744
8.138476610183716,1.7131374893186373,0.16999977621534504,0.3193522388101901,-2.8041793366624286,-1.739996445200232,-2.4853722589277187
8.158520698547363,1.7847413641455085,0.16999966451510765,0.24214531343625395,-2.833787188944583,-1.739997134795172,-2.5848613612617966
8.178638219833374,1.8152672222216706,0.16999949152531382,0.20923078209262855,-2.8464113227923944,-1.7399974054059435,-2.6272749509895736
8.19871473312378,1.8674664400209018,0.16999931193934062,0.15294693349502914,-2.8679973498222866,-1.739997830983232,-2.6998022769226124
8.218837976455688,1.909747807960792,0.16999926147789193,0.1073570161309736,-2.8854809266327592,-1.739998168642238,-2.758549500117223
8.238966941833496,1.9439957175072982,0.1699992753432735,0.07042918306608861,-2.8996419254802084,-1.739998452092802,-2.806134814597048
8.259018898010254,1.9717365255068946,0.16999932045018606,0.040517638283531776,-2.9111118607357582,-1.7399986922350725,-2.844678966228512
8.279303789138794,1.9835628703767099,0.16999934884158577,0.0277658744551786,-2.91600153676498,-1.7399987982872893,-2.861110961177207
8.29924464225769,2.0037859136742058,0.16999930829498028,0.005960358308694666,-2.924365053047827,-1.7399989205386728,-2.889209389687154
8.319336652755737,2.0201665747084596,0.169999225751518,-0.01170210976995732,-2.9311409081980653,-1.7399989824634385,-2.911968925207666
8.339407682418823,2.0271499100885544,0.16999920646263986,-0.019231898792961586,-2.9340292682190605,-1.7399990176481008,-2.921671709010998
8.3595130443573,2.039091415106544,0.16999919771463112,-0.032107838022298885,-2.938967888095563,-1.739999092169287,-2.93826352659574
8.37960171699524,2.048764035806531,0.16999921557383182,-0.0425373487980621,-2.942967654158802,-1.7399991680893983,-2.951702962344506
8.399709463119507,2.056598859868603,0.1699992489387949,-0.0509852525264303,-2.9462070512182486,-1.7399992419451427,-2.9625889572906963
8.419790029525757,2.0599389694881896,0.16999926903014645,-0.054586727273787265,-2.9475879236269256,-1.7399992773854653,-2.9672298458818647
8.439868450164795,2.0656505576112574,0.1699993127067245,-0.060745249091767685,-2.949948995556548,-1.7399993444124147,-2.9751657937651763
8.459968328475952,2.070276944721739,0.16999935800877428,-0.06573365176433182,-2.9518612227139593,-1.7399994056602848,-2.9815939429818363
8.479986906051636,2.074024318865044,0.16999940248600506,-0.06977425792910877,-2.953409931809627,-1.7399994608117801,-2.9868007694975076
8.500730276107788,2.0756218838194496,0.16999942392268794,-0.0714968321361979,-2.9540701076077505,-1.739999486103657,-2.9890205302449195
8.520835638046265,2.0783537201993334,0.16999946459069148,-0.07444243403032029,-2.9551989037107464,-1.7399995322589188,-2.992816335040708
8.540958404541016,2.0805665080030327,0.16999950187380525,-0.07682837156455943,-2.9561131137117154,-1.739999572808581,-2.9958909522849537
8.561222553253174,2.026015051698386,0.16999961050017912,-0.07876098096729314,-2.956851187030457,-1.739999691121128,-2.9325891689152757
8.581214189529419,1.9481156212118642,0.16999967989478673,-0.07958488287056383,-2.9571651104560974,-1.7399997490088288,-2.8300790313119415
8.601271152496338,1.802837581666868,0.16999964003834994,0.19387257425869342,-2.957706919305567,-1.7399997090191721,-2.449140827462891
8.621382236480713,1.7311224319736664,0.16999950929409322,0.7105864815950067,-2.7825447589676178,-1.7400000036430519,-1.7726636785594312
8.641563177108765,1.3301201050385676,0.17000040046525963,1.1721750500919554,-2.6582159200022124,-1.7399982927060125,-0.9393303452260977
8.661642074584961,0.9725094442820601,0.17000079319601477,1.3689575450827598,-2.688392066847521,-1.7399972860171753,-0.5606486883838353
8.681765079498291,0.9725094442820601,0.17000079319601477,1.3689575450827598,-2.688392066847521,-1.7399972860171753,-0.5606486883838353
8.703093528747559,0.5612584841739121,0.1700010443627738,1.5460617905744838,-2.615869467086428,-1.7399966310453734,-0.5685620473740272
8.723151922225952,0.0929472256314185,0.1700009517109767,1.8489313625353643,-2.304290353504554,-1.739996505434558,-0.43261337973729674
8.743231058120728,-0.14928151698373612,0.17000103506261904,2.094313951813596,-2.157635809620883,-1.7399961141353282,-0.5110526944105901
8.76333212852478,-0.049949290903177485,0.17000233851973637,2.0754832090464257,-2.187487077841103,-1.7399784691940077,-0.6374992250226544
8.783511400222778,0.1640504069557479,0.17000251336972083,1.9627839083133287,-2.1535832573136147,-1.739978115007473,-0.583356067018648
8.803550243377686,0.5299866321013158,0.17000270534349368,1.5735334385494018,-2.306802438424028,-1.7399793240978367,-1.0442491741085034
8.823639154434204,0.82638910998479,0.17000316833451432,1.2580320852250153,-2.430906732161653,-1.7399807707205772,-1.4175522565716634
8.843708753585815,1.06647513185899,0.17000314027075478,1.0024759890322623,-2.531431739878686,-1.7399829208603115,-1.7199275290744358
8.863804817199707,1.1688276629668235,0.1700023190132733,0.8935283901290361,-2.574291494973196,-1.7399858510968553,-1.8488346275595864
8.883936882019043,1.3438504564237814,0.1700012642745162,0.7072279960045192,-2.6475802135320587,-1.739989813885451,-2.069265875784055
8.90401315689087,1.485618893809553,0.17000060304677014,0.5563246767636606,-2.706943349449,-1.7399923626102076,-2.2478152082500196
8.924451351165771,1.5460570109275802,0.17000037877546445,0.4919922090872945,-2.7322504693499132,-1.7399933028233465,-2.3239336113768934
8.94452691078186,1.6494061899619583,0.16999978734536572,0.38198368936070853,-2.7755279937834656,-1.7399949512809483,-2.454095904215345
8.964659214019775,1.7331190135203371,0.1699995878888055,0.2928767883821739,-2.810580397328076,-1.7399959840996528,-2.559527470492706
8.98477292060852,1.8009263943736769,0.16999937284777497,0.22070019858956083,-2.838974014521718,-1.7399967419484321,-2.6449268903971213
9.004844903945923,1.8298337494145804,0.16999925970644406,0.18993017873060475,-2.8510791369781945,-1.7399970416090687,-2.681333950866161
9.02493929862976,1.8792653274528368,0.1699991620037426,0.13731344477178983,-2.871777840902943,-1.7399975257273157,-2.743590100937463
9.045035123825073,1.9193049072409611,0.16999916118647,0.09469389026514977,-2.888542855859697,-1.739997923977124,-2.7940176618884993
9.065152406692505,1.9363744128888933,0.16999918021233668,0.07652450123863479,-2.8956897961481305,-1.7399980978761809,-2.815515750460881
9.085254669189453,1.9655632685238447,0.1699992384796068,0.04545484600329418,-2.9079107050169695,-1.7399984033966645,-2.8522775173963115
9.105333805084229,1.9892062426473918,0.1699993094407502,0.02028842526266829,-2.917809284028219,-1.7399986603747588,-2.8820545859144016
9.125406503677368,2.008357045784452,0.1699992880027999,-9.63755372386868e-05,-2.925829127920849,-1.7399988144844656,-2.9061737483920878
9.145525455474854,2.0165213331640803,0.16999924811512063,-0.008786737983514821,-2.9292489323980124,-1.739998858375257,-2.9164560186129864
9.165604591369629,2.0304822663802264,0.1699992097134036,-0.023647257766647008,-2.935096241366105,-1.7399989501731696,-2.9340387662307066
9.18582558631897,2.0417906242193915,0.16999920899477086,-0.03568427879098408,-2.9398319603165888,-1.7399990427298409,-2.9482808644537806
9.20593523979187,2.0509503955979844,0.16999923121222615,-0.045434265820697095,-2.9436674124890287,-1.7399991321846995,-2.9598170235305807
9.226059675216675,2.0548553512527383,0.16999924771423353,-0.049590839238627386,-2.9453023713014947,-1.73999917495613,-2.964735089843565
9.246153354644775,2.061532826214742,0.16999928703828363,-0.05669857978328818,-2.948097896230998,-1.7399992556230888,-2.9731450158029054
9.266236066818237,2.0669415817921943,0.16999933066119974,-0.062455849624463426,-2.9503619924047766,-1.7399993291088225,-2.9799570919156664
9.286315679550171,2.0713226744942324,0.16999937518301816,-0.06711923819581538,-2.952195684868182,-1.73999939511315,-2.9854749030495302
9.306417465209961,2.073190403708352,0.16999939707585068,-0.06910731437623384,-2.952977343668936,-1.7399994253315867,-2.9878272427121177
9.326780319213867,2.076384221024335,0.16999943921940622,-0.07250692464474941,-2.9543138593752025,-1.7399994803971892,-2.991849759558846
9.34666919708252,2.0789712134425695,0.16999947843912241,-0.07526060896224702,-2.955396304315846,-1.7399995286894785,-2.9951080159004606
9.367023706436157,2.0810666776163727,0.1699995142516203,-0.07749109325942008,-2.9562729771964946,-1.7399995707606908,-2.997747217938833
9.387343883514404,2.0819600071818103,0.1699995308185587,-0.07844198393347807,-2.95664668170992,-1.7399995896496119,-2.998872356140732
9.407452821731567,2.0086013314224886,0.16999965813754847,-0.08006800698611723,-2.957282613521558,-1.739999730569487,-2.9220690706945316
9.42756986618042,1.870206935674556,0.16999971195169575,-0.07865383212539162,-2.957799268106507,-1.7399997726811613,-2.725607587328339
9.447670936584473,1.785500824266632,0.16999982286687948,0.5328903959784328,-2.9282936235848434,-1.7399997691901423,-2.1785933932140216
9.478574991226196,1.7480814012762338,0.1699999995780489,0.7936013563805896,-2.795332708961486,-1.7399995856029689,-1.7619267265473548
9.521812200546265,1.7480814012762338,0.1699999995780489,0.7936013563805896,-2.795332708961486,-1.7399995856029689,-1.7619267265473548
9.542185068130493,1.297737241638849,0.1700005210266031,1.2394170986682775,-2.704098992805447,-1.7399984579665555,-0.9383377707317677
9.56208872795105,0.49819043737257834,0.17000127714654445,1.6005278499213047,-2.6409405994381046,-1.7399963495123298,-0.6035911236708892
9.582313060760498,0.13437185409658814,0.170001195553884,1.7544833932701684,-2.561070739743012,-1.7399963697298475,-0.6319275277676283
9.602471828460693,0.04230199963517948,0.17000111558109743,2.0177728934900636,-2.1019517358230426,-1.7399959990499263,-0.4365601736821871
9.622526407241821,-0.15866396735165628,0.17000127240626495,2.2311795378661774,-2.1270780001710223,-1.7399949578609255,-0.7827985666562853
9.642640590667725,0.2686257576715213,0.17000332030604584,1.812900013585898,-2.237544357582986,-1.7399738463301628,-0.7006634676140331
9.662701845169067,0.4507638603876464,0.17000306928788608,1.6229271899599989,-2.3097899218246876,-1.7399760805737718,-0.9314994642050767
9.682793855667114,0.7622187630879612,0.17000288546698844,1.298042030852757,-2.4333284652391156,-1.7399795712358674,-1.3262249410674911
9.702909708023071,1.0144971475882738,0.17000297299388933,1.034884044990733,-2.533393149142186,-1.7399817735131418,-1.6459524419963567
9.72299075126648,1.122047401856948,0.17000303546142786,0.9226956404916598,-2.5760518086222817,-1.7399827051388976,-1.782257311139937
9.743074178695679,1.3059584434888383,0.17000186420645994,0.7308534687982444,-2.6490058788131243,-1.7399872632287654,-2.015338247068594
9.76319146156311,1.4549263682177087,0.17000102461787123,0.5754613097265779,-2.708098591010817,-1.739990433935976,-2.2041338075241876
9.7832612991333,1.5755903767202748,0.17000028190012403,0.44959366087852803,-2.7559648942859916,-1.7399927909706023,-2.357058100470913
9.803369283676147,1.6270313433399612,0.1700000062525225,0.3959342947906752,-2.7763709023716303,-1.7399936759249974,-2.4222521264129373
9.823442220687866,1.7149953884929292,0.16999973824421105,0.3041767787804469,-2.8112634113284387,-1.7399949758732938,-2.5337339948166755
9.843865394592285,1.7862462583572336,0.1699994701061954,0.229853190812162,-2.8395275161698117,-1.7399959388339266,-2.6240341566173617
9.86374020576477,1.843959459012864,0.16999925118058443,0.16965108455785122,-2.8624219411570877,-1.7399966598236847,-2.6971771997234253
9.88416051864624,1.8685635082119298,0.16999920675567562,0.1439859761020661,-2.872181649786874,-1.7399969533257886,-2.728359274460241
9.904270887374878,1.9106364335418593,0.16999918911496573,0.10009864064267354,-2.888870048835843,-1.7399974599136203,-2.78168068254093
9.924412965774536,1.944715504518224,0.16999922446803803,0.06454989892056558,-2.902387008240182,-1.7399978803732645,-2.8248710827375225
9.944435834884644,1.9723195532148852,0.16999928420488875,0.03575541812565811,-2.9133353031579436,-1.7399982311741646,-2.859855351230457
9.964557409286499,1.9840875954138524,0.16999931815295288,0.0234798763130923,-2.9180026038862383,-1.7399983842513964,-2.87476971107264
9.984647750854492,2.0042109413607276,0.16999929056125543,0.0024886998136047604,-2.9259857945333674,-1.739998588924386,-2.9002729910602016
10.00471305847168,2.020510847651541,0.16999921981295635,-0.014514153150980143,-2.9324535536088496,-1.7399987186761885,-2.9209304605296134
10.024803876876831,2.033713773963722,0.16999919923839032,-0.028286464052293916,-2.937691742493735,-1.7399988445998122,-2.93766309326176
10.04581093788147,2.039342390624301,0.16999920154619916,-0.03415781764706453,-2.939924642609784,-1.7399989049831954,-2.944796505842987
10.065959453582764,2.0489673262578614,0.16999922268121306,-0.04419783229412227,-2.943742538618375,-1.7399990191417767,-2.956994686420816
10.086257219314575,2.0567635253566405,0.16999925775020766,-0.05233024415823903,-2.9468346381355475,-1.7399991234081509,-2.9668752626744763
10.106199264526367,2.0630784476084716,0.16999929995681137,-0.058917497768173614,-2.949338919721851,-1.7399992172373258,-2.9748785703453526
10.126274585723877,2.0657705989886335,0.16999932227913078,-0.06172574799135625,-2.9504064310514972,-1.7399992602402206,-2.978290520186604
10.146352529525757,2.0703741783622545,0.16999936738558816,-0.06652785587299856,-2.9522317049794333,-1.7399993386600752,-2.984124976714006
10.166457891464233,2.074103078213462,0.16999941135828328,-0.07041756325712883,-2.953709989739377,-1.7399994074799225,-2.9888509111610575
10.18649935722351,2.0771234875404034,0.16999945284971155,-0.07356822623827436,-2.9549072489780457,-1.7399994674559265,-2.9926789381630523
10.206605911254883,2.0784111358715798,0.16999947241568397,-0.07491140361444693,-2.9554176102572383,-1.7399994943869483,-2.9943108930854416
10.226685285568237,2.0806130147547526,0.16999950892859828,-0.07720823692770201,-2.9562902467731544,-1.7399995426676322,-2.997101546889425
10.247059106826782,2.0682840426615594,0.16999956289541507,-0.07906867191143863,-2.956996333336867,-1.7399996069896684,-2.9557754308216944
10.267001152038574,1.909609343956123,0.16999962547839906,-0.08057562424826528,-2.9575676805387308,-1.7399996580698738,-2.7872239524165527
10.287288188934326,1.7827333183223733,0.16999963209442318,0.11012828426878538,-2.957811888303203,-1.7399996686337504,-2.5110837736982643
10.307272911071777,1.6626908762815549,0.16999958522056471,0.567585621740718,-2.731110282549859,-1.739999820224768,-1.8458913563435242
10.327356815338135,1.379247478803134,0.17000033826585872,1.0563443536099817,-2.5701878121353774,-1.7399987050962393,-1.0125580230101907
10.347418069839478,0.7122235268714077,0.17000094106907385,1.4522389264240854,-2.5056132872317733,-1.7399972010669782,-0.5383370656693329
10.368961334228516,0.32700126455154443,0.17000085810423,1.6210160876764912,-2.4124166011286827,-1.7399974135685614,-0.4734784317059103
10.38906717300415,0.10210771086861811,0.17000077757988066,1.9096368329875997,-2.17078697820238,-1.739997457024264,-0.19789633352069208
10.40912938117981,-0.42765850751022394,0.17000140938980796,2.143712305997248,-2.1679769348420965,-1.739994023159026,-0.7316302988800905
10.429223775863647,0.050712114383399176,0.17000208128877056,2.3202778388803416,-2.015546651380042,-1.7399875386276418,-0.7558970581026119
10.449338674545288,0.2546782287139522,0.17000321542001517,2.2457635505523337,-2.1099919862420378,-1.7399721356368156,-0.9813538868359115
10.469402313232422,0.6034193145919401,0.17000421411159083,1.9510293501232139,-2.2471504035398886,-1.7399615537539612,-1.3667243587147269
10.489604711532593,0.8858703573469539,0.17000348675399288,1.5638266727312329,-2.360683032082764,-1.7399684565719746,-1.6787593180322038
10.509825706481934,1.0062832906515697,0.170003681396148,1.3987440054581095,-2.4206130553561604,-1.7399702626038684,-1.8117836528998945
10.529935359954834,1.212189461660084,0.1700030844466147,1.1164526444210687,-2.5230964397730595,-1.7399756512075282,-2.0392548215111397
10.550047874450684,1.3789735211723344,0.1700018131725034,0.8877966419810657,-2.606111885655559,-1.739982004858675,-2.223506169849418
10.570100545883179,1.5140686042668496,0.1700007826469217,0.7025852800046631,-2.6733553515827726,-1.739986825150884,-2.3727497813428986
10.590159177780151,1.6234955971345597,0.1700001264446983,0.5525640768037772,-2.727821964374875,-1.7399900721886261,-2.4936371239936936
10.610510110855103,1.6701460443196472,0.16999992933972613,0.4886076691233995,-2.7510414288258036,-1.7399912644971558,-2.545173319906478
10.630524396896362,1.7499183071774977,0.16999937911660026,0.3792422119899536,-2.790749179802242,-1.7399933343631466,-2.633300022973418
10.650801181793213,1.8145338283402193,0.16999924359820087,0.29065619171186247,-2.822909746377782,-1.7399946796957235,-2.7046827872444963
10.670722246170044,1.842080444223923,0.1699992394433916,0.2528905725406762,-2.8366197892076612,-1.7399952165422814,-2.7351144173742545
10.690813064575195,1.8891851489999303,0.16999898176784747,0.18831136375794771,-2.8600676657266892,-1.739996064537362,-2.787152124094563
10.710897207260132,1.9273399609890438,0.16999892792017862,0.13600220464393764,-2.879058720186817,-1.7399967321497614,-2.829302800574131
10.73097562789917,1.958245360373501,0.1699989672576012,0.0936317857615895,-2.8944404628824993,-1.739997279517868,-2.8634449365115096
10.751317977905273,1.9832787353688928,0.1699990475782287,0.059311746466887486,-2.9068990279556197,-1.7399977341617205,-2.891100128142814
10.771403312683105,1.993950858879007,0.1699990944174311,0.04468057182019874,-2.912210129440833,-1.739997932232162,-2.9028899913919584
10.79151177406311,2.0122001908631457,0.16999919190412985,0.019661263174360975,-2.9212918431571455,-1.7399982782378995,-2.923050686335059
10.811586141586304,2.0269821439232043,0.16999919176200606,-0.000604376828767612,-2.9286500375332656,-1.7399985038703294,-2.93938058433175
10.832038164138794,2.0332839215545517,0.16999916092756376,-0.009243939145890851,-2.931787773225413,-1.7399985781000484,-2.9463421676150556
10.85214638710022,2.0440599630857887,0.1699991384274517,-0.02401759070817159,-2.93715273126711,-1.739998722211499,-2.9582465424854365
10.872227430343628,2.052788558640554,0.16999915092705029,-0.03598424847361899,-2.9414977342858597,-1.739998857517831,-2.967889160497299
10.892659187316895,2.0598587225514287,0.16999918403692987,-0.04567724126363138,-2.9450166993654636,-1.739998981826648,-2.9756997416813196
10.912589311599731,2.0628728455430734,0.16999920522543735,-0.04980951713726824,-2.946516732887039,-1.739999039514285,-2.9790295355959335
10.932650327682495,2.0680269966414904,0.16999925261289117,-0.05687570888118727,-2.949081533167926,-1.7399991457620971,-2.9847235161285304
10.952715635299683,2.0722018598788807,0.16999930280393102,-0.06259932419376169,-2.9511587403080943,-1.739999240032366,-2.989335676775394
10.97321605682373,2.0739816702679645,0.16999932791758077,-0.06503939177438552,-2.9520441954206835,-1.7399992828475217,-2.9913019255943327
10.993324279785156,2.0770251464773795,0.1699993768328043,-0.06921190733725227,-2.953558173690056,-1.7399993603324515,-2.99466423083552
11.013493299484253,2.079490362690413,0.1699994228716082,-0.07259164494317434,-2.954784331551827,-1.739999427728104,-2.997387719894617
11.033531188964844,2.081487188210574,0.1699994652439368,-0.07532923240397121,-2.9557773863782546,-1.7399994860181653,-2.999593763779485
11.053946256637573,2.0831046171932273,0.16999950360553226,-0.07754667824721669,-2.956581653155343,-1.739999536193569,-3.0013806737545887
11.07404637336731,2.0837941528075676,0.16999952125718185,-0.07849201042249501,-2.9569244897899036,-1.7399995585388517,-3.00214246639801
11.09411907196045,2.0849732592648835,0.1699995582500802,-0.08010852844222097,-2.957510534879371,-1.7399996022724182,-2.9795221034559365
11.114487171173096,1.997871030185255,0.16999966842980832,-0.08141790803819898,-2.9579826993062337,-1.739999704277193,-2.8631018272005435
11.134424686431885,1.9190266098750257,0.16999963839849294,-0.08197611723437909,-2.958186436197654,-1.7399996720461757,-2.7772009135945654
11.154518127441406,1.709092452383258,0.16999980668602388,0.28908731634600016,-2.958529510098936,-1.7399997575339072,-2.293944828318188
11.174598455429077,1.722659680259715,0.16999990459268235,0.8307607262402601,-2.51410874060874,-1.7399995289375803,-1.481623985288156
11.194736003875732,1.2696972772159196,0.17000066880859496,1.2695161882546109,-2.598823568309746,-1.7399979414182214,-0.6575617137784062
11.21485710144043,0.8930419456244173,0.17000106568764636,1.4565645694291498,-2.473695187723653,-1.7399968777219987,-0.5334847856580256
11.234869718551636,0.46671826271157274,0.17000091100547787,1.7764234173215272,-2.321210758144034,-1.73999720965538,-0.22810876865809648
11.25494384765625,0.13053538012949267,0.1700008995305256,2.035550287912585,-2.235785526003482,-1.7399968156010839,-0.32630046432965953
11.275040864944458,0.1178541752314923,0.170001827927398,2.1894659426620953,-2.1624373308742983,-1.7399892581013672,-0.6207227613591602
11.295146226882935,0.315076460236415,0.170002086572051,2.2283025928394844,-2.1365523915223728,-1.7399863204853618,-0.6649314190314007
11.315290689468384,0.6523549898678558,0.17000383765196525,1.791071437960625,-2.293007437133122,-1.7399668869658085,-1.1104733622201481
11.335352897644043,0.9255076860409429,0.1700036657842493,1.434241992232993,-2.419734439195209,-1.7399717688006313,-1.4711943003011851
11.355490446090698,1.1467611729272986,0.170003727356007,1.1452060137087243,-2.522381878712651,-1.7399751271558563,-1.763377722515081
11.375486612319946,1.3259765924343905,0.17000250559543373,0.9110868711040666,-2.605532123371361,-1.7399811574414512,-2.00004577247613
11.395566940307617,1.402378960862894,0.17000191239768528,0.8112781839936599,-2.6409811084600716,-1.7399838147019442,-2.1009410856383335
11.415714263916016,1.5330270027490893,0.1700009167017855,0.6406053290348644,-2.7015992831084574,-1.7399880884673466,-2.273472068154956
11.435753583908081,1.6388518973782338,0.1700002122884423,0.5023603165182402,-2.75069992313509,-1.739991052183822,-2.413222143731175
11.456202030181885,1.6839667109867753,0.17000006887149857,0.44342428486641616,-2.7716310974140352,-1.7399920551495835,-2.4727998582110726
11.476279973983765,1.7611130403253086,0.16999965081361904,0.3426436707417971,-2.807425467431525,-1.7399937915388293,-2.574677580664159
11.4965500831604,1.8236015609010552,0.16999952410240343,0.2610113733008556,-2.836416970659763,-1.7399950070614114,-2.6571986413733426
11.51651382446289,1.8742172538292607,0.16999919801868563,0.19488921237369305,-2.8599035113750118,-1.7399959185055098,-2.724040341182447
11.536818504333496,1.915215965855764,0.16999909173105757,0.1413302620226914,-2.878925886804077,-1.7399966156980071,-2.778182245651143
11.55696177482605,1.9326943647752186,0.1699990836847059,0.11849723582042225,-2.8870349808813085,-1.7399969139966271,-2.8012638321927774
11.577083587646484,1.9625824281370485,0.1699991157890755,0.07945276101454202,-2.9009009418018077,-1.7399974318336062,-2.840733399443461
11.597136735916138,1.9867917608191294,0.1699991816853461,0.04782673642177903,-2.912131818342517,-1.739997862331082,-2.8727038030618064
11.61767864227295,1.9971125820303037,0.16999922035914913,0.03434406277960113,-2.916919560360327,-1.7399980498092664,-2.8863333073434614
11.63779616355896,2.0147611870011968,0.1699993013290274,0.011288690851476916,-2.9251063609740817,-1.7399983770726501,-2.9096397856287326
11.657899856567383,2.0222850595059754,0.1699992439890436,0.0014598217663292258,-2.9285987401713496,-1.7399984560604347,-2.9195754171336064
11.67804479598999,2.0351508835141443,0.1699991824187067,-0.015347544369273328,-2.9345700522535596,-1.7399986105115188,-2.9365654229391995
11.698269605636597,2.040635788315895,0.16999917119402455,-0.022512789932345997,-2.9371154323691693,-1.739998684884169,-2.94380856440402
11.71841812133789,2.0500149769520397,0.16999917492350333,-0.03476535984520025,-2.9414675728091133,-1.7399988259251988,-2.956194392161012
11.738531351089478,2.057612121282403,0.1699992015599419,-0.04468994147461221,-2.944992308953961,-1.7399989551393684,-2.9662269743504717
11.758713006973267,2.063765809405958,0.16999924104405545,-0.05272885259443589,-2.94784694730885,-1.739999071659506,-2.9743534162598158
11.778698205947876,2.0687502977519348,0.1699992867761256,-0.05924037060149307,-2.9501588847958486,-1.739999175435444,-2.9809358752734294
11.798775911331177,2.070875264146039,0.16999931058133064,-0.06201633354134376,-2.9511443967953683,-1.739999222680265,-2.983742094922679
11.818866491317749,2.074508957185116,0.169999358185984,-0.06676323016848844,-2.9528294521018768,-1.739999308349471,-2.988540752825794
