liuyurong129/humanoid-gym/humanoid/data/robot2_actual_20250621-222321.csv
timestamp,joint_1,joint_2,joint_3,joint_4,joint_5,joint_6
0.0005238056182861328,0.0,0.0,0.0,0.0,0.0,0.0
0.020575523376464844,0.0,0.0,0.0,0.0,0.0,0.0
0.04065513610839844,0.0,0.0,0.0,0.0,0.0,0.0
0.06077766418457031,0.0,0.0,0.0,0.0,0.0,0.0
0.08100771903991699,0.0,0.0,0.0,0.0,0.0,0.0
0.10111737251281738,0.0,0.0,0.0,0.0,0.0,0.0
0.12119770050048828,-0.006666671018062778,-0.006667442079713452,-0.006666666666666667,0.006666558062619892,-0.0066645912073788685,-0.006666565255168496
0.14126825332641602,-0.013333299950134448,-0.01333496293193137,-0.013333543884925286,0.013333308564453514,-0.013331272959714837,-0.013333263974947777
0.1613457202911377,-0.016666673205308756,-0.01666829650586209,-0.016667092116521363,0.016666641897786848,-0.016664607924096214,-0.01666646379326166
0.18141961097717285,-0.023333328094343117,-0.023336051181668253,-0.02333375878318803,0.023333542757379394,-0.023331922426764167,-0.02333333828847676
0.20154476165771484,-0.0299999738040942,-0.030003840005058048,-0.0300004254498547,0.03000057531445976,-0.029999814661595285,-0.03000031701164492
0.22162175178527832,-0.036666628168758444,-0.03667095258775137,-0.03666709211652137,0.03666747620041951,-0.03666750184166759,-0.03666716895371199
0.24210071563720703,-0.03999995385140514,-0.040004515789694314,-0.0400004254498547,0.04000095484523609,-0.040001472184702846,-0.04000061376468132
0.26224398612976074,-0.04666660202071362,-0.04667165748499615,-0.04666709211652137,0.046667974027375436,-0.0466696757925512,-0.04666754276205332
0.28230857849121094,-0.05333324563313747,-0.05333882159916479,-0.05333375878318804,0.05333508335055345,-0.05333824178726806,-0.05333452659058438
0.3023824691772461,-0.059999892044768945,-0.06000587110515667,-0.05970038290486923,0.060002178807405514,-0.060006838826788075,-0.060001481964725004
0.3224942684173584,-0.06333321781373168,-0.063339333104483,-0.06243034461438231,0.06333569975565859,-0.0633410803109763,-0.06333493252835136
0.34255027770996094,-0.06999986849667636,-0.0700062489180983,-0.06709857913764967,0.07000276257082529,-0.070009617041889,-0.07000184061183656
0.3626377582550049,-0.07666651790582484,-0.07667315741863745,-0.07087984910149624,0.07666985439858327,-0.07667822800081905,-0.07666875894111727
0.38279056549072266,-0.08333317075557677,-0.0833400023285187,-0.06915853085801328,0.08333696830936341,-0.07716450989419583,-0.08333566158561077
0.4028043746948242,-0.08666648550814547,-0.08667355477571799,-0.06582519752467995,0.08667044861882042,-0.07460005631484928,-0.08666913482283219
0.4229307174682617,-0.09333314076500682,-0.09334034959186034,-0.059158530858013286,0.09333744966374935,-0.06793510461063902,-0.09333597402211445
0.44296932220458984,-0.09999979164347922,-0.10000718075204383,-0.05249186419134662,0.10000445880337665,-0.061270107282546823,-0.10000282717729846
0.4631500244140625,-0.10333311636639986,-0.10334059908008103,-0.049158530858013284,0.1033379718890472,-0.05793767609223225,-0.10333625687182392
0.48318982124328613,-0.10999977390760618,-0.11000735270378471,-0.042491864191346616,0.11000482423990605,-0.051271958573007356,-0.11000302210407205
0.5033190250396729,-0.11666644234538118,-0.11667401940800701,-0.03582519770872609,0.1166714909349019,-0.04460529206230232,-0.11666968757632727
0.5234158039093018,-0.12347549484876316,-0.12295787687482669,-0.030109534429068347,0.12086329899308063,-0.04057928804241263,-0.12077630474863743
0.5435020923614502,-0.12719048485648463,-0.1248976904324202,-0.02727773036023732,0.12405798201206997,-0.03569466037202095,-0.12402151109097208
0.5635643005371094,-0.1341816483520206,-0.13076996938934887,-0.021783224362065593,0.12848497911607373,-0.03107140048405196,-0.12838758373091919
0.5836434364318848,-0.1412394039470285,-0.13646885742398068,-0.01640306669515988,0.1317610332215486,-0.023457389254023332,-0.1331811141357266
0.6037619113922119,-0.144793155201481,-0.13924482395860696,-0.013716825039972168,0.13345230407599026,-0.019672552283844888,-0.13547968964244406
0.6238422393798828,-0.15233872548555488,-0.14326669477066326,-0.00835744048547584,0.13850474091582318,-0.009678511273151034,-0.14170487506739296
0.643928050994873,-0.16040635875937537,-0.14572711277471095,-0.003022059927694001,0.14529244469658406,0.003380113011002033,-0.1486995676921792
0.6640031337738037,-0.1645168432215544,-0.146825588346567,-0.0003557947707096918,0.148772256826358,0.010207541677877383,-0.1448115587602275
0.6841225624084473,-0.17301317537496347,-0.14838884119751636,0.004951153390258622,0.15683146617938323,0.025282801771598053,-0.1531193319767631
0.7041957378387451,-0.18165778630123613,-0.1498641443949563,0.010213695468713332,0.16528758820365327,0.04069702054081881,-0.1618223335240816
0.7242958545684814,-0.1905289111411439,-0.15148157464186313,0.015321595294961262,0.17158339501878353,0.05894120082233262,-0.15738774665681063
0.7443788051605225,-0.19522818923292334,-0.1517245140178463,0.017771684155490658,0.17482783540845265,0.06989862849325369,-0.15584742059647894
0.7646028995513916,-0.20426431366111186,-0.15315695752629876,0.018362352224057143,0.18366193398805447,0.08837932047506197,-0.16501637977685746
0.7846028804779053,-0.21295444276180295,-0.1553513524031946,0.012736068791099559,0.19415324484819488,0.10350639742224987,-0.1756903907391519
0.8047103881835938,-0.21721460439948537,-0.15669132766556274,0.008895309730770587,0.19949023659818288,0.11034493509839105,-0.18109404313292743
0.8247783184051514,-0.22562587822287045,-0.15975975539947468,0.0012158565908967612,0.2095308813248715,0.12302403619699165,-0.1912558009045088
0.8448598384857178,-0.23386352756954001,-0.16335726992233746,-0.0064388870281253535,0.21873640400167602,0.13419997435724387,-0.200559310674104
0.8650367259979248,-0.2379041244859326,-0.16536313983918477,-0.010245504324083403,0.2230365679461388,0.13920433408658747,-0.20489739218255387
0.8850417137145996,-0.24599903147346353,-0.16971504862115178,-0.01795785771879616,0.22966516669495715,0.14947169005568356,-0.2116981007121117
0.905146598815918,-0.2547577174562723,-0.1733676431522463,-0.019465230233474164,0.23426162872572012,0.1631326841317432,-0.21671416669381288
0.925940752029419,-0.2595705011711162,-0.17464044385578287,-0.017173645477383124,0.235932010022858,0.17194157163693816,-0.21872010582474818
0.9459292888641357,-0.2700419832047399,-0.17652367238708197,-0.01314259102423106,0.23555037567178422,0.1941616974154064,-0.21939328070936276
0.9659519195556641,-0.28017766173395825,-0.1787325655231307,-0.008556255704332006,0.23962003086458128,0.21470681755087728,-0.22428243994491087
0.986051082611084,-0.2856143105583487,-0.17966022347441446,-0.006502751051137706,0.239707897235982,0.22724135061594322,-0.22498609562672828
1.0061237812042236,-0.2964618396439809,-0.18150856398719495,-0.002091245842599989,0.24284418665525703,0.25284395343490407,-0.22926608686127103
1.0265169143676758,-0.3072035137498058,-0.18359852042943506,0.0025527463752128238,0.24810316977526664,0.27792867072433536,-0.23556641047868448
1.046626091003418,-0.3126271125431036,-0.18468426642599975,0.00488907698026194,0.2509060155922063,0.2908970886782096,-0.23891134533935737
1.066673755645752,-0.3241716603651093,-0.18666929208054955,0.009300532087568411,0.2532975943697738,0.3222759289441719,-0.23887233166637253
1.0868208408355713,-0.33515443640224435,-0.18982778343442652,0.014071915813120263,0.25039362130406245,0.35296856631677237,-0.237620883273225
1.1069684028625488,-0.34653964191682535,-0.19402424223177303,0.01864530746948479,0.23388073786026017,0.38892568048027837,-0.24133909539926174
1.1270666122436523,-0.3519473664002172,-0.19642473632512386,0.021107866414720854,0.2255671617391307,0.4045761119833685,-0.24043798849147646
1.1472101211547852,-0.36311447403748526,-0.2014164427515985,0.026014695584223757,0.2065382363293359,0.43851538895916503,-0.24200256477239124
1.1672847270965576,-0.37404343262104517,-0.20700455768547854,0.031004352309685238,0.18163173489109072,0.46541437794194906,-0.2459626209359975
1.1873853206634521,-0.37943914390053796,-0.20983521053245213,0.03364339062931291,0.17138038978474107,0.47949787393492693,-0.2465267764464467
1.2074682712554932,-0.3907269515201068,-0.2159872756803262,0.03878537523540161,0.14331507521614043,0.4991096054707267,-0.25002217098691887
1.2275724411010742,-0.4021266888200558,-0.22176269329834136,0.04420174150890273,0.12254065549312652,0.5182246817203553,-0.23902875671727486
1.2476849555969238,-0.4081427171009597,-0.2247383711235306,0.04691037145871226,0.11105193075503636,0.5307109181832602,-0.23903941703897247
1.2680134773254395,-0.4199867461513129,-0.23092211121338835,0.052361280080238756,0.08736064760981431,0.5553979676473181,-0.2412283297338148
1.2882487773895264,-0.43111457517175084,-0.2371887549560829,0.05811076145097658,0.06958160018508558,0.5834889891037923,-0.23841771015815078
1.3083374500274658,-0.43693735512224663,-0.23957783695445062,0.060793743690008964,0.06297772699733974,0.5959986669456204,-0.24057364872052955
1.3285186290740967,-0.44895863251987356,-0.2452169593358097,0.0661412230023997,0.04041036071475904,0.6228318976606867,-0.24033643372718988
1.348541498184204,-0.46010308668229166,-0.250575459112434,0.07169026791420585,0.024994991381333275,0.6397280376697657,-0.2377151725279381
1.3686728477478027,-0.46611682739822863,-0.253566639602625,0.07439868034086258,0.013359901189068294,0.6513203880938316,-0.23749774920100733
1.3887152671813965,-0.4713187737344491,-0.25866176461088697,0.07980067126654566,-0.006075857815239347,0.6647372677408895,-0.24438913042912344
1.408797264099121,-0.46996867969231376,-0.26305420707822647,0.08497055123796171,-0.023798486390599477,0.6695714974582315,-0.24132333207031337
1.429715633392334,-0.4695238320146623,-0.26534506613556064,0.08756557188982007,-0.034416477536753635,0.6739764254581618,-0.2390690887594399
1.449833631515503,-0.4676915690897493,-0.2680256824763161,0.09257359314265849,-0.0369566935704898,0.6703425279028701,-0.2414901449304105
1.4699926376342773,-0.47495984140344355,-0.27019310817747455,0.09773612102650706,-0.027508383778893954,0.6719125243307027,-0.2513382368426218
1.4900102615356445,-0.4729225062912905,-0.2714240339164468,0.10124595981079604,-0.015607381331291066,0.669388313065954,-0.2570293921421777
1.5101253986358643,-0.47188009986534496,-0.2719465797622532,0.1035897979968518,-0.008958560542642336,0.6668952063566921,-0.25752882787166825
1.5302350521087646,-0.46985950996243664,-0.273525354251148,0.1085867780376461,-0.004414726805779354,0.6664403311077649,-0.25982054825521667
1.5504093170166016,-0.46905612946111475,-0.27469946215968066,0.11329546765682845,-0.009067920290315412,0.667639323890948,-0.26445892242333063
1.57051682472229,-0.4687919481930244,-0.2750837425574781,0.11564347141796404,-0.008594737233315197,0.6673969497090587,-0.2704112146883217
1.5906054973602295,-0.46756860931409244,-0.2768910840735604,0.1208051651952544,-0.009182350818322643,0.6703821765108456,-0.2664595906680133
1.610701560974121,-0.46579338437364215,-0.2797541312337301,0.12602736024977088,-0.016968705799824426,0.6693555084322254,-0.26564155566096437
1.6307835578918457,-0.4652963733751505,-0.2806127446286633,0.12855144913520236,-0.017715911241347592,0.6682286543497356,-0.2676288773651949
1.6508636474609375,-0.46457821653150416,-0.28201263872827564,0.13355623998762295,-0.01911140496214146,0.669435374226955,-0.2628558325567995
1.670936107635498,-0.4634380525423601,-0.28300401028509287,0.1385017890349695,-0.017774041637681866,0.6672940660596617,-0.2600258862535849
1.6916372776031494,-0.46312548216865396,-0.2831458497581702,0.14088459777810147,-0.016613612596850968,0.6636569622832584,-0.25638019369748927
1.7117209434509277,-0.4633152556981182,-0.28324783542414184,0.1456572834956102,-0.015435777181743522,0.6632237365557448,-0.25029187082437115
1.7321650981903076,-0.464099039253776,-0.28282686279327957,0.15043514415150008,-0.014511473951994678,0.6644815134975367,-0.25426710572584565
1.7521288394927979,-0.464099039253776,-0.28282686279327957,0.15043514415150008,-0.014511473951994678,0.6644815134975367,-0.25426710572584565
1.772282600402832,-0.46439931440737825,-0.28254553435561996,0.15548768064715196,-0.012992233396368038,0.6715919264513092,-0.2566354530580719
1.7929096221923828,-0.46462199657664377,-0.281055206855057,0.16023508226891145,-0.010913423538598685,0.6618105897627803,-0.27044352548675304
1.8130130767822266,-0.46493678876560535,-0.28021927660052787,0.1626478057885999,-0.010523145034812,0.6591617859639947,-0.2769850046066731
1.833120584487915,-0.4653343060064137,-0.27940659367801823,0.1650709455262971,-0.010498100555965454,0.6570745231569974,-0.28327205471098915
1.853264570236206,-0.46604241889541836,-0.27791365784907357,0.16996974950578517,-0.010578772037218655,0.6530859172157508,-0.2957458756908127
1.8738086223602295,-0.4666586043035919,-0.27662107682259246,0.17493414844113497,-0.011096937409419057,0.6495461100214379,-0.3078829458166616
1.893902063369751,-0.4669549454981724,-0.27604746497601507,0.1774391266372306,-0.01157770197698057,0.6480043736707548,-0.3137824976594309
1.9139823913574219,-0.46749798460737374,-0.274748287625319,0.18240216333039508,-0.01196122031849966,0.6418598234186962,-0.32588635437549646
1.93454909324646,-0.467851983879517,-0.27355787879235216,0.18743007287178717,-0.013003171708785038,0.6350857308243214,-0.33741069392681766
1.9547679424285889,-0.46803483491681,-0.27314007765639464,0.18999780627450816,-0.013722752701939938,0.6335793273645152,-0.3431250337132888
1.9748013019561768,-0.46829091205810813,-0.2724426788289742,0.19517228992794655,-0.014964280557245914,0.6308202038312285,-0.3547030112240883
1.9949123859405518,-0.4684566994502693,-0.2719130020632981,0.20039690531334173,-0.01627421487390381,0.6283590048079737,-0.3662382487646934
2.0159950256347656,-0.4685307511642752,-0.2715081147798767,0.20565773299464665,-0.017595093006100807,0.6257285005988735,-0.3777545557621258
2.0361454486846924,-0.4685980667882404,-0.27101280607455414,0.20820552645540263,-0.017560003056886417,0.6211183350886724,-0.383930150859723
2.056173801422119,-0.4684663015178089,-0.2704568498146541,0.21344988604448528,-0.018613332348205464,0.6147067798551972,-0.39548723625721405
2.0762839317321777,-0.468313157597806,-0.26996613821816434,0.21870959762711142,-0.019241419203266864,0.608572489428777,-0.4074383874574725
2.096406936645508,-0.46831189523708416,-0.26944353962103806,0.22128609188214005,-0.019184294528075237,0.6031360907702868,-0.4136128826042261
2.116511106491089,-0.4676873753573956,-0.2696240641240744,0.22672339338967953,-0.02059647290383197,0.600116033998322,-0.42506994856576635
2.1366214752197266,-0.4673263585839788,-0.26906327988933615,0.23196684069037668,-0.020665129536731285,0.5897046039992179,-0.4373237591914759
2.1570193767547607,-0.4670481044054432,-0.2690281428198074,0.23463546412514585,-0.021101430235830814,0.5848600631460863,-0.44313266390416867
2.1769559383392334,-0.4664847339796811,-0.26900558010412007,0.2399908032077776,-0.02121591923606242,0.5749714545314981,-0.4553983890626659
2.1969759464263916,-0.4656769440601866,-0.2689042148537444,0.24537636579707608,-0.021117406671917603,0.5646151521205236,-0.4678572508001402
2.217045307159424,-0.46531045955131767,-0.2688037624310388,0.24806615063602153,-0.02105939885297164,0.5591482177162725,-0.47409914999715513
2.2371504306793213,-0.4653616386769537,-0.2688244446746679,0.25345362273336003,-0.02300358450911527,0.5485536799691296,-0.484799280618957
2.257516622543335,-0.4653951449660414,-0.2689120850564466,0.2588529608862945,-0.024490351347644473,0.5386484118763659,-0.4959515095208094
2.2773749828338623,-0.4654458797683788,-0.2696031510750922,0.2643387255754211,-0.02759475182921754,0.5347409047762791,-0.5059407703271828
2.2974650859832764,-0.46546810126161914,-0.2702262069240835,0.26711791614040953,-0.030097245980622193,0.5352960864421993,-0.5102002805543794
2.3175580501556396,-0.46542067233530676,-0.2715019455863494,0.27267339968980303,-0.035116169348307844,0.5356213066600367,-0.5186732396235968
2.3376033306121826,-0.4652278135718112,-0.2728338127329898,0.27822394076098506,-0.040164347637747046,0.5348524996006289,-0.5270729739819411
2.358302116394043,-0.4650689287454688,-0.2735267640914329,0.28099734420203143,-0.04271288736296515,0.534046044202287,-0.5312325830473323
2.3784356117248535,-0.4646040664447359,-0.27498192371669905,0.28654205663925536,-0.047906847725993455,0.5315264788146914,-0.5394263051057344
2.398528575897217,-0.4639101090913815,-0.2765531448874442,0.2920868289574656,-0.05327440601263705,0.5277203542795232,-0.54741090154446
2.418581247329712,-0.46294886886585424,-0.2782736795014287,0.2976373379223632,-0.05888252634530892,0.5226238247481835,-0.5551322675513126
2.438704013824463,-0.4623930277066975,-0.279174553698279,0.30041210336571955,-0.06177707834404755,0.5198835734173504,-0.5588906064445426
2.458770990371704,-0.4617684490148537,-0.28278666896871024,0.3062597011072849,-0.0695957817794468,0.5453405273530092,-0.557292471603507
2.478893995285034,-0.460753744245558,-0.2868481814255178,0.31221053336451243,-0.07805903433925697,0.571976835447104,-0.5565961436613553
2.498974084854126,-0.46011853215037934,-0.288956087079651,0.3152007367031052,-0.08162113989595078,0.5855965061003916,-0.5574635869293226
2.5191361904144287,-0.4585712855496341,-0.29242256254352783,0.32102431822621114,-0.0813170773457043,0.6085620987044086,-0.555273930614671
2.5391902923583984,-0.4562661917385947,-0.29485829383139106,0.32659063935896565,-0.07521348915629686,0.615394390774235,-0.5555792891295627
2.559253454208374,-0.454891348964675,-0.29611192194920194,0.3293656568836424,-0.07265903315798407,0.6156175300101405,-0.5590158736098352
2.5793943405151367,-0.4517775542189044,-0.2988642076197634,0.3349449182191383,-0.06912949749438711,0.6119933751838562,-0.5744136971289397
2.5994584560394287,-0.44831197997317673,-0.30181636922446975,0.34054752126427607,-0.06600906579305081,0.6063513767961303,-0.5894040678955085
2.61973237991333,-0.4464571819772332,-0.3033666307372292,0.3433581458084351,-0.06459533545425213,0.6028746270553536,-0.5967603181779624
2.6399974822998047,-0.44252067172369025,-0.3066142925300329,0.3490000985854302,-0.06207528216507731,0.5947708618095262,-0.6111953126425416
2.659980297088623,-0.4384557252364024,-0.3099961304788813,0.3546830998868398,-0.05915242090951903,0.5881896517026587,-0.626041931695412
2.6803107261657715,-0.43424508782383936,-0.3135051348368573,0.36040823104370295,-0.055567370953089654,0.5830933450678154,-0.6415103390182443
2.700263738632202,-0.43203896589960705,-0.31532003638623013,0.3632818848349307,-0.053839235335444185,0.5800571949290964,-0.6491841864183966
2.720329999923706,-0.4267947738217387,-0.31843406948136554,0.36890239941648584,-0.04969164792191177,0.5586621316660942,-0.6713431219376582
2.7404260635375977,-0.4216551143638104,-0.32099348082272544,0.3745036905037022,-0.04280266340341085,0.5373077287276684,-0.6895011272248949
2.760504722595215,-0.4190473890250323,-0.32220916920958725,0.37735511420594015,-0.038902395479332046,0.5270295330962665,-0.6990468685925385
2.7809135913848877,-0.4137543461091263,-0.32459010389770027,0.38314796406479906,-0.030899696606955344,0.5070141167196793,-0.7184533186030505
2.8008220195770264,-0.40840777138231893,-0.32708964801374196,0.38899123092936927,-0.02337940318035826,0.48760974391503836,-0.7375812173311745
2.8208858966827393,-0.4034566961754715,-0.3294974869033584,0.39487917109350285,-0.016106068527091424,0.47372845869023095,-0.7566889297194213
2.8409528732299805,-0.40075799266680173,-0.33084193788656985,0.3978197658844837,-0.01229066582980992,0.46461485306312267,-0.7664054259337898
2.8610353469848633,-0.39556989754042143,-0.33352391138690685,0.4037510171472234,-0.005715762788591579,0.44918354492126344,-0.7849933114470699
2.88110613822937,-0.39039577783559676,-0.3361975401788759,0.40969801695862845,0.0014716705691982762,0.4341684969144559,-0.8042272650598344
2.9029994010925293,-0.387696548218047,-0.3376327163540829,0.41268834495784623,0.004701654023426938,0.4257059298263611,-0.813534934265134
2.923048257827759,-0.38271232205361694,-0.34036084583674636,0.418687225148329,0.010759333863031333,0.4139336947055911,-0.8318718318007824
2.9431188106536865,-0.3777285726797353,-0.34317564624563607,0.42468754239059886,0.01699619292863445,0.4028402400760505,-0.8504293826521009
2.9633095264434814,-0.3723524244571607,-0.346226416664001,0.4307057034862299,0.02295825924966172,0.3874684681742228,-0.8687792309461315
2.983429431915283,-0.3698634680986015,-0.347691731960176,0.43373065895706925,0.025353398466049528,0.3822851245837651,-0.8774375544206475
3.0037455558776855,-0.3649010445139883,-0.3505818671389756,0.4397673418329487,0.030834931475014673,0.37200971165542,-0.8954339433399289
3.023874044418335,-0.362420893566136,-0.3520482667601607,0.4427926657582868,0.0335828905495301,0.3670679090049467,-0.9044525842209628
3.0439817905426025,-0.35746938192338185,-0.3550160763830574,0.4488610823841142,0.03901218034211529,0.35756357273824824,-0.9224525765588886
3.0641026496887207,-0.352630551401787,-0.35776448220491874,0.4550116649816335,0.04493318319441171,0.3476096515425508,-0.9409696788637096
3.084174156188965,-0.34812567450526827,-0.35963703960346605,0.4611052187498245,0.05974682624581415,0.3350712378189823,-0.9633654828336877
3.104487895965576,-0.3459497678070814,-0.3604737782169437,0.46414755365627347,0.06837269371961699,0.3289881793993304,-0.9641249876137528
3.1245102882385254,-0.34166926869584574,-0.36194398759750596,0.4702271036563592,0.08620804100144507,0.31587431858077386,-0.9655232998080441
3.1446022987365723,-0.3377246186978781,-0.3632374756118096,0.4763263739707573,0.10414441819893358,0.30549921446267747,-0.9170190881740875
3.1647047996520996,-0.3359436850392091,-0.36410242815982785,0.4793893232361454,0.11317801219998924,0.3071680411060885,-0.8801676091710895
3.184807300567627,-0.3326432572060604,-0.3658504473182776,0.4854813806793292,0.1319591044581492,0.31666026385616,-0.8540091479997373
3.2049200534820557,-0.3312134637311623,-0.3667951949894372,0.48849674266530935,0.1409974381044401,0.32367519736249817,-0.8503191437354493
3.225003242492676,-0.3286142234404284,-0.36854509764502535,0.4944898845140658,0.1593543851124989,0.3391357859468701,-0.840356957440372
3.245450735092163,-0.3263659722358637,-0.3700032802964386,0.5004462147325414,0.17777814658783478,0.3547844852028587,-0.818704532544106
3.265507936477661,-0.3253581163837976,-0.37056920766270446,0.5034041352169287,0.18626546962067553,0.36103615808342515,-0.806818607578128
3.285764455795288,-0.32337041775589714,-0.37154021267137505,0.509319553567689,0.2020411302872748,0.3698680568525601,-0.8073348808271291
3.3066465854644775,-0.32132093081937574,-0.372524412647288,0.5153044330506339,0.21580007827080327,0.37551020244889793,-0.8036467699320345
3.326977014541626,-0.32025541431613597,-0.3730760392777404,0.5183240375944688,0.2217497878908913,0.37761431781973986,-0.8019459485179958
3.346893072128296,-0.31760381948305877,-0.3740964374645112,0.5242988529006373,0.21865765402045767,0.3597628125601264,-0.8009519861027803
3.368757724761963,-0.3163853926291732,-0.3743910431676645,0.5273353400285375,0.2173747460121364,0.3485239848444084,-0.8002847276747722
3.38883376121521,-0.3135497960707531,-0.3755557728064726,0.5332471785334334,0.21393817674326496,0.331843207797367,-0.795415551706284
3.409090042114258,-0.31102932075080447,-0.3761830903381584,0.5393027161474135,0.21073682084472722,0.30797273421652865,-0.7899419283676431
3.4290692806243896,-0.3095591382182929,-0.3769408987498369,0.5422857908646429,0.20853409973183093,0.2996192209680605,-0.7866594058858137
3.4491286277770996,-0.3068245628604994,-0.3780805635575867,0.548361968768648,0.2055055707183171,0.2800994011070327,-0.7807229035314368
3.469308853149414,-0.3041887747047564,-0.3789897513446936,0.5545581091844836,0.20337127673568106,0.258250189058573,-0.7756811640053121
3.4894018173217773,-0.30281493518113506,-0.3795212493672663,0.5576737623017505,0.20214935501006795,0.2474948609606757,-0.7737611390712437
3.509490728378296,-0.29997119634104463,-0.3807442890382068,0.5639543888076106,0.20006475841794316,0.2268904067330505,-0.7697109803847532
3.5295634269714355,-0.2972229103242049,-0.3817144706068017,0.5703643206489462,0.1993951992586138,0.2033817506768576,-0.7687960231988415
3.549654483795166,-0.2956213728711197,-0.38264395604501583,0.5735235565765535,0.19827852344219857,0.19509522483937206,-0.7744635356968911
3.5697197914123535,-0.29240519384673547,-0.38428243637643733,0.5798675873048431,0.19563778966792972,0.17717699697316686,-0.7804348680371673
3.589782238006592,-0.28914043809635254,-0.38587093751348506,0.5863161810332916,0.19368592686977518,0.15840202054245137,-0.7875056940894875
3.6098792552948,-0.2874452766604209,-0.3868610770953562,0.589493187486031,0.19295680851179145,0.150636059629588,-0.7935742231859514
3.6300837993621826,-0.2839217708830065,-0.38833287994105187,0.59596138988691,0.18858358402911451,0.1329565907004952,-0.8027747895052751
3.650078773498535,-0.2803970283002981,-0.39031606190604246,0.6023346836373785,0.18996838033922872,0.11661406646866196,-0.8177916379921621
3.670332193374634,-0.27688990547203157,-0.3918474388653628,0.6089492319211964,0.18606939757503788,0.09968988443219541,-0.8281251336777303
3.690490961074829,-0.2750457570055116,-0.3928506598215564,0.6122108640994489,0.18728191926053764,0.09470345059870651,-0.8362243120512133
3.71053409576416,-0.2714799566916312,-0.394663519844258,0.6188043022377003,0.18811527893251206,0.08423368831838257,-0.8509577414240166
3.7305891513824463,-0.2676503832712943,-0.3964579584056864,0.6254365937747305,0.18604930720817428,0.06841722923127551,-0.8631431696964238
3.7516634464263916,-0.26555449113173274,-0.39750658307328485,0.6286943735557255,0.18376080709931825,0.06089401460468068,-0.8679962562400214
3.771784782409668,-0.2615323302405502,-0.39911988066909404,0.6353625393043342,0.17805061394190455,0.0376574126184038,-0.876949791684012
3.791860818862915,-0.25741309642100063,-0.4008073189100691,0.6421881186608768,0.17151839377781108,0.011809453881643905,-0.8852211325037189
3.8125298023223877,-0.2531382844466646,-0.40302200804248617,0.6490508768117698,0.17184067336859374,0.0002775627205450146,-0.8996796083714559
3.832512140274048,-0.2512339780592241,-0.40382384444485236,0.6526243579078872,0.17629689118759864,-0.003907956995243281,-0.9111067920409328
3.852588415145874,-0.24729080609839513,-0.4057327934409968,0.6597845034962041,0.18423536603404336,-0.010615519693962742,-0.9329193935440723
3.872661828994751,-0.24340173085921818,-0.40764487412893036,0.6669479175765453,0.19203954227649264,-0.015414646168285364,-0.9545175176539729
3.892765760421753,-0.24155400970802005,-0.4084643084287777,0.6706327237850999,0.19663958346312937,-0.019390480503151213,-0.9660772108953317
3.912838935852051,-0.23756362460981206,-0.4106877118850983,0.6778112465703637,0.20343659301440142,-0.02167738087916418,-0.9865542443398398
3.932938814163208,-0.23367183719204257,-0.41284013405658027,0.6849934018145168,0.2104771592859685,-0.022717613767286187,-1.0072163718101637
3.9529812335968018,-0.23014591688653763,-0.4145137683851969,0.6924715443438734,0.21992775089240127,-0.02800938024509176,-1.030458523083305
3.9730887413024902,-0.2282118864455551,-0.4156651400672341,0.6961352345656465,0.22349876905372482,-0.028525288849395317,-1.0408309027220093
3.9932048320770264,-0.22437115871996643,-0.4179924745807841,0.703401501391562,0.23044572120572085,-0.027355390320120066,-1.0612768461695805
4.013257265090942,-0.22083496630369565,-0.4199535734164078,0.7108265512330008,0.2390125361892119,-0.027762248694951017,-1.0834052412802309
4.03346061706543,-0.21921439329043116,-0.42077388526393633,0.7146710806990935,0.24420459179847112,-0.02954033189101089,-1.0954409450156566
4.0535759925842285,-0.21545654318240212,-0.4232385387077132,0.7220388150712259,0.2512657820314232,-0.0346580173753979,-1.115901321393512
4.073659658432007,-0.2123386938809011,-0.42491947412911885,0.7297914942787455,0.26135103763442713,-0.03646719145358398,-1.1395719622402285
4.093773365020752,-0.2086342267898216,-0.4275066865371742,0.7372210355481851,0.2680758085595932,-0.04441181478973712,-1.1596003038591383
4.113874912261963,-0.20713056211364553,-0.4283680771564637,0.7411130618255215,0.2728124632458129,-0.04429066472785973,-1.1710696069089528
4.133976459503174,-0.20384095377720732,-0.4305726484602567,0.7488179080447974,0.28097861196637797,-0.04864348617717365,-1.1925978922434857
4.154036283493042,-0.200606548714756,-0.43276858435318544,0.7565260946556029,0.2884995540206613,-0.05235439914718051,-1.2134461357591848
4.174138307571411,-0.1992225416445309,-0.43363304210952086,0.760537115751515,0.2929504938938991,-0.05231410776036353,-1.2246212528352431
4.194287538528442,-0.1956526191821963,-0.4363869505627097,0.7681064470325113,0.29878986061542195,-0.05965169350081224,-1.2436266639257978
4.214310169219971,-0.19297542763981804,-0.43815804062027114,0.776142975520783,0.3070244631258511,-0.05766465644685663,-1.2651904857990464
4.23476767539978,-0.18946132454796347,-0.4409918023626486,0.7837705726983151,0.31245829372489325,-0.06420791805697201,-1.2837231175557349
4.254899263381958,-0.18816299068015074,-0.4418970369121324,0.787788790202458,0.3162943840443209,-0.062212835184521885,-1.2941591878341887
4.2749738693237305,-0.18516347930501273,-0.44427201871367217,0.7956996845107446,0.3228237171841182,-0.06330835679217205,-1.3138094689814166
4.295335054397583,-0.18217202855634823,-0.4466860811505771,0.8035776027277255,0.32893299543839344,-0.06349226994615617,-1.3329684852268768
4.315808296203613,-0.1809407070988369,-0.44761688303984387,0.8076821927538524,0.33201984107137633,-0.06230811966631507,-1.3426675696939456
4.3358283042907715,-0.1774675130734795,-0.4506374151964386,0.8154102604232848,0.3361240796734029,-0.06814774855259077,-1.3598001085183207
4.356190919876099,-0.1749617121473257,-0.452613040068427,0.8235450371170613,0.3419514991290443,-0.06913728099579634,-1.3786924262625992
4.376142740249634,-0.1714747833574366,-0.45574836656943213,0.8313123817817959,0.34512380713346963,-0.07488967931839048,-1.3948783818470891
4.396319150924683,-0.17021947275036173,-0.4567759924985334,0.8353821419773385,0.3476960494739428,-0.07570680558435527,-1.403951362424435
4.416348695755005,-0.1672301313420797,-0.45942685570745506,0.8433712063154534,0.3513058381040181,-0.07917074219046911,-1.4205531618002925
4.4365456104278564,-0.16545980615876102,-0.46107074842934775,0.8472721353350405,0.3523175204491925,-0.08213814223741021,-1.4280751770749003
4.456538438796997,-0.1629516427860099,-0.46325734151095993,0.8554650883175707,0.3561649619399662,-0.08500485933169293,-1.444879848512843
4.476622581481934,-0.16115779879065587,-0.46494164110039393,0.859371594601559,0.35660961611155245,-0.08816957891190146,-1.4518492298672074
4.496713876724243,-0.1580896694707921,-0.46778432930084946,0.8674013460745146,0.3583888942875411,-0.09264564203338516,-1.466672175566575
4.516826629638672,-0.15502170469880075,-0.47066115098599126,0.8754456070493033,0.35969395740689425,-0.09664203917276971,-1.480996530913222
4.53690242767334,-0.153179417504887,-0.4724399823437463,0.879362127740018,0.3595895881108028,-0.10002619161511911,-1.487429316333681
4.557024002075195,-0.15064925763940482,-0.4747942465507566,0.8876641108412385,0.3609094916391257,-0.10144023362360911,-1.5017739953328209
4.577077150344849,-0.14689963910055592,-0.47845491534734125,0.8955159688276285,0.3598933564594311,-0.1083373864350545,-1.5138480646426036
4.597170829772949,-0.1456149217282367,-0.4796743447324385,0.8996908978961697,0.35993380298750255,-0.10873019818752597,-1.520428617479961
4.617259979248047,-0.14226779129392692,-0.48285678416239264,0.9077049553792966,0.35682297297029514,-0.11425476180597385,-1.5305695999377642
4.637329339981079,-0.1386712441535596,-0.4862310701041133,0.9156586689002276,0.34929100005475167,-0.12107450488347808,-1.5366902427752955
4.657953500747681,-0.1371677583209287,-0.487613046202663,0.9198036398148602,0.34505481666138554,-0.12237043372218252,-1.5393624717447059
4.677922487258911,-0.1327964907929656,-0.49174136841530114,0.927470640772879,0.33768895718140984,-0.13428297948665954,-1.5455909002877803
4.698003768920898,-0.1295644134293677,-0.49468597878368065,0.9358057008977598,0.32814887320518105,-0.13828039255671642,-1.5500306208677137
4.718059539794922,-0.12602790181964796,-0.49780210487737436,0.9439938675550575,0.3189795563099215,-0.1542743842168599,-1.554772863357871
4.738136053085327,-0.12370977615387128,-0.4999709663733161,0.9478444291062882,0.31449876575719043,-0.16093945179560992,-1.5571816350879804
4.7582948207855225,-0.11955399108171762,-0.5037170069853664,0.955852473234992,0.3039891186189589,-0.17070402123414435,-1.5607120553494696
4.7783203125,-0.11629594111361943,-0.5064633706322744,0.9643638847364808,0.29283188618183703,-0.1834023322117217,-1.5637521201395017
4.79837703704834,-0.11257846618380815,-0.5096901979790871,0.9725746211849178,0.28085555567595466,-0.1967446909780114,-1.5659377574906321
4.818483114242554,-0.11055028124267943,-0.5114956521113758,0.9765989899121084,0.27500592329536055,-0.2003190363941332,-1.5671398302236874
4.838681221008301,-0.10711044948744987,-0.5142922245712495,0.9851158724912438,0.26030148007175247,-0.20852087946077522,-1.567039475607815
4.858699560165405,-0.10293789473332812,-0.5179775839616336,0.9931158716920716,0.2478250396659387,-0.21744454560914883,-1.5687315709594107
4.878786325454712,-0.09928303143723033,-0.5208635312436005,1.001608452993003,0.2318339874675384,-0.22637336622187043,-1.5675617038752838
4.906105041503906,-0.09928303143723033,-0.5208635312436005,1.001608452993003,0.2318339874675384,-0.22637336622187043,-1.5675617038752838
4.936147928237915,-0.09928303143723033,-0.5208635312436005,1.001608452993003,0.2318339874675384,-0.22637336622187043,-1.5675617038752838
4.962540864944458,-0.09928303143723033,-0.5208635312436005,1.001608452993003,0.2318339874675384,-0.22637336622187043,-1.5675617038752838
4.982609033584595,-0.09494364306689947,-0.5245761273522068,1.0096629303024527,0.21796718625508862,-0.23076402218459435,-1.5681555402745704
5.003197193145752,-0.09103704491789498,-0.5275793874912263,1.0181356106514803,0.20098362432768424,-0.2404938109880725,-1.5662249106684285
5.02311110496521,-0.08621691079405328,-0.5318061113564873,1.0259219678688671,0.1881999574174338,-0.24249652233272195,-1.5677595755566447
5.043152093887329,-0.08415099008123741,-0.5333646363540496,1.0301460501036062,0.1794837087018813,-0.2476498636809558,-1.5666548204925461
5.063235759735107,-0.07975699673599068,-0.5364424763889758,1.038504207826286,0.16447092946365563,-0.25704616707322625,-1.5669361862673028
5.083442687988281,-0.07742411583954634,-0.537974455667566,1.0426427867443842,0.15818691397103446,-0.2613567022653988,-1.5683314784364828
5.103574752807617,-0.07197621609690182,-0.5423741491010018,1.0503430086849355,0.14743154608581688,-0.2648555430432819,-1.5722769423546825
5.12378454208374,-0.06709564880184075,-0.5455744215018132,1.0586214373575853,0.13369935225077634,-0.2750944239926043,-1.5741840917733207
5.144010543823242,-0.06210784817119227,-0.5488589757859259,1.0669278001037121,0.11824190745135475,-0.28689653374059526,-1.5746407309319979
5.164154529571533,-0.059396260447808956,-0.5511652305536888,1.0707757859174039,0.11168422591799027,-0.2897438089078589,-1.5756291896851877
5.187070846557617,-0.056919168219111874,-0.5535208531296162,1.074602024338602,0.10512842100029145,-0.2925567431523886,-1.5766191477904248
5.206998825073242,-0.056919168219111874,-0.5535208531296162,1.074602024338602,0.10512842100029145,-0.2925567431523886,-1.5766191477904248
5.227476358413696,-0.05167230755523312,-0.5570033625025657,1.0828961657498282,0.08717484123820404,-0.3071007414331857,-1.575070324644345
5.247285604476929,-0.04626656779297188,-0.5605803977094379,1.0911884485048156,0.0683059520279243,-0.3225757484644144,-1.57283527571355
5.267452955245972,-0.040701888153145085,-0.5642646199351319,1.099466727479198,0.04853857052674056,-0.3389894270401419,-1.569942553401726
5.287754535675049,-0.03826030900940758,-0.5661753522151604,1.1035823951009247,0.038467069259414455,-0.34729134911247056,-1.5683624209892346
5.307672500610352,-0.033551618985553186,-0.570104327943274,1.111778872728212,0.01785351501980166,-0.36431320813044343,-1.5648760905071137
5.328101873397827,-0.028324073369265804,-0.574090575406934,1.1199971559713222,-0.003687490218552015,-0.38261116201390105,-1.5607844109286457
5.348219871520996,-0.02531981231345852,-0.5761034774806838,1.1241075871030808,-0.014822809800503463,-0.392205024019562,-1.5584949688083427
5.368272542953491,-0.019223430815324974,-0.5802151303347429,1.1322960420975117,-0.03750786089539281,-0.4117290066428223,-1.5536613943698647
5.388362884521484,-0.013128494950026829,-0.5844191954977972,1.1404542828636846,-0.060652338011517294,-0.43167996407897785,-1.5485898052297309
5.40924596786499,-0.008305946914806144,-0.5887895706106335,1.1485297172155107,-0.08359167967646954,-0.4510384878067777,-1.543765519562351
5.429495811462402,-0.005144939980622123,-0.590969745495419,1.1525725919664336,-0.0954949268241142,-0.46128702354487594,-1.5410773482124407
5.449575424194336,0.0012452777926190983,-0.5893262831899768,1.1534054144026238,-0.1139689083450525,-0.47227234866938017,-1.5326395830709363
5.469860315322876,0.00785589325960079,-0.5820627012976721,1.1470721307049307,-0.11857411999343323,-0.47286308927330506,-1.5227728462366494
5.48995041847229,0.011174846854124655,-0.5785142576874995,1.1438575146681609,-0.11680114205612824,-0.4719784877645639,-1.5183628150728967
5.510058403015137,0.017819132294532893,-0.5714851971780963,1.1373813393292536,-0.11265834929315545,-0.4691818607449462,-1.5099418781150542
5.530132532119751,0.02447252695737413,-0.5645477378353388,1.1308564449153933,-0.1077908778150578,-0.4652201757755917,-1.50202189400476
5.550234794616699,0.02113944459243383,-0.5612144413600876,1.1275228013053151,-0.10445754448172448,-0.46188693339471026,-1.498687625348455
5.57030177116394,0.014472878788838078,-0.5545482578601685,1.1208561346386483,-0.09778924265490686,-0.45522025464865984,-1.4920224408656142
5.59051513671875,0.007749103888984762,-0.5535550900398948,1.1146674650743127,-0.0967175353089287,-0.4566265499505962,-1.4881308675798512
5.610494613647461,0.0009135574741131417,-0.5573987601928942,1.1093068831214827,-0.10645259087545306,-0.4738373263015622,-1.483354814029488
5.6305670738220215,-0.002498975929514934,-0.5593232757200995,1.106606180297891,-0.11127451442780542,-0.4826606226440627,-1.4810269305947785
5.650690078735352,-0.00919390786505404,-0.5636414201376067,1.1009480837593795,-0.13206799966652763,-0.49720341144026375,-1.4778738350327034
5.670791387557983,-0.0026496899264179577,-0.567571020889387,1.0980480397951413,-0.15681665165575856,-0.5180393668068854,-1.472089423494226
5.690875291824341,0.0005775253294256957,-0.569327080048546,1.0955213552313245,-0.17157399139483537,-0.5316227503623004,-1.467467753415757
5.711009502410889,0.007003494879752877,-0.5721708995218956,1.0906972668391386,-0.20705884968184002,-0.567765409678794,-1.4541649363119757
5.731050252914429,0.013413222758433877,-0.5755295622165757,1.0920752476673425,-0.24001850284746123,-0.6001098423660418,-1.4427780540590125
5.751249551773071,0.016648967166597594,-0.5777636274773886,1.0957890426706842,-0.25225840312733194,-0.6099623231173779,-1.4400390262615181
5.77149510383606,0.023125420235362792,-0.5822379630995004,1.1031358249613235,-0.27633346692696037,-0.629313096373198,-1.4349771229656392
5.791501998901367,0.029543056854393124,-0.5867017313044653,1.1104543363673236,-0.3004107818398985,-0.6486345195117493,-1.4300248263327096
5.811579704284668,0.03620229965712133,-0.5800077970762788,1.103792704537449,-0.3072403169588066,-0.6421433619155428,-1.423241629037797
5.831784248352051,0.039514448969688955,-0.5765866296715406,1.1004783682435377,-0.30443218634469893,-0.6393788188659637,-1.4195341430176815
5.8517680168151855,0.04615110532276009,-0.569811250795514,1.0938406776452043,-0.2984998452333558,-0.6336431643332101,-1.4123679616958658
5.871887683868408,0.052795587622668595,-0.5629689618041233,1.0872505039585407,-0.29322863255019993,-0.628835170825433,-1.4047643789229463
5.892221927642822,0.05612384345998214,-0.5595825775768121,1.0839404288927126,-0.2903067901811535,-0.6260439005719739,-1.4011542471994276
5.912319898605347,0.04945741729523013,-0.5529161986315,1.0772734635909593,-0.28363928052337817,-0.6193770156549557,-1.394487379774129
5.93244743347168,0.04279081270991068,-0.5462499807409922,1.0706067969242925,-0.2769709857266918,-0.6127097571044413,-1.3878220293276353
5.952493190765381,0.036069127243959935,-0.55136714509166,1.064646146572124,-0.282499878087953,-0.6224317431285594,-1.3862208991762635
5.972569227218628,0.03273599540734927,-0.5480338640531927,1.0613125154965115,-0.27916654475461966,-0.6190984929664975,-1.3895533196547374
5.992759466171265,0.026057358534291683,-0.5477770658268863,1.0547561930441967,-0.27454114642091026,-0.6152385545620102,-1.394839656335927
6.012986898422241,0.019411600179194667,-0.5527358056870733,1.0511165829847107,-0.2880516733208864,-0.627195470217844,-1.3923245615804154
6.033056974411011,0.01646379156825055,-0.5554766373408104,1.0503901175886545,-0.2961125559650751,-0.6304321035211568,-1.3924447596488965
6.0531604290008545,0.023118062121609138,-0.560623479607386,1.0574823266752884,-0.31361054242250885,-0.6398648733189332,-1.3918900781119632
6.073284149169922,0.02978696376838877,-0.5650704941811695,1.0646596286991512,-0.33549952139961703,-0.6563576709310354,-1.3885309892462632
6.093821287155151,0.023088895980300582,-0.5709150462237577,1.0715060225036575,-0.34791838387037116,-0.6583132553139767,-1.3914090468185092
6.1139302253723145,0.026372254396283934,-0.5731389991812279,1.075101107343605,-0.3592250961015038,-0.667232055294629,-1.3895426989768285
6.1339991092681885,0.03289864079250475,-0.5778235984422012,1.0822214981614682,-0.38023894326660035,-0.6823994644786088,-1.3868869432886288
6.15435266494751,0.032686192691009135,-0.5825212678147372,1.084589361989793,-0.40131011054665927,-0.6974904893861611,-1.3842405478833515
6.174486875534058,0.029192328660702427,-0.5848251964399901,1.0835108729352436,-0.41226858387655024,-0.7058730082157574,-1.3826812124974277
6.195357322692871,0.02221178167169545,-0.5903825774517456,1.0902710925795107,-0.4243743577395925,-0.7063279506303742,-1.385885880000966
6.2151100635528564,0.014972101833664049,-0.5954770074381317,1.096991254328672,-0.43732865527310455,-0.7061903406812755,-1.3884928072003446
6.235247373580933,0.01113481397183333,-0.5975565790800419,1.1003805522625096,-0.44587086530059494,-0.7081461837855377,-1.3884395518056116
6.255171537399292,0.0037103290982616714,-0.6025261678581165,1.1070924465614127,-0.45977837040053327,-0.7086528980775886,-1.3903654802427914
6.275262355804443,-0.003836794108772547,-0.6073625026981612,1.1138767527523223,-0.4747362858258211,-0.7101698326769418,-1.3915618022159788
6.295386552810669,-0.0077630425743013196,-0.6095007297646704,1.1173200137093369,-0.48365557411004895,-0.7123386401317295,-1.3912005506518588
6.315420150756836,-0.01481838727393863,-0.6154608238803049,1.1240193916651524,-0.4936545398190955,-0.7088721510721686,-1.395651930453492
6.335594177246094,-0.022787523931915098,-0.6199031635003811,1.1308905272978962,-0.5114170172723931,-0.7125718415278665,-1.3948476032913897
6.35561728477478,-0.030275327315738357,-0.6252009185804911,1.1377061433395466,-0.5229403469979608,-0.7091294836104429,-1.3982069691347412
6.375829458236694,-0.028217989094697592,-0.6267096351850405,1.1413726161635585,-0.5346175312432302,-0.7132847527546782,-1.3959891460272644
6.395831108093262,-0.024446317869370418,-0.629479925432594,1.1485109201931394,-0.5592820016528007,-0.7201512640560142,-1.3901223248933197
6.415992736816406,-0.020496591422481333,-0.6325306914043398,1.1556067830067325,-0.5821527679389877,-0.72366424463346,-1.385323383204845
6.435991287231445,-0.01835643774479687,-0.6341902965484578,1.1591662548123978,-0.5915567590403288,-0.7228127727400221,-1.3843179753844177
6.456069707870483,-0.013601263789611427,-0.6380719004516117,1.1662052096694195,-0.6066883786726115,-0.7186483000322685,-1.3848450608111749
6.476214170455933,-0.009902056115354678,-0.6404708861595997,1.1734589995158462,-0.6265378104347216,-0.7159012386904394,-1.381881684903695
6.496240854263306,-0.005228924419308319,-0.6443234161602549,1.1805395630348376,-0.642062399573884,-0.711797952466571,-1.3820281763555877
6.516495943069458,-0.0033969191858482656,-0.6455851706002907,1.1841839810125065,-0.6520544772838283,-0.7103772323153705,-1.3804231746750566
6.536769151687622,0.001699403909530678,-0.6433944829792076,1.18453652777007,-0.6591560649713938,-0.7059404130392697,-1.3751647199263302
6.556637287139893,0.008325730041468962,-0.6366554424198384,1.177883605532282,-0.6526948477836365,-0.6993745864038484,-1.3683564868995992
6.576773166656494,0.011659075977749886,-0.6333224779992443,1.1745502721989487,-0.6493606615242441,-0.6960404616593258,-1.3650237743307934
6.5968382358551025,0.018325763495626694,-0.6266565264492246,1.1678836055322819,-0.6426923262310063,-0.689372210438869,-1.358358313529342
6.616905689239502,0.024991938855601043,-0.6199890544784669,1.161216724074658,-0.6360286113008248,-0.6827088125615643,-1.3516896582799043
6.637006998062134,0.028317399685354263,-0.616641603459575,1.1578789810409789,-0.632742480134003,-0.6794213630814852,-1.3483238660981485
6.657082557678223,0.03498407288196962,-0.6099755160993816,1.151212314374312,-0.6260744199900883,-0.6727532660831685,-1.3416581800673102
6.677184820175171,0.04165074228381134,-0.6033094551489083,1.1445456477076452,-0.6194062762212093,-0.6660850545865798,-1.334992545504861
6.6972455978393555,0.04498407531656505,-0.5999764141092158,1.1412123143743118,-0.6160722231367576,-0.6627509545390495,-1.3316597114373545
6.717366933822632,0.051643723024757886,-0.593296011254917,1.1345399853861329,-0.6094636128922946,-0.6562329701277463,-1.324963044062872
6.737451791763306,0.05830971643913977,-0.5866278992539519,1.127872659066289,-0.6028029188999751,-0.6495837897691625,-1.3182936679380455
6.75774621963501,0.0649763719412327,-0.5799617460322669,1.1212059923996223,-0.5961349413275995,-0.6429156405836272,-1.311627886921249
6.777740955352783,0.06830969843627505,-0.5766286605039848,1.1178726590662889,-0.5928009689041551,-0.639581573750343,-1.3082949822852878
6.79798698425293,0.07497634909666359,-0.5699624722712264,1.111205992399622,-0.586133055856353,-0.6329134565815897,-1.301629145831176
6.818049192428589,0.0816429968853108,-0.5632962620091397,1.1045393257329552,-0.5794651839486133,-0.6262453625519849,-1.2949632745619686
6.838074445724487,0.08830963445185379,-0.5566301811528835,1.0978726590662884,-0.572796946922478,-0.6195768089806561,-1.288297635657249
6.858193397521973,0.09164294804849467,-0.5532972061499714,1.094539325732955,-0.5694626436613586,-0.616242299888259,-1.2849649337564857
6.878291368484497,0.09830957236273523,-0.5466312328428808,1.0878726590662882,-0.5627940807745124,-0.6095733099540438,-1.2782994935325454
6.89841628074646,0.10497619316947956,-0.5399652295278631,1.0812059923996213,-0.5561255746898446,-0.6029043595097803,-1.2716340064887404
6.9184489250183105,0.11164281085400203,-0.5332991974303066,1.0745393257329545,-0.5494571238302708,-0.596235450619317,-1.2649684746342462
6.938571214675903,0.11497611864224867,-0.5299661709533191,1.071205992399621,-0.5461229186502222,-0.5929010123757843,-1.2616356924989998
6.958650350570679,0.12164273233722556,-0.523300097839797,1.0645393257329543,-0.5394545479340674,-0.5862321694781656,-1.25497009694231
6.978827714920044,0.12497603833212428,-0.5199670514710151,1.0612059923996209,-0.5361203820768046,-0.5828977652805171,-1.2516372839519436
6.998859405517578,0.1316426488310756,-0.5133009397525917,1.054539325732954,-0.5294520886115026,-0.5762289924830536,-1.2449716285740289
7.018928050994873,0.13830925761852786,-0.5066348035451349,1.0478726590662872,-0.5227838452169731,-0.569560268537821,-1.2383059352920422
7.039031028747559,0.14164256147099613,-0.5033017265532053,1.0445393257329538,-0.5194497419711083,-0.5662259253817237,-1.2349730748975432
7.059172630310059,0.14830916828736013,-0.4966355553570496,1.037872659066287,-0.5127815717825337,-0.5595572776396014,-1.22830732746819
7.0792927742004395,0.15497577416792963,-0.4899693619303259,1.0312059923996202,-0.5061134492616606,-0.5528886824953804,-1.2216415456040761
7.099300146102905,0.16164237939981746,-0.4833031470988251,1.0245393257329534,-0.49944537359468666,-0.5462201412572301,-1.2149757305276419
7.119788646697998,0.1649756818585543,-0.4799700319033585,1.02120599239962,-0.49611135309735843,-0.54288589123037,-1.2116428108926667
7.139899969100952,0.17164228662627712,-0.47330378642657545,1.0145393257329531,-0.4894433463436788,-0.5362174330508748,-1.204976948098913
7.159994125366211,0.1783088914038471,-0.4666375214411487,1.0078726590662863,-0.48277538471337844,-0.529549031533369,-1.1983110547748757
7.180245637893677,0.18497549643048022,-0.45997123764540887,1.0012059923996195,-0.47610746761523814,-0.5228806875614599,-1.19164513185647
7.200320720672607,0.18830879910809212,-0.4566380889035047,0.9978726590662862,-0.4727735255936405,-0.5195465373951244,-1.188312159572419
7.22038197517395,0.1949754049258814,-0.44997177813571776,0.9912059923996196,-0.4661056742824533,-0.5128782811070983,-1.1816461938644682
7.240526437759399,0.20164201152850145,-0.44330545017552686,0.984539325732953,-0.45943786620616006,-0.5062100839832255,-1.1749802006051513
7.260629653930664,0.20830859231430546,-0.4366392512936482,0.9778726590662864,-0.4527696041137388,-0.4995412775354701,-1.1683144717266385
7.280691385269165,0.21497517440612962,-0.4299730311206047,0.9712059923996198,-0.4461013966760308,-0.4928725494058176,-1.161648708979164
7.300856828689575,0.2183084660201498,-0.4266399132407186,0.9678726590662865,-0.4427673134275159,-0.4895382150080575,-1.1583158150769826
7.320906400680542,0.2249750505212914,-0.4199736623146804,0.9612059923996199,-0.4360991876489829,-0.48286960579382554,-1.1516500026322838
7.340993165969849,0.23164162704150504,-0.41330744118259966,0.9545393257329533,-0.4294309408970706,-0.47620085103639725,-1.1449842623970305
7.361084222793579,0.23830821545806266,-0.4066411515491203,0.9478726590662867,-0.4227629227045319,-0.4695324010512214,-1.1383183858860404
7.381165027618408,0.24164151048717603,-0.4033079997913313,0.9445393257329534,-0.41942893357996136,-0.4661982058576058,-1.1349854359067657
7.401321172714233,0.2483081392812123,-0.3966415108293109,0.9378726590662868,-0.41276162197973815,-0.4595306940054049,-1.1283191462575695
7.421404838562012,0.2549747335205236,-0.3899751762192871,0.9312059923996202,-0.40609373626664197,-0.45286244215197696,-1.1216531925984963
7.441468000411987,0.26164133027514513,-0.3833088248147359,0.9245393257329536,-0.3994259021335744,-0.44619426770756615,-1.114987209305899
7.461607933044434,0.26497462963476426,-0.3799756429578786,0.9212059923996203,-0.3960920043739335,-0.44286020940678494,-1.111654206621815
7.481688737869263,0.27164123036922927,-0.37330926729456626,0.9145393257329537,-0.38942424707671586,-0.4361921499452593,-1.1049881794929732
7.501818895339966,0.27830783384451285,-0.36664287617101793,0.9078726590662871,-0.382756540172388,-0.4295241655890116,-1.0983221237710077
7.521875858306885,0.28164113662588086,-0.3633096749867917,0.9045393257329538,-0.37942270538780887,-0.42619020112520206,-1.0949890853469098
7.542111873626709,0.28806015083426173,-0.35664327493711684,0.8978726590662872,-0.3727550220637472,-0.4195222622404431,-1.0883230170906444
7.562119007110596,0.29157402925732523,-0.3499769657730004,0.8912059923996206,-0.3660869829244029,-0.4128538851220319,-1.0816571569842774
7.582165718078613,0.2949523669497717,-0.3433103522129299,0.8845389221198006,-0.3594203162577362,-0.40618738103295987,-1.0749890182590531
7.602428674697876,0.29739572910591794,-0.33997713905562876,0.8812055887864673,-0.3560865180185008,-0.4028534805301618,-1.0716559602153315
7.62244439125061,0.2907289714996367,-0.33331085447826686,0.8745389221198007,-0.3494183685131716,-0.3961850171200985,-1.0649901728580047
7.644174337387085,0.2940623478967208,-0.32997734196968276,0.8712055887864674,-0.3460857355867117,-0.39285254910664674,-1.0616564311753034
7.664238214492798,0.2973956364073675,-0.3266441967520353,0.8678722554531341,-0.34275166996835404,-0.3895183461977022,-1.0583235357389076
7.68434739112854,0.2907288850306689,-0.31997788467546384,0.8612055887864675,-0.33608361860155117,-0.3828500369801634,-1.051657695028482
7.704608917236328,0.29200822833073353,-0.31664439198518257,0.8578722554531342,-0.332750915867616,-0.37951749112924144,-1.0483240003729315
7.724578619003296,0.2898265067640299,-0.3099779389817607,0.8512053925624156,-0.3260835617949634,-0.37285010357559595,-1.041657011762805
7.7446558475494385,0.28472142494276054,-0.30331145939216414,0.8445385366109392,-0.31941628036036723,-0.36618280855635177,-1.03498999964117
7.764841794967651,0.27979358703585305,-0.2966449677039967,0.8378716653819682,-0.31274907675974867,-0.3595156176637516,-1.0283228766317416
7.785320997238159,0.27646022081711136,-0.29331177383878465,0.8345383320486349,-0.3094151979107248,-0.3561816738702368,-1.0249898752928868
7.805431842803955,0.26979349162521926,-0.2866453735653703,0.8278716653819683,-0.3027474902963125,-0.34951385334934804,-1.0183238439549682
7.825499773025513,0.2631270856903865,-0.27997886945492567,0.8212047911899869,-0.2960803274969597,-0.3428467264850621,-1.0116566694373603
7.845730543136597,0.2564609707462209,-0.27331226903191197,0.8145377287545229,-0.289413660830293,-0.33618022093086514,-1.0049884457308065
7.865717172622681,0.2497948179648752,-0.2666456628017711,0.8078706912443943,-0.2827469941636263,-0.3295137052935402,-0.9983203089726924
7.885841608047485,0.24646172787056983,-0.26331235763031935,0.8045371814698412,-0.27941366083029295,-0.32618044379693667,-0.9949862724413638
7.905898571014404,0.23979552126775677,-0.25664574341020424,0.7978701791588513,-0.27274699416362624,-0.31951391366430676,-0.9883182614898572
7.926203489303589,0.2331292807923812,-0.2499791243246093,0.7912031988830962,-0.26608032749695953,-0.3128473743124926,-0.9816503311581826
7.946115493774414,0.22646253219974272,-0.24331283294157147,0.7845365322164296,-0.25941223781081413,-0.30617927333116113,-0.974984559714486
7.966501951217651,0.22312916019442505,-0.23997967887330715,0.7812031988830963,-0.2560782286349257,-0.30284526629352265,-0.9716516529284521
7.986476898193359,0.21646242058419535,-0.23331335462011876,0.7745365322164297,-0.2494102791374953,-0.29617733497191473,-0.9649857985092697
8.006534814834595,0.2097957209555838,-0.22664684625131262,0.7678698655487479,-0.24274302632410774,-0.2895101013487848,-0.9583195049997238
8.026909828186035,0.2031290253882891,-0.21998033331058103,0.7612031967716091,-0.23607579436240353,-0.28284289292045683,-0.9516531903221936
8.046890497207642,0.19979599543711815,-0.21664703025675475,0.757869623650038,-0.2327424610290702,-0.27950965422900176,-0.9483188723163518
8.06697154045105,0.19312934560538725,-0.21305180084158282,0.7512029404992577,-0.22607579436240355,-0.2728429942112662,-0.941652141706286
8.087006092071533,0.19059126324877182,-0.20948281505552563,0.7445358362561227,-0.2194091276957369,-0.2661764961794579,-0.9349836798220639
8.107056379318237,0.18797318186295497,-0.2094828202952985,0.7378691256988709,-0.21274246102907024,-0.25950984644027586,-0.9283168354692416
8.127223253250122,0.18464009830216713,-0.21281617661962585,0.7345355960134152,-0.2094091276957369,-0.25617658628810197,-0.9249827024950995
8.147364377975464,0.1913072249354231,-0.2061495514938206,0.7278685773271648,-0.20274246102907026,-0.24951004817776784,-0.918314609081464
8.16741394996643,0.18464074389949012,-0.1994830576913628,0.7212017411826394,-0.1960752617352633,-0.24284288043740804,-0.9116475870385727
8.187499284744263,0.17797432036459154,-0.20614954396046184,0.7145349123652268,-0.1894092609274243,-0.23617694015257767,-0.9049798492746458
8.207561254501343,0.1813076233044756,-0.20281638726548837,0.7112015790318935,-0.18607534635426523,-0.23284297824065475,-0.9016468791697587
8.22771167755127,0.1813075449136085,-0.2028163810692787,0.7045349708099882,-0.17940867968759858,-0.2261762918783942,-0.8949804459722689
8.247737407684326,0.17464103712804782,-0.20281657993151847,0.6978681610972921,-0.1727414264724491,-0.21950898068426214,-0.8883135725872311
8.267778635025024,0.1679743553781453,-0.19688374931178632,0.6912014944306255,-0.1660744966443413,-0.21284214240027055,-0.8816471135638491
8.28788948059082,0.1646412269256655,-0.194544139968178,0.6878679889870419,-0.16274116331100796,-0.20950886328089058,-0.878313124686212
8.308042526245117,0.15797430190880157,-0.2012109650198131,0.6812014906020899,-0.1560739735617962,-0.2028415428917759,-0.871647441403449
8.328089237213135,0.15130759164667132,-0.19454460000321308,0.6745348239354233,-0.14940641679235844,-0.19617378921268538,-0.8649813182774411
8.348241329193115,0.14464066495364034,-0.20121140715038274,0.6678683230029566,-0.14273930423483755,-0.18950652674501084,-0.8583155587792668
8.368328094482422,0.14204148103767772,-0.1978780922978604,0.6645348103586565,-0.13940597090150422,-0.1861732447485213,-0.854981554747343
8.388521432876587,0.1363688851613938,-0.19787790689240525,0.6578679309115806,-0.1327398728019011,-0.1795074071484394,-0.8483137973711794
8.408520698547363,0.1297027600863213,-0.19787794147924997,0.6512008880032683,-0.12607320613523446,-0.17284084171993613,-0.8416457754454338
8.429052591323853,0.12303638213179972,-0.19221237842395136,0.6445340131800901,-0.11940698998736742,-0.16617500482686298,-0.83497815984339
8.449236392974854,0.11970302527117688,-0.1901137218014559,0.6412006798467568,-0.11607315203074693,-0.1628410872432872,-0.8316451591373474
8.46927285194397,0.11303655697896686,-0.18786728311163362,0.6345338579519545,-0.10940677545093745,-0.15617499872039475,-0.8249778410818321
8.489488124847412,0.1063701459840739,-0.18893390816474895,0.6278670010835965,-0.10274048957739595,-0.14950897993906317,-0.8183103409496993
8.509459018707275,0.09970391392104881,-0.1822672645811434,0.6212000149742762,-0.0960738229107293,-0.14284238720741255,-0.8116426227012555
8.529573917388916,0.09637055683533326,-0.17893419314382103,0.6178666816409429,-0.09273992303896941,-0.1395083364350213,-0.8083096500218225
8.54962706565857,0.08970362531282905,-0.1789344362322758,0.6112001821758472,-0.0860727164178037,-0.13284095648977254,-0.8016438734326764
8.569758653640747,0.0830372271118959,-0.1789346950464763,0.6045333250495273,-0.07940554526328267,-0.12617365861762456,-0.7949769220843105
8.590193510055542,0.07970387662120156,-0.17560159235529463,0.601199991716194,-0.07607176779378766,-0.12283974929260527,-0.7916438731437496
8.610369205474854,0.07303717913054014,-0.16893536877588475,0.5945333250495274,-0.06940427990299544,-0.11617204194699376,-0.7849777361830267
8.630404233932495,0.06637051368465335,-0.175602030256788,0.5878666583828608,-0.06273767548069097,-0.10950559015067574,-0.7783110701792422
8.65059232711792,0.0597040879454788,-0.16893562391477482,0.5811996806771318,-0.05607053144401355,-0.10283812399584545,-0.7716438717520795
8.670607089996338,0.05637099230760145,-0.16560229929145476,0.5778660445008433,-0.052737198110680214,-0.09950483952184018,-0.7683097939690734
8.6908118724823,0.0497045533600405,-0.16560214250912186,0.5711990830413513,-0.04607081183272652,-0.09283870339284682,-0.7616422723001366
8.710869312286377,0.04303809881936291,-0.16560234367655355,0.5645321343831933,-0.03940383862182461,-0.08617151611151097,-0.7549751171858448
8.730923414230347,0.036371356253037376,-0.16560234181611966,0.5578654155500794,-0.03273717195515794,-0.0795048546682753,-0.7483083820418175
8.751233339309692,0.03303826198077849,-0.16866711184820612,0.5545317476568768,-0.029403838621824607,-0.07617156380716507,-0.7449743655249718
8.771403312683105,0.03461334458137144,-0.16200044497493424,0.5478641811216011,-0.02273717195515794,-0.06950499163186934,-0.7383062230508828
8.791460275650024,0.02794697298355863,-0.1686668094671011,0.5411968295714755,-0.016070670628521452,-0.06283787084010199,-0.7316381309523083
8.81153917312622,0.02128044037530382,-0.162000562519592,0.5345295038662633,-0.009403566168615488,-0.05617051762970868,-0.7249707590431999
8.831611394882202,0.014613956480934373,-0.15533389925291108,0.5278615565603073,-0.0027368995019488207,-0.0495039553450519,-0.7183023780518134
8.851730823516846,0.011280417259312427,-0.1586672294564753,0.5245286501220753,0.0005964338313845128,-0.046170586917065506,-0.7149696391683759
8.871927976608276,0.004613989307519701,-0.15866723267228683,0.5178608451161146,0.00726310049805118,-0.039503998942938254,-0.7083016377028394
8.891968727111816,-0.002052804224584006,-0.1520005649621338,0.5111930076609554,0.013929767164717848,-0.03283739689152532,-0.701633901224418
8.912307262420654,-0.005386241409327343,-0.14866723090438044,0.5078591045402039,0.01726310049805118,-0.029504090795357797,-0.6983001225278564
8.932267665863037,-0.012053009936716064,-0.15533318697971457,0.501191890416955,0.023929521216919408,-0.02283722040561217,-0.6916328308627985
8.952323913574219,-0.012578107934928426,-0.14866682759250735,0.4945246881229967,0.030596070241008348,-0.016172065753687438,-0.6849661320963963
8.972424745559692,-0.019245043601850434,-0.14200017788759275,0.487857503687949,0.03726289314113583,-0.009504368787102847,-0.6782992808734597
8.992942333221436,-0.0259119904127956,-0.14866622402481963,0.48119033836757075,0.04392962261102684,-0.002836554626042077,-0.6716324113532404
9.013038396835327,-0.029245282154821226,-0.14533369924060324,0.4778570050342374,0.04726275901634945,0.0004947323200275369,-0.6682992515476449
9.033113479614258,-0.03591191256866883,-0.13866767577578457,0.4711903383675707,0.05392924606370222,0.007159877287352977,-0.6616326797582862
9.053188562393188,-0.042578539735891936,-0.1320016366090655,0.464523671700904,0.060595666616014836,0.013824895838729166,-0.6549660689472672
9.073264122009277,-0.04591185213446881,-0.12866861162310733,0.4611903383675706,0.06392885301263536,0.017157360844201813,-0.6516327494622727
9.093473672866821,-0.05257850980880363,-0.13533537881021587,0.4545236717009039,0.07059558340468325,0.010491107517433436,-0.6582993841486995
9.113671779632568,-0.05924513971292138,-0.14200250220628513,0.4611903383675706,0.06392863666871308,0.01715578625255912,-0.6649661256501589
9.133687257766724,-0.06591176423170787,-0.14866977905819578,0.4678570050342373,0.05726165415487192,0.02382063790941773,-0.6716327942796725
9.153939962387085,-0.0692451061870736,-0.15200296958288384,0.464523671700904,0.05392846223612745,0.020488209389361304,-0.6749661032461768
9.173883199691772,-0.07591174762968832,-0.15867008788631087,0.45785700503423726,0.04726138473314842,0.020485215173074264,-0.6749662129111674
9.193969249725342,-0.08257838904211076,-0.1653373338769698,0.45119033836757055,0.040594465441056306,0.027150618918072435,-0.6682994950460182
9.214012145996094,-0.08699508742412426,-0.1720043357087953,0.44452367170090384,0.033927514269793534,0.03381515742513907,-0.661632874833972
9.234119892120361,-0.08797012033126335,-0.1753379514984761,0.4411903383675705,0.03059398763568971,0.037147405196164864,-0.658299511663815
9.254201650619507,-0.08130344816206367,-0.18200491803777066,0.4345236717009038,0.03726036967010246,0.04381203775018325,-0.6516328544959606
9.27432107925415,-0.07463676896539491,-0.18867212680053572,0.42785700503423707,0.04392664875093799,0.05047690624124446,-0.6449660432596992
9.294352054595947,-0.067970086061476,-0.19533932819902333,0.42119033836757036,0.050592893672720976,0.05714143417077162,-0.638299224172665
9.314573287963867,-0.06463674321890693,-0.19867292655439195,0.417857005034237,0.05392600526146481,0.060473565270474636,-0.634965812575981
9.334546566009521,-0.05797005711810178,-0.19867338179888813,0.4111903383675703,0.060592231816631814,0.06713665152439637,-0.6282991062180495
9.35463261604309,-0.05797004712209242,-0.19200694616154335,0.4045236717009036,0.06725872628306646,0.07380333489724986,-0.6216322667347095
9.375072002410889,-0.06130336659547254,-0.18867386714413564,0.40119033836757023,0.070591804860102,0.0771353225713788,-0.6182988296163048
9.395216703414917,-0.06401835899623834,-0.18200754712320333,0.3945236717009035,0.07725800883482738,0.08379738731230428,-0.6116322154581464
9.415267944335938,-0.057351669877134755,-0.17534118575599603,0.3878570050342368,0.08392427019096119,0.09046074903091361,-0.6049655168749454
9.435447931289673,-0.06401832232767114,-0.18200804773815843,0.3811903383675701,0.09059073481622824,0.09712729323525472,-0.5982986580936882
9.455518007278442,-0.0573516285019871,-0.17534168526526703,0.3745236717009034,0.09725699010905607,0.10379074066334137,-0.5916319201571656
9.475587606430054,-0.06068496819162974,-0.17867496307718897,0.37119033836757004,0.10059042047491927,0.10712552146358466,-0.5882985311338651
9.495760440826416,-0.06735159508246107,-0.17867537005240208,0.36452367170090333,0.10725654368398606,0.10712187025824345,-0.5816316874978398
9.515864610671997,-0.07401821802499124,-0.1720090949480137,0.36452367170090333,0.11392269558514397,0.10327205889579937,-0.5816316093014047
9.535890579223633,-0.08068486395952054,-0.17200928222235326,0.37119033836757004,0.11392247070644415,0.09947711318406538,-0.5882981502796627
9.556365251541138,-0.08401816764073594,-0.17534286783963696,0.3745236717009034,0.11058881938436829,0.09614180523961573,-0.5916313752456334
9.576471328735352,-0.0906847967054074,-0.18200986751982676,0.3811903383675701,0.10392171200414642,0.10280481024480208,-0.5982979878602948
9.596587419509888,-0.09735145388011161,-0.1886766578255678,0.3745236717009034,0.0972549048582177,0.10947160232519579,-0.6049644957466309
9.616681814193726,-0.10401807506158624,-0.19534383735814217,0.3678570050342367,0.10392090430625125,0.11613478468917779,-0.5982974986709167
9.63672399520874,-0.09735137588682069,-0.2020108102900985,0.36119033836757,0.11058717108061641,0.12279761637689075,-0.591630766602641
9.65682339668274,-0.09401801496279108,-0.20534440348568028,0.3578570050342366,0.11392017059228221,0.12612844553834668,-0.5882973063716223
